ramyac6/ROB537/final_project/csv/test/bad/bad_115.csv
tof_0,tof_1,accelx,accely,accelz,gyrox,gyroy,gyroz,shoulder_lift_joint_position,shoulder_lift_joint_velocity,shoulder_lift_joint_effort,elbow_joint_position,elbow_joint_velocity,elbow_joint_effort,wrist_1_joint_position,wrist_1_joint_velocity,wrist_1_joint_effort,wrist_2_joint_position,wrist_2_joint_velocity,wrist_2_joint_effort,wrist_3_joint_position,wrist_3_joint_velocity,wrist_3_joint_effort,shoulder_pan_joint_position,shoulder_pan_joint_velocity,shoulder_pan_joint_effort
379.0,365.0,-0.3667,-0.3021,9.5641,-0.038,0.0267,-0.1168,-1.6357313595213832,0.0,2.3407914638519287,-1.8733294010162354,-0.0,2.044739007949829,4.990363198309698,0.0,0.28213995695114136,-1.5694144407855433,-0.0,-0.0027931053191423416,1.067460060119629,-0.0,-0.00586236547678709,0.7526127099990845,0.0,-0.03887249529361725
379.0,365.0,-0.3667,-0.3021,9.5641,-0.038,0.0267,-0.1168,-1.6356708012022914,0.0,2.32108736038208,-1.8733457326889038,-0.0,2.0550527572631836,4.990343290358343,0.0,0.2860787510871887,-1.5694621245013636,-0.0,-0.005314098205417395,1.0674521923065186,-0.0,0.005949562881141901,0.7525522708892822,0.0,0.0014405931578949094
379.0,365.0,-0.3667,-0.3021,9.5641,-0.038,0.0267,-0.1168,-1.6357108555235804,0.0,2.3424317836761475,-1.8733210563659668,-0.0,2.102443218231201,4.990304010897436,0.0,0.2823569178581238,-1.5694144407855433,-0.0,-0.01369562093168497,1.06741201877594,-0.0,0.0031100306659936905,0.7526610493659973,0.0,0.01622597686946392
379.0,365.0,-0.3667,-0.3021,9.5641,-0.038,0.0267,-0.1168,-1.6357227764525355,0.0,2.3300764560699463,-1.873300552368164,-0.0,2.0595285892486572,4.990303653269567,0.0,0.27469244599342346,-1.569470230733053,-0.0,-0.001486455905251205,1.0674521923065186,-0.0,-0.0031952918507158756,0.7526288628578186,0.0,0.011375040747225285
379.0,365.0,-0.3667,-0.3021,9.5641,-0.038,0.0267,-0.1168,-1.6357151470580042,0.0,2.3721776008605957,-1.8732889890670776,-0.0,2.1206648349761963,4.990319835930624,0.0,0.28282010555267334,-1.5694382826434534,-0.0,-0.004573347046971321,1.0674362182617188,-0.0,-0.006316738203167915,0.7525927424430847,0.0,-0.0019554942846298218
379.0,365.0,-0.3667,-0.3021,9.5641,-0.038,0.0267,-0.1168,-1.635707517663473,0.0,2.3578929901123047,-1.873284935951233,-0.0,2.1114253997802734,4.99033539274291,0.0,0.297640323638916,-1.5694540182696741,-0.0,-0.00750868022441864,1.0674480199813843,-0.0,-0.005497491918504238,0.7525886297225952,0.0,-0.00811273418366909
379.0,365.0,-0.3667,-0.3021,9.5641,-0.038,0.0267,-0.1168,-1.6357270679869593,0.0,2.328934669494629,-1.8733457326889038,-0.0,2.081235647201538,4.990304010897436,0.0,0.27665001153945923,-1.569390122090475,-0.0,-0.01999220997095108,1.067412257194519,-0.0,0.006044620182365179,0.7526569962501526,0.0,-0.007698106113821268
367.0,357.0,-0.3218,-0.2991,9.594,-0.0402,0.0263,-0.1232,-1.6356989345946253,0.0,2.3091583251953125,-1.8733497858047485,-0.0,2.103295087814331,4.99032740572051,0.0,0.292077898979187,-1.5694502035724085,-0.0,-0.01168525405228138,1.067444086074829,-0.0,0.0017906888388097286,0.7525886297225952,0.0,0.01903434656560421
367.0,357.0,-0.3218,-0.2991,9.594,-0.0402,0.0263,-0.1232,-1.6357313595213832,0.0,2.3235208988189697,-1.873265266418457,-0.0,2.0639424324035645,4.9903394160564325,0.0,0.27523013949394226,-1.5694025198565882,-0.0,-0.004150547552853823,1.0674760341644287,-0.0,0.004186769016087055,0.7526209950447083,0.0,0.013867051340639591
367.0,357.0,-0.3218,-0.2991,9.594,-0.0402,0.0263,-0.1232,-1.6356870136656703,0.0,2.3382420539855957,-1.873265266418457,-0.0,2.082752227783203,4.9903079746063135,0.0,0.2866256833076477,-1.5694344679461878,-0.0,0.0042145149782299995,1.0674201250076294,-0.0,-0.005928890313953161,0.7525642514228821,0.0,0.03503548353910446
367.0,357.0,-0.3218,-0.2991,9.594,-0.0402,0.0263,-0.1232,-1.6357151470580042,0.0,2.3321735858917236,-1.8732725381851196,-0.0,2.086336851119995,4.990343290358343,0.0,0.2889081835746765,-1.5695017019854944,-0.0,-0.013695712201297283,1.067460298538208,-0.0,0.004771338775753975,0.7526289224624634,0.0,-0.0019313590601086617
367.0,357.0,-0.3218,-0.2991,9.594,-0.0402,0.0263,-0.1232,-1.6356989345946253,0.0,2.351132869720459,-1.873305320739746,-0.0,2.064523458480835,4.990331458836355,0.0,0.2851810157299042,-1.5694382826434534,-0.0,-0.0025991639122366905,1.0674761533737183,-0.0,0.0003181736683472991,0.752616822719574,0.0,0.021659506484866142
367.0,357.0,-0.3218,-0.2991,9.594,-0.0402,0.0263,-0.1232,-1.6357432804503382,0.0,2.308945894241333,-1.8733128309249878,-0.0,2.0481786727905273,4.9903235314186,0.0,0.2922567129135132,-1.569442097340719,-0.0,-0.016834579408168793,1.0674797296524048,-0.0,-0.003131282050162554,0.7526088953018188,0.0,0.009477728046476841
367.0,357.0,-0.3218,-0.2991,9.594,-0.0402,0.0263,-0.1232,-1.6357394657530726,0.0,2.3340792655944824,-1.8733539581298828,-0.0,2.050222396850586,4.9903394160564325,0.0,0.2676146328449249,-1.5694344679461878,-0.0,-0.0034059935715049505,1.0674641132354736,-0.0,-0.001020105555653572,0.7525965571403503,0.0,0.014850424602627754
367.0,357.0,-0.3218,-0.2991,9.594,-0.0402,0.0263,-0.1232,-1.6357351742186488,0.0,2.3368585109710693,-1.8732930421829224,-0.0,2.0839180946350098,4.990303653269567,0.0,0.28818479180336,-1.5694945494281214,-0.0,0.00847408827394247,1.0674681663513184,-0.0,0.015821434557437897,0.7526127099990845,0.0,0.03005748614668846
367.0,357.0,-0.3218,-0.2991,9.594,-0.0402,0.0263,-0.1232,-1.6357032261290492,0.0,2.38020396232605,-1.873265266418457,-0.0,2.065300464630127,4.990375357657232,0.0,0.28969404101371765,-1.5694659391986292,-0.0,-0.006523437332361937,1.0673919916152954,-0.0,-0.0005023338599130511,0.7526453733444214,0.0,0.029677052050828934
367.0,357.0,-0.3218,-0.2991,9.594,-0.0402,0.0263,-0.1232,-1.6357394657530726,0.0,2.341398239135742,-1.8732725381851196,-0.0,2.042485475540161,4.990311848908224,0.0,0.27986156940460205,-1.569486443196432,-0.0,-0.009024066850543022,1.0674562454223633,-0.0,-0.008460815995931625,0.7525886297225952,0.0,0.053232889622449875
367.0,357.0,-0.3218,-0.2991,9.594,-0.0402,0.0263,-0.1232,-1.6357032261290492,0.0,2.331820487976074,-1.873265266418457,-0.0,2.0695130825042725,4.990347313671865,0.0,0.2664724290370941,-1.5694502035724085,-0.0,-0.007621255703270435,1.0674079656600952,-0.0,0.0019641488324850798,0.7526209950447083,0.0,-0.014606126584112644
367.0,357.0,-0.3218,-0.2991,9.594,-0.0402,0.0263,-0.1232,-1.6357232532896937,0.0,2.355626106262207,-1.8733333349227905,-0.0,2.0595412254333496,4.990271943598547,0.0,0.29704514145851135,-1.569430176411764,-0.0,-0.008562692441046238,1.0674443244934082,-0.0,0.015368646010756493,0.7525886297225952,0.0,-0.037740644067525864
368.0,373.0,-0.3434,-0.283,9.5103,-0.0353,0.0224,-0.1159,-1.6356831989684046,0.0,2.3549938201904297,-1.873257040977478,-0.0,2.0722579956054688,4.990304010897436,0.0,0.29114532470703125,-1.5694263617144983,-0.0,-0.018848953768610954,1.0675127506256104,-0.0,-0.001397846033796668,0.7525641918182373,0.0,0.0003629866987466812
368.0,373.0,-0.3434,-0.283,9.5103,-0.0353,0.0224,-0.1159,-1.6357394657530726,0.0,2.3634371757507324,-1.8733210563659668,-0.0,2.070460319519043,4.990343290358343,0.0,0.2849346995353699,-1.5694540182696741,-0.0,-0.012501956894993782,1.0674560070037842,-0.0,-0.0027744057588279247,0.7525804042816162,0.0,0.019623281434178352
368.0,373.0,-0.3434,-0.283,9.5103,-0.0353,0.0224,-0.1159,-1.6357351742186488,0.0,2.3480584621429443,-1.8732889890670776,-0.0,2.033381462097168,4.990295666247167,0.0,0.28320860862731934,-1.5694463888751429,-0.0,-0.005220167338848114,1.0674279928207397,-0.0,-0.0008644884801469743,0.752552330493927,0.0,-0.021229103207588196
368.0,373.0,-0.3434,-0.283,9.5103,-0.0353,0.0224,-0.1159,-1.6357108555235804,0.0,2.338143825531006,-1.873305320739746,-0.0,2.070171356201172,4.9903235314186,0.0,0.2864520847797394,-1.5694540182696741,-0.0,-0.017603721469640732,1.0675042867660522,-0.0,0.003129743505269289,0.7526292204856873,0.0,-0.0071915071457624435
368.0,373.0,-0.3434,-0.283,9.5103,-0.0353,0.0224,-0.1159,-1.6357270679869593,0.0,2.3306965827941895,-1.8733457326889038,-0.0,2.050346851348877,4.990323799639501,0.0,0.2809925675392151,-1.5694382826434534,-0.0,-0.0020287479273974895,1.067432165145874,-0.0,0.011324877850711346,0.7526288628578186,0.0,0.022321583703160286
368.0,373.0,-0.3434,-0.283,9.5103,-0.0353,0.0224,-0.1159,-1.6357151470580042,0.0,2.3403420448303223,-1.8732889890670776,-0.0,2.0589470863342285,4.990311848908224,0.0,0.28617388010025024,-1.5694659391986292,-0.0,-0.015031557530164719,1.0674402713775635,-0.0,-0.013228543102741241,0.7525886297225952,0.0,-0.05251913145184517
368.0,373.0,-0.3434,-0.283,9.5103,-0.0353,0.0224,-0.1159,-1.6356951198973597,0.0,2.31916880607605,-1.873265266418457,-0.0,2.067516565322876,4.9903079746063135,0.0,0.2882732152938843,-1.5694344679461878,-0.0,-0.004746904131025076,1.0674846172332764,-0.0,0.0029514427296817303,0.7526006698608398,0.0,-0.05701277405023575
368.0,373.0,-0.3434,-0.283,9.5103,-0.0353,0.0224,-0.1159,-1.6357470951476039,0.0,2.3817126750946045,-1.8733086585998535,-0.0,2.0831542015075684,4.990355300694265,0.0,0.2823658287525177,-1.5694502035724085,-0.0,-0.003332402789965272,1.067496418952942,-0.0,0.008312361314892769,0.7526006698608398,0.0,-0.040057793259620667
368.0,373.0,-0.3434,-0.283,9.5103,-0.0353,0.0224,-0.1159,-1.6357351742186488,0.0,2.3396308422088623,-1.8733571767807007,-0.0,2.0847835540771484,4.9903394160564325,0.0,0.2981441020965576,-1.5693863073932093,-0.0,-0.023761825636029243,1.067444086074829,-0.0,0.0028597135096788406,0.7525804042816162,0.0,0.025509033352136612
368.0,373.0,-0.3434,-0.283,9.5103,-0.0353,0.0224,-0.1159,-1.6357032261290492,0.0,2.386873245239258,-1.8732889890670776,-0.0,2.087374687194824,4.9903354225452325,0.0,0.271176278591156,-1.5694344679461878,-0.0,-0.013536917977035046,1.0674362182617188,-0.0,-0.0005757799372076988,0.7525683045387268,0.0,0.013379975222051144
368.0,373.0,-0.3434,-0.283,9.5103,-0.0353,0.0224,-0.1159,-1.6357032261290492,0.0,2.3295063972473145,-1.8733210563659668,-0.0,2.090881824493408,4.990347313671865,0.0,0.31010866165161133,-1.5694225470172327,-0.0,-0.0036691739223897457,1.067460060119629,-0.0,-0.006574432365596294,0.7526004314422607,0.0,-0.016968490555882454
368.0,373.0,-0.3434,-0.283,9.5103,-0.0353,0.0224,-0.1159,-1.6356870136656703,0.0,2.360713481903076,-1.8732693195343018,-0.0,2.057617664337158,4.990315961628713,0.0,0.2841629087924957,-1.5694778601275843,-0.0,0.0002820049412548542,1.067444086074829,-0.0,-0.0012621823698282242,0.752616822719574,0.0,0.039952352643013
361.0,356.0,-0.3302,-0.2937,9.7813,-0.0308,0.0244,-0.1168,-1.635719438592428,0.0,2.3776535987854004,-1.8733291625976562,-0.0,2.0916695594787598,4.99033539274291,0.0,0.2862696051597595,-1.5694344679461878,-0.0,-0.0034637057688087225,1.0674558877944946,-0.0,-0.0003064905758947134,0.7526289224624634,0.0,-0.021461861208081245
361.0,356.0,-0.3302,-0.2937,9.7813,-0.0308,0.0244,-0.1168,-1.6357432804503382,0.0,2.317479372024536,-1.8733251094818115,-0.0,2.0608747005462646,4.990355300694265,0.0,0.27845051884651184,-1.5694621245013636,-0.0,-0.008887146599590778,1.0674481391906738,-0.0,-0.011361153796315193,0.7525564432144165,0.0,0.03181831166148186
361.0,356.0,-0.3302,-0.2937,9.7813,-0.0308,0.0244,-0.1168,-1.635719438592428,0.0,2.3565306663513184,-1.873288869857788,-0.0,2.0642051696777344,4.990304010897436,0.0,0.28145843744277954,-1.5694540182696741,-0.0,-0.007210058160126209,1.0674879550933838,-0.0,-0.0035104146227240562,0.7525965571403503,0.0,0.039723996073007584
361.0,356.0,-0.3302,-0.2937,9.7813,-0.0308,0.0244,-0.1168,-1.635690828362936,0.0,2.325709819793701,-1.873305320739746,-0.0,2.0810279846191406,4.990323561220922,0.0,0.28160542249679565,-1.5694382826434534,-0.0,-0.021460313349962234,1.0674283504486084,-0.0,-0.010190964676439762,0.7525762319564819,0.0,-0.009682045318186283
361.0,356.0,-0.3302,-0.2937,9.7813,-0.0308,0.0244,-0.1168,-1.6356789074339808,0.0,2.3453872203826904,-1.8733415603637695,-0.0,2.095390558242798,4.990343349962988,0.0,0.28662770986557007,-1.5694382826434534,-0.0,-0.001992220291867852,1.0674562454223633,-0.0,0.0044946190901100636,0.7525883316993713,0.0,-0.0031371465884149075
361.0,356.0,-0.3302,-0.2937,9.7813,-0.0308,0.0244,-0.1168,-1.6357346973814906,0.0,2.3392531871795654,-1.8733086585998535,-0.0,2.065976142883301,4.990307944803991,0.0,0.28295427560806274,-1.5694502035724085,-0.0,-0.016612617298960686,1.0674402713775635,-0.0,-0.0043387645855546,0.7526209354400635,0.0,-0.006055167876183987
361.0,356.0,-0.3302,-0.2937,9.7813,-0.0308,0.0244,-0.1168,-1.635719438592428,0.0,2.3316092491149902,-1.87327241897583,-0.0,2.048412561416626,4.990240233927526,0.0,0.2931155264377594,-1.5694025198565882,-0.0,-0.004694470204412937,1.0673918724060059,-0.0,-0.002995759714394808,0.7525844573974609,0.0,-0.05082666128873825
361.0,356.0,-0.3302,-0.2937,9.7813,-0.0308,0.0244,-0.1168,-1.6356789074339808,0.0,2.3512582778930664,-1.8733292818069458,-0.0,2.058487892150879,4.990291791945257,0.0,0.280705064535141,-1.5694344679461878,-0.0,0.0011590552749112248,1.067387580871582,-0.0,-0.00797580648213625,0.7525641918182373,0.0,-0.05026433244347572
361.0,356.0,-0.3302,-0.2937,9.7813,-0.0308,0.0244,-0.1168,-1.6356951198973597,0.0,2.3228256702423096,-1.8732807636260986,-0.0,2.064906358718872,4.990291762142935,0.0,0.28121861815452576,-1.5694263617144983,-0.0,-2.4117762222886086e-05,1.0674562454223633,-0.0,-0.002531488426029682,0.7525965571403503,0.0,-0.009679692797362804
361.0,356.0,-0.3302,-0.2937,9.7813,-0.0308,0.0244,-0.1168,-1.635690828362936,0.0,2.397169589996338,-1.8733128309249878,-0.0,2.0808498859405518,4.990327435522833,0.0,0.2899617552757263,-1.5694502035724085,-0.0,-0.005403328686952591,1.067460060119629,-0.0,0.00790172815322876,0.7526006698608398,0.0,-0.01677585393190384
361.0,356.0,-0.3302,-0.2937,9.7813,-0.0308,0.0244,-0.1168,-1.6357151470580042,0.0,2.3994879722595215,-1.8733046054840088,-0.0,2.1118757724761963,4.990296053677358,0.0,0.28511613607406616,-1.5694502035724085,-0.0,0.0007819621823728085,1.0674760341644287,-0.0,0.0011783463414758444,0.7525765299797058,0.0,-0.016197865828871727
361.0,356.0,-0.3302,-0.2937,9.7813,-0.0308,0.0244,-0.1168,-1.6357470951476039,0.0,2.343621015548706,-1.8733497858047485,-0.0,2.0399601459503174,4.990295666247167,0.0,0.289579302072525,-1.5694344679461878,-0.0,-0.011297917924821377,1.067516565322876,-0.0,-0.013142682611942291,0.7526572942733765,0.0,-0.0015226122923195362
361.0,356.0,-0.3302,-0.2937,9.7813,-0.0308,0.0244,-0.1168,-1.6357270679869593,0.0,2.335416316986084,-1.873248815536499,-0.0,2.0745468139648438,4.990331458836355,0.0,0.27752265334129333,-1.5694463888751429,-0.0,-0.007441660389304161,1.0674160718917847,-0.0,0.0009551752591505647,0.75258868932724,0.0,-0.015378708951175213
373.0,348.0,-0.3153,-0.3266,9.5779,-0.0411,0.0199,-0.1156,-1.6356870136656703,0.0,2.365642547607422,-1.8733415603637695,-0.0,2.0224571228027344,4.99032740572051,0.0,0.2950344383716583,-1.5694740454303187,-0.0,0.002900919644162059,1.0674480199813843,-0.0,-0.008994310162961483,0.7525965571403503,0.0,-0.02196010760962963
373.0,348.0,-0.3153,-0.3266,9.5779,-0.0411,0.0199,-0.1156,-1.6357227764525355,0.0,2.3145837783813477,-1.873284935951233,-0.0,2.0747785568237305,4.990315902024069,0.0,0.2836066782474518,-1.5694502035724085,-0.0,-0.004255286417901516,1.0674562454223633,-0.0,-0.008070720359683037,0.7525968551635742,0.0,-0.006870178505778313
373.0,348.0,-0.3153,-0.3266,9.5779,-0.0411,0.0199,-0.1156,-1.6357270679869593,0.0,2.354466199874878,-1.8733086585998535,-0.0,1.990639090538025,4.9903394160564325,0.0,0.28060975670814514,-1.569458309804098,-0.0,-0.0011402107775211334,1.067423939704895,-0.0,0.002038423204794526,0.7525927424430847,0.0,0.0015570996329188347
373.0,348.0,-0.3153,-0.3266,9.5779,-0.0411,0.0199,-0.1156,-1.635719438592428,0.0,2.3508641719818115,-1.8732889890670776,-0.0,2.0658721923828125,4.990303623467245,0.0,0.2899884879589081,-1.5694144407855433,-0.0,-0.004692355636507273,1.0674362182617188,-0.0,-0.010423397645354271,0.7526168823242188,0.0,-0.024588674306869507
373.0,348.0,-0.3153,-0.3266,9.5779,-0.0411,0.0199,-0.1156,-1.6357270679869593,0.0,2.3453569412231445,-1.8732889890670776,-0.0,2.0400795936584473,4.99029968956069,0.0,0.292715847492218,-1.5694502035724085,-0.0,-0.018814176321029663,1.0674481391906738,-0.0,-0.006302147638052702,0.7526412606239319,0.0,-0.0018273890018463135
373.0,348.0,-0.3153,-0.3266,9.5779,-0.0411,0.0199,-0.1156,-1.6357552013792933,0.0,2.3388280868530273,-1.8732807636260986,-0.0,2.0855367183685303,4.990331488638677,0.0,0.2919820547103882,-1.5694659391986292,-0.0,-0.007635916583240032,1.0674402713775635,-0.0,-0.004240639507770538,0.7526006102561951,0.0,0.021218368783593178
373.0,348.0,-0.3153,-0.3266,9.5779,-0.0411,0.0199,-0.1156,-1.6357189617552699,0.0,2.345780611038208,-1.8732208013534546,-0.0,2.0260605812072754,4.990291762142935,0.0,0.2809472978115082,-1.5694502035724085,-0.0,-0.011738319881260395,1.067460060119629,-0.0,0.016421247273683548,0.7525804042816162,0.0,-0.02780662477016449
373.0,348.0,-0.3153,-0.3266,9.5779,-0.0411,0.0199,-0.1156,-1.6357108555235804,0.0,2.3437018394470215,-1.8733292818069458,-0.0,2.095435857772827,4.990319567709722,0.0,0.2934451103210449,-1.569470230733053,-0.0,-0.010913396254181862,1.067508578300476,-0.0,0.00021282769739627838,0.7525845170021057,0.0,0.01051315013319254
373.0,348.0,-0.3153,-0.3266,9.5779,-0.0411,0.0199,-0.1156,-1.6357675991454066,0.0,2.3649845123291016,-1.873268485069275,-0.0,2.09738826751709,4.9903235314186,0.0,0.282944917678833,-1.5694463888751429,-0.0,-0.002901016967371106,1.0673959255218506,-0.0,-0.005249942187219858,0.7526209354400635,0.0,-0.03742314130067825
373.0,348.0,-0.3153,-0.3266,9.5779,-0.0411,0.0199,-0.1156,-1.635686536828512,0.0,2.323838949203491,-1.873248815536499,-0.0,2.0172739028930664,4.990311878710546,0.0,0.2889704406261444,-1.5694344679461878,-0.0,0.0002637297147884965,1.0674760341644287,-0.0,-0.005541837774217129,0.7525844573974609,0.0,0.0066979797556996346
373.0,348.0,-0.3153,-0.3266,9.5779,-0.0411,0.0199,-0.1156,-1.6357108555235804,0.0,2.3387036323547363,-1.8733046054840088,-0.0,2.1008963584899902,4.990331458836355,0.0,0.30059459805488586,-1.5694659391986292,-0.0,-0.006114755757153034,1.0673960447311401,-0.0,0.005019363947212696,0.7526251077651978,0.0,0.03893153369426727
373.0,348.0,-0.3153,-0.3266,9.5779,-0.0411,0.0199,-0.1156,-1.6357313595213832,0.0,2.319497585296631,-1.8732733726501465,-0.0,2.0255794525146484,4.990271943598547,0.0,0.276481568813324,-1.5694063345538538,-0.0,-0.010028901509940624,1.0674402713775635,-0.0,0.009520928375422955,0.7525845170021057,0.0,0.006851252168416977
383.0,378.0,-0.3888,-0.3009,9.5934,-0.035,0.0209,-0.1237,-1.6357151470580042,0.0,2.2552356719970703,-1.873317003250122,-0.0,2.0641865730285645,4.990303653269567,0.0,0.28606098890304565,-1.5694382826434534,-0.0,-0.014002113603055477,1.0674078464508057,-0.0,0.005925117991864681,0.7525965571403503,0.0,-0.020170478150248528
383.0,378.0,-0.3888,-0.3009,9.5934,-0.035,0.0209,-0.1237,-1.6357032261290492,0.0,2.3464195728302,-1.8733046054840088,-0.0,2.07478666305542,4.9903235314186,0.0,0.2962576746940613,-1.5694144407855433,-0.0,0.002688131993636489,1.0674443244934082,-0.0,-0.006067827809602022,0.7526448965072632,0.0,-0.006402552127838135
383.0,378.0,-0.3888,-0.3009,9.5934,-0.035,0.0209,-0.1237,-1.6357313595213832,0.0,2.3166708946228027,-1.873317003250122,-0.0,2.103501081466675,4.990283804922857,0.0,0.28244149684906006,-1.569430176411764,-0.0,0.0011930684559047222,1.067460060119629,-0.0,0.009286874905228615,0.7526088953018188,0.0,0.022473111748695374
383.0,378.0,-0.3888,-0.3009,9.5934,-0.035,0.0209,-0.1237,-1.6357313595213832,0.0,2.324808120727539,-1.873369574546814,-0.0,2.049359083175659,4.990283804922857,0.0,0.3004857897758484,-1.5694540182696741,-0.0,-0.01574947126209736,1.0674160718917847,-0.0,-0.008553174324333668,0.7525641918182373,0.0,-0.0009061106247827411
383.0,378.0,-0.3888,-0.3009,9.5934,-0.035,0.0209,-0.1237,-1.6357070408263148,0.0,2.3639326095581055,-1.8732889890670776,-0.0,2.06538462638855,4.9903354225452325,0.0,0.281326562166214,-1.569430176411764,-0.0,-0.005858313292264938,1.0674800872802734,-0.0,0.001935828011482954,0.7526047825813293,0.0,-0.0038916654884815216
383.0,378.0,-0.3888,-0.3009,9.5934,-0.035,0.0209,-0.1237,-1.6357227764525355,0.0,2.3279731273651123,-1.8732610940933228,-0.0,2.0314297676086426,4.990331458836355,0.0,0.286962628364563,-1.5694382826434534,-0.0,0.0025988933630287647,1.06741201877594,-0.0,-0.0017734449356794357,0.7526006698608398,0.0,-0.0004897210747003555
383.0,378.0,-0.3888,-0.3009,9.5934,-0.035,0.0209,-0.1237,-1.6357151470580042,0.0,2.3368546962738037,-1.8733210563659668,-0.0,2.0697474479675293,4.9902758477027795,0.0,0.28777122497558594,-1.5694463888751429,-0.0,-0.010040073655545712,1.0674207210540771,-0.0,0.009885803796350956,0.7525886297225952,0.0,0.026564978063106537
383.0,378.0,-0.3888,-0.3009,9.5934,-0.035,0.0209,-0.1237,-1.6356989345946253,0.0,2.355612277984619,-1.8732930421829224,-0.0,2.0826587677001953,4.9902758477027795,0.0,0.29080602526664734,-1.5693987051593226,-0.0,-0.007111416198313236,1.0674641132354736,-0.0,-0.0011880178935825825,0.7526044845581055,0.0,0.00010512722656130791
383.0,378.0,-0.3888,-0.3009,9.5934,-0.035,0.0209,-0.1237,-1.6357351742186488,0.0,2.381471872329712,-1.873305320739746,-0.0,2.075547456741333,4.9903235314186,0.0,0.290366530418396,-1.569442097340719,-0.0,-0.013702087104320526,1.0674641132354736,-0.0,-0.009109504520893097,0.7525765895843506,0.0,0.03379308804869652
383.0,378.0,-0.3888,-0.3009,9.5934,-0.035,0.0209,-0.1237,-1.6357151470580042,0.0,2.31752347946167,-1.8732765913009644,-0.0,2.0985121726989746,4.990311550885,0.0,0.27601444721221924,-1.5694263617144983,-0.0,-0.007609458640217781,1.0674000978469849,-0.0,-0.0008936511003412306,0.7526048421859741,0.0,0.02069653943181038
383.0,378.0,-0.3888,-0.3009,9.5934,-0.035,0.0209,-0.1237,-1.6356989345946253,0.0,2.3456811904907227,-1.8733415603637695,-0.0,2.05381441116333,4.990319567709722,0.0,0.29370245337486267,-1.5694063345538538,-0.0,-0.007083625998347998,1.0674920082092285,-0.0,0.010750091634690762,0.7525765895843506,0.0,0.04083181917667389
383.0,378.0,-0.3888,-0.3009,9.5934,-0.035,0.0209,-0.1237,-1.6356989345946253,0.0,2.3140971660614014,-1.873300552368164,-0.0,2.046640634536743,4.990307944803991,0.0,0.2853301763534546,-1.5694740454303187,-0.0,-0.01849205046892166,1.0674443244934082,-0.0,0.000832774443551898,0.7525765895843506,0.0,-0.0011517149396240711
352.0,373.0,-0.3535,-0.3003,9.7077,-0.0423,0.0255,-0.1205,-1.6357313595213832,0.0,2.318924903869629,-1.8732889890670776,-0.0,2.053311347961426,4.990331458836355,0.0,0.2845246195793152,-1.5694382826434534,-0.0,-0.020227788016200066,1.0674800872802734,-0.0,0.003416399471461773,0.7525803446769714,0.0,-0.04048582911491394
352.0,373.0,-0.3535,-0.3003,9.7077,-0.0423,0.0255,-0.1205,-1.6357108555235804,0.0,2.3181538581848145,-1.8732889890670776,-0.0,2.059243679046631,4.990315812617101,0.0,0.2824741303920746,-1.569430176411764,-0.0,-0.011741247959434986,1.0674681663513184,-0.0,-0.00035732099786400795,0.7525642514228821,0.0,0.0007537762867286801
352.0,373.0,-0.3535,-0.3003,9.7077,-0.0423,0.0255,-0.1205,-1.6357270679869593,0.0,2.3467483520507812,-1.8732930421829224,-0.0,2.0354490280151367,4.990311878710546,0.0,0.28291261196136475,-1.5694659391986292,-0.0,-0.0015408522449433804,1.0674800872802734,-0.0,-0.011656251735985279,0.7525683641433716,0.0,0.026260044425725937
352.0,373.0,-0.3535,-0.3003,9.7077,-0.0423,0.0255,-0.1205,-1.6357108555235804,0.0,2.303511142730713,-1.8733012676239014,-0.0,2.0596120357513428,4.990291762142935,0.0,0.2870190441608429,-1.5694182554828089,-0.0,-0.004235081374645233,1.0674402713775635,-0.0,-0.010737630538642406,0.7526047825813293,0.0,-0.01950562372803688
352.0,373.0,-0.3535,-0.3003,9.7077,-0.0423,0.0255,-0.1205,-1.6357108555235804,0.0,2.3192617893218994,-1.8732930421829224,-0.0,2.070669651031494,4.99029968956069,0.0,0.28235408663749695,-1.569470230733053,-0.0,-0.010578926652669907,1.0674723386764526,-0.0,0.010290161706507206,0.752625048160553,0.0,0.018749943003058434
352.0,373.0,-0.3535,-0.3003,9.7077,-0.0423,0.0255,-0.1205,-1.6357070408263148,0.0,2.35367488861084,-1.8732972145080566,-0.0,2.0871028900146484,4.990287798434057,0.0,0.28409287333488464,-1.5694902578936976,-0.0,-0.018453627824783325,1.067471981048584,-0.0,0.0009445906616747379,0.7526006698608398,0.0,-0.023405443876981735
352.0,373.0,-0.3535,-0.3003,9.7077,-0.0423,0.0255,-0.1205,-1.6357108555235804,0.0,2.306129217147827,-1.8733415603637695,-0.0,2.015225887298584,4.990287768631735,0.0,0.28363925218582153,-1.5694463888751429,-0.0,-0.007676776964217424,1.0674521923065186,-0.0,0.005667161196470261,0.7526009678840637,0.0,-0.022156747058033943
352.0,373.0,-0.3535,-0.3003,9.7077,-0.0423,0.0255,-0.1205,-1.635763784448141,0.0,2.3665549755096436,-1.8732972145080566,-0.0,2.0986006259918213,4.9903235314186,0.0,0.2810201942920685,-1.5694502035724085,-0.0,-0.015498941764235497,1.0674560070037842,-0.0,0.0028693508356809616,0.752544105052948,0.0,0.026829170063138008
352.0,373.0,-0.3535,-0.3003,9.7077,-0.0423,0.0255,-0.1205,-1.6356989345946253,0.0,2.335310220718384,-1.8733457326889038,-0.0,2.0841763019561768,4.990327435522833,0.0,0.2970927059650421,-1.569430176411764,-0.0,-0.009322097525000572,1.0674362182617188,-0.0,-0.0032351682893931866,0.7526127099990845,0.0,-0.028269467875361443
352.0,373.0,-0.3535,-0.3003,9.7077,-0.0423,0.0255,-0.1205,-1.6357594929137171,0.0,2.3727598190307617,-1.8733292818069458,-0.0,2.0493595600128174,4.990331458836355,0.0,0.2914202809333801,-1.5694106260882776,-0.0,0.0008060714462772012,1.067444086074829,-0.0,-0.005264135077595711,0.7525803446769714,0.0,-0.005286317318677902
352.0,373.0,-0.3535,-0.3003,9.7077,-0.0423,0.0255,-0.1205,-1.635690828362936,0.0,2.361947774887085,-1.8733168840408325,-0.0,2.0757861137390137,4.9903354225452325,0.0,0.2982456088066101,-1.5694344679461878,-0.0,-0.006953713018447161,1.0674521923065186,-0.0,0.0035032983869314194,0.7526209354400635,0.0,-0.028760813176631927
352.0,373.0,-0.3535,-0.3003,9.7077,-0.0423,0.0255,-0.1205,-1.6357151470580042,0.0,2.3591341972351074,-1.8732972145080566,-0.0,2.0694823265075684,4.990371513157644,0.0,0.28973230719566345,-1.569430176411764,-0.0,-0.005522069521248341,1.0674402713775635,-0.0,0.0015202716458588839,0.7526127696037292,0.0,0.01702982932329178
352.0,373.0,-0.3535,-0.3003,9.7077,-0.0423,0.0255,-0.1205,-1.6356951198973597,0.0,2.3494911193847656,-1.87333345413208,-0.0,2.0849170684814453,4.990343320160665,0.0,0.27772054076194763,-1.5694659391986292,-0.0,-0.006244841031730175,1.0674644708633423,-0.0,-0.012116451747715473,0.7526006698608398,0.0,-0.000886816531419754
366.0,374.0,-0.2913,-0.2489,9.457,-0.0388,0.0244,-0.1171,-1.6357151470580042,0.0,2.3198134899139404,-1.8732889890670776,-0.0,2.0345656871795654,4.9903394160564325,0.0,0.28783106803894043,-1.5694740454303187,-0.0,-0.011910339817404747,1.06741201877594,-0.0,-0.0023094862699508667,0.7525883316993713,0.0,0.021054042503237724
366.0,374.0,-0.2913,-0.2489,9.457,-0.0388,0.0244,-0.1171,-1.6356989345946253,0.0,2.3173298835754395,-1.8733292818069458,-0.0,2.0551111698150635,4.990327435522833,0.0,0.2946930527687073,-1.5694783369647425,-0.0,-0.001874102745205164,1.067444086074829,-0.0,-0.005915975663810968,0.7525886297225952,0.0,-0.026067303493618965
366.0,374.0,-0.2913,-0.2489,9.457,-0.0388,0.0244,-0.1171,-1.6357432804503382,0.0,2.322338581085205,-1.8733530044555664,-0.0,2.08097505569458,4.990311848908224,0.0,0.28094327449798584,-1.5694344679461878,-0.0,-0.01632404886186123,1.067460060119629,-0.0,0.0025425292551517487,0.7526127099990845,0.0,0.011780807748436928
366.0,374.0,-0.2913,-0.2489,9.457,-0.0388,0.0244,-0.1171,-1.6356989345946253,0.0,2.337712287902832,-1.8733128309249878,-0.0,2.072335958480835,4.9903039810951135,0.0,0.2810406982898712,-1.5694502035724085,-0.0,-0.0010125413537025452,1.0674562454223633,-0.0,0.00233379565179348,0.7525642514228821,0.0,-0.02337213046848774
366.0,374.0,-0.2913,-0.2489,9.457,-0.0388,0.0244,-0.1171,-1.6356870136656703,0.0,2.366936206817627,-1.8732290267944336,-0.0,2.056272506713867,4.9903039810951135,0.0,0.2871430814266205,-1.5694978872882288,-0.0,-0.0008920622058212757,1.0674402713775635,-0.0,-0.0023203003220260143,0.7526289224624634,0.0,0.024170178920030594
366.0,374.0,-0.2913,-0.2489,9.457,-0.0388,0.0244,-0.1171,-1.6357594929137171,0.0,2.321788787841797,-1.8732930421829224,-0.0,2.094489097595215,4.9903394160564325,0.0,0.2858620882034302,-1.5694540182696741,-0.0,-0.017049821093678474,1.0674800872802734,-0.0,-0.009455583989620209,0.7525606155395508,0.0,0.006799045018851757
366.0,374.0,-0.2913,-0.2489,9.457,-0.0388,0.0244,-0.1171,-1.6357313595213832,0.0,2.314082622528076,-1.873305320739746,-0.0,2.100437641143799,4.990303951292791,0.0,0.29039183259010315,-1.5694025198565882,-0.0,-0.006433796137571335,1.067471981048584,-0.0,-0.010527881793677807,0.7525160908699036,0.0,0.03407541289925575
366.0,374.0,-0.2913,-0.2489,9.457,-0.0388,0.0244,-0.1171,-1.6357189617552699,0.0,2.3708202838897705,-1.8733696937561035,-0.0,2.0975308418273926,4.9903235314186,0.0,0.28173935413360596,-1.5694978872882288,-0.0,-0.007725775241851807,1.0675042867660522,-0.0,-0.006473246496170759,0.7526209950447083,0.0,-0.03216102346777916
366.0,374.0,-0.2913,-0.2489,9.457,-0.0388,0.0244,-0.1171,-1.6356989345946253,0.0,2.3715691566467285,-1.873257040977478,-0.0,2.0702905654907227,4.990327435522833,0.0,0.2817646563053131,-1.5694382826434534,-0.0,-0.01165157649666071,1.0674362182617188,-0.0,0.0006014821119606495,0.7525965571403503,0.0,0.024704424664378166
366.0,374.0,-0.2913,-0.2489,9.457,-0.0388,0.0244,-0.1171,-1.6357313595213832,0.0,2.329986333847046,-1.8733086585998535,-0.0,2.0853304862976074,4.990307915001669,0.0,0.2754896879196167,-1.5694182554828089,-0.0,-0.006507429759949446,1.067420244216919,-0.0,0.0007737496052868664,0.752552330493927,0.0,0.06108987331390381
366.0,374.0,-0.2913,-0.2489,9.457,-0.0388,0.0244,-0.1171,-1.6356669865050257,0.0,2.35556960105896,-1.8732807636260986,-0.0,2.053638219833374,4.99029170253829,0.0,0.2783662676811218,-1.5694344679461878,-0.0,-0.013527482748031616,1.0674000978469849,-0.0,0.005719402339309454,0.7525601387023926,0.0,-0.006626584101468325
366.0,374.0,-0.2913,-0.2489,9.457,-0.0388,0.0244,-0.1171,-1.6357151470580042,0.0,2.3054428100585938,-1.8732972145080566,-0.0,2.0875775814056396,4.99026786068038,0.0,0.2864765226840973,-1.5694502035724085,-0.0,-0.013865374028682709,1.0673834085464478,-0.0,0.007391812279820442,0.7525927424430847,0.0,-0.018175886943936348
381.0,351.0,-0.3153,-0.2608,9.5055,-0.0373,0.0199,-0.1196,-1.6357032261290492,0.0,2.3515591621398926,-1.8733375072479248,-0.0,2.097538948059082,4.9903235314186,0.0,0.2933655083179474,-1.5694740454303187,-0.0,-0.014350508339703083,1.0674965381622314,-0.0,-0.0021600720938295126,0.7526047825813293,0.0,0.000621926155872643
381.0,351.0,-0.3153,-0.2608,9.5055,-0.0373,0.0199,-0.1196,-1.635747571984762,0.0,2.336588144302368,-1.8733086585998535,-0.0,2.06013822555542,4.990351396590032,0.0,0.29577261209487915,-1.5694463888751429,-0.0,-0.01527654193341732,1.0674883127212524,-0.0,-0.0007255665841512382,0.7525804042816162,0.0,0.012931006960570812
381.0,351.0,-0.3153,-0.2608,9.5055,-0.0373,0.0199,-0.1196,-1.6357351742186488,0.0,2.295306921005249,-1.873325228691101,-0.0,2.0759778022766113,4.990307944803991,0.0,0.29061126708984375,-1.5694144407855433,-0.0,-0.007940638810396194,1.0675086975097656,-0.0,-0.006276804022490978,0.7526089549064636,0.0,-0.020553283393383026
381.0,351.0,-0.3153,-0.2608,9.5055,-0.0373,0.0199,-0.1196,-1.6356951198973597,0.0,2.3480348587036133,-1.873268485069275,-0.0,2.0876967906951904,4.990339445858755,0.0,0.28112292289733887,-1.569430176411764,-0.0,-0.01254221424460411,1.0675086975097656,-0.0,-0.004303401336073875,0.7525765895843506,0.0,-0.016585014760494232
381.0,351.0,-0.3153,-0.2608,9.5055,-0.0373,0.0199,-0.1196,-1.6357270679869593,0.0,2.350590944290161,-1.8732527494430542,-0.0,2.0882556438446045,4.990327435522833,0.0,0.284885436296463,-1.5694621245013636,-0.0,0.004760317504405975,1.0674402713775635,-0.0,-0.00158316467422992,0.752616822719574,0.0,-0.03508836403489113
381.0,351.0,-0.3153,-0.2608,9.5055,-0.0373,0.0199,-0.1196,-1.6357513866820277,0.0,2.3389601707458496,-1.873284935951233,-0.0,2.0759615898132324,4.990323561220922,0.0,0.2735484540462494,-1.5694463888751429,-0.0,-0.0007601701654493809,1.0674641132354736,-0.0,-0.0035002476070076227,0.7526127099990845,0.0,-0.03966948017477989
381.0,351.0,-0.3153,-0.2608,9.5055,-0.0373,0.0199,-0.1196,-1.6356789074339808,0.0,2.3256564140319824,-1.873305320739746,-0.0,2.1186234951019287,4.9903235314186,0.0,0.27469396591186523,-1.5694659391986292,-0.0,-0.016660619527101517,1.0674961805343628,-0.0,0.007399452850222588,0.7525765895843506,0.0,0.00648461002856493
381.0,351.0,-0.3153,-0.2608,9.5055,-0.0373,0.0199,-0.1196,-1.635674615899557,0.0,2.343210220336914,-1.873305320739746,-0.0,2.0969460010528564,4.9903235314186,0.0,0.29187190532684326,-1.5694382826434534,-0.0,-0.007881328463554382,1.0674036741256714,-0.0,-0.00011640839511528611,0.7526047825813293,0.0,-0.033338360488414764
381.0,351.0,-0.3153,-0.2608,9.5055,-0.0373,0.0199,-0.1196,-1.6357151470580042,0.0,2.3594298362731934,-1.873297095298767,-0.0,2.048386573791504,4.990303951292791,0.0,0.2919065058231354,-1.5694502035724085,-0.0,-0.02530044876039028,1.0675327777862549,-0.0,0.0024776181671768427,0.7526047825813293,0.0,0.03821774572134018
381.0,351.0,-0.3153,-0.2608,9.5055,-0.0373,0.0199,-0.1196,-1.6357227764525355,0.0,2.3345394134521484,-1.8733046054840088,-0.0,2.0543012619018555,4.99027185419158,0.0,0.28777575492858887,-1.5694225470172327,-0.0,-0.01889965310692787,1.0674197673797607,-0.0,-0.0065674190409481525,0.752616822719574,0.0,-0.0214714165776968
381.0,351.0,-0.3153,-0.2608,9.5055,-0.0373,0.0199,-0.1196,-1.635719438592428,0.0,2.3911070823669434,-1.8732569217681885,-0.0,2.081667423248291,4.990335452347555,0.0,0.28799968957901,-1.569486443196432,-0.0,-0.009776880964636803,1.0675328969955444,-0.0,-0.007952684536576271,0.7525886297225952,0.0,0.0034446888603270054
381.0,351.0,-0.3153,-0.2608,9.5055,-0.0373,0.0199,-0.1196,-1.6357346973814906,0.0,2.344048500061035,-1.8733251094818115,-0.0,2.0397355556488037,4.990327435522833,0.0,0.2800065875053406,-1.5694344679461878,-0.0,-0.0017122491262853146,1.0674439668655396,-0.0,-0.006931722164154053,0.752616822719574,0.0,0.043105144053697586
366.0,359.0,-0.4618,-0.5486,9.725,-0.0368,0.0279,-0.1199,-1.6357070408263148,0.0,2.3606066703796387,-1.8732889890670776,-0.0,2.0468909740448,4.990327435522833,0.0,0.28761914372444153,-1.5694502035724085,-0.0,-0.001092842547222972,1.0674399137496948,-0.0,-0.00949892308562994,0.7525886297225952,0.0,-0.0033986228518188
366.0,359.0,-0.4618,-0.5486,9.725,-0.0368,0.0279,-0.1199,-1.6357513866820277,0.0,2.338529348373413,-1.8733415603637695,-0.0,2.0410542488098145,4.99034337976531,0.0,0.2948463559150696,-1.5694783369647425,-0.0,-0.018607785925269127,1.0674762725830078,-0.0,-0.005242242943495512,0.752616822719574,0.0,0.03965941071510315
366.0,359.0,-0.4618,-0.5486,9.725,-0.0368,0.0279,-0.1199,-1.6356870136656703,0.0,2.332963466644287,-1.873265266418457,-0.0,2.084825038909912,4.990291732340612,0.0,0.29507431387901306,-1.5694382826434534,-0.0,-0.002524040639400482,1.0675041675567627,-0.0,0.007008828222751617,0.7526009678840637,0.0,-0.013375358656048775
366.0,359.0,-0.4618,-0.5486,9.725,-0.0368,0.0279,-0.1199,-1.6357470951476039,0.0,2.3330161571502686,-1.8733292818069458,-0.0,2.083858013153076,4.990323561220922,0.0,0.2841421961784363,-1.5694463888751429,-0.0,-0.011058113537728786,1.0674083232879639,-0.0,-0.007577995304018259,0.7525646686553955,0.0,-0.03745663911104202
366.0,359.0,-0.4618,-0.5486,9.725,-0.0368,0.0279,-0.1199,-1.6357513866820277,0.0,2.375629425048828,-1.8733046054840088,-0.0,2.0589215755462646,4.9903195379074,0.0,0.28460830450057983,-1.569470230733053,-0.0,-0.010273235850036144,1.067460060119629,-0.0,-0.005985939875245094,0.7526370882987976,0.0,0.039806656539440155
366.0,359.0,-0.4618,-0.5486,9.725,-0.0368,0.0279,-0.1199,-1.6356951198973597,0.0,2.3377246856689453,-1.8732807636260986,-0.0,2.070786476135254,4.9903195379074,0.0,0.2841447591781616,-1.5694907347308558,-0.0,-0.012079108506441116,1.0674481391906738,-0.0,-0.0034411498345434666,0.752552330493927,0.0,-0.02736329846084118
366.0,359.0,-0.4618,-0.5486,9.725,-0.0368,0.0279,-0.1199,-1.635707517663473,0.0,2.3169164657592773,-1.8733457326889038,-0.0,2.0804080963134766,4.990363585739889,0.0,0.2830706238746643,-1.569430176411764,-0.0,-0.010722944512963295,1.0674923658370972,-0.0,-0.007142164744436741,0.7526047825813293,0.0,-0.012142203748226166
366.0,359.0,-0.4618,-0.5486,9.725,-0.0368,0.0279,-0.1199,-1.6356870136656703,0.0,2.335261106491089,-1.873257040977478,-0.0,2.0513975620269775,4.9903118191059015,0.0,0.2857733368873596,-1.5694826284991663,-0.0,-0.009442624635994434,1.0674160718917847,-0.0,0.012996388599276543,0.7526288628578186,0.0,-0.024597754701972008
366.0,359.0,-0.4618,-0.5486,9.725,-0.0368,0.0279,-0.1199,-1.635707517663473,0.0,2.32786226272583,-1.8733457326889038,-0.0,2.088675022125244,4.99035923460082,0.0,0.29314881563186646,-1.5694621245013636,-0.0,-0.017512531951069832,1.0674521923065186,-0.0,0.003973919898271561,0.7526006698608398,0.0,0.010819057002663612
366.0,359.0,-0.4618,-0.5486,9.725,-0.0368,0.0279,-0.1199,-1.6357032261290492,0.0,2.368109703063965,-1.8733128309249878,-0.0,2.0283989906311035,4.990351396590032,0.0,0.28429704904556274,-1.5694707075702112,-0.0,-0.0013725266326218843,1.0674760341644287,-0.0,-0.007771329488605261,0.7526006698608398,0.0,-0.007503048982471228
366.0,359.0,-0.4618,-0.5486,9.725,-0.0368,0.0279,-0.1199,-1.635763784448141,0.0,2.320263385772705,-1.8733012676239014,-0.0,2.067582130432129,4.990363585739889,0.0,0.29198819398880005,-1.5694497267352503,-0.0,-0.008691695518791676,1.0674558877944946,-0.0,0.0027555294800549746,0.7525965571403503,0.0,-0.023068539798259735
366.0,359.0,-0.4618,-0.5486,9.725,-0.0368,0.0279,-0.1199,-1.635719438592428,0.0,2.335224151611328,-1.8732972145080566,-0.0,2.1330137252807617,4.99033539274291,0.0,0.2791820764541626,-1.5694897810565394,-0.0,-0.009113545529544353,1.067432165145874,-0.0,-0.006733756046742201,0.7526288628578186,0.0003411196230445057,-0.014983613044023514
366.0,359.0,-0.4618,-0.5486,9.725,-0.0368,0.0279,-0.1199,-1.6357556782164515,0.0,2.2933881282806396,-1.8732807636260986,-0.0,2.0770938396453857,4.990331458836355,0.0,0.29178011417388916,-1.569482151662008,-0.0,-0.003962063230574131,1.0674676895141602,-0.0,-0.0015508874785155058,0.7526647448539734,0.000626920023933053,0.0156767126172781
386.0,369.0,-0.3954,-0.0006,9.527,-0.0339,0.0295,-0.121,-1.6357270679869593,0.0,2.354869842529297,-1.8733086585998535,-0.0,2.080979108810425,4.990303951292791,0.0,0.2861630916595459,-1.5695341269122522,-3.9724251109873876e-05,-0.002844803733751178,1.0673960447311401,-0.0,-0.004444453399628401,0.7526647448539734,0.0011633269023150206,0.025375058874487877
386.0,369.0,-0.3954,-0.0006,9.527,-0.0339,0.0295,-0.121,-1.6357470951476039,0.0,2.3806862831115723,-1.8732929229736328,-0.0,2.067430019378662,4.9903195379074,0.0,0.2874874770641327,-1.569498364125387,-3.729835225385614e-05,-0.00943722017109394,1.0674041509628296,-0.0,0.0027837585657835007,0.7526363730430603,0.0017964683938771486,0.02562587335705757
386.0,369.0,-0.3954,-0.0006,9.527,-0.0339,0.0295,-0.121,-1.635719438592428,0.0,2.3145995140075684,-1.8733333349227905,-0.0,2.0084457397460938,4.9903118191059015,0.0,0.2754899859428406,-1.5695140997516077,-3.444345202296972e-05,0.0068414779379963875,1.067432165145874,-0.0,0.001894888118840754,0.7527167797088623,0.0024748060386627913,0.008304081857204437
386.0,369.0,-0.3954,-0.0006,9.527,-0.0339,0.0295,-0.121,-1.6357351742186488,0.0,2.3538122177124023,-1.8732609748840332,-0.0,2.1095774173736572,4.990367281227865,0.0,0.27930521965026855,-1.5695260206805628,-4.589753007167019e-05,-0.0014126165769994259,1.0674560070037842,-0.0,0.007678973488509655,0.752704381942749,0.002905807690694928,-0.01770377904176712
386.0,369.0,-0.3954,-0.0006,9.527,-0.0339,0.0295,-0.121,-1.6357680759825648,0.0,2.3244788646698,-1.8732848167419434,-0.0,2.0706303119659424,4.990283775120535,0.0,0.29476049542427063,-1.5695183912860315,-4.556158819468692e-05,0.0030663805082440376,1.0674883127212524,-0.0,-0.008766112849116325,0.7527524828910828,0.003092524129897356,0.0027732416056096554
386.0,369.0,-0.3954,-0.0006,9.527,-0.0339,0.0295,-0.121,-1.635686536828512,0.0,2.3409407138824463,-1.8732972145080566,-0.0,2.05220103263855,4.990291732340612,0.0,0.28629010915756226,-1.569514576588766,-3.567425301298499e-05,-0.004778834991157055,1.0674636363983154,-0.0,-0.0033789959270507097,0.7528010606765747,0.003021285170689225,0.03540442883968353
386.0,369.0,-0.3954,-0.0006,9.527,-0.0339,0.0295,-0.121,-1.6356989345946253,0.0,2.3594377040863037,-1.873288869857788,-0.0,2.0709660053253174,4.99030368307189,2.1997019483688263e-10,0.28036990761756897,-1.569482151662008,-2.6762047127704136e-05,0.0033615930005908012,1.0674279928207397,-0.0,0.001673152670264244,0.7527925968170166,0.002605908550322056,0.011167064309120178
386.0,369.0,-0.3954,-0.0006,9.527,-0.0339,0.0295,-0.121,-1.6357556782164515,1.0487259771707613e-07,2.318406105041504,-1.8733292818069458,-0.0,2.0812885761260986,4.990247833519735,6.122951131575308e-14,0.2930743098258972,-1.5694664160357874,-2.5619227017159574e-05,-0.01234616432338953,1.0674842596054077,-0.0,0.0032440871000289917,0.7528206706047058,0.001945942989550531,-0.04984964430332184
386.0,369.0,-0.3954,-0.0006,9.527,-0.0339,0.0295,-0.121,-1.6357189617552699,3.3977390484631964e-15,2.3490235805511475,-1.8732808828353882,-0.0,2.061154842376709,4.990327912359991,1.1128163144276685e-18,0.2791777551174164,-1.5695140997516077,-2.423925616312772e-05,-0.005339072085916996,1.0674800872802734,-0.0,-0.007011005654931068,0.7527925968170166,0.001542155398055911,-0.05344332382082939
386.0,369.0,-0.3954,-0.0006,9.527,-0.0339,0.0295,-0.121,-1.6357833347716273,-0.00034394225804135203,2.354703903198242,-1.8733046054840088,-0.0,2.0247786045074463,4.990255969553747,2.022488688553777e-23,0.2775728702545166,-1.5694859663592737,-2.3000347937340848e-05,-0.008674079552292824,1.0674641132354736,-0.0,-0.0014931036857888103,0.7527681589126587,0.0010052380384877324,0.03515849635004997
386.0,369.0,-0.3954,-0.0006,9.527,-0.0339,0.0295,-0.121,-1.6357795200743617,-0.0005201242165639997,2.3315646648406982,-1.8732446432113647,-0.0,2.0370936393737793,4.990268009691992,5.629672724114707e-27,0.28968334197998047,-1.5694664160357874,-2.215120730397757e-05,-0.010432707145810127,1.067508339881897,-0.0,0.004499749280512333,0.7527884840965271,0.0007488543051294982,-0.06393549591302872
386.0,369.0,-0.3954,-0.0006,9.527,-0.0339,0.0295,-0.121,-1.6357752285399378,-0.0006075791898183525,2.371145486831665,-1.8733168840408325,-0.0,2.0452144145965576,4.990239816695013,-0.0007870281115174294,0.2970235347747803,-1.569510285054342,-2.111198045895435e-05,-0.017995167523622513,1.067423939704895,-0.0,-0.006107247434556484,0.7528087496757507,0.0005095935193821788,0.0034746965393424034
380.0,348.0,-0.4816,-0.5976,9.6891,-0.0677,-0.0119,-0.1249,-1.635815282861227,-0.0010429807007312775,2.345625400543213,-1.8733251094818115,-0.0,2.096975803375244,4.99022405126647,-0.0010400137398391962,0.28363654017448425,-1.569498364125387,-2.0165894966339692e-05,-0.0034387093037366867,1.0674842596054077,-0.0,-0.0019472521962597966,0.7528206706047058,0.00038499824586324394,0.08162618428468704
380.0,348.0,-0.4816,-0.5976,9.6891,-0.0677,-0.0119,-0.1249,-1.6357909641661585,-0.0018915307009592652,2.329695224761963,-1.8733375072479248,-0.0,2.0563161373138428,4.990187960654058,-0.0010319091379642487,0.28174787759780884,-1.5694502035724085,-1.6772241906437557e-07,-0.026086287572979927,1.0674681663513184,-0.0,0.003823470091447234,0.7528409361839294,0.00036629493115469813,0.014831912703812122
380.0,348.0,-0.4816,-0.5976,9.6891,-0.0677,-0.0119,-0.1249,-1.6358634434142054,-0.005655798129737377,2.364821195602417,-1.8733530044555664,-0.0,2.0348479747772217,4.990191894560613,-0.001526945736259222,0.28291410207748413,-1.5694707075702112,-3.0482717044977292e-12,-0.010591981932520866,1.0674481391906738,-0.0,0.0037849601358175278,0.7528368234634399,0.0002535167441237718,0.06883829832077026
380.0,348.0,-0.4816,-0.5976,9.6891,-0.0677,-0.0119,-0.1249,-1.6359831295409144,-0.008968550711870193,2.318882942199707,-1.8733375072479248,-0.0,2.05767560005188,4.990188377886572,-0.0022904621437191963,0.27839112281799316,-1.5694978872882288,-5.5400845042212656e-17,-0.016850009560585022,1.0674883127212524,-0.0,-0.01220394391566515,0.7527922987937927,0.00022473084391094744,0.0478505939245224
380.0,348.0,-0.4816,-0.5976,9.6891,-0.0677,-0.0119,-0.1249,-1.6360112629332484,-0.010210546664893627,2.298780918121338,-1.87333345413208,-0.0,2.033100128173828,4.990067887097158,-0.003886705031618476,0.26509666442871094,-1.5694463888751429,-1.5421029609010927e-20,-0.006148211658000946,1.0674760341644287,-0.0,0.0016290366183966398,0.7528046369552612,0.00023293134290724993,0.05715721845626831
380.0,348.0,-0.4816,-0.5976,9.6891,-0.0677,-0.0119,-0.1249,-1.6361352405943812,-0.011138166300952435,2.268497943878174,-1.8733892440795898,-0.0,2.1195871829986572,4.990040111332693,-0.011134333908557892,0.2640407681465149,-1.5694745222674769,-2.802695592429288e-25,-0.009805155918002129,1.06741201877594,-0.0,0.002146461047232151,0.7527764439582825,0.00020304082136135548,0.10861397534608841
380.0,348.0,-0.4816,-0.5976,9.6891,-0.0677,-0.0119,-0.1249,-1.6362267933287562,-0.013801304623484612,2.2471702098846436,-1.87333345413208,-0.00021976583229843527,2.112334966659546,4.989936190634527,-0.015891244634985924,0.25299492478370667,-1.569482151662008,-5.0937608307007e-30,-0.01902838982641697,1.067471981048584,-0.0,-0.0007860477198846638,0.7528087496757507,0.00017985441081691533,0.1206430047750473
380.0,348.0,-0.4816,-0.5976,9.6891,-0.0677,-0.0119,-0.1249,-1.6362782917418421,-0.014961804263293743,2.2273406982421875,-1.8733572959899902,-0.00019405111379455775,2.051523208618164,4.9898210046584985,-0.016143780201673508,0.2376885712146759,-1.5695379416095179,-1.417867235130931e-33,-0.02676997147500515,1.0675002336502075,-0.0,-0.0031690867617726326,0.7527925968170166,0.00018933099636342376,0.028108268976211548
380.0,348.0,-0.4816,-0.5976,9.6891,-0.0677,-0.0119,-0.1249,-1.6364270649352015,-0.016926947981119156,2.1914870738983154,-1.873377799987793,-0.0001655025698710233,2.048529624938965,4.98968471863822,-0.013506575487554073,0.2420467883348465,-1.5694897810565394,-2.576903517725786e-38,-0.007727365009486675,1.06748366355896,-0.0,0.00990165863186121,0.7527925968170166,0.00017131287313532084,0.05649147927761078
380.0,348.0,-0.4816,-0.5976,9.6891,-0.0677,-0.0119,-0.1249,-1.6365710697569789,-0.01657176949083805,2.2066352367401123,-1.8733128309249878,-0.0001442768843844533,2.09478759765625,4.989629494934835,-0.007765526417642832,0.25510531663894653,-1.5694745222674769,-4.680336870844889e-43,-0.01789080910384655,1.067471981048584,-0.0,-0.0015566223300993443,0.7527682185173035,0.00020564434817060828,0.07186190038919449
380.0,348.0,-0.4816,-0.5976,9.6891,-0.0677,-0.0119,-0.1249,-1.6366626224913539,-0.017333567142486572,2.1168575286865234,-1.873344898223877,-0.00013161724200472236,2.1140847206115723,4.989565360337057,-0.00434016901999712,0.23713499307632446,-1.5694659391986292,-0.0,-0.010784672573208809,1.067444086074829,-0.0,-0.00044565252028405666,0.7528650760650635,0.00024295419279951602,0.0662580206990242
380.0,348.0,-0.4816,-0.5976,9.6891,-0.0677,-0.0119,-0.1249,-1.6368385754027308,-0.01784312166273594,2.1453747749328613,-1.8733655214309692,-0.0001333246036665514,2.092102527618408,4.989537912398138,-0.0018351818434894085,0.2396870106458664,-1.5695021788226526,-0.0,-0.011697412468492985,1.0674920082092285,-0.0,0.0008098312537185848,0.7528327107429504,0.0007491728174500167,0.06487143039703369
354.0,363.0,-0.7962,-0.4379,9.0544,-0.0321,-0.0339,-0.0785,-1.6369744739928187,-0.019986318424344063,2.147242546081543,-1.8733450174331665,-0.0001279922144021839,2.0251505374908447,4.989589589625158,-0.0009146990487352014,0.23231129348278046,-1.5694587866412562,-0.0,-0.005576134659349918,1.067460060119629,-0.0,-0.004920087289065123,0.7528604865074158,0.002186566824093461,0.05848194658756256
354.0,363.0,-0.7962,-0.4379,9.0544,-0.0321,-0.0339,-0.0785,-1.637134691277975,-0.020885687321424484,2.0868568420410156,-1.873353123664856,-0.00011949517647735775,2.1118991374969482,4.989561396628179,-0.0009191810968331993,0.21890942752361298,-1.5695064703570765,-0.0,-0.014093747362494469,1.0674883127212524,-0.0,0.004152894020080566,0.7528486251831055,0.0031562543008476496,0.04721944034099579
354.0,363.0,-0.7962,-0.4379,9.0544,-0.0321,-0.0339,-0.0785,-1.6372620067992152,-0.02194591611623764,2.1397228240966797,-1.8733294010162354,-9.1567613708321e-05,2.118654251098633,4.98958175161437,-0.0018123927293345332,0.2265961915254593,-1.5694502035724085,-0.0,-0.012345941737294197,1.0674961805343628,-0.0,0.010003367438912392,0.7529529333114624,0.00511077418923378,0.08856450021266937
354.0,363.0,-0.7962,-0.4379,9.0544,-0.0321,-0.0339,-0.0785,-1.637402196923727,-0.022392496466636658,2.0814297199249268,-1.87333345413208,-8.622337190899998e-05,2.1163101196289062,4.989533650666036,-0.0018900842405855656,0.22823768854141235,-1.5695064703570765,-0.0,-0.024297544732689857,1.0675042867660522,-0.0,0.000265194452367723,0.7530006766319275,0.009138629771769047,0.0955049991607666
354.0,363.0,-0.7962,-0.4379,9.0544,-0.0321,-0.0339,-0.0785,-1.6376263103880824,-0.024405375123023987,2.0604567527770996,-1.8732601404190063,-6.406870670616627e-05,2.0785531997680664,4.989525902062216,-0.001935733831487596,0.22698748111724854,-1.5694783369647425,-0.0,-0.014713992364704609,1.0674723386764526,-0.0,-0.0056579504162073135,0.7531169056892395,0.01750376634299755,0.1715545803308487
354.0,363.0,-0.7962,-0.4379,9.0544,-0.0321,-0.0339,-0.0785,-1.637789865533346,-0.028159575536847115,2.0517070293426514,-1.8733696937561035,-5.981069625704549e-05,2.0849320888519287,4.989493864565649,-0.0027247434481978416,0.221877783536911,-1.5695064703570765,-0.0,-0.0309151541441679,1.0674362182617188,-0.0,-0.01334280427545309,0.753296971321106,0.02661077119410038,0.10048293322324753
354.0,363.0,-0.7962,-0.4379,9.0544,-0.0321,-0.0339,-0.0785,-1.6380063496031703,-0.031181655824184418,2.1268022060394287,-1.8733489513397217,-5.697117740055546e-05,2.039862632751465,4.98946966507987,-0.003848861437290907,0.22225895524024963,-1.569430176411764,-0.0,-0.029539860785007477,1.067496418952942,-0.0,-0.005909333936870098,0.7534966468811035,0.03320532664656639,0.10727076232433319
354.0,363.0,-0.7962,-0.4379,9.0544,-0.0321,-0.0339,-0.0785,-1.638278146783346,-0.03551812842488289,2.0477583408355713,-1.8733779191970825,6.839896377641708e-05,2.0779762268066406,4.989481943636694,-0.002985201543197036,0.20441961288452148,-1.5695064703570765,-0.0,-0.01680297777056694,1.0674887895584106,-0.0,0.0017761688213795424,0.7537404298782349,0.04163527861237526,0.19010141491889954
354.0,363.0,-0.7962,-0.4379,9.0544,-0.0321,-0.0339,-0.0785,-1.6385776005186976,-0.04232984408736229,1.9832206964492798,-1.873288869857788,0.0007898826152086258,2.0437815189361572,4.989449995547094,-0.0014866320416331291,0.2186870574951172,-1.5694745222674769,-0.0,-0.012745180167257786,1.0674481391906738,-0.0,-0.00309373764321208,0.7542093992233276,0.04584726318717003,0.193708598613739
354.0,363.0,-0.7962,-0.4379,9.0544,-0.0321,-0.0339,-0.0785,-1.6388336620726527,-0.0458596833050251,2.029268503189087,-1.87327241897583,0.000517886015586555,2.1131532192230225,4.989490020066061,-0.0008285410585813224,0.2104828655719757,-1.5694940725909632,-0.0,-0.014824334532022476,1.0674481391906738,-0.0,-0.0027074776589870453,0.7544324398040771,0.046275947242975235,0.1194370687007904
354.0,363.0,-0.7962,-0.4379,9.0544,-0.0321,-0.0339,-0.0785,-1.6392132244505824,-0.0558893047273159,1.9875974655151367,-1.8732807636260986,0.0003545762156136334,2.073807716369629,4.989458578615942,-0.0011496912920847535,0.20186297595500946,-1.5694783369647425,-0.0,-0.01466837152838707,1.0674883127212524,-0.0,-0.003092690370976925,0.7548203468322754,0.04545179381966591,0.15924128890037537
354.0,363.0,-0.7962,-0.4379,9.0544,-0.0321,-0.0339,-0.0785,-1.6397248707213343,-0.06600047647953033,2.0052833557128906,-1.8733612298965454,0.00026959233218804,2.077305316925049,4.989377873926916,-0.0013758770655840635,0.18917208909988403,-1.5694263617144983,-0.0,-0.008469889871776104,1.0673797130584717,-2.1637836766785767e-07,-0.009681034833192825,0.7551804184913635,0.045309878885746,0.11733617633581161
354.0,363.0,-0.7962,-0.4379,9.0544,-0.0321,-0.0339,-0.0785,-1.6401125393309535,-0.07169734686613083,1.9729773998260498,-1.873280644416809,0.0002285138180013746,2.0833046436309814,4.9893899140651605,-0.0010075950995087624,0.200607568025589,-1.5694463888751429,-0.0,-0.016554836183786392,1.067432165145874,-6.02297101082172e-11,0.004743240773677826,0.7554967999458313,0.04450269788503647,0.06971774995326996
352.0,358.0,-0.6473,0.3601,9.1956,-0.0967,-0.1136,-0.0924,-1.6407081089415492,-0.07386507093906403,1.9732625484466553,-1.8733251094818115,0.00018993324192706496,2.094031810760498,4.989377873926916,-0.0006218710914254189,0.20109473168849945,-1.5694940725909632,-0.0,0.002791819628328085,1.0674242973327637,-1.0946452416922027e-15,-0.01654442586004734,0.7558484673500061,0.04496116563677788,0.10203719884157181
352.0,358.0,-0.6473,0.3601,9.1956,-0.0967,-0.1136,-0.0924,-1.6413432560362757,-0.08499845862388611,1.898613691329956,-1.8733292818069458,0.00012999874888919294,2.07641863822937,4.989410120039739,-0.0007733038510195911,0.19516286253929138,-1.5694382826434534,-0.0,0.00028662593103945255,1.0674201250076294,-1.989463723478651e-20,-0.0007701795548200607,0.756208062171936,0.045917123556137085,0.09425182640552521
352.0,358.0,-0.6473,0.3601,9.1956,-0.0967,-0.1136,-0.0924,-1.6419159374632777,-0.09815263003110886,1.9171905517578125,-1.8732855319976807,0.00011729125981219113,2.0646486282348633,4.989381956845083,-0.0015157018788158894,0.19797787070274353,-1.5694826284991663,-0.0,-0.00250485772266984,1.0673916339874268,-0.000288268638541922,-0.02057402767241001,0.756500244140625,0.04584776982665062,0.011877749115228653
352.0,358.0,-0.6473,0.3601,9.1956,-0.0967,-0.1136,-0.0924,-1.6427394352354945,-0.11353708058595657,1.8913246393203735,-1.8733168840408325,3.8236044929362833e-05,2.049595594406128,4.989377963333883,-0.0014963867142796516,0.2095121443271637,-1.5694144407855433,-0.0,0.017064247280359268,1.0674526691436768,-0.0003392173966858536,-0.012050479650497437,0.7568761110305786,0.04460867494344711,-0.013596436008810997
352.0,358.0,-0.6473,0.3601,9.1956,-0.0967,-0.1136,-0.0924,-1.6436220608153285,-0.1197214350104332,1.8967030048370361,-1.8732610940933228,9.493837569607422e-05,2.046905755996704,4.989385831146993,-0.0008335770107805729,0.19365844130516052,-1.5694382826434534,-0.0,0.021381663158535957,1.067392110824585,-0.0005885701393708587,-0.025488246232271194,0.7572360038757324,0.044525980949401855,-0.007824692875146866
352.0,358.0,-0.6473,0.3601,9.1956,-0.0967,-0.1136,-0.0924,-1.6443139515318812,-0.12219459563493729,1.9188278913497925,-1.8732733726501465,0.0015654496382921934,2.079334259033203,4.989385801344671,-0.0006184493540786207,0.1957351565361023,-1.569486443196432,-0.0,0.015182186849415302,1.0674288272857666,-0.000604918401222676,-0.02931782230734825,0.757507860660553,0.043521054089069366,-0.00900106132030487
352.0,358.0,-0.6473,0.3601,9.1956,-0.0967,-0.1136,-0.0924,-1.6453453503050746,-0.13112956285476685,1.8661527633666992,-1.8733094930648804,0.002022182336077094,2.044400930404663,4.989362048893728,-0.00046020682202652097,0.19506917893886566,-1.569470230733053,-0.0,0.020549437031149864,1.0673961639404297,-0.000816783111076802,-0.029606450349092484,0.7578838467597961,0.04383326694369316,-0.03732575476169586
352.0,358.0,-0.6473,0.3601,9.1956,-0.0967,-0.1136,-0.0924,-1.6464725933470667,-0.14137381315231323,1.978512167930603,-1.8732166290283203,0.0011796127073466778,2.050448179244995,4.989397871285238,-0.0003664705727715045,0.2102898359298706,-1.5694025198565882,-0.0,0.027602970600128174,1.0674244165420532,-0.0012751879403367639,-0.03134515509009361,0.7582720518112183,0.04575704038143158,-0.06319974362850189
352.0,358.0,-0.6473,0.3601,9.1956,-0.0967,-0.1136,-0.0924,-1.6473356686034144,-0.1502653956413269,1.874745488166809,-1.8732495307922363,0.0009392201900482178,2.073765516281128,4.989377963333883,-0.0003179132763762027,0.19940388202667236,-1.5694182554828089,-0.0,0.032062530517578125,1.0673800706863403,-0.0018989916425198317,-0.03403567522764206,0.7585679888725281,0.04757402092218399,-0.06467241048812866
352.0,358.0,-0.6473,0.3601,9.1956,-0.0967,-0.1136,-0.0924,-1.6485911808409632,-0.1649646908044815,1.8947410583496094,-1.873237133026123,0.0007923309458419681,2.110152244567871,4.989350127964773,-0.00027018378023058176,0.1868806779384613,-1.5693982283221644,-0.0,0.021604344248771667,1.067299246788025,-0.005691543687134981,-0.04385695606470108,0.7588912844657898,0.048273760825395584,-0.0816265121102333
352.0,358.0,-0.6473,0.3601,9.1956,-0.0967,-0.1136,-0.0924,-1.6498938999571742,-0.1742830127477646,1.8978508710861206,-1.8732050657272339,0.005123804323375225,2.060582160949707,4.989373820811071,-0.00023491756292060018,0.20884476602077484,-1.5694106260882776,-0.0,0.024526581168174744,1.0672760009765625,-0.01395215280354023,-0.045924000442028046,0.7593396306037903,0.047554779797792435,-0.10087157040834427
352.0,358.0,-0.6473,0.3601,9.1956,-0.0967,-0.1136,-0.0924,-1.6510254345335902,-0.17238321900367737,1.9035673141479492,-1.8731170892715454,0.00868066307157278,2.118291139602661,4.989373969822683,-0.0002139712159987539,0.19857898354530334,-1.5694106260882776,-0.0,0.03747181594371796,1.067208170890808,-0.007872510701417923,-0.043855078518390656,0.759595513343811,0.04876682534813881,-0.103651262819767
332.0,361.0,-0.1663,0.3021,9.4624,-0.0895,-0.2466,-0.1038,-1.6524273357787074,-0.1791847199201584,1.8885139226913452,-1.8730651140213013,0.009165199473500252,2.028844118118286,4.98943384268836,-0.0001912366133183241,0.20045971870422363,-1.5694382826434534,-0.0,0.031953364610672,1.0672122240066528,-0.0013907219981774688,-0.039061859250068665,0.760043740272522,0.0488835908472538,-0.060136497020721436
332.0,361.0,-0.1663,0.3021,9.4624,-0.0895,-0.2466,-0.1038,-1.6540500126280726,-0.20324508845806122,1.8201045989990234,-1.8730247020721436,0.005637322552502155,2.088909387588501,4.989373820811071,-0.00017286954971496016,0.19271118938922882,-1.5693939367877405,0.00011571688810363412,0.03995300829410553,1.0671601295471191,-0.0006188909756019711,-0.03966280072927475,0.760391354560852,0.05040556937456131,-0.05717594921588898
332.0,361.0,-0.1663,0.3021,9.4624,-0.0895,-0.2466,-0.1038,-1.6553169689574183,-0.21879471838474274,1.8447738885879517,-1.8729811906814575,0.004856287967413664,2.0942025184631348,4.989402043610372,-0.00015134335262700915,0.19040170311927795,-1.5693743864642542,0.00010901176574407145,0.03840850293636322,1.0671920776367188,-0.0004378565354272723,-0.06856922805309296,0.7607151865959167,0.05077342316508293,-0.041666287928819656
332.0,361.0,-0.1663,0.3021,9.4624,-0.0895,-0.2466,-0.1038,-1.6570106945433558,-0.21623584628105164,1.8055416345596313,-1.8729056119918823,0.008541849441826344,2.0494794845581055,4.989441978722372,-2.23190218093805e-05,0.20266982913017273,-1.569373909627096,0.00011793109297286719,0.04073108732700348,1.0671441555023193,-0.0003781045088544488,-0.04757099598646164,0.7610710263252258,0.04892707243561745,-0.09187307953834534
332.0,361.0,-0.1663,0.3021,9.4624,-0.0895,-0.2466,-0.1038,-1.6589094601073207,-0.2235516905784607,1.8171570301055908,-1.8728094100952148,0.011651093140244484,2.092721939086914,4.989454048662939,-1.7836500774137676e-05,0.20396794378757477,-1.5694101492511194,0.00010957780614262447,0.051422134041786194,1.06712806224823,-0.0002730806590989232,-0.059750474989414215,0.7615111470222473,0.04658479988574982,-0.10389024764299393
332.0,361.0,-0.1663,0.3021,9.4624,-0.0895,-0.2466,-0.1038,-1.660299917260641,-0.23947736620903015,1.850658893585205,-1.8727450370788574,0.010851346887648106,2.1231696605682373,4.989454048662939,-1.6835483620525338e-05,0.2024555206298828,-1.569418732319967,0.00010328966891393065,0.045347996056079865,1.0672043561935425,-0.0007254829397425056,-0.0750415250658989,0.7617747783660889,0.044943492859601974,-0.15635931491851807
332.0,361.0,-0.1663,0.3021,9.4624,-0.0895,-0.2466,-0.1038,-1.6623536549010218,-0.2477753460407257,1.808251142501831,-1.8726528882980347,0.010901406407356262,2.0711731910705566,4.989417838841238,-5.284687745188421e-07,0.21026669442653656,-1.5693944136248987,9.59483950282447e-05,0.028548570349812508,1.0671688318252563,-0.0016439034370705485,-0.06430172920227051,0.7621626853942871,0.042559653520584106,-0.08476082980632782
332.0,361.0,-0.1663,0.3021,9.4624,-0.0895,-0.2466,-0.1038,-1.664335390130514,-0.25885599851608276,1.8919612169265747,-1.8726134300231934,0.008745254017412663,2.1229944229125977,4.989417838841238,-9.604659081952072e-12,0.21468545496463776,-1.569390122090475,8.958151011029258e-05,0.03829026222229004,1.0670716762542725,-0.0013000023318454623,-0.07027658820152283,0.7624305486679077,0.037373561412096024,-0.16524776816368103
332.0,361.0,-0.1663,0.3021,9.4624,-0.0895,-0.2466,-0.1038,-1.6659184894957484,-0.2739900052547455,1.798475980758667,-1.8724966049194336,0.0055919126607477665,2.0383009910583496,4.989445972233572,-2.6734922090011163e-15,0.19343361258506775,-1.569390122090475,8.533461368642747e-05,0.02563631162047386,1.067060112953186,-0.0008773740264587104,-0.07844893634319305,0.7626663446426392,0.03166266530752182,-0.13269807398319244
332.0,361.0,-0.1663,0.3021,9.4624,-0.0895,-0.2466,-0.1038,-1.6681119404234828,-0.277161180973053,1.8450608253479004,-1.8724974393844604,0.0049118525348603725,2.065854787826538,4.989433902293005,-4.858940343728033e-20,0.19519862532615662,-1.56940204301943,8.026121940929443e-05,0.023396700620651245,1.0671361684799194,-0.000703450059518218,-0.07043544948101044,0.7628985643386841,0.02338200807571411,-0.15923169255256653
332.0,361.0,-0.1663,0.3021,9.4624,-0.0895,-0.2466,-0.1038,-1.6702329121031703,-0.2747502028942108,1.8822052478790283,-1.8724404573440552,0.00864430982619524,2.099759578704834,4.989493894367971,0.001403288682922721,0.2041020691394806,-1.5694101492511194,7.57572051952593e-05,0.03769326210021973,1.067108154296875,-0.00042131554801017046,-0.06784560531377792,0.7630467414855957,0.017425667494535446,-0.1740911304950714
332.0,361.0,-0.1663,0.3021,9.4624,-0.0895,-0.2466,-0.1038,-1.6719242535033167,-0.28016865253448486,1.9050683975219727,-1.8723772764205933,0.009197650477290154,2.074375867843628,4.989469814091482,0.0008552235085517168,0.20049118995666504,-1.5694225470172327,7.269756315508857e-05,0.023460883647203445,1.0671279430389404,-0.0004428682732395828,-0.0786108449101448,0.7631868720054626,0.01560209970921278,-0.21641206741333008
332.0,361.0,-0.1663,0.3021,9.4624,-0.0895,-0.2466,-0.1038,-1.6741043529906214,-0.28783005475997925,1.8467015027999878,-1.8722974061965942,0.008626437745988369,2.026021957397461,4.989433902293005,0.0005539041012525558,0.2079368233680725,-1.5693982283221644,6.898285209899768e-05,0.016565168276429176,1.0670881271362305,-0.0004061278887093067,-0.0713072121143341,0.7632826566696167,0.016639716923236847,-0.17577052116394043
323.0,343.0,0.2291,-0.2877,9.2471,-0.1384,-0.2621,-0.117,-1.6763903103270472,-0.2957247793674469,1.8215327262878418,-1.8722208738327026,0.008735915645956993,2.108640670776367,4.989485877543249,0.00040969959809444845,0.21372324228286743,-1.5693944136248987,6.562933413079008e-05,0.016341660171747208,1.0670762062072754,-0.0004030222771689296,-0.07926268130540848,0.7634187340736389,0.017117876559495926,-0.14080433547496796
323.0,343.0,0.2291,-0.2877,9.2471,-0.1384,-0.2621,-0.117,-1.678084512750143,-0.29671671986579895,1.866966724395752,-1.872169017791748,0.011676854453980923,2.0875072479248047,4.98950211980895,0.0003666637931019068,0.20094051957130432,-1.569373909627096,6.332060002023354e-05,0.005077745299786329,1.067055583000183,-0.0004357163852546364,-0.07132598757743835,0.7634946703910828,0.01678922399878502,-0.17916478216648102
323.0,343.0,0.2291,-0.2877,9.2471,-0.1384,-0.2621,-0.117,-1.6804939709105433,-0.298490971326828,1.866988182067871,-1.8720167875289917,0.017642056569457054,2.0862185955047607,4.989501821785726,0.00027093992684967816,0.2246154248714447,-1.569361988698141,6.0483704146463424e-05,0.02051214687526226,1.0671160221099854,-0.0006550023099407554,-0.07503291964530945,0.7636634707450867,0.014911814592778683,-0.15496714413166046
323.0,343.0,0.2291,-0.2877,9.2471,-0.1384,-0.2621,-0.117,-1.6829153499998988,-0.2924421429634094,1.8996152877807617,-1.8718695640563965,0.024265317246317863,2.084951162338257,4.989517885237493,0.0008564802119508386,0.21051061153411865,-1.5693944136248987,3.284572969164401e-08,0.012007810175418854,1.0670602321624756,-0.0008548832265660167,-0.08564746379852295,0.7637550234794617,0.014126710593700409,-0.16951876878738403
323.0,343.0,0.2291,-0.2877,9.2471,-0.1384,-0.2621,-0.117,-1.6847135029234828,-0.29800155758857727,1.9176987409591675,-1.8716894388198853,0.029366079717874527,2.0893349647521973,4.989533829479971,0.0005876269424334168,0.20044463872909546,-1.5693624655352991,9.142729108513326e-12,0.017263850197196007,1.067124605178833,-0.0007816865108907223,-0.08271582424640656,0.7638993859291077,0.014960234984755516,-0.2139424830675125
323.0,343.0,0.2291,-0.2877,9.2471,-0.1384,-0.2621,-0.117,-1.6872388325133265,-0.3102145791053772,1.8897225856781006,-1.8714573383331299,0.032658398151397705,2.082253932952881,4.989525723248281,0.0004092676972504705,0.2165432870388031,-1.5693944136248987,1.6616461054991364e-16,0.01880054548382759,1.0670320987701416,-0.000659689016174525,-0.0883137583732605,0.7640034556388855,0.016349004581570625,-0.1966186761856079
323.0,343.0,0.2291,-0.2877,9.2471,-0.1384,-0.2621,-0.117,-1.689791818658346,-0.3143005669116974,1.917837142944336,-1.871213674545288,0.036026544868946075,2.083552598953247,4.989509779005804,0.00036631367402151227,0.19012627005577087,-1.5694144407855433,3.019959676042244e-21,0.0035206563770771027,1.0670883655548096,-0.0005426417919807136,-0.07819779962301254,0.7641115784645081,0.016467470675706863,-0.17103537917137146
323.0,343.0,0.2291,-0.2877,9.2471,-0.1384,-0.2621,-0.117,-1.6917382679381312,-0.32711589336395264,1.931816577911377,-1.870925784111023,0.041456278413534164,2.1670804023742676,4.989517587214269,0.00033366415300406516,0.21769103407859802,-1.569390122090475,8.406168859212046e-25,0.02007334865629673,1.067132830619812,-0.000478828267659992,-0.09211007505655289,0.7642154693603516,0.01470861118286848,-0.1483168601989746
323.0,343.0,0.2291,-0.2877,9.2471,-0.1384,-0.2621,-0.117,-1.694359918633932,-0.3187287449836731,1.8970065116882324,-1.8704763650894165,0.05022543668746948,2.1096246242523193,4.989513653307714,0.00026934282504953444,0.22032129764556885,-1.5693824926959437,1.5277795881818014e-29,0.01438889466226101,1.067093014717102,-0.0004557643842417747,-0.09607657790184021,0.7643401026725769,0.010944130830466747,-0.15742063522338867
323.0,343.0,0.2291,-0.2877,9.2471,-0.1384,-0.2621,-0.117,-1.696968217889303,-0.33057472109794617,1.94658362865448,-1.870052695274353,0.05807514861226082,2.132988452911377,4.989541905909338,0.0002668074157554656,0.21471348404884338,-1.5693863073932093,2.7766639046698747e-34,0.02452525869011879,1.0670926570892334,-0.00037031288957223296,-0.10091955959796906,0.7643634080886841,0.009816410019993782,-0.18779729306697845
323.0,343.0,0.2291,-0.2877,9.2471,-0.1384,-0.2621,-0.117,-1.6989661655821742,-0.3324427902698517,1.902446985244751,-1.8697178363800049,0.062107209116220474,2.132476806640625,4.989525723248281,0.0002932225470431149,0.21170637011528015,-1.5693581740008753,7.728946318410774e-38,0.01585470139980316,1.067023754119873,-0.00035249735810793936,-0.09717415273189545,0.7644519805908203,0.00936141423881054,-0.19778458774089813
323.0,343.0,0.2291,-0.2877,9.2471,-0.1384,-0.2621,-0.117,-1.7016197643675746,-0.3339514136314392,1.9675899744033813,-1.8691656589508057,0.07107317447662354,2.1602625846862793,4.989541905909338,0.0002566355396993458,0.2049332708120346,-1.569390122090475,1.4041010612534667e-42,0.01158844493329525,1.0670480728149414,-0.00032825724338181317,-0.08896393328905106,0.7645516991615295,0.008318940177559853,-0.15834540128707886
318.0,364.0,0.2124,-0.457,10.3041,-0.1083,-0.1695,-0.1419,-1.7042566738524378,-0.33512380719184875,1.9775874614715576,-1.8685213327407837,0.07828786969184875,2.1265244483947754,4.989501791983404,0.0002105466992361471,0.227484792470932,-1.569361988698141,0.0,0.00493353558704257,1.0670523643493652,-0.00031091723940335214,-0.09556908160448074,0.7645476460456848,0.007948784157633781,-0.17926597595214844
318.0,364.0,0.2124,-0.457,10.3041,-0.1083,-0.1695,-0.1419,-1.7062508068480433,-0.33518972992897034,1.997089147567749,-1.8680251836776733,0.08356800675392151,2.1308844089508057,4.989581364184179,0.00017910890164785087,0.21203705668449402,-1.5693782011615198,0.0,0.015584728680551052,1.0670042037963867,-0.00029768585227429867,-0.09584981203079224,0.7646358013153076,0.007507653441280127,-0.1826140284538269
318.0,364.0,0.2124,-0.457,10.3041,-0.1083,-0.1695,-0.1419,-1.7088567219176234,-0.3366157114505768,2.018615961074829,-1.8673256635665894,0.09092511981725693,2.173065662384033,4.989553409605779,0.00010799911979120225,0.22716860473155975,-1.5693824926959437,0.0,0.001955100568011403,1.0670443773269653,-0.0003702673420775682,-0.1026744544506073,0.7646958827972412,0.00631110742688179,-0.16508522629737854
318.0,364.0,0.2124,-0.457,10.3041,-0.1083,-0.1695,-0.1419,-1.7115737400450648,-0.3384076952934265,1.9481074810028076,-1.8664979934692383,0.10413531213998795,2.167001724243164,4.989565390139379,0.00012849080667365342,0.21932485699653625,-1.5694063345538538,0.0,0.0031958469189703465,1.0670320987701416,-0.0006018811254762113,-0.09530296921730042,0.7647117376327515,0.005286901257932186,-0.1773664951324463
318.0,364.0,0.2124,-0.457,10.3041,-0.1083,-0.1695,-0.1419,-1.713557859460348,-0.3336150646209717,2.0052266120910645,-1.8658381700515747,0.11382992565631866,2.1812222003936768,4.989537912398138,0.0004586504364851862,0.23434561491012573,-1.5693782011615198,0.0,-0.006743502803146839,1.0670082569122314,-0.0010429398389533162,-0.11542709171772003,0.7647642493247986,0.004575903527438641,-0.2126985788345337
318.0,364.0,0.2124,-0.457,10.3041,-0.1083,-0.1695,-0.1419,-1.7162815533080042,-0.3353729248046875,1.979144811630249,-1.8647857904434204,0.12984821200370789,2.1966891288757324,4.989613520890035,0.000524133094586432,0.2243967056274414,-1.5693581740008753,0.0,0.00781884416937828,1.0669724941253662,-0.0037506544031202793,-0.11597684025764465,0.7648081183433533,0.003936579450964928,-0.19877955317497253
318.0,364.0,0.2124,-0.457,10.3041,-0.1083,-0.1695,-0.1419,-1.719020505944723,-0.335405558347702,2.0550332069396973,-1.8637380599975586,0.1457614153623581,2.2091829776763916,4.989553409605779,0.0004502885858528316,0.23890730738639832,-1.5693262259112757,0.0,-0.0036420500837266445,1.0669524669647217,-0.013271068222820759,-0.1172982007265091,0.7648399472236633,0.003315563779324293,-0.16963960230350494
318.0,364.0,0.2124,-0.457,10.3041,-0.1083,-0.1695,-0.1419,-1.7211271725096644,-0.33870404958724976,2.045675277709961,-1.8628140687942505,0.15139758586883545,2.2312910556793213,4.989565390139379,0.00037912759580649436,0.23321914672851562,-1.5693662802325647,0.0,0.0019941823557019234,1.066787838935852,-0.016405591741204262,-0.11630947887897491,0.7648524045944214,0.002837943844497204,-0.1948806792497635
318.0,364.0,0.2124,-0.457,10.3041,-0.1083,-0.1695,-0.1419,-1.7239347896971644,-0.3499400019645691,2.029465913772583,-1.861541986465454,0.1606619656085968,2.172759532928467,4.989545452385702,0.0002946189197245985,0.22672900557518005,-1.5693824926959437,0.0,0.008770795539021492,1.0666840076446533,-0.01797880046069622,-0.11998902261257172,0.7648520469665527,0.002448714803904295,-0.22493302822113037
318.0,364.0,0.2124,-0.457,10.3041,-0.1083,-0.1695,-0.1419,-1.726678033868307,-0.3469870686531067,2.0511348247528076,-1.8602313995361328,0.178463414311409,2.2504780292510986,4.989541905909338,0.000233438826398924,0.22561785578727722,-1.5693381468402308,0.0,0.00386315630748868,1.0664877891540527,-0.020554274320602417,-0.13730625808238983,0.7648839354515076,0.0013646770967170596,-0.20581406354904175
318.0,364.0,0.2124,-0.457,10.3041,-0.1083,-0.1695,-0.1419,-1.7288457355894984,-0.35483452677726746,1.994462013244629,-1.8591266870498657,0.1844760775566101,2.2305078506469727,4.989593285113134,0.00016169209266081452,0.22904525697231293,-1.5693944136248987,0.0,0.005536964628845453,1.0663834810256958,-0.02493034489452839,-0.13160842657089233,0.7648963332176208,0.0009368429309688509,-0.18257063627243042
318.0,364.0,0.2124,-0.457,10.3041,-0.1083,-0.1695,-0.1419,-1.7315923176207484,-0.3534163236618042,2.0996856689453125,-1.857559323310852,0.19438964128494263,2.2871804237365723,4.989581364184179,7.02139368513599e-05,0.22370268404483795,-1.569373909627096,0.0,-0.011496799066662788,1.066159725189209,-0.0398879274725914,-0.14248734712600708,0.764847993850708,0.0006236658082343638,-0.23638856410980225
355.0,460.0,0.3775,-1.209,10.0217,-0.0689,-0.0229,-0.3325,-1.7343961201109828,-0.35239365696907043,2.114137649536133,-1.8558863401412964,0.20612552762031555,2.285433769226074,4.989597576647558,0.00010585995914880186,0.23647171258926392,-1.5694182554828089,0.0,-0.005699119530618191,1.065630316734314,-0.07309763878583908,-0.15819820761680603,0.7649285197257996,0.0005919106188230217,-0.19466280937194824
355.0,460.0,0.3775,-1.209,10.0217,-0.0689,-0.0229,-0.3325,-1.736434122125143,-0.3482864797115326,2.034538507461548,-1.8547236919403076,0.22173140943050385,2.2690463066101074,4.989601570158758,9.03397667570971e-05,0.22812223434448242,-1.5694144407855433,0.0,0.0071730599738657475,1.0650428533554077,-0.11169145256280899,-0.1795653998851776,0.764880359172821,0.0006311565521173179,-0.27541911602020264
355.0,460.0,0.3775,-1.209,10.0217,-0.0689,-0.0229,-0.3325,-1.7391773662962855,-0.3471706807613373,2.0989084243774414,-1.85291588306427,0.23386523127555847,2.3282852172851562,4.9895574925239465,3.892618406098336e-05,0.22711509466171265,-1.5693500677691858,0.0,0.0022559978533536196,1.0640714168548584,-0.12959076464176178,-0.1885215938091278,0.7648839354515076,0.0009398754918947816,-0.2658902108669281
355.0,460.0,0.3775,-1.209,10.0217,-0.0689,-0.0229,-0.3325,-1.7419687710204066,-0.35248830914497375,2.0921969413757324,-1.8509804010391235,0.2433203160762787,2.2799301147460938,4.98960559347228,6.227247649803758e-05,0.22916680574417114,-1.5693944136248987,0.0,-0.005551257636398077,1.0630871057510376,-0.11029991507530212,-0.18483862280845642,0.764944314956665,0.0016195309581235051,-0.23296263813972473
355.0,460.0,0.3775,-1.209,10.0217,-0.0689,-0.0229,-0.3325,-1.7440115414061488,-0.35110458731651306,2.1108505725860596,-1.8494927883148193,0.2599869668483734,2.33207368850708,4.989556866675176,8.729302498977631e-05,0.22771987318992615,-1.5693829695331019,0.0,-0.009604633785784245,1.0624077320098877,-0.11859399080276489,-0.18935871124267578,0.764960527420044,0.0018339151283726096,-0.2654220461845398
355.0,460.0,0.3775,-1.209,10.0217,-0.0689,-0.0229,-0.3325,-1.746854921380514,-0.3451211750507355,2.1164674758911133,-1.8473080396652222,0.2775769829750061,2.3801140785217285,4.989549475699224,7.733256643405184e-05,0.2330969125032425,-1.5693705717669886,0.0,-0.00670805387198925,1.0611588954925537,-0.18072445690631866,-0.2193310558795929,0.7648919224739075,0.0008507586317136884,-0.27401942014694214
355.0,460.0,0.3775,-1.209,10.0217,-0.0689,-0.0229,-0.3325,-1.7497340641417445,-0.3487233519554138,2.1436798572540283,-1.8449913263320923,0.2906721234321594,2.383146047592163,4.989593493729391,9.207821130985394e-05,0.22622184455394745,-1.5693462530719202,0.0,0.0029786154627799988,1.0595265626907349,-0.21870356798171997,-0.25424134731292725,0.7649564146995544,0.0005809649010188878,-0.24675381183624268
355.0,460.0,0.3775,-1.209,10.0217,-0.0689,-0.0229,-0.3325,-1.7519613705077113,-0.34598487615585327,2.2088570594787598,-1.8431553840637207,0.31005626916885376,2.384324312210083,4.98957325795249,0.0001687121985014528,0.2198805809020996,-1.5693381468402308,0.0,0.002083960920572281,1.0579735040664673,-0.25119513273239136,-0.24992665648460388,0.7649240493774414,0.0004821913316845894,-0.23005473613739014
355.0,460.0,0.3775,-1.209,10.0217,-0.0689,-0.0229,-0.3325,-1.7548614941039027,-0.3605089485645294,2.2123866081237793,-1.840631365776062,0.3216637969017029,2.432694911956787,4.989545780211248,8.166570478351787e-05,0.22543886303901672,-1.5693705717669886,0.0,-0.017668260261416435,1.055798053741455,-0.2676934599876404,-0.26701802015304565,0.764936089515686,0.000536314386408776,-0.2289636880159378
355.0,460.0,0.3775,-1.209,10.0217,-0.0689,-0.0229,-0.3325,-1.7577721081175746,-0.3573252260684967,2.183018207550049,-1.8379557132720947,0.33563292026519775,2.453590154647827,4.989585327893057,9.333572961622849e-05,0.22978335618972778,-1.5693662802325647,0.0,0.003960111644119024,1.0533976554870605,-0.33666667342185974,-0.2890288233757019,0.7649279236793518,0.00041338344453833997,-0.25234395265579224
355.0,460.0,0.3775,-1.209,10.0217,-0.0689,-0.0229,-0.3325,-1.759878774682516,-0.36700204014778137,2.1549484729766846,-1.8358793258666992,0.3456712067127228,2.3819849491119385,4.989601570158758,8.660035382490605e-05,0.23213541507720947,-1.5693300406085413,0.0,-0.004570376593619585,1.0512136220932007,-0.36722150444984436,-0.3045770525932312,0.764936089515686,0.0003526367945596576,-0.27594926953315735
355.0,460.0,0.3775,-1.209,10.0217,-0.0689,-0.0229,-0.3325,-1.7628065548338832,-0.3633258640766144,2.192689895629883,-1.8330051898956299,0.36313772201538086,2.4873578548431396,4.989569413452902,7.899865158833563e-05,0.21905526518821716,-1.5693262259112757,0.0,0.012267754413187504,1.0481003522872925,-0.3985474109649658,-0.31378376483917236,0.7649037837982178,0.0002948652836494148,-0.23042607307434082
355.0,460.0,0.3775,-1.209,10.0217,-0.0689,-0.0229,-0.3325,-1.7648974857726039,-0.36167988181114197,2.2249109745025635,-1.8307874202728271,0.37441277503967285,2.443723440170288,4.9895613370235345,7.411900878651068e-05,0.23858481645584106,-1.5693543593036097,0.0,0.003103044582530856,1.045456886291504,-0.4577496349811554,-0.34385761618614197,0.764960527420044,0.0002626003697514534,-0.2475871741771698
389.0,492.0,0.4839,-0.9888,10.3011,0.0333,0.1205,-0.8604,-1.767684122125143,-0.3538460433483124,2.260057210922241,-1.8277978897094727,0.3896124064922333,2.5301880836486816,4.98962943533019,6.847929762443528e-05,0.22644825279712677,-1.5693381468402308,0.0,0.00917808711528778,1.0414979457855225,-0.5027696490287781,-0.3297278881072998,0.7649399638175964,0.0002241773618152365,-0.23332057893276215
389.0,492.0,0.4839,-0.9888,10.3011,0.0333,0.1205,-0.8604,-1.7705160580077113,-0.3570675551891327,2.2419896125793457,-1.8245677947998047,0.3991299271583557,2.458549976348877,4.989533829479971,4.773027103510685e-05,0.23416399955749512,-1.5693262259112757,0.0,-0.0033495184034109116,1.0371512174606323,-0.5702592730522156,-0.3653448820114136,0.7649559378623962,0.0011653321562334895,-0.28239744901657104
389.0,492.0,0.4839,-0.9888,10.3011,0.0333,0.1205,-0.8604,-1.772614141503805,-0.35951629281044006,2.224299192428589,-1.8221162557601929,0.41179102659225464,2.5230231285095215,4.989537882595815,4.532429011305794e-05,0.22201915085315704,-1.5693705717669886,0.0,0.0026285131461918354,1.0336049795150757,-0.6019155383110046,-0.36396345496177673,0.7649920582771301,0.003355657681822777,-0.3066239356994629
389.0,492.0,0.4839,-0.9888,10.3011,0.0333,0.1205,-0.8604,-1.7754742107787074,-0.3596523702144623,2.2802438735961914,-1.818774938583374,0.42263734340667725,2.505704641342163,4.989581423788824,4.24723511969205e-05,0.2213135063648224,-1.569305721913473,0.0,0.0009118649177253246,1.028513789176941,-0.6512477397918701,-0.33666783571243286,0.7650524377822876,0.004542902577668428,-0.27833646535873413
389.0,492.0,0.4839,-0.9888,10.3011,0.0333,0.1205,-0.8604,-1.778285642663473,-0.3559459149837494,2.2435717582702637,-1.8153204917907715,0.4418144226074219,2.523271083831787,4.98962156751708,4.0183407691074535e-05,0.22929620742797852,-1.569378677998678,0.0,0.008673767559230328,1.023093342781067,-0.6953587532043457,-0.3547660708427429,0.7650681734085083,0.004902482032775879,-0.2636919617652893
389.0,492.0,0.4839,-0.9888,10.3011,0.0333,0.1205,-0.8604,-1.7805096111693324,-0.3577418625354767,2.2648885250091553,-1.8125821352005005,0.4517594873905182,2.5412442684173584,4.989597576647558,3.8259546272456646e-05,0.21577291190624237,-1.5693824926959437,0.0,0.022972948849201202,1.0188572406768799,-0.7204717993736267,-0.36406567692756653,0.765112578868866,0.006153718568384647,-0.2428378164768219
389.0,492.0,0.4839,-0.9888,10.3011,0.0333,0.1205,-0.8604,-1.7834168873228968,-0.35592085123062134,2.293262481689453,-1.80886709690094,0.4682113826274872,2.499925136566162,4.989569413452902,3.620722418418154e-05,0.2325621247291565,-1.569394890462057,0.0,0.0026829661801457405,1.0130070447921753,-0.7441531419754028,-0.32683637738227844,0.7651724815368652,0.008658047765493393,-0.2266460359096527
389.0,492.0,0.4839,-0.9888,10.3011,0.0333,0.1205,-0.8604,-1.7864262066283167,-0.3698338568210602,2.3164219856262207,-1.8050860166549683,0.47932693362236023,2.590261459350586,4.989573585778036,-3.140964327030815e-05,0.23281119763851166,-1.569305721913473,0.0,0.013632764108479023,1.0069024562835693,-0.7683096528053284,-0.2935694456100464,0.7652523517608643,0.012578561902046204,-0.2241312563419342
389.0,492.0,0.4839,-0.9888,10.3011,0.0333,0.1205,-0.8604,-1.7886811695494593,-0.36872005462646484,2.3406238555908203,-1.8021713495254517,0.48496171832084656,2.5422210693359375,4.989497709065237,-8.271224942291155e-05,0.22447197139263153,-1.5693381468402308,0.0,0.023635419085621834,1.0020792484283447,-0.7966852188110352,-0.3129306435585022,0.7653042674064636,0.01516167912632227,-0.1819901168346405
389.0,492.0,0.4839,-0.9888,10.3011,0.0333,0.1205,-0.8604,-1.7916294536986292,-0.37820786237716675,2.3211686611175537,-1.7983063459396362,0.4972165524959564,2.557377815246582,4.989521729737081,-7.91169804870151e-05,0.2209492027759552,-1.5693424383746546,0.0,0.01888902857899666,0.9957199692726135,-0.8040235042572021,-0.30966535210609436,0.7654405832290649,0.01827791891992092,-0.20206484198570251
389.0,492.0,0.4839,-0.9888,10.3011,0.0333,0.1205,-0.8604,-1.794577261010641,-0.37379297614097595,2.348947048187256,-1.7943142652511597,0.5055426359176636,2.535592794418335,4.989537644177236,-0.0003785121371038258,0.2170718014240265,-1.5693500677691858,3.5841101180267287e-06,0.014542117714881897,0.989284336566925,-0.8126740455627441,-0.29530414938926697,0.7656051516532898,0.021650932729244232,-0.1923677772283554
389.0,492.0,0.4839,-0.9888,10.3011,0.0333,0.1205,-0.8604,-1.7967964611449183,-0.37433019280433655,2.3730251789093018,-1.7912395000457764,0.5154414772987366,2.5486903190612793,4.989505815296926,-0.00036168834776617587,0.20774883031845093,-1.5693705717669886,9.976502957087519e-10,0.03374096378684044,0.9844813346862793,-0.8151046633720398,-0.2914314866065979,0.7657732367515564,0.02507803775370121,-0.19546911120414734
336.0,363.0,0.5797,0.1675,9.7274,0.0747,0.1822,-0.832,-1.7997571430602015,-0.37254443764686584,2.3458144664764404,-1.7870984077453613,0.5261194705963135,2.5833170413970947,4.989493804961004,-0.00028659027884714305,0.20781373977661133,-1.5693424383746546,1.813180072122826e-14,0.031085729598999023,0.9778304696083069,-0.8126311302185059,-0.2738848030567169,0.7659772038459778,0.032079894095659256,-0.15880367159843445
336.0,363.0,0.5797,0.1675,9.7274,0.0747,0.1822,-0.832,-1.8027249775328578,-0.3728756308555603,2.365260362625122,-1.7828236818313599,0.5290538668632507,2.5354299545288086,4.989473151951589,-0.0003698425425682217,0.21776561439037323,-1.569350544606344,3.2953647757890864e-19,0.02828989550471306,0.9713810682296753,-0.8045057058334351,-0.2682410180568695,0.7662975192070007,0.04047169163823128,-0.17006126046180725
336.0,363.0,0.5797,0.1675,9.7274,0.0747,0.1822,-0.832,-1.8050013981261195,-0.3814088702201843,2.3441336154937744,-1.779712200164795,0.5293282866477966,2.6038155555725098,4.989525753050604,-0.0015958192525431514,0.2119370400905609,-1.5693424383746546,9.172768583004264e-23,0.04466945677995682,0.9666075706481934,-0.8048024773597717,-0.24101528525352478,0.7664971947669983,0.04565959423780441,-0.15964092314243317
336.0,363.0,0.5797,0.1675,9.7274,0.0747,0.1822,-0.832,-1.8080698452391566,-0.37669411301612854,2.397783041000366,-1.7753185033798218,0.5364176034927368,2.593266010284424,4.989537644177236,-0.00038682526792399585,0.20000961422920227,-1.5693381468402308,1.667105374719002e-27,0.04221750795841217,0.960139811038971,-0.7955096960067749,-0.24898222088813782,0.7668696641921997,0.050622839480638504,-0.12441248446702957
336.0,363.0,0.5797,0.1675,9.7274,0.0747,0.1822,-0.832,-1.8110977611937464,-0.37988877296447754,2.357900857925415,-1.7710106372833252,0.5441275835037231,2.532496452331543,4.989505785494604,-0.00023830891586840153,0.2116619199514389,-1.56932241121401,3.0298822396505404e-32,0.047181371599435806,0.9540829062461853,-0.7748863101005554,-0.22903980314731598,0.7673143148422241,0.052095044404268265,-0.15138687193393707
336.0,363.0,0.5797,0.1675,9.7274,0.0747,0.1822,-0.832,-1.813425203362936,-0.3700188994407654,2.4283394813537598,-1.7677420377731323,0.5533158779144287,2.583440065383911,4.989577370672979,-0.00018838283722288907,0.2130887508392334,-1.5693014303790491,8.433788123474565e-36,0.05025673285126686,0.9494172930717468,-0.7672175168991089,-0.24083390831947327,0.7676266431808472,0.05079728364944458,-0.18857896327972412
336.0,363.0,0.5797,0.1675,9.7274,0.0747,0.1822,-0.832,-1.8164698086180628,-0.3799803853034973,2.4083666801452637,-1.7633168697357178,0.555831253528595,2.5523152351379395,4.989525753050604,-9.171895362669602e-05,0.20734897255897522,-1.5693543593036097,1.532796312217058e-40,0.05746942758560181,0.9435089826583862,-0.7432305216789246,-0.21496549248695374,0.7681071758270264,0.04893979802727699,-0.15844906866550446
336.0,363.0,0.5797,0.1675,9.7274,0.0747,0.1822,-0.832,-1.819646497766012,-0.38473230600357056,2.4376654624938965,-1.7588971853256226,0.560641348361969,2.545091152191162,4.989452916174688,-6.525769276777282e-05,0.20949670672416687,-1.5693424383746546,2.802596928649634e-45,0.046588972210884094,0.937535285949707,-0.7219842672348022,-0.1858142763376236,0.7685436606407166,0.048890337347984314,-0.12068277597427368
336.0,363.0,0.5797,0.1675,9.7274,0.0747,0.1822,-0.832,-1.8219338856139125,-0.3991844356060028,2.441260814666748,-1.7556051015853882,0.5640971064567566,2.5867228507995605,4.989493894367971,-7.650353654753417e-05,0.2164492905139923,-1.5693348089801233,0.0,0.035140261054039,0.9331784844398499,-0.7160064578056335,-0.2055903673171997,0.7688117623329163,0.05021926015615463,-0.1362590789794922
336.0,363.0,0.5797,0.1675,9.7274,0.0747,0.1822,-0.832,-1.8251339397826136,-0.4012415409088135,2.4422669410705566,-1.7511208057403564,0.5580947399139404,2.5946273803710938,4.989505994110861,-0.0012348375748842955,0.2025257647037506,-1.5693424383746546,0.0,0.04325620457530022,0.9274941682815552,-0.6948208808898926,-0.20383019745349884,0.7691798210144043,0.04886641353368759,-0.17765246331691742
336.0,363.0,0.5797,0.1675,9.7274,0.0747,0.1822,-0.832,-1.8282505474486292,-0.40062886476516724,2.4739019870758057,-1.746524691581726,0.5579878687858582,2.5632665157318115,4.989489751845159,-0.00024239202321041375,0.19986625015735626,-1.5693500677691858,0.0,0.04397697001695633,0.9222028255462646,-0.6729967594146729,-0.22318407893180847,0.769564151763916,0.048005811870098114,-0.14309582114219666
336.0,363.0,0.5797,0.1675,9.7274,0.0747,0.1822,-0.832,-1.8306261501707972,-0.39742743968963623,2.5001561641693115,-1.7431222200393677,0.5653820037841797,2.591942310333252,4.989529835968771,-1.1983497927303688e-07,0.1974588930606842,-1.5693424383746546,0.0,0.05162503570318222,0.91823810338974,-0.660091757774353,-0.18420270085334778,0.7698241472244263,0.04745586961507797,-0.1463163048028946
295.0,304.0,0.6455,-0.5288,8.7625,0.0179,0.1463,-0.6248,-1.8337298832335414,-0.3958926796913147,2.515901565551758,-1.738615870475769,0.5657811760902405,2.567257881164551,4.989493804961004,-2.177941637801495e-12,0.19423231482505798,-1.5693824926959437,0.0,0.0598737895488739,0.913007915019989,-0.6418389081954956,-0.1915796995162964,0.7702204585075378,0.046606067568063736,-0.1234930157661438
295.0,304.0,0.6455,-0.5288,8.7625,0.0179,0.1463,-0.6248,-1.8369513950743617,-0.40058600902557373,2.491560935974121,-1.7341135740280151,0.5687192678451538,2.6334588527679443,4.989441948920049,-3.958300767805103e-17,0.20065301656723022,-1.56932241121401,0.0,0.06426666676998138,0.9079100489616394,-0.630791187286377,-0.1985205113887787,0.7705687880516052,0.04945932701230049,-0.20383571088314056
295.0,304.0,0.6455,-0.5288,8.7625,0.0179,0.1463,-0.6248,-1.8392983875670375,-0.39752620458602905,2.5037689208984375,-1.7306772470474243,0.566706657409668,2.5476737022399902,4.989477801113882,-1.1018075647568306e-20,0.2071080207824707,-1.5693743864642542,0.0,0.06462793797254562,0.904226541519165,-0.6100053191184998,-0.1716432124376297,0.7709136605262756,0.05195743590593338,-0.17433948814868927
295.0,304.0,0.6455,-0.5288,8.7625,0.0179,0.1463,-0.6248,-1.8425432644286097,-0.40339595079421997,2.497851610183716,-1.7261698246002197,0.5693297386169434,2.5812017917633057,4.989493864565649,-2.0024808833703664e-25,0.20656996965408325,-1.5693424383746546,0.0,0.05458103120326996,0.8994072675704956,-0.5981729626655579,-0.1988053321838379,0.7712691426277161,0.055129073560237885,-0.12076082825660706
295.0,304.0,0.6455,-0.5288,8.7625,0.0179,0.1463,-0.6248,-1.845809122125143,-0.39661285281181335,2.5586535930633545,-1.7216202020645142,0.5772510766983032,2.5696215629577637,4.98946966507987,5.5917713325470686e-05,0.19472548365592957,-1.5693262259112757,0.0,0.06205564737319946,0.8947932124137878,-0.5850223302841187,-0.21368056535720825,0.7716935276985168,0.059097349643707275,-0.13264378905296326
295.0,304.0,0.6455,-0.5288,8.7625,0.0179,0.1463,-0.6248,-1.8483363590636195,-0.40398502349853516,2.522348165512085,-1.7181154489517212,0.5746888518333435,2.580719470977783,4.989449965744772,-0.0001298662245972082,0.21160094439983368,-1.5693424383746546,0.0,0.054456308484077454,0.8912510275840759,-0.5813375115394592,-0.2018701732158661,0.7720703482627869,0.06092841923236847,-0.1390555202960968
295.0,304.0,0.6455,-0.5288,8.7625,0.0179,0.1463,-0.6248,-1.851637979547018,-0.4069289267063141,2.5768799781799316,-1.7135350704193115,0.569352388381958,2.6016335487365723,4.989461886673727,-0.00011008494766429067,0.21488291025161743,-1.5693305174456995,0.0,0.056937847286462784,0.8867325186729431,-0.5727383494377136,-0.2040974199771881,0.7725419998168945,0.06380773335695267,-0.18707144260406494
295.0,304.0,0.6455,-0.5288,8.7625,0.0179,0.1463,-0.6248,-1.854948183099264,-0.41981279850006104,2.591464042663574,-1.7091320753097534,0.5629236698150635,2.5728697776794434,4.9894335744674585,-0.0008084580767899752,0.22052180767059326,-1.5693100134478968,5.790956493001431e-05,0.051782719790935516,0.8822766542434692,-0.5487877726554871,-0.19529125094413757,0.77310711145401,0.06265881657600403,-0.20912794768810272
295.0,304.0,0.6455,-0.5288,8.7625,0.0179,0.1463,-0.6248,-1.8574067554869593,-0.42061907052993774,2.5305309295654297,-1.7057183980941772,0.5577449202537537,2.5757713317871094,4.989369588881292,-0.0013645756989717484,0.20527806878089905,-1.5693100134478968,5.594451795332134e-05,0.05652344971895218,0.8787878751754761,-0.5570334196090698,-0.20648176968097687,0.7734068036079407,0.060757651925086975,-0.1427645981311798
295.0,304.0,0.6455,-0.5288,8.7625,0.0179,0.1463,-0.6248,-1.8606802425780238,-0.4155130684375763,2.5799622535705566,-1.7013072967529297,0.5575931072235107,2.504802703857422,4.989445942431249,-0.0005663327756337821,0.20795762538909912,-1.5693467299090784,5.329438135959208e-05,0.056966327130794525,0.8744450211524963,-0.5458180904388428,-0.21585412323474884,0.7738433480262756,0.054587289690971375,-0.18660634756088257
295.0,304.0,0.6455,-0.5288,8.7625,0.0179,0.1463,-0.6248,-1.8639260731139125,-0.4084942042827606,2.6262059211730957,-1.6968601942062378,0.5582351088523865,2.526263475418091,4.989454048662939,-0.00043168675620108843,0.20791354775428772,-1.5693262259112757,5.0883878429885954e-05,0.06102628633379936,0.8700489401817322,-0.5418938994407654,-0.21161100268363953,0.7743365168571472,0.04754958674311638,-0.24093565344810486
295.0,304.0,0.6455,-0.5288,8.7625,0.0179,0.1463,-0.6248,-1.8663650951781214,-0.4097099006175995,2.60268235206604,-1.6934715509414673,0.5588304400444031,2.616594076156616,4.989445942431249,-0.0002569151110947132,0.20679393410682678,-1.5693100134478968,3.2488810575159732e-06,0.07355000078678131,0.8668791651725769,-0.5396212935447693,-0.23517344892024994,0.7745841145515442,0.044828712940216064,-0.2138562798500061
295.0,304.0,0.6455,-0.5288,8.7625,0.0179,0.1463,-0.6248,-1.8696629009642542,-0.4097893536090851,2.637265205383301,-1.6890579462051392,0.5525187849998474,2.5653774738311768,4.98944182971076,-0.00015696967602707446,0.20054392516613007,-1.5693181196795862,5.904681604773643e-11,0.06584611535072327,0.8626498579978943,-0.5231582522392273,-0.18734876811504364,0.7748636603355408,0.038842786103487015,-0.24479210376739502
248.0,259.0,0.3793,-0.8195,9.5874,-0.0292,0.1451,-0.6248,-1.8730012379088343,-0.4204897880554199,2.639974594116211,-1.6845911741256714,0.546018660068512,2.5732898712158203,4.989469992905416,-0.0002353183226659894,0.21456801891326904,-1.5693381468402308,1.0731464866997045e-15,0.06884768605232239,0.8585055470466614,-0.5269359946250916,-0.19495218992233276,0.7752125263214111,0.031035395339131355,-0.2063010036945343
248.0,259.0,0.3793,-0.8195,9.5874,-0.0292,0.1451,-0.6248,-1.8755394421019496,-0.41514870524406433,2.7034242153167725,-1.6812232732772827,0.5504159331321716,2.5717616081237793,4.98950211980895,-5.752144716097973e-07,0.20325520634651184,-1.5693863073932093,2.987142545397167e-19,0.06675128638744354,0.8552173376083374,-0.5171571373939514,-0.1855068951845169,0.7753970623016357,0.027267908677458763,-0.2255719155073166
248.0,259.0,0.3793,-0.8195,9.5874,-0.0292,0.1451,-0.6248,-1.8788777790465296,-0.4130879044532776,2.684926986694336,-1.676823377609253,0.5536191463470459,2.595586061477661,4.989453840046682,0.00040597852785140276,0.19753746688365936,-1.5693381468402308,5.428983742650338e-24,0.05163151025772095,0.8510047793388367,-0.5246059894561768,-0.20862409472465515,0.7755688428878784,0.024032948538661003,-0.20651306211948395
248.0,259.0,0.3793,-0.8195,9.5874,-0.0292,0.1451,-0.6248,-1.8822270832457484,-0.40258246660232544,2.7329421043395996,-1.6723984479904175,0.5539312958717346,2.636488437652588,4.989489751845159,0.00032445418764837086,0.21155279874801636,-1.569361988698141,9.866909846610104e-29,0.04660719633102417,0.846868634223938,-0.5244829654693604,-0.2189479023218155,0.775784969329834,0.023085013031959534,-0.2041410207748413
248.0,259.0,0.3793,-0.8195,9.5874,-0.0292,0.1451,-0.6248,-1.8846494160094203,-0.4094211757183075,2.7842016220092773,-1.6691102981567383,0.551715612411499,2.6108059883117676,4.989461886673727,-0.00012724586122203618,0.20827791094779968,-1.5693662802325647,2.7464908289448386e-32,0.04305074363946915,0.8436086177825928,-0.5320978760719299,-0.2194916307926178,0.775905191898346,0.02503131702542305,-0.19020408391952515
248.0,259.0,0.3793,-0.8195,9.5874,-0.0292,0.1451,-0.6248,-1.8879195652403773,-0.4163465201854706,2.7893123626708984,-1.6647632122039795,0.5437016487121582,2.595715284347534,4.989453929453649,-0.0008179662982001901,0.21962448954582214,-1.5693424383746546,4.991611670776569e-37,0.038683708757162094,0.839478075504303,-0.5292261838912964,-0.22456344962120056,0.7761175036430359,0.027617940679192543,-0.20743334293365479
248.0,259.0,0.3793,-0.8195,9.5874,-0.0292,0.1451,-0.6248,-1.8911611042418421,-0.41776999831199646,2.770434617996216,-1.6604719161987305,0.5463037490844727,2.6499485969543457,4.989425647049703,-0.00036509393248707056,0.21996217966079712,-1.5693181196795862,1.95655975403497e-05,0.060134075582027435,0.835151731967926,-0.5366857051849365,-0.20836593210697174,0.7762973308563232,0.029867755249142647,-0.20040316879749298
248.0,259.0,0.3793,-0.8195,9.5874,-0.0292,0.1451,-0.6248,-1.8936363659300746,-0.4098338186740875,2.793653964996338,-1.6571520566940308,0.539709210395813,2.6001532077789307,4.989454048662939,-0.0002249263197882101,0.23470719158649445,-1.569338623677389,1.840873301262036e-05,0.04602696746587753,0.831948459148407,-0.5442851781845093,-0.23484236001968384,0.7764409780502319,0.030942728742957115,-0.16554567217826843
248.0,259.0,0.3793,-0.8195,9.5874,-0.0292,0.1451,-0.6248,-1.8967858753600062,-0.40206947922706604,2.820216178894043,-1.6527329683303833,0.5329012870788574,2.5854597091674805,4.989417451411047,-0.00011435626220190898,0.22253628075122833,-1.5693138281451624,1.7016458514262922e-05,0.040714144706726074,0.8276588320732117,-0.5404252409934998,-0.21492666006088257,0.7767621278762817,0.031862758100032806,-0.23399211466312408
248.0,259.0,0.3793,-0.8195,9.5874,-0.0292,0.1451,-0.6248,-1.8999558887877406,-0.3975624144077301,2.856419563293457,-1.6484863758087158,0.5347962975502014,2.5813207626342773,4.9894659397895715,-2.0076036832961108e-08,0.22518961131572723,-1.5693138281451624,1.5819981854292564e-05,0.06660183519124985,0.8231465816497803,-0.5619515776634216,-0.23423443734645844,0.7769494652748108,0.035158876329660416,-0.2449703961610794
248.0,259.0,0.3793,-0.8195,9.5874,-0.0292,0.1451,-0.6248,-1.9023577175536097,-0.39421746134757996,2.821087121963501,-1.6452066898345947,0.5327057242393494,2.606215000152588,4.98942186215476,-5.588239072873424e-12,0.21544413268566132,-1.5693305174456995,1.5027527297206689e-05,0.05693664401769638,0.8197749257087708,-0.5586528778076172,-0.2253112494945526,0.7771578431129456,0.03651050850749016,-0.2627013921737671
248.0,259.0,0.3793,-0.8195,9.5874,-0.0292,0.1451,-0.6248,-1.9056040249266566,-0.39345815777778625,2.8876380920410156,-1.6409313678741455,0.5325111746788025,2.5925683975219727,4.989481884032049,-1.0156347892308198e-16,0.20526227355003357,-1.5693061987506312,1.4086680494074244e-05,0.05203510820865631,0.8151209354400635,-0.591230034828186,-0.24652859568595886,0.7774617671966553,0.0365842767059803,-0.2295834869146347
222.0,228.0,0.0275,-0.2106,9.9589,0.0241,0.1956,-0.7747,-1.908826013604635,-0.3880421221256256,2.903472900390625,-1.6367321014404297,0.5334076285362244,2.572438955307007,4.989445942431249,-1.845865855763977e-21,0.22226345539093018,-1.5693467299090784,1.3256715647003148e-05,0.060406722128391266,0.8103523850440979,-0.5968489646911621,-0.25243252515792847,0.7777746319770813,0.0357431098818779,-0.21652039885520935
222.0,228.0,0.0275,-0.2106,9.9589,0.0241,0.1956,-0.7747,-1.911192079583639,-0.3867608308792114,2.8770499229431152,-1.6335399150848389,0.5291630625724792,2.5723443031311035,4.989433663874426,-5.138035471941045e-25,0.23271790146827698,-1.569350544606344,1.2695702025666833e-05,0.04367418587207794,0.8067129850387573,-0.5929157733917236,-0.23655754327774048,0.7779706716537476,0.03641495853662491,-0.2659609913825989
222.0,228.0,0.0275,-0.2106,9.9589,0.0241,0.1956,-0.7747,-1.91434969524526,-0.383808434009552,2.937873363494873,-1.6293165683746338,0.5373599529266357,2.6132688522338867,4.9893730757530115,-9.338127875248636e-30,0.2234676480293274,-1.569366757069723,1.201760460389778e-05,0.057848602533340454,0.8018589019775391,-0.617626965045929,-0.24675090610980988,0.778266429901123,0.035945311188697815,-0.2811536192893982
