ramyac6/ROB537/final_project/csv/test/bad/bad_109.csv
tof_0,tof_1,accelx,accely,accelz,gyrox,gyroy,gyroz,shoulder_lift_joint_position,shoulder_lift_joint_velocity,shoulder_lift_joint_effort,elbow_joint_position,elbow_joint_velocity,elbow_joint_effort,wrist_1_joint_position,wrist_1_joint_velocity,wrist_1_joint_effort,wrist_2_joint_position,wrist_2_joint_velocity,wrist_2_joint_effort,wrist_3_joint_position,wrist_3_joint_velocity,wrist_3_joint_effort,shoulder_pan_joint_position,shoulder_pan_joint_velocity,shoulder_pan_joint_effort
944.0,894.0,2.726,-0.2177,9.0293,-0.0316,0.0258,-0.1103,-1.598487993279928,0.0,2.2077975273132324,-1.95290207862854,-0.0,2.0332868099212646,4.7592634474630735,-0.0,0.2764618396759033,-1.569606129323141,0.0,-0.011983088217675686,0.8185431957244873,0.0,-0.006847770418971777,0.7921488881111145,0.0,-0.011309757828712463
944.0,894.0,2.726,-0.2177,9.0293,-0.0316,0.0258,-0.1103,-1.5984755955138148,0.0,2.2091710567474365,-1.9529390335083008,-0.0,2.041395664215088,4.759295458882608,-0.0,0.30538684129714966,-1.569634262715475,0.0,0.002812554594129324,0.8184993863105774,0.0,-0.0024283514358103275,0.7922294735908508,0.0,-0.07028283923864365
944.0,894.0,2.726,-0.2177,9.0293,-0.0316,0.0258,-0.1103,-1.5984631977477015,0.0,2.182809352874756,-1.9528659582138062,-0.0,2.0965471267700195,4.759299526899614,-0.0,0.29738155007362366,-1.5696466604815882,0.0,-0.015406731516122818,0.8184636831283569,0.0,0.0013032390270382166,0.7922172546386719,0.0,0.019398577511310577
944.0,894.0,2.726,-0.2177,9.0293,-0.0316,0.0258,-0.1103,-1.5984999142088832,0.0,2.1839776039123535,-1.9528822898864746,-0.0,2.0699639320373535,4.759303639620104,-0.0,0.30639755725860596,-1.569629971181051,0.0,0.004245031625032425,0.8184477686882019,0.0,0.0025104782544076443,0.7922576069831848,0.0,0.01088766846805811
944.0,894.0,2.726,-0.2177,9.0293,-0.0316,0.0258,-0.1103,-1.5984794102110804,0.0,2.1749181747436523,-1.9529144763946533,-0.0,2.0115034580230713,4.759271609574117,-0.0,0.29552674293518066,-1.5696705023394983,0.0,-0.01644105091691017,0.8184632658958435,0.0,-0.001721551874652505,0.7922416925430298,0.0,0.024995621293783188
944.0,894.0,2.726,-0.2177,9.0293,-0.0316,0.0258,-0.1103,-1.5984631977477015,0.0,2.155883550643921,-1.9528700113296509,-0.0,2.0608696937561035,4.759303628444233,-0.0,0.2861713767051697,-1.5696423689471644,0.0,-0.004940536338835955,0.8184871673583984,0.0,-0.020291972905397415,0.7922172546386719,0.0,0.009697534143924713
944.0,894.0,2.726,-0.2177,9.0293,-0.0316,0.0258,-0.1103,-1.5984837017455042,0.0,2.1858139038085938,-1.9529266357421875,-0.0,2.0613269805908203,4.759275353490867,-0.0,0.2976478934288025,-1.5696585814105433,0.0,-0.006493557244539261,0.818527340888977,0.0,0.001963268732652068,0.7921728491783142,0.0,-0.004760388750582933
944.0,894.0,2.726,-0.2177,9.0293,-0.0316,0.0258,-0.1103,-1.598487993279928,0.0,2.158766746520996,-1.9529143571853638,-0.0,2.08445405960083,4.759251567512312,-0.0,0.2840428352355957,-1.5696504751788538,0.0,-0.012957483530044556,0.8184155821800232,0.0,-0.018789710476994514,0.792241096496582,0.0,0.030151966959238052
944.0,894.0,2.726,-0.2177,9.0293,-0.0316,0.0258,-0.1103,-1.5985242329039515,0.0,2.14664626121521,-1.952934980392456,-0.0,2.023472309112549,4.759315560549059,-0.0,0.29710111021995544,-1.5696104208575647,0.0,-0.007987693883478642,0.8185074329376221,0.0,-0.009111413732171059,0.7922576069831848,0.0,-0.03691326081752777
941.0,855.0,2.7733,-0.2698,9.0909,-0.0373,0.0211,-0.1185,-1.5984918079771937,0.0,2.118129253387451,-1.9529061317443848,-0.0,2.054333209991455,4.759283564030685,-0.0,0.28622159361839294,-1.5696185270892542,0.0,-0.016259634867310524,0.8184712529182434,0.0,0.0048536816611886024,0.7922254204750061,0.0,0.029843555763363838
941.0,855.0,2.7733,-0.2698,9.0909,-0.0373,0.0211,-0.1185,-1.5984512768187464,0.0,2.1380436420440674,-1.9529184103012085,-0.0,2.090502977371216,4.759303606092491,-0.0,0.29141390323638916,-1.5696423689471644,0.0,0.005216825753450394,0.8184632658958435,0.0,-0.0034850563388317823,0.7921973466873169,0.0,0.022335488349199295
941.0,855.0,2.7733,-0.2698,9.0909,-0.0373,0.0211,-0.1185,-1.598443170587057,0.0,2.1657657623291016,-1.9528822898864746,-0.0,2.0731050968170166,4.759315527021446,-0.0,0.3041056990623474,-1.5696142355548304,0.0,-0.006017402280122042,0.8184792399406433,0.0,0.008518578484654427,0.7922372817993164,0.0,-0.011962907388806343
941.0,855.0,2.7733,-0.2698,9.0909,-0.0373,0.0211,-0.1185,-1.598443170587057,0.0,2.136143445968628,-1.9528948068618774,-0.0,1.989412546157837,4.759311447828569,-0.0,0.2899287939071655,-1.569606129323141,0.0,-0.017127245664596558,0.8185033798217773,0.0,-0.0009661949006840587,0.7922576069831848,0.0,0.016481969505548477
941.0,855.0,2.7733,-0.2698,9.0909,-0.0373,0.0211,-0.1185,-1.5984670124449671,0.0,2.1860365867614746,-1.9528740644454956,-0.0,2.0441410541534424,4.759267508029499,-0.0,0.29868462681770325,-1.5696585814105433,0.0,-0.0155136464163661,0.8184912204742432,0.0,0.0001427270472049713,0.792188823223114,0.0,-0.059602055698633194
941.0,855.0,2.7733,-0.2698,9.0909,-0.0373,0.0211,-0.1185,-1.5984794102110804,0.0,2.1378815174102783,-1.9529225826263428,-0.0,2.048783779144287,4.7593196024890325,-0.0,0.2972639501094818,-1.5696466604815882,0.0,-0.010076256468892097,0.8185272812843323,0.0,-0.006705388892441988,0.7922213077545166,0.0,-0.0008191064116545022
941.0,855.0,2.7733,-0.2698,9.0909,-0.0373,0.0211,-0.1185,-1.5985037289061488,0.0,2.1295576095581055,-1.9528626203536987,-0.0,2.0407533645629883,4.759231141745605,-0.0,0.3027098476886749,-1.5696218649493616,0.0,-0.010269424878060818,0.8185153007507324,0.0,0.0006485412595793605,0.7922253608703613,0.0,-0.016872569918632507
941.0,855.0,2.7733,-0.2698,9.0909,-0.0373,0.0211,-0.1185,-1.5984631977477015,0.0,2.1272966861724854,-1.9529101848602295,-0.0,2.015939950942993,4.759299526899614,-0.0,0.2892845571041107,-1.569606129323141,0.0,-0.012287857942283154,0.8185153007507324,0.0,0.00219872803427279,0.7922131419181824,0.0,-0.004971705377101898
941.0,855.0,2.7733,-0.2698,9.0909,-0.0373,0.0211,-0.1185,-1.5984794102110804,0.0,2.1511025428771973,-1.9529184103012085,-0.0,2.0180437564849854,4.759291707515278,-0.0,0.3035665452480316,-1.5696256796466272,0.0,-0.008933104574680328,0.8184397220611572,0.0,0.002242970047518611,0.7922254204750061,0.0,0.021788310259580612
941.0,855.0,2.7733,-0.2698,9.0909,-0.0373,0.0211,-0.1185,-1.5984393558897914,0.0,2.1501269340515137,-1.9529069662094116,-0.0,2.036663770675659,4.759255631804027,-0.0,0.3018174469470978,-1.569629971181051,0.0,-0.011694202199578285,0.8184752464294434,0.0,-0.00012800563126802444,0.7922213673591614,0.0,-0.0002269346732646227
941.0,855.0,2.7733,-0.2698,9.0909,-0.0373,0.0211,-0.1185,-1.5984393558897914,0.0,2.140183687210083,-1.952934980392456,-0.0,2.0173826217651367,4.759271594672956,-0.0,0.304862380027771,-1.5696466604815882,0.0,-0.007064494304358959,0.8184913396835327,0.0,-0.009529133327305317,0.7922216057777405,0.0,-0.027828067541122437
941.0,855.0,2.7733,-0.2698,9.0909,-0.0373,0.0211,-0.1185,-1.5984755955138148,0.0,2.137554168701172,-1.9529144763946533,-0.0,2.028163433074951,4.759275673865833,-0.0,0.2979195713996887,-1.569629971181051,0.0,-0.0026594907976686954,0.8184912204742432,0.0,-0.00951090082526207,0.7922133207321167,0.0,0.021895330399274826
941.0,855.0,2.7733,-0.2698,9.0909,-0.0373,0.0211,-0.1185,-1.5984837017455042,0.0,2.1480016708374023,-1.9528545141220093,-0.0,2.0316519737243652,4.759287605970659,-0.0,0.30152657628059387,-1.5696623961078089,0.0,-0.006137307267636061,0.8185033798217773,0.0,-0.001056011999025941,0.7922133803367615,0.0,0.01397004071623087
941.0,855.0,2.7733,-0.2698,9.0909,-0.0373,0.0211,-0.1185,-1.5984755955138148,0.0,2.171114921569824,-1.9528865814208984,-0.0,2.0424861907958984,4.759251533984699,-0.0,0.29521191120147705,-1.5696499983416956,0.0,-0.007514467928558588,0.8185271620750427,0.0,-0.013975116424262524,0.7922254204750061,0.0,-0.07176832854747772
941.0,855.0,2.7733,-0.2698,9.0909,-0.0373,0.0211,-0.1185,-1.5984755955138148,0.0,2.1855545043945312,-1.952858567237854,-0.0,2.017392158508301,4.759291375964441,-0.0,0.3038010895252228,-1.5696585814105433,0.0,-0.007998027838766575,0.8184597492218018,0.0,-0.002473910339176655,0.7921891808509827,0.0,-0.031191427260637283
941.0,855.0,2.7733,-0.2698,9.0909,-0.0373,0.0211,-0.1185,-1.5985037289061488,0.0,2.1324987411499023,-1.9528906345367432,-0.0,2.0332584381103516,4.759243379324236,-0.0,0.3047177195549011,-1.5696585814105433,0.0,-0.01720699667930603,0.8185752034187317,0.0,-0.011511080898344517,0.7921810150146484,0.0,-0.03448837995529175
969.0,918.0,2.7799,-0.204,8.8259,-0.0269,0.0199,-0.1119,-1.598487993279928,0.0,2.1846208572387695,-1.9529069662094116,-0.0,2.0174365043640137,4.759215167700805,-0.0,0.2941397428512573,-1.5696542898761194,0.0,-0.011369084939360619,0.8184831738471985,0.0,-0.005711154080927372,0.7922172546386719,0.0,-0.03172904998064041
969.0,918.0,2.7799,-0.204,8.8259,-0.0269,0.0199,-0.1119,-1.598455091516012,0.0,2.1547694206237793,-1.9528865814208984,-0.0,2.0497193336486816,4.759279455035486,-0.0,0.2997567653656006,-1.5696218649493616,0.0,-0.0005463757552206516,0.8185152411460876,0.0,-0.0002974012168124318,0.7922213077545166,0.0,-0.00816411804407835
969.0,918.0,2.7799,-0.204,8.8259,-0.0269,0.0199,-0.1119,-1.5984469852843226,0.0,2.168290615081787,-1.9528822898864746,-0.0,2.0138185024261475,4.759279443859615,-0.0,0.2895549535751343,-1.5696585814105433,0.0,-0.0007021329365670681,0.8184317350387573,0.0,-0.0034293271601200104,0.7921728491783142,0.0,0.016199424862861633
969.0,918.0,2.7799,-0.204,8.8259,-0.0269,0.0199,-0.1119,-1.5985037289061488,0.0,2.087127685546875,-1.9529101848602295,-0.0,1.987853765487671,4.759303606092491,-0.0,0.29028841853141785,-1.5696542898761194,0.0,-0.012033751234412193,0.8185192942619324,0.0,-0.009801464155316353,0.7922051548957825,0.0,0.02132486179471016
969.0,918.0,2.7799,-0.204,8.8259,-0.0269,0.0199,-0.1119,-1.598471303979391,0.0,2.161797285079956,-1.9529143571853638,-0.0,2.039867639541626,4.759263454913654,-0.0,0.2960816025733948,-1.5696380774127405,0.0,-0.0024571879766881466,0.8184637427330017,0.0,-0.001462793443351984,0.7921969890594482,0.0,-0.010303402319550514
969.0,918.0,2.7799,-0.204,8.8259,-0.0269,0.0199,-0.1119,-1.5985080204405726,0.0,2.2026443481445312,-1.9529184103012085,-0.0,2.0473809242248535,4.759263454913654,-0.0,0.2986268401145935,-1.5696142355548304,0.0,0.00682099349796772,0.8184597492218018,0.0,-0.003896803827956319,0.7922493815422058,0.0,-0.016252655535936356
969.0,918.0,2.7799,-0.204,8.8259,-0.0269,0.0199,-0.1119,-1.598487993279928,0.0,2.192011594772339,-1.952894687652588,-0.0,2.003840446472168,4.759311447828569,-0.0,0.30781275033950806,-1.5696585814105433,0.0,-0.0067710718140006065,0.8184994459152222,0.0,-0.00019323560991324484,0.7922253608703613,0.0,0.015741612762212753
969.0,918.0,2.7799,-0.204,8.8259,-0.0269,0.0199,-0.1119,-1.598471303979391,0.0,2.144542932510376,-1.952866792678833,-0.0,2.084914207458496,4.759323681681909,-0.0,0.29793161153793335,-1.5696623961078089,0.0,-0.018083425238728523,0.8184359073638916,0.0,-0.01932471990585327,0.792217493057251,0.0,-0.01662452146410942
969.0,918.0,2.7799,-0.204,8.8259,-0.0269,0.0199,-0.1119,-1.5985356769957484,0.0,2.202254056930542,-1.952902913093567,-0.0,2.0553133487701416,4.759303606092491,-0.0,0.3072395622730255,-1.5696542898761194,0.0,-0.011534161865711212,0.8184077143669128,0.0,-0.011093990877270699,0.7921851873397827,0.0,0.007673204876482487
969.0,918.0,2.7799,-0.204,8.8259,-0.0269,0.0199,-0.1119,-1.5984631977477015,0.0,2.1868977546691895,-1.952934980392456,-0.0,2.047996759414673,4.759279451310196,-0.0,0.30386117100715637,-1.5696185270892542,0.0,-0.005924837663769722,0.8185192942619324,0.0,0.005113689694553614,0.7922052145004272,0.0,0.03809650242328644
969.0,918.0,2.7799,-0.204,8.8259,-0.0269,0.0199,-0.1119,-1.598487993279928,0.0,2.1505560874938965,-1.9528461694717407,-0.0,1.999206304550171,4.759287296771564,-0.0,0.3101232945919037,-1.5696423689471644,0.0,-0.010554539039731026,0.8185192942619324,0.0,-0.0013191886246204376,0.7921568751335144,0.0,-0.0007387608056887984
969.0,918.0,2.7799,-0.204,8.8259,-0.0269,0.0199,-0.1119,-1.598471303979391,0.0,2.173114776611328,-1.9529021978378296,-0.0,1.994025468826294,4.759255613177576,-0.0,0.2871282398700714,-1.5696466604815882,0.0,-0.008799995295703411,0.8184712529182434,0.0,0.0009046765044331551,0.7922332882881165,0.0,-0.0029997164383530617
969.0,918.0,2.7799,-0.204,8.8259,-0.0269,0.0199,-0.1119,-1.598443170587057,0.0,2.1736178398132324,-1.952954649925232,-0.0,2.0204501152038574,4.759279455035486,-0.0,0.2864599823951721,-1.569634262715475,0.0,-0.003162355860695243,0.8184831738471985,0.0,0.002228338271379471,0.7922093272209167,0.0,-0.037120405584573746
969.0,918.0,2.7799,-0.204,8.8259,-0.0269,0.0199,-0.1119,-1.5984755955138148,0.0,2.1445236206054688,-1.9528700113296509,-0.0,2.0677101612091064,4.759263454913654,-0.0,0.2935119867324829,-1.5696104208575647,0.0,-0.016479941084980965,0.8184990882873535,0.0,-0.009539359249174595,0.7922372817993164,0.0,0.0015513645485043526
969.0,918.0,2.7799,-0.204,8.8259,-0.0269,0.0199,-0.1119,-1.598443170587057,0.0,2.158966541290283,-1.9528988599777222,-0.0,2.0204720497131348,4.759315527021446,-0.0,0.29424071311950684,-1.569702450429098,0.0,-0.007800686173141003,0.8185071349143982,0.0,-0.007334813475608826,0.7922534346580505,0.0,0.0065320199355483055
969.0,918.0,2.7799,-0.204,8.8259,-0.0269,0.0199,-0.1119,-1.5984636745848597,0.0,2.143817901611328,-1.9529309272766113,-0.0,2.0571460723876953,4.759263462364235,-0.0,0.2931748628616333,-1.5697148481952112,0.0,-0.0007718442939221859,0.8184871673583984,0.0,0.006235395558178425,0.792209267616272,0.0,0.037537239491939545
969.0,918.0,2.7799,-0.204,8.8259,-0.0269,0.0199,-0.1119,-1.5984837017455042,0.0,2.1640405654907227,-1.9529061317443848,-0.0,2.0684304237365723,4.759239251702585,-0.0,0.29093754291534424,-1.5696423689471644,0.0,-0.006707117427140474,0.8185551166534424,0.0,0.00496260542422533,0.7922254204750061,0.0,-0.022491399198770523
972.0,879.0,2.7709,-0.2453,8.8881,-0.0446,0.0279,-0.1196,-1.5984999142088832,0.0,2.1599831581115723,-1.9528825283050537,-0.0,2.040464401245117,4.7592916181083105,-0.0,0.30880966782569885,-1.5696542898761194,0.0,-0.003760852385312319,0.8184913992881775,0.0,-0.0011950497282668948,0.7922051548957825,0.0,0.0025851684622466564
972.0,879.0,2.7709,-0.2453,8.8881,-0.0446,0.0279,-0.1196,-1.5984960995116175,0.0,2.1608150005340576,-1.9529308080673218,-0.0,2.031214714050293,4.75928761714653,-0.0,0.2980469763278961,-1.5696023146258753,0.0,-0.010782520286738873,0.8185192942619324,0.0,-0.015466234646737576,0.7922776937484741,0.0,-0.00981331430375576
972.0,879.0,2.7709,-0.2453,8.8881,-0.0446,0.0279,-0.1196,-1.5984794102110804,0.0,2.1054611206054688,-1.9528306722640991,-0.0,2.0451624393463135,4.759279469936647,-0.0,0.29610830545425415,-1.5696623961078089,0.0,-0.0071394615806639194,0.8185232281684875,0.0,-0.010037138126790524,0.7922294735908508,0.0,-0.008379188366234303
972.0,879.0,2.7709,-0.2453,8.8881,-0.0446,0.0279,-0.1196,-1.598455091516012,0.0,2.1720359325408936,-1.9529143571853638,-0.0,2.034508228302002,4.759299526899614,-0.0,0.2962988018989563,-1.5696986357318323,0.0,-0.0019822390750050545,0.8185152411460876,0.0,0.0012557223672047257,0.7921768426895142,0.0,0.0033518103882670403
972.0,879.0,2.7709,-0.2453,8.8881,-0.0446,0.0279,-0.1196,-1.5985199413695277,0.0,2.1218960285186768,-1.9528266191482544,-0.0,2.0461642742156982,4.759263413935461,-0.0,0.29603463411331177,-1.569674317036764,0.0,-0.002424384467303753,0.8184359073638916,0.0,-0.005741744767874479,0.7921932935714722,0.0,-0.034236058592796326
972.0,879.0,2.7709,-0.2453,8.8881,-0.0446,0.0279,-0.1196,-1.5984837017455042,0.0,2.1312382221221924,-1.9528700113296509,-0.0,2.06831955909729,4.759267534106531,-0.0,0.2950640916824341,-1.569674317036764,0.0,-0.00416219187900424,0.8184316754341125,0.0,1.2778909876942635e-06,0.7922453284263611,0.0,0.020429328083992004
972.0,879.0,2.7709,-0.2453,8.8881,-0.0446,0.0279,-0.1196,-1.5984794102110804,0.0,2.1512954235076904,-1.9529061317443848,-0.0,2.0960781574249268,4.75928762087182,-0.0,0.3030146360397339,-1.5696666876422327,0.0,-0.004455845803022385,0.8185152411460876,0.0,-0.002803429029881954,0.7922131419181824,0.0,-0.0030582179315388203
972.0,879.0,2.7709,-0.2453,8.8881,-0.0446,0.0279,-0.1196,-1.5984960995116175,0.0,2.181460380554199,-1.9528058767318726,-0.0,2.0232434272766113,4.759263454913654,-0.0,0.2913614511489868,-1.5696466604815882,0.0,-0.007413323502987623,0.8185113668441772,0.0,-0.014843758195638657,0.7922213077545166,0.0,-0.016276326030492783
972.0,879.0,2.7709,-0.2453,8.8881,-0.0446,0.0279,-0.1196,-1.5984636745848597,0.0,2.1471176147460938,-1.9528781175613403,-0.0,2.067134380340576,4.759315527021446,-0.0,0.2983778417110443,-1.5696499983416956,0.0,-0.005261423997581005,0.8184637427330017,0.0,-0.001318289083428681,0.7921973466873169,0.0,0.04809461906552315
972.0,879.0,2.7709,-0.2453,8.8881,-0.0446,0.0279,-0.1196,-1.5984670124449671,0.0,2.139050006866455,-1.9529224634170532,-0.0,2.0681166648864746,4.759271609574117,-0.0,0.3005455434322357,-1.5696542898761194,0.0,-0.011657088063657284,0.818479597568512,0.0,-0.01650656946003437,0.7921973466873169,0.0,0.0240691639482975
972.0,879.0,2.7709,-0.2453,8.8881,-0.0446,0.0279,-0.1196,-1.5984794102110804,0.0,2.132230758666992,-1.9529061317443848,-0.0,2.0380828380584717,4.759255602001705,-0.0,0.30263105034828186,-1.5696623961078089,0.0,-0.013911686837673187,0.8184633255004883,0.0,-0.0035564834251999855,0.792209267616272,0.0,0.004613196477293968
972.0,879.0,2.7709,-0.2453,8.8881,-0.0446,0.0279,-0.1196,-1.5984393558897914,0.0,2.164844512939453,-1.952926754951477,-0.0,2.0334525108337402,4.759211088507929,-0.0,0.29651838541030884,-1.5696380774127405,0.0,-0.010526333935558796,0.8184478878974915,0.0,-0.007300538010895252,0.7922051548957825,0.0,-0.03091026470065117
972.0,879.0,2.7709,-0.2453,8.8881,-0.0446,0.0279,-0.1196,-1.598443170587057,0.0,2.133871555328369,-1.9528297185897827,-0.0,2.0615804195404053,4.759307681560077,-0.0,0.3049808740615845,-1.5696623961078089,0.0,-0.007213875651359558,0.8185152411460876,0.0,0.0009424788877367973,0.7922172546386719,0.0,-0.0015357965603470802
972.0,879.0,2.7709,-0.2453,8.8881,-0.0446,0.0279,-0.1196,-1.5984636745848597,0.0,2.1588523387908936,-1.9529144763946533,-0.0,2.023893356323242,4.759247465967693,-0.0,0.28231585025787354,-1.569634262715475,0.0,-0.010288403369486332,0.8185593485832214,0.0,0.002634939271956682,0.7922290563583374,0.0,0.009195996448397636
972.0,879.0,2.7709,-0.2453,8.8881,-0.0446,0.0279,-0.1196,-1.5984512768187464,0.0,2.170459270477295,-1.952918529510498,-0.0,2.0233945846557617,4.759307733714142,-0.0,0.3024982213973999,-1.5696380774127405,0.0,-0.019841697067022324,0.8184954524040222,0.0,-0.0012122270418331027,0.7922376990318298,0.0,0.0020687340293079615
972.0,879.0,2.7709,-0.2453,8.8881,-0.0446,0.0279,-0.1196,-1.5984350643553675,0.0,2.1568846702575684,-1.9528822898864746,-0.0,2.0469322204589844,4.75928762087182,-0.0,0.28698521852493286,-1.569634262715475,0.0,-0.007817145437002182,0.8185033798217773,0.0,-0.0010835665743798018,0.7922011017799377,0.0,0.027595672756433487
972.0,879.0,2.7709,-0.2453,8.8881,-0.0446,0.0279,-0.1196,-1.5984631977477015,0.0,2.1929187774658203,-1.9529513120651245,-0.0,2.046015501022339,4.759279440134325,-0.0,0.29552364349365234,-1.569589916859762,0.0,-0.001554744434542954,0.8184676766395569,0.0,-0.0065595535561442375,0.7922051548957825,0.0,-0.030471323058009148
973.0,882.0,2.7464,-0.2495,9.0993,-0.0385,0.0258,-0.1246,-1.5984755955138148,0.0,2.156466245651245,-1.9529505968093872,-0.0,2.01710844039917,4.759267534106531,-0.0,0.3001674711704254,-1.5696824232684534,0.0,-0.018629563972353935,0.8184994459152222,0.0,0.0035105133429169655,0.7921809554100037,0.0,0.02004636451601982
973.0,882.0,2.7464,-0.2495,9.0993,-0.0385,0.0258,-0.1246,-1.598455091516012,0.0,2.1865310668945312,-1.9528782367706299,-0.0,2.10444712638855,4.759315541922607,-0.0,0.29175814986228943,-1.5696466604815882,0.0,-0.0012585071381181479,0.8184871673583984,0.0,-0.00293388101272285,0.7922051548957825,0.0,0.005989043973386288
973.0,882.0,2.7464,-0.2495,9.0993,-0.0385,0.0258,-0.1246,-1.598455091516012,0.0,2.1673660278320312,-1.9528988599777222,-0.0,2.0716376304626465,4.759279440134325,-0.0,0.2852514982223511,-1.5696542898761194,0.0,-0.018316611647605896,0.8185074329376221,0.0,0.0024656979367136955,0.7921891808509827,0.0,0.04741758480668068
973.0,882.0,2.7464,-0.2495,9.0993,-0.0385,0.0258,-0.1246,-1.598487993279928,0.0,2.1772775650024414,-1.9529266357421875,-0.0,2.0121049880981445,4.759307674109497,-0.0,0.2968748211860657,-1.5696623961078089,0.0,-0.006076650694012642,0.8184598088264465,0.0,-0.010271117091178894,0.7921891808509827,0.0,-0.04513254761695862
973.0,882.0,2.7464,-0.2495,9.0993,-0.0385,0.0258,-0.1246,-1.5984794102110804,0.0,2.1622467041015625,-1.9529143571853638,-0.0,2.048600435256958,4.759263488441267,-0.0,0.29473876953125,-1.5696175734149378,0.0,-0.017520835623145103,0.8184713125228882,0.0,-0.006791200954467058,0.792209267616272,0.0,-0.042276591062545776
973.0,882.0,2.7464,-0.2495,9.0993,-0.0385,0.0258,-0.1246,-1.5984960995116175,0.0,2.177785873413086,-1.9528740644454956,-0.0,2.090080738067627,4.759271624475279,-0.0,0.2872519791126251,-1.569674317036764,0.0,-0.009711004793643951,0.8185073733329773,0.0,0.0005189969670027494,0.7922133207321167,0.0,-0.016192113980650902
973.0,882.0,2.7464,-0.2495,9.0993,-0.0385,0.0258,-0.1246,-1.5984469852843226,0.0,2.1440677642822266,-1.9529513120651245,-0.0,2.0293922424316406,4.7592474212642095,-0.0,0.32148677110671997,-1.5696218649493616,0.0,-0.0034765833988785744,0.8184479475021362,0.0,-0.00858559925109148,0.7921932935714722,0.0,-0.0035690602380782366
973.0,882.0,2.7464,-0.2495,9.0993,-0.0385,0.0258,-0.1246,-1.5985080204405726,0.0,2.1728100776672363,-1.9529061317443848,-0.0,2.0487470626831055,4.759243394225397,-0.0,0.292421817779541,-1.5696623961078089,0.0,-0.013197774067521095,0.8185033798217773,0.0,-0.0135872857645154,0.7922294735908508,0.0,0.015544538386166096
973.0,882.0,2.7464,-0.2495,9.0993,-0.0385,0.0258,-0.1246,-1.598487993279928,0.0,2.1878809928894043,-1.9528781175613403,-0.0,2.04195499420166,4.7593077113624,-0.0,0.2973625659942627,-1.5696466604815882,0.0,-0.009871418587863445,0.818431556224823,0.0,-0.01867266744375229,0.7921769022941589,0.0,-0.0018072957172989845
973.0,882.0,2.7464,-0.2495,9.0993,-0.0385,0.0258,-0.1246,-1.598459383050436,0.0,2.2176287174224854,-1.9529473781585693,-0.0,2.0719053745269775,4.759271609574117,-0.0,0.2948545813560486,-1.5696423689471644,0.0,0.0009664378594607115,0.8185272216796875,0.0,-0.01380317471921444,0.7922174334526062,0.0,0.005140574183315039
973.0,882.0,2.7464,-0.2495,9.0993,-0.0385,0.0258,-0.1246,-1.5985118351378382,0.0,2.1616580486297607,-1.9529061317443848,-0.0,2.049177646636963,4.759295451432028,-0.0,0.28757038712501526,-1.5696104208575647,0.0,-0.01373966969549656,0.8185153007507324,0.0,0.007859048433601856,0.7921891808509827,0.0,-0.004930049180984497
973.0,882.0,2.7464,-0.2495,9.0993,-0.0385,0.0258,-0.1246,-1.5984231434264125,0.0,2.142845869064331,-1.9529061317443848,-0.0,2.018970012664795,4.759319554060259,-0.0,0.29945823550224304,-1.5696256796466272,0.0,-0.003253411268815398,0.8185513019561768,0.0,-0.012050303630530834,0.7922133207321167,0.0,0.06961510330438614
973.0,882.0,2.7464,-0.2495,9.0993,-0.0385,0.0258,-0.1246,-1.5984918079771937,0.0,2.163942337036133,-1.9528863430023193,-0.0,2.0404977798461914,4.759267496853628,-0.0,0.2938934862613678,-1.5696499983416956,0.0,-0.011586709879338741,0.8185073137283325,0.0,0.005158726125955582,0.7921932935714722,0.0,0.011426636949181557
973.0,882.0,2.7464,-0.2495,9.0993,-0.0385,0.0258,-0.1246,-1.598487993279928,0.0,2.1575419902801514,-1.95290207862854,-0.0,2.015125274658203,4.759295451432028,-0.0,0.2926444709300995,-1.5696256796466272,0.0,-0.01408129371702671,0.8184832334518433,0.0,-0.010110804811120033,0.79225754737854,0.0,-0.05951883643865585
973.0,882.0,2.7464,-0.2495,9.0993,-0.0385,0.0258,-0.1246,-1.598415037194723,0.0,2.0845956802368164,-1.9529143571853638,-0.0,2.0140771865844727,4.759279440134325,-0.0,0.293438196182251,-1.5696380774127405,0.0,-0.014973744750022888,0.8184398412704468,0.0,0.011074776761233807,0.7922459244728088,0.0,-0.008355662226676941
973.0,882.0,2.7464,-0.2495,9.0993,-0.0385,0.0258,-0.1246,-1.598471303979391,0.0,2.1132898330688477,-1.9529308080673218,-0.0,2.0497331619262695,4.759295451432028,-0.0,0.29637959599494934,-1.5696423689471644,0.0,-0.022742580622434616,0.8184676170349121,0.0,-0.0032391161657869816,0.7921973466873169,0.0,-0.02741135284304619
973.0,882.0,2.7464,-0.2495,9.0993,-0.0385,0.0258,-0.1246,-1.5984918079771937,0.0,2.178852081298828,-1.9529505968093872,-0.0,2.054295063018799,4.7592954253549955,-0.0,0.301241397857666,-1.5697062651263636,0.0,-0.005019590258598328,0.8185113668441772,0.0,0.0011874218471348286,0.7922294735908508,0.0,-0.04575979709625244
964.0,916.0,2.6704,-0.2506,8.9821,-0.0414,0.0215,-0.1118,-1.598487993279928,0.0,2.127732276916504,-1.9528545141220093,-0.0,2.00966215133667,4.759243334620752,-0.0,0.3093407154083252,-1.5696499983416956,0.0,-0.007305345963686705,0.8185232877731323,0.0,0.003044603392481804,0.7922213673591614,0.0,0.03819665312767029
964.0,916.0,2.6704,-0.2506,8.9821,-0.0414,0.0215,-0.1118,-1.598459383050436,0.0,2.123487949371338,-1.9528906345367432,-0.0,2.059333086013794,4.759295451432028,-0.0,0.28481772541999817,-1.5696542898761194,0.0,-0.018122615292668343,0.8185033798217773,0.0,0.001590269384905696,0.792209267616272,0.0,0.019529202952980995
964.0,916.0,2.6704,-0.2506,8.9821,-0.0414,0.0215,-0.1118,-1.5984631977477015,0.0,2.137103319168091,-1.952858567237854,-0.0,2.0581517219543457,4.759263466089525,-0.0,0.2954845428466797,-1.5696380774127405,0.0,-0.01014801673591137,0.8184951543807983,0.0,-0.0087546706199646,0.7922254204750061,0.0,-0.018354371190071106
964.0,916.0,2.6704,-0.2506,8.9821,-0.0414,0.0215,-0.1118,-1.598471303979391,0.0,2.1808130741119385,-1.9529348611831665,-0.0,2.000890016555786,4.759271617024698,-0.0,0.28213199973106384,-1.569658104573385,0.0,-0.002396534662693739,0.8184994459152222,0.0,-0.007697683293372393,0.7922294735908508,0.0,0.020044293254613876
964.0,916.0,2.6704,-0.2506,8.9821,-0.0414,0.0215,-0.1118,-1.598471303979391,0.0,2.1756086349487305,-1.952894687652588,-0.0,2.0561141967773438,4.759275670140543,-0.0,0.29463765025138855,-1.5696104208575647,0.0,-0.009568431414663792,0.8184872269630432,0.0,-0.01173588540405035,0.792209267616272,0.0,0.011207180097699165
964.0,916.0,2.6704,-0.2506,8.9821,-0.0414,0.0215,-0.1118,-1.5984636745848597,0.0,2.1709237098693848,-1.9529143571853638,-0.0,2.063988447189331,4.759235172509708,-0.0,0.29026809334754944,-1.5696423689471644,0.0,-0.005072842817753553,0.8184832334518433,0.0,-0.01912401244044304,0.7921932935714722,0.0,-0.05697361379861832
964.0,916.0,2.6704,-0.2506,8.9821,-0.0414,0.0215,-0.1118,-1.5984755955138148,0.0,2.183281421661377,-1.9529348611831665,-0.0,2.0209591388702393,4.75927164310173,-0.0,0.3005370795726776,-1.569606129323141,0.0,-0.005109093617647886,0.8185030221939087,0.0,-0.01152253057807684,0.7922133207321167,0.0,0.030708355829119682
964.0,916.0,2.6704,-0.2506,8.9821,-0.0414,0.0215,-0.1118,-1.5984837017455042,0.0,2.149698257446289,-1.952894687652588,-0.0,2.0147171020507812,4.759223259031334,-0.0,0.2927190959453583,-1.5696585814105433,0.0,-6.623705849051476e-05,0.8184831738471985,0.0,-0.013575669378042221,0.7921810150146484,0.0,-0.013404653407633305
964.0,916.0,2.6704,-0.2506,8.9821,-0.0414,0.0215,-0.1118,-1.5984794102110804,0.0,2.1674587726593018,-1.9528740644454956,-0.0,2.019026279449463,4.7592392703290365,-0.0,0.30021652579307556,-1.569629971181051,0.0,-0.004698650911450386,0.8184713125228882,0.0,-0.0033873238135129213,0.7921973466873169,0.0,-0.016128789633512497
964.0,916.0,2.6704,-0.2506,8.9821,-0.0414,0.0215,-0.1118,-1.598487993279928,0.0,2.1580700874328613,-1.952918529510498,-0.0,2.0904784202575684,4.759291372239151,-0.0,0.31035858392715454,-1.5696385542498987,0.0,-0.01213858462870121,0.8185073733329773,0.0,-0.004642255138605833,0.7921528220176697,0.0,0.01803492195904255
964.0,916.0,2.6704,-0.2506,8.9821,-0.0414,0.0215,-0.1118,-1.5984469852843226,0.0,2.126207113265991,-1.952890396118164,-0.0,2.0187838077545166,4.759239326208391,-0.0,0.29769033193588257,-1.5696547667132776,0.0,-0.01171952299773693,0.8185033798217773,0.0,-0.004341552034020424,0.7921609878540039,0.0,0.041974298655986786
964.0,916.0,2.6704,-0.2506,8.9821,-0.0414,0.0215,-0.1118,-1.598516126672262,0.0,2.1709375381469727,-1.9529184103012085,-0.0,2.0421416759490967,4.759295451432028,-0.0,0.28623855113983154,-1.5696466604815882,0.0,-0.022920632734894753,0.818467378616333,0.0,0.0029809102416038513,0.7922213077545166,0.0,-0.025755371898412704
964.0,916.0,2.6704,-0.2506,8.9821,-0.0414,0.0215,-0.1118,-1.598431249658102,0.0,2.1958422660827637,-1.9528865814208984,-0.0,2.0343832969665527,4.7592392703290365,-0.0,0.29236674308776855,-1.5696380774127405,0.0,-0.004877518396824598,0.8184598088264465,0.0,-0.004320594482123852,0.792209267616272,0.0,-0.03509854897856712
964.0,916.0,2.6704,-0.2506,8.9821,-0.0414,0.0215,-0.1118,-1.598487993279928,0.0,2.175753116607666,-1.9528822898864746,-0.0,2.046323299407959,4.759311887412824,-0.0,0.3064243197441101,-1.5696185270892542,0.0,-0.0126631585881114,0.8184557557106018,0.0,-0.013597415760159492,0.7922131419181824,0.0,-0.039151791483163834
964.0,916.0,2.6704,-0.2506,8.9821,-0.0414,0.0215,-0.1118,-1.5984837017455042,0.0,2.167738914489746,-1.9529308080673218,-0.0,2.0130302906036377,4.759303628444233,-0.0,0.2959868907928467,-1.569629971181051,0.0,-0.00521042151376605,0.8185074329376221,0.0,-0.009521477855741978,0.7922372817993164,0.0,0.035687822848558426
964.0,916.0,2.6704,-0.2506,8.9821,-0.0414,0.0215,-0.1118,-1.598455091516012,0.0,2.182945966720581,-1.9529184103012085,-0.0,2.032863140106201,4.759275685041704,-0.0,0.29324907064437866,-1.5696142355548304,0.0,-0.011291420087218285,0.8184753060340881,0.0,-0.007058337796479464,0.7922051548957825,0.0,-0.007228128612041473
968.0,928.0,2.6578,-0.3033,9.1801,-0.0264,0.026,-0.1214,-1.598443170587057,0.0,2.2019035816192627,-1.9528740644454956,-0.0,2.0529704093933105,4.7592835305030725,-0.0,0.29207563400268555,-1.569629971181051,0.0,-0.013415415771305561,0.8184598088264465,0.0,0.008794653229415417,0.7922413945198059,0.0,0.0013130083680152893
968.0,928.0,2.6578,-0.3033,9.1801,-0.0264,0.026,-0.1214,-1.5984670124449671,0.0,2.1652255058288574,-1.9529061317443848,-0.0,2.0768635272979736,4.75926751920537,-0.0,0.300618439912796,-1.5696380774127405,0.0,-0.0021449329797178507,0.8184871673583984,0.0,-0.0016383292386308312,0.792172908782959,0.0,0.012140722014009953
968.0,928.0,2.6578,-0.3033,9.1801,-0.0264,0.026,-0.1214,-1.5984918079771937,0.0,2.145925998687744,-1.952850341796875,-0.0,2.015781879425049,4.759259688645162,-0.0,0.2871091961860657,-1.5696256796466272,0.0,-0.010803202167153358,0.8185033798217773,0.0,-0.0009063626057468355,0.7922372817993164,0.0,0.008845290169119835
968.0,928.0,2.6578,-0.3033,9.1801,-0.0264,0.026,-0.1214,-1.5984999142088832,0.0,2.179884672164917,-1.9528461694717407,-0.0,2.06378173828125,4.759251511632957,-0.0,0.295803040266037,-1.5696786085711878,0.0,-0.011536301113665104,0.8184871673583984,0.0,-0.009280459955334663,0.792217493057251,0.0,0.0076590352691709995
968.0,928.0,2.6578,-0.3033,9.1801,-0.0264,0.026,-0.1214,-1.5984670124449671,0.0,2.153149366378784,-1.9528740644454956,-0.0,2.0351576805114746,4.759303647070684,-0.0,0.2932957708835602,-1.5696662108050745,0.0,-0.003324904479086399,0.8184990286827087,0.0,0.002669387497007847,0.7921851277351379,0.0,-0.02025633305311203
968.0,928.0,2.6578,-0.3033,9.1801,-0.0264,0.026,-0.1214,-1.5984670124449671,0.0,2.150273323059082,-1.9529224634170532,-0.0,2.0086371898651123,4.759323670506038,-0.0,0.29436928033828735,-1.569629971181051,0.0,-0.018912728875875473,0.818467378616333,0.0,0.0011858978541567922,0.7922254204750061,0.0,0.01077594980597496
968.0,928.0,2.6578,-0.3033,9.1801,-0.0264,0.026,-0.1214,-1.598455091516012,0.0,2.1615214347839355,-1.9529184103012085,-0.0,2.0684666633605957,4.75926751920537,-0.0,0.29133933782577515,-1.5696585814105433,0.0,-0.008065372705459595,0.8185513019561768,0.0,0.0004360741004347801,0.7922215461730957,0.0,0.012117492966353893
968.0,928.0,2.6578,-0.3033,9.1801,-0.0264,0.026,-0.1214,-1.5984837017455042,0.0,2.1547892093658447,-1.9529143571853638,-0.0,2.0537924766540527,4.759271576046505,-0.0,0.28261271119117737,-1.5696423689471644,0.0,-0.010714758187532425,0.8184871077537537,0.0,0.004203780088573694,0.7922295331954956,0.0,-0.00733640231192112
968.0,928.0,2.6578,-0.3033,9.1801,-0.0264,0.026,-0.1214,-1.598459383050436,0.0,2.1333093643188477,-1.9529101848602295,-0.0,2.0656368732452393,4.759271609574117,-0.0,0.29572901129722595,-1.569634262715475,0.0,-0.01538387592881918,0.8184713125228882,0.0,0.0036176887806504965,0.792209267616272,0.0,-0.009629067033529282
968.0,928.0,2.6578,-0.3033,9.1801,-0.0264,0.026,-0.1214,-1.598443170587057,0.0,2.145641326904297,-1.9529143571853638,-0.0,2.026808977127075,4.759291707515278,-0.0,0.29319626092910767,-1.5696585814105433,0.0,-0.002792421728372574,0.818471372127533,0.0,-0.01236987579613924,0.7922534942626953,0.0,-0.02003386989235878
968.0,928.0,2.6578,-0.3033,9.1801,-0.0264,0.026,-0.1214,-1.598459383050436,0.0,2.172238349914551,-1.952943205833435,-0.0,2.0706310272216797,4.7592835305030725,-0.0,0.2891029119491577,-1.5696423689471644,0.0,-0.00894176959991455,0.8185430765151978,0.0,-0.0003168333787471056,0.7921891808509827,0.0,-0.047516778111457825
968.0,928.0,2.6578,-0.3033,9.1801,-0.0264,0.026,-0.1214,-1.5984393558897914,0.0,2.1652681827545166,-1.952858567237854,-0.0,2.0722827911376953,4.759271609574117,-0.0,0.3014191687107086,-1.5696218649493616,0.0,-0.008319427259266376,0.8185592889785767,0.0,-0.011475274339318275,0.7922336459159851,0.0,0.0031202032696455717
968.0,928.0,2.6578,-0.3033,9.1801,-0.0264,0.026,-0.1214,-1.5984474621214808,0.0,2.19861102104187,-1.9528865814208984,-0.0,2.016280174255371,4.759251526534118,-0.0,0.296215683221817,-1.5696423689471644,0.0,-0.009332421235740185,0.8184990286827087,0.0,-0.0014484395505860448,0.7921932935714722,0.0,-0.004806232638657093
968.0,928.0,2.6578,-0.3033,9.1801,-0.0264,0.026,-0.1214,-1.598459383050436,0.0,2.1668663024902344,-1.9529225826263428,-0.0,2.079843521118164,4.759331583022632,-0.0,0.3001267910003662,-1.5696466604815882,0.0,-0.010554162785410881,0.8184871673583984,0.0,0.0004903423832729459,0.7922051548957825,0.0,0.02486545778810978
968.0,928.0,2.6578,-0.3033,9.1801,-0.0264,0.026,-0.1214,-1.598455091516012,0.0,2.1632659435272217,-1.9529430866241455,-0.0,2.0734024047851562,4.759299541800775,-0.0,0.3024198114871979,-1.5696099440204065,0.0,0.0006941369501873851,0.8184792995452881,0.0,-0.008885130286216736,0.7922172546386719,0.0,-0.06180427595973015
968.0,928.0,2.6578,-0.3033,9.1801,-0.0264,0.026,-0.1214,-1.598459383050436,0.0,2.119333267211914,-1.9528545141220093,-0.0,2.0221540927886963,4.75929959768013,-0.0,0.2833092510700226,-1.5696256796466272,0.0,-0.002315487479791045,0.8185073137283325,0.0,-0.0033963604364544153,0.7922254204750061,0.0,-0.0345420204102993
968.0,928.0,2.6578,-0.3033,9.1801,-0.0264,0.026,-0.1214,-1.5984512768187464,0.0,2.1316254138946533,-1.9529266357421875,-0.0,2.034606456756592,4.759299541800775,-0.0,0.29799339175224304,-1.5696623961078089,0.0,-0.011921699158847332,0.8184637427330017,0.0,-0.017870858311653137,0.7921973466873169,0.0,0.05478053167462349
952.0,883.0,2.7182,-0.2351,9.1017,-0.0312,0.0217,-0.1151,-1.5984393558897914,0.0,2.2228217124938965,-1.952918529510498,-0.0,2.0762484073638916,4.759279846190967,-0.0,0.29723191261291504,-1.5696423689471644,0.0,-0.007184396497905254,0.8184912204742432,0.0,-0.013292351737618446,0.7922413945198059,0.0,0.011355027556419373
952.0,883.0,2.7182,-0.2351,9.1017,-0.0312,0.0217,-0.1151,-1.598443170587057,0.0,2.131491184234619,-1.9528988599777222,-0.0,2.031360626220703,4.759239292680778,-0.0,0.28609052300453186,-1.5696585814105433,0.0,-0.015521666035056114,0.8184829354286194,0.0,-0.01635828986763954,0.792217493057251,0.0,0.011828770861029625
952.0,883.0,2.7182,-0.2351,9.1017,-0.0312,0.0217,-0.1151,-1.5984875164427699,0.0,2.1499199867248535,-1.952902913093567,-0.0,2.0485620498657227,4.759295458882608,-0.0,0.28378593921661377,-1.5696175734149378,0.0,-0.009807577356696129,0.8185232877731323,0.0,0.004197961185127497,0.7921851277351379,0.0,-0.02111933007836342
952.0,883.0,2.7182,-0.2351,9.1017,-0.0312,0.0217,-0.1151,-1.5984631977477015,0.0,2.1724958419799805,-1.9529069662094116,-0.0,2.005265235900879,4.75926751920537,-0.0,0.29749709367752075,-1.5696666876422327,0.0,-0.005960744805634022,0.8185033798217773,0.0,0.0012942468747496605,0.7922131419181824,0.0,-0.004538512323051691
952.0,883.0,2.7182,-0.2351,9.1017,-0.0312,0.0217,-0.1151,-1.598459383050436,0.0,2.1693525314331055,-1.9528988599777222,-0.0,1.9949852228164673,4.7593233836586855,-0.0,0.299092173576355,-1.5696466604815882,0.0,-0.019885752350091934,0.8184870481491089,0.0,0.0011145775206387043,0.7922131419181824,0.0,-0.022858722135424614
952.0,883.0,2.7182,-0.2351,9.1017,-0.0312,0.0217,-0.1151,-1.598487993279928,0.0,2.168574333190918,-1.9528988599777222,-0.0,2.026242256164551,4.759303628444233,-0.0,0.2968640923500061,-1.5696542898761194,0.0,-0.0005261178594082594,0.8185111880302429,0.0,-0.0013505478855222464,0.7922213077545166,0.0,-0.00332698505371809
952.0,883.0,2.7182,-0.2351,9.1017,-0.0312,0.0217,-0.1151,-1.5984794102110804,0.0,2.2393651008605957,-1.9528822898864746,-0.0,2.0362918376922607,4.759303628444233,-0.0,0.29544317722320557,-1.569629971181051,0.0,-0.01978682540357113,0.8184952139854431,0.0,-0.0005736100720241666,0.7922213077545166,0.0,0.0016458064783364534
952.0,883.0,2.7182,-0.2351,9.1017,-0.0312,0.0217,-0.1151,-1.5985037289061488,0.0,2.1346209049224854,-1.9528822898864746,-0.0,2.0508437156677246,4.759331568121471,-0.0,0.30689018964767456,-1.5696585814105433,0.0,-0.023925472050905228,0.8184553980827332,0.0,-0.012126671150326729,0.7921851277351379,0.0,0.009712319821119308
952.0,883.0,2.7182,-0.2351,9.1017,-0.0312,0.0217,-0.1151,-1.5984837017455042,0.0,2.122478485107422,-1.952842116355896,-0.0,2.0361928939819336,4.759303557663717,-0.0,0.2879787087440491,-1.5696542898761194,0.0,-0.014369186013936996,0.8184993267059326,0.0,-0.004940416198223829,0.7922213077545166,0.0,0.01243565697222948
952.0,883.0,2.7182,-0.2351,9.1017,-0.0312,0.0217,-0.1151,-1.5984794102110804,0.0,2.153900384902954,-1.952858567237854,-0.0,2.0507724285125732,4.759299966483869,-0.0,0.29807862639427185,-1.5696256796466272,0.0,-0.0030269487760961056,0.8184393048286438,0.0,0.0010437939781695604,0.7922254204750061,0.0,0.06719538569450378
952.0,883.0,2.7182,-0.2351,9.1017,-0.0312,0.0217,-0.1151,-1.5984956226744593,0.0,2.1972439289093018,-1.9528781175613403,-0.0,2.0813498497009277,4.759307741164722,-0.0,0.29195436835289,-1.569629971181051,0.0,-0.0021358588710427284,0.8184635639190674,0.0,0.00030373712070286274,0.7921932935714722,0.0,-0.02098109759390354
952.0,883.0,2.7182,-0.2351,9.1017,-0.0312,0.0217,-0.1151,-1.5984631977477015,0.0,2.1395537853240967,-1.9528865814208984,-0.0,2.039228916168213,4.759275353490867,-0.0,0.2914980947971344,-1.5696023146258753,0.0,-0.006364352535456419,0.8185276389122009,0.0,-0.0031804314348846674,0.7922616004943848,0.0,-0.02397019788622856
952.0,883.0,2.7182,-0.2351,9.1017,-0.0312,0.0217,-0.1151,-1.5984837017455042,0.0,2.1463212966918945,-1.9529266357421875,-0.0,2.012883424758911,4.759267534106531,-0.0,0.2948707342147827,-1.569634262715475,0.0,-0.006794242188334465,0.8184952139854431,0.0,0.009480959735810757,0.7922051548957825,0.0,0.005997475236654282
952.0,883.0,2.7182,-0.2351,9.1017,-0.0312,0.0217,-0.1151,-1.5985037289061488,0.0,2.1394855976104736,-1.9529308080673218,-0.0,2.0547902584075928,4.759315478592672,-0.0,0.29551082849502563,-1.5696542898761194,0.0,-0.008556158281862736,0.8184873461723328,0.0,-0.00613230699673295,0.7922576069831848,0.0,-0.019226212054491043
952.0,883.0,2.7182,-0.2351,9.1017,-0.0312,0.0217,-0.1151,-1.598471303979391,0.0,2.150357484817505,-1.9529101848602295,-0.0,2.003490447998047,4.759251560061731,-0.0,0.2830383777618408,-1.5696218649493616,0.0,-0.005954214371740818,0.8184595108032227,0.0,-0.006149666849523783,0.7922777533531189,0.0,-0.0184251070022583
952.0,883.0,2.7182,-0.2351,9.1017,-0.0312,0.0217,-0.1151,-1.598443170587057,0.0,2.184004068374634,-1.9529309272766113,-0.0,1.9913280010223389,4.759339737683096,-0.0,0.28408437967300415,-1.5696824232684534,0.0,-0.01545306108891964,0.8184953331947327,0.0,-0.007320101838558912,0.79225754737854,0.0,0.04790083318948746
952.0,883.0,2.7182,-0.2351,9.1017,-0.0312,0.0217,-0.1151,-1.5984512768187464,0.0,2.161421298980713,-1.9528740644454956,-0.0,2.04537034034729,4.75930771881298,-0.0,0.2966587543487549,-1.5696623961078089,0.0,0.01088942214846611,0.8185033798217773,0.0,-0.0035484922118484974,0.7922294735908508,0.0,-0.0046273041516542435
969.0,885.0,2.732,-0.2417,9.0832,-0.0397,0.0154,-0.1142,-1.598471303979391,0.0,2.1467227935791016,-1.9529348611831665,-0.0,2.0811543464660645,4.7592433271701715,-0.0,0.2899596393108368,-1.5696256796466272,0.0,-0.011577044613659382,0.8185197114944458,0.0,-0.006532486993819475,0.7922294735908508,0.0,0.007501518353819847
969.0,885.0,2.732,-0.2417,9.0832,-0.0397,0.0154,-0.1142,-1.5984469852843226,0.0,2.1541433334350586,-1.952850341796875,-0.0,2.047530174255371,4.759279440134325,-0.0,0.287090927362442,-1.5696585814105433,0.0,-0.01934809237718582,0.8185235857963562,0.0,-0.0008278435561805964,0.7922372817993164,0.0,0.014161083847284317
969.0,885.0,2.732,-0.2417,9.0832,-0.0397,0.0154,-0.1142,-1.5984512768187464,0.0,2.170013189315796,-1.9529266357421875,-0.0,1.9895851612091064,4.759287605970659,-0.0,0.28462380170822144,-1.5696824232684534,0.0,0.005277362186461687,0.8185116648674011,0.0,0.0018278294010087848,0.7922213077545166,0.0,-0.07148251682519913
969.0,885.0,2.732,-0.2417,9.0832,-0.0397,0.0154,-0.1142,-1.5984837017455042,0.0,2.1159584522247314,-1.9528865814208984,-0.0,2.0735843181610107,4.759275685041704,-0.0,0.30388328433036804,-1.5697062651263636,0.0,-0.009779680520296097,0.8185517191886902,0.0,0.00912257470190525,0.7922131419181824,0.0,-0.024833712726831436
969.0,885.0,2.732,-0.2417,9.0832,-0.0397,0.0154,-0.1142,-1.598471303979391,0.0,2.1661205291748047,-1.95290207862854,-0.0,2.0916061401367188,4.75929960140542,-0.0,0.2908480763435364,-1.5696104208575647,0.0,-0.009443787857890129,0.8185075521469116,0.0,-0.008079156279563904,0.7921973466873169,0.0,0.07199156284332275
969.0,885.0,2.732,-0.2417,9.0832,-0.0397,0.0154,-0.1142,-1.5985199413695277,0.0,2.1670169830322266,-1.9528865814208984,-0.0,2.0463945865631104,4.7592474585171125,-0.0,0.29878783226013184,-1.5696499983416956,0.0,0.013194018974900246,0.8184992671012878,0.0,-0.019653815776109695,0.7922372817993164,0.0,-0.05834733322262764
969.0,885.0,2.732,-0.2417,9.0832,-0.0397,0.0154,-0.1142,-1.5984837017455042,0.0,2.1740498542785645,-1.9529389142990112,-0.0,2.0461528301239014,4.759315493493833,-0.0,0.29337671399116516,-1.5696423689471644,0.0,-0.006704786326736212,0.8184911608695984,0.0,0.0016275702510029078,0.792209267616272,0.0,-0.0019468069076538086
969.0,885.0,2.732,-0.2417,9.0832,-0.0397,0.0154,-0.1142,-1.598455091516012,0.0,2.1373794078826904,-1.9528781175613403,-0.0,2.0383505821228027,4.759267511754789,-0.0,0.2973051071166992,-1.5696423689471644,0.0,-0.010884284973144531,0.8184587359428406,0.0,-0.008813098073005676,0.792217493057251,0.0,0.013988060876727104
969.0,885.0,2.732,-0.2417,9.0832,-0.0397,0.0154,-0.1142,-1.5984755955138148,0.0,2.159794807434082,-1.9529101848602295,-0.0,2.012575626373291,4.7592835305030725,-0.0,0.29514026641845703,-1.5696380774127405,0.0,-0.003952041268348694,0.8185276389122009,0.0,-0.005607596132904291,0.7922015190124512,0.0,-0.012039272114634514
969.0,885.0,2.732,-0.2417,9.0832,-0.0397,0.0154,-0.1142,-1.5984474621214808,0.0,2.1763625144958496,-1.9529061317443848,-0.0,2.0150797367095947,4.7592597035463235,-0.0,0.30475661158561707,-1.5696662108050745,0.0,-0.016783731058239937,0.8185353875160217,0.0,0.0049142977222800255,0.7922172546386719,0.0,-0.030778557062149048
969.0,885.0,2.732,-0.2417,9.0832,-0.0397,0.0154,-0.1142,-1.5984837017455042,0.0,2.17687726020813,-1.9528504610061646,-0.0,2.0642683506011963,4.759287605970659,-0.0,0.29227909445762634,-1.569674317036764,0.0,-3.143225330859423e-05,0.8184952735900879,0.0,-0.00945404451340437,0.7922213077545166,0.0,-0.020278049632906914
969.0,885.0,2.732,-0.2417,9.0832,-0.0397,0.0154,-0.1142,-1.598443170587057,0.0,2.1404576301574707,-1.9528980255126953,-0.0,2.0483031272888184,4.7592634474630735,-0.0,0.2860388457775116,-1.5696662108050745,0.0,-0.013674481771886349,0.8184870481491089,0.0,-0.005982947535812855,0.7922133207321167,0.0,-0.007111401297152042
969.0,885.0,2.732,-0.2417,9.0832,-0.0397,0.0154,-0.1142,-1.5984393558897914,0.0,2.1280994415283203,-1.9528740644454956,-0.0,2.010094165802002,4.759271624475279,-0.0,0.2928222715854645,-1.5696256796466272,0.0,0.000632591312751174,0.8184870481491089,0.0,0.011201602406799793,0.7922213077545166,0.0,-0.010505556128919125
969.0,885.0,2.732,-0.2417,9.0832,-0.0397,0.0154,-0.1142,-1.598455091516012,0.0,2.192486524581909,-1.9529061317443848,-0.0,2.0199012756347656,4.7592875873442075,-0.0,0.3007477819919586,-1.569629971181051,0.0,-0.012588705867528915,0.8185116648674011,0.0,-0.007213721051812172,0.7922050356864929,0.0,0.004544436931610107
969.0,885.0,2.732,-0.2417,9.0832,-0.0397,0.0154,-0.1142,-1.5984350643553675,0.0,2.200289726257324,-1.9529143571853638,-0.0,2.022221088409424,4.759267515480079,-0.0,0.2878020107746124,-1.5696218649493616,0.0,-0.009476443752646446,0.8184710144996643,0.0,-0.0078096045181155205,0.7921728491783142,0.0,-0.026613958179950714
969.0,885.0,2.732,-0.2417,9.0832,-0.0397,0.0154,-0.1142,-1.5984670124449671,0.0,2.1946253776550293,-1.9529430866241455,-0.0,2.0258216857910156,4.759243379324236,-0.0,0.3013285994529724,-1.5696104208575647,0.0,-0.0063440618105232716,0.8185033202171326,0.0,-0.022324027493596077,0.7922777533531189,0.0,0.027157682925462723
953.0,923.0,2.7505,-0.2417,8.9988,-0.0322,0.0209,-0.1156,-1.5984837017455042,0.0,2.1635937690734863,-1.9529637098312378,-0.0,2.064831256866455,4.75928761714653,-0.0,0.29312095046043396,-1.5695937315570276,0.0,-0.006928674876689911,0.8185235261917114,0.0,0.0034066836815327406,0.7922213077545166,0.0,-0.0026915946509689093
953.0,923.0,2.7505,-0.2417,8.9988,-0.0322,0.0209,-0.1156,-1.5984393558897914,0.0,2.1597490310668945,-1.9528740644454956,-0.0,2.0694773197174072,4.759291707515278,-0.0,0.2885507345199585,-1.5696380774127405,0.0,-0.012020217254757881,0.8184752464294434,0.0,-0.013495794497430325,0.7921810150146484,0.0,0.004102630540728569
953.0,923.0,2.7505,-0.2417,8.9988,-0.0322,0.0209,-0.1156,-1.5984512768187464,0.0,2.1095221042633057,-1.9529184103012085,-0.0,1.9929683208465576,4.759267534106531,-0.0,0.28896790742874146,-1.5696380774127405,0.0,-0.007108133286237717,0.8184710741043091,0.0,-0.007768136449158192,0.7922655344009399,0.0,0.01732674613595009
953.0,923.0,2.7505,-0.2417,8.9988,-0.0322,0.0209,-0.1156,-1.5984274349608363,0.0,2.1483607292175293,-1.95290207862854,-0.0,2.0545058250427246,4.759251533984699,-0.0,0.2985755503177643,-1.569634262715475,0.0,-0.003336310852319002,0.8185353875160217,0.0,-0.009704452008008957,0.7921810150146484,0.0,9.393692016601562e-05
953.0,923.0,2.7505,-0.2417,8.9988,-0.0322,0.0209,-0.1156,-1.5984512768187464,0.0,2.2028181552886963,-1.9528748989105225,-0.0,2.0887367725372314,4.759287605970659,-0.0,0.2922493517398834,-1.5696380774127405,0.0,0.0006520017050206661,0.8184636235237122,0.0,-0.008794259279966354,0.7922133207321167,0.0,-0.0020690476521849632
953.0,923.0,2.7505,-0.2417,8.9988,-0.0322,0.0209,-0.1156,-1.598459383050436,0.0,2.146803855895996,-1.952918529510498,-0.0,2.0417842864990234,4.7592835305030725,-0.0,0.2943844199180603,-1.5696585814105433,0.0,-0.012267526239156723,0.8184993267059326,0.0,-0.00468064472079277,0.7922213673591614,0.0,-0.052199192345142365
953.0,923.0,2.7505,-0.2417,8.9988,-0.0322,0.0209,-0.1156,-1.5984918079771937,0.0,2.16646671295166,-1.9528626203536987,-0.0,2.0517494678497314,4.759199145227232,-0.0,0.2971552014350891,-1.5696666876422327,0.0,-0.004383740480989218,0.8185033798217773,0.0,0.0018998112063854933,0.7922213077545166,0.0,0.0016354462131857872
953.0,923.0,2.7505,-0.2417,8.9988,-0.0322,0.0209,-0.1156,-1.5984631977477015,0.0,2.133053779602051,-1.9529390335083008,-0.0,2.116060733795166,4.759255602001705,-0.0,0.28830355405807495,-1.569606129323141,0.0,-0.019462067633867264,0.8185116648674011,0.0,-0.00022524758242070675,0.7921728491783142,0.0,-0.003708300646394491
953.0,923.0,2.7505,-0.2417,8.9988,-0.0322,0.0209,-0.1156,-1.5984631977477015,0.0,2.1214494705200195,-1.952858567237854,-0.0,2.0281856060028076,4.759231115668573,-0.0,0.29547250270843506,-1.5696256796466272,0.0,-0.0073915449902415276,0.8185316324234009,0.0,-0.008307120762765408,0.7922454476356506,0.0,0.021563461050391197
953.0,923.0,2.7505,-0.2417,8.9988,-0.0322,0.0209,-0.1156,-1.5984755955138148,0.0,2.1744656562805176,-1.952894687652588,-0.0,2.031306743621826,4.759267534106531,-0.0,0.29392364621162415,-1.5696585814105433,0.0,-0.005767466500401497,0.8185116052627563,0.0,-0.008604438975453377,0.7921851277351379,0.0,-0.0180595014244318
953.0,923.0,2.7505,-0.2417,8.9988,-0.0322,0.0209,-0.1156,-1.598459383050436,0.0,2.181206464767456,-1.9528584480285645,-0.0,2.006481647491455,4.759271609574117,-0.0,0.2978810966014862,-1.5696256796466272,0.0,-0.026844674721360207,0.8185436725616455,0.0,-0.010931156575679779,0.7922336459159851,0.0,-0.007347485050559044
953.0,923.0,2.7505,-0.2417,8.9988,-0.0322,0.0209,-0.1156,-1.5984350643553675,0.0,2.201244831085205,-1.9528906345367432,-0.0,1.9914462566375732,4.759307681560077,-0.0,0.3006901741027832,-1.5696423689471644,0.0,-0.00872177816927433,0.8184515833854675,0.0,0.001341252587735653,0.7921932935714722,0.0,-0.02530272863805294
953.0,923.0,2.7505,-0.2417,8.9988,-0.0322,0.0209,-0.1156,-1.5984755955138148,0.0,2.1815719604492188,-1.9528379440307617,-0.0,2.0661890506744385,4.7593118389840505,-0.0,0.2887994945049286,-1.5696705023394983,0.0,-0.00518457219004631,0.8185197114944458,0.0,-8.517617970937863e-06,0.7922254204750061,0.0,-0.02137742191553116
953.0,923.0,2.7505,-0.2417,8.9988,-0.0322,0.0209,-0.1156,-1.598459383050436,0.0,2.142369508743286,-1.9529143571853638,-0.0,2.1032986640930176,4.759271609574117,-0.0,0.2959153950214386,-1.569629971181051,0.0,-0.01792760007083416,0.8185517191886902,0.0,-0.0037511487025767565,0.792209267616272,0.0,-0.007014011032879353
953.0,923.0,2.7505,-0.2417,8.9988,-0.0322,0.0209,-0.1156,-1.5984393558897914,0.0,2.146172285079956,-1.95290207862854,-0.0,2.038935422897339,4.759271300375023,-0.0,0.2783205509185791,-1.5696380774127405,0.0,-0.006714310497045517,0.8185436725616455,0.0,-0.018343200907111168,0.792201042175293,0.0,-0.05096767842769623
953.0,923.0,2.7505,-0.2417,8.9988,-0.0322,0.0209,-0.1156,-1.5984918079771937,0.0,2.1777782440185547,-1.9528626203536987,-0.0,2.081883430480957,4.759271609574117,-0.0,0.29187488555908203,-1.5696466604815882,0.0,-0.0007092973683029413,0.8184829354286194,0.0,-0.009367601945996284,0.7921973466873169,0.0,0.03639372065663338
953.0,923.0,2.7505,-0.2417,8.9988,-0.0322,0.0209,-0.1156,-1.598459383050436,0.0,2.2026560306549072,-1.9528700113296509,-0.0,2.0487234592437744,4.759311473905601,-0.0,0.30645930767059326,-1.569634262715475,0.0,-0.00718182697892189,0.8184348344802856,0.0,0.001580364303663373,0.7922493815422058,0.0,0.029068438336253166
967.0,897.0,2.7523,-0.2417,9.1005,-0.0293,0.0235,-0.1098,-1.5984670124449671,0.0,2.149146318435669,-1.952894687652588,-0.0,1.9768296480178833,4.759287605970659,-0.0,0.29378417134284973,-1.5696218649493616,0.0,-0.014011251740157604,0.8185193538665771,0.0,0.000278008752502501,0.7922452688217163,0.0,-0.02216254360973835
967.0,897.0,2.7523,-0.2417,9.1005,-0.0293,0.0235,-0.1098,-1.5984755955138148,0.0,2.1825757026672363,-1.9528700113296509,-0.0,2.04913067817688,4.759267556458273,-0.0,0.2880229651927948,-1.569629971181051,0.0,-0.027210483327507973,0.8184513449668884,0.0,-0.006851323880255222,0.7922332286834717,0.0,-0.017573371529579163
967.0,897.0,2.7523,-0.2417,9.1005,-0.0293,0.0235,-0.1098,-1.5984631977477015,0.0,2.1286206245422363,-1.952934980392456,-0.0,2.0649611949920654,4.759315527021446,-0.0,0.29364702105522156,-1.5696542898761194,0.0,0.005791197996586561,0.8184829354286194,0.0,-0.0017048768931999803,0.7922614216804504,0.0,0.011754368431866169
967.0,897.0,2.7523,-0.2417,9.1005,-0.0293,0.0235,-0.1098,-1.5984999142088832,0.0,2.184011936187744,-1.9528988599777222,-0.0,1.9830492734909058,4.759263454913654,-0.0,0.2976599931716919,-1.5696499983416956,0.0,-0.01619895175099373,0.8185276389122009,0.0,-0.017433645203709602,0.7922370433807373,0.0,0.015439270064234734
967.0,897.0,2.7523,-0.2417,9.1005,-0.0293,0.0235,-0.1098,-1.5984512768187464,0.0,2.1293601989746094,-1.9528700113296509,-0.0,2.0603084564208984,4.759215141623773,-0.0,0.3069714903831482,-1.5696705023394983,0.0,-0.002099881414324045,0.8184992671012878,0.0,-0.006497567519545555,0.7922411561012268,0.0001566979626659304,0.021345343440771103
967.0,897.0,2.7523,-0.2417,9.1005,-0.0293,0.0235,-0.1098,-1.598459383050436,0.0,2.1994338035583496,-1.9529143571853638,-0.0,2.047750473022461,4.759315459966221,-0.0,0.290841281414032,-1.5696261564837855,0.0,-0.01941123604774475,0.8184394240379333,0.0,-0.005256507080048323,0.7922614216804504,0.00014662199828308076,-0.012430286966264248
967.0,897.0,2.7523,-0.2417,9.1005,-0.0293,0.0235,-0.1098,-1.5984393558897914,0.0,2.1927359104156494,-1.9529266357421875,-0.0,2.055217742919922,4.759263454913654,-0.0,0.29842090606689453,-1.5696662108050745,0.0,-0.006779828108847141,0.8184190392494202,0.0,0.002466607140377164,0.7922452688217163,0.0001335660635959357,0.04335059970617294
967.0,897.0,2.7523,-0.2417,9.1005,-0.0293,0.0235,-0.1098,-1.598487993279928,0.0,2.163203716278076,-1.9529225826263428,-0.0,2.0364956855773926,4.759299526899614,-0.0,0.29430127143859863,-1.5696542898761194,0.0,-0.015192849561572075,0.818483293056488,0.0,0.00016442328342236578,0.7922695875167847,0.00012264509859960526,0.009540777653455734
967.0,897.0,2.7523,-0.2417,9.1005,-0.0293,0.0235,-0.1098,-1.5984512768187464,0.0,2.1696224212646484,-1.9528865814208984,-0.0,2.0625293254852295,4.759267534106531,-0.0,0.30658209323883057,-1.5696943441974085,0.0,-0.02324128895998001,0.8185193538665771,0.0,-0.00842345505952835,0.7922372817993164,0.00011630552035057917,-0.012511638924479485
967.0,897.0,2.7523,-0.2417,9.1005,-0.0293,0.0235,-0.1098,-1.598471303979391,0.0,2.1517059803009033,-1.952934980392456,-0.0,2.033341646194458,4.759291685163536,-0.0,0.2968226373195648,-1.5696943441974085,0.0,-0.008160315454006195,0.818483293056488,0.0,-0.018329152837395668,0.7922089695930481,0.00010793631372507662,0.025402989238500595
967.0,897.0,2.7523,-0.2417,9.1005,-0.0293,0.0235,-0.1098,-1.598487993279928,0.0,2.1922943592071533,-1.9529101848602295,-0.0,2.0673930644989014,4.759251533984699,-0.0,0.29317325353622437,-1.569674317036764,0.0,-0.012170381844043732,0.8184435367584229,0.0,-0.009726129472255707,0.792209267616272,0.00010069082782138139,0.03240297734737396
967.0,897.0,2.7523,-0.2417,9.1005,-0.0293,0.0235,-0.1098,-1.5984918079771937,0.0,2.1869397163391113,-1.952842116355896,-0.0,2.050117015838623,4.7592835305030725,-0.0,0.3003833591938019,-1.5696786085711878,0.0,-0.00719089712947607,0.818531334400177,0.0,-0.008903917856514454,0.7921969294548035,9.637778566684574e-05,-0.04708037152886391
967.0,897.0,2.7523,-0.2417,9.1005,-0.0293,0.0235,-0.1098,-1.598487993279928,0.0,2.142119884490967,-1.95290207862854,-0.0,2.0258374214172363,4.759263432561912,-0.0,0.3081642985343933,-1.5696423689471644,0.0,-0.004559564404189587,0.8184911012649536,0.0,-0.003404686227440834,0.7922051548957825,7.244756125146523e-05,-0.026495646685361862
967.0,897.0,2.7523,-0.2417,9.1005,-0.0293,0.0235,-0.1098,-1.5984670124449671,0.0,2.168729782104492,-1.9529144763946533,-0.0,2.035327911376953,4.759247529297628,-0.0,0.2858958840370178,-1.5696256796466272,0.0,-0.016189411282539368,0.8184912204742432,0.0,0.004043658263981342,0.7922051548957825,6.832266808487475e-05,0.005590455140918493
967.0,897.0,2.7523,-0.2417,9.1005,-0.0293,0.0235,-0.1098,-1.598471303979391,0.0,2.17276930809021,-1.9528626203536987,-0.0,2.0354626178741455,4.759283951460876,-0.0,0.2998058497905731,-1.5696380774127405,0.0,-0.00964832492172718,0.8184952139854431,0.0,-0.0036692337598651648,0.7922254204750061,4.8482721467735246e-05,-0.013736811466515064
967.0,897.0,2.7523,-0.2417,9.1005,-0.0293,0.0235,-0.1098,-1.598471303979391,0.0,2.221134662628174,-1.9529101848602295,-0.0,2.0287537574768066,4.759275685041704,-0.0,0.295540452003479,-1.5696504751788538,0.0,-0.014750948175787926,0.8184952139854431,0.0,-0.006612866651266813,0.7921810150146484,4.6800960262771696e-05,0.07813676446676254
967.0,897.0,2.7523,-0.2417,9.1005,-0.0293,0.0235,-0.1098,-1.598459383050436,0.0,2.1413238048553467,-1.9529308080673218,-0.0,2.0382070541381836,4.759255300253191,-0.0,0.2986891269683838,-1.5696705023394983,0.0,-0.01535574346780777,0.8185033798217773,0.0,0.0024608606472611427,0.7922133207321167,4.448759136721492e-05,-0.02169901877641678
932.0,875.0,2.7835,-0.1244,9.0503,-0.0334,0.0287,-0.1239,-1.5984231434264125,0.0,2.1746199131011963,-1.9528781175613403,-0.0,2.083177089691162,4.759311447828569,-0.0,0.29502904415130615,-1.5696705023394983,0.0,-0.0004197156522423029,0.8185155987739563,0.0,-0.011167138814926147,0.7921768426895142,4.239217741996981e-05,0.029279083013534546
932.0,875.0,2.7835,-0.1244,9.0503,-0.0334,0.0287,-0.1239,-1.598471303979391,0.0,2.1516499519348145,-1.952858567237854,-0.0,2.0387463569641113,4.759279455035486,-0.0,0.29630929231643677,-1.56964618364443,0.0,-0.007113724015653133,0.8185235261917114,0.0,-0.008237451314926147,0.7922254204750061,4.110153531655669e-05,0.02346142753958702
932.0,875.0,2.7835,-0.1244,9.0503,-0.0334,0.0287,-0.1239,-1.5984393558897914,0.0,2.1625449657440186,-1.9529101848602295,-0.0,2.003851890563965,4.759287628322401,-0.0,0.2939571738243103,-1.5696542898761194,0.0,-0.00034973258152604103,0.8185033798217773,0.0,0.004051310010254383,0.792273759841919,3.930649108951911e-05,-0.011265838518738747
932.0,875.0,2.7835,-0.1244,9.0503,-0.0334,0.0287,-0.1239,-1.5984474621214808,0.0,2.12658429145813,-1.9529061317443848,-0.0,2.0671496391296387,4.75931557545022,-0.0,0.30634886026382446,-1.5696218649493616,0.0,-0.007626366801559925,0.8185353875160217,0.0,0.0018318805377930403,0.7922172546386719,3.766169902519323e-05,-0.015703441575169563
932.0,875.0,2.7835,-0.1244,9.0503,-0.0334,0.0287,-0.1239,-1.5984155140318812,0.0,2.1772077083587646,-1.9528824090957642,-0.0,2.0443201065063477,4.759287296771564,-0.0,0.2920929193496704,-1.5696380774127405,0.0,-0.021463565528392792,0.8185075521469116,0.0,0.001673696911893785,0.7922011017799377,4.884610461886041e-05,0.00669011240825057
932.0,875.0,2.7835,-0.1244,9.0503,-0.0334,0.0287,-0.1239,-1.5984837017455042,0.0,2.1465847492218018,-1.9529472589492798,-0.0,2.0661697387695312,4.759259379446068,-0.0,0.2945437729358673,-1.5696662108050745,0.0,-0.00259554386138916,0.8184993267059326,0.0,0.00391444843262434,0.7922291159629822,4.6941764594521374e-05,0.02013166807591915
932.0,875.0,2.7835,-0.1244,9.0503,-0.0334,0.0287,-0.1239,-1.5984355411925257,0.0,2.163752794265747,-1.9528863430023193,-0.0,2.073061227798462,4.759287602245369,-0.0,0.29089343547821045,-1.569658104573385,0.0,-0.002915772842243314,0.8184792995452881,0.0,-0.007292683701962233,0.7923017144203186,1.715271355351433e-05,0.011188441887497902
932.0,875.0,2.7835,-0.1244,9.0503,-0.0334,0.0287,-0.1239,-1.5984717808165492,0.0,2.1238508224487305,-1.9529834985733032,-0.0,2.080171585083008,4.759315556823768,-0.0,0.30264002084732056,-1.5696705023394983,0.0,-0.003974359016865492,0.8185033798217773,0.0,-0.0033103395253419876,0.7922411561012268,1.6522728401469067e-05,0.00011394405737519264
932.0,875.0,2.7835,-0.1244,9.0503,-0.0334,0.0287,-0.1239,-1.598455091516012,0.0,2.1947731971740723,-1.9529069662094116,-0.0,2.0494368076324463,4.759259379446068,-0.0,0.29186099767684937,-1.569686237965719,0.0,-0.01742788404226303,0.818539559841156,0.0,-0.005795315373688936,0.7922493815422058,3.129548713332042e-05,-0.016558663919568062
932.0,875.0,2.7835,-0.1244,9.0503,-0.0334,0.0287,-0.1239,-1.598504205743307,0.0,2.135160207748413,-1.9528708457946777,-0.0,2.0634167194366455,4.759291685163536,-0.0,0.29498523473739624,-1.569634262715475,0.0,-0.004698785953223705,0.8184992671012878,0.0,0.002442902885377407,0.7922775745391846,2.9766664738417603e-05,0.02124519646167755
932.0,875.0,2.7835,-0.1244,9.0503,-0.0334,0.0287,-0.1239,-1.598431249658102,0.0,2.1803030967712402,-1.9528626203536987,-0.0,2.0539093017578125,4.759271333902635,-0.0,0.3022143244743347,-1.5696857611285608,0.0,-0.0051244646310806274,0.8185075521469116,0.0,0.0035595290828496218,0.7922128438949585,4.315341720939614e-05,0.009202810004353523
932.0,875.0,2.7835,-0.1244,9.0503,-0.0334,0.0287,-0.1239,-1.5984670124449671,0.0,2.1541953086853027,-1.9528988599777222,-0.0,2.0270228385925293,4.759283515601911,-0.0,0.28197261691093445,-1.5696705023394983,0.0,-0.014393096789717674,0.8185033798217773,0.0,-0.0011921513359993696,0.7922816872596741,4.1240105929318815e-05,-0.014069727621972561
932.0,875.0,2.7835,-0.1244,9.0503,-0.0334,0.0287,-0.1239,-1.5984512768187464,0.0,2.175532341003418,-1.952902913093567,-0.0,2.07064151763916,4.759307640581884,-0.0,0.28624364733695984,-1.5696662108050745,0.0,-0.022990765050053596,0.8185353875160217,0.0,-0.008140258491039276,0.7922250032424927,5.257756129140034e-05,0.016687143594026566
932.0,875.0,2.7835,-0.1244,9.0503,-0.0334,0.0287,-0.1239,-1.5985037289061488,0.0,2.1275229454040527,-1.9528740644454956,-0.0,2.043659210205078,4.759327839105882,-0.0,0.29216182231903076,-1.5696542898761194,0.0,-0.008198229596018791,0.8184710741043091,0.0,-1.6756996046751738e-05,0.7922734618186951,0.00020806933753192425,-0.029238436371088028
932.0,875.0,2.7835,-0.1244,9.0503,-0.0334,0.0287,-0.1239,-1.5984231434264125,0.0,2.135049343109131,-1.952926754951477,-0.0,2.0733561515808105,4.759243394225397,-0.0,0.301290899515152,-1.5696662108050745,0.0,-0.021131247282028198,0.8184788823127747,0.0,-0.009041237644851208,0.7922775745391846,0.00022837420692667365,0.018108349293470383
932.0,875.0,2.7835,-0.1244,9.0503,-0.0334,0.0287,-0.1239,-1.5984755955138148,0.0,2.11903715133667,-1.952943205833435,-0.0,2.0570452213287354,4.759271624475279,-0.0,0.29442912340164185,-1.5696938673602503,0.0,-0.012733494862914085,0.8184870481491089,0.0,-0.008274960331618786,0.7922573089599609,0.00025878555607050657,-0.03570415452122688
965.0,908.0,2.5226,-0.1848,9.1077,-0.0345,0.0313,-0.1126,-1.5984837017455042,0.0,2.1785202026367188,-1.9528748989105225,-0.0,2.024923801422119,4.759239292680778,-0.0,0.2966887652873993,-1.5697148481952112,0.0,-0.014318176545202732,0.8185272216796875,0.0,0.0047582658007740974,0.7922853231430054,0.0004424142243806273,0.004608003422617912
965.0,908.0,2.5226,-0.1848,9.1077,-0.0345,0.0313,-0.1126,-1.5984670124449671,0.0,2.1692652702331543,-1.95290207862854,-0.0,2.0224032402038574,4.759247514396467,-0.0,0.2902491092681885,-1.5697062651263636,0.0,-0.01115432195365429,0.8185070753097534,0.0,-0.004100876394659281,0.7922652959823608,0.0005155623075552285,0.022680841386318207
965.0,908.0,2.5226,-0.1848,9.1077,-0.0345,0.0313,-0.1126,-1.5984999142088832,0.0,2.12640643119812,-1.9528824090957642,-0.0,2.0686144828796387,4.759263868420877,-0.0,0.29230207204818726,-1.5696385542498987,0.0,0.00038107018917798996,0.8185033798217773,0.0,0.005988979712128639,0.7922775745391846,0.00041593139758333564,-0.01670832931995392
965.0,908.0,2.5226,-0.1848,9.1077,-0.0345,0.0313,-0.1126,-1.5984913311400355,0.0,2.167682647705078,-1.9528906345367432,-0.0,2.0864579677581787,4.759239680110969,-0.0,0.29130372405052185,-1.569686237965719,0.0,-0.008389774709939957,0.8185111880302429,0.0,-0.0001622776035219431,0.7922573089599609,0.00019678540411405265,0.020294947549700737
965.0,908.0,2.5226,-0.1848,9.1077,-0.0345,0.0313,-0.1126,-1.5985075436034144,0.0,2.138627767562866,-1.9528545141220093,-0.0,2.073451280593872,4.759227341949501,-0.0,0.2981669306755066,-1.5696542898761194,0.0,-0.014384048990905285,0.8185276389122009,0.0,-0.012516232207417488,0.7922573089599609,0.00016146204143296927,-0.00606654305011034
965.0,908.0,2.5226,-0.1848,9.1077,-0.0345,0.0313,-0.1126,-1.598527570764059,0.0,2.1469922065734863,-1.9528740644454956,-0.0,2.0473978519439697,4.759259688645162,-0.0,0.295060396194458,-1.569674317036764,0.0,-0.00762271648272872,0.8184752464294434,0.0,-0.00697059091180563,0.7922935485839844,0.0001272171357413754,-0.014846015721559525
965.0,908.0,2.5226,-0.1848,9.1077,-0.0345,0.0313,-0.1126,-1.598539491693014,0.0,2.143486261367798,-1.952894687652588,-0.0,2.0484445095062256,4.759247529297628,-0.0,0.28872549533843994,-1.569686237965719,0.0,-0.0018301501404494047,0.8185476660728455,0.0,-0.01749100536108017,0.7922734618186951,0.00010495863534742966,0.018672769889235497
965.0,908.0,2.5226,-0.1848,9.1077,-0.0345,0.0313,-0.1126,-1.5985118351378382,-0.00025873840786516666,2.151949405670166,-1.9529472589492798,-0.0,1.9990496635437012,4.759279838740387,-0.0,0.28159987926483154,-1.5696542898761194,0.0,-0.006332308053970337,0.8184669613838196,0.0,-0.0042717354372143745,0.7922410368919373,1.6215612049563788e-05,0.03424172103404999
965.0,908.0,2.5226,-0.1848,9.1077,-0.0345,0.0313,-0.1126,-1.5985199413695277,-0.00022701817215420306,2.1511101722717285,-1.9528906345367432,-0.0,2.057053565979004,4.75921922081665,-0.0,0.30042603611946106,-1.5696662108050745,0.0,-0.002259007655084133,0.8185353875160217,0.0,-0.0065791429951786995,0.7922172546386719,3.9158797732197215e-11,0.02542733959853649
965.0,908.0,2.5226,-0.1848,9.1077,-0.0345,0.0313,-0.1126,-1.5985151729979457,-0.0001971740712178871,2.1373867988586426,-1.9529143571853638,-0.0,2.0850956439971924,4.759292150824823,-0.0,0.29885926842689514,-1.569658104573385,0.0,-0.010970523580908775,0.8185116052627563,0.0,-0.005223036278039217,0.7922655344009399,9.456388319710316e-17,-0.013982594013214111
965.0,908.0,2.5226,-0.1848,9.1077,-0.0345,0.0313,-0.1126,-1.5985475979247035,-0.00021703670790884644,2.182689666748047,-1.952866792678833,-0.0,2.007080554962158,4.759255698859253,-0.0,0.3054230511188507,-1.5696385542498987,0.0,-0.009367445483803749,0.8184993267059326,0.0,0.0019347751513123512,0.7922332286834717,1.7021163651967877e-20,-0.007275326643139124
965.0,908.0,2.5226,-0.1848,9.1077,-0.0345,0.0313,-0.1126,-1.5985237560667933,-0.0001940859656315297,2.178814649581909,-1.952866792678833,-0.0,2.0289793014526367,4.759227364301243,-0.0,0.28937894105911255,-1.569674317036764,0.0,-0.0031493038404732943,0.8185476064682007,0.0,-0.010415525175631046,0.7922614216804504,-0.00013940571807324886,0.015263707377016544
965.0,908.0,2.5226,-0.1848,9.1077,-0.0345,0.0313,-0.1126,-1.598551412621969,-0.00020438875071704388,2.12896990776062,-1.9528988599777222,-0.0,2.0599308013916016,4.759279812663355,-0.0,0.2917587459087372,-1.5696585814105433,0.0,-0.010724227875471115,0.8184788823127747,0.0,-0.014738873578608036,0.7922695875167847,-0.00019008350500371307,0.007001937832683325
965.0,908.0,2.5226,-0.1848,9.1077,-0.0345,0.0313,-0.1126,-1.5984913311400355,-0.0001862645149230957,2.1995837688446045,-1.9528626203536987,-0.0,2.0353100299835205,4.759259688645162,-0.0,0.29233378171920776,-1.5696423689471644,0.0,-0.009457679465413094,0.8185075521469116,0.0,-0.000625762389972806,0.7922413945198059,-0.00021693673625122756,0.019536182284355164
965.0,908.0,2.5226,-0.1848,9.1077,-0.0345,0.0313,-0.1126,-1.59851135830068,-0.00017586509056854993,2.1680452823638916,-1.952894687652588,-0.0,1.9875973463058472,4.759267973690786,-0.0,0.28465989232063293,-1.5696824232684534,0.0,-0.01742575690150261,0.8184829950332642,0.0,0.003892053384333849,0.7922573089599609,-0.00018689777061808854,-0.05070309713482857
965.0,908.0,2.5226,-0.1848,9.1077,-0.0345,0.0313,-0.1126,-1.5985194645323695,-0.0001622753479750827,2.1717052459716797,-1.9529224634170532,-0.0,1.9971675872802734,4.759247503220596,-0.0,0.2852409780025482,-1.5696824232684534,0.0,-0.004541976843029261,0.8184952139854431,0.0,-0.00014579645358026028,0.7922857403755188,-0.00014786337851546705,-0.0826057493686676
965.0,908.0,2.5226,-0.1848,9.1077,-0.0345,0.0313,-0.1126,-1.5985356769957484,-0.0001506349362898618,2.1575217247009277,-1.9528347253799438,-0.0,2.0326905250549316,4.759223288833656,-0.0,0.29093536734580994,-1.5696499983416956,0.0,-0.01788002997636795,0.818571925163269,0.0,0.00842261966317892,0.7922857403755188,-0.00011861586244776845,0.019652098417282104
965.0,874.0,2.9456,-0.2602,8.9886,-0.042,0.0144,-0.1176,-1.5985156498351039,-0.0001437604078091681,2.120006799697876,-1.952866792678833,-0.0,2.0414509773254395,4.759247514396467,-0.0,0.30531108379364014,-1.569634262715475,0.0,-0.011739608831703663,0.8185111880302429,0.0,-0.008042462170124054,0.7922857403755188,-0.00010480113996891305,-0.03139403834939003
965.0,874.0,2.9456,-0.2602,8.9886,-0.042,0.0144,-0.1176,-1.5985032520689906,-0.00013454949657898396,2.1855204105377197,-1.9528906345367432,-0.0,2.0239336490631104,4.759231517999925,-0.0,0.29871711134910583,-1.5696824232684534,0.0,-0.01909025013446808,0.8185434937477112,0.0,-0.00770962331444025,0.7922332286834717,-8.921603875933215e-05,-0.05090704560279846
965.0,874.0,2.9456,-0.2602,8.9886,-0.042,0.0144,-0.1176,-1.598539491693014,-0.00012644799426198006,2.1296334266662598,-1.9529143571853638,-0.0,2.0469110012054443,4.759283966362037,-0.0,0.3009878396987915,-1.569686237965719,0.0,-0.019515156745910645,0.8185189962387085,0.0,0.0025274166837334633,0.7922452688217163,-7.766651833662763e-05,-0.04301369935274124
965.0,874.0,2.9456,-0.2602,8.9886,-0.042,0.0144,-0.1176,-1.5985270939269007,-0.00012156800949014723,2.135164260864258,-1.9529151916503906,-0.0,2.0235328674316406,4.759227349400081,-0.0,0.30260196328163147,-1.5696423689471644,0.0,-0.016576778143644333,0.8185235261917114,0.0,-0.007615457754582167,0.7923097014427185,-7.149634620873258e-05,0.030894897878170013
965.0,874.0,2.9456,-0.2602,8.9886,-0.042,0.0144,-0.1176,-1.5985390148558558,-0.0001179903993033804,2.159128427505493,-1.9528708457946777,-0.0,2.037409782409668,4.759215510427513,-0.0,0.30299878120422363,-1.5696218649493616,0.0,-0.004887595307081938,0.8185718655586243,0.0,0.0008861676324158907,0.7922614216804504,-6.388359179254621e-05,0.038558170199394226
965.0,874.0,2.9456,-0.2602,8.9886,-0.042,0.0144,-0.1176,-1.5985714397826136,-0.00015018443809822202,2.131418228149414,-1.9529554843902588,-0.0,2.0974538326263428,4.759251619666376,-0.0,0.29881566762924194,-1.569658104573385,0.0,-0.021393530070781708,0.8185672760009766,0.0,-0.0012980650644749403,0.7923024892807007,-3.877196286339313e-05,0.03650606796145439
965.0,874.0,2.9456,-0.2602,8.9886,-0.042,0.0144,-0.1176,-1.5985475979247035,-0.0001646351593080908,2.1513617038726807,-1.9529143571853638,-0.0,2.0455567836761475,4.759235608368673,-0.0,0.2933715581893921,-1.569606129323141,0.0,-0.010647250339388847,0.8185713887214661,0.0,-0.005768870934844017,0.7922370433807373,-2.7129521185997874e-05,0.05905438959598541
965.0,874.0,2.9456,-0.2602,8.9886,-0.042,0.0144,-0.1176,-1.5985352001585902,-0.0007369304075837135,2.1400809288024902,-1.9529143571853638,-0.0,2.0228400230407715,4.759263860970297,-0.0,0.30048123002052307,-1.5696623961078089,0.0,-0.009777777828276157,0.81856769323349,0.0,-0.00623350078240037,0.7922452688217163,-2.9219834232208086e-06,0.05262581259012222
965.0,874.0,2.9456,-0.2602,8.9886,-0.042,0.0144,-0.1176,-1.598583837548727,-0.0009086460922844708,2.1144840717315674,-1.9528988599777222,-0.0,2.0850536823272705,4.759235608368673,-0.0,0.2781293988227844,-1.569629971181051,0.0,-0.016918884590268135,0.818514883518219,0.0,-0.004201043397188187,0.7922411561012268,-7.056246212333583e-12,0.00812692753970623
965.0,874.0,2.9456,-0.2602,8.9886,-0.042,0.0144,-0.1176,-1.5985752544798792,-0.0008804149692878127,2.092289924621582,-1.952858567237854,-0.0,2.018400192260742,4.759235615819254,-0.0,0.3175509572029114,-1.5696623961078089,0.0,-0.014754611998796463,0.8184512853622437,0.0,0.0019424688071012497,0.7922411561012268,-1.2700992228699848e-15,0.025657769292593002
965.0,874.0,2.9456,-0.2602,8.9886,-0.042,0.0144,-0.1176,-1.5985595188536585,-0.0008456270443275571,2.1227591037750244,-1.9528988599777222,-0.0,2.061265230178833,4.759227349400081,-0.0,0.2974872887134552,-1.5696662108050745,0.0,-0.015340305864810944,0.8184909820556641,0.0,0.0026856553740799427,0.7922411561012268,-3.0671396671133107e-21,0.07987366616725922
965.0,874.0,2.9456,-0.2602,8.9886,-0.042,0.0144,-0.1176,-1.5985428295531214,-0.0011023643892258406,2.120737314224243,-1.952902913093567,-0.0,2.0278894901275635,4.759211338102379,-0.0,0.31271952390670776,-1.5696705023394983,0.0,-0.024533873423933983,0.8185235261917114,0.0,-0.005363393574953079,0.7922812700271606,-7.406782209839253e-27,0.11723501235246658
965.0,874.0,2.9456,-0.2602,8.9886,-0.042,0.0144,-0.1176,-1.598607679406637,-0.0015015203971415758,2.0767226219177246,-1.952902913093567,-0.0,2.016648530960083,4.75921959707097,-0.0,0.298336923122406,-1.569629971181051,0.0,-0.023409362882375717,0.8185033798217773,0.0,-0.0061482395976781845,0.7922573089599609,-1.788650865184012e-32,0.127008318901062
965.0,874.0,2.9456,-0.2602,8.9886,-0.042,0.0144,-0.1176,-1.5986033878722132,-0.001859887852333486,2.0896735191345215,-1.952858567237854,-0.0,2.019587993621826,4.759235641896286,-0.0,0.3043889105319977,-1.569658104573385,0.0,-0.02048470824956894,0.8184788823127747,0.0,-0.006741579622030258,0.7922693490982056,-3.2195081985300953e-36,0.11561062932014465
965.0,874.0,2.9456,-0.2602,8.9886,-0.042,0.0144,-0.1176,-1.598647256890768,-0.0024358907248824835,2.077643871307373,-1.9529101848602295,-0.0,2.079075574874878,4.759223687439718,-0.0,0.30771762132644653,-1.569634262715475,0.0,-0.032345324754714966,0.818539559841156,0.0,0.0014461912214756012,0.7922614216804504,-7.774403880074085e-42,0.14567160606384277
965.0,874.0,2.9456,-0.2602,8.9886,-0.042,0.0144,-0.1176,-1.598663946191305,-0.0030348068103194237,2.085580348968506,-1.9528988599777222,-0.0,2.033658266067505,4.759179468243875,-0.0,0.29341796040534973,-1.569629971181051,0.0,-0.0348099060356617,0.8185276389122009,0.0,-0.011199187487363815,0.7922325134277344,0.0001008718172670342,0.11072653532028198
965.0,874.0,2.9456,-0.2602,8.9886,-0.042,0.0144,-0.1176,-1.5986629925169886,-0.003961433656513691,2.111523151397705,-1.9528905153274536,6.659929931629449e-05,2.013821601867676,4.759207676142015,-6.690838927170262e-05,0.29152101278305054,-1.5696337858783167,0.0,-0.036407627165317535,0.8185070157051086,0.0,-0.0028684078715741634,0.7922855019569397,0.0002915955556090921,0.12521019577980042
943.0,902.0,2.723,-0.478,9.1155,-0.049,0.0111,-0.12,-1.5986834965147914,-0.0044079250656068325,2.0277130603790283,-1.9528429508209229,8.590974903199822e-05,2.0411572456359863,4.759239706188001,-6.606767419725657e-05,0.29405784606933594,-1.5696385542498987,0.0,-0.036576975136995316,0.8185152411460876,0.0,0.007064647972583771,0.7922530770301819,0.00029785558581352234,0.12904545664787292
943.0,902.0,2.723,-0.478,9.1155,-0.049,0.0111,-0.12,-1.598671098748678,-0.004785023629665375,2.043452024459839,-1.952890396118164,8.125607564579695e-05,2.046400308609009,4.759231510549345,-7.593003829242662e-05,0.28318336606025696,-1.569658104573385,0.0,-0.015728045254945755,0.8185393810272217,0.0,0.006770425010472536,0.7922893762588501,0.0006531166145578027,0.13639140129089355
943.0,902.0,2.723,-0.478,9.1155,-0.049,0.0111,-0.12,-1.5987230739989222,-0.004277013707906008,2.045072555541992,-1.9528863430023193,9.410582424607128e-05,2.044949769973755,4.759235608368673,-8.596030238550156e-05,0.26260554790496826,-1.569686237965719,0.0,-0.04025612398982048,0.8184952735900879,0.0,0.0014854669570922852,0.7922812700271606,0.0006237812922336161,0.16159608960151672
943.0,902.0,2.723,-0.478,9.1155,-0.049,0.0111,-0.12,-1.5987473926939906,-0.00322646158747375,2.0097012519836426,-1.9528822898864746,8.943304419517517e-05,2.0086476802825928,4.759215938835897,-0.00022906673257239163,0.278183251619339,-1.569634262715475,0.0,-0.043307363986968994,0.818543553352356,0.0,-0.007534907199442387,0.7923136949539185,0.0007913435692898929,0.19677849113941193
943.0,902.0,2.723,-0.478,9.1155,-0.049,0.0111,-0.12,-1.5987712345519007,-0.003120090812444687,1.9874446392059326,-1.952850341796875,8.519993571098894e-05,2.053638458251953,4.7591954348380945,-0.00041487879934720695,0.27937278151512146,-1.569629971181051,0.0,-0.0322066992521286,0.818599283695221,0.0,0.005009887274354696,0.7922853231430054,0.000753057305701077,0.13324840366840363
943.0,902.0,2.723,-0.478,9.1155,-0.049,0.0111,-0.12,-1.598778863946432,-0.0035957659129053354,1.9615343809127808,-1.9528584480285645,9.581038466421887e-05,2.030527114868164,4.759191348194637,-0.0009111328981816769,0.268921434879303,-1.5696256796466272,0.0,-0.04076584801077843,0.8185476660728455,0.0,-0.002367096720263362,0.7923094630241394,0.0008135761017911136,0.22393082082271576
943.0,902.0,2.723,-0.478,9.1155,-0.049,0.0111,-0.12,-1.5988112888731898,-0.0036382453981786966,1.9464514255523682,-1.9528748989105225,0.00010079775529447943,2.0237739086151123,4.759199607163229,-0.0010127887362614274,0.2665478587150574,-1.5696423689471644,0.0,-0.035734232515096664,0.8185476660728455,0.0,-0.0015682135708630085,0.7922684550285339,0.0007791880052536726,0.15438571572303772
943.0,902.0,2.723,-0.478,9.1155,-0.049,0.0111,-0.12,-1.5987750492491664,-0.003107102122157812,1.929729700088501,-1.9528708457946777,0.0001900840288726613,2.0756070613861084,4.759220044105806,-0.0009156157029792666,0.27302858233451843,-1.5696824232684534,0.0,-0.03440849483013153,0.8185713887214661,0.0,-0.012056488543748856,0.7922523617744446,0.0010039553744718432,0.22867342829704285
943.0,902.0,2.723,-0.478,9.1155,-0.049,0.0111,-0.12,-1.5988594494261683,-0.0028151858132332563,1.9130457639694214,-1.9528790712356567,0.00018558504234533757,2.0329339504241943,4.759159672051229,-0.0008495975052937865,0.2679004967212677,-1.5696185270892542,0.0,-0.050658054649829865,0.8185033798217773,0.0,0.0028049969114363194,0.7922570705413818,0.0014454296324402094,0.20270544290542603
943.0,902.0,2.723,-0.478,9.1155,-0.049,0.0111,-0.12,-1.5988794765868128,-0.002218439942225814,1.9127674102783203,-1.9528429508209229,0.00023075315402820706,2.001204490661621,4.75923194640831,-0.0007801837637089193,0.2702839970588684,-1.5696142355548304,0.0,-0.030032340437173843,0.8185955882072449,0.0,-0.0027801671531051397,0.7923131585121155,0.0025983420200645924,0.192452073097229
943.0,902.0,2.723,-0.478,9.1155,-0.049,0.0111,-0.12,-1.5988670788206996,-0.002835090272128582,1.933072805404663,-1.9528346061706543,0.0008054779027588665,2.024986743927002,4.759211766510763,-0.0007262903964146972,0.26333919167518616,-1.5696423689471644,0.0,-0.029851745814085007,0.8185476064682007,0.0,0.007707828655838966,0.7923413515090942,0.004820310976356268,0.1958353966474533
943.0,902.0,2.723,-0.478,9.1155,-0.049,0.0111,-0.12,-1.5989114246764125,-0.0037373360246419907,1.8644413948059082,-1.95283043384552,0.0024436372332274914,2.021596908569336,4.759207664966144,-0.0006639220518991351,0.24808092415332794,-1.5696218649493616,0.0,-0.029733147472143173,0.818514883518219,0.0,0.0001296606205869466,0.7924098968505859,0.0065754372626543045,0.21321094036102295
943.0,902.0,2.723,-0.478,9.1155,-0.049,0.0111,-0.12,-1.5989271603026332,-0.004634736105799675,1.8146768808364868,-1.9528067111968994,0.003232153132557869,1.9695777893066406,4.75919588187293,-0.0007336402777582407,0.24745312333106995,-1.5696466604815882,0.0,-0.02421678975224495,0.8185636401176453,0.0,-0.006225524470210075,0.7924014329910278,0.00571956904605031,0.23166756331920624
943.0,902.0,2.723,-0.478,9.1155,-0.049,0.0111,-0.12,-1.5989757976927699,-0.005726526957005262,1.843806505203247,-1.9527745246887207,0.004687090404331684,2.048779249191284,4.759224056243458,-0.0019871960394084454,0.2510837912559509,-1.5696175734149378,0.0,-0.03260233998298645,0.8185393810272217,0.0,0.001502021448686719,0.7924579977989197,0.004957669880241156,0.250460147857666
943.0,902.0,2.723,-0.478,9.1155,-0.049,0.0111,-0.12,-1.598982950250143,-0.0077911256812512875,1.7918248176574707,-1.9527465105056763,0.006349965464323759,2.0117106437683105,4.759127653181114,-0.005752671044319868,0.25163981318473816,-1.5696256796466272,0.0,-0.034212179481983185,0.8185796141624451,0.0,-0.011393330991268158,0.792452871799469,0.00375235709361732,0.19390884041786194
943.0,902.0,2.723,-0.478,9.1155,-0.049,0.0111,-0.12,-1.599051137963766,-0.009265536442399025,1.7812902927398682,-1.9527424573898315,0.0071854908019304276,2.0178215503692627,4.759115922241964,-0.010956546291708946,0.23065094649791718,-1.5696423689471644,0.0,-0.03322703018784523,0.8185230493545532,0.0,-0.0011982358992099762,0.7924452424049377,0.003499241080135107,0.25530749559402466
979.0,918.0,2.6776,-0.5085,9.0012,-0.0437,0.0095,-0.1048,-1.5991236172118128,-0.011641626246273518,1.7932653427124023,-1.952698826789856,0.006850113160908222,2.075481414794922,4.7590161366160295,-0.01623900793492794,0.2110370397567749,-1.569629971181051,0.0,-0.02955256961286068,0.8185713887214661,0.0,0.0062728747725486755,0.7924367189407349,0.003125998890027404,0.18823571503162384
979.0,918.0,2.6776,-0.5085,9.0012,-0.0437,0.0095,-0.1048,-1.5991789303221644,-0.013145088218152523,1.758608341217041,-1.9526584148406982,0.004855717532336712,1.954880952835083,4.758956382959642,-0.012459874153137207,0.21953760087490082,-1.5696623961078089,0.0,-0.02130076475441456,0.8185230493545532,0.0,0.006813780404627323,0.7924606204032898,0.002393664326518774,0.21227766573429108
979.0,918.0,2.6776,-0.5085,9.0012,-0.0437,0.0095,-0.1048,-1.5992347202696742,-0.014153317548334599,1.731656789779663,-1.9526346921920776,0.003800520906224847,2.001582622528076,4.758884514659204,-0.009459719993174076,0.2264431118965149,-1.569629971181051,0.0,-0.04286530986428261,0.8184746503829956,0.0,0.006704190745949745,0.7925214767456055,0.002053188858553767,0.22765128314495087
979.0,918.0,2.6776,-0.5085,9.0012,-0.0437,0.0095,-0.1048,-1.5993396244444789,-0.016164062544703484,1.706084966659546,-1.9526314735412598,0.0021310143638402224,2.004467248916626,4.758892799704828,-0.004220395814627409,0.2195156365633011,-1.5696423689471644,0.0,-0.03442021831870079,0.8184828162193298,0.0,-0.002353757619857788,0.792529284954071,0.0018693149322643876,0.28099340200424194
979.0,918.0,2.6776,-0.5085,9.0012,-0.0437,0.0095,-0.1048,-1.5993949375548304,-0.01727224513888359,1.7068181037902832,-1.9526233673095703,0.001026734011247754,1.9878078699111938,4.75888870933608,-0.00161867740098387,0.21600687503814697,-1.5696147123919886,0.0,-0.021897293627262115,0.8185554146766663,0.0,0.008485987782478333,0.7925735712051392,0.0017749187536537647,0.23295694589614868
979.0,918.0,2.6776,-0.5085,9.0012,-0.0437,0.0095,-0.1048,-1.5994826755919398,-0.019013741984963417,1.627140998840332,-1.9525787830352783,0.000840654072817415,1.9955661296844482,4.75891317331747,-0.0010174652561545372,0.21506023406982422,-1.5696585814105433,0.0,-0.0376809798181057,0.8185272216796875,0.0,-0.0020347805693745613,0.7925414443016052,0.0017985048471018672,0.24514326453208923
979.0,918.0,2.6776,-0.5085,9.0012,-0.0437,0.0095,-0.1048,-1.5996066532530726,-0.021048489958047867,1.6537044048309326,-1.9526026248931885,0.0008925881120376289,2.0121917724609375,4.758864874928751,-0.0006491491803899407,0.21500805020332336,-1.5696542898761194,0.0,-0.022245211526751518,0.8185673356056213,0.0,0.012651185505092144,0.7925695180892944,0.0018581432523205876,0.2049451321363449
979.0,918.0,2.6776,-0.5085,9.0012,-0.0437,0.0095,-0.1048,-1.5996743641295375,-0.02303783968091011,1.6697461605072021,-1.952635645866394,0.0008282337803393602,1.9998455047607422,4.758921417384901,-0.0004768878279719502,0.2097392976284027,-1.5696185270892542,0.0,-0.019456099718809128,0.8186033964157104,0.0,0.012797524221241474,0.7925695180892944,0.0016512330621480942,0.2684105634689331
979.0,918.0,2.6776,-0.5085,9.0012,-0.0437,0.0095,-0.1048,-1.599785944024557,-0.024643005803227425,1.6906460523605347,-1.9526996612548828,0.0007691358914598823,1.9717352390289307,4.758860814362325,-0.00043798531987704337,0.2101123332977295,-1.569606129323141,0.0,-0.025860659778118134,0.8185471892356873,0.0,0.017942706122994423,0.7925328016281128,0.001507897162809968,0.28042274713516235
979.0,918.0,2.6776,-0.5085,9.0012,-0.0437,0.0095,-0.1048,-1.6000148258604945,-0.026581773534417152,1.641287922859192,-1.9526190757751465,0.0007114879554137588,2.006105899810791,4.758856697916546,-0.0003858475829474628,0.22646601498126984,-1.5695980230914515,0.0,-0.015151644125580788,0.8185873627662659,0.0,0.00533074326813221,0.7926100492477417,0.0012038082350045443,0.2681772708892822
979.0,918.0,2.6776,-0.5085,9.0012,-0.0437,0.0095,-0.1048,-1.6001421413817347,-0.029142266139388084,1.587530493736267,-1.9525384902954102,0.001013983623124659,2.0162458419799805,4.758905003755846,-0.0003722847031895071,0.20591554045677185,-1.5696423689471644,0.0,-0.02751724049448967,0.818514883518219,0.0,0.026588410139083862,0.7926225066184998,0.0009921710006892681,0.2550247013568878
979.0,918.0,2.6776,-0.5085,9.0012,-0.0437,0.0095,-0.1048,-1.600330492059225,-0.0323491096496582,1.5745036602020264,-1.9525506496429443,0.002167407190427184,1.9499073028564453,4.7589131882186315,-0.0003224445681553334,0.19861727952957153,-1.569601837788717,0.0,-0.01801002025604248,0.818490743637085,0.0,0.016983460634946823,0.7926226258277893,0.0009618725161999464,0.24212771654129028
979.0,918.0,2.6776,-0.5085,9.0012,-0.0437,0.0095,-0.1048,-1.6004382572569789,-0.034098997712135315,1.5896790027618408,-1.952558159828186,0.0024438807740807533,1.9696794748306274,4.7588726980383775,-0.0002959326666314155,0.21369105577468872,-1.5695818106280726,0.0,-0.028364431113004684,0.8185148239135742,0.0,0.012984744273126125,0.7925935983657837,0.0010553686879575253,0.24868112802505493
979.0,918.0,2.6776,-0.5085,9.0012,-0.0437,0.0095,-0.1048,-1.6006542644896449,-0.037628911435604095,1.5699299573898315,-1.952539324760437,0.002391467336565256,2.0191121101379395,4.758889104216852,-0.0002634430129546672,0.2061309516429901,-1.5696256796466272,0.0,-0.028212152421474457,0.8185591697692871,0.0,0.001243117032572627,0.7926175594329834,0.0017052205512300134,0.2524282932281494
979.0,918.0,2.6776,-0.5085,9.0012,-0.0437,0.0095,-0.1048,-1.6008979282774867,-0.04141276329755783,1.6292260885238647,-1.9525030851364136,0.0028511693235486746,1.9823014736175537,4.75890093946413,-0.0002373828028794378,0.20384010672569275,-1.5696423689471644,0.0,-0.02922031283378601,0.8185915350914001,0.0,0.017158515751361847,0.7926372289657593,0.002502815332263708,0.27600783109664917
979.0,918.0,2.6776,-0.5085,9.0012,-0.0437,0.0095,-0.1048,-1.601053854028219,-0.04392126202583313,1.560903549194336,-1.9525072574615479,0.0038442350924015045,1.9966177940368652,4.758925138949909,-0.00022269638429861516,0.21199297904968262,-1.5696185270892542,0.0,-0.013455430045723915,0.8185591101646423,0.0,0.034673795104026794,0.7926499247550964,0.0028597835917025805,0.2758735418319702
979.0,918.0,2.6776,-0.5085,9.0012,-0.0437,0.0095,-0.1048,-1.60133757213735,-0.04890885576605797,1.5724141597747803,-1.9525153636932373,0.004111223854124546,1.9718995094299316,4.758909127652206,-0.00013331338413991034,0.20599371194839478,-1.5696337858783167,0.0,-0.02329161763191223,0.8185189366340637,0.0,0.030886337161064148,0.7926457524299622,0.0032196869142353535,0.24728348851203918
963.0,859.0,2.7404,-0.064,8.9019,-0.022,-0.0003,-0.1219,-1.6016575298705042,-0.0569160096347332,1.5424330234527588,-1.9524791240692139,0.004274000413715839,1.9892582893371582,4.75887272411541,-0.00014360698696691543,0.21187999844551086,-1.5696380774127405,0.0,-0.023530013859272003,0.8185955882072449,0.0,0.024516070261597633,0.792657196521759,0.003281350713223219,0.26398682594299316
963.0,859.0,2.7404,-0.064,8.9019,-0.022,-0.0003,-0.1219,-1.6018811664977015,-0.062486883252859116,1.5626304149627686,-1.9524800777435303,0.0039427210576832294,1.9892513751983643,4.758848856180467,-0.00013924617087468505,0.18936289846897125,-1.5696104208575647,0.0,-0.034949615597724915,0.8186193704605103,0.0,0.022059127688407898,0.7926895618438721,0.003663179697468877,0.273252010345459
963.0,859.0,2.7404,-0.064,8.9019,-0.022,-0.0003,-0.1219,-1.6023217640318812,-0.07024875283241272,1.5235406160354614,-1.9524273872375488,0.004598831292241812,1.9750832319259644,4.758880863874712,-0.00015078969590831548,0.2024039477109909,-1.5696504751788538,0.0,-0.02294853702187538,0.8185550570487976,0.0,0.035839926451444626,0.7927058339118958,0.00329393008723855,0.24971194565296173
963.0,859.0,2.7404,-0.064,8.9019,-0.022,-0.0003,-0.1219,-1.6028019390501917,-0.07788162678480148,1.5889172554016113,-1.952354907989502,0.0056434147991240025,1.990112066268921,4.758905041008749,-0.00014069813187234104,0.21295033395290375,-1.569601837788717,0.0,-0.022168166935443878,0.8185670375823975,0.0,0.024800727143883705,0.792725682258606,0.002834782237187028,0.254300057888031
963.0,859.0,2.7404,-0.064,8.9019,-0.022,-0.0003,-0.1219,-1.6030813656248988,-0.08315835148096085,1.5058457851409912,-1.9523756504058838,0.006652032025158405,1.9966552257537842,4.758896759688415,-0.000134682486532256,0.19506534934043884,-1.5696104208575647,0.0,-0.02211949974298477,0.8185431361198425,0.0,0.035287149250507355,0.792725682258606,0.0028848196379840374,0.27166497707366943
963.0,859.0,2.7404,-0.064,8.9019,-0.022,-0.0003,-0.1219,-1.6035801372923792,-0.09196306765079498,1.5287785530090332,-1.952351689338684,0.007954271510243416,1.980604648590088,4.75885251069025,-0.00012656491890083998,0.21516332030296326,-1.5695942083941858,0.0,-0.030697472393512726,0.8185873627662659,0.0,0.021327730268239975,0.792758047580719,0.0027236442547291517,0.2622310519218445
963.0,859.0,2.7404,-0.064,8.9019,-0.022,-0.0003,-0.1219,-1.6041323147215785,-0.09771356731653214,1.4889854192733765,-1.9522916078567505,0.008006119169294834,1.9529967308044434,4.758868551790275,-0.00011937045201193541,0.2101869434118271,-1.569606129323141,0.0,-0.02342088893055916,0.8185509443283081,0.0,0.024857761338353157,0.7927985191345215,0.0027281767688691616,0.23976147174835205
963.0,859.0,2.7404,-0.064,8.9019,-0.022,-0.0003,-0.1219,-1.6047398052611292,-0.10096126794815063,1.567610502243042,-1.9521994590759277,0.007816871628165245,2.037703275680542,4.758868529438534,-0.00011294984869891778,0.19174790382385254,-1.5695818106280726,0.0,-0.011576301418244839,0.818562924861908,0.0,0.04749824106693268,0.7928018569946289,0.0037453086115419865,0.32200220227241516
963.0,859.0,2.7404,-0.064,8.9019,-0.022,-0.0003,-0.1219,-1.605147501031393,-0.10164844244718552,1.5084364414215088,-1.952195405960083,0.0073622181080281734,2.038522243499756,4.758913180768051,-0.00010904004011536017,0.19706417620182037,-1.569601837788717,0.0,-0.02332490123808384,0.8185911774635315,0.0,0.03704875707626343,0.7927849292755127,0.004368014167994261,0.25798171758651733
963.0,859.0,2.7404,-0.064,8.9019,-0.022,-0.0003,-0.1219,-1.6058389149107875,-0.10919228941202164,1.515838384628296,-1.9521106481552124,0.005588008556514978,1.952465295791626,4.758864439069786,-0.0001036576577462256,0.2081085443496704,-1.5696104208575647,0.0,-0.012200860306620598,0.8185635805130005,0.0,0.01549939252436161,0.7928372621536255,0.005170201417058706,0.2318146824836731
963.0,859.0,2.7404,-0.064,8.9019,-0.022,-0.0003,-0.1219,-1.6064502201476039,-0.11200705915689468,1.5032649040222168,-1.9521353244781494,0.0037769705522805452,2.016345500946045,4.758852518140831,-0.0001128892763517797,0.18427395820617676,-1.5696142355548304,0.0,-0.0109134865924716,0.818551242351532,0.0,0.026452235877513885,0.7928818464279175,0.006469100248068571,0.2459205538034439
963.0,859.0,2.7404,-0.064,8.9019,-0.022,-0.0003,-0.1219,-1.6069256267943324,-0.11832839995622635,1.5092531442642212,-1.9521641731262207,0.002846635179594159,1.9860767126083374,4.758905033558168,-0.00012521819735411555,0.20660176873207092,-1.5695984999286097,6.617789767915383e-05,-0.016507145017385483,0.8185911774635315,0.0,0.02437085658311844,0.7929340600967407,0.00685782078653574,0.2882196009159088
963.0,859.0,2.7404,-0.064,8.9019,-0.022,-0.0003,-0.1219,-1.6076051197447718,-0.12703587114810944,1.4971811771392822,-1.952107310295105,0.001990559045225382,1.9988104104995728,4.75884440073327,-0.00012043570313835517,0.2120157778263092,-1.5695942083941858,6.403555016731843e-05,-0.025085728615522385,0.8186071515083313,0.0,0.029933836311101913,0.792950451374054,0.007981500588357449,0.2870767116546631
963.0,859.0,2.7404,-0.064,8.9019,-0.022,-0.0003,-0.1219,-1.6083609066405238,-0.1351747363805771,1.5001366138458252,-1.9521113634109497,0.0023029237054288387,2.0726733207702637,4.7588886609073064,-0.00011148538760608062,0.2023467719554901,-1.5696266333209437,7.368972001131624e-05,-0.021983221173286438,0.8185591101646423,0.0,0.030471257865428925,0.7929650545120239,0.008436817675828934,0.2815278470516205
963.0,859.0,2.7404,-0.064,8.9019,-0.022,-0.0003,-0.1219,-1.6089374027647914,-0.13731685280799866,1.5539182424545288,-1.9520999193191528,0.003001939505338669,1.9872386455535889,4.758921056031742,-0.0001062218943843618,0.18516626954078674,-1.569589916859762,7.173857738962397e-05,-0.029620248824357986,0.8185672760009766,0.0,0.025752706453204155,0.7930343151092529,0.008549772202968597,0.23663613200187683
963.0,859.0,2.7404,-0.064,8.9019,-0.022,-0.0003,-0.1219,-1.6097122631468714,-0.13404013216495514,1.5355420112609863,-1.9520398378372192,0.005338843911886215,1.9511088132858276,4.758892740100183,-7.938051567180082e-05,0.19416268169879913,-1.569589916859762,6.898913125041872e-05,-0.01790088787674904,0.818599283695221,0.0,0.02327067032456398,0.7930577397346497,0.007939024828374386,0.27867066860198975
963.0,859.0,2.7404,-0.064,8.9019,-0.022,-0.0003,-0.1219,-1.610528131524557,-0.1356620043516159,1.5365238189697266,-1.951999545097351,0.0067796530202031136,1.9522199630737305,4.758920620172777,-7.443506910931319e-05,0.1987561732530594,-1.569589916859762,6.644252425758168e-05,-0.014027265831828117,0.8185030221939087,0.0,0.025885025039315224,0.793146014213562,0.007517315912991762,0.25245553255081177
953.0,863.0,1.9113,-0.1836,8.8606,-0.0299,-0.068,-0.1307,-1.611115118066305,-0.14490970969200134,1.4902448654174805,-1.9519633054733276,0.006912583950906992,2.015094757080078,4.75888870933608,-7.147903670556843e-05,0.21299540996551514,-1.5695698896991175,6.48467757855542e-05,-0.031106162816286087,0.8186312913894653,0.0,0.018284382298588753,0.793141782283783,0.007415175437927246,0.27770236134529114
953.0,863.0,1.9113,-0.1836,8.8606,-0.0299,-0.068,-0.1307,-1.611978670159811,-0.15050046145915985,1.5453413724899292,-1.951914668083191,0.005452862940728664,1.9586809873580933,4.758925094246425,-6.74606126267463e-05,0.21144074201583862,-1.569606129323141,7.302089215954766e-05,-0.013579548336565495,0.8185230493545532,0.0,0.043762676417827606,0.7932024598121643,0.00791341345757246,0.25678861141204834
953.0,863.0,1.9113,-0.1836,8.8606,-0.0299,-0.068,-0.1307,-1.6129099331297816,-0.1570310890674591,1.5306036472320557,-1.951931118965149,0.004466949496418238,1.9463870525360107,4.758880431741037,-6.386995664797723e-05,0.2121533453464508,-1.5695980230914515,7.056996400933713e-05,-0.03421496972441673,0.8185312151908875,0.0,0.02277624048292637,0.7932907938957214,0.00835416465997696,0.23080429434776306
953.0,863.0,1.9113,-0.1836,8.8606,-0.0299,-0.068,-0.1307,-1.6135221920409144,-0.16108915209770203,1.5639985799789429,-1.9519000053405762,0.004491137806326151,1.9862220287322998,4.758908725320854,-6.168129766592756e-05,0.20500336587429047,-1.569601837788717,8.989359230326954e-06,-0.02844085730612278,0.8185108304023743,0.0,0.025938790291547775,0.7932944297790527,0.008291632868349552,0.2617597281932831
953.0,863.0,1.9113,-0.1836,8.8606,-0.0299,-0.068,-0.1307,-1.6144324741759242,-0.16123376786708832,1.535460352897644,-1.951851487159729,0.00548135070130229,1.9932290315628052,4.758944808482685,-4.425016595632769e-05,0.2062772959470749,-1.5696104208575647,2.5022213190339926e-09,-0.027178529649972916,0.818535327911377,0.0,0.027784839272499084,0.7933304309844971,0.007967798970639706,0.2538037896156311
953.0,863.0,1.9113,-0.1836,8.8606,-0.0299,-0.068,-0.1307,-1.6153847179808558,-0.15938080847263336,1.5568863153457642,-1.9518357515335083,0.0072951167821884155,1.9795567989349365,4.758948921203174,5.5728778534103185e-05,0.21567180752754211,-1.5696104208575647,6.965025344668474e-13,-0.01143263466656208,0.8185554146766663,0.0,0.024885065853595734,0.7933818101882935,0.008155887946486473,0.2448454201221466
953.0,863.0,1.9113,-0.1836,8.8606,-0.0299,-0.068,-0.1307,-1.616364141503805,-0.16441261768341064,1.563639760017395,-1.9518120288848877,0.007723618298768997,1.986436367034912,4.758916567056932,8.07674223324284e-05,0.20862755179405212,-1.5695984999286097,8.220945164794102e-05,-0.01471436582505703,0.8185751438140869,0.0,0.03047885000705719,0.7934419512748718,0.008754800073802471,0.23449018597602844
953.0,863.0,1.9113,-0.1836,8.8606,-0.0299,-0.068,-0.1307,-1.617046972314352,-0.17001983523368835,1.5616118907928467,-1.9518086910247803,0.00835291389375925,2.016580581665039,4.758912782161989,0.00010142368410015479,0.2107214331626892,-1.5695255438434046,0.0001234524679603055,-0.020864337682724,0.8185632228851318,5.566816412283515e-07,0.03500154986977577,0.7935106754302979,0.0090238768607378,0.23457884788513184
953.0,863.0,1.9113,-0.1836,8.8606,-0.0299,-0.068,-0.1307,-1.6181346378722132,-0.17640332877635956,1.5612727403640747,-1.9517165422439575,0.009282441809773445,2.0259523391723633,4.758932552277603,0.00011405180703150108,0.21760323643684387,-1.569589916859762,0.00011424113472457975,-0.018046047538518906,0.8185632228851318,1.5495441041402103e-10,0.018413998186588287,0.7935585379600525,0.009558483026921749,0.2628401219844818
953.0,863.0,1.9113,-0.1836,8.8606,-0.0299,-0.068,-0.1307,-1.619150301019186,-0.1787770688533783,1.5508636236190796,-1.9516555070877075,0.010066126473248005,1.9811959266662598,4.758960488229551,0.0004937471239827573,0.21425989270210266,-1.569589916859762,0.00010615576320560649,-0.009750193916261196,0.8185713887214661,4.313212723723765e-14,0.028262905776500702,0.7936023473739624,0.00900744367390871,0.27309706807136536
953.0,863.0,1.9113,-0.1836,8.8606,-0.0299,-0.068,-0.1307,-1.619885107079977,-0.1767781525850296,1.5777339935302734,-1.951560139656067,0.01084293331950903,2.003465414047241,4.758988379478016,0.0010979140643030405,0.23169732093811035,-1.5696142355548304,0.00010137291974388063,-0.02137390524148941,0.8185513019561768,1.8387903409231645e-16,0.015260095708072186,0.7936503887176514,0.008410432375967503,0.2507248520851135
953.0,863.0,1.9113,-0.1836,8.8606,-0.0299,-0.068,-0.1307,-1.6210199795165003,-0.17922471463680267,1.650865077972412,-1.9515725374221802,0.012339353561401367,2.0080435276031494,4.758904266148367,0.001011021202430129,0.21908745169639587,-1.5696147123919886,9.49553432292305e-05,-0.023249590769410133,0.818547248840332,5.1183393370632606e-20,0.019184354692697525,0.7936990857124329,0.008259457536041737,0.24458524584770203
953.0,863.0,1.9113,-0.1836,8.8606,-0.0299,-0.068,-0.1307,-1.622160097161764,-0.19185318052768707,1.6202290058135986,-1.9514399766921997,0.012492811307311058,1.995248794555664,4.7589165335293195,0.0007123536779545248,0.22994279861450195,-1.5695984999286097,8.930209878599271e-05,-0.01952340081334114,0.8185190558433533,1.4247085116946575e-23,0.022547319531440735,0.7937746644020081,0.007823364809155464,0.19661837816238403
953.0,863.0,1.9113,-0.1836,8.8606,-0.0299,-0.068,-0.1307,-1.6229311428465785,-0.19801852107048035,1.5984725952148438,-1.9513922929763794,0.01214225310832262,2.0125904083251953,4.7589165335293195,0.0005945622106082737,0.23774242401123047,-1.569589916859762,8.589287608629093e-05,-0.03292730823159218,0.8185510635375977,6.073755653658658e-26,0.03947761282324791,0.7937506437301636,0.007322953548282385,0.26041239500045776
