ramyac6/ROB537/final_project/csv/test/bad/bad_121.csv
tof_0,tof_1,accelx,accely,accelz,gyrox,gyroy,gyroz,shoulder_lift_joint_position,shoulder_lift_joint_velocity,shoulder_lift_joint_effort,elbow_joint_position,elbow_joint_velocity,elbow_joint_effort,wrist_1_joint_position,wrist_1_joint_velocity,wrist_1_joint_effort,wrist_2_joint_position,wrist_2_joint_velocity,wrist_2_joint_effort,wrist_3_joint_position,wrist_3_joint_velocity,wrist_3_joint_effort,shoulder_pan_joint_position,shoulder_pan_joint_velocity,shoulder_pan_joint_effort
296.0,285.0,0.6215,-0.4229,9.6461,-0.0374,0.0249,-0.122,-1.6964618168272914,0.0,2.6200530529022217,-1.7811322212219238,-0.0,2.0428483486175537,4.882636356144705,-0.0,0.28489503264427185,-1.5345357100116175,-0.0,-0.004125586710870266,0.7703648209571838,-0.0,-0.012561479583382607,0.8363667130470276,0.0,-0.04195097088813782
296.0,285.0,0.6215,-0.4229,9.6461,-0.0374,0.0249,-0.122,-1.6965180836119593,0.0,2.6218409538269043,-1.7812055349349976,-0.0,2.122725486755371,4.882575738220968,-0.0,0.2880145013332367,-1.5345514456378382,-0.0,-0.014791138470172882,0.7703569531440735,-0.0,-0.00468538049608469,0.8364030122756958,0.0,0.026458818465471268
296.0,285.0,0.6215,-0.4229,9.6461,-0.0374,0.0249,-0.122,-1.6964813671507777,0.0,2.6070709228515625,-1.7811487913131714,-0.0,2.073751449584961,4.882628115802564,-0.0,0.2929789423942566,-1.534539524708883,-0.0,-0.004992051050066948,0.7704373002052307,-0.0,0.0034416429698467255,0.8364030122756958,0.0,0.020193995907902718
296.0,285.0,0.6215,-0.4229,9.6461,-0.0374,0.0249,-0.122,-1.6964856586852015,0.0,2.620710611343384,-1.781144618988037,-0.0,2.080183744430542,4.882607686310568,-0.0,0.2861430048942566,-1.534600083027975,-0.0,-0.006866772193461657,0.7703729867935181,-0.0,7.430999539792538e-05,0.8364432454109192,0.0,0.020536942407488823
296.0,285.0,0.6215,-0.4229,9.6461,-0.0374,0.0249,-0.122,-1.6965018711485804,0.0,2.6002731323242188,-1.781180739402771,-0.0,2.076296329498291,4.882611784129896,-0.0,0.28786617517471313,-1.53461200395693,-0.0,-0.013903536833822727,0.7704131603240967,-0.0,-0.021181069314479828,0.8364030122756958,0.0,0.017052602022886276
296.0,285.0,0.6215,-0.4229,9.6461,-0.0374,0.0249,-0.122,-1.6964980564513148,0.0,2.63006854057312,-1.7812095880508423,-0.0,2.115382432937622,4.8825957653816126,-0.0,0.2855711281299591,-1.534539524708883,-0.0,-0.012123349122703075,0.7704135179519653,-0.0,-0.015023473650217056,0.8364030122756958,0.0,-0.0042465562000870705
296.0,285.0,0.6215,-0.4229,9.6461,-0.0374,0.0249,-0.122,-1.696481843987936,0.0,2.61264705657959,-1.781172513961792,-0.0,2.137610912322998,4.882575693517484,-0.0,0.29439061880111694,-1.5345724264727991,-0.0,-0.012596584856510162,0.7704250812530518,-0.0,0.003125492250546813,0.8364596962928772,0.0,0.05918889865279198
296.0,285.0,0.6215,-0.4229,9.6461,-0.0374,0.0249,-0.122,-1.6964980564513148,0.0,2.628364086151123,-1.781164288520813,-0.0,2.116387367248535,4.8825957653816126,-0.0,0.2790003716945648,-1.534555737172262,-0.0,-0.0007023051148280501,0.7704331874847412,-0.0,0.004176566377282143,0.8364030122756958,0.0,-0.005215488374233246
296.0,290.0,0.7071,-0.3978,9.4528,-0.0348,0.0275,-0.1289,-1.6964894733824671,0.0,2.6391079425811768,-1.7811529636383057,-0.0,2.092693328857422,4.882615837245741,-0.0,0.2795223295688629,-1.534583870564596,-0.0,-0.010414816439151764,0.7704294919967651,-0.0,-0.0019136292394250631,0.8364109396934509,0.0,0.0159763190895319
296.0,290.0,0.7071,-0.3978,9.4528,-0.0348,0.0275,-0.1289,-1.6964737377562464,0.0,2.650763511657715,-1.7811850309371948,-0.0,2.06056809425354,4.8825957653816126,-0.0,0.29479455947875977,-1.5345476309405726,-0.0,-0.022347342222929,0.7703729867935181,-0.0,0.005995437502861023,0.83641117811203,0.0,0.011167671531438828
296.0,290.0,0.7071,-0.3978,9.4528,-0.0348,0.0275,-0.1289,-1.6964780292906703,0.0,2.6383137702941895,-1.7811602354049683,-0.0,2.0844287872314453,4.882615852146902,-0.0,0.28342205286026,-1.534539524708883,-0.0,-0.011769717559218407,0.7703889608383179,-0.0,-0.0024466421455144882,0.8363787531852722,0.0,-0.030896203592419624
296.0,290.0,0.7071,-0.3978,9.4528,-0.0348,0.0275,-0.1289,-1.6964894733824671,0.0,2.6317358016967773,-1.7811765670776367,-0.0,2.1210508346557617,4.882636311441221,-0.0,0.2853577435016632,-1.534539524708883,-0.0,-0.014081550762057304,0.7704331874847412,-0.0,0.0011827711714431643,0.8364030122756958,0.0,-0.014281542040407658
296.0,290.0,0.7071,-0.3978,9.4528,-0.0348,0.0275,-0.1289,-1.6965013943114222,0.0,2.647414207458496,-1.781164288520813,-0.0,2.050276279449463,4.882628086000242,-0.0,0.28675737977027893,-1.534539524708883,-0.0,-0.02430490031838417,0.7703729867935181,-0.0,0.003979767207056284,0.8364191651344299,0.0,0.057222168892621994
296.0,290.0,0.7071,-0.3978,9.4528,-0.0348,0.0275,-0.1289,-1.6964899502196253,0.0,2.576857089996338,-1.7811239957809448,-0.0,2.0741167068481445,4.88253969231204,-0.0,0.28033870458602905,-1.5345357100116175,-0.0,-0.0273040309548378,0.7704331874847412,-0.0,-0.006861216388642788,0.8364150524139404,0.0,-0.0016059030313044786
296.0,290.0,0.7071,-0.3978,9.4528,-0.0348,0.0275,-0.1289,-1.6964737377562464,0.0,2.629784345626831,-1.7811323404312134,-0.0,2.0655763149261475,4.882607686310568,-0.0,0.2902398705482483,-1.5345476309405726,-0.0,-0.01783597283065319,0.7703689336776733,-0.0,-0.001440462889149785,0.8363988995552063,0.0,-0.043484922498464584
296.0,290.0,0.7071,-0.3978,9.4528,-0.0348,0.0275,-0.1289,-1.6964575252928675,0.0,2.622687339782715,-1.7812014818191528,-0.0,2.069803476333618,4.88259984829978,-0.0,0.2768252193927765,-1.5345600287066858,-0.0,-0.013529469259083271,0.7703971862792969,-0.0,-0.006771283224225044,0.8364068269729614,0.0,-0.03420379012823105
296.0,290.0,0.7071,-0.3978,9.4528,-0.0348,0.0275,-0.1289,-1.6964618168272914,0.0,2.630697250366211,-1.7811610698699951,-0.0,2.078274726867676,4.882567542582311,-0.0,0.28913724422454834,-1.5345514456378382,-0.0,-0.015962297096848488,0.7703648805618286,-0.0,-0.00550452433526516,0.8363947868347168,0.0,-0.01061019953340292
296.0,290.0,0.7071,-0.3978,9.4528,-0.0348,0.0275,-0.1289,-1.696481843987936,0.0,2.591477394104004,-1.7811570167541504,-0.0,2.0795323848724365,4.882607686310568,-0.0,0.28090551495552063,-1.5345795790301722,-0.0,-0.013836368918418884,0.7704012393951416,-0.0,-0.003975893370807171,0.8363952040672302,0.0,-0.023790204897522926
296.0,290.0,0.7071,-0.3978,9.4528,-0.0348,0.0275,-0.1289,-1.6965018711485804,0.0,2.604106903076172,-1.7811570167541504,-0.0,2.100930690765381,4.882591682463445,-0.0,0.2789455056190491,-1.5345237890826624,-0.0,-0.028450019657611847,0.7703689932823181,-0.0,0.0024755848571658134,0.83641117811203,0.0,-0.0028484072536230087
296.0,290.0,0.7071,-0.3978,9.4528,-0.0348,0.0275,-0.1289,-1.6965061626830042,0.0,2.627683639526367,-1.7811726331710815,-0.0,2.07633113861084,4.882611769228735,-0.0,0.29492196440696716,-1.534527603779928,-0.0,-0.015206057578325272,0.7704172134399414,-0.0,-0.009539421647787094,0.8364030122756958,0.0,-0.005413091741502285
296.0,290.0,0.7071,-0.3978,9.4528,-0.0348,0.0275,-0.1289,-1.6965257130064906,0.0,2.660256862640381,-1.7811529636383057,-0.0,2.093507766723633,4.882619994669714,-0.0,0.2644624710083008,-1.5345314184771937,-0.0,-0.01618070714175701,0.7704213261604309,-0.0,-0.010626981034874916,0.83641117811203,0.0,-0.07133521139621735
296.0,290.0,0.7071,-0.3978,9.4528,-0.0348,0.0275,-0.1289,-1.696505685845846,0.0,2.621720790863037,-1.781180739402771,-0.0,2.0988035202026367,4.882611769228735,-0.0,0.2854197919368744,-1.5345194975482386,-0.0,-0.012146888300776482,0.7703729867935181,-0.0,0.005978767294436693,0.8363910913467407,0.0,-0.019253626465797424
296.0,290.0,0.7071,-0.3978,9.4528,-0.0348,0.0275,-0.1289,-1.6964618168272914,0.0,2.6183483600616455,-1.7812201976776123,-0.0,2.105792284011841,4.882563444762983,-0.0,0.2938172519207001,-1.5345762411700647,-0.0,-0.007713240571320057,0.7704135179519653,-0.0,-0.014479809440672398,0.8363952040672302,0.0,0.02359112724661827
296.0,290.0,0.7071,-0.3978,9.4528,-0.0348,0.0275,-0.1289,-1.696477552453512,0.0,2.6070749759674072,-1.7811528444290161,-0.0,2.0839498043060303,4.882604005723753,-0.0,0.2915191352367401,-1.534527603779928,-0.0,-0.012222735211253166,0.7704209089279175,-0.0,-0.005136081017553806,0.8364109396934509,0.0,0.013646530918776989
309.0,289.0,0.7274,-0.3649,9.4355,-0.0392,0.0318,-0.1292,-1.6964699230589808,0.0,2.6441667079925537,-1.7811570167541504,-0.0,2.0360188484191895,4.88257976153449,-0.0,0.2844242751598358,-1.534555737172262,-0.0,-0.011358820833265781,0.7704334855079651,-0.0,-0.00992675218731165,0.8364394307136536,0.0,-0.033887650817632675
309.0,289.0,0.7274,-0.3649,9.4355,-0.0392,0.0318,-0.1292,-1.6964413128294886,0.0,2.6167702674865723,-1.7812178134918213,-0.0,2.1187705993652344,4.882607686310568,-0.0,0.28766193985939026,-1.5346081892596644,-0.0,-0.005165113136172295,0.7703689932823181,-0.0,0.001024464494548738,0.83641117811203,0.0,0.001938758883625269
309.0,289.0,0.7274,-0.3649,9.4355,-0.0392,0.0318,-0.1292,-1.6964699230589808,0.0,2.6592869758605957,-1.7811973094940186,-0.0,2.097844362258911,4.882604005723753,-0.0,0.2837699055671692,-1.534600083027975,-0.0,-0.016419894993305206,0.7704094052314758,-0.0,-0.0015860068378970027,0.8364070653915405,0.0,0.038882941007614136
309.0,289.0,0.7274,-0.3649,9.4355,-0.0392,0.0318,-0.1292,-1.6965257130064906,0.0,2.6713809967041016,-1.7811405658721924,-0.0,2.0818891525268555,4.882619994669714,-0.0,0.28545650839805603,-1.5345118681537073,-0.0,0.00134578300639987,0.7703730463981628,-0.0,0.004159116186201572,0.8363869786262512,0.0,-0.013759166933596134
309.0,289.0,0.7274,-0.3649,9.4355,-0.0392,0.0318,-0.1292,-1.696465631524557,0.0,2.6533117294311523,-1.7811280488967896,-0.0,2.106987476348877,4.882587525039472,-0.0,0.28821897506713867,-1.5345805327044886,-0.0,-0.023517904803156853,0.7704212665557861,-0.0,-0.008931824937462807,0.8363626003265381,0.0,0.0029052509926259518
309.0,289.0,0.7274,-0.3649,9.4355,-0.0392,0.0318,-0.1292,-1.6964618168272914,0.0,2.6199090480804443,-1.781144618988037,-0.0,2.133999824523926,4.882611769228735,-0.0,0.2811872065067291,-1.5345314184771937,-0.0,-0.013387540355324745,0.7703767418861389,-0.0,0.011637957766652107,0.8364194631576538,0.0,0.01144916471093893
309.0,289.0,0.7274,-0.3649,9.4355,-0.0392,0.0318,-0.1292,-1.696493764916891,0.0,2.6232080459594727,-1.7811766862869263,-0.0,2.1205391883850098,4.882611769228735,-0.0,0.294043630361557,-1.5345514456378382,-0.0,-0.006399011239409447,0.7703730463981628,-0.0,0.009798727929592133,0.83641117811203,0.0,-0.010357379913330078
309.0,289.0,0.7274,-0.3649,9.4355,-0.0392,0.0318,-0.1292,-1.6965018711485804,0.0,2.656283378601074,-1.7811529636383057,-0.0,2.096649408340454,4.882607686310568,-0.0,0.29058024287223816,-1.5345795790301722,-0.0,-0.0211609099060297,0.770449161529541,-0.0,-0.0011894667986780405,0.8364191651344299,0.0,0.040441807359457016
309.0,289.0,0.7274,-0.3649,9.4355,-0.0392,0.0318,-0.1292,-1.6964661083617152,0.0,2.6298818588256836,-1.7811808586120605,-0.0,2.055755853652954,4.882575693517484,-0.0,0.28051573038101196,-1.534539524708883,-0.0,-0.019136101007461548,0.7704135179519653,-0.0,0.0021000830456614494,0.8363787531852722,0.0,-0.0007204269059002399
309.0,289.0,0.7274,-0.3649,9.4355,-0.0392,0.0318,-0.1292,-1.6964856586852015,0.0,2.615494966506958,-1.781164288520813,-0.0,2.089751720428467,4.882587525039472,-0.0,0.2819773852825165,-1.5345600287066858,-0.0,-0.010732367634773254,0.7703771591186523,-0.0,-0.005833126604557037,0.8364270925521851,0.0,-0.028306465595960617
309.0,289.0,0.7274,-0.3649,9.4355,-0.0392,0.0318,-0.1292,-1.69653381923818,0.0,2.609694719314575,-1.7811405658721924,-0.0,2.095072031021118,4.88256752768115,-0.0,0.2990221083164215,-1.534539524708883,-0.0,-0.0014705226058140397,0.7703931331634521,-0.0,0.002709493041038513,0.836387038230896,0.0,0.03941197320818901
309.0,289.0,0.7274,-0.3649,9.4355,-0.0392,0.0318,-0.1292,-1.6964980564513148,0.0,2.648470878601074,-1.7811652421951294,-0.0,2.107344150543213,4.882571685105123,-0.0,0.2789667844772339,-1.5345237890826624,-0.0,-0.015526492148637772,0.7704172134399414,-0.0,0.005191895645111799,0.8363587856292725,0.0,-3.5871751606464386e-05
309.0,289.0,0.7274,-0.3649,9.4355,-0.0392,0.0318,-0.1292,-1.6964699230589808,0.0,2.674607753753662,-1.7811529636383057,-0.0,2.0327296257019043,4.882607701211729,-0.0,0.2860608994960785,-1.534543816243307,-0.0,-0.014730016700923443,0.7704451680183411,-0.0,0.001870831474661827,0.8364150524139404,0.0,0.031143590807914734
309.0,289.0,0.7274,-0.3649,9.4355,-0.0392,0.0318,-0.1292,-1.6964737377562464,0.0,2.636460304260254,-1.7811157703399658,-0.0,2.116835594177246,4.8825838444526575,-0.0,0.289197713136673,-1.5345357100116175,-0.0,-0.01855039782822132,0.7703971266746521,-0.0,-0.00245226314291358,0.8364150524139404,0.0,-0.010286075063049793
309.0,289.0,0.7274,-0.3649,9.4355,-0.0392,0.0318,-0.1292,-1.6964737377562464,0.0,2.6255595684051514,-1.7811199426651,-0.0,2.1362433433532715,4.882611769228735,-0.0,0.28970810770988464,-1.534539524708883,-0.0,-0.009165262803435326,0.7704533338546753,-0.0,-0.01771886646747589,0.8364232778549194,0.0,-0.011463511735200882
309.0,289.0,0.7274,-0.3649,9.4355,-0.0392,0.0318,-0.1292,-1.6964661083617152,0.0,2.6027426719665527,-1.781144618988037,-0.0,2.0580554008483887,4.882624003082075,-0.0,0.2971554100513458,-1.534527603779928,-0.0,-0.00477147102355957,0.7704533338546753,-0.0,0.00175129109993577,0.8363910913467407,0.0,0.019112586975097656
295.0,289.0,0.6903,-0.3876,9.4941,-0.0443,0.0264,-0.1235,-1.696505685845846,0.0,2.6485321521759033,-1.781172513961792,-0.0,2.1048169136047363,4.88259573557929,-0.0,0.28305596113204956,-1.5345194975482386,-0.0,-0.014254556968808174,0.7704090476036072,-0.0,-0.008844858966767788,0.8363708257675171,0.0,0.03165528178215027
295.0,289.0,0.6903,-0.3876,9.4941,-0.0443,0.0264,-0.1235,-1.6965095005431117,0.0,2.6151723861694336,-1.7810962200164795,-0.0,2.0941224098205566,4.882588016777792,-0.0,0.27983322739601135,-1.5345876852618616,-0.0,-0.005592889152467251,0.7703972458839417,-0.0,0.001339044189080596,0.8363952040672302,0.0,-0.020451799035072327
295.0,289.0,0.6903,-0.3876,9.4941,-0.0443,0.0264,-0.1235,-1.696449419061178,0.0,2.608957290649414,-1.7812055349349976,-0.0,2.05969500541687,4.882628145604887,-0.0,0.2829315960407257,-1.534555737172262,-0.0,-0.010572422295808792,0.7704533338546753,-0.0,0.0016355575062334538,0.8363708257675171,0.0,-0.04510999470949173
295.0,289.0,0.6903,-0.3876,9.4941,-0.0443,0.0264,-0.1235,-1.6964451275267542,0.0,2.6402807235717773,-1.7811239957809448,-0.0,2.086789608001709,4.882571685105123,-0.0,0.2794674336910248,-1.5346043745623987,-0.0,-0.009560550563037395,0.7704213261604309,-0.0,0.0020737233571708202,0.8364353179931641,0.0,-0.004157321993261576
295.0,289.0,0.6903,-0.3876,9.4941,-0.0443,0.0264,-0.1235,-1.696465631524557,0.0,2.6495585441589355,-1.7811405658721924,-0.0,2.114739418029785,4.882599505573072,-0.0,0.28880953788757324,-1.534543816243307,-0.0,-0.008236175402998924,0.7704052925109863,-0.0,0.004263640847057104,0.8363947868347168,0.0,-0.0037267100997269154
295.0,289.0,0.6903,-0.3876,9.4941,-0.0443,0.0264,-0.1235,-1.696477552453512,0.0,2.656249761581421,-1.7811282873153687,-0.0,2.0721182823181152,4.882595750480451,-0.0,0.2707619369029999,-1.534555737172262,-0.0,-0.02385360561311245,0.7704172134399414,-0.0,-0.009566258639097214,0.8363869786262512,0.0,0.027888737618923187
295.0,289.0,0.6903,-0.3876,9.4941,-0.0443,0.0264,-0.1235,-1.6964618168272914,0.0,2.633286952972412,-1.7811405658721924,-0.0,2.150794506072998,4.882591652661123,-0.0,0.28385958075523376,-1.5345876852618616,-0.0,-0.021559540182352066,0.7704368829727173,-0.0,0.011497020721435547,0.8364071249961853,0.0,-0.030431043356657028
295.0,289.0,0.6903,-0.3876,9.4941,-0.0443,0.0264,-0.1235,-1.696465631524557,0.0,2.6716694831848145,-1.7811973094940186,-0.0,2.0934977531433105,4.882559376745977,-0.0,0.2929511070251465,-1.5345805327044886,-0.0,-0.02353322133421898,0.7703569531440735,-0.0,0.0023323316127061844,0.8363749384880066,0.0,-0.008216816000640392
295.0,289.0,0.6903,-0.3876,9.4941,-0.0443,0.0264,-0.1235,-1.6964618168272914,0.0,2.6342854499816895,-1.7811529636383057,-0.0,2.1119272708892822,4.882599863200941,-0.0,0.28485527634620667,-1.534539524708883,-0.0,-0.0001302114687860012,0.7704090476036072,-0.0,0.013188672251999378,0.8363832235336304,0.0,-0.005460684187710285
295.0,289.0,0.6903,-0.3876,9.4941,-0.0443,0.0264,-0.1235,-1.6965018711485804,0.0,2.6174278259277344,-1.7811322212219238,-0.0,2.1402032375335693,4.88256752768115,-0.0,0.2814244031906128,-1.534555737172262,-0.0,-0.016018308699131012,0.770481526851654,-0.0,0.0036419625394046307,0.8364555835723877,0.0,-0.015244433656334877
295.0,289.0,0.6903,-0.3876,9.4941,-0.0443,0.0264,-0.1235,-1.6964737377562464,0.0,2.6938602924346924,-1.7811239957809448,-0.0,2.0828044414520264,4.882607686310568,-0.0,0.2905045449733734,-1.5345843474017542,-0.0,-0.022840607911348343,0.7703529000282288,-0.0,-0.0029631704092025757,0.8364070653915405,0.0,-0.0018265824764966965
295.0,289.0,0.6903,-0.3876,9.4941,-0.0443,0.0264,-0.1235,-1.6964899502196253,0.0,2.6037821769714355,-1.7811322212219238,-0.0,2.079087495803833,4.882563414960661,-0.0,0.27406415343284607,-1.534555737172262,-0.0,-0.018756194040179253,0.7704451084136963,-0.0,-0.008914593607187271,0.8363988995552063,0.0,-0.01493779569864273
295.0,289.0,0.6903,-0.3876,9.4941,-0.0443,0.0264,-0.1235,-1.6964413128294886,0.0,2.5958361625671387,-1.7811239957809448,-0.0,2.108520030975342,4.8825715509946725,-0.0,0.2963661253452301,-1.534555737172262,-0.0,-0.00386720965616405,0.7704373002052307,-0.0,0.002872476354241371,0.8364273905754089,0.0,-0.0291125625371933
295.0,289.0,0.6903,-0.3876,9.4941,-0.0443,0.0264,-0.1235,-1.696505685845846,0.0,2.594041585922241,-1.7811652421951294,-0.0,2.109117269515991,4.882591682463445,-0.0,0.295586496591568,-1.534600083027975,-0.0,-0.03208848088979721,0.7704331874847412,-0.0,0.015965724363923073,0.8363869786262512,0.0,-0.001051273662596941
295.0,289.0,0.6903,-0.3876,9.4941,-0.0443,0.0264,-0.1235,-1.6965018711485804,0.0,2.6291048526763916,-1.7811652421951294,-0.0,2.0788486003875732,4.882608073740759,-0.0,0.3048085570335388,-1.534555737172262,-0.0,-0.016108697280287743,0.7704331874847412,-0.0,-0.004433628171682358,0.8364715576171875,0.0,-0.002904638648033142
298.0,294.0,0.7322,-0.3834,9.4122,-0.0301,0.0231,-0.121,-1.6965300045409144,0.0,2.6447787284851074,-1.7812013626098633,-0.0,2.1160271167755127,4.8825957653816126,-0.0,0.2966185212135315,-1.5345600287066858,-0.0,-0.016015009954571724,0.7704575061798096,-0.0,-0.0020890042651444674,0.8364150524139404,0.0,-0.0035728979855775833
298.0,294.0,0.7322,-0.3834,9.4122,-0.0301,0.0231,-0.121,-1.69653381923818,0.0,2.6227731704711914,-1.7811931371688843,-0.0,2.109260082244873,4.882607656508245,-0.0,0.29910361766815186,-1.5345514456378382,-0.0,-0.002792695304378867,0.7704370021820068,-0.0,-0.0015907430788502097,0.8363993167877197,0.0,0.04375815391540527
298.0,294.0,0.7322,-0.3834,9.4122,-0.0301,0.0231,-0.121,-1.6965018711485804,0.0,2.655269145965576,-1.7811199426651,-0.0,2.0980682373046875,4.882588001876631,-0.0,0.2894655466079712,-1.5346081892596644,-0.0,-0.019959677010774612,0.7704213261604309,-0.0,0.000982625875622034,0.8364030122756958,0.0,-0.009930451400578022
298.0,294.0,0.7322,-0.3834,9.4122,-0.0301,0.0231,-0.121,-1.6965018711485804,0.0,2.7013955116271973,-1.7811765670776367,-0.0,2.0914554595947266,4.882579791336813,-0.0,0.29498133063316345,-1.534555737172262,-0.0,-0.011339962482452393,0.7703893780708313,-0.0,0.0012729751178994775,0.836387038230896,0.0,-0.009271263144910336
298.0,294.0,0.7322,-0.3834,9.4122,-0.0301,0.0231,-0.121,-1.696465631524557,0.0,2.63053822517395,-1.7811012268066406,-0.0,2.0587563514709473,4.8825838444526575,-0.0,0.29563480615615845,-1.5345919767962855,-0.0,-0.026577124372124672,0.7704415321350098,-0.0,-0.002068028785288334,0.8363993167877197,0.0,-0.02764972299337387
298.0,294.0,0.7322,-0.3834,9.4122,-0.0301,0.0231,-0.121,-1.6964980564513148,0.0,2.6231374740600586,-1.7811322212219238,-0.0,2.104800224304199,4.882587986975469,-0.0,0.2911730110645294,-1.5345843474017542,-0.0,-0.008737425319850445,0.7704131603240967,-0.0,0.007101132534444332,0.8364353179931641,0.0,-0.023638606071472168
298.0,294.0,0.7322,-0.3834,9.4122,-0.0301,0.0231,-0.121,-1.6964618168272914,0.0,2.614717721939087,-1.7812095880508423,-0.0,2.0940496921539307,4.882615911751547,-0.0,0.28839242458343506,-1.534555737172262,-0.0,-0.023771923035383224,0.7703766822814941,-0.0,-0.0014522033743560314,0.8363829255104065,0.0,-0.0019981395453214645
298.0,294.0,0.7322,-0.3834,9.4122,-0.0301,0.0231,-0.121,-1.6964742145934046,0.0,2.6045408248901367,-1.7812055349349976,-0.0,2.1086080074310303,4.882611769228735,-0.0,0.28249305486679077,-1.5345194975482386,-0.0,-0.017170576378703117,0.7703848481178284,-0.0,-0.002083792816847563,0.8363952040672302,0.0,0.0345589704811573
298.0,294.0,0.7322,-0.3834,9.4122,-0.0301,0.0231,-0.121,-1.696465631524557,0.0,2.606248378753662,-1.781180739402771,-0.0,2.087301015853882,4.882607671409406,-0.0,0.29673904180526733,-1.5345357100116175,-0.0,-0.016224712133407593,0.7704373002052307,-0.0,0.0008817843627184629,0.8364150524139404,0.0,0.00177072174847126
298.0,294.0,0.7322,-0.3834,9.4122,-0.0301,0.0231,-0.121,-1.6964661083617152,0.0,2.6142027378082275,-1.781172513961792,-0.0,2.075533151626587,4.882611799031057,-0.0,0.2796356678009033,-1.534555737172262,-0.0,-0.0014961136039346457,0.7703971266746521,-0.0,-0.0070034717209637165,0.8363993167877197,0.0,-0.04301493614912033
298.0,294.0,0.7322,-0.3834,9.4122,-0.0301,0.0231,-0.121,-1.696521898309225,0.0,2.630845546722412,-1.781180739402771,-0.0,2.0789434909820557,4.882636371045866,-0.0,0.2791785001754761,-1.534555737172262,-0.0,-0.0018678263295441866,0.7703894376754761,-0.0,0.011003945022821426,0.836387038230896,0.0,-0.041276607662439346
298.0,294.0,0.7322,-0.3834,9.4122,-0.0301,0.0231,-0.121,-1.696493764916891,0.0,2.6343774795532227,-1.7811973094940186,-0.0,2.1033666133880615,4.882591697364607,-0.0,0.2876283526420593,-1.5345194975482386,-0.0,0.002305875066667795,0.7704176306724548,-0.0,-0.01413758285343647,0.836387038230896,0.0,-0.030782001093029976
298.0,294.0,0.7322,-0.3834,9.4122,-0.0301,0.0231,-0.121,-1.6964980564513148,0.0,2.6406240463256836,-1.7811239957809448,-0.0,2.0698914527893066,4.882615881949224,-0.0,0.2762080430984497,-1.5345357100116175,-0.0,-0.018670067191123962,0.7704373002052307,-0.0,0.005136071238666773,0.8363829255104065,0.0,-0.015147379599511623
298.0,294.0,0.7322,-0.3834,9.4122,-0.0301,0.0231,-0.121,-1.6965257130064906,0.0,2.5894787311553955,-1.7811610698699951,-0.0,2.124375104904175,4.882591697364607,-0.0,0.2791663408279419,-1.534555737172262,-0.0,-0.023006126284599304,0.7704537510871887,-0.0,0.0004689372144639492,0.8364034295082092,0.0,-0.022091450169682503
298.0,294.0,0.7322,-0.3834,9.4122,-0.0301,0.0231,-0.121,-1.6964856586852015,0.0,2.599020481109619,-1.7811084985733032,-0.0,2.10451078414917,4.882592084794798,-0.0,0.2858501672744751,-1.5345600287066858,-0.0,-0.007894953712821007,0.7704774737358093,-0.0,-0.007101854309439659,0.8364273905754089,0.0,0.045642443001270294
298.0,294.0,0.7322,-0.3834,9.4122,-0.0301,0.0231,-0.121,-1.6965180836119593,0.0,2.5877525806427,-1.7811570167541504,-0.0,2.086516857147217,4.88260771611289,-0.0,0.28182992339134216,-1.5345638434039515,-0.0,0.0017966842278838158,0.7704176306724548,-0.0,0.005953061394393444,0.8363906741142273,0.0,0.04523879289627075
292.0,294.0,0.6676,-0.3769,9.5342,-0.038,0.0299,-0.1251,-1.696453710595602,0.0,2.6342906951904297,-1.7811239957809448,-0.0,2.079843044281006,4.882607701211729,-0.0,0.28625601530075073,-1.5345724264727991,-0.0,-0.01303846389055252,0.7703889608383179,-0.0,8.624535985291004e-05,0.836387038230896,0.0,-0.01971985027194023
292.0,294.0,0.6676,-0.3769,9.5342,-0.038,0.0299,-0.1251,-1.696477552453512,0.0,2.6693203449249268,-1.781144618988037,-0.0,2.0819058418273926,4.88257976153449,-0.0,0.28827932476997375,-1.5345762411700647,-0.0,-0.030222753062844276,0.770409107208252,-0.0,0.007914901711046696,0.8364312052726746,0.0,-0.02083192765712738
292.0,294.0,0.6676,-0.3769,9.5342,-0.038,0.0299,-0.1251,-1.696481843987936,0.0,2.6462912559509277,-1.7811487913131714,-0.0,2.0669116973876953,4.882555144816198,-0.0,0.2825154662132263,-1.534515682850973,-0.0,-0.0020507327280938625,0.7703569531440735,-0.0,-0.0006159775657579303,0.836387038230896,0.0,0.02284385822713375
292.0,294.0,0.6676,-0.3769,9.5342,-0.038,0.0299,-0.1251,-1.6964618168272914,0.0,2.6022868156433105,-1.781144618988037,-0.0,2.082876682281494,4.882615881949224,-0.0,0.2910911738872528,-1.5345876852618616,-0.0,-0.02115030772984028,0.7704011797904968,-0.0,0.0007907738909125328,0.8363993167877197,0.0,-0.012559200637042522
292.0,294.0,0.6676,-0.3769,9.5342,-0.038,0.0299,-0.1251,-1.6964942417540492,0.0,2.672628402709961,-1.7811280488967896,-0.0,2.0893030166625977,4.882603513985433,-0.0,0.28874218463897705,-1.5345476309405726,-0.0,-0.023257380351424217,0.7704052925109863,-0.0,0.008703947067260742,0.8363787531852722,0.0,-0.013397568836808205
292.0,294.0,0.6676,-0.3769,9.5342,-0.038,0.0299,-0.1251,-1.6964580021300257,0.0,2.6749825477600098,-1.781164288520813,-0.0,2.0892984867095947,4.882603558688917,-0.0,0.29980215430259705,-1.5345805327044886,-0.0,-0.015204116702079773,0.7704295516014099,-0.0,0.009909702464938164,0.8363505601882935,0.0,-0.030528534203767776
292.0,294.0,0.6676,-0.3769,9.5342,-0.038,0.0299,-0.1251,-1.6964694462218226,0.0,2.6491284370422363,-1.7811890840530396,-0.0,2.1251168251037598,4.882635596185484,-0.0,0.30119746923446655,-1.5345681349383753,-0.0,-0.015847651287913322,0.7704049348831177,-0.0,-0.01162601076066494,0.8363829255104065,0.0,0.010349499061703682
292.0,294.0,0.6676,-0.3769,9.5342,-0.038,0.0299,-0.1251,-1.6964856586852015,0.0,2.631312847137451,-1.7811323404312134,-0.0,2.038501739501953,4.882571536093511,-0.0,0.29214829206466675,-1.5346043745623987,-0.0,-0.0169895738363266,0.7703971862792969,-0.0,0.0021910560317337513,0.8364071249961853,0.0,0.019615216180682182
292.0,294.0,0.6676,-0.3769,9.5342,-0.038,0.0299,-0.1251,-1.6965180836119593,0.0,2.6206488609313965,-1.781136393547058,-0.0,2.1007843017578125,4.882604005723753,-0.0,0.2890089750289917,-1.534539524708883,-0.0,-0.012946831062436104,0.7704132199287415,-0.0,-0.004136755596846342,0.836346447467804,0.0,-0.021391600370407104
292.0,294.0,0.6676,-0.3769,9.5342,-0.038,0.0299,-0.1251,-1.696481843987936,0.0,2.625077724456787,-1.7811529636383057,-0.0,2.0738351345062256,4.882632139116087,-0.0,0.29460766911506653,-1.5345762411700647,-0.0,-0.002189962426200509,0.7704094648361206,-0.0,-0.02107093296945095,0.8364191651344299,0.0,0.0024083531461656094
292.0,294.0,0.6676,-0.3769,9.5342,-0.038,0.0299,-0.1251,-1.696505685845846,0.0,2.6277480125427246,-1.7811570167541504,-0.0,2.0791378021240234,4.882591682463445,-0.0,0.28450146317481995,-1.5345681349383753,-0.0,-0.012373188510537148,0.7704213261604309,-0.0,0.005064367316663265,0.8363787531852722,0.0,0.0005631418898701668
292.0,294.0,0.6676,-0.3769,9.5342,-0.038,0.0299,-0.1251,-1.696481843987936,0.0,2.60687518119812,-1.781180739402771,-0.0,2.0668270587921143,4.882571536093511,-0.0,0.29676803946495056,-1.5345724264727991,-0.0,-0.01526073832064867,0.7704254984855652,-0.0,-0.004025864880532026,0.8364191651344299,0.0,0.05494498461484909
292.0,294.0,0.6676,-0.3769,9.5342,-0.038,0.0299,-0.1251,-1.6964861355223597,0.0,2.6590657234191895,-1.7811726331710815,-0.0,2.089306354522705,4.882591697364607,-0.0,0.28373515605926514,-1.534515682850973,-0.0,-0.013475257903337479,0.7704373002052307,-0.0,-0.005013191141188145,0.8363626003265381,0.0,0.03756414353847504
292.0,294.0,0.6676,-0.3769,9.5342,-0.038,0.0299,-0.1251,-1.6964694462218226,0.0,2.62790584564209,-1.7811849117279053,-0.0,2.101792573928833,4.882620039373197,-0.0,0.28748902678489685,-1.534527603779928,-0.0,-0.0072641740553081036,0.7703812122344971,-0.0,-0.001897086389362812,0.8363952040672302,0.0,0.04711703956127167
292.0,294.0,0.6676,-0.3769,9.5342,-0.038,0.0299,-0.1251,-1.6964694462218226,0.0,2.5869550704956055,-1.781164288520813,-0.0,2.1086716651916504,4.882607731014051,-0.0,0.2972677946090698,-1.5345357100116175,-0.0,-0.0206525307148695,0.7703729867935181,-0.0,0.010440059006214142,0.8364030122756958,0.0,0.040942706167697906
292.0,281.0,0.7442,-0.7304,9.4774,-0.0504,0.0176,-0.1122,-1.6964532337584437,0.0,2.6635472774505615,-1.7811734676361084,-0.0,2.0934839248657227,4.882628086000242,-0.0,0.2924412488937378,-1.5345075766192835,-0.0,-0.016587145626544952,0.7704217433929443,-0.0,-0.00859957654029131,0.8364191651344299,0.0,0.006278366781771183
292.0,281.0,0.7442,-0.7304,9.4774,-0.0504,0.0176,-0.1122,-1.6964413128294886,0.0,2.6277222633361816,-1.7811323404312134,-0.0,2.088974714279175,4.882643821626463,-0.0,0.28251129388809204,-1.5345681349383753,-0.0,-0.014981791377067566,0.7703931331634521,-0.0,0.008432629518210888,0.8364030122756958,0.0,0.02092611975967884
292.0,281.0,0.7442,-0.7304,9.4774,-0.0504,0.0176,-0.1122,-1.6964980564513148,0.0,2.6234853267669678,-1.7811890840530396,-0.0,2.0621323585510254,4.882591682463445,-0.0,0.28967300057411194,-1.534555737172262,-0.0,-0.014852244406938553,0.7704373002052307,-0.0,-0.014708445407450199,0.8364030122756958,0.0,-0.00624326104298234
292.0,281.0,0.7442,-0.7304,9.4774,-0.0504,0.0176,-0.1122,-1.6964861355223597,0.0,2.5943291187286377,-1.7811487913131714,-0.0,2.058337926864624,4.882591682463445,-0.0,0.2854870855808258,-1.5346043745623987,-0.0,-0.006188790313899517,0.7704052925109863,-0.0,-0.005779363214969635,0.8364353179931641,0.0,0.03411703556776047
292.0,281.0,0.7442,-0.7304,9.4774,-0.0504,0.0176,-0.1122,-1.696477552453512,0.0,2.627890110015869,-1.7811487913131714,-0.0,2.100956678390503,4.882588001876631,-0.0,0.29682469367980957,-1.5345724264727991,-0.0,-0.020600564777851105,0.7703771591186523,-0.0,0.0144430510699749,0.8364312052726746,0.0,0.037099335342645645
292.0,281.0,0.7442,-0.7304,9.4774,-0.0504,0.0176,-0.1122,-1.6965018711485804,0.0,2.652170181274414,-1.781164288520813,-0.0,2.1288211345672607,4.8825838444526575,-0.0,0.29011663794517517,-1.5345638434039515,-0.0,-0.00457287672907114,0.7704537510871887,-0.0,-0.0073693497106432915,0.8364030122756958,0.0,-0.004152324050664902
292.0,281.0,0.7442,-0.7304,9.4774,-0.0504,0.0176,-0.1122,-1.6965018711485804,0.0,2.5735912322998047,-1.7811808586120605,-0.0,2.0823216438293457,4.882639679103651,-0.0,0.28703415393829346,-1.5345237890826624,-0.0,-0.020027905702590942,0.7703529000282288,-0.0,-0.00022316863760352135,0.8363952040672302,0.0,-0.00596016738563776
292.0,281.0,0.7442,-0.7304,9.4774,-0.0504,0.0176,-0.1122,-1.6965095005431117,0.0,2.588712453842163,-1.781172513961792,-0.0,2.077235221862793,4.882559376745977,-0.0,0.28563523292541504,-1.53461200395693,-0.0,-0.006840599700808525,0.7704172134399414,-0.0,-0.013122014701366425,0.8364353179931641,0.0,0.017653461545705795
292.0,281.0,0.7442,-0.7304,9.4774,-0.0504,0.0176,-0.1122,-1.6964575252928675,0.0,2.6385152339935303,-1.7811529636383057,-0.0,2.066326856613159,4.882615852146902,-0.0,0.28494197130203247,-1.5346201101886194,-0.0,-0.014693323522806168,0.7704455256462097,-0.0,0.003748469054698944,0.8364030122756958,-1.12576708488632e-06,0.0014903685078024864
292.0,281.0,0.7442,-0.7304,9.4774,-0.0504,0.0176,-0.1122,-1.6964975796141566,0.0,2.647793769836426,-1.7811447381973267,-0.0,2.1060686111450195,4.882627445250311,-0.0,0.28056153655052185,-1.5345638434039515,-0.0,-0.01669861376285553,0.7703651785850525,-0.0,-0.018017102032899857,0.8364312052726746,-2.71859488046311e-12,0.03998422622680664
292.0,281.0,0.7442,-0.7304,9.4774,-0.0504,0.0176,-0.1122,-1.6965137920775355,0.0,2.5878796577453613,-1.7811652421951294,-0.0,2.0748560428619385,4.882655682950773,-0.0,0.29071226716041565,-1.5345681349383753,-0.0,-0.024504655972123146,0.7704175710678101,-0.0,-0.003037820104509592,0.8363829255104065,-4.893375510737097e-16,0.013639235869050026
292.0,281.0,0.7442,-0.7304,9.4774,-0.0504,0.0176,-0.1122,-1.6965142689146937,0.0,2.6110336780548096,-1.7811765670776367,-0.0,2.076124906539917,4.882567542582311,2.9309580895642284e-07,0.2821456789970398,-1.534600083027975,-0.0,-0.017621014267206192,0.7704052925109863,-0.0,0.0018630409613251686,0.8363664746284485,-1.1816924314399433e-21,-0.009559343568980694
292.0,281.0,0.7442,-0.7304,9.4774,-0.0504,0.0176,-0.1122,-1.6964899502196253,0.0,2.6268043518066406,-1.7811280488967896,1.7313835920518272e-09,2.093250274658203,4.882603543787756,8.158429487536978e-11,0.30395951867103577,-1.534555737172262,-0.0,-0.009729035198688507,0.7704172730445862,-0.0,0.004015449434518814,0.8364510536193848,0.0004076664918102324,-0.023304341360926628
292.0,281.0,0.7442,-0.7304,9.4774,-0.0504,0.0176,-0.1122,-1.6964379749693812,0.0,2.635129451751709,-1.7811199426651,4.181086764786998e-15,2.10200572013855,4.882631572871961,2.27092904350008e-14,0.28167715668678284,-1.534640137349264,-0.0,-0.009492113254964352,0.7704175710678101,-0.0,0.0037573697045445442,0.8364229798316956,0.00038469431456178427,-0.037203531712293625
292.0,281.0,0.7442,-0.7304,9.4774,-0.0504,0.0176,-0.1122,-1.6964980564513148,0.0,2.6104259490966797,-1.781144618988037,1.0096833128699348e-20,2.070739984512329,4.882619830756941,6.321214565866425e-18,0.2798781096935272,-1.5345795790301722,-0.0,-0.011906623840332031,0.7703729271888733,-0.0,-0.006183216813951731,0.8364027738571167,0.00031694729113951325,-0.04850891977548599
292.0,281.0,0.7442,-0.7304,9.4774,-0.0504,0.0176,-0.1122,-1.696477552453512,0.0,2.66442608833313,-1.7811890840530396,2.4382661363419194e-26,2.092458486557007,4.882651555329122,1.7595331202449814e-21,0.2864987850189209,-1.5345519224749964,-0.0,-0.02582225203514099,0.7704176902770996,-0.0,-0.009971972554922104,0.8364189267158508,0.00026948872255161405,-0.02495906874537468
290.0,289.0,0.6748,-0.5503,9.618,-0.0325,0.026,-0.1222,-1.696481843987936,0.0,2.63708758354187,-1.7811239957809448,5.888125847160115e-32,2.094839334487915,4.882624032884397,4.8977257604597e-25,0.2776324152946472,-1.534623924885885,-0.0,-0.008346844464540482,0.7703489065170288,-0.0,0.001673894701525569,0.8364432454109192,0.0002734584268182516,-0.03586144372820854
290.0,289.0,0.6748,-0.5503,9.618,-0.0325,0.026,-0.1222,-1.6964899502196253,0.0,2.6138038635253906,-1.7811528444290161,1.4219132462931923e-37,2.0788636207580566,4.8826035288865945,1.3632999649017505e-28,0.28137925267219543,-1.5345671812640589,-0.0,-0.014603634364902973,0.7703529000282288,-0.0,-0.01802215538918972,0.8364391326904297,0.00024195085279643536,0.011455172672867775
290.0,289.0,0.6748,-0.5503,9.618,-0.0325,0.026,-0.1222,-1.6964742145934046,0.0,2.6399121284484863,-1.7811973094940186,3.433181237595802e-43,2.0911738872528076,4.8826321987207315,3.794795515513804e-32,0.2838336229324341,-1.5345638434039515,-0.0,-0.018062980845570564,0.7703849077224731,-0.0,-0.02008121833205223,0.8364189267158508,0.0002169535291614011,0.01018768735229969
290.0,289.0,0.6748,-0.5503,9.618,-0.0325,0.026,-0.1222,-1.6965018711485804,0.0,2.632009983062744,-1.7811012268066406,-0.0,2.0872530937194824,4.882632168918409,1.0562953923868022e-35,0.28738507628440857,-1.5346115271197718,-0.0,-0.014548876322805882,0.7704094648361206,-0.0,0.01508273184299469,0.8364270925521851,0.0001966381532838568,0.03354518115520477
290.0,289.0,0.6748,-0.5503,9.618,-0.0325,0.026,-0.1222,-1.6965061626830042,0.0,2.6276321411132812,-1.781144618988037,-0.0,2.075777053833008,4.882611769228735,2.9402366677110106e-39,0.2847534716129303,-1.5345714727984827,-0.0,0.0007828156230971217,0.770477831363678,-0.0,-0.0013792852405458689,0.8364630937576294,0.00017980190750677139,0.004455939866602421
290.0,289.0,0.6748,-0.5503,9.618,-0.0325,0.026,-0.1222,-1.6964298687376917,0.0,2.6559791564941406,-1.781172513961792,-0.0,2.127699851989746,4.8825797764356516,1.2534614763385489e-41,0.2835174798965454,-1.5345752874957483,-0.0,-0.016969529911875725,0.7704135179519653,-0.0,-0.018393294885754585,0.8364229798316956,0.00017009279690682888,0.023260949179530144
290.0,289.0,0.6748,-0.5503,9.618,-0.0325,0.026,-0.1222,-1.6964661083617152,0.0,2.6587352752685547,-1.7811280488967896,-0.0,2.057440757751465,4.8826035288865945,2.802596928649634e-45,0.29465004801750183,-1.5346162954913538,-0.0,-0.010616466403007507,0.7704135179519653,-0.0,0.003505778033286333,0.8364510536193848,0.00015734814223833382,-0.003233043709769845
290.0,289.0,0.6748,-0.5503,9.618,-0.0325,0.026,-0.1222,-1.6964980564513148,0.0,2.635862350463867,-1.7811322212219238,-0.0,2.0915210247039795,4.882595407753744,0.0,0.2976989150047302,-1.5345962683307093,-0.0,-0.00684951338917017,0.7704212665557861,-0.0,0.01115137804299593,0.8364712595939636,0.00014638002903666347,-0.007644457742571831
290.0,289.0,0.6748,-0.5503,9.618,-0.0325,0.026,-0.1222,-1.6965018711485804,0.0,2.6171295642852783,-1.7811405658721924,-0.0,2.0557053089141846,4.882631528168478,0.0,0.3039257526397705,-1.5345962683307093,-0.0,-0.018901733681559563,0.7703971862792969,-0.0,0.00782854575663805,0.8363906741142273,0.00013684158329851925,0.010891779325902462
290.0,289.0,0.6748,-0.5503,9.618,-0.0325,0.026,-0.1222,-1.696477552453512,0.0,2.632845163345337,-1.7811487913131714,-0.0,2.1033101081848145,4.8825954524572275,0.0,0.2869263291358948,-1.5345638434039515,-3.199078855686821e-05,0.005622591823339462,0.7703569531440735,-0.0,0.009066430851817131,0.836426854133606,0.00012847015750594437,0.0486028715968132
290.0,289.0,0.6748,-0.5503,9.618,-0.0325,0.026,-0.1222,-1.6964618168272914,0.0,2.612553358078003,-1.7811652421951294,-0.0,2.048497438430786,4.882624017983236,0.0,0.2911657691001892,-1.534583870564596,-3.048945654882118e-05,-0.018522977828979492,0.7704492211341858,-0.0,-0.002187917474657297,0.8364028334617615,0.00012106394569855183,0.01590714044868946
290.0,289.0,0.6748,-0.5503,9.618,-0.0325,0.026,-0.1222,-1.696481843987936,0.0,2.6508946418762207,-1.7811932563781738,9.727199358167127e-05,2.079329490661621,4.882583531528272,0.0,0.2898801267147064,-1.5345919767962855,-2.901505104091484e-05,-0.019234228879213333,0.7703809142112732,-0.0,-0.002230815589427948,0.8364148139953613,0.00011446520511526614,0.023301808163523674
290.0,289.0,0.6748,-0.5503,9.618,-0.0325,0.026,-0.1222,-1.6964980564513148,0.0,2.62534236907959,-1.78110933303833,0.00011097754031652585,2.0903732776641846,4.882635536580839,0.0,0.2799709737300873,-1.5346201101886194,-2.767667501757387e-05,-0.017521817237138748,0.7704011797904968,-0.0,-0.007980676367878914,0.8364191651344299,3.7144156522117555e-05,0.013296580873429775
290.0,289.0,0.6748,-0.5503,9.618,-0.0325,0.026,-0.1222,-1.6965342960753382,0.0,2.624976634979248,-1.7811403274536133,0.00012195813178550452,2.068500518798828,4.882603499084272,0.0,0.2901163697242737,-1.5345724264727991,6.518462032545358e-05,-0.020966554060578346,0.7704455256462097,-0.0,-0.009159230627119541,0.8364473581314087,3.468194336164743e-05,0.018885068595409393
290.0,289.0,0.6748,-0.5503,9.618,-0.0325,0.026,-0.1222,-1.6964699230589808,0.0,2.627028465270996,-1.7811157703399658,0.00013173090701457113,2.1059272289276123,4.882635536580839,0.0,0.2889539301395416,-1.5345476309405726,5.387918645283207e-05,-0.013631867244839668,0.7704011797904968,-0.0,-0.005558376666158438,0.8364189267158508,4.917909609503113e-05,-0.014688219875097275
290.0,289.0,0.6748,-0.5503,9.618,-0.0325,0.026,-0.1222,-1.696481843987936,0.0,2.634614944458008,-1.7811733484268188,0.0003432907979004085,2.1240062713623047,4.882583486824789,0.0,0.28224703669548035,-1.534555737172262,4.567324504023418e-05,-0.010579626075923443,0.7703889608383179,-0.0,0.0031005321070551872,0.8363987803459167,4.6717490477021784e-05,0.0033252399880439043
290.0,279.0,0.7292,-0.4211,9.6072,-0.0308,0.0163,-0.1222,-1.69653381923818,0.0,2.6132731437683105,-1.7811847925186157,0.0002978520351462066,2.058560848236084,4.882575678616323,0.0,0.2969210147857666,-1.5344951788531702,4.1463641537120566e-05,-0.005146092735230923,0.7704291939735413,-0.0,-0.007888567633926868,0.8364270925521851,-7.380929309874773e-05,-0.007533252239227295
290.0,279.0,0.7292,-0.4211,9.6072,-0.0308,0.0163,-0.1222,-1.6964899502196253,0.0,2.6093106269836426,-1.7810970544815063,0.00019879995670635253,2.09332275390625,4.882611769228735,0.0,0.2817648947238922,-1.5345514456378382,3.642773299361579e-05,-0.012063518166542053,0.7704053521156311,-0.0,-0.002947075292468071,0.8364109396934509,-5.924824290559627e-05,-0.008097095414996147
290.0,279.0,0.7292,-0.4211,9.6072,-0.0308,0.0163,-0.1222,-1.696449419061178,0.0,2.619156837463379,-1.7811167240142822,0.00017054371710401028,2.0851902961730957,4.882607701211729,0.0,0.2892947494983673,-1.5345481077777308,3.2482774258824065e-05,-0.010612763464450836,0.7704734206199646,-0.0,0.00587704312056303,0.8364434838294983,-9.895054245134816e-05,0.03865518793463707
290.0,279.0,0.7292,-0.4211,9.6072,-0.0308,0.0163,-0.1222,-1.6964661083617152,0.0,2.629131317138672,-1.7811570167541504,0.0001493204035796225,2.09213924407959,4.882631528168478,0.0,0.2910073399543762,-1.534555737172262,2.9308956072782166e-05,-0.014486381784081459,0.7703652381896973,-0.0,0.008984878659248352,0.8363947868347168,-0.0001274107926292345,0.02414141595363617
290.0,279.0,0.7292,-0.4211,9.6072,-0.0308,0.0163,-0.1222,-1.6964737377562464,0.0,2.6382029056549072,-1.7811280488967896,0.0001327956997556612,2.0727148056030273,4.882607686310568,0.0,0.28886595368385315,-1.5345600287066858,2.670015601324849e-05,-0.015109378844499588,0.7704012393951416,-0.0,0.007978519424796104,0.8363829255104065,-0.00011161006841575727,-0.017591508105397224
290.0,279.0,0.7292,-0.4211,9.6072,-0.0308,0.0163,-0.1222,-1.6964980564513148,0.0,2.655771255493164,-1.7811405658721924,0.00011956378148170188,2.1133182048797607,4.882624017983236,0.0,0.2889992296695709,-1.534539524708883,4.73900799988769e-05,-0.029022201895713806,0.7704931497573853,-0.0,0.005151614546775818,0.8364312052726746,-0.00013239379040896893,-0.039513494819402695
290.0,279.0,0.7292,-0.4211,9.6072,-0.0308,0.0163,-0.1222,-1.696477552453512,0.0,2.6501760482788086,-1.7811610698699951,0.00010873017890844494,2.102480888366699,4.88260771611289,0.0,0.2852057218551636,-1.5345514456378382,4.386395448818803e-05,-0.01127677783370018,0.7704291343688965,-0.0,0.0022034086287021637,0.8364150524139404,-0.00011923842976102605,-0.011891250498592854
290.0,279.0,0.7292,-0.4211,9.6072,-0.0308,0.0163,-0.1222,-1.6965095005431117,0.0,2.6816999912261963,-1.7811362743377686,9.96966555248946e-05,2.0720949172973633,4.882599535375395,0.0,0.28787195682525635,-1.5345681349383753,4.2146060877712443e-05,-0.011370418593287468,0.7703971862792969,-0.0,-0.01695888862013817,0.8364353179931641,-0.00010846110671991482,-0.024892276152968407
290.0,279.0,0.7292,-0.4211,9.6072,-0.0308,0.0163,-0.1222,-1.6964737377562464,0.0,2.5894381999969482,-1.7811322212219238,9.204913658322766e-05,2.0869381427764893,4.882624017983236,0.0,0.2904997766017914,-1.534539524708883,3.938006193493493e-05,-0.005347191356122494,0.7704336047172546,-0.0,0.002816860331222415,0.8364068269729614,-9.947042417479679e-05,-0.01474427618086338
290.0,279.0,0.7292,-0.4211,9.6072,-0.0308,0.0163,-0.1222,-1.6964975796141566,0.0,2.613006114959717,-1.7811002731323242,8.549133781343699e-05,2.1293368339538574,4.8826200542743585,0.0,0.29570722579956055,-1.5345638434039515,3.6954555980628356e-05,-0.030784092843532562,0.7703849077224731,-0.0,0.003270743414759636,0.8363910913467407,-0.00015501103189308196,0.020576398819684982
290.0,279.0,0.7292,-0.4211,9.6072,-0.0308,0.0163,-0.1222,-1.696521898309225,0.0,2.626321792602539,-1.7811405658721924,8.1615085946396e-05,2.0910820960998535,4.882599580078878,0.0,0.28983813524246216,-1.5345514456378382,3.549695247784257e-05,-0.01581108570098877,0.7703648209571838,-0.0,-0.012403450906276703,0.8363952040672302,-0.000145020880154334,-0.013811911456286907
290.0,279.0,0.7292,-0.4211,9.6072,-0.0308,0.0163,-0.1222,-1.6964980564513148,0.0,2.646688938140869,-1.7811323404312134,7.641767297172919e-05,2.0935566425323486,4.882647561817922,0.0,0.2888306677341461,-1.5345194975482386,3.351419582031667e-05,-0.007183471694588661,0.7704655528068542,-0.0,-0.005361384712159634,0.8364030122756958,-0.00013223601854406297,-0.03559628129005432
290.0,279.0,0.7292,-0.4211,9.6072,-0.0308,0.0163,-0.1222,-1.696465631524557,0.0,2.6183271408081055,-1.7811322212219238,7.1842732722871e-05,2.0679514408111572,4.882607686310568,0.0,0.2744304835796356,-1.534539524708883,3.1741201382828876e-05,-0.013638326898217201,0.7704012989997864,-0.0,-0.005934395361691713,0.8364312052726746,-0.00012152276758570224,-0.05485506355762482
290.0,279.0,0.7292,-0.4211,9.6072,-0.0308,0.0163,-0.1222,-1.6965137920775355,0.0,2.6452596187591553,-1.781120777130127,6.778454553568736e-05,2.082064151763916,4.882636371045866,0.0,0.2856549024581909,-1.5345314184771937,3.0146366043481976e-05,-0.014327649027109146,0.7704052329063416,-0.0,-0.01432131975889206,0.8364109396934509,-8.996864926302806e-05,0.00285241287201643
290.0,279.0,0.7292,-0.4211,9.6072,-0.0308,0.0163,-0.1222,-1.6965095005431117,0.0,2.627737522125244,-1.7811322212219238,6.416036194423214e-05,2.0677483081817627,4.882615852146902,0.0,0.2811152935028076,-1.5345681349383753,2.8704154829028994e-05,-0.0083086509257555,0.7704012393951416,-0.0,0.0008210910600610077,0.8364030122756958,-8.366240217583254e-05,0.0610918328166008
301.0,291.0,0.5581,0.0012,9.3625,-0.0121,0.0264,-0.1158,-1.6965300045409144,0.0,2.6655993461608887,-1.7811044454574585,4.567807263811119e-05,2.122467279434204,4.882635536580839,0.0,0.2950994074344635,-1.5345237890826624,2.739363662840333e-05,-0.01001213863492012,0.7704451680183411,-0.0,0.020598210394382477,0.8364514708518982,-7.820971222827211e-05,0.019897451624274254
301.0,291.0,0.5581,0.0012,9.3625,-0.0121,0.0264,-0.1158,-1.6965137920775355,0.0,2.617826461791992,-1.781112551689148,4.3471736717037857e-05,2.0725865364074707,4.882643449097433,1.4629419808898092e-07,0.2938265800476074,-1.5345476309405726,1.3113595741742756e-05,-0.00839864369481802,0.7704538106918335,-0.0,0.0036518964916467667,0.8364514708518982,-5.5078297009458765e-05,-0.004562461283057928
301.0,291.0,0.5581,0.0012,9.3625,-0.0121,0.0264,-0.1158,-1.696505685845846,0.0,2.6302411556243896,-1.7811570167541504,4.14687383454293e-05,2.112539291381836,4.882615852146902,4.0721526844977873e-11,0.2886480987071991,-1.5346043745623987,1.2550774954434019e-05,-0.004942393861711025,0.7703930735588074,-0.0,-0.000197642482817173,0.8364510536193848,0.00010151370224775746,-0.009196918457746506
301.0,291.0,0.5581,0.0012,9.3625,-0.0121,0.0264,-0.1158,-1.6965424023070277,0.0,2.645533561706543,-1.7811528444290161,4.834269202547148e-05,2.0902204513549805,4.882611769228735,1.1334988123893469e-14,0.27962252497673035,-1.5346081892596644,1.2046791198372375e-05,-0.0035504105035215616,0.7704131007194519,-0.0,-0.011481935158371925,0.8364790678024292,0.0005607156199403107,0.00786368828266859
301.0,291.0,0.5581,0.0012,9.3625,-0.0121,0.0264,-0.1158,-1.6965137920775355,0.0,2.6680421829223633,-1.7811239957809448,5.0626378651941195e-05,2.065617084503174,4.882691803365507,0.00042423716513440013,0.2929481267929077,-1.5345519224749964,5.87321392231388e-06,-0.01572151482105255,0.7704012393951416,-0.0,-0.0033535663969814777,0.8364913463592529,0.0015699774958193302,-0.04919082671403885
301.0,291.0,0.5581,0.0012,9.3625,-0.0121,0.0264,-0.1158,-1.6965538463988246,0.0,2.559009552001953,-1.781112551689148,3.645203105406836e-05,2.054838180541992,4.882659452944555,0.00041868528933264315,0.29180750250816345,-1.5346081892596644,1.6348306042246463e-09,-0.002777364104986191,0.7704373598098755,-0.0,0.004186477977782488,0.8365152478218079,0.002900258172303438,0.031425222754478455
301.0,291.0,0.5581,0.0012,9.3625,-0.0121,0.0264,-0.1158,-1.6964975796141566,0.0,2.6289496421813965,-1.781144618988037,3.54754229192622e-05,2.149951934814453,4.882655370026388,0.0003920818562619388,0.3023662567138672,-1.5346320311175745,6.969539962514704e-12,-0.0141777154058218,0.770369291305542,-0.0,-0.009112363681197166,0.8365392088890076,0.004260840360075235,0.037186313420534134
301.0,291.0,0.5581,0.0012,9.3625,-0.0121,0.0264,-0.1158,-1.6964813671507777,0.0,2.644052267074585,-1.7811692953109741,3.413013837416656e-05,2.0909016132354736,4.882631096034803,0.00035215570824220777,0.28870612382888794,-1.5346282164203089,1.93999704030444e-15,-0.007772689685225487,0.770465612411499,-0.0,0.0011399199720472097,0.836571216583252,0.007192743942141533,-0.011647815816104412
301.0,291.0,0.5581,0.0012,9.3625,-0.0121,0.0264,-0.1158,-1.6965095005431117,0.0,2.6683943271636963,-1.7811362743377686,3.2883173844311386e-05,2.0764501094818115,4.882671686797895,0.0003015748516190797,0.2880304157733917,-1.5345714727984827,5.400052690644843e-19,-0.008021329529583454,0.7703931331634521,-0.0,-0.008475068025290966,0.8366115093231201,0.008495954796671867,0.0005251318216323853
301.0,291.0,0.5581,0.0012,9.3625,-0.0121,0.0264,-0.1158,-1.696493764916891,0.0,2.6240243911743164,-1.7811528444290161,3.172409560647793e-05,2.1100590229034424,4.882663446455755,0.00026369609986431897,0.28213173151016235,-1.5346081892596644,1.5031244726716832e-22,-0.009093486703932285,0.7703405618667603,-0.0,-0.01007188018411398,0.8366551995277405,0.007114009000360966,0.011480649933218956
301.0,291.0,0.5581,0.0012,9.3625,-0.0121,0.0264,-0.1158,-1.696521898309225,0.0,2.5687923431396484,-1.7811652421951294,3.064394695684314e-05,2.0963268280029297,4.882659452944555,0.00023427314590662718,0.2813844680786133,-1.5345714727984827,4.184002377346792e-26,-0.004123930353671312,0.7704373002052307,-0.0,0.002944531850516796,0.8367355465888977,0.006006068084388971,0.009441565722227097
301.0,291.0,0.5581,0.0012,9.3625,-0.0121,0.0264,-0.1158,-1.6965614757933558,-0.0005794611643068492,2.619018077850342,-1.7811931371688843,3.4515169318183325e-06,2.0916128158569336,4.882575320988455,0.00021075790573377162,0.2821553349494934,-1.5345752874957483,1.1646323316308589e-29,-0.016046524047851562,0.7703971266746521,-0.0,0.003140128217637539,0.8367393016815186,0.005223188083618879,0.0006157639436423779
301.0,291.0,0.5581,0.0012,9.3625,-0.0121,0.0264,-0.1158,-1.6965857944884242,-0.0019766876939684153,2.650560140609741,-1.7811570167541504,8.335006296267267e-12,2.0576071739196777,4.882607701211729,0.00013465541996993124,0.2940419018268585,-1.53461200395693,3.2417963204549515e-33,-0.00818535778671503,0.7704176306724548,-0.0,0.0019051673589274287,0.8367795348167419,0.00368822761811316,-0.039100952446460724
301.0,291.0,0.5581,0.0012,9.3625,-0.0121,0.0264,-0.1158,-1.6966101131834925,-0.0031770344357937574,2.63718318939209,-1.7811083793640137,-2.0689616576419212e-05,2.1281914710998535,4.882639708905973,6.718302029184997e-05,0.2831709384918213,-1.5346081892596644,9.023660788396397e-37,-0.012573949992656708,0.7704254388809204,-0.0,-0.0045872400514781475,0.836743175983429,0.0018382127163931727,0.0017683166079223156
301.0,291.0,0.5581,0.0012,9.3625,-0.0121,0.0264,-0.1158,-1.6966377697386683,-0.00455431966111064,2.574524402618408,-1.781172513961792,-2.0169616618659347e-05,2.1025705337524414,4.882611784129896,3.0211234843591228e-05,0.28493833541870117,-1.5345876852618616,2.5117714453636616e-40,-0.017903057858347893,0.7703812122344971,-0.0,-0.006499608512967825,0.8367834687232971,0.0007154858321882784,0.029814139008522034
301.0,291.0,0.5581,0.0012,9.3625,-0.0121,0.0264,-0.1158,-1.6966940365233363,-0.005566538777202368,2.6569418907165527,-1.7811808586120605,-3.082525523723234e-08,2.052140235900879,4.882639679103651,1.6494043464376773e-08,0.2830926477909088,-1.5345514456378382,7.006492321624085e-44,-0.02104422263801098,0.7704452276229858,-0.0,-0.012297284789383411,0.8367513418197632,0.00031973750446923077,0.08241778612136841
300.0,295.0,0.6138,-0.3715,9.5097,-0.0385,-0.0026,-0.1355,-1.6966411075987757,-0.005836124997586012,2.6073145866394043,-1.7811931371688843,-5.5484362763980055e-12,2.0839691162109375,4.882571491390028,7.03166969096003e-11,0.28534770011901855,-1.534543816243307,0.0,-0.022287726402282715,0.7704213261604309,-0.0,0.00260964035987854,0.8367354869842529,-0.0003120788314845413,0.04655132070183754
300.0,295.0,0.6138,-0.3715,9.5097,-0.0385,-0.0026,-0.1355,-1.6966973743834437,-0.006246534176170826,2.595207452774048,-1.7812014818191528,-1.339882293618604e-17,2.105086326599121,4.882607686310568,1.9572908696368838e-14,0.2887897193431854,-1.5345724264727991,0.0,-0.017987854778766632,0.7703889608383179,-0.0,-0.002176369074732065,0.8367031812667847,-0.0014912219485267997,-0.04412710666656494
300.0,295.0,0.6138,-0.3715,9.5097,-0.0385,-0.0026,-0.1355,-1.6967531643309535,-0.006761797703802586,2.655242681503296,-1.7812211513519287,-3.2356578376261785e-23,2.0829615592956543,4.882628086000242,5.448191190175402e-18,0.2829497456550598,-1.534555737172262,0.0,-0.025395410135388374,0.7703808546066284,-0.0,0.0037220357917249203,0.8366912603378296,-0.0035863961093127728,-0.057535361498594284
300.0,295.0,0.6138,-0.3715,9.5097,-0.0385,-0.0026,-0.1355,-1.6968208752074183,-0.008191757835447788,2.613628387451172,-1.781128168106079,-7.813732507090988e-29,2.0841052532196045,4.882624077587881,1.516523975655346e-21,0.3014959692955017,-1.5345600287066858,0.0,-0.013530242256820202,0.7703689336776733,-0.0,0.0032462021335959435,0.8366755247116089,-0.002711233450099826,-0.03288006782531738
300.0,295.0,0.6138,-0.3715,9.5097,-0.0385,-0.0026,-0.1355,-1.6968938312926234,-0.010041612200438976,2.5816078186035156,-1.7811766862869263,-1.8869246541040522e-34,2.109663963317871,4.882628175407209,4.2213002139837075e-25,0.28031086921691895,-1.5344756285296839,0.0,-0.014915854670107365,0.7703812122344971,-0.0,-0.004876376129686832,0.8366432189941406,-0.0021950206719338894,0.0505160316824913
300.0,295.0,0.6138,-0.3715,9.5097,-0.0385,-0.0026,-0.1355,-1.6970058880248011,-0.012516850605607033,2.609029531478882,-1.781140685081482,-4.55670030733751e-40,2.0825319290161133,4.8826117543275735,1.1750144331542705e-28,0.28885525465011597,-1.5345519224749964,0.0,-0.025181684643030167,0.7703971266746521,-0.0,-0.005469899624586105,0.8365544080734253,-0.002495650202035904,-0.012427287176251411
300.0,295.0,0.6138,-0.3715,9.5097,-0.0385,-0.0026,-0.1355,-1.6971055469908656,-0.014705171808600426,2.6200504302978516,-1.7811529636383057,-1.401298464324817e-45,2.1295812129974365,4.882600265532293,3.270696363348696e-32,0.2932518720626831,-1.5345805327044886,0.0,-0.013459309935569763,0.7704456448554993,-0.0,1.903658267110586e-05,0.8366072177886963,-0.0029406093526631594,-0.011010974645614624
300.0,295.0,0.6138,-0.3715,9.5097,-0.0385,-0.0026,-0.1355,-1.6971684894957484,-0.01596214808523655,2.6077990531921387,-1.781189203262329,-0.0,2.0034024715423584,4.882624017983236,9.10410258457988e-36,0.29110613465309143,-1.5345481077777308,0.0,-0.006584215443581343,0.7703688144683838,-0.0,0.0020384760573506355,0.8365309238433838,-0.0034259811509400606,-0.011598876677453518
300.0,295.0,0.6138,-0.3715,9.5097,-0.0385,-0.0026,-0.1355,-1.697256704370016,-0.016361724585294724,2.56960391998291,-1.7811973094940186,-0.0,2.077558994293213,4.882603513985433,2.5341599909281792e-39,0.2801949977874756,-1.534515682850973,0.0,-0.017936650663614273,0.7704213261604309,-0.0,-0.00033970671938732266,0.8365634083747864,-0.0037669846788048744,0.024829238653182983
300.0,295.0,0.6138,-0.3715,9.5097,-0.0385,-0.0026,-0.1355,-1.697393079797262,-0.016730573028326035,2.6090989112854004,-1.7812055349349976,-0.0,2.0856542587280273,4.8826321987207315,7.04853127555383e-43,0.29034191370010376,-1.5345123449908655,0.0001717742852633819,-0.0030122611206024885,0.7703729867935181,-0.0,-0.005901058204472065,0.8365111351013184,-0.0039161331951618195,-0.01877625286579132
300.0,295.0,0.6138,-0.3715,9.5097,-0.0385,-0.0026,-0.1355,-1.6974765262999476,-0.016939464956521988,2.6265902519226074,-1.7811973094940186,-0.0,2.101895809173584,4.882567468076505,0.0,0.2995547950267792,-1.5345161596881312,0.00018155467114411294,-0.02464679256081581,0.7703889608383179,-0.0,0.010355743579566479,0.8364914655685425,-0.0034687346778810024,0.019063489511609077
300.0,295.0,0.6138,-0.3715,9.5097,-0.0385,-0.0026,-0.1355,-1.6975442371764125,-0.016389785334467888,2.5756678581237793,-1.7811529636383057,-0.0,2.102724075317383,4.8825875399406335,0.0,0.2775162160396576,-1.5345080534564417,0.00017369350825902075,-0.01793292537331581,0.770348846912384,-0.0,0.00053423922508955,0.8364548683166504,-0.003541432786732912,-0.01602906547486782
300.0,295.0,0.6138,-0.3715,9.5097,-0.0385,-0.0026,-0.1355,-1.6976896725096644,-0.015626100823283195,2.588618278503418,-1.7811931371688843,-0.0,2.062441110610962,4.882599535375395,0.0,0.2831931710243225,-1.5344880262957972,0.00017797682085074484,-0.02370985969901085,0.7703688740730286,-0.0,-0.012983988970518112,0.8364189267158508,-0.004156275186687708,0.008441166952252388
300.0,295.0,0.6138,-0.3715,9.5097,-0.0385,-0.0026,-0.1355,-1.6977445087828578,-0.015070339664816856,2.5930638313293457,-1.7812097072601318,-0.0,2.069101333618164,4.882591697364607,0.0,0.27625176310539246,-1.5344842115985315,0.0001817876036511734,-0.017487898468971252,0.7704135179519653,-0.0,-0.005716810468584299,0.8364270925521851,-0.0068991235457360744,0.015864266082644463
300.0,295.0,0.6138,-0.3715,9.5097,-0.0385,-0.0026,-0.1355,-1.6978970966734828,-0.01573016867041588,2.5898566246032715,-1.7811239957809448,-0.0,2.0487256050109863,4.88265939333991,0.0,0.29197776317596436,-1.5344880262957972,0.00017960660625249147,-0.02378714829683304,0.7703729867935181,-0.0,-0.0024147406220436096,0.8363588452339172,-0.007719211280345917,0.028841758146882057
300.0,295.0,0.6138,-0.3715,9.5097,-0.0385,-0.0026,-0.1355,-1.6979290447630824,-0.015193108469247818,2.6335415840148926,-1.7811447381973267,-0.0,2.0963034629821777,4.882639694004812,0.0,0.2706882059574127,-1.5344675222979944,0.000233696453506127,-0.00470861978828907,0.7703611254692078,-0.0,0.0007818138692528009,0.8362907767295837,-0.006962955463677645,0.010815968737006187
295.0,288.0,0.5174,-0.3302,9.332,-0.0263,-0.0044,-0.1396,-1.6980325184264125,-0.015043230727314949,2.6127960681915283,-1.781172513961792,-0.0,2.0739736557006836,4.8825954524572275,0.0,0.2883651852607727,-1.534476105366842,0.0002445498248562217,-0.022858843207359314,0.7703688740730286,-0.0,-0.0011475348146632314,0.8362745046615601,-0.006640278268605471,-0.07311596721410751
295.0,288.0,0.5174,-0.3302,9.332,-0.0263,-0.0044,-0.1396,-1.6981164417662562,-0.014240605756640434,2.577000141143799,-1.7811890840530396,-4.00346725655254e-05,2.098695755004883,4.8826274303491495,0.0,0.2680800259113312,-1.5344799200641077,0.0002524642914067954,-0.0017478433437645435,0.7704012989997864,-0.0,-0.0022101979702711105,0.8362590074539185,-0.00619880435988307,-0.039921484887599945
295.0,288.0,0.5174,-0.3302,9.332,-0.0263,-0.0044,-0.1396,-1.6982485256590785,-0.01497388631105423,2.5836169719696045,-1.7811405658721924,-3.753221972147003e-05,2.0941758155822754,4.882619845658102,0.0,0.28208446502685547,-1.5344403425799769,0.00025855927378870547,0.004542958457022905,0.7703729867935181,-0.0,0.0016300440765917301,0.8361825346946716,-0.005576704628765583,-0.07855646312236786
295.0,288.0,0.5174,-0.3302,9.332,-0.0263,-0.0044,-0.1396,-1.6982666454710902,-0.01694105565547943,2.5984506607055664,-1.7811850309371948,-3.532268965500407e-05,2.085737943649292,4.882639723807134,0.0,0.2763865888118744,-1.5344403425799769,0.00035109289456158876,-0.008710352703928947,0.7703529596328735,-0.0,-0.0031293067149817944,0.8362031579017639,-0.004965311381965876,-0.008330773562192917
295.0,288.0,0.5174,-0.3302,9.332,-0.0263,-0.0044,-0.1396,-1.69840731243276,-0.018412210047245026,2.5489182472229004,-1.7811405658721924,-3.335883957333863e-05,2.085693836212158,4.8826315579708,0.0,0.28077471256256104,-1.534424130116598,0.0003413752419874072,-0.005658186040818691,0.7704094648361206,-0.0,-0.0034609129652380943,0.83616703748703,-0.004872255027294159,-0.044969916343688965
295.0,288.0,0.5174,-0.3302,9.332,-0.0263,-0.0044,-0.1396,-1.698536058465475,-0.0210217647254467,2.4949986934661865,-1.7811280488967896,-3.160182313877158e-05,2.1341466903686523,4.882615852146902,0.0,0.26956847310066223,-1.5344398657428187,0.00033475435338914394,-0.012640581466257572,0.7703853249549866,-0.0,-0.010454953648149967,0.8361551761627197,-0.00432915985584259,-0.025603871792554855
295.0,288.0,0.5174,-0.3302,9.332,-0.0263,-0.0044,-0.1396,-1.6986242733397425,-0.02223934605717659,2.529280662536621,-1.7811405658721924,-3.052984538953751e-05,2.10489559173584,4.882615837245741,0.0,0.26362454891204834,-1.534436051045553,0.00030294954194687307,0.0021033233497291803,0.7704172134399414,-0.0,-0.0041451239958405495,0.8361511826515198,-0.004160576965659857,-0.09429825842380524
295.0,288.0,0.5174,-0.3302,9.332,-0.0263,-0.0044,-0.1396,-1.6987878284850062,-0.026871589943766594,2.4911484718322754,-1.7811734676361084,-1.4593509149563033e-05,2.1217000484466553,4.882623392134466,0.0,0.25932934880256653,-1.5344160238849085,0.0003399327106308192,0.02323475107550621,0.7703729271888733,-0.0,-0.008868339471518993,0.8360702991485596,-0.0037135975435376167,-0.06378068029880524
295.0,288.0,0.5174,-0.3302,9.332,-0.0263,-0.0044,-0.1396,-1.6989437542357386,-0.02783038280904293,2.479172945022583,-1.781205654144287,-1.385498126182938e-05,2.053635358810425,4.882635566383161,0.0,0.26013654470443726,-1.534407917653219,0.0002818209177348763,0.013884287327528,0.7703812122344971,-0.0,-0.003987267147749662,0.8360865712165833,-0.0032428528647869825,-0.06611526757478714
295.0,288.0,0.5174,-0.3302,9.332,-0.0263,-0.0044,-0.1396,-1.6991273365416468,-0.03121890127658844,2.4682774543762207,-1.7811487913131714,-1.3243375178717542e-05,2.080648899078369,4.882631498366155,0.0,0.2615293562412262,-1.5344165007220667,0.00028466241201385856,0.01610899530351162,0.7704052925109863,-0.0,0.0033612377010285854,0.8360830545425415,-0.003383476287126541,-0.09801287949085236
295.0,288.0,0.5174,-0.3302,9.332,-0.0263,-0.0044,-0.1396,-1.6993514500060023,-0.034816939383745193,2.4910900592803955,-1.7811405658721924,-1.2683479326369707e-05,2.0839247703552246,4.882599520474233,0.0,0.2523359954357147,-1.5344198385821741,0.0002867072180379182,0.002151044085621834,0.7704135179519653,-0.0,-0.006496033631265163,0.836022675037384,-0.0044149113819003105,-0.11597955226898193
295.0,288.0,0.5174,-0.3302,9.332,-0.0263,-0.0044,-0.1396,-1.6995388470091761,-0.03876886144280434,2.4149482250213623,-1.7811570167541504,-7.688185643672796e-10,2.0981314182281494,4.882624017983236,0.0,0.25417688488960266,-1.5344165007220667,0.0002880138054024428,0.02345939166843891,0.7703971862792969,-0.0,-0.019283387809991837,0.8360152244567871,-0.005304969847202301,-0.07949700951576233
295.0,288.0,0.5174,-0.3302,9.332,-0.0263,-0.0044,-0.1396,-1.6997667751707972,-0.04297507926821709,2.3935256004333496,-1.781172513961792,-1.8566064348890174e-15,2.0117173194885254,4.88263966420249,0.0,0.25889718532562256,-1.534464184437887,0.0002792995364870876,0.023863889276981354,0.7703971862792969,-0.0,-0.01477806270122528,0.8360152840614319,-0.0057860612869262695,-0.15698763728141785
295.0,288.0,0.5174,-0.3302,9.332,-0.0263,-0.0044,-0.1396,-1.7000628910460414,-0.04773690551519394,2.428060531616211,-1.7811890840530396,-4.483486941099335e-21,2.076326370239258,4.882663565665045,0.0,0.24999026954174042,-1.5344002882586878,0.00024180181208066642,0.030523335561156273,0.7703771591186523,-0.0,-0.015812871977686882,0.835942804813385,-0.0072844428941607475,-0.12348328530788422
295.0,288.0,0.5174,-0.3302,9.332,-0.0263,-0.0044,-0.1396,-1.7003704510130824,-0.052288394421339035,2.380371570587158,-1.781172513961792,-1.0827092812999054e-26,2.079220771789551,4.882599460869589,0.0,0.2527853846549988,-1.5344165007220667,0.00024982087779790163,0.03628392890095711,0.7704213261604309,-0.0,-0.009103990159928799,0.8358384370803833,-0.009425781667232513,-0.16315162181854248
291.0,271.0,0.2614,-0.4062,9.4134,-0.0382,-0.0834,-0.1513,-1.7006741962828578,-0.0578077957034111,2.3932764530181885,-1.7811487913131714,-2.6146159380827263e-32,2.087934970855713,4.882567542582311,0.0,0.25639808177948,-1.5343835989581507,0.0002534867380745709,0.013728277757763863,0.7703729867935181,-0.0,-0.007130535319447517,0.8358508348464966,-0.011188180185854435,-0.13549146056175232
291.0,271.0,0.2614,-0.4062,9.4134,-0.0382,-0.0834,-0.1513,-1.7009412250914515,-0.06282205879688263,2.3935766220092773,-1.7811487913131714,-4.7062158266762854e-36,2.0395636558532715,4.882587167411604,0.0,0.2450016289949417,-1.5343926588641565,0.0002367239649174735,0.025481056421995163,0.7704254984855652,-0.0,-0.0013331336667761207,0.8358227610588074,-0.012065071612596512,-0.1770135760307312
291.0,271.0,0.2614,-0.4062,9.4134,-0.0382,-0.0834,-0.1513,-1.701334138909811,-0.0680210292339325,2.3569295406341553,-1.7811765670776367,-1.1364530545674266e-41,2.0998587608337402,4.882599535375395,0.0,0.2452489137649536,-1.5343683401690882,0.00023911218158900738,0.02232784405350685,0.7704212665557861,-0.0,-0.0037277815863490105,0.8356783986091614,-0.013044709339737892,-0.1822885125875473
291.0,271.0,0.2614,-0.4062,9.4134,-0.0382,-0.0834,-0.1513,-1.7017256222166957,-0.07557108253240585,2.3433008193969727,-1.7811487913131714,-0.0,2.1007306575775146,4.882659497648039,0.0,0.2435905933380127,-1.5344045797931116,0.000220770642044954,0.03057439625263214,0.7703611254692078,-0.0,-0.008244378492236137,0.8356626629829407,-0.013806437142193317,-0.19721701741218567
291.0,271.0,0.2614,-0.4062,9.4134,-0.0382,-0.0834,-0.1513,-1.702177187005514,-0.08148710429668427,2.3183658123016357,-1.781084656715393,-0.0,2.0804319381713867,4.8826315579708,0.0,0.24250665307044983,-1.5343640486346644,0.00020217247947584838,0.02986043132841587,0.7704336047172546,-0.0,0.0018888066988438368,0.8355178833007812,-0.014856277965009212,-0.1858976185321808
291.0,271.0,0.2614,-0.4062,9.4134,-0.0382,-0.0834,-0.1513,-1.7026964626707972,-0.08386915922164917,2.3119378089904785,-1.78110933303833,-0.0,2.0879433155059814,4.882659452944555,0.0,0.2511695325374603,-1.5343964735614222,0.000192679202882573,0.021219562739133835,0.7703648209571838,-0.0,-0.013851506635546684,0.8354013562202454,-0.016022320836782455,-0.21739596128463745
291.0,271.0,0.2614,-0.4062,9.4134,-0.0382,-0.0834,-0.1513,-1.7032119236388148,-0.08685241639614105,2.3105392456054688,-1.7811167240142822,0.00031240188400261104,2.07181715965271,4.882619830756941,0.0,0.2427600771188736,-1.534412686024801,0.0002003599365707487,0.04381841421127319,0.7703570127487183,-0.0,-0.0141362976282835,0.8353582620620728,-0.016511095687747,-0.22927282750606537
291.0,271.0,0.2614,-0.4062,9.4134,-0.0382,-0.0834,-0.1513,-1.7038003406920375,-0.09148827940225601,2.3358027935028076,-1.7811248302459717,0.00025936655583791435,2.039761781692505,4.882631543069639,0.0,0.24778251349925995,-1.5343721548663538,0.00018395516963209957,0.038125425577163696,0.7703447341918945,-0.0,-0.011673716828227043,0.8352699875831604,-0.016569672152400017,-0.18958666920661926
291.0,271.0,0.2614,-0.4062,9.4134,-0.0382,-0.0834,-0.1513,-1.7043472729124964,-0.09934965521097183,2.3260416984558105,-1.7811487913131714,0.00017690431559458375,2.079716205596924,4.8826554147298715,0.0,0.24496617913246155,-1.534327809010641,0.0001944659452419728,0.02824920415878296,0.7703367471694946,-0.0,-0.014780543744564056,0.8352113962173462,-0.016461383551359177,-0.21035036444664001
291.0,271.0,0.2614,-0.4062,9.4134,-0.0382,-0.0834,-0.1513,-1.704942365685934,-0.10723298788070679,2.315734386444092,-1.781092882156372,0.000154171691974625,2.0542120933532715,4.882659482746877,-4.6870940195731237e-07,0.21791760623455048,-1.5343597571002405,0.00017819021013565361,0.055935803800821304,0.7703889608383179,-0.0,-0.013893329538404942,0.8350982069969177,-0.015604810789227486,-0.2136865258216858
291.0,271.0,0.2614,-0.4062,9.4134,-0.0382,-0.0834,-0.1513,-1.705604692498678,-0.11455639451742172,2.298936367034912,-1.7811052799224854,6.812952051404864e-05,2.064739942550659,4.8826475320156,-1.3046697056040557e-10,0.2398713231086731,-1.534355942402975,0.00018750967865344137,0.04355228692293167,0.7704011797904968,-0.0,-0.010477564297616482,0.8349733352661133,-0.015460288152098656,-0.253955602645874
291.0,271.0,0.2614,-0.4062,9.4134,-0.0382,-0.0834,-0.1513,-1.7062493763365687,-0.11759744584560394,2.2853190898895264,-1.7811133861541748,0.00014720884792041034,2.096832752227783,4.882663520961561,-3.6315958242992205e-14,0.2358435094356537,-1.5343683401690882,0.00020548305474221706,0.04671241343021393,0.7703729867935181,-0.0,-0.0018076214473694563,0.8348609805107117,-0.014008995145559311,-0.23515085875988007
291.0,271.0,0.2614,-0.4062,9.4134,-0.0382,-0.0834,-0.1513,-1.7067648373045863,-0.11927876621484756,2.2782154083251953,-1.7811486721038818,0.00019799267465714365,2.059030055999756,4.8826515255268,-1.5482062915958181e-16,0.22995713353157043,-1.5343721548663538,0.00019815083942376077,0.05972916632890701,0.7703849077224731,-0.0,-0.001783902756869793,0.8348178863525391,-0.013505084440112114,-0.2831360697746277
291.0,271.0,0.2614,-0.4062,9.4134,-0.0382,-0.0834,-0.1513,-1.7074972591795863,-0.12380547821521759,2.277892589569092,-1.7811288833618164,0.0017076194053515792,2.0085062980651855,4.882663520961561,-4.3094894992488055e-20,0.22023004293441772,-1.5343478361712855,0.0002094573574140668,0.0490543507039547,0.7704254984855652,-0.0,0.0007999760564416647,0.8347254395484924,-0.011598045006394386,-0.23371151089668274
291.0,271.0,0.2614,-0.4062,9.4134,-0.0382,-0.0834,-0.1513,-1.7082354031004847,-0.12588579952716827,2.239689588546753,-1.781060814857483,0.0019207741133868694,2.066713809967041,4.882667514472761,-1.1995620873182442e-23,0.22641198337078094,-1.534400765095846,0.00018811863265000284,0.04268897697329521,0.7703971266746521,-0.0,-0.004820863716304302,0.8346695303916931,-0.009370745159685612,-0.2464444488286972
291.0,271.0,0.2614,-0.4062,9.4134,-0.0382,-0.0834,-0.1513,-1.7090627155699671,-0.13092771172523499,2.261056423187256,-1.7811216115951538,0.001987688709050417,2.102886199951172,4.882643478899755,-3.339025189112983e-27,0.23241853713989258,-1.5343683401690882,0.0001986693823710084,0.04271138086915016,0.7703688740730286,-0.0,-0.011247844435274601,0.834649384021759,-0.007715951185673475,-0.24349528551101685
289.0,287.0,0.5916,-0.2058,9.1137,-0.0363,-0.1701,-0.1399,-1.709862848321432,-0.14377614855766296,2.278029203414917,-1.7810845375061035,0.002020340645685792,2.084496021270752,4.882627445250311,-9.294298110765232e-31,0.22328011691570282,-1.5343402067767542,0.00020571358618326485,0.04329654201865196,0.7704331874847412,-0.0,-0.0007450873963534832,0.8345931172370911,-0.005440128967165947,-0.26583021879196167
289.0,287.0,0.5916,-0.2058,9.1137,-0.0363,-0.1701,-0.1399,-1.7107168636717738,-0.1541549563407898,2.2540886402130127,-1.7810771465301514,0.0029716542921960354,2.0431525707244873,4.882655370026388,-2.5871023540415783e-34,0.23256364464759827,-1.5343201796161097,0.00019094967865385115,0.0594719760119915,0.7703729271888733,-0.0,-0.001776239718310535,0.8345938324928284,-0.004226969555020332,-0.27631571888923645
289.0,287.0,0.5916,-0.2058,9.1137,-0.0363,-0.1701,-0.1399,-1.7116433582701625,-0.16100218892097473,2.2176461219787598,-1.781029462814331,0.005222420208156109,2.080141305923462,4.882671686797895,-7.201294668421278e-38,0.2414121776819229,-1.5343359152423304,0.00022194976918399334,0.055531471967697144,0.7703931331634521,-0.0,0.0009694047039374709,0.8345699310302734,-0.0036192385014146566,-0.2442043274641037
289.0,287.0,0.5916,-0.2058,9.1137,-0.0363,-0.1701,-0.1399,-1.7126122913756312,-0.1625305414199829,2.2593932151794434,-1.7809736728668213,0.007908733561635017,2.0454721450805664,4.882663446455755,-2.0045574532166508e-41,0.22836554050445557,-1.5343926588641565,0.00019343741587363183,0.04304330796003342,0.7704212665557861,-0.0,-0.005809505935758352,0.8345536589622498,-0.003097433829680085,-0.21506209671497345
289.0,287.0,0.5916,-0.2058,9.1137,-0.0363,-0.1701,-0.1399,-1.7136131725706996,-0.1594409942626953,2.282486915588379,-1.7808855772018433,0.00976365152746439,2.095285177230835,4.882671686797895,-5.605193857299268e-45,0.21784132719039917,-1.5343683401690882,0.0001713378296699375,0.053928572684526443,0.7704373002052307,-0.0,-0.003578934818506241,0.8345296382904053,-0.002796252490952611,-0.2555920481681824
289.0,287.0,0.5916,-0.2058,9.1137,-0.0363,-0.1701,-0.1399,-1.71461882213735,-0.16594748198986053,2.2961206436157227,-1.7808618545532227,0.009467258118093014,2.0519814491271973,4.8826475320156,-0.0,0.21305382251739502,-1.5343640486346644,0.00018451514188200235,0.05176222324371338,0.7704090476036072,-0.0,0.0035325419157743454,0.8345296382904053,-0.0016928950790315866,-0.267718642950058
289.0,287.0,0.5916,-0.2058,9.1137,-0.0363,-0.1701,-0.1399,-1.71574129680776,-0.18066531419754028,2.2494049072265625,-1.7807934284210205,0.007432630751281977,2.0566041469573975,4.882639366179266,-0.0,0.2191442996263504,-1.5343440214740198,0.00016736530233174562,0.040698811411857605,0.7704176306724548,-0.0,-0.020175086334347725,0.8345296382904053,-0.000794618739746511,-0.25480353832244873
289.0,287.0,0.5916,-0.2058,9.1137,-0.0363,-0.1701,-0.1399,-1.716466566125387,-0.19483064115047455,2.1843361854553223,-1.7807209491729736,0.005677258130162954,2.0376720428466797,4.882647517114439,-2.1606858354061842e-05,0.2257358729839325,-1.5343807379352015,0.00015759567031636834,0.047027237713336945,0.7704373002052307,-0.0,-0.0016812062822282314,0.8345136642456055,-0.0005870301392860711,-0.2838088870048523
289.0,287.0,0.5916,-0.2058,9.1137,-0.0363,-0.1701,-0.1399,-1.7176438770689906,-0.2086300551891327,2.2147812843322754,-1.7807860374450684,0.0060683139599859715,2.050435781478882,4.882623377233305,-6.014348130634062e-09,0.22582930326461792,-1.5343640486346644,0.00014490746252704412,0.05278169363737106,0.7703648805618286,-0.0,-0.0045145852491259575,0.8345698714256287,-0.0005802599480375648,-0.26896780729293823
289.0,287.0,0.5916,-0.2058,9.1137,-0.0363,-0.1701,-0.1399,-1.7188855610289515,-0.20167364180088043,2.214494466781616,-1.7806462049484253,0.009061422199010849,2.0785884857177734,4.882687288313665,-1.674115924013564e-12,0.22090071439743042,-1.5343239943133753,0.00013411042164079845,0.039033979177474976,0.7703648209571838,-0.0,-0.010344310663640499,0.8345255255699158,-0.0005786564433947206,-0.34709763526916504
289.0,287.0,0.5916,-0.2058,9.1137,-0.0363,-0.1701,-0.1399,-1.7201429806151332,-0.20117639005184174,2.255857467651367,-1.7806100845336914,0.012746736407279968,2.056288242340088,4.882695886283674,-4.659962876626966e-16,0.22473174333572388,-1.5343721548663538,0.00012481077283155173,0.04391225799918175,0.7704052925109863,-0.0,-0.004739096388220787,0.8345097899436951,-0.0011907541193068027,-0.310156911611557
289.0,287.0,0.5916,-0.2058,9.1137,-0.0363,-0.1701,-0.1399,-1.7214647732176722,-0.2119552493095398,2.2469611167907715,-1.780493974685669,0.01310371607542038,2.0463385581970215,4.88269584158019,-1.2971176866748295e-19,0.23185132443904877,-1.5343883673297327,0.00011671732499962673,0.053101878613233566,0.7704213261604309,-0.0,-0.010600057430565357,0.8345378041267395,-0.00083628372522071,-0.3128123879432678
289.0,287.0,0.5916,-0.2058,9.1137,-0.0363,-0.1701,-0.1399,-1.7228223286070765,-0.2279176115989685,2.2646048069000244,-1.7804619073867798,0.011683032847940922,2.0833215713500977,4.882683533221044,-3.610574395796413e-23,0.22350682318210602,-1.5343597571002405,5.919288014410995e-05,0.03846335411071777,0.7703849077224731,-0.0,-0.008296564221382141,0.8345258831977844,-0.0002345484826946631,-0.2380305528640747
289.0,287.0,0.5916,-0.2058,9.1137,-0.0363,-0.1701,-0.1399,-1.7242642841734828,-0.2358318418264389,2.2244551181793213,-1.7803738117218018,0.010214152745902538,2.059767007827759,4.882679450302877,-1.0050168051201377e-26,0.22386455535888672,-1.5343640486346644,5.289838372846134e-05,0.045353762805461884,0.7704011797904968,-0.0,0.013177305459976196,0.8345296382904053,-0.00016762700397521257,-0.2680685520172119
289.0,287.0,0.5916,-0.2058,9.1137,-0.0363,-0.1701,-0.1399,-1.725706239739889,-0.2353009581565857,2.267674446105957,-1.7802990674972534,0.008972409181296825,2.035421371459961,4.882651212602415,-2.7975014533185458e-30,0.23384994268417358,-1.5343683401690882,4.861191337113269e-05,0.04010098800063133,0.7704135775566101,-0.0,-0.015477706678211689,0.8344894051551819,-0.00019618977967184037,-0.24981631338596344
290.0,315.0,1.1091,-0.262,9.4325,-0.0406,-0.2572,-0.135,-1.727095743218893,-0.2481023222208023,2.2354183197021484,-1.7803350687026978,0.006168387830257416,2.0741500854492188,4.882691758662023,-7.786948451007008e-34,0.22548148036003113,-1.5343597571002405,4.4968277506995946e-05,0.040261268615722656,0.7704094648361206,-0.0,-0.004189272876828909,0.8344975709915161,8.359065395779908e-05,-0.27568620443344116
290.0,315.0,1.1091,-0.262,9.4325,-0.0406,-0.2572,-0.135,-1.7285729847350062,-0.2580193877220154,2.2292191982269287,-1.7802668809890747,0.0033275631722062826,2.0261175632476807,4.882651212602415,-2.167525325709067e-37,0.23443034291267395,-1.5343478361712855,-5.8665216783992946e-05,0.0438552051782608,0.7704372406005859,-0.0,-0.015068475157022476,0.8345097899436951,6.755768117727712e-05,-0.22251147031784058
290.0,315.0,1.1091,-0.262,9.4325,-0.0406,-0.2572,-0.135,-1.7296067676939906,-0.2581559121608734,2.258274793624878,-1.7802512645721436,0.0023567171301692724,2.019063949584961,4.882655370026388,-9.240498385389282e-40,0.2293950319290161,-1.5343521277057093,-5.8749839809024706e-05,0.04401547461748123,0.7704373598098755,-0.0,-0.007543133571743965,0.8345378041267395,5.8737547078635544e-05,-0.23068293929100037
290.0,315.0,1.1091,-0.262,9.4325,-0.0406,-0.2572,-0.135,-1.7311002216734828,-0.2553573548793793,2.266563892364502,-1.7801986932754517,0.002741246484220028,2.0410072803497314,4.882679465204038,-2.5783891743576634e-43,0.21570447087287903,-1.5343521277057093,-4.9151603889185935e-05,0.04563816264271736,0.7703971266746521,-0.0,0.008026343770325184,0.83453369140625,5.849007720826194e-06,-0.26345294713974
290.0,315.0,1.1091,-0.262,9.4325,-0.0406,-0.2572,-0.135,-1.7327114544310511,-0.2557363510131836,2.168447971343994,-1.7802069187164307,0.002832614816725254,2.0263047218322754,4.882719757943907,-0.0,0.23277397453784943,-1.534384552632467,-4.223027644911781e-05,0.05636114999651909,0.7704012393951416,-0.0,-0.005650953855365515,0.8344975709915161,1.4124664111936358e-11,-0.3190784156322479
290.0,315.0,1.1091,-0.262,9.4325,-0.0406,-0.2572,-0.135,-1.7341844044127406,-0.2632558047771454,2.2364871501922607,-1.7801954746246338,0.0016988554270938039,2.0390546321868896,4.882631528168478,-0.0,0.2416905164718628,-1.5343640486346644,-3.701812602230348e-05,0.04546031355857849,0.7703648209571838,-0.0,-0.007113741710782051,0.834553599357605,3.4109407980999836e-17,-0.249283567070961
290.0,315.0,1.1091,-0.262,9.4325,-0.0406,-0.2572,-0.135,-1.7357903919615687,-0.27035051584243774,2.2510862350463867,-1.780191421508789,0.00038040761137381196,2.0130693912506104,4.882663520961561,-0.0,0.21989881992340088,-1.5343926588641565,-3.29514077748172e-05,0.048294682055711746,0.770441472530365,-0.0,-0.004525062162429094,0.8345296382904053,8.237022408319824e-23,-0.3008301258087158
290.0,315.0,1.1091,-0.262,9.4325,-0.0406,-0.2572,-0.135,-1.7373691997923792,-0.2758132517337799,2.225706100463867,-1.7801872491836548,0.0001021196148940362,2.0957324504852295,4.882631513267317,-0.0,0.23069065809249878,-1.5343807379352015,-2.9689876100746915e-05,0.04744349420070648,0.7703365683555603,-0.0,-0.00929991900920868,0.83453369140625,1.989144020728129e-28,-0.25272247195243835
290.0,315.0,1.1091,-0.262,9.4325,-0.0406,-0.2572,-0.135,-1.7390028438963832,-0.2785373032093048,2.226259708404541,-1.7802233695983887,0.00015229632845148444,2.0155885219573975,4.882624003082075,-0.0,0.23410627245903015,-1.5343883673297327,-2.701594348764047e-05,0.0342181958258152,0.7703688740730286,-0.0,-0.0036413236521184444,0.8344813585281372,4.80354838039485e-34,-0.2576656937599182
290.0,315.0,1.1091,-0.262,9.4325,-0.0406,-0.2572,-0.135,-1.7406445942320765,-0.27873626351356506,2.2156472206115723,-1.7801748514175415,0.00019532818987499923,2.0147042274475098,4.8826514957244775,-0.0,0.22313037514686584,-1.534351650868551,-2.4783854314591736e-05,0.05391601845622063,0.7703807950019836,-0.0,-0.00463415402919054,0.8345417380332947,1.1600004739619409e-39,-0.24423056840896606
290.0,315.0,1.1091,-0.262,9.4325,-0.0406,-0.2572,-0.135,-1.7423116169371546,-0.2827329635620117,2.2475745677948,-1.7801591157913208,0.001995248254388571,2.0593905448913574,4.88271144309596,-0.0,0.2286718487739563,-1.5343478361712855,-3.0142773539409973e-06,0.05130552500486374,0.7703729867935181,-0.0,-0.004557966720312834,0.8345416784286499,2.802596928649634e-45,-0.2959517538547516
290.0,315.0,1.1091,-0.262,9.4325,-0.0406,-0.2572,-0.135,-1.7440043888487757,-0.2846701145172119,2.2487473487854004,-1.7801270484924316,0.00411969656124711,2.049046277999878,4.882651212602415,-0.0,0.23602619767189026,-1.5343640486346644,-8.390353412046636e-10,0.047208718955516815,0.7704331874847412,-0.0,0.0023254994302988052,0.8345539569854736,0.0,-0.2811034023761749
290.0,315.0,1.1091,-0.262,9.4325,-0.0406,-0.2572,-0.135,-1.7457629642882289,-0.28216904401779175,2.251929759979248,-1.7801311016082764,0.005727135110646486,2.051619291305542,4.882675769716062,-0.0,0.22386810183525085,-1.5343721548663538,-2.3354853207618875e-13,0.04326871410012245,0.7704373002052307,-0.0,0.002241577487438917,0.83453369140625,0.0,-0.23003774881362915
290.0,315.0,1.1091,-0.262,9.4325,-0.0406,-0.2572,-0.135,-1.746965070764059,-0.28672391176223755,2.2554497718811035,-1.780135154724121,0.006057027727365494,2.044672727584839,4.882663446455755,-0.0,0.22117482125759125,-1.534339729939596,-9.956540893333687e-16,0.0371713787317276,0.7703648209571838,-0.0,-0.0047069392167031765,0.8345658183097839,0.0,-0.254093736410141
290.0,315.0,1.1091,-0.262,9.4325,-0.0406,-0.2572,-0.135,-1.748819967309469,-0.2995245158672333,2.2901997566223145,-1.7800720930099487,0.005158832762390375,2.0278100967407227,4.882667529373922,-0.0,0.22525441646575928,-1.5343640486346644,-2.77143969103748e-19,0.04315967112779617,0.7704250812530518,-0.0,0.0022732652723789215,0.8345658183097839,0.0,-0.2597094774246216
290.0,315.0,1.1091,-0.262,9.4325,-0.0406,-0.2572,-0.135,-1.7506500683226527,-0.2992747724056244,2.2871227264404297,-1.7800120115280151,0.004716908093541861,2.031093120574951,4.882643061667242,-0.0,0.23629125952720642,-1.5343478361712855,-7.714403951877076e-23,0.04405929893255234,0.7704250812530518,-0.0,0.006095352582633495,0.8345255851745605,0.0,-0.24333950877189636
349.0,600.0,1.657,-0.3135,9.4558,-0.0521,-0.3187,-0.1382,-1.7525292835631312,-0.3052031397819519,2.264376163482666,-1.7799872159957886,0.005268472246825695,1.9896459579467773,4.882683533221044,-0.0,0.23937058448791504,-1.5343926588641565,-2.1473326937524548e-26,0.03967522457242012,0.7703729867935181,-0.0,-0.002655371557921171,0.8345177173614502,0.0,-0.2656923830509186
349.0,600.0,1.657,-0.3135,9.4558,-0.0521,-0.3187,-0.1382,-1.7544504604735316,-0.31608691811561584,2.2893271446228027,-1.7799954414367676,0.005626694764941931,2.0139081478118896,4.882663431554594,-0.0,0.24114033579826355,-1.5343802610980433,-5.9771792538182414e-30,0.05933833867311478,0.7704373002052307,-0.0,-0.013071502558887005,0.8345177173614502,0.0,-0.2592373788356781
349.0,600.0,1.657,-0.3135,9.4558,-0.0521,-0.3187,-0.1382,-1.756336351434225,-0.31046438217163086,2.309706449508667,-1.7799158096313477,0.00667753117159009,2.0679314136505127,4.8827033070619485,-0.0,0.2355772852897644,-1.5343602339373987,-1.6637697248989108e-33,0.0546770915389061,0.7704094052314758,-0.0,0.0042031509801745415,0.8345056772232056,0.0,-0.31983810663223267
349.0,600.0,1.657,-0.3135,9.4558,-0.0521,-0.3187,-0.1382,-1.758291860620016,-0.314509779214859,2.272501230239868,-1.7798960208892822,0.007338221184909344,2.1170907020568848,4.882675337582388,-0.0,0.23578962683677673,-1.5343201796161097,-4.631164523004591e-37,0.045132964849472046,0.7704135179519653,-0.0,0.0007723338203504682,0.8345056772232056,-0.000652285641990602,-0.22307422757148743
349.0,600.0,1.657,-0.3135,9.4558,-0.0521,-0.3187,-0.1382,-1.7601696453490199,-0.3238396942615509,2.32580304145813,-1.779905080795288,0.005460209678858519,2.038092613220215,4.882695483952322,-0.0,0.2181110829114914,-1.5343764464007776,-1.289096496286329e-40,0.051022615283727646,0.7704212665557861,-0.0,-0.0008596275001764297,0.8344775438308716,-0.0006391527131199837,-0.27794355154037476
349.0,600.0,1.657,-0.3135,9.4558,-0.0521,-0.3187,-0.1382,-1.7620793781676234,-0.32180386781692505,2.2921628952026367,-1.7798926830291748,0.003907152451574802,2.064140796661377,4.882707389980116,-0.0,0.23918691277503967,-1.5343321005450647,-3.6433760072445244e-44,0.042491622269153595,0.7704135775566101,-0.0,-0.005728987045586109,0.834530234336853,-0.0007750490913167596,-0.2858101427555084
349.0,600.0,1.657,-0.3135,9.4558,-0.0521,-0.3187,-0.1382,-1.7639943561949671,-0.3226897716522217,2.315608501434326,-1.7798006534576416,0.004836574662476778,2.032938003540039,4.882695454149999,0.00012906007759738714,0.24011492729187012,-1.5343359152423304,-0.0,0.059399768710136414,0.7703771591186523,-0.0,0.0001488017733208835,0.8344815969467163,-0.001232636976055801,-0.2703782916069031
349.0,600.0,1.657,-0.3135,9.4558,-0.0521,-0.3187,-0.1382,-1.7658492527403773,-0.31977519392967224,2.317399501800537,-1.7797757387161255,0.0049940841272473335,2.0894081592559814,4.88267536738471,0.00011925183207495138,0.2431246042251587,-1.5343239943133753,-0.0,0.049359001219272614,0.7703890204429626,-0.0,0.00023288140073418617,0.8344012498855591,-0.0023975539952516556,-0.2782801389694214
349.0,600.0,1.657,-0.3135,9.4558,-0.0521,-0.3187,-0.1382,-1.767113824883932,-0.31969887018203735,2.3600587844848633,-1.7797964811325073,0.004757929127663374,2.093257427215576,4.882663148432531,0.00013003768981434405,0.24398846924304962,-1.5343282858477991,-0.0,0.06015230342745781,0.7704331874847412,-0.0,0.006955804768949747,0.8344535231590271,-0.002561287023127079,-0.33215653896331787
349.0,600.0,1.657,-0.3135,9.4558,-0.0521,-0.3187,-0.1382,-1.7689563236632289,-0.3178035318851471,2.340813636779785,-1.7797322273254395,0.005900619551539421,2.1000962257385254,4.88272716382102,0.00013670870976056904,0.2504737675189972,-1.5343282858477991,-0.0,0.04776609688997269,0.7704254388809204,-0.0,-0.0041890013962984085,0.8344377279281616,-0.0023885867558419704,-0.3076273798942566
349.0,600.0,1.657,-0.3135,9.4558,-0.0521,-0.3187,-0.1382,-1.7708140812315882,-0.314594030380249,2.4101955890655518,-1.7796763181686401,0.007302225101739168,2.1248512268066406,4.882707360177793,0.00013774525723420084,0.24809351563453674,-1.5343321005450647,-0.0,0.054727762937545776,0.7704213261604309,-0.0,-0.004149170592427254,0.8344014286994934,-0.0023979402612894773,-0.3455114960670471
349.0,600.0,1.657,-0.3135,9.4558,-0.0521,-0.3187,-0.1382,-1.772632738152975,-0.31427469849586487,2.3881094455718994,-1.7796204090118408,0.009428096003830433,2.0871834754943848,4.882659035712042,0.0002132795489160344,0.24967056512832642,-1.5343721548663538,-0.0,0.06461164355278015,0.7704135179519653,-0.0,0.0009921714663505554,0.8344095945358276,-0.00207657553255558,-0.3063915967941284
349.0,600.0,1.657,-0.3135,9.4558,-0.0521,-0.3187,-0.1382,-1.7744904957213343,-0.3163692057132721,2.3392930030822754,-1.7795603275299072,0.012399081140756607,2.1624348163604736,4.882683115988531,0.0002856010105460882,0.25166642665863037,-1.5343602339373987,-0.0,0.047694429755210876,0.7703651785850525,-0.0,0.0054490650072693825,0.8343815803527832,-0.001536526600830257,-0.2725341320037842
349.0,600.0,1.657,-0.3135,9.4558,-0.0521,-0.3187,-0.1382,-1.7763892612852992,-0.3085770606994629,2.432774543762207,-1.7794969081878662,0.0159403458237648,2.1443331241607666,4.88274313786582,0.0009159984183497727,0.24726387858390808,-1.5343201796161097,-0.0,0.05899564176797867,0.7703894376754761,-0.0,-0.001643477939069271,0.8343734741210938,-0.0014986457535997033,-0.330864816904068
349.0,600.0,1.657,-0.3135,9.4558,-0.0521,-0.3187,-0.1382,-1.778276105920309,-0.3092299997806549,2.4346563816070557,-1.7794057130813599,0.02054116316139698,2.1236414909362793,4.882699104934492,0.00172354094684124,0.24784666299819946,-1.5343683401690882,-0.0,0.057428911328315735,0.7704331874847412,-0.0,-0.0037831130903214216,0.8343615531921387,-0.001743235974572599,-0.2504129707813263
349.0,600.0,1.657,-0.3135,9.4558,-0.0521,-0.3187,-0.1382,-1.780182500878805,-0.31373536586761475,2.4534342288970947,-1.7792214155197144,0.02573043294250965,2.1999058723449707,4.8827953962381265,0.003386388998478651,0.25597214698791504,-1.5342963377581995,-0.0,0.038382239639759064,0.7703406810760498,-0.0,0.00035640248097479343,0.8343734741210938,-0.0015041099395602942,-0.29351744055747986
837.0,885.0,1.8347,-0.5707,9.9476,-0.0307,-0.2385,-0.1407,-1.7820736370482386,-0.30773040652275085,2.468207836151123,-1.7790546417236328,0.030200142413377762,2.176826000213623,4.882851007371702,0.011240080930292606,0.25458475947380066,-1.534356419240133,-0.0,0.04975755140185356,0.7703529596328735,-0.0,-0.0031311383936554193,0.8344138264656067,-0.0016969084972515702,-0.30606529116630554
837.0,885.0,1.8347,-0.5707,9.9476,-0.0307,-0.2385,-0.1407,-1.7839838467040003,-0.31403371691703796,2.482459545135498,-1.7788784503936768,0.03580670431256294,2.1955859661102295,4.882874744921484,0.020998142659664154,0.2766663134098053,-1.5343206564532679,-0.0,0.04590962082147598,0.7703971862792969,-0.0,0.0019648803863674402,0.8343774676322937,-0.002484175842255354,-0.32041916251182556
837.0,885.0,1.8347,-0.5707,9.9476,-0.0307,-0.2385,-0.1407,-1.7853104076781214,-0.3228691816329956,2.4803147315979004,-1.7786701917648315,0.03748161718249321,2.2218470573425293,4.883002686291494,0.019258838146924973,0.2802252173423767,-1.5342963377581995,0.00015669081767555326,0.06080903112888336,0.7704176306724548,-0.0,-0.0009152011480182409,0.8342846035957336,-0.0033165342174470425,-0.27557888627052307
837.0,885.0,1.8347,-0.5707,9.9476,-0.0307,-0.2385,-0.1407,-1.7872773609557093,-0.3175298869609833,2.501488447189331,-1.7784556150436401,0.044354770332574844,2.240246057510376,4.8830741224582574,0.01356742437928915,0.28728190064430237,-1.534332577382223,0.0001741163869155571,0.06110836938023567,0.7703652381896973,-0.0,0.0005720865447074175,0.8342933058738708,-0.004422327969223261,-0.31432434916496277
837.0,885.0,1.8347,-0.5707,9.9476,-0.0307,-0.2385,-0.1407,-1.7891718349852503,-0.3136206865310669,2.519256353378296,-1.7781801223754883,0.04923855513334274,2.211041212081909,4.88310572782115,0.010876800864934921,0.2666907012462616,-1.534304443989889,0.0002110504574375227,0.058974169194698334,0.7703569531440735,-0.0,0.0033511400688439608,0.8342452645301819,-0.005610742140561342,-0.33069542050361633
837.0,885.0,1.8347,-0.5707,9.9476,-0.0307,-0.2385,-0.1407,-1.791074892083639,-0.3206605017185211,2.481192111968994,-1.7778732776641846,0.05263514444231987,2.2456960678100586,4.883169624000349,0.004183643963187933,0.26363277435302734,-1.534332577382223,0.000439177209045738,0.04156120866537094,0.7704012393951416,-0.0,0.0037434145342558622,0.8342618346214294,-0.006256201304495335,-0.3110746443271637
837.0,885.0,1.8347,-0.5707,9.9476,-0.0307,-0.2385,-0.1407,-1.7929779491820277,-0.313989520072937,2.549459934234619,-1.7775530815124512,0.05735616385936737,2.2352073192596436,4.88316963890151,0.0013677080860361457,0.27220818400382996,-1.53428823152651,0.0004070571740157902,0.0634050965309143,0.7704175710678101,-0.0,-0.012187659740447998,0.8341814279556274,-0.006471200846135616,-0.2505127787590027
837.0,885.0,1.8347,-0.5707,9.9476,-0.0307,-0.2385,-0.1407,-1.7948161564269007,-0.311007022857666,2.528571128845215,-1.7771098613739014,0.06555745750665665,2.3051414489746094,4.883129122644224,0.0009321703109890223,0.2675798535346985,-1.5342438856707972,0.00033359494409523904,0.04256567358970642,0.7703812122344971,-0.0,-0.0071454537101089954,0.834153413772583,-0.006852907594293356,-0.293968141078949
837.0,885.0,1.8347,-0.5707,9.9476,-0.0307,-0.2385,-0.1407,-1.7966472111144007,-0.30845269560813904,2.5862560272216797,-1.7766952514648438,0.07433083653450012,2.296488046646118,4.883149239211836,0.0006756021175533533,0.2675628960132599,-1.5343282858477991,0.0003283052647020668,0.06212717294692993,0.7704172134399414,-0.0,-0.009466700255870819,0.8341255187988281,-0.007128526456654072,-0.3031938970088959
837.0,885.0,1.8347,-0.5707,9.9476,-0.0307,-0.2385,-0.1407,-1.798424860040182,-0.303813636302948,2.5925512313842773,-1.7762402296066284,0.08279380947351456,2.3127639293670654,4.883177476912298,0.0005270835827104747,0.2787473201751709,-1.5343244711505335,0.00028391898376867175,0.05116117745637894,0.7703569531440735,-0.0,-0.012030251324176788,0.8340610265731812,-0.0074995532631874084,-0.26322925090789795
837.0,885.0,1.8347,-0.5707,9.9476,-0.0307,-0.2385,-0.1407,-1.800239702264303,-0.3010726869106293,2.603175163269043,-1.7756778001785278,0.0893334373831749,2.3267476558685303,4.883189368038931,0.0004321241576690227,0.28551679849624634,-1.5342844168292444,0.00028518575709313154,0.051681116223335266,0.7704538702964783,-0.0,0.005293858237564564,0.8340009450912476,-0.006755138747394085,-0.31130778789520264
837.0,885.0,1.8347,-0.5707,9.9476,-0.0307,-0.2385,-0.1407,-1.802014490167135,-0.29481303691864014,2.6293833255767822,-1.7751160860061646,0.09538014978170395,2.283853054046631,4.883140954166212,0.0003661689697764814,0.27611637115478516,-1.5342844168292444,0.0002554045640863478,0.05088753253221512,0.7704620361328125,-0.0,-0.010894611477851868,0.8340415358543396,-0.006515304557979107,-0.30366599559783936
837.0,885.0,1.8347,-0.5707,9.9476,-0.0307,-0.2385,-0.1407,-1.8037735424437464,-0.2951897084712982,2.6238515377044678,-1.774504542350769,0.09897195547819138,2.3394737243652344,4.883133205562391,0.0003184204106219113,0.2750941216945648,-1.5343483130084437,0.00019958634220529348,0.05179387331008911,0.7703729271888733,-0.0,-0.00654199905693531,0.8339977264404297,-0.005900437943637371,-0.31476300954818726
837.0,885.0,1.8347,-0.5707,9.9476,-0.0307,-0.2385,-0.1407,-1.8049265346922816,-0.2971077561378479,2.6058430671691895,-1.7741056680679321,0.10414349287748337,2.3939261436462402,4.88320583382205,0.000206737793632783,0.28365424275398254,-1.5343001524554651,0.00021036485850345343,0.04064110666513443,0.7703489065170288,-0.0,-0.013598941266536713,0.8339415788650513,-0.005686016287654638,-0.3282136917114258
837.0,885.0,1.8347,-0.5707,9.9476,-0.0307,-0.2385,-0.1407,-1.8066774807372035,-0.28778812289237976,2.719951629638672,-1.773419737815857,0.1162160187959671,2.343221664428711,4.883273842721739,0.0007359451265074313,0.2982739806175232,-1.5342844168292444,0.00019597446953412145,0.04747217893600464,0.7703894376754761,-0.0,-0.014752525836229324,0.8338847756385803,-0.005939031485468149,-0.3155384063720703
881.0,870.0,2.1153,-0.4726,10.3017,-0.0451,-0.0603,-0.1393,-1.8084398708739222,-0.28115665912628174,2.682007312774658,-1.7726737260818481,0.12669909000396729,2.383680820465088,4.883189308434286,0.0019291567150503397,0.28742295503616333,-1.534304443989889,0.00020592451619450003,0.059068791568279266,0.7703771591186523,-0.0,-0.005077272187918425,0.8338287472724915,-0.007172836922109127,-0.294420063495636
881.0,870.0,2.1153,-0.4726,10.3017,-0.0451,-0.0603,-0.1393,-1.8101583919920863,-0.28565627336502075,2.650752305984497,-1.7718676328659058,0.1371651589870453,2.3921663761138916,4.883253353625097,0.002308356110006571,0.29265597462654114,-1.5343082586871546,0.0001877516187960282,0.05881284549832344,0.7704373598098755,-0.0,-0.011009803973138332,0.833796501159668,-0.006262979935854673,-0.27439430356025696
881.0,870.0,2.1153,-0.4726,10.3017,-0.0451,-0.0603,-0.1393,-1.8118640385069789,-0.283610075712204,2.6476664543151855,-1.7710137367248535,0.14783398807048798,2.4178359508514404,4.883269327669897,0.005098645109683275,0.2903304398059845,-1.5343125502215784,0.00019690596673171967,0.04329835623502731,0.7704135179519653,-0.0,-0.0006989117246121168,0.8337809443473816,-0.0058994903229177,-0.3079523742198944
881.0,870.0,2.1153,-0.4726,10.3017,-0.0451,-0.0603,-0.1393,-1.8136183224120082,-0.2767289876937866,2.704132080078125,-1.7700804471969604,0.1612340658903122,2.462193489074707,4.883297267347135,0.009186056442558765,0.28177085518836975,-1.5342801252948206,0.0001820232137106359,0.033523574471473694,0.7703849077224731,-0.0,-0.017578013241291046,0.8337850570678711,-0.005400574300438166,-0.3266136646270752
881.0,870.0,2.1153,-0.4726,10.3017,-0.0451,-0.0603,-0.1393,-1.8153368435301722,-0.28403252363204956,2.678579330444336,-1.7691826820373535,0.16467413306236267,2.3844730854034424,4.883340853243627,0.0064063058234751225,0.2984428107738495,-1.5342562834369105,0.00016919006884563714,0.05220703035593033,0.7704094648361206,-0.0,-0.01990111917257309,0.8337492346763611,-0.005855224560946226,-0.2838422358036041
881.0,870.0,2.1153,-0.4726,10.3017,-0.0451,-0.0603,-0.1393,-1.817120214501852,-0.289552241563797,2.765188217163086,-1.7681206464767456,0.17714326083660126,2.4117798805236816,4.883348929672994,0.0025784200988709927,0.30520614981651306,-1.534316364918844,0.00017374403250869364,0.06257250159978867,0.7704172134399414,-0.0,-0.005516545381397009,0.8337172269821167,-0.0064830719493329525,-0.3260493278503418
881.0,870.0,2.1153,-0.4726,10.3017,-0.0451,-0.0603,-0.1393,-1.8188630543150843,-0.28160038590431213,2.7474918365478516,-1.767011046409607,0.1890634000301361,2.418488025665283,4.883405107050695,0.0013897147728130221,0.30295801162719727,-1.5343087355243128,0.00016045411757659167,0.04278424009680748,0.7703812122344971,-0.0,-0.006271865218877792,0.8336410522460938,-0.007084230426698923,-0.2836225628852844
881.0,870.0,2.1153,-0.4726,10.3017,-0.0451,-0.0603,-0.1393,-1.8204881153502406,-0.2775270938873291,2.6947438716888428,-1.7658462524414062,0.2009231597185135,2.432166814804077,4.883401396661558,0.0011380207724869251,0.2902970016002655,-1.5342758337603968,0.0001449494156986475,0.05453529208898544,0.7703889608383179,-0.0,-0.01430966705083847,0.8336210250854492,-0.007646248675882816,-0.3117677867412567
881.0,870.0,2.1153,-0.4726,10.3017,-0.0451,-0.0603,-0.1393,-1.8216220341124476,-0.2830556631088257,2.700404405593872,-1.765052318572998,0.20666061341762543,2.5120911598205566,4.883332553296842,0.000932414666749537,0.2849522829055786,-1.534304443989889,0.00013617552758660167,0.04592324048280716,0.770348846912384,-0.0,-0.012888483703136444,0.8336049318313599,-0.007708724122494459,-0.2528804540634155
881.0,870.0,2.1153,-0.4726,10.3017,-0.0451,-0.0603,-0.1393,-1.8232599697508753,-0.281230092048645,2.7899820804595947,-1.7637556791305542,0.20736561715602875,2.445335626602173,4.8833564696605585,0.0007076445617713034,0.29534438252449036,-1.5342677275287073,0.00014979438856244087,0.03699243813753128,0.7703894376754761,-0.0,-0.021685712039470673,0.8335568904876709,-0.0072000822983682156,-0.2675044536590576
881.0,870.0,2.1153,-0.4726,10.3017,-0.0451,-0.0603,-0.1393,-1.8249389133849085,-0.27400773763656616,2.749866008758545,-1.7624671459197998,0.22066716849803925,2.451457977294922,4.883428546577253,0.0024024758022278547,0.2982778549194336,-1.5343006292926233,0.00013829786621499807,0.04796288534998894,0.770357072353363,-0.0,-0.020627489313483238,0.8335088491439819,-0.006538752466440201,-0.3212324380874634
881.0,870.0,2.1153,-0.4726,10.3017,-0.0451,-0.0603,-0.1393,-1.8265611133971156,-0.2731969952583313,2.734131336212158,-1.761146903038025,0.23467624187469482,2.5461320877075195,4.8833887604768655,0.004191066138446331,0.29762381315231323,-1.53428823152651,0.0001497865014243871,0.04363896697759628,0.7703529596328735,-0.0,-0.014547204598784447,0.8334407210350037,-0.007735821418464184,-0.32316380739212036
881.0,870.0,2.1153,-0.4726,10.3017,-0.0451,-0.0603,-0.1393,-1.828196188012594,-0.26809364557266235,2.728053092956543,-1.7596702575683594,0.2458064705133438,2.517883777618408,4.883404764323988,0.0027175177820026875,0.2921222448348999,-1.5343049208270472,0.00018897264089901,0.046271782368421555,0.7703251242637634,-0.0,-0.02124714106321335,0.8334206938743591,-0.009314673021435738,-0.35501593351364136
881.0,870.0,2.1153,-0.4726,10.3017,-0.0451,-0.0603,-0.1393,-1.8297130070128382,-0.26714885234832764,2.7892041206359863,-1.758169174194336,0.24898561835289001,2.520622730255127,4.883412244706907,0.001699986751191318,0.29291999340057373,-1.5342758337603968,0.00022797113342676312,0.048952195793390274,0.7703328132629395,-0.0,-0.01737266033887863,0.8333568572998047,-0.010435881093144417,-0.33286038041114807
