ramyac6/ROB537/final_project/csv/test/bad/bad_130.csv
tof_0,tof_1,accelx,accely,accelz,gyrox,gyroy,gyroz,shoulder_lift_joint_position,shoulder_lift_joint_velocity,shoulder_lift_joint_effort,elbow_joint_position,elbow_joint_velocity,elbow_joint_effort,wrist_1_joint_position,wrist_1_joint_velocity,wrist_1_joint_effort,wrist_2_joint_position,wrist_2_joint_velocity,wrist_2_joint_effort,wrist_3_joint_position,wrist_3_joint_velocity,wrist_3_joint_effort,shoulder_pan_joint_position,shoulder_pan_joint_velocity,shoulder_pan_joint_effort
408.0,412.0,0.9846,0.1735,9.6,-0.0313,0.0206,-0.1098,-1.4571309325150033,0.0,1.6795107126235962,-1.8950238227844238,-0.0,2.1384999752044678,4.69681088506665,-0.0,0.27847719192504883,-1.5968063513385218,0.0,-0.010495498776435852,0.7980087399482727,0.0,0.005888180807232857,0.7225596904754639,0.0,-0.04681326821446419
408.0,412.0,0.9846,0.1735,9.6,-0.0313,0.0206,-0.1098,-1.4570987683585663,0.0,1.654227375984192,-1.8950352668762207,-0.0,2.2255992889404297,4.6968065935322265,-0.0,0.294327974319458,-1.5967453161822718,0.0,-0.0035413571167737246,0.7979767322540283,0.0,0.006030659191310406,0.7225638031959534,0.0,-0.024623947218060493
408.0,412.0,0.9846,0.1735,9.6,-0.0313,0.0206,-0.1098,-1.4571432408741494,0.0,1.6853598356246948,-1.8950352668762207,-0.0,2.1820437908172607,4.696859045619629,-0.0,0.2866821885108948,-1.596757713948385,0.0,-0.010548978112637997,0.7979726791381836,0.0,0.0003197088371962309,0.7225275635719299,0.0,-0.003377515822649002
408.0,412.0,0.9846,0.1735,9.6,-0.0313,0.0206,-0.1098,-1.4570746284774323,0.0,1.647003173828125,-1.8949793577194214,-0.0,2.151745080947876,4.696802778834961,-0.0,0.3055705428123474,-1.5967863241778772,0.0,-0.007417046464979649,0.7979447841644287,0.0,-0.006483858916908503,0.7225398421287537,0.0,0.03501627966761589
408.0,412.0,0.9846,0.1735,9.6,-0.0313,0.0206,-0.1098,-1.4571069863489647,0.0,1.6571253538131714,-1.895003318786621,-0.0,2.139288902282715,4.696859045619629,-0.0,0.28566983342170715,-1.5967376867877405,0.0,-0.01900520734488964,0.7979889512062073,0.0,-2.4032779037952423e-06,0.7225476503372192,0.0,-0.03254183381795883
408.0,412.0,0.9846,0.1735,9.6,-0.0313,0.0206,-0.1098,-1.4570582521012803,0.0,1.6993112564086914,-1.8950114250183105,-0.0,2.157297372817993,4.696879072780273,-0.0,0.28267571330070496,-1.5967825094806116,0.0,-0.005693469196557999,0.7979812026023865,0.0,-0.015318630263209343,0.7224993705749512,0.0,-0.03342808783054352
408.0,412.0,0.9846,0.1735,9.6,-0.0313,0.0206,-0.1098,-1.457130954866745,0.0,1.6963186264038086,-1.8950114250183105,-0.0,2.1764447689056396,4.696826143855713,-0.0,0.29387733340263367,-1.5967538992511194,0.0,-0.006085783243179321,0.7979648113250732,0.0,-0.013644653372466564,0.7225398421287537,0.0,-0.02808242477476597
408.0,412.0,0.9846,0.1735,9.6,-0.0313,0.0206,-0.1098,-1.4570786666921158,0.0,1.6734994649887085,-1.895003318786621,-0.0,2.201763153076172,4.6968628603168945,-0.0,0.2974894344806671,-1.596701447163717,0.0,-0.019303375855088234,0.7980168461799622,0.0,0.006133269052952528,0.722559928894043,0.0,-0.006907248869538307
419.0,420.0,1.1647,0.2106,9.2536,-0.0394,0.0243,-0.1151,-1.4571108233979722,0.0,1.7052409648895264,-1.895064115524292,-0.0,2.1498360633850098,4.6968347269245605,-0.0,0.29511383175849915,-1.596705738698141,0.0,-0.009883354417979717,0.7980046272277832,0.0,-0.0032163946889340878,0.7225316762924194,0.0,0.01348382793366909
419.0,420.0,1.1647,0.2106,9.2536,-0.0394,0.0243,-0.1151,-1.4571190190366288,0.0,1.6577519178390503,-1.8950433731079102,-0.0,2.1626229286193848,4.696802778834961,-0.0,0.29797816276550293,-1.5967376867877405,0.0,-0.004125995561480522,0.7979645729064941,0.0,0.004010781645774841,0.7224791646003723,0.0,-0.037337422370910645
419.0,420.0,1.1647,0.2106,9.2536,-0.0394,0.0243,-0.1151,-1.4571350303343316,0.0,1.690833330154419,-1.8950320482254028,-0.0,2.241608142852783,4.696822329158447,-0.0,0.3058649003505707,-1.5967019240008753,0.0,-0.010712363757193089,0.7979567050933838,0.0,-0.0095225153490901,0.7225398421287537,0.0,-0.01179447304457426
419.0,420.0,1.1647,0.2106,9.2536,-0.0394,0.0243,-0.1151,-1.4571471151760598,0.0,1.6824215650558472,-1.8949999809265137,-0.0,2.1429007053375244,4.696838541621826,-0.0,0.28626134991645813,-1.596705738698141,0.0,-0.006754453293979168,0.7979525923728943,0.0,-0.00603723619133234,0.7225316762924194,0.0,0.050912871956825256
419.0,420.0,1.1647,0.2106,9.2536,-0.0394,0.0243,-0.1151,-1.457151175742485,0.0,1.663316011428833,-1.8949918746948242,-0.0,2.1421420574188232,4.696882887477539,-0.0,0.29147475957870483,-1.5967138449298304,0.0,-0.005816930904984474,0.7979485392570496,0.0,0.011274745687842369,0.7225275635719299,0.0,-0.015545162372291088
419.0,420.0,1.1647,0.2106,9.2536,-0.0394,0.0243,-0.1151,-1.4570987981608887,0.0,1.6784791946411133,-1.895019769668579,-0.0,2.188877582550049,4.69686667501416,-0.0,0.2941296398639679,-1.5966938177691858,0.0,-0.005454909056425095,0.7979767322540283,0.0,-0.011556657962501049,0.7225316762924194,0.0,-0.03087129443883896
419.0,420.0,1.1647,0.2106,9.2536,-0.0394,0.0243,-0.1151,-1.457090602522232,0.0,1.6734752655029297,-1.895003318786621,-0.0,2.197762966156006,4.69687478124585,-0.0,0.2965841293334961,-1.5967257658587855,0.0,-0.009955008514225483,0.7979889512062073,0.0,0.0009628627449274063,0.7225556373596191,0.0,-0.00534210167825222
419.0,420.0,1.1647,0.2106,9.2536,-0.0394,0.0243,-0.1151,-1.4570868772319336,0.0,1.6587748527526855,-1.894995927810669,-0.0,2.103590488433838,4.696847124690674,-0.0,0.3067188858985901,-1.596717659627096,0.0,0.009431728161871433,0.7979328632354736,0.0,-0.007572453934699297,0.7225719690322876,0.0,0.021064119413495064
419.0,420.0,1.1647,0.2106,9.2536,-0.0394,0.0243,-0.1151,-1.457126834695675,0.0,1.6799447536468506,-1.8950361013412476,-0.0,2.148331880569458,4.69684283315625,-0.0,0.274860680103302,-1.5967257658587855,0.0,0.006859594490379095,0.7980009317398071,0.0,-0.005440342705696821,0.7225638031959534,0.0,0.00855876225978136
419.0,420.0,1.1647,0.2106,9.2536,-0.0394,0.0243,-0.1151,-1.4571429950049897,0.0,1.7101415395736694,-1.894971251487732,-0.0,2.139625072479248,4.696854754085205,-0.0,0.2964578866958618,-1.596733872090475,0.0,-0.0019489680416882038,0.7979767322540283,0.0,0.014575861394405365,0.7225476503372192,0.0,-0.040438733994960785
419.0,420.0,1.1647,0.2106,9.2536,-0.0394,0.0243,-0.1151,-1.4571186390570183,0.0,1.6978986263275146,-1.8950393199920654,-0.0,2.139896869659424,4.69689051687207,-0.0,0.28281307220458984,-1.596733872090475,0.0,-0.0017577647231519222,0.797989010810852,0.0,-0.009263832122087479,0.7225316762924194,0.0,0.009263360872864723
419.0,420.0,1.1647,0.2106,9.2536,-0.0394,0.0243,-0.1151,-1.4570985671928902,0.0,1.6467063426971436,-1.8950073719024658,-0.0,2.178088665008545,4.69681088506665,-0.0,0.2930663228034973,-1.596729580556051,0.0,-0.005144160240888596,0.7980006337165833,0.0,-0.001769005204550922,0.7225316762924194,0.0,0.03635983541607857
419.0,420.0,1.1647,0.2106,9.2536,-0.0394,0.0243,-0.1151,-1.4570987981608887,0.0,1.6871362924575806,-1.89508056640625,-0.0,2.1690564155578613,4.696854754085205,-0.0,0.28903236985206604,-1.5967257658587855,0.0,-0.002582305809482932,0.7979726791381836,0.0,-0.008418407291173935,0.7225838303565979,0.0,-0.007054930552840233
419.0,420.0,1.1647,0.2106,9.2536,-0.0394,0.0243,-0.1151,-1.457090602522232,0.0,1.6756937503814697,-1.8949711322784424,-0.0,2.1161584854125977,4.696854754085205,-0.0,0.2919677793979645,-1.5967376867877405,0.0,-0.013433380052447319,0.7980086803436279,0.0,-0.00994561705738306,0.7225275039672852,0.0,0.0033556167036294937
419.0,420.0,1.1647,0.2106,9.2536,-0.0394,0.0243,-0.1151,-1.4571149584702034,0.0,1.6769258975982666,-1.8950114250183105,-0.0,2.176779270172119,4.696850939387939,-0.0,0.2880191206932068,-1.596729580556051,0.0,-0.0067049311473965645,0.7979567050933838,0.0,-0.011875579133629799,0.722547709941864,0.0,-0.025069747120141983
395.0,413.0,0.9924,0.1561,9.6209,-0.024,0.0292,-0.1171,-1.4571227592280884,0.0,1.6995617151260376,-1.8950352668762207,-0.0,2.1941332817077637,4.696874304408691,-0.0,0.28160518407821655,-1.596733872090475,0.0,0.0021301608067005873,0.797924280166626,0.0,-0.001664578914642334,0.7225357294082642,0.0,-0.024822214618325233
395.0,413.0,0.9924,0.1561,9.6209,-0.024,0.0292,-0.1171,-1.4570987981608887,0.0,1.7296335697174072,-1.894995927810669,-0.0,2.166872501373291,4.696839018458984,-0.0,0.3017008602619171,-1.5967376867877405,0.0,-0.019991640001535416,0.7978885769844055,0.0,-0.009661399759352207,0.7225235104560852,0.0,0.02476569637656212
395.0,413.0,0.9924,0.1561,9.6209,-0.024,0.0292,-0.1171,-1.4571350303343316,0.0,1.67031729221344,-1.8950434923171997,-0.0,2.159636974334717,4.696839018458984,-0.0,0.2986973524093628,-1.596701447163717,0.0,-0.00939873419702053,0.7979808449745178,0.0,0.0018462231382727623,0.722571611404419,0.0,-0.030407600104808807
395.0,413.0,0.9924,0.1561,9.6209,-0.024,0.0292,-0.1171,-1.45711903393779,0.0,1.7016878128051758,-1.8950475454330444,-0.0,2.180122137069702,4.69684283315625,-0.0,0.29767903685569763,-1.5967214743243616,0.0,0.0008240023162215948,0.7979485392570496,0.0,-0.0204076636582613,0.7225797772407532,0.0,0.017044996842741966
395.0,413.0,0.9924,0.1561,9.6209,-0.024,0.0292,-0.1171,-1.4570987981608887,0.0,1.6746453046798706,-1.8950163125991821,-0.0,2.1870508193969727,4.6968347269245605,-0.0,0.2932529151439667,-1.5967257658587855,0.0,-0.010580511763691902,0.7979886531829834,0.0,-0.014505992643535137,0.722539484500885,0.0,-0.013786034658551216
395.0,413.0,0.9924,0.1561,9.6209,-0.024,0.0292,-0.1171,-1.4570623648217698,0.0,1.6365500688552856,-1.894994854927063,-0.0,2.1547188758850098,4.6968347269245605,-0.0,0.3080049157142639,-1.5967500845538538,0.0,-0.0024112937971949577,0.7980087399482727,0.0,-0.006072115618735552,0.7225435972213745,0.0,-0.04542500153183937
395.0,413.0,0.9924,0.1561,9.6209,-0.024,0.0292,-0.1171,-1.4570828017643471,0.0,1.7000555992126465,-1.8950320482254028,-0.0,2.184478998184204,4.69681088506665,-0.0,0.30038052797317505,-1.5966938177691858,0.0,-0.012361765839159489,0.7979645133018494,0.0,0.0035513441544026136,0.7225276231765747,0.0,-0.03046301193535328
395.0,413.0,0.9924,0.1561,9.6209,-0.024,0.0292,-0.1171,-1.4570868772319336,0.0,1.6793965101242065,-1.8950352668762207,-0.0,2.157470703125,4.69686667501416,-0.0,0.29261279106140137,-1.59674579301943,0.0,0.002914901589974761,0.7980008721351624,0.0,-0.003615390742197633,0.7225398421287537,0.0,-0.007337752263993025
395.0,413.0,0.9924,0.1561,9.6209,-0.024,0.0292,-0.1171,-1.4570664849928399,0.0,1.6500126123428345,-1.8950031995773315,-0.0,2.182544708251953,4.69684283315625,-0.0,0.3036103844642639,-1.596701447163717,0.0,-9.827455505728722e-05,0.7979525923728943,0.0,-0.006569054443389177,0.7225435376167297,0.0,0.036196812987327576
395.0,413.0,0.9924,0.1561,9.6209,-0.024,0.0292,-0.1171,-1.45711903393779,0.0,1.685838222503662,-1.8950361013412476,-0.0,2.1690125465393066,4.696807070369385,-0.0,0.29872384667396545,-1.5967376867877405,0.0,-0.003518693381920457,0.7979607582092285,0.0,0.0017649634974077344,0.722551703453064,0.0,0.01784314215183258
395.0,413.0,0.9924,0.1561,9.6209,-0.024,0.0292,-0.1171,-1.4570987981608887,0.0,1.659519076347351,-1.8949918746948242,-0.0,2.1362030506134033,4.696894331569336,-0.0,0.29447850584983826,-1.5967534224139612,0.0,-0.013508271425962448,0.7979965209960938,0.0,-0.005706919357180595,0.7225316762924194,0.0,-0.04357168823480606
395.0,413.0,0.9924,0.1561,9.6209,-0.024,0.0292,-0.1171,-1.4570664849928399,0.0,1.6860501766204834,-1.8950519561767578,-0.0,2.128910541534424,4.696850939387939,-0.0,0.2997232675552368,-1.596705738698141,0.0,0.0010738184209913015,0.7979726195335388,0.0,0.006358893122524023,0.7225316762924194,0.0,0.014853314496576786
395.0,413.0,0.9924,0.1561,9.6209,-0.024,0.0292,-0.1171,-1.4571471151760598,0.0,1.6572321653366089,-1.8950806856155396,-0.0,2.1382203102111816,4.696839018458984,-0.0,0.29759079217910767,-1.596705738698141,0.0,-0.000613677257206291,0.7979808449745178,0.0,-0.006388913374394178,0.7225719094276428,0.0,0.0033579785376787186
395.0,413.0,0.9924,0.1561,9.6209,-0.024,0.0292,-0.1171,-1.457090602522232,0.0,1.6692960262298584,-1.8950517177581787,-0.0,2.155738353729248,4.6967994409748535,-0.0,0.2687171995639801,-1.5967419783221644,0.0,-0.014508580788969994,0.7979767918586731,0.0,-0.0029793260619044304,0.7225398421287537,0.0,0.032890185713768005
395.0,413.0,0.9924,0.1561,9.6209,-0.024,0.0292,-0.1171,-1.4570828017643471,0.0,1.639186143875122,-1.8950519561767578,-0.0,2.133636474609375,4.696858568782471,-0.0,0.28844329714775085,-1.5967133680926722,0.0,-0.004435781389474869,0.7979328632354736,0.0,-0.013329623267054558,0.7225275635719299,0.0,0.0008465067949146032
412.0,408.0,1.0941,0.204,9.3637,-0.0341,0.0246,-0.1155,-1.457090602522232,0.0,1.6839451789855957,-1.8950238227844238,-0.0,2.185521364212036,4.696854754085205,-0.0,0.28421106934547424,-1.596705738698141,0.0,-0.013685186393558979,0.797940731048584,0.0,0.003201468614861369,0.7225558161735535,0.0,-0.02161572501063347
412.0,408.0,1.0941,0.204,9.3637,-0.0341,0.0246,-0.1155,-1.457078681593277,0.0,1.6541279554367065,-1.8950319290161133,-0.0,2.1301448345184326,4.696822329158447,-0.0,0.28224706649780273,-1.5966737906085413,0.0,-0.013772675767540932,0.7979689240455627,0.0,-0.016069307923316956,0.72251957654953,0.0,-0.0334760919213295
412.0,408.0,1.0941,0.204,9.3637,-0.0341,0.0246,-0.1155,-1.4570946779898186,0.0,1.6519486904144287,-1.8950278759002686,-0.0,2.1279139518737793,4.6968347269245605,-0.0,0.2911703884601593,-1.596729580556051,0.0,-0.003308282932266593,0.7979927659034729,0.0,-0.004514727275818586,0.722539484500885,0.0,0.007612855173647404
412.0,408.0,1.0941,0.204,9.3637,-0.0341,0.0246,-0.1155,-1.4571108382991333,0.0,1.650918960571289,-1.8949990272521973,-0.0,2.1512291431427,4.6968347269245605,-0.0,0.2946746051311493,-1.5967376867877405,0.0,-0.00548035092651844,0.7979689240455627,0.0,-0.0004566188436001539,0.7225678563117981,0.0,-0.009151004254817963
412.0,408.0,1.0941,0.204,9.3637,-0.0341,0.0246,-0.1155,-1.45711903393779,0.0,1.6964080333709717,-1.8949917554855347,-0.0,2.1917431354522705,4.696846647853516,-0.0,0.2910788655281067,-1.5967376867877405,0.0,-0.024456888437271118,0.7980250716209412,0.0,-0.006529244594275951,0.722551703453064,0.0,0.010798953473567963
412.0,408.0,1.0941,0.204,9.3637,-0.0341,0.0246,-0.1155,-1.4571028736284752,0.0,1.6331243515014648,-1.8950519561767578,-0.0,2.1328184604644775,4.696854754085205,-0.0,0.295076459646225,-1.5967100302325647,0.0,-0.018467724323272705,0.7979488372802734,0.0,-0.01311473362147808,0.7225236892700195,0.0,-0.030280878767371178
412.0,408.0,1.0941,0.204,9.3637,-0.0341,0.0246,-0.1155,-1.4570868772319336,0.0,1.6628235578536987,-1.8950393199920654,-0.0,2.1693625450134277,4.696858568782471,-0.0,0.3003709018230438,-1.5967901388751429,0.0,0.0012055042898282409,0.7979209423065186,0.0,0.0016810346860438585,0.7225760221481323,0.0,0.000999990850687027
412.0,408.0,1.0941,0.204,9.3637,-0.0341,0.0246,-0.1155,-1.457126834695675,0.0,1.6860748529434204,-1.8949875831604004,-0.0,2.184858798980713,4.69687478124585,-0.0,0.31077826023101807,-1.5967257658587855,0.0,-0.020366087555885315,0.7979648113250732,0.0,0.005011601373553276,0.7225074172019958,0.0,0.0311023760586977
412.0,408.0,1.0941,0.204,9.3637,-0.0341,0.0246,-0.1155,-1.4570946779898186,0.0,1.621140718460083,-1.8949556350708008,-0.0,2.1539366245269775,4.696839018458984,-0.0,0.29558318853378296,-1.5967095533954065,0.0,-0.013522622175514698,0.7979447841644287,0.0,-0.007630911655724049,0.7225435376167297,0.0,0.028079459443688393
412.0,408.0,1.0941,0.204,9.3637,-0.0341,0.0246,-0.1155,-1.4570868772319336,0.0,1.6978893280029297,-1.8950238227844238,-0.0,2.133075714111328,4.696810408229492,-0.0,0.28384894132614136,-1.5967257658587855,0.0,-0.004886567126959562,0.7978804707527161,0.0,-0.010087434202432632,0.7225194573402405,0.0,-0.005155329592525959
412.0,408.0,1.0941,0.204,9.3637,-0.0341,0.0246,-0.1155,-1.457126834695675,0.0,1.6658680438995361,-1.8950319290161133,-0.0,2.1506314277648926,4.696870489711426,-0.0,0.29580309987068176,-1.5967782179461878,0.0,0.009607161395251751,0.7979645133018494,0.0,0.004490600898861885,0.7225598692893982,0.0,0.002728702500462532
412.0,408.0,1.0941,0.204,9.3637,-0.0341,0.0246,-0.1155,-1.4570664849928399,0.0,1.6765825748443604,-1.8950434923171997,-0.0,2.147477626800537,4.696815176601074,-0.0,0.2987940311431885,-1.596733872090475,0.0,-0.003721753368154168,0.7979567050933838,0.0,-0.005829882342368364,0.7225236892700195,0.0,-0.036591749638319016
412.0,408.0,1.0941,0.204,9.3637,-0.0341,0.0246,-0.1155,-1.4571149584702034,0.0,1.655207633972168,-1.8950278759002686,-0.0,2.1182987689971924,4.696858568782471,-0.0,0.29567915201187134,-1.596729580556051,0.0,-0.0039816610515117645,0.7979447841644287,0.0,-0.003773108124732971,0.7225316762924194,0.0,-0.033838480710983276
412.0,408.0,1.0941,0.204,9.3637,-0.0341,0.0246,-0.1155,-1.4570504811457177,0.0,1.677107810974121,-1.8950320482254028,-0.0,2.1615447998046875,4.69686667501416,-0.0,0.28602007031440735,-1.5967496077166956,0.0,-0.007265499792993069,0.7979648113250732,0.0,0.0017334960866719484,0.7225074172019958,0.0,0.03482504561543465
412.0,408.0,1.0941,0.204,9.3637,-0.0341,0.0246,-0.1155,-1.4570704859546204,0.0,1.6903433799743652,-1.8949949741363525,-0.0,2.17409086227417,4.69684283315625,-0.0,0.2921784222126007,-1.5967376867877405,0.0,-0.005567931104451418,0.7979366183280945,0.0,-0.005014725960791111,0.7225074172019958,0.0,-0.0777299553155899
412.0,408.0,1.0941,0.204,9.3637,-0.0341,0.0246,-0.1155,-1.4571067553809662,0.0,1.6646112203598022,-1.8949990272521973,-0.0,2.166642665863037,4.696846647853516,-0.0,0.29156482219696045,-1.5967214743243616,0.0,-0.006069967057555914,0.7979366183280945,0.0,-0.0009776148945093155,0.7225515246391296,0.0,0.03660712018609047
405.0,429.0,0.9494,0.1633,9.7047,-0.0339,0.0246,-0.1203,-1.457130954866745,0.0,1.6374809741973877,-1.8950724601745605,-0.0,2.1388189792633057,4.696846647853516,-0.0,0.29780203104019165,-1.596701447163717,0.0,-0.008264009840786457,0.7979767322540283,0.0,-0.004003939218819141,0.7225476503372192,0.0,0.005356983747333288
405.0,429.0,0.9494,0.1633,9.7047,-0.0339,0.0246,-0.1203,-1.4571429950049897,0.0,1.687679648399353,-1.8950278759002686,-0.0,2.1738061904907227,4.696850939387939,-0.0,0.29782184958457947,-1.596733872090475,0.0,-0.019280171021819115,0.7979729771614075,0.0,-0.0034062820486724377,0.7225638031959534,0.0,-0.017517803236842155
405.0,429.0,0.9494,0.1633,9.7047,-0.0339,0.0246,-0.1203,-1.457078681593277,0.0,1.6623437404632568,-1.8950352668762207,-0.0,2.130350112915039,4.6968347269245605,-0.0,0.29712098836898804,-1.5967419783221644,0.0,-0.00487530929967761,0.7979488372802734,0.0,-0.004797307774424553,0.722539484500885,0.0,-0.013452576473355293
405.0,429.0,0.9494,0.1633,9.7047,-0.0339,0.0246,-0.1203,-1.457090602522232,0.0,1.646755576133728,-1.8950154781341553,-0.0,2.224482774734497,4.69689051687207,-0.0,0.3057052195072174,-1.5967419783221644,0.0,-0.0015396681847050786,0.7979685664176941,0.0,0.006112106144428253,0.7225476503372192,0.0,-0.013775871135294437
405.0,429.0,0.9494,0.1633,9.7047,-0.0339,0.0246,-0.1203,-1.4571549457362671,0.0,1.6763535737991333,-1.8950154781341553,-0.0,2.1724748611450195,4.696870489711426,-0.0,0.2869225740432739,-1.596773926411764,0.0,-0.008826588280498981,0.7979447841644287,0.0,-0.005344439297914505,0.7225316762924194,0.0,0.031407371163368225
405.0,429.0,0.9494,0.1633,9.7047,-0.0339,0.0246,-0.1203,-1.4571067702821274,0.0,1.676702618598938,-1.8949753046035767,-0.0,2.169027805328369,4.6968347269245605,-0.0,0.2911943197250366,-1.5967863241778772,0.0,-0.004214066080749035,0.7980005741119385,0.0,-0.008097728714346886,0.7225476503372192,0.0,-0.01435171626508236
405.0,429.0,0.9494,0.1633,9.7047,-0.0339,0.0246,-0.1203,-1.4571028736284752,0.0,1.6871435642242432,-1.895064115524292,-0.0,2.154757261276245,4.696830912227295,-0.0,0.2990354299545288,-1.5967534224139612,0.0,-0.007443178445100784,0.7979648113250732,0.0,-0.0018818032694980502,0.7225476503372192,0.0,-0.03477322310209274
405.0,429.0,0.9494,0.1633,9.7047,-0.0339,0.0246,-0.1203,-1.4570828017643471,0.0,1.6784965991973877,-1.8950238227844238,-0.0,2.1784253120422363,4.69684283315625,-0.0,0.2947542071342468,-1.596705738698141,0.0,-0.014122753404080868,0.7979165315628052,0.0,0.0014221020974218845,0.7225878834724426,0.0,-0.029300786554813385
405.0,429.0,0.9494,0.1633,9.7047,-0.0339,0.0246,-0.1203,-1.457066425388195,0.0,1.658947229385376,-1.8950278759002686,-0.0,2.1982922554016113,4.6968347269245605,-0.0,0.29091590642929077,-1.5967138449298304,0.0,0.002873433753848076,0.7979447841644287,0.0,0.007121976464986801,0.7225558161735535,0.0,-0.017948811873793602
405.0,429.0,0.9494,0.1633,9.7047,-0.0339,0.0246,-0.1203,-1.4570946779898186,0.0,1.6359927654266357,-1.8950154781341553,-0.0,2.157651424407959,4.696830912227295,-0.0,0.2929215431213379,-1.5967257658587855,0.0,-0.010659969411790371,0.7979968190193176,0.0,0.009124835021793842,0.7225357294082642,0.0,0.010020207613706589
405.0,429.0,0.9494,0.1633,9.7047,-0.0339,0.0246,-0.1203,-1.4571227592280884,0.0,1.6445527076721191,-1.8950278759002686,-0.0,2.15482759475708,4.6968347269245605,-0.0,0.28520235419273376,-1.5967300573932093,0.0,-0.0034122508950531483,0.7978846430778503,0.0,-0.004282265901565552,0.7225719094276428,0.0,-0.04425126686692238
405.0,429.0,0.9494,0.1633,9.7047,-0.0339,0.0246,-0.1203,-1.4570828017643471,0.0,1.6511517763137817,-1.8950154781341553,-0.0,2.181673765182495,4.696839018458984,-0.0,0.2857730984687805,-1.5967534224139612,0.0,-0.009527239948511124,0.7979767918586731,0.0,-0.0040700435638427734,0.7225316762924194,0.0,-0.020416030660271645
405.0,429.0,0.9494,0.1633,9.7047,-0.0339,0.0246,-0.1203,-1.4571631115726014,0.0,1.6675978899002075,-1.8950519561767578,-0.0,2.1487066745758057,4.696870489711426,-0.0,0.297540545463562,-1.5967376867877405,0.0,-0.01509468536823988,0.7980009913444519,0.0,0.01020710077136755,0.7225235104560852,0.0,0.01637338474392891
405.0,429.0,0.9494,0.1633,9.7047,-0.0339,0.0246,-0.1203,-1.4571067628315468,0.0,1.713002324104309,-1.89498770236969,-0.0,2.1189768314361572,4.6968347269245605,-0.0,0.3021383583545685,-1.5967658201800745,0.0,-0.003936267923563719,0.7979369759559631,0.0,-0.0053444551303982735,0.7225354313850403,0.0,-0.015497906133532524
405.0,429.0,0.9494,0.1633,9.7047,-0.0339,0.0246,-0.1203,-1.45711903393779,0.0,1.6629948616027832,-1.8949918746948242,-0.0,2.1522631645202637,4.696827097530029,-0.0,0.2927466034889221,-1.596729580556051,0.0,-0.02027685008943081,0.7979927659034729,0.0,0.00017662381287664175,0.7225034832954407,0.0,-0.0051193879917263985
411.0,417.0,1.0307,0.1795,9.5515,-0.0289,0.0254,-0.1147,-1.457123191361763,0.0,1.6920275688171387,-1.8950073719024658,-0.0,2.135910749435425,4.69687478124585,-0.0,0.30027303099632263,-1.5967419783221644,0.0,-0.0055900742299854755,0.7979846596717834,0.0,-0.0036228091921657324,0.7225236892700195,0.0,-0.0009836219251155853
411.0,417.0,1.0307,0.1795,9.5515,-0.0289,0.0254,-0.1147,-1.45711903393779,0.0,1.630935788154602,-1.8949753046035767,-0.0,2.1490790843963623,4.69686667501416,-0.0,0.29544204473495483,-1.5967100302325647,0.0,-0.02031218446791172,0.7979608774185181,0.0,0.0010323466267436743,0.7225476503372192,0.0,0.008098767139017582
411.0,417.0,1.0307,0.1795,9.5515,-0.0289,0.0254,-0.1147,-1.457102895980217,0.0,1.6921212673187256,-1.8950278759002686,-0.0,2.1925950050354004,4.696858568782471,-0.0,0.30489981174468994,-1.5967534224139612,0.0,-0.005729038268327713,0.7979767322540283,0.0,-0.011999042704701424,0.72251957654953,0.0,-0.061302900314331055
411.0,417.0,1.0307,0.1795,9.5515,-0.0289,0.0254,-0.1147,-1.4571389195374032,0.0,1.6812382936477661,-1.8950961828231812,-0.0,2.199247360229492,4.696830435390137,-0.0,0.28570103645324707,-1.5967538992511194,0.0,-0.011027219705283642,0.7979608178138733,0.0,-0.01449308916926384,0.72251957654953,0.0,0.043902069330215454
411.0,417.0,1.0307,0.1795,9.5515,-0.0289,0.0254,-0.1147,-1.4570868474296113,0.0,1.6840206384658813,-1.8949990272521973,-0.0,2.1285758018493652,4.696846647853516,-0.0,0.2900731563568115,-1.5967534224139612,0.0,0.0001804046332836151,0.7979763746261597,0.0,0.0038002259097993374,0.7225797772407532,0.0,-0.0177011638879776
411.0,417.0,1.0307,0.1795,9.5515,-0.0289,0.0254,-0.1147,-1.4570828017643471,0.0,1.65288507938385,-1.8950320482254028,-0.0,2.1455836296081543,4.696850939387939,-0.0,0.2856895327568054,-1.596757713948385,0.0,-0.0035187765024602413,0.7980087995529175,0.0,0.004704003222286701,0.7225719094276428,0.0,0.036923982203006744
411.0,417.0,1.0307,0.1795,9.5515,-0.0289,0.0254,-0.1147,-1.457070530658104,0.0,1.6719310283660889,-1.8950519561767578,-0.0,2.1680526733398438,4.6968347269245605,-0.0,0.28629475831985474,-1.5967419783221644,0.0,-0.008008981123566628,0.7979729771614075,0.0,-0.0037271769251674414,0.7225678563117981,0.0,-0.03089350461959839
411.0,417.0,1.0307,0.1795,9.5515,-0.0289,0.0254,-0.1147,-1.4571350303343316,0.0,1.6227083206176758,-1.8950320482254028,-0.0,2.156736373901367,4.696826620692871,-0.0,0.2911234200000763,-1.59674579301943,0.0,-0.01362630445510149,0.7979246973991394,0.0,0.007063334807753563,0.7225556373596191,0.0,0.06306330114603043
411.0,417.0,1.0307,0.1795,9.5515,-0.0289,0.0254,-0.1147,-1.4570545119098206,0.0,1.637241005897522,-1.8949546813964844,-0.0,2.1696245670318604,4.696858568782471,-0.0,0.29188716411590576,-1.5967534224139612,0.0,-0.012155171483755112,0.7979763746261597,0.0,-0.000713347690179944,0.7225916981697083,0.0,-0.0029736359138041735
411.0,417.0,1.0307,0.1795,9.5515,-0.0289,0.0254,-0.1147,-1.4570463684252282,0.0,1.6524479389190674,-1.8950361013412476,-0.0,2.1493282318115234,4.696882410640381,-0.0,0.29345905780792236,-1.5966976324664515,0.0,-0.013261924497783184,0.7979689240455627,0.0,-0.006875097751617432,0.7225275635719299,0.0,0.021502230316400528
411.0,417.0,1.0307,0.1795,9.5515,-0.0289,0.0254,-0.1147,-1.4571028736284752,0.0,1.6790482997894287,-1.8950154781341553,-0.0,2.1408746242523193,4.696822329158447,-0.0,0.29298028349876404,-1.5967214743243616,0.0,0.0009738524677231908,0.797916829586029,0.0,0.0002072294009849429,0.72251957654953,0.0,0.03065374121069908
411.0,417.0,1.0307,0.1795,9.5515,-0.0289,0.0254,-0.1147,-1.457130954866745,0.0,1.6678279638290405,-1.895019769668579,-0.0,2.177501678466797,4.696878595943115,-0.0,0.30216994881629944,-1.5967419783221644,0.0,0.006656179670244455,0.7979846000671387,0.0,-0.01073300838470459,0.7225236892700195,0.0,-0.04753312095999718
411.0,417.0,1.0307,0.1795,9.5515,-0.0289,0.0254,-0.1147,-1.4571186390570183,0.0,1.69635009765625,-1.8950475454330444,-0.0,2.1545748710632324,4.696846647853516,-0.0,0.2881649136543274,-1.59674579301943,0.0,-0.017085550352931023,0.7979328632354736,0.0,0.004288717173039913,0.7225316762924194,0.0,-0.0017051612958312035
411.0,417.0,1.0307,0.1795,9.5515,-0.0289,0.0254,-0.1147,-1.4571309399655838,0.0,1.6914514303207397,-1.89498770236969,-0.0,2.1251509189605713,4.696850939387939,-0.0,0.28730273246765137,-1.596729580556051,0.0,-0.008670779876410961,0.7979607582092285,0.0,-0.0105275958776474,0.7225236892700195,0.0,0.008654415607452393
411.0,417.0,1.0307,0.1795,9.5515,-0.0289,0.0254,-0.1147,-1.4571186316064377,0.0,1.6466503143310547,-1.8950319290161133,-0.0,2.179962158203125,4.696886702174805,-0.0,0.2844707667827606,-1.5967534224139612,0.0,-0.01580743119120598,0.7979767322540283,0.0,-0.008934097364544868,0.7225357294082642,0.0,-0.024141855537891388
413.0,388.0,1.0684,0.0766,9.4612,-0.0391,0.018,-0.111,-1.4571190488389512,0.0,1.6872291564941406,-1.8950433731079102,-0.0,2.192899465560913,4.696858568782471,-0.0,0.29648900032043457,-1.5967744032489222,0.0,-0.007159590721130371,0.7979607582092285,0.0,0.011752000078558922,0.7225438952445984,0.0,0.05409307777881622
413.0,388.0,1.0684,0.0766,9.4612,-0.0391,0.018,-0.111,-1.4571272668293496,0.0,1.6998021602630615,-1.8949918746948242,-0.0,2.1289868354797363,4.696870489711426,-0.0,0.2892524003982544,-1.5967419783221644,0.0,0.00010961759835481644,0.7979767322540283,0.0,-0.0030723093077540398,0.722551703453064,0.0,0.04871033504605293
413.0,388.0,1.0684,0.0766,9.4612,-0.0391,0.018,-0.111,-1.4570623275688668,0.0,1.64980947971344,-1.8950238227844238,-0.0,2.1134836673736572,4.696870489711426,-1.3794218034490768e-07,0.291067898273468,-1.596717659627096,0.0,-0.016077876091003418,0.7979366183280945,0.0,-0.0071659451350569725,0.7225596904754639,0.0,-0.02266441285610199
413.0,388.0,1.0684,0.0766,9.4612,-0.0391,0.018,-0.111,-1.4571186688593407,0.0,1.7030988931655884,-1.8950278759002686,-0.0,2.1688897609710693,4.696886702174805,-3.839671289251889e-11,0.292633593082428,-1.5967214743243616,0.0,-0.015082631260156631,0.7979848980903625,0.0,0.0052429973147809505,0.7225235104560852,0.0,0.016413390636444092
413.0,388.0,1.0684,0.0766,9.4612,-0.0391,0.018,-0.111,-1.4570545640638848,0.0,1.6672775745391846,-1.8949720859527588,-0.0,2.1642532348632812,4.696854754085205,-1.068786511658655e-14,0.2875851094722748,-1.5967252890216272,0.0,-0.010883236303925514,0.7979525923728943,0.0,-2.665321881067939e-05,0.7225878834724426,0.0,0.0024393023923039436
413.0,388.0,1.0684,0.0766,9.4612,-0.0391,0.018,-0.111,-1.4570910644582291,0.0,1.689178228378296,-1.8950361013412476,7.152797465437288e-09,2.1568844318389893,4.696858568782471,-2.9750063582449423e-18,0.28635314106941223,-1.5967496077166956,0.0,-0.002858585212379694,0.7979443669319153,0.0,-0.005764621309936047,0.7225155234336853,0.0,0.006516824476420879
413.0,388.0,1.0684,0.0766,9.4612,-0.0391,0.018,-0.111,-1.4571029108813782,0.0,1.6716129779815674,-1.8950238227844238,1.727316511666247e-14,2.1977500915527344,4.696926756496094,-8.2810397108714525e-22,0.2837262749671936,-1.5967376867877405,0.0,-0.010816734284162521,0.7979927659034729,0.0,-0.008601042442023754,0.7225194573402405,0.0,-0.011475842446088791
413.0,388.0,1.0684,0.0766,9.4612,-0.0391,0.018,-0.111,-1.4571190264872094,0.0,1.6874233484268188,-1.8950642347335815,4.1712660033040606e-20,2.112290859222412,4.696882410640381,-2.3050579745506514e-25,0.2807442247867584,-1.5967820326434534,0.0,-0.011592946946620941,0.7979645133018494,0.0,0.001300429692491889,0.7225596904754639,1.3099791251747206e-09,-0.028132030740380287
413.0,388.0,1.0684,0.0766,9.4612,-0.0391,0.018,-0.111,-1.4571391877583046,0.0,1.6652209758758545,-1.8950238227844238,1.007311589167474e-25,2.1491477489471436,4.696854754085205,-6.416213341161094e-29,0.2819025218486786,-1.596733872090475,0.0,-0.0037565180100500584,0.7979968190193176,0.0,-0.0016808449290692806,0.7225596904754639,3.163445288329684e-15,0.04337191581726074
413.0,388.0,1.0684,0.0766,9.4612,-0.0391,0.018,-0.111,-1.4570827645114441,0.0,1.6688017845153809,-1.8950724601745605,2.4325388573317414e-31,2.1706080436706543,4.6969191271015625,-1.785976762472685e-32,0.29131853580474854,-1.5967419783221644,0.0,0.0038674462120980024,0.7979648113250732,0.0,0.0004548111464828253,0.7225474119186401,7.63934899905106e-21,0.014526008628308773
413.0,388.0,1.0684,0.0766,9.4612,-0.0391,0.018,-0.111,-1.4570868623307724,0.0,1.698702096939087,-1.8949792385101318,5.874295178648629e-37,2.1562845706939697,4.696878595943115,-4.971332348450166e-36,0.29663100838661194,-1.5967252890216272,0.0,-0.012235538102686405,0.7979287505149841,0.0,-0.001985701033845544,0.7225638031959534,1.8448128566175565e-26,-0.012752920389175415
413.0,388.0,1.0684,0.0766,9.4612,-0.0391,0.018,-0.111,-1.4570946630886574,0.0,1.6702790260314941,-1.8949990272521973,1.4181140458967149e-42,2.143181800842285,4.69689051687207,-1.3837892400130785e-39,0.28253838419914246,-1.5967496077166956,0.0,-0.01585070975124836,0.7979693412780762,0.0,-0.006170367822051048,0.722511351108551,4.455005452434212e-32,0.005628851242363453
413.0,388.0,1.0684,0.0766,9.4612,-0.0391,0.018,-0.111,-1.457095057969429,0.0,1.6410548686981201,-1.8949793577194214,-0.0,2.1794729232788086,4.69686667501416,-3.853570776893247e-43,0.29417112469673157,-1.5967376867877405,0.0,-0.007238776423037052,0.7979930639266968,0.0,-0.003151641460135579,0.7225435376167297,1.0758312014425779e-37,0.006720379926264286
413.0,388.0,1.0684,0.0766,9.4612,-0.0391,0.018,-0.111,-1.4570582893541832,0.0,1.691715955734253,-1.8949918746948242,-0.0,2.144976854324341,4.696854754085205,-0.0,0.29356878995895386,-1.5967820326434534,0.0,-0.002058107405900955,0.7979926466941833,0.0,-0.0016779345460236073,0.7225152850151062,2.5924021590009116e-43,-0.0011386601254343987
413.0,388.0,1.0684,0.0766,9.4612,-0.0391,0.018,-0.111,-1.4571070087007065,0.0,1.7148939371109009,-1.8950114250183105,-0.0,2.1505112648010254,4.696839018458984,-0.0,0.30371201038360596,-1.5967658201800745,0.0,0.006689431145787239,0.7979686260223389,0.0,0.009812767617404461,0.7225756645202637,0.0,-0.003674107138067484
406.0,420.0,1.0211,0.1693,9.5504,-0.0423,0.0238,-0.1155,-1.4570946854403992,0.0,1.6866240501403809,-1.895036220550537,-0.0,2.1660680770874023,4.696822329158447,-0.0,0.29244154691696167,-1.5966857115374964,0.0,-0.015816932544112206,0.7979169487953186,0.0,-0.011533679440617561,0.722571611404419,0.0,-0.01709921844303608
406.0,420.0,1.0211,0.1693,9.5504,-0.0423,0.0238,-0.1155,-1.4570422929576416,0.0,1.6543893814086914,-1.8949958086013794,-0.0,2.1760494709014893,4.69687478124585,-0.0,0.2921105921268463,-1.5967744032489222,0.0,-0.012392520904541016,0.7979488372802734,0.0,0.00048223702469840646,0.7225435376167297,0.0,0.0050583574920892715
406.0,420.0,1.0211,0.1693,9.5504,-0.0423,0.0238,-0.1155,-1.457094670539238,0.0,1.6692919731140137,-1.8950114250183105,-0.0,2.1531057357788086,4.696839018458984,-0.0,0.2942737936973572,-1.59674579301943,0.0,-0.012708289548754692,0.7979567050933838,0.0,-0.0172264501452446,0.722571611404419,0.0,-0.023279979825019836
406.0,420.0,1.0211,0.1693,9.5504,-0.0423,0.0238,-0.1155,-1.4570664551905175,0.0,1.7141969203948975,-1.895039439201355,-0.0,2.1835880279541016,4.696914835567139,-0.0,0.29071685671806335,-1.5967214743243616,0.0,-0.006863797083497047,0.7979526519775391,0.0,0.0045695374719798565,0.722551703453064,0.0,-0.01837673969566822
406.0,420.0,1.0211,0.1693,9.5504,-0.0423,0.0238,-0.1155,-1.4571026352098961,0.0,1.6571760177612305,-1.8950073719024658,-0.0,2.1668198108673096,4.696878595943115,-0.0,0.2833555340766907,-1.5967419783221644,0.0,-0.004767974838614464,0.7979730367660522,0.0,-0.003689337056130171,0.7225638031959534,0.0,0.04557739943265915
406.0,420.0,1.0211,0.1693,9.5504,-0.0423,0.0238,-0.1155,-1.457102620308735,0.0,1.6999688148498535,-1.8950196504592896,-0.0,2.149606943130493,4.696878595943115,-0.0,0.2982965409755707,-1.5967701117144983,0.0,-0.00977112166583538,0.798004686832428,-9.396090128177548e-09,-0.005363814067095518,0.722571611404419,0.0,-0.023778634145855904
406.0,420.0,1.0211,0.1693,9.5504,-0.0423,0.0238,-0.1155,-1.4570987832597275,0.0,1.7021695375442505,-1.8950361013412476,-0.0,2.1233150959014893,4.696818514461182,-0.0,0.28153565526008606,-1.5967257658587855,0.0,-0.011434854939579964,0.7979927659034729,-2.615436513198066e-12,0.006267286371439695,0.7225797772407532,0.0,-0.02669389545917511
406.0,420.0,1.0211,0.1693,9.5504,-0.0423,0.0238,-0.1155,-1.4570828017643471,0.0,1.6885796785354614,-1.8950114250183105,-0.0,2.2002713680267334,4.69687478124585,-0.0,0.30155909061431885,-1.596733872090475,0.0,-0.0035388856194913387,0.7979887127876282,-7.28016453714717e-16,-0.003377219894900918,0.7225435376167297,0.0,0.039744291454553604
406.0,420.0,1.0211,0.1693,9.5504,-0.0423,0.0238,-0.1155,-1.4570987907103081,0.0,1.693117618560791,-1.8949834108352661,-0.0,2.1750988960266113,4.696882410640381,-0.0,0.28832679986953735,-1.596717659627096,0.0,-0.016961198300123215,0.797956645488739,-2.0264606688447922e-19,0.009172936901450157,0.7225838303565979,0.0,0.012231004424393177
406.0,420.0,1.0211,0.1693,9.5504,-0.0423,0.0238,-0.1155,-1.4570664924434205,0.0,1.6673214435577393,-1.8950073719024658,-0.0,2.132351875305176,4.69684283315625,-0.0,0.28349044919013977,-1.5967019240008753,0.0,-0.01100170984864235,0.7979686260223389,-5.640727814677499e-23,-0.00406344048678875,0.7225353717803955,0.0,-0.02642342820763588
406.0,420.0,1.0211,0.1693,9.5504,-0.0423,0.0238,-0.1155,-1.457098827963211,0.0,1.707865595817566,-1.8950278759002686,-0.0,2.175290584564209,4.696854754085205,-0.0,0.3057292699813843,-1.5967662970172327,0.0,-0.007727042771875858,0.7979567050933838,-1.5701173145752095e-26,-0.009270300157368183,0.7225638031959534,0.0,0.014380671083927155
406.0,420.0,1.0211,0.1693,9.5504,-0.0423,0.0238,-0.1155,-1.4571070236018677,0.0,1.6935267448425293,-1.8950309753417969,-0.0,2.1697075366973877,4.69689051687207,-0.0,0.29656127095222473,-1.59674579301943,0.0,-0.005751489661633968,0.7979767918586731,-4.3704789685606506e-30,-0.006299253553152084,0.7225674986839294,0.0,0.010297281667590141
406.0,420.0,1.0211,0.1693,9.5504,-0.0423,0.0238,-0.1155,-1.4570827272585412,0.0,1.6756151914596558,-1.8949999809265137,-0.0,2.1932098865509033,4.696854754085205,-0.0,0.2971416711807251,-1.5967257658587855,0.0,-0.006103143095970154,0.7979124188423157,-1.2165390319686516e-33,0.0009267949499189854,0.7225679159164429,0.0,0.008302583359181881
406.0,420.0,1.0211,0.1693,9.5504,-0.0423,0.0238,-0.1155,-1.4570544746569176,0.0,1.695780634880066,-1.8950319290161133,-0.0,2.2046797275543213,4.696850939387939,-0.0,0.2834978699684143,-1.5967257658587855,0.0,-0.005658322013914585,0.7980008721351624,-3.386281011137499e-37,0.0032800878398120403,0.7225918173789978,0.0,-0.01745154708623886
406.0,420.0,1.0211,0.1693,9.5504,-0.0423,0.0238,-0.1155,-1.4571149137667199,0.0,1.6656317710876465,-1.8950393199920654,-0.0,2.158759832382202,4.696870966548584,-0.0,0.2880469560623169,-1.596701447163717,0.0,-0.011070514097809792,0.797916829586029,-9.425834120280882e-41,-0.003080257447436452,0.7225797772407532,0.0,0.007329417392611504
412.0,415.0,1.1749,0.2542,9.1926,-0.038,0.0315,-0.1173,-1.4571309623173256,0.0,1.6563646793365479,-1.8950073719024658,-0.0,2.16115403175354,4.696886702174805,-0.0,0.29068538546562195,-1.59674579301943,0.0,-0.005358163733035326,0.797980546951294,-2.6624670822171524e-44,0.0009002540027722716,0.7225193977355957,0.0,0.005280435085296631
412.0,415.0,1.1749,0.2542,9.1926,-0.038,0.0315,-0.1173,-1.457130954866745,0.0,1.6999895572662354,-1.8950393199920654,-0.0,2.172064781188965,4.696850939387939,-0.0,0.3076247572898865,-1.5967100302325647,0.0,-0.0031458325684070587,0.7979607582092285,-0.0,-0.012238552793860435,0.7225556373596191,0.0,-0.0026291068643331528
412.0,415.0,1.1749,0.2542,9.1926,-0.038,0.0315,-0.1173,-1.4571028363755723,0.0,1.6902730464935303,-1.8949753046035767,-0.0,2.126354932785034,4.696886702174805,-0.0,0.2892371714115143,-1.596729580556051,0.0,-0.009088853374123573,0.7979086637496948,-0.0,-0.012051256373524666,0.7225194573402405,0.0,-0.03851683810353279
412.0,415.0,1.1749,0.2542,9.1926,-0.038,0.0315,-0.1173,-1.457135022883751,0.0,1.6343848705291748,-1.8950278759002686,-0.0,2.1564853191375732,4.696830912227295,-0.0,0.29506611824035645,-1.5967138449298304,0.0,-0.012167979031801224,0.7979767322540283,-0.0,-0.0008254139684140682,0.7225638031959534,0.0,-0.005840749945491552
412.0,415.0,1.1749,0.2542,9.1926,-0.038,0.0315,-0.1173,-1.4570906099728127,0.0,1.68467116355896,-1.8950269222259521,-0.0,2.1874849796295166,4.696830912227295,-0.0,0.30392682552337646,-1.5967376867877405,0.0,-0.009713957086205482,0.7980128526687622,-0.0,-0.007108416873961687,0.7225556373596191,3.245488915126771e-05,0.019344665110111237
412.0,415.0,1.1749,0.2542,9.1926,-0.038,0.0315,-0.1173,-1.457118646507599,0.0,1.6763360500335693,-1.8950393199920654,-0.0,2.176509380340576,4.696830912227295,-0.0,0.29482534527778625,-1.596757713948385,4.155895627633299e-09,-0.01221941877156496,0.7979767322540283,-0.0,0.0012090830132365227,0.7225918769836426,3.146288509014994e-05,-0.04347920045256615
412.0,415.0,1.1749,0.2542,9.1926,-0.038,0.0315,-0.1173,-1.4571149510196229,4.318750246312675e-09,1.6420217752456665,-1.8950560092926025,-0.0,2.12328839302063,4.696870489711426,-0.0,0.2925741672515869,-1.5967257658587855,1.1568088067320792e-12,-0.00862971693277359,0.7979846000671387,-0.0,-0.010046012699604034,0.7225596904754639,4.03960257244762e-05,-0.02497538924217224
412.0,415.0,1.1749,0.2542,9.1926,-0.038,0.0315,-0.1173,-1.4571186390570183,1.0429274428119285e-14,1.6569416522979736,-1.8950228691101074,-0.0,2.191962957382202,4.696834250087402,-0.0,0.2922690212726593,-1.5967701117144983,3.2200201011844563e-16,-0.00582254258915782,0.7979328632354736,-0.0,0.006220916286110878,0.7225633263587952,0.0002279885084135458,-0.03284168615937233
412.0,415.0,1.1749,0.2542,9.1926,-0.038,0.0315,-0.1173,-1.4571348068169137,2.5185471840783205e-20,1.673368215560913,-1.8950920104980469,-0.0,2.1772356033325195,4.696858568782471,-0.0,0.29204151034355164,-1.5967863241778772,8.963044128054189e-20,-0.002586087677627802,0.7979205846786499,-0.0,-0.0059448229148983955,0.7226278185844421,0.0010449200635775924,0.006050510331988335
412.0,415.0,1.1749,0.2542,9.1926,-0.038,0.0315,-0.1173,-1.4571104434183617,6.081995552332725e-26,1.728635311126709,-1.8950352668762207,-0.0,2.1559877395629883,4.696846647853516,-0.0,0.28585559129714966,-1.596705738698141,2.4948964639235695e-23,-0.0003340039402246475,0.7979923486709595,-0.0,0.006995270494371653,0.7226158380508423,0.0015579065075144172,-0.0002185693010687828
412.0,415.0,1.1749,0.2542,9.1926,-0.038,0.0315,-0.1173,-1.4571307313493271,1.4687303503919734e-31,1.6428978443145752,-1.8950269222259521,-0.0,2.1652889251708984,4.696854754085205,-0.0,0.2912311553955078,-1.5967376867877405,6.94463683075607e-27,0.010962439700961113,0.7979608774185181,-0.0,0.00508901197463274,0.722644031047821,0.0019958033226430416,-0.004460766911506653
412.0,415.0,1.1749,0.2542,9.1926,-0.038,0.0315,-0.1173,-1.457082414334156,3.5468110727174983e-37,1.6418399810791016,-1.895064115524292,-0.0,2.2027134895324707,4.696902437801025,-0.0,0.29685789346694946,-1.5967496077166956,1.933065101057179e-30,-0.006818137131631374,0.7979407906532288,-0.0,-0.0036653922870755196,0.7226196527481079,0.0028871174436062574,0.023813815787434578
412.0,415.0,1.1749,0.2542,9.1926,-0.038,0.0315,-0.1173,-1.457090624873974,8.561933617024632e-43,1.6636251211166382,-1.8950352668762207,-0.0,2.1638083457946777,4.696846647853516,-0.0,0.2839883863925934,-1.5967214743243616,5.380756514266903e-34,0.001590364845469594,0.797964870929718,-0.0,-0.0010951620060950518,0.7227039933204651,0.0033484220039099455,-0.00821708980947733
412.0,415.0,1.1749,0.2542,9.1926,-0.038,0.0315,-0.1173,-1.4571268570474167,0.0,1.6249966621398926,-1.8949918746948242,-0.0,2.1686127185821533,4.69689862310376,-0.0,0.2962559461593628,-1.596757713948385,1.4977533128444858e-37,-0.011511500924825668,0.7979607582092285,-0.0,-0.018746478483080864,0.7226916551589966,0.0038433659356087446,0.02974412962794304
412.0,415.0,1.1749,0.2542,9.1926,-0.038,0.0315,-0.1173,-1.4570663285306473,0.0,1.671945333480835,-1.895003318786621,-0.0,2.1311862468719482,4.696882410640381,-0.0,0.2759074568748474,-1.596733872090475,4.1690030612127633e-41,-0.0060388026759028435,0.7979927659034729,-0.0,-0.005060364957898855,0.7226911783218384,0.004014143720269203,-0.00553238857537508
414.0,399.0,1.081,-0.0401,9.4762,-0.0211,0.0334,-0.1064,-1.4571067553809662,0.0,1.6804873943328857,-1.8950073719024658,-0.0,2.1723194122314453,4.6968628603168945,-0.0,0.28497201204299927,-1.5967376867877405,1.1210387714598537e-44,-0.009516527876257896,0.797968864440918,-0.0,-0.007567866705358028,0.7226953506469727,0.004829090554267168,0.055787231773138046
414.0,399.0,1.081,-0.0401,9.4762,-0.0211,0.0334,-0.1064,-1.4571186316064377,0.0,1.6503565311431885,-1.8950154781341553,-0.0,2.1871368885040283,4.696878595943115,-0.0,0.30138295888900757,-1.5967777411090296,0.0,-0.0017406718106940389,0.7980610132217407,-0.0,-0.0025909855030477047,0.7227433323860168,0.005095839966088533,0.025698725134134293
414.0,399.0,1.081,-0.0401,9.4762,-0.0211,0.0334,-0.1064,-1.457167239194252,0.0,1.625230073928833,-1.895003318786621,-0.0,2.131941318511963,4.69689862310376,-0.0,0.2864430844783783,-1.5967701117144983,0.0,-0.0007238354301080108,0.798004686832428,-0.0,0.010905533097684383,0.722779393196106,0.005108045879751444,0.00884868111461401
414.0,399.0,1.081,-0.0401,9.4762,-0.0211,0.0334,-0.1064,-1.457094596033432,0.0,1.677480936050415,-1.8950163125991821,-0.0,2.1098265647888184,4.696894331569336,-0.0,0.2947253882884979,-1.5967052618609827,0.0,-0.005850994493812323,0.7979607582092285,-0.0,0.0078090475872159,0.722855806350708,0.004730590153485537,-0.0485461987555027
414.0,399.0,1.081,-0.0401,9.4762,-0.0211,0.0334,-0.1064,-1.4570705455592652,0.0,1.6995726823806763,-1.8950560092926025,-0.0,2.209739923477173,4.6968628603168945,-0.0,0.29737338423728943,-1.5967376867877405,0.0,-0.0044497037306427956,0.7979965209960938,-0.0,-0.006822997238487005,0.7228555083274841,0.004586638417094946,-0.0146713862195611
414.0,399.0,1.081,-0.0401,9.4762,-0.0211,0.0334,-0.1064,-1.4571108382991333,0.0,1.6721824407577515,-1.8950073719024658,-0.0,2.1730270385742188,4.696906729335449,-0.0,0.2900649607181549,-1.5967701117144983,-1.921064904308878e-05,-0.00340559845790267,0.7979848980903625,-0.0,0.00457422249019146,0.7228552103042603,0.0041386461816728115,0.03525564819574356
414.0,399.0,1.081,-0.0401,9.4762,-0.0211,0.0334,-0.1064,-1.4571108382991333,0.0,1.6718552112579346,-1.8949875831604004,-0.0,2.1542458534240723,4.696930094356201,0.0001474150485591963,0.2950713634490967,-1.5967820326434534,-1.8093805920216255e-05,0.008611509576439857,0.7979366183280945,-0.0,0.006513629574328661,0.7229435443878174,0.003972152713686228,0.006039115134626627
414.0,399.0,1.081,-0.0401,9.4762,-0.0211,0.0334,-0.1064,-1.4571028736284752,0.0,1.6950199604034424,-1.8950154781341553,-0.0,2.1514739990234375,4.696911020869873,0.00015123347111511976,0.2980084717273712,-1.5967696348773401,-1.7064583516912535e-05,-0.006741071119904518,0.7980087399482727,-0.0,0.0038901774678379297,0.7229195833206177,0.003606886602938175,-0.009381061419844627
414.0,399.0,1.081,-0.0401,9.4762,-0.0211,0.0334,-0.1064,-1.4571391877583046,0.0,1.6392285823822021,-1.8950361013412476,-0.0,2.160787582397461,4.696938677425049,0.00016485431115143,0.29820936918258667,-1.596802059804098,-1.6146146663231775e-05,-0.01642802730202675,0.7979928255081177,-0.0,-0.0011339967604726553,0.7229717969894409,0.0030938638374209404,0.021922864019870758
414.0,399.0,1.081,-0.0401,9.4762,-0.0211,0.0334,-0.1064,-1.457070567911007,0.0,1.6888773441314697,-1.8950475454330444,0.00019666925072669983,2.113388776779175,4.69691435872998,0.00015102874021977186,0.2960163354873657,-1.596733872090475,-1.5321513274102472e-05,-0.0014215151313692331,0.7979525923728943,-0.0,-0.004685810301452875,0.7229635119438171,0.0026933231856673956,0.0033217035233974457
414.0,399.0,1.081,-0.0401,9.4762,-0.0211,0.0334,-0.1064,-1.457058237200119,0.0,1.6567344665527344,-1.8950154781341553,0.00020885116828139871,2.1558642387390137,4.696894331569336,0.000139336843858473,0.2900409400463104,-1.5967538992511194,-1.4577040019503329e-05,-0.01551258098334074,0.7979849576950073,-0.0,-0.008370774798095226,0.7229552865028381,0.0019980312790721655,-0.00023782998323440552
414.0,399.0,1.081,-0.0401,9.4762,-0.0211,0.0334,-0.1064,-1.4571227592280884,0.0,1.7006313800811768,-1.8950361013412476,0.00018715279293246567,2.1722488403320312,4.696858568782471,0.00012932525714859366,0.2970673143863678,-1.5967538992511194,-1.3901557395001873e-05,-0.0074860090389847755,0.7979689240455627,-1.200472943274633e-09,-0.00495115015655756,0.7229717969894409,0.0013615468051284552,-0.014239960350096226
414.0,399.0,1.081,-0.0401,9.4762,-0.0211,0.0334,-0.1064,-1.4571350079825898,0.0,1.7341032028198242,-1.8950154781341553,0.00016952645091805607,2.138584852218628,4.6969029146381835,0.00012065618648193777,0.2782819867134094,-1.596785847340719,-1.3285903150972445e-05,-0.0076718698255717754,0.7979846000671387,-3.3415601557486296e-13,-0.011931312270462513,0.7229389548301697,0.0009151040576398373,0.001035497523844242
414.0,399.0,1.081,-0.0401,9.4762,-0.0211,0.0334,-0.1064,-1.4571631115726014,0.0,1.7137508392333984,-1.8950557708740234,0.00012911201338283718,2.1562790870666504,4.696882410640381,9.455482359044254e-05,0.2871640920639038,-1.596729580556051,-1.2722474821202923e-05,-0.027039267122745514,0.7979965209960938,-9.301354158838687e-17,-0.0056780856102705,0.722971498966217,0.0006372191128320992,0.00779565516859293
414.0,399.0,1.081,-0.0401,9.4762,-0.0211,0.0334,-0.1064,-1.457106740479805,-6.615252641495317e-05,1.6186797618865967,-1.8950238227844238,7.165526039898396e-05,2.146493434906006,4.696846647853516,7.210944022517651e-05,0.28531163930892944,-1.5967662970172327,-1.2204883205413353e-05,-0.007242521736770868,0.7979689240455627,-2.5890662700030268e-20,-0.0023127899039536715,0.7230159640312195,0.0004888296243734658,-0.0004029609262943268
406.0,413.0,0.7813,-0.0245,9.5982,-0.0542,0.014,-0.1141,-1.4571343299797554,-0.00019796470587607473,1.706425428390503,-1.895047664642334,-0.00013750267680734396,2.1747641563415527,4.696854754085205,5.0793449190678075e-05,0.2857522964477539,-1.5967415014850062,-1.172776501334738e-05,-0.003834821516647935,0.7979846000671387,-7.206761073086863e-24,-0.013208556920289993,0.7229717969894409,0.0003965116629842669,0.01811637543141842
406.0,413.0,0.7813,-0.0245,9.5982,-0.0542,0.014,-0.1141,-1.4571587604335328,-0.0007150109740905464,1.6541945934295654,-1.895047664642334,-0.00020036807109136134,2.127598762512207,4.696850939387939,-7.246844324981794e-05,0.28620582818984985,-1.596733872090475,-1.1286546396149788e-05,-0.012491859495639801,0.7979567050933838,-2.0060284078093288e-27,-0.001330789877101779,0.7229632139205933,0.00033352707396261394,-0.02463291399180889
406.0,413.0,0.7813,-0.0245,9.5982,-0.0542,0.014,-0.1141,-1.4571464148214837,-0.0007921530050225556,1.6633851528167725,-1.8950921297073364,-0.0007517816266044974,2.1445984840393066,4.69681088506665,-0.00010711904178606346,0.2866519093513489,-1.5967453161822718,-1.0877326531044673e-05,-0.0008671293035149574,0.7979525923728943,-5.583854424174345e-31,-0.004996121861040592,0.7229756116867065,0.00032872872543521225,0.0012796279042959213
406.0,413.0,0.7813,-0.0245,9.5982,-0.0542,0.014,-0.1141,-1.4572071072510262,-0.0016794048715382814,1.6631433963775635,-1.8949908018112183,-0.0006412293296307325,2.185276508331299,4.6968347269245605,-0.000123483085189946,0.3057243227958679,-1.5967496077166956,-1.049674756359309e-05,-0.010543443262577057,0.797980546951294,-1.5542863851152307e-34,-0.005729388911277056,0.7229673862457275,0.0003216639452148229,0.021303610876202583
406.0,413.0,0.7813,-0.0245,9.5982,-0.0542,0.014,-0.1141,-1.4572228130749245,-0.003020774107426405,1.6833783388137817,-1.8950797319412231,-0.0004950048169121146,2.1508145332336426,4.69681899129834,-0.0004867833631578833,0.2953426241874695,-1.5967863241778772,-1.0141890015802346e-05,-0.003299236763268709,0.7980128526687622,-4.3264137203072986e-38,0.0028341151773929596,0.7230474352836609,0.0025640439707785845,0.002817100379616022
406.0,413.0,0.7813,-0.0245,9.5982,-0.0542,0.014,-0.1141,-1.4572505515864869,-0.005614509806036949,1.7025840282440186,-1.8950921297073364,-0.00044657060061581433,2.1560866832733154,4.696807070369385,-0.0004542655951809138,0.29630494117736816,-1.5967376867877405,-3.282601142018393e-07,-0.005212704185396433,0.7979525923728943,-1.2042759002407478e-41,0.005210941191762686,0.7230716943740845,0.004432082176208496,0.0453108511865139
406.0,413.0,0.7813,-0.0245,9.5982,-0.0542,0.014,-0.1141,-1.4572986376336594,-0.008857534267008305,1.635690689086914,-1.8950755596160889,-0.0003577844181563705,2.1615216732025146,4.69684283315625,-0.0003795315569732338,0.29019373655319214,-1.5967415014850062,-9.137243045520549e-11,-0.01745114102959633,0.7980169057846069,-2.802596928649634e-45,-0.014685647562146187,0.7230955362319946,0.006003254558891058,0.04595136269927025
406.0,413.0,0.7813,-0.0245,9.5982,-0.0542,0.014,-0.1141,-1.457358756368496,-0.010301842354238033,1.6453356742858887,-1.8950436115264893,-0.00034819197026081383,2.118770122528076,4.696822805995605,-0.00036711827851831913,0.2874849736690521,-1.5968063513385218,-2.5433854919073087e-14,-0.007230208721011877,0.7979567646980286,-0.0,0.00627543730661273,0.7231718897819519,0.008934872224926949,-0.02951894700527191
406.0,413.0,0.7813,-0.0245,9.5982,-0.0542,0.014,-0.1141,-1.4575033795884629,-0.011955362744629383,1.610539197921753,-1.8950600624084473,-0.000298667378956452,2.1236109733581543,4.696834250087402,-0.00031856444547884166,0.2986925542354584,-1.5967538992511194,-7.079606425089236e-18,-0.0035244361497461796,0.7979808449745178,-0.0,0.0013331687077879906,0.7232637405395508,0.011502688750624657,0.016925804316997528
406.0,413.0,0.7813,-0.0245,9.5982,-0.0542,0.014,-0.1141,-1.4575349402478714,-0.013804408721625805,1.6577553749084473,-1.8950591087341309,-9.988956298911944e-05,2.165897846221924,4.696834250087402,-0.0002812275488395244,0.29902103543281555,-1.5967214743243616,-1.970634620888629e-21,-0.006110632326453924,0.797924816608429,-0.0,0.00482722744345665,0.723339855670929,0.013456488959491253,0.030447781085968018
406.0,413.0,0.7813,-0.0245,9.5982,-0.0542,0.014,-0.1141,-1.4576391217163582,-0.015303734689950943,1.6569974422454834,-1.8950353860855103,-8.560896094422787e-05,2.1780173778533936,4.696870489711426,-0.00025172639288939536,0.2864752411842346,-1.5967415014850062,-5.485333950654925e-25,-0.004270478151738644,0.7979727387428284,-0.0,-0.009048139676451683,0.7234156727790833,0.01591566763818264,0.016738422214984894
406.0,413.0,0.7813,-0.0245,9.5982,-0.0542,0.014,-0.1141,-1.4577793192914505,-0.017375484108924866,1.6841552257537842,-1.8950600624084473,-7.491861470043659e-05,2.148057460784912,4.696822805995605,-0.0002278276951983571,0.28648096323013306,-1.5967252890216272,-1.5268628154356177e-28,-0.010355242528021336,0.7979727387428284,-0.0,-0.008926879614591599,0.7235156297683716,0.01799898035824299,0.056184880435466766
406.0,413.0,0.7813,-0.0245,9.5982,-0.0542,0.014,-0.1141,-1.4578067821315308,-0.017890388146042824,1.6428837776184082,-1.8950600624084473,-6.660194048890844e-05,2.1968417167663574,4.696814699763916,-0.0002080734702758491,0.27753886580467224,-1.5967777411090296,-4.2500785835194856e-32,-0.006294213701039553,0.7979645729064941,-0.0,-0.017822781577706337,0.7236233353614807,0.020162273198366165,0.057467736303806305
406.0,413.0,0.7813,-0.0245,9.5982,-0.0542,0.014,-0.1141,-1.4579227355173607,-0.018085747957229614,1.6766529083251953,-1.8950839042663574,-5.994740786263719e-05,2.1774065494537354,4.696834250087402,-0.0001914721360662952,0.29368871450424194,-1.5967701117144983,-1.1830251484931683e-35,0.0036588595248758793,0.7980328798294067,-0.0,-0.005042499862611294,0.7237755656242371,0.022192340344190598,-0.03676249086856842
406.0,413.0,0.7813,-0.0245,9.5982,-0.0542,0.014,-0.1141,-1.458095261161663,-0.018181147053837776,1.646493673324585,-1.8950797319412231,-5.4501932027051225e-05,2.1615793704986572,4.69681088506665,-0.00017732451669871807,0.27839216589927673,-1.5967863241778772,-3.292993937926283e-39,-0.01053099986165762,0.7979883551597595,-0.0,0.0029860511422157288,0.7239155769348145,0.021709930151700974,-0.029460210353136063
406.0,413.0,0.7813,-0.0245,9.5982,-0.0542,0.014,-0.1141,-1.4581870523146172,-0.018606342375278473,1.6577668190002441,-1.8950352668762207,-4.996333518647589e-05,2.162109136581421,4.69684283315625,-0.00016512353613507003,0.2890031337738037,-1.5967982451068323,-9.164491956684304e-43,-0.006973674520850182,0.7979846000671387,-0.0,-0.00907921977341175,0.7240678071975708,0.022927599027752876,-0.034296222031116486
416.0,414.0,1.0128,0.2094,9.5163,-0.0283,-0.004,-0.0927,-1.4582868379405518,-0.018683215603232384,1.647472858428955,-1.8950715065002441,-4.6122648200253025e-05,2.1498968601226807,4.69684283315625,-0.00015449381317012012,0.3007970452308655,-1.5967662970172327,-0.0,-0.004451456945389509,0.7979485392570496,-0.0,-0.0031679393723607063,0.7241553068161011,0.025598101317882538,0.044863779097795486
416.0,414.0,1.0128,0.2094,9.5163,-0.0283,-0.004,-0.0927,-1.4584634912065049,-0.01883057691156864,1.6816463470458984,-1.8950839042663574,-4.283018279238604e-05,2.2254185676574707,4.696846647853516,-0.00014514992653857917,0.2815467417240143,-1.5967538992511194,-0.0,-0.01359954010695219,0.7979846596717834,-0.0,-0.007925850339233875,0.7243595123291016,0.0266939178109169,0.033186547458171844
416.0,414.0,1.0128,0.2094,9.5163,-0.0283,-0.004,-0.0927,-1.458535024230816,-0.01859484612941742,1.6731393337249756,-1.8950353860855103,-3.997657768195495e-05,2.138312339782715,4.696854754085205,-0.00013687180762644857,0.2871113121509552,-1.5967696348773401,-0.0,-0.006889449432492256,0.7979927659034729,-0.0,0.0016241479897871614,0.7245236039161682,0.02906215377151966,0.02844579517841339
416.0,414.0,1.0128,0.2094,9.5163,-0.0283,-0.004,-0.0927,-1.4585988086513062,-0.01767357997596264,1.6399049758911133,-1.8950519561767578,-3.747945083887316e-05,2.170339584350586,4.69681899129834,-0.0001294870162382722,0.2950672507286072,-1.5967820326434534,-0.0,0.004241676069796085,0.7980570197105408,-0.0,-0.0024345298297703266,0.724651038646698,0.03136693686246872,0.05589662492275238
416.0,414.0,1.0128,0.2094,9.5163,-0.0283,-0.004,-0.0927,-1.4587389913252373,-0.016081536188721657,1.6374790668487549,-1.895039439201355,-3.527594162733294e-05,2.147730827331543,4.696858568782471,-0.00012285834236536175,0.28864234685897827,-1.596717659627096,-0.0,-0.008071272633969784,0.7979767322540283,-0.0,0.007290094159543514,0.7248953580856323,0.03350690007209778,0.014549436047673225
416.0,414.0,1.0128,0.2094,9.5163,-0.0283,-0.004,-0.0927,-1.4588552129319687,-0.015366511419415474,1.6717561483383179,-1.8950518369674683,-3.3317086490569636e-05,2.1548147201538086,4.6968628603168945,-0.00011687540245475248,0.293425589799881,-1.5967662970172327,-0.0,-0.008971523493528366,0.798004686832428,-0.0,-0.007884221151471138,0.7251237034797668,0.03613630682229996,0.034279271960258484
416.0,414.0,1.0128,0.2094,9.5163,-0.0283,-0.004,-0.0927,-1.458886483018734,-0.013945416547358036,1.7027300596237183,-1.8950519561767578,-3.156445745844394e-05,2.1500418186187744,4.6968347269245605,-0.0001114480328396894,0.2952094078063965,-1.5967376867877405,-0.0,-0.017028767615556717,0.7979681491851807,-0.0,0.0029647047631442547,0.7253313064575195,0.03666290268301964,0.0329565592110157
416.0,414.0,1.0128,0.2094,9.5163,-0.0283,-0.004,-0.0927,-1.4590146106532593,-0.01380131021142006,1.6951935291290283,-1.8950436115264893,-2.99869407172082e-05,2.1840171813964844,4.69678704320874,-0.00010650241893017665,0.29968342185020447,-1.5967214743243616,-0.0,-0.008046393282711506,0.7979965209960938,-0.0,-0.0026667090132832527,0.7255634069442749,0.0362846702337265,0.039711758494377136
416.0,414.0,1.0128,0.2094,9.5163,-0.0283,-0.004,-0.0927,-1.4591069531491776,-0.014286390505731106,1.6943047046661377,-1.8950519561767578,-2.8559583370224573e-05,2.1655659675598145,4.69681088506665,-0.00010197707160841674,0.29881879687309265,-1.5967214743243616,-0.0,0.005502376705408096,0.7979485392570496,-0.0,-0.002250883262604475,0.7257269620895386,0.03608117252588272,0.046220310032367706
416.0,414.0,1.0128,0.2094,9.5163,-0.0283,-0.004,-0.0927,-1.4592070069960137,-0.015410344116389751,1.6963138580322266,-1.8950560092926025,-2.7261959985480644e-05,2.1753053665161133,4.69684283315625,-9.782064444152638e-05,0.2927175462245941,-1.5967419783221644,-0.0,-0.005935469642281532,0.7979525923728943,-0.0,-0.002988596213981509,0.7260197401046753,0.037188347429037094,-0.009127438068389893
416.0,414.0,1.0128,0.2094,9.5163,-0.0283,-0.004,-0.0927,-1.4593233925155182,-0.016939634457230568,1.6478427648544312,-1.8950560092926025,-2.6077133952639997e-05,2.1651487350463867,4.696802778834961,-9.398980910191312e-05,0.3064657151699066,-1.5967214743243616,-0.0,-0.0037554753944277763,0.7979882955551147,-0.0,-0.010532012209296227,0.7262272834777832,0.03569215163588524,0.07343561947345734
416.0,414.0,1.0128,0.2094,9.5163,-0.0283,-0.004,-0.0927,-1.459459514623024,-0.019430814310908318,1.6403703689575195,-1.8950519561767578,-1.266550043510506e-05,2.170407772064209,4.69681899129834,-6.619985651923344e-05,0.2924726605415344,-1.5967214743243616,-0.0,-0.00711975060403347,0.7979682087898254,-0.0,-0.00552874431014061,0.7264429330825806,0.03579865023493767,-0.007481373846530914
416.0,414.0,1.0128,0.2094,9.5163,-0.0283,-0.004,-0.0927,-1.459574931567051,-0.022834744304418564,1.6578811407089233,-1.8950755596160889,-1.1995861314062495e-05,2.1809141635894775,4.696858568782471,-6.005842806189321e-05,0.296097069978714,-1.596733872090475,-0.0,0.0070068505592644215,0.7979562878608704,-0.0,-0.000428692321293056,0.7266509532928467,0.03579998388886452,0.08453541994094849
416.0,414.0,1.0128,0.2094,9.5163,-0.0283,-0.004,-0.0927,-1.4597110238722344,-0.02743672765791416,1.6997084617614746,-1.8950880765914917,-7.275567925901782e-10,2.163949966430664,4.696830435390137,-5.774538294645026e-05,0.29430723190307617,-1.5967376867877405,-0.0,0.00013217923697084188,0.7980128526687622,-0.0,0.002027534879744053,0.7268427610397339,0.037958286702632904,0.06961942464113235
416.0,414.0,1.0128,0.2094,9.5163,-0.0283,-0.004,-0.0927,-1.4599113178304215,-0.031579047441482544,1.6498916149139404,-1.8950309753417969,-1.7569638083146264e-15,2.1588783264160156,4.69681088506665,-5.5604799854336306e-05,0.31755462288856506,-1.5967100302325647,-0.0,0.009779099375009537,0.798069179058075,-0.0,0.008947365917265415,0.7271189093589783,0.0416327640414238,-0.013621064834296703
408.0,396.0,0.6185,0.0233,9.4241,-0.0228,0.0148,-0.0748,-1.4600992065719147,-0.038313768804073334,1.6329175233840942,-1.8950839042663574,-4.242861393377366e-21,2.1707983016967773,4.69684283315625,-5.3617244702763855e-05,0.30162161588668823,-1.5967496077166956,-0.0,0.0012228111736476421,0.7980210185050964,-0.0,0.01145972590893507,0.7274394631385803,0.0458424873650074,0.07330337911844254
408.0,396.0,0.6185,0.0233,9.4241,-0.0228,0.0148,-0.0748,-1.4603433024934311,-0.042985137552022934,1.6397662162780762,-1.8949918746948242,-1.0246009704270293e-26,2.1484804153442383,4.696798487300537,-4.2762414523167536e-05,0.31368687748908997,-1.5967376867877405,-0.0,-0.0025423639453947544,0.7980169057846069,-0.0,0.003928942605853081,0.7276948094367981,0.05015166476368904,0.03300820291042328
408.0,396.0,0.6185,0.0233,9.4241,-0.0228,0.0148,-0.0748,-1.460643821661808,-0.04969877004623413,1.6532877683639526,-1.895019769668579,0.0005409211735241115,2.188416004180908,4.696822805995605,-4.003231879323721e-05,0.29743558168411255,-1.5967257658587855,-0.0,0.004588755778968334,0.7980006337165833,-0.0,0.008920148015022278,0.7280468940734863,0.05548549070954323,0.033166851848363876
408.0,396.0,0.6185,0.0233,9.4241,-0.0228,0.0148,-0.0748,-1.4609235313585778,-0.05643793195486069,1.6301103830337524,-1.8950238227844238,0.0005083894357085228,2.195801258087158,4.696807070369385,-4.336746428634797e-08,0.30191469192504883,-1.5966618696795862,-0.0,-0.003868725849315524,0.7979846000671387,-0.0,0.014688552357256413,0.7283549308776855,0.05646861344575882,0.0321282334625721
408.0,396.0,0.6185,0.0233,9.4241,-0.0228,0.0148,-0.0748,-1.4612996366671105,-0.06088147312402725,1.5961469411849976,-1.8949917554855347,0.000577893340960145,2.1701457500457764,4.696822329158447,-1.207149224330406e-11,0.3110390305519104,-1.59674579301943,-0.0,0.0011152635561302304,0.7980086803436279,-0.0,0.0036460268311202526,0.7287148237228394,0.059594955295324326,0.018300075083971024
408.0,396.0,0.6185,0.0233,9.4241,-0.0228,0.0148,-0.0748,-1.4616434660604973,-0.0669729933142662,1.6274869441986084,-1.8949999809265137,0.0005111845675855875,2.1490087509155273,4.6968347269245605,-3.3601443381322616e-15,0.3132649064064026,-1.5967538992511194,-0.0,1.359335146844387e-05,0.7979722619056702,-0.0,0.003737266641110182,0.7291511297225952,0.06252242624759674,0.09404310584068298
408.0,396.0,0.6185,0.0233,9.4241,-0.0228,0.0148,-0.0748,-1.4621156242540856,-0.07164362818002701,1.5928568840026855,-1.894971251487732,0.0003981861809734255,2.192594051361084,4.696802778834961,-9.353085248526172e-19,0.30574995279312134,-1.596689526234762,-0.0,0.017867665737867355,0.7980692386627197,-0.0,0.008797538466751575,0.7295311689376831,0.06595871597528458,0.09382760524749756
408.0,396.0,0.6185,0.0233,9.4241,-0.0228,0.0148,-0.0748,-1.462547318344452,-0.07675613462924957,1.5968446731567383,-1.8949834108352661,0.0003260452940594405,2.1427245140075684,4.696839018458984,-2.603465654815146e-22,0.30909764766693115,-1.596677605305807,-0.0,-0.006153367459774017,0.7979645729064941,-0.0,0.013488352298736572,0.7299792170524597,0.07095815986394882,0.1106971800327301
408.0,396.0,0.6185,0.0233,9.4241,-0.0228,0.0148,-0.0748,-1.463075616662838,-0.08159175515174866,1.5673737525939941,-1.8950073719024658,0.0002760383067652583,2.173459529876709,4.696858568782471,-7.246842356124044e-26,0.30136221647262573,-1.5967500845538538,-0.0,-0.005351582542061806,0.7979965209960938,-0.0,0.01649215817451477,0.730346143245697,0.07648851722478867,0.12366894632577896
408.0,396.0,0.6185,0.0233,9.4241,-0.0228,0.0148,-0.0748,-1.4635751408389588,-0.08381751924753189,1.6047067642211914,-1.8950114250183105,0.00023933214833959937,2.1772825717926025,4.69681899129834,-2.017185319977164e-29,0.2944122850894928,-1.596757713948385,-0.0,-0.0005563111044466496,0.7980046272277832,-0.0,0.018082769587635994,0.7308544516563416,0.07960421591997147,0.1257018744945526
408.0,396.0,0.6185,0.0233,9.4241,-0.0228,0.0148,-0.0748,-1.4640627217343827,-0.08400768786668777,1.5799808502197266,-1.895004153251648,0.00021124329941812903,2.161078929901123,4.696834250087402,-5.614909662491925e-33,0.29471638798713684,-1.59674579301943,-0.0,-0.006084194872528315,0.7979523539543152,-0.0,0.01389874517917633,0.7313381433486938,0.08077716827392578,0.12337374687194824
408.0,396.0,0.6185,0.0233,9.4241,-0.0228,0.0148,-0.0748,-1.464702845816948,-0.08667014539241791,1.5644659996032715,-1.8950154781341553,0.00018905532488133758,2.139432668685913,4.696802778834961,-1.562930731224916e-36,0.3004481792449951,-1.5967257658587855,-0.0,0.0040167225524783134,0.7980606555938721,-0.0,0.009965813718736172,0.7318865060806274,0.08218839019536972,0.1345674842596054
408.0,396.0,0.6185,0.0233,9.4241,-0.0228,0.0148,-0.0748,-1.4652059984258194,-0.09204617142677307,1.54713773727417,-1.895004153251648,0.0001995995407924056,2.1730427742004395,4.696854754085205,-1.8492177332518622e-05,0.286835640668869,-1.596717659627096,-0.0,-0.010687611997127533,0.7980128526687622,-0.0,0.023144042119383812,0.7323498725891113,0.08490919321775436,0.14516031742095947
408.0,396.0,0.6185,0.0233,9.4241,-0.0228,0.0148,-0.0748,-1.4657815408757706,-0.09977859258651733,1.5870721340179443,-1.8949999809265137,0.00020904764824081212,2.1913089752197266,4.696815176601074,-1.7434409528505057e-05,0.2914985418319702,-1.5967419783221644,-0.0,-0.006951509043574333,0.7980164885520935,-0.0,0.02023228444159031,0.7329387068748474,0.09040063619613647,0.17538946866989136
408.0,396.0,0.6185,0.0233,9.4241,-0.0228,0.0148,-0.0748,-1.4664454472116013,-0.10982649028301239,1.5300496816635132,-1.8949390649795532,0.0010123325046151876,2.125044584274292,4.696798964137695,-1.6476860764669254e-05,0.3010444939136505,-1.596717659627096,-0.0,-0.00937485508620739,0.7980406880378723,-0.0,0.011983463540673256,0.7334620952606201,0.09441111236810684,0.20787613093852997
414.0,386.0,0.731,0.5761,9.3326,0.0116,-0.0728,-0.0391,-1.4670604851892968,-0.1205376535654068,1.5124092102050781,-1.8949275016784668,0.004993787035346031,2.2159671783447266,4.696847124690674,-1.56190108100418e-05,0.2905757427215576,-1.596729580556051,-0.0,-0.021514851599931717,0.798069179058075,-0.0,0.020197782665491104,0.7340017557144165,0.09666606038808823,0.2092146873474121
414.0,386.0,0.731,0.5761,9.3326,0.0116,-0.0728,-0.0391,-1.4678159964135666,-0.1279257833957672,1.5268330574035645,-1.8949118852615356,0.00921514630317688,2.1863884925842285,4.69681088506665,-1.4846053090877831e-05,0.28990083932876587,-1.5967376867877405,-0.0,-0.00854035560041666,0.7979923486709595,-0.0,-0.0008343041408807039,0.7345856428146362,0.10183729231357574,0.2598016858100891
414.0,386.0,0.731,0.5761,9.3326,0.0116,-0.0728,-0.0391,-1.4686355230263253,-0.1340407133102417,1.5253171920776367,-1.894798994064331,0.011284166015684605,2.1887006759643555,4.6968347269245605,-2.41709926740441e-07,0.2940468490123749,-1.5967219511615198,-0.0,-0.012324469164013863,0.7979923486709595,-0.0,0.019600629806518555,0.7352377772331238,0.11216585338115692,0.25664451718330383
414.0,386.0,0.731,0.5761,9.3326,0.0116,-0.0728,-0.0391,-1.4694904473475,-0.13103708624839783,1.488749623298645,-1.8947803974151611,0.011506879702210426,2.1764492988586426,4.696839018458984,-6.728084062102013e-11,0.282146692276001,-1.5966818968402308,-0.0,-0.013837011530995369,0.7979682087898254,-0.0,0.008573808707296848,0.7359455823898315,0.12037279456853867,0.2640150189399719
414.0,386.0,0.731,0.5761,9.3326,0.0116,-0.0728,-0.0391,-1.4703295689872284,-0.13437367975711823,1.4825341701507568,-1.894684076309204,0.008463787846267223,2.1930911540985107,4.6968065935322265,-1.8727874746870057e-14,0.29501456022262573,-1.5966900030719202,-0.0,-0.009996648877859116,0.7979923486709595,-0.0,0.022141437977552414,0.7367099523544312,0.12484879046678543,0.33188101649284363
414.0,386.0,0.731,0.5761,9.3326,0.0116,-0.0728,-0.0391,-1.4712247413447876,-0.1470997929573059,1.5116816759109497,-1.8946551084518433,0.004086511675268412,2.15836501121521,4.696814699763916,-5.212972870418904e-18,0.29530051350593567,-1.5967376867877405,-0.0,-0.00800628773868084,0.7979800701141357,-0.0,0.013419772498309612,0.7374655604362488,0.12607470154762268,0.2836194634437561
414.0,386.0,0.731,0.5761,9.3326,0.0116,-0.0728,-0.0391,-1.472168357377388,-0.16705568134784698,1.5038762092590332,-1.8946551084518433,0.0011360851349309087,2.1539764404296875,4.696802778834961,-0.0004346880014054477,0.297915518283844,-1.5966976324664515,-0.0,-0.029354747384786606,0.7980853319168091,-0.0,0.020450513809919357,0.7381772994995117,0.12984596192836761,0.2986261248588562
414.0,386.0,0.731,0.5761,9.3326,0.0116,-0.0728,-0.0391,-1.473183498983719,-0.18095681071281433,1.4419864416122437,-1.8946839570999146,-0.00030457513639703393,2.178323268890381,4.69681088506665,-0.0003728809824679047,0.28768861293792725,-1.5967257658587855,-0.0,-0.0063780080527067184,0.7980086803436279,-0.0,0.016984902322292328,0.7389005422592163,0.12889355421066284,0.3302684426307678
414.0,386.0,0.731,0.5761,9.3326,0.0116,-0.0728,-0.0391,-1.4741986405900498,-0.18592660129070282,1.429974913597107,-1.8946363925933838,-2.4738197268447948e-08,2.121807098388672,4.696783228511475,-0.0002390367881162092,0.27441516518592834,-1.5967138449298304,-0.0,-0.018944162875413895,0.7979923486709595,-0.0,0.014919500797986984,0.7397010326385498,0.12945085763931274,0.3105587363243103
414.0,386.0,0.731,0.5761,9.3326,0.0116,-0.0728,-0.0391,-1.4753178519061585,-0.1788562685251236,1.4151134490966797,-1.8946683406829834,0.004190207924693823,2.104238986968994,4.69686667501416,-0.00015117278962861747,0.2778862714767456,-1.5966580549823206,-0.0,-0.03469190374016762,0.7980406880378723,-0.0,0.030786093324422836,0.7404726147651672,0.13509204983711243,0.33827245235443115
414.0,386.0,0.731,0.5761,9.3326,0.0116,-0.0728,-0.0391,-1.4764291507056733,-0.17520330846309662,1.413223385810852,-1.894543170928955,0.0051774801686406136,2.172980785369873,4.696834250087402,-0.00012812973000109196,0.27780255675315857,-1.5967419783221644,-0.0,-0.019585054367780685,0.7980529069900513,-0.0,0.01818050816655159,0.7413526177406311,0.14701791107654572,0.3581131100654602
414.0,386.0,0.731,0.5761,9.3326,0.0116,-0.0728,-0.0391,-1.4775438097170372,-0.18340426683425903,1.4451076984405518,-1.894616723060608,0.0035758246667683125,2.1263294219970703,4.696814699763916,-0.00014949838805478066,0.27725550532341003,-1.5966861883746546,-0.0,-0.01181164663285017,0.7980124354362488,-0.0,0.01090057659894228,0.7422242760658264,0.15295544266700745,0.41410213708877563
414.0,386.0,0.731,0.5761,9.3326,0.0116,-0.0728,-0.0391,-1.4786989030293007,-0.20209307968616486,1.3784613609313965,-1.8945876359939575,0.0007221658015623689,2.1214654445648193,4.696838541621826,-4.912105941912159e-05,0.30029141902923584,-1.5967138449298304,-0.0,-0.013442440889775753,0.7980046272277832,-0.0,0.01475626789033413,0.7431565523147583,0.15564295649528503,0.3449385166168213
414.0,386.0,0.731,0.5761,9.3326,0.0116,-0.0728,-0.0391,-1.4799456757358094,-0.21962575614452362,1.355279564857483,-1.8946404457092285,-0.0022338165435940027,2.1643714904785156,4.696842356319092,-4.165303471381776e-05,0.27038484811782837,-1.5967138449298304,-0.0,-0.017774956300854683,0.7980086803436279,-0.0,0.012509459629654884,0.7440283298492432,0.15086053311824799,0.35642462968826294
414.0,386.0,0.731,0.5761,9.3326,0.0116,-0.0728,-0.0391,-1.4811964643052598,-0.22268053889274597,1.3979358673095703,-1.894604206085205,-0.0003495009441394359,2.131253719329834,4.69678704320874,-3.657366323750466e-05,0.2822420299053192,-1.5966976324664515,-0.0,-0.022761140018701553,0.7979801297187805,-0.0,0.014435769990086555,0.744944155216217,0.14831265807151794,0.33634471893310547
396.0,379.0,0.8524,-1.4483,8.9862,-0.044,-0.1917,0.0651,-1.4825796049884339,-0.22529330849647522,1.3282090425491333,-1.894547462463379,0.0027102697640657425,2.119245767593384,4.696826620692871,-1.1269446531514404e-06,0.27484017610549927,-1.5967620054828089,-0.0,-0.022068537771701813,0.7980042695999146,-0.0,0.012196846306324005,0.7457955479621887,0.15498237311840057,0.33302173018455505
396.0,379.0,0.8524,-1.4483,8.9862,-0.044,-0.1917,0.0651,-1.4838539597443123,-0.22851411998271942,1.3191099166870117,-1.8945307731628418,0.003111200872808695,2.142669677734375,4.696858568782471,-3.1368918573804194e-10,0.26211556792259216,-1.5966818968402308,-0.0,-0.001182022038847208,0.797976016998291,-0.0,0.021869195625185966,0.746699333190918,0.16137513518333435,0.37916916608810425
396.0,379.0,0.8524,-1.4483,8.9862,-0.044,-0.1917,0.0651,-1.4852775421789666,-0.23105111718177795,1.4007608890533447,-1.8944675922393799,0.0027897346299141645,2.124985694885254,4.696807070369385,-8.731653366924469e-14,0.2887440621852875,-1.5966900030719202,-0.0,-0.0133789898827672,0.7980448603630066,-0.0,0.017561813816428185,0.7477396726608276,0.1680177003145218,0.4295543432235718
396.0,379.0,0.8524,-1.4483,8.9862,-0.044,-0.1917,0.0651,-1.4867082399180909,-0.24163338541984558,1.3838987350463867,-1.8945162296295166,0.0021057489793747663,2.1817009449005127,4.696847124690674,-2.43048758850782e-17,0.2806969881057739,-1.5967257658587855,-0.0,-0.0052519263699650764,0.7980128526687622,-0.0,0.011710410006344318,0.7487390041351318,0.17159371078014374,0.4200419783592224
396.0,379.0,0.8524,-1.4483,8.9862,-0.044,-0.1917,0.0651,-1.4881790068796654,-0.24844340980052948,1.389538049697876,-1.8944716453552246,0.0010099905775859952,2.114948272705078,4.696847124690674,-6.765353114222442e-21,0.27430975437164307,-1.5966900030719202,-0.0,-0.02124851569533348,0.7980087399482727,-0.0,0.010596154257655144,0.7497588396072388,0.16906552016735077,0.3712252974510193
396.0,379.0,0.8524,-1.4483,8.9862,-0.044,-0.1917,0.0651,-1.4896655988744278,-0.2558254897594452,1.4168766736984253,-1.8944872617721558,0.0007218993850983679,2.1670401096343994,4.69686667501416,-1.8831610615497735e-24,0.2863956689834595,-1.5966699759112757,-0.0,-0.011560934595763683,0.7979923486709595,-0.0,0.0158610288053751,0.7508229613304138,0.167382150888443,0.34633302688598633
396.0,379.0,0.8524,-1.4483,8.9862,-0.044,-0.1917,0.0651,-1.491179959183075,-0.258550763130188,1.413447618484497,-1.894524335861206,0.0006776172667741776,2.1769180297851562,4.696846647853516,-5.241848307509947e-28,0.303622305393219,-1.5966699759112757,-0.0,-0.012933602556586266,0.7980729341506958,-0.0,0.008063329383730888,0.7518348097801208,0.17034736275672913,0.36196476221084595
396.0,379.0,0.8524,-1.4483,8.9862,-0.044,-0.1917,0.0651,-1.4928186547807236,-0.26823922991752625,1.3601725101470947,-1.894484043121338,0.0005731505225412548,2.140712022781372,4.696815176601074,-1.459087652682743e-31,0.28323379158973694,-1.5966737906085413,-0.0,-0.014271809719502926,0.7980570197105408,-0.0,0.005005949176847935,0.7528261542320251,0.17336519062519073,0.3479803800582886
396.0,379.0,0.8524,-1.4483,8.9862,-0.044,-0.1917,0.0651,-1.4944739055684586,-0.27270257472991943,1.4421412944793701,-1.8944551944732666,0.001210703980177641,2.1489150524139404,4.69681899129834,-4.0614242436153103e-35,0.287130743265152,-1.5966618696795862,-0.0,0.004814957268536091,0.7980530261993408,-0.0,0.018311724066734314,0.7539466619491577,0.18008846044540405,0.3287872076034546
396.0,379.0,0.8524,-1.4483,8.9862,-0.044,-0.1917,0.0651,-1.4961079371026536,-0.27066275477409363,1.4446914196014404,-1.8944756984710693,0.002985046012327075,2.145925283432007,4.696826620692871,-1.130512389857768e-38,0.29938867688179016,-1.5966537634478968,-0.0,-0.008638635277748108,0.7979963421821594,-0.0,0.01068210694938898,0.754986047744751,0.17918044328689575,0.34132999181747437
396.0,379.0,0.8524,-1.4483,8.9862,-0.044,-0.1917,0.0651,-1.4978303101709862,-0.2783455550670624,1.4885563850402832,-1.894464373588562,0.005274043418467045,2.189314842224121,4.696850939387939,-3.147316350873539e-42,0.30272582173347473,-1.5967181364642542,-0.0,0.0016328685451298952,0.7979841828346252,-0.0,0.011726262047886848,0.7560817003250122,0.1767478585243225,0.3393019437789917
396.0,379.0,0.8524,-1.4483,8.9862,-0.044,-0.1917,0.0651,-1.4995652821711083,-0.29069334268569946,1.3735778331756592,-1.8944199085235596,0.0048377783969044685,2.2205617427825928,4.696818514461182,-1.401298464324817e-45,0.30369919538497925,-1.5966861883746546,-0.0,-0.006401462480425835,0.798041045665741,-0.0,0.0037478278391063213,0.7571249008178711,0.17576704919338226,0.3582409918308258
396.0,379.0,0.8524,-1.4483,8.9862,-0.044,-0.1917,0.0651,-1.5013475504568596,-0.29082998633384705,1.4441723823547363,-1.894411563873291,0.0031526153907179832,2.197042942047119,4.696826620692871,-0.0,0.29291635751724243,-1.5966900030719202,-0.0,-0.009394070133566856,0.7980246543884277,-0.0,0.016304468736052513,0.758204996585846,0.1724594384431839,0.3282376825809479
396.0,379.0,0.8524,-1.4483,8.9862,-0.044,-0.1917,0.0651,-1.5031496223858376,-0.29547542333602905,1.5046143531799316,-1.89441978931427,0.0021675589960068464,2.257845163345337,4.696834250087402,-0.0,0.2993890643119812,-1.5967181364642542,-0.0,-0.012095509096980095,0.7979722619056702,-0.0,-0.005739296320825815,0.7593048214912415,0.1731351763010025,0.31400829553604126
396.0,379.0,0.8524,-1.4483,8.9862,-0.044,-0.1917,0.0651,-1.5049844992211838,-0.30703696608543396,1.4740959405899048,-1.894376277923584,0.0018152700504288077,2.223987579345703,4.69684283315625,-0.0,0.31218451261520386,-1.596694294606344,-0.0,-0.003275973256677389,0.7979726791381836,-0.0,0.006020275875926018,0.7603684067726135,0.17451511323451996,0.24797824025154114
397.0,370.0,1.0253,-0.9206,9.323,0.0145,-0.2989,0.0678,-1.506750465636589,-0.3066451847553253,1.4826948642730713,-1.894339919090271,0.0016854669665917754,2.196762800216675,4.696847124690674,-0.0,0.30103686451911926,-1.5967300573932093,-0.0,-0.004152181092649698,0.798028826713562,-0.0,0.005016416311264038,0.7613716125488281,0.17758741974830627,0.301388144493103
397.0,370.0,1.0253,-0.9206,9.323,0.0145,-0.2989,0.0678,-1.5085368391922493,-0.30713197588920593,1.4688118696212769,-1.8943597078323364,0.0015162862837314606,2.220663070678711,4.69687478124585,-0.0,0.31744131445884705,-1.5966456572162073,-0.0,0.0003852637019008398,0.7979965209960938,-0.0,-0.006996640469878912,0.7625201344490051,0.17600014805793762,0.27030572295188904
397.0,370.0,1.0253,-0.9206,9.323,0.0145,-0.2989,0.0678,-1.5104439084282895,-0.31584692001342773,1.5534937381744385,-1.8943431377410889,0.0010156920179724693,2.2032601833343506,4.6967713075825195,-0.0,0.31710323691368103,-1.5966742674456995,-0.0,0.0018521260935813189,0.7979886531829834,-0.0,0.0025754908565431833,0.763568639755249,0.16948214173316956,0.28074008226394653
397.0,370.0,1.0253,-0.9206,9.323,0.0145,-0.2989,0.0678,-1.5122814004174252,-0.3166849911212921,1.4785618782043457,-1.8943195343017578,0.0008266140357591212,2.2308311462402344,4.696906729335449,-0.0,0.3233097195625305,-1.5966981093036097,-0.0,0.01885461062192917,0.7979759573936462,-0.0,-0.0009745624847710133,0.7645488977432251,0.16643589735031128,0.23475924134254456
397.0,370.0,1.0253,-0.9206,9.323,0.0145,-0.2989,0.0678,-1.5141800057939072,-0.3179032802581787,1.5258803367614746,-1.8943440914154053,0.0018044649623334408,2.190220355987549,4.69684283315625,-0.0,0.3026207685470581,-1.5966861883746546,-0.0,0.003968898206949234,0.7980169057846069,-0.0,0.013263586908578873,0.7655295729637146,0.16522398591041565,0.2813582420349121
397.0,370.0,1.0253,-0.9206,9.323,0.0145,-0.2989,0.0678,-1.5160660234144707,-0.31969594955444336,1.546496868133545,-1.8943195343017578,0.0027370962779968977,2.2507734298706055,4.696850939387939,0.00012502689787652344,0.31091541051864624,-1.5966981093036097,-0.0,-0.003121735993772745,0.7979882955551147,-0.0,-0.007308522704988718,0.7665348649024963,0.1657893806695938,0.23711928725242615
397.0,370.0,1.0253,-0.9206,9.323,0.0145,-0.2989,0.0678,-1.5179283258369942,-0.32147443294525146,1.5557847023010254,-1.8943400382995605,0.0018112234538421035,2.219731092453003,4.696850939387939,0.00011577178520383313,0.31065434217453003,-1.5966575781451624,-0.0,0.00611193897202611,0.7980365753173828,-0.0,0.006749594584107399,0.7675032615661621,0.16637112200260162,0.22565017640590668
397.0,370.0,1.0253,-0.9206,9.323,0.0145,-0.2989,0.0678,-1.5198387441090127,-0.32357150316238403,1.5445137023925781,-1.8942997455596924,0.0011489716125652194,2.225881576538086,4.696818514461182,0.00010747618216555566,0.30309009552001953,-1.5967181364642542,-0.0,-0.003951830789446831,0.7980210185050964,-0.0,-0.005295202136039734,0.7685850262641907,0.15712490677833557,0.19241483509540558
397.0,370.0,1.0253,-0.9206,9.323,0.0145,-0.2989,0.0678,-1.5217930686524888,-0.3239281475543976,1.563350796699524,-1.8942633867263794,0.0008474176866002381,2.2329652309417725,4.696870489711426,0.0001002900316962041,0.3249490261077881,-1.5966780821429651,-0.0,0.006893199868500233,0.7979965209960938,-0.0,-0.006035451777279377,0.7694165706634521,0.15101957321166992,0.22943344712257385
397.0,370.0,1.0253,-0.9206,9.323,0.0145,-0.2989,0.0678,-1.5237559613636513,-0.32694849371910095,1.5324649810791016,-1.8943078517913818,0.0017864024266600609,2.240144729614258,4.696846647853516,0.00011276309669483453,0.31147295236587524,-1.5966861883746546,-0.0,0.01738208346068859,0.7979447245597839,-0.0,0.004327405244112015,0.7703014612197876,0.14543798565864563,0.1709284484386444
397.0,370.0,1.0253,-0.9206,9.323,0.0145,-0.2989,0.0678,-1.5257292476347466,-0.3308332562446594,1.5425832271575928,-1.894279956817627,0.0024643833748996258,2.243955612182617,4.696839018458984,0.00010615280189085752,0.30672088265419006,-1.5967100302325647,-0.0,0.0018607878591865301,0.7980411052703857,-0.0,0.0002832547761499882,0.771125853061676,0.14029519259929657,0.1258155107498169
397.0,370.0,1.0253,-0.9206,9.323,0.0145,-0.2989,0.0678,-1.527711347942688,-0.32353588938713074,1.6466689109802246,-1.894252061843872,0.0028552645817399025,2.211885452270508,4.69692246496167,0.00012513248657342046,0.3271467685699463,-1.5966900030719202,-0.0,0.007713151630014181,0.7979965209960938,-0.0,-0.0019124443642795086,0.7719545364379883,0.14148513972759247,0.12686839699745178
397.0,370.0,1.0253,-0.9206,9.323,0.0145,-0.2989,0.0678,-1.5297262084535141,-0.3285347819328308,1.554157018661499,-1.894199252128601,0.003725107992067933,2.194923162460327,4.69686667501416,0.00016054933075793087,0.31974613666534424,-1.596705738698141,-0.0,0.004291902296245098,0.7979846000671387,-0.0,0.007412257604300976,0.7727389931678772,0.14105740189552307,0.18450488150119781
397.0,370.0,1.0253,-0.9206,9.323,0.0145,-0.2989,0.0678,-1.5317687404206772,-0.32988134026527405,1.6166605949401855,-1.8942155838012695,0.004904261324554682,2.2103543281555176,4.696886702174805,0.00017402875528205186,0.3236957788467407,-1.596694294606344,-0.0,0.028453882783651352,0.7979525923728943,-0.0,0.009555194526910782,0.773580014705658,0.13708877563476562,0.15951484441757202
397.0,370.0,1.0253,-0.9206,9.323,0.0145,-0.2989,0.0678,-1.5337662559798737,-0.3261650800704956,1.6170798540115356,-1.8941763639450073,0.004866095259785652,2.244828462600708,4.696886702174805,0.00015594290744047612,0.3206827640533447,-1.5967062155352991,-0.0,0.006440293975174427,0.7979485392570496,-0.0,0.00046270224265754223,0.7744489908218384,0.13219456374645233,0.11238181591033936
390.0,421.0,1.5416,0.3613,9.2746,-0.0316,-0.3152,0.0357,-1.535816417341568,-0.33544760942459106,1.6063165664672852,-1.8942126035690308,0.0049398052506148815,2.231276512145996,4.69687478124585,0.00014125597954262048,0.3111213445663452,-1.5967181364642542,-0.0,0.012613375671207905,0.79798823595047,-0.0,-0.011138017289340496,0.7751771211624146,0.11976345628499985,0.135696679353714
390.0,421.0,1.5416,0.3613,9.2746,-0.0316,-0.3152,0.0357,-1.5377668042531987,-0.33549103140830994,1.5975326299667358,-1.8940832614898682,0.003638406516984105,2.1956288814544678,4.696858568782471,0.00012909743236377835,0.3285350799560547,-1.5967024008380335,-0.0,0.014596374705433846,0.7980692386627197,-0.0,-0.0021487362682819366,0.7758455872535706,0.10739593952894211,0.07860143482685089
390.0,421.0,1.5416,0.3613,9.2746,-0.0316,-0.3152,0.0357,-1.5398006488433857,-0.33490413427352905,1.6782995462417603,-1.8941080570220947,0.002609025686979294,2.282071590423584,4.696854754085205,0.00011886664287885651,0.32508957386016846,-1.5966656843768519,-0.0,0.01950797624886036,0.797980546951294,-0.0,-0.00980000663548708,0.7765065431594849,0.10678292065858841,0.09149003028869629
390.0,421.0,1.5416,0.3613,9.2746,-0.0316,-0.3152,0.0357,-1.5418395710042496,-0.34040704369544983,1.680323839187622,-1.8940956592559814,0.0019566109403967857,2.226461410522461,4.696914835567139,0.00011013818584615365,0.3325496315956116,-1.5966818968402308,-0.0,0.017570579424500465,0.7979722619056702,-0.0,-0.004695461597293615,0.7770501375198364,0.10942257195711136,0.09938136488199234
390.0,421.0,1.5416,0.3613,9.2746,-0.0316,-0.3152,0.0357,-1.5437812724015494,-0.3349640965461731,1.7064043283462524,-1.8941203355789185,0.0028975317254662514,2.1922826766967773,4.696878595943115,0.00011269206152064726,0.3362104892730713,-1.596649471913473,-0.0,0.03084099292755127,0.7979722619056702,-0.0,-0.0025943065993487835,0.7777308821678162,0.10986742377281189,0.10976646840572357
390.0,421.0,1.5416,0.3613,9.2746,-0.0316,-0.3152,0.0357,-1.545780138378479,-0.3295913636684418,1.6929349899291992,-1.8940190076828003,0.006738047581166029,2.2519192695617676,4.696850939387939,0.00015228574920911342,0.32466375827789307,-1.596638027821676,-0.0,0.014162932522594929,0.7980652451515198,-0.0,-0.012150714173913002,0.7783915400505066,0.10792303830385208,0.06363536417484283
390.0,421.0,1.5416,0.3613,9.2746,-0.0316,-0.3152,0.0357,-1.5477427069893857,-0.3261779248714447,1.7351927757263184,-1.893996000289917,0.009062333032488823,2.255094051361084,4.696878595943115,0.00019934338342864066,0.32709360122680664,-1.5966575781451624,-0.0,0.004269097000360489,0.7979567050933838,-0.0,0.0014349203556776047,0.7789918780326843,0.10572337359189987,0.03285042196512222
390.0,421.0,1.5416,0.3613,9.2746,-0.0316,-0.3152,0.0357,-1.5496440318277855,-0.32516908645629883,1.7374396324157715,-1.8939640522003174,0.010049695149064064,2.238691568374634,4.6968628603168945,0.0001799704332370311,0.3308514952659607,-1.5966618696795862,-0.0,0.03264078125357628,0.7979686260223389,-0.0,-0.0078040119260549545,0.7796445488929749,0.10304337739944458,0.04246117174625397
390.0,421.0,1.5416,0.3613,9.2746,-0.0316,-0.3152,0.0357,-1.5516387794962903,-0.32688283920288086,1.7290916442871094,-1.893859624862671,0.009878568351268768,2.299408435821533,4.69686667501416,0.0001363503106404096,0.31861215829849243,-1.5966818968402308,3.75435771360344e-09,0.027500363066792488,0.7979923486709595,-0.0,0.008936839178204536,0.7802971601486206,0.09531421214342117,0.03990970179438591
390.0,421.0,1.5416,0.3613,9.2746,-0.0316,-0.3152,0.0357,-1.5535805628499766,-0.3284270763397217,1.8232288360595703,-1.893831491470337,0.009964363649487495,2.261523485183716,4.696854754085205,0.00012498092837631702,0.3285338282585144,-1.596705738698141,1.0450392721322865e-12,0.017015952616930008,0.7979603409767151,-0.0,-0.01350475661456585,0.7807848453521729,0.08876262605190277,0.030437074601650238
390.0,421.0,1.5416,0.3613,9.2746,-0.0316,-0.3152,0.0357,-1.5555629909834643,-0.33397960662841797,1.7592790126800537,-1.8937112092971802,0.012094439938664436,2.3478429317474365,4.696934385890625,0.00011536779493326321,0.33059579133987427,-1.5966737906085413,2.908905429053544e-16,0.03295755386352539,0.7980365753173828,-0.0,-0.0011748854303732514,0.7813177108764648,0.08386814594268799,0.0879228264093399
390.0,421.0,1.5416,0.3613,9.2746,-0.0316,-0.3152,0.0357,-1.557630189029016,-0.33075639605522156,1.7771399021148682,-1.8936718702316284,0.014738704077899456,2.292874813079834,4.696906729335449,0.00012573563435580581,0.3357222080230713,-1.5966456572162073,8.097045480317696e-20,0.01701563410460949,0.7979603409767151,-0.0,-0.01309254951775074,0.7818217873573303,0.0844254419207573,0.038436997681856155
390.0,421.0,1.5416,0.3613,9.2746,-0.0316,-0.3152,0.0357,-1.5595916773057361,-0.3247154951095581,1.7974741458892822,-1.8935041427612305,0.019305046647787094,2.2918434143066406,4.6968628603168945,0.000139805197250098,0.32676488161087036,-1.596638027821676,2.2538421860768314e-23,0.019252143800258636,0.7979965209960938,-0.0,-0.012402522377669811,0.7822942733764648,0.08264482021331787,0.004356885328888893
390.0,421.0,1.5416,0.3613,9.2746,-0.0316,-0.3152,0.0357,-1.5615623400411387,-0.3281067907810211,1.795981764793396,-1.8934760093688965,0.0249750018119812,2.294748067855835,4.69689051687207,0.0001701907312963158,0.32996562123298645,-1.5967024008380335,6.273653623339245e-27,0.030234619975090027,0.7979846000671387,-0.0,-0.003270932473242283,0.782774806022644,0.08070628345012665,-0.005891846958547831
390.0,421.0,1.5416,0.3613,9.2746,-0.0316,-0.3152,0.0357,-1.5635882045938452,-0.32256585359573364,1.8312225341796875,-1.8932794332504272,0.03101160004734993,2.334575653076172,4.696914835567139,0.00017031238530762494,0.3511776924133301,-1.5966456572162073,1.7462944711974004e-30,0.018431251868605614,0.7980210185050964,-0.0,-0.005004707723855972,0.783202588558197,0.07824071496725082,0.059363603591918945
390.0,421.0,1.5416,0.3613,9.2746,-0.0316,-0.3152,0.0357,-1.5656468647396942,-0.3250575363636017,1.7692558765411377,-1.8931443691253662,0.037001822143793106,2.3489623069763184,4.696874304408691,0.00015294936019927263,0.34277865290641785,-1.5966618696795862,4.860874852161553e-34,0.013591984286904335,0.7980046272277832,-0.0,-0.00693810498341918,0.7837072610855103,0.07798030227422714,0.05015747994184494
462.0,780.0,2.3498,-0.4804,9.9171,-0.0336,-0.2908,-0.0678,-1.5675847763526072,-0.33748212456703186,1.797203540802002,-1.8928885459899902,0.04076920077204704,2.3271541595458984,4.696854754085205,0.00011104470468126237,0.3444398045539856,-1.5966537634478968,1.3530424535763105e-37,0.02121671475470066,0.7979246973991394,-0.0,9.161324123851955e-05,0.7842038869857788,0.08011914044618607,0.09351815283298492
462.0,780.0,2.3498,-0.4804,9.9171,-0.0336,-0.2908,-0.0678,-1.5695672049517562,-0.33463940024375916,1.8093962669372559,-1.8925800323486328,0.045451682060956955,2.3563833236694336,4.696838541621826,0.0001016313472064212,0.34155505895614624,-1.5966861883746546,3.766269882565811e-41,0.030263297259807587,0.7979689240455627,-0.0,-0.0033427923917770386,0.7846804857254028,0.08243323117494583,0.01938793994486332
462.0,780.0,2.3498,-0.4804,9.9171,-0.0336,-0.2908,-0.0678,-1.571573873559469,-0.33856573700904846,1.8176144361495972,-1.8922960758209229,0.053159769624471664,2.428156852722168,4.696902437801025,9.369551116833463e-05,0.34662604331970215,-1.5966618696795862,9.80908925027372e-45,0.02069588005542755,0.7979846000671387,-0.0,0.015252534300088882,0.7851239442825317,0.08296464383602142,0.03942795470356941
462.0,780.0,2.3498,-0.4804,9.9171,-0.0336,-0.2908,-0.0678,-1.5735322437682093,-0.338817834854126,1.8301868438720703,-1.891984224319458,0.05918758735060692,2.3601431846618652,4.69689862310376,6.857455446152017e-05,0.33639031648635864,-1.5966537634478968,0.0,0.01856888458132744,0.7979886531829834,-0.0,-0.016163785010576248,0.78560870885849,0.07807470858097076,0.059617482125759125
462.0,780.0,2.3498,-0.4804,9.9171,-0.0336,-0.2908,-0.0678,-1.5754696331419886,-0.32961952686309814,1.813726544380188,-1.8915036916732788,0.06911462545394897,2.351048707962036,4.696906729335449,4.280074062990025e-05,0.33833035826683044,-1.5966218153582972,0.0,0.020701568573713303,0.7979808449745178,-0.0,-0.003995269071310759,0.7860892415046692,0.0711490735411644,0.0276230089366436
462.0,780.0,2.3498,-0.4804,9.9171,-0.0336,-0.2908,-0.0678,-1.577423711816305,-0.32605117559432983,1.8284354209899902,-1.891116976737976,0.0775579959154129,2.4027230739593506,4.696874304408691,7.481420470867306e-05,0.3470594882965088,-1.5966699759112757,0.0,0.022628162056207657,0.7979767322540283,-0.0,-0.005904228426516056,0.7864411473274231,0.06637795269489288,-0.023078829050064087
462.0,780.0,2.3498,-0.4804,9.9171,-0.0336,-0.2908,-0.0678,-1.579385896722311,-0.32171136140823364,1.8887722492218018,-1.8905919790267944,0.08693122118711472,2.4384312629699707,4.696899099940918,6.658891652477905e-05,0.33183228969573975,-1.5966618696795862,0.0,0.013270620256662369,0.7979607582092285,-0.0,0.007526947185397148,0.786909818649292,0.06534577161073685,-0.009652160108089447
462.0,780.0,2.3498,-0.4804,9.9171,-0.0336,-0.2908,-0.0678,-1.5813366375365199,-0.3247683346271515,1.9203481674194336,-1.8901079893112183,0.09124049544334412,2.4164695739746094,4.696874304408691,5.993609374854714e-05,0.32769685983657837,-1.5967019240008753,0.0,0.020991981029510498,0.7979726791381836,-0.0,-0.003027129452675581,0.7872618436813354,0.06536244601011276,0.03351396694779396
462.0,780.0,2.3498,-0.4804,9.9171,-0.0336,-0.2908,-0.0678,-1.583226820031637,-0.32662317156791687,1.8635797500610352,-1.889512300491333,0.09635714441537857,2.4308664798736572,4.696862383479736,5.449215314001776e-05,0.34007957577705383,-1.5966337362872522,0.0,0.012968598864972591,0.7979722023010254,-0.0,-0.015797490254044533,0.787718653678894,0.06496066600084305,0.04274504631757736
462.0,780.0,2.3498,-0.4804,9.9171,-0.0336,-0.2908,-0.0678,-1.5851808987059535,-0.3240929841995239,1.952059268951416,-1.888904094696045,0.09971592575311661,2.3896048069000244,4.696911020869873,7.325482874875888e-05,0.3370944857597351,-1.5967181364642542,0.0,0.02134063094854355,0.797956645488739,-0.0,0.00415030075237155,0.7880461812019348,0.06534691154956818,0.03859231621026993
462.0,780.0,2.3498,-0.4804,9.9171,-0.0336,-0.2908,-0.0678,-1.5870634518065394,-0.32400649785995483,1.8849729299545288,-1.8882473707199097,0.10378219187259674,2.4149177074432373,4.696906252498291,0.00018133285630028695,0.34682369232177734,-1.5966456572162073,0.0,0.024517733603715897,0.7979202270507812,-0.0,0.003321781288832426,0.7884789109230042,0.06299196183681488,0.09019152075052261
462.0,780.0,2.3498,-0.4804,9.9171,-0.0336,-0.2908,-0.0678,-1.5890094242491664,-0.31428834795951843,1.9361720085144043,-1.8876163959503174,0.11507625132799149,2.4322714805603027,4.696942968959473,0.0010480338241904974,0.34799081087112427,-1.5966575781451624,0.0,0.015188084915280342,0.798004686832428,-0.0,-0.006792115978896618,0.7888312339782715,0.06157253682613373,0.017737919464707375
462.0,780.0,2.3498,-0.4804,9.9171,-0.0336,-0.2908,-0.0678,-1.5909158192076625,-0.30549514293670654,1.9926466941833496,-1.8868043422698975,0.1327778548002243,2.5083160400390625,4.696914835567139,0.0010052904253825545,0.34363803267478943,-1.5966537634478968,0.0,0.0237813051789999,0.7979648113250732,-0.0,0.005453655496239662,0.789195716381073,0.06108185648918152,0.043972380459308624
462.0,780.0,2.3498,-0.4804,9.9171,-0.0336,-0.2908,-0.0678,-1.5928827724852503,-0.3131847679615021,2.0132153034210205,-1.8860893249511719,0.14352267980575562,2.524211883544922,4.696882410640381,0.000680964847560972,0.34859180450439453,-1.5966299215899866,0.0,0.010479800403118134,0.7979443669319153,-0.0,-0.011923672631382942,0.7895916700363159,0.06239105388522148,0.03788810968399048
462.0,780.0,2.3498,-0.4804,9.9171,-0.0336,-0.2908,-0.0678,-1.5948411426939906,-0.31023529171943665,1.979409098625183,-1.885176420211792,0.1545785814523697,2.502993583679199,4.696899099940918,0.0001926969416672364,0.35068386793136597,-1.5966656843768519,0.0,0.008575698360800743,0.7980087399482727,-0.0,-0.010453987866640091,0.7899919748306274,0.06401920318603516,0.04347870871424675
908.0,927.0,2.9438,0.4146,9.871,-0.0165,-0.1529,-0.0603,-1.5967923603453578,-0.3142785429954529,2.0093820095062256,-1.8842412233352661,0.16386286914348602,2.5508527755737305,4.6969262796589355,0.00014574565284419805,0.35438764095306396,-1.5966656843768519,0.0,0.013924125581979752,0.7979607582092285,-0.0,-0.004951437935233116,0.7903885245323181,0.0650094673037529,0.03163430467247963
908.0,927.0,2.9438,0.4146,9.871,-0.0165,-0.1529,-0.0603,-1.5986863575377406,-0.32639411091804504,2.0025510787963867,-1.8832496404647827,0.16544242203235626,2.5507397651672363,4.696938677425049,0.00010932247823802754,0.36086979508399963,-1.5966537634478968,0.0,-0.0029713597614318132,0.7979886531829834,-0.0,0.002813246101140976,0.790764570236206,0.06307290494441986,0.02924172766506672
908.0,927.0,2.9438,0.4146,9.871,-0.0165,-0.1529,-0.0603,-1.6005689106383265,-0.3163436949253082,2.007655143737793,-1.8821767568588257,0.17436520755290985,2.5054640769958496,4.696934862727783,9.806911839405075e-05,0.35952723026275635,-1.5966337362872522,0.0,0.005635103210806847,0.7979287505149841,-0.0,-0.013962013646960258,0.7911733984947205,0.06314956396818161,0.05094382166862488
908.0,927.0,2.9438,0.4146,9.871,-0.0165,-0.1529,-0.0603,-1.6024514637389125,-0.3113892078399658,1.998102068901062,-1.8811777830123901,0.18620137870311737,2.532257318496704,4.696910067195557,8.42895096866414e-05,0.35652047395706177,-1.5966537634478968,0.0,0.011605808511376381,0.7979485392570496,-0.0,-0.0010063734371215105,0.7915536165237427,0.06287072598934174,0.0470622181892395
908.0,927.0,2.9438,0.4146,9.871,-0.0165,-0.1529,-0.0603,-1.6043220959105433,-0.31122565269470215,1.985028624534607,-1.879981279373169,0.19839604198932648,2.579005718231201,4.696911020869873,1.3304546655490412e-06,0.3542907238006592,-1.5966780821429651,0.0,0.0035047801211476326,0.7979366183280945,-0.0,0.0009249943541362882,0.7918853163719177,0.06374239921569824,0.060001008212566376
908.0,927.0,2.9438,0.4146,9.871,-0.0165,-0.1529,-0.0603,-1.6060997448363246,-0.30595627427101135,2.033564329147339,-1.878798007965088,0.20671573281288147,2.517378807067871,4.69691435872998,3.703369555463354e-10,0.3459435999393463,-1.5966537634478968,0.0,0.02270432934165001,0.7979927659034729,-0.0,-0.006263351067900658,0.7923381328582764,0.06545581668615341,0.01925647258758545
908.0,927.0,2.9438,0.4146,9.871,-0.0165,-0.1529,-0.0603,-1.6079913578429164,-0.30364611744880676,1.999503254890442,-1.8774781227111816,0.2081892490386963,2.5330135822296143,4.696942492122314,0.00017028080765157938,0.34068405628204346,-1.5966656843768519,0.0,0.02240912988781929,0.7979485392570496,-0.0,0.003971212077885866,0.7927180528640747,0.06502384692430496,0.006955167278647423
908.0,927.0,2.9438,0.4146,9.871,-0.0165,-0.1529,-0.0603,-1.6097899876036585,-0.3057638108730316,2.02468204498291,-1.8761944770812988,0.21854953467845917,2.583454132080078,4.6969310480305175,0.00021751988970208913,0.3453359603881836,-1.5966575781451624,0.0,0.02670733444392681,0.7979648113250732,-0.0,0.006981848739087582,0.7930903434753418,0.06384910643100739,0.024829188361763954
908.0,927.0,2.9438,0.4146,9.871,-0.0165,-0.1529,-0.0603,-1.611504694024557,-0.30295637249946594,2.007420301437378,-1.874849796295166,0.22883473336696625,2.576826333999634,4.696938677425049,8.276265725726262e-05,0.32868289947509766,-1.5966575781451624,0.0,0.014636034145951271,0.7979767322540283,-0.0,-0.007066047750413418,0.7934423685073853,0.061292484402656555,0.022196874022483826
