ramyac6/ROB537/final_project/csv/test/bad/bad_131.csv
tof_0,tof_1,accelx,accely,accelz,gyrox,gyroy,gyroz,shoulder_lift_joint_position,shoulder_lift_joint_velocity,shoulder_lift_joint_effort,elbow_joint_position,elbow_joint_velocity,elbow_joint_effort,wrist_1_joint_position,wrist_1_joint_velocity,wrist_1_joint_effort,wrist_2_joint_position,wrist_2_joint_velocity,wrist_2_joint_effort,wrist_3_joint_position,wrist_3_joint_velocity,wrist_3_joint_effort,shoulder_pan_joint_position,shoulder_pan_joint_velocity,shoulder_pan_joint_effort
357.0,362.0,1.4524,0.1119,9.5013,-0.0347,0.0188,-0.109,-1.5343545538238068,0.0,1.9798972606658936,-1.8716976642608643,-0.0,2.145402669906616,4.696631594295166,0.0,0.2830772399902344,-1.5967257658587855,-0.0,-0.013323752209544182,0.7979366779327393,-0.0,-0.010814155451953411,0.798245906829834,0.0,-0.011205669492483139
357.0,362.0,1.4524,0.1119,9.5013,-0.0347,0.0188,-0.109,-1.5343505901149292,0.0,1.9844169616699219,-1.871673822402954,-0.0,2.15596866607666,4.696607275600098,0.0,0.2928696572780609,-1.5967095533954065,-0.0,-0.0175998006016016,0.797980546951294,-0.0,-0.003982321359217167,0.7983101010322571,0.0,0.009846152737736702
357.0,362.0,1.4524,0.1119,9.5013,-0.0347,0.0188,-0.109,-1.534370557670929,0.0,1.9826711416244507,-1.871673822402954,-0.0,2.1535134315490723,4.696638746852539,0.0,0.2880100607872009,-1.5967419783221644,-0.0,-0.008550452999770641,0.7979846000671387,-0.0,0.004948889836668968,0.798285961151123,0.0,0.020018337294459343
357.0,362.0,1.4524,0.1119,9.5013,-0.0347,0.0188,-0.109,-1.5344031390598794,0.0,1.976822018623352,-1.87172532081604,-0.0,2.1127939224243164,4.696619196529053,0.0,0.29613491892814636,-1.5967214743243616,-0.0,0.009170775301754475,0.7979848384857178,-0.0,-0.009455487132072449,0.7982620000839233,0.0,-0.02378748543560505
357.0,362.0,1.4524,0.1119,9.5013,-0.0347,0.0188,-0.109,-1.5343345937183877,0.0,1.980847716331482,-1.8717613220214844,-0.0,2.0983190536499023,4.696627302760742,0.0,0.2985761761665344,-1.5967300573932093,-0.0,-0.007184482179582119,0.7979488372802734,-0.0,-0.0033650407567620277,0.7982378005981445,0.0,0.007499495521187782
357.0,362.0,1.4524,0.1119,9.5013,-0.0347,0.0188,-0.109,-1.5343183775297184,0.0,1.9495019912719727,-1.8717098236083984,-0.0,2.125816822052002,4.6965905862995605,0.0,0.2951819598674774,-1.5967419783221644,-0.0,0.006126969121396542,0.7979729175567627,-0.0,-0.005823785439133644,0.7983061075210571,0.0,0.025236856192350388
357.0,362.0,1.4524,0.1119,9.5013,-0.0347,0.0188,-0.109,-1.5343546953848382,0.0,2.0228333473205566,-1.8716976642608643,-0.0,2.1838812828063965,4.696610613460205,0.0,0.2906618118286133,-1.5967257658587855,-0.0,-0.012158133089542389,0.7979567050933838,-0.0,0.0023061211686581373,0.7982778549194336,0.0,0.009923644363880157
357.0,362.0,1.4524,0.1119,9.5013,-0.0347,0.0188,-0.109,-1.5343545463732262,0.0,2.0220859050750732,-1.8717572689056396,-0.0,2.118133783340454,4.696655436153076,0.0,0.3002869486808777,-1.596733872090475,-0.0,-0.003963747527450323,0.7979967594146729,-0.0,-0.002048551570624113,0.7983181476593018,0.0,0.01940486766397953
361.0,377.0,1.5864,0.1561,9.3661,-0.037,0.0203,-0.1129,-1.5343787682107468,0.0,1.9626269340515137,-1.8716214895248413,-0.0,2.195415735244751,4.696602507228516,0.0,0.2833956778049469,-1.596705738698141,-0.0,-0.006718110293149948,0.7979366779327393,-0.0,-0.010885916650295258,0.798265814781189,0.0,0.021301807835698128
361.0,377.0,1.5864,0.1561,9.3661,-0.037,0.0203,-0.1129,-1.5343669292381783,0.0,2.0342860221862793,-1.8717172145843506,-0.0,2.1563336849212646,4.69659869253125,0.0,0.29873284697532654,-1.5967744032489222,-0.0,-0.016401518136262894,0.7979488372802734,-0.0,-0.00490095978602767,0.7982660531997681,0.0,-0.019755396991968155
361.0,377.0,1.5864,0.1561,9.3661,-0.037,0.0203,-0.1129,-1.534366899435856,0.0,1.997979998588562,-1.8716976642608643,-0.0,2.1299750804901123,4.696631594295166,0.0,0.2840859293937683,-1.5966938177691858,-0.0,0.0013578967191278934,0.7979404330253601,-0.0,0.004167099483311176,0.7982940077781677,0.0,0.0021411250345408916
361.0,377.0,1.5864,0.1561,9.3661,-0.037,0.0203,-0.1129,-1.5343423050693055,0.0,1.977591872215271,-1.8716778755187988,-0.0,2.1335620880126953,4.696627302760742,0.0,0.2913604974746704,-1.5967538992511194,-0.0,-0.018227726221084595,0.7979488372802734,-0.0,-3.296835348010063e-05,0.7982337474822998,0.0,0.06951606273651123
361.0,377.0,1.5864,0.1561,9.3661,-0.037,0.0203,-0.1129,-1.5343382370522995,0.0,1.9919477701187134,-1.8716691732406616,-0.0,2.1503047943115234,4.69659869253125,0.0,0.2895578145980835,-1.596757713948385,-0.0,0.0034667225554585457,0.7979567050933838,-0.0,-0.005788834765553474,0.7982658743858337,0.0,0.040522705763578415
361.0,377.0,1.5864,0.1561,9.3661,-0.037,0.0203,-0.1129,-1.534375139777996,0.0,1.936488151550293,-1.8717091083526611,-0.0,2.1128225326538086,4.696631594295166,0.0,0.28040799498558044,-1.5967376867877405,-0.0,-0.013341830112040043,0.7980046272277832,-0.0,0.00476527214050293,0.7982739210128784,0.0,-0.022326357662677765
361.0,377.0,1.5864,0.1561,9.3661,-0.037,0.0203,-0.1129,-1.534358673994877,0.0,1.9547193050384521,-1.8716819286346436,-0.0,2.1843342781066895,4.696631594295166,0.0,0.29283010959625244,-1.5967500845538538,-0.0,-0.009135967120528221,0.7980086803436279,-0.0,-0.000680869969073683,0.7982698678970337,0.0,0.007496041711419821
361.0,377.0,1.5864,0.1561,9.3661,-0.037,0.0203,-0.1129,-1.5343504597297688,0.0,1.9563751220703125,-1.871685266494751,-0.0,2.1012516021728516,4.69657485067334,0.0,0.28698068857192993,-1.5967419783221644,-0.0,-0.014412883669137955,0.7979209423065186,-0.0,-0.004632415249943733,0.7983020544052124,0.0,0.045141950249671936
361.0,377.0,1.5864,0.1561,9.3661,-0.037,0.0203,-0.1129,-1.534322240655758,0.0,1.9968098402023315,-1.871657371520996,-0.0,2.134129762649536,4.696634455318115,0.0,0.29178479313850403,-1.5967744032489222,-0.0,-0.011343748308718204,0.7979926466941833,-0.0,-0.001352605177089572,0.7983061075210571,0.0,0.037139877676963806
361.0,377.0,1.5864,0.1561,9.3661,-0.037,0.0203,-0.1129,-1.5343142387321969,0.0,1.9535636901855469,-1.871657371520996,-0.0,2.145737409591675,4.696654959315918,0.0,0.29668331146240234,-1.5967095533954065,-0.0,0.008728248998522758,0.7979567646980286,-0.0,-6.119720637798309e-06,0.7982620596885681,0.0,-0.011771902441978455
361.0,377.0,1.5864,0.1561,9.3661,-0.037,0.0203,-0.1129,-1.5344150376370926,0.0,1.9454572200775146,-1.8716936111450195,-0.0,2.0991933345794678,4.696586294765137,0.0,0.2896159887313843,-1.596733872090475,-0.0,-0.006580322049558163,0.7979526519775391,-0.0,0.00157425575889647,0.7983382344245911,0.0,-0.011272752657532692
361.0,377.0,1.5864,0.1561,9.3661,-0.037,0.0203,-0.1129,-1.534390815799572,0.0,1.9883460998535156,-1.8716933727264404,-0.0,2.132349967956543,4.69656674444165,0.0,0.2998099625110626,-1.5967333952533167,-0.0,-0.008628882467746735,0.7979607582092285,-0.0,-0.0006234083557501435,0.7983181476593018,0.0,-0.009213682264089584
361.0,377.0,1.5864,0.1561,9.3661,-0.037,0.0203,-0.1129,-1.5343341690352936,0.0,1.9735848903656006,-1.8717098236083984,-0.0,2.1466071605682373,4.696619196529053,0.0,0.29445597529411316,-1.5967257658587855,-0.0,-0.006920338608324528,0.797940731048584,-0.0,-0.0015505371848121285,0.7982898950576782,0.0,0.003037688322365284
361.0,377.0,1.5864,0.1561,9.3661,-0.037,0.0203,-0.1129,-1.5343545389226456,0.0,1.9552009105682373,-1.871673822402954,-0.0,2.091491460800171,4.69659869253125,0.0,0.28817036747932434,-1.596705738698141,-0.0,-0.00019589997828006744,0.7979645729064941,-0.0,-0.002080869162455201,0.7982980012893677,0.0,-0.061045125126838684
361.0,377.0,1.5864,0.1561,9.3661,-0.037,0.0203,-0.1129,-1.5343423646739502,0.0,1.962775707244873,-1.8716933727264404,-0.0,2.152987480163574,4.696607275600098,0.0,0.2995088994503021,-1.5967095533954065,-0.0,0.008831196464598179,0.7979846000671387,-0.0,-0.007368545979261398,0.7982739210128784,0.0,-0.014301982708275318
361.0,377.0,1.5864,0.1561,9.3661,-0.037,0.0203,-0.1129,-1.5343710158816357,0.0,1.9960078001022339,-1.8717377185821533,-0.0,2.10589337348938,4.696606798762939,0.0,0.2949899137020111,-1.596689526234762,-0.0,-0.006993846036493778,0.7979607582092285,-0.0,-0.0009995595319196582,0.7982580065727234,0.0,0.007546765264123678
361.0,348.0,1.4889,0.1759,9.5336,-0.0289,0.0137,-0.1011,-1.53437094510112,0.0,1.9761064052581787,-1.8717172145843506,-0.0,2.1346545219421387,4.696639700526855,0.0,0.2885449528694153,-1.5967419783221644,-0.0,-0.018023554235696793,0.7979726791381836,-0.0,-0.007704186253249645,0.7982617616653442,0.0,-0.005357968155294657
361.0,348.0,1.4889,0.1759,9.5336,-0.0289,0.0137,-0.1011,-1.534378719781973,0.0,1.9609017372131348,-1.8716936111450195,-0.0,2.162996292114258,4.696614904994629,0.0,0.2920859158039093,-1.5967620054828089,-0.0,-0.002611592411994934,0.7979648113250732,-0.0,-0.009936029091477394,0.7982216477394104,0.0,-0.005425141658633947
361.0,348.0,1.4889,0.1759,9.5336,-0.0289,0.0137,-0.1011,-1.534366899435856,0.0,1.9643349647521973,-1.871685266494751,-0.0,2.1083250045776367,4.696638746852539,0.0,0.29276618361473083,-1.5967376867877405,-0.0,-0.005978983826935291,0.7979888319969177,-0.0,-0.008965009823441505,0.7982739210128784,0.0,0.05240730196237564
361.0,348.0,1.4889,0.1759,9.5336,-0.0289,0.0137,-0.1011,-1.534399115746357,0.0,1.959272027015686,-1.871701717376709,-0.0,2.119868516921997,4.696610613460205,0.0,0.28960850834846497,-1.5966737906085413,-0.0,-0.0182812362909317,0.7979645729064941,-0.0,-0.005544280633330345,0.7983020544052124,0.0,0.017710557207465172
361.0,348.0,1.4889,0.1759,9.5336,-0.0289,0.0137,-0.1011,-1.534358636741974,0.0,1.9794055223464966,-1.8717212677001953,-0.0,2.0826430320739746,4.696586771602295,0.0,0.29295846819877625,-1.5967376867877405,-0.0,-0.0009782373672351241,0.7979728579521179,-0.0,0.00440454576164484,0.7982739210128784,0.0,-0.0392657145857811
361.0,348.0,1.4889,0.1759,9.5336,-0.0289,0.0137,-0.1011,-1.5343545202961941,0.0,2.0010781288146973,-1.871701717376709,-0.0,2.1651504039764404,4.696606798762939,0.0,0.29152271151542664,-1.596757713948385,-0.0,-0.015767741948366165,0.7979528903961182,-0.0,-0.0037868889048695564,0.798293948173523,0.0,0.011805546469986439
361.0,348.0,1.4889,0.1759,9.5336,-0.0289,0.0137,-0.1011,-1.5343828958323975,0.0,2.0010247230529785,-1.871657371520996,-0.0,2.1457695960998535,4.696619196529053,0.0,0.290752112865448,-1.5967257658587855,-0.0,-0.00564973521977663,0.7979767322540283,-0.0,0.0012807119637727737,0.7982900142669678,0.0,-0.03566829115152359
361.0,348.0,1.4889,0.1759,9.5336,-0.0289,0.0137,-0.1011,-1.5343627494624634,0.0,1.9728775024414062,-1.871685266494751,-0.0,2.0851941108703613,4.6965905862995605,0.0,0.294820100069046,-1.5967376867877405,-0.0,-0.008666375651955605,0.7979966998100281,-0.0,-0.008104580454528332,0.798261821269989,0.0,-0.038537587970495224
361.0,348.0,1.4889,0.1759,9.5336,-0.0289,0.0137,-0.1011,-1.5343505193344136,0.0,1.9551403522491455,-1.871645212173462,-0.0,2.136662483215332,4.696643038386963,0.0,0.28760862350463867,-1.59674579301943,-0.0,-0.0028238166123628616,0.7979686260223389,-0.0,0.013688656501471996,0.7983020544052124,0.0,-0.00034991931170225143
361.0,348.0,1.4889,0.1759,9.5336,-0.0289,0.0137,-0.1011,-1.5343586590937157,0.0,1.9676563739776611,-1.8717172145843506,-0.0,2.1585936546325684,4.696654959315918,0.0,0.28679245710372925,-1.5967214743243616,-0.0,-0.019557440653443336,0.7979648113250732,-0.0,-0.0011046549770981073,0.798285961151123,0.0,-0.0009658425115048885
361.0,348.0,1.4889,0.1759,9.5336,-0.0289,0.0137,-0.1011,-1.53437443942342,0.0,2.0256659984588623,-1.8716819286346436,-0.0,2.1307930946350098,4.696614904994629,0.0,0.29898467659950256,-1.5967538992511194,-0.0,-0.014184588566422462,0.7979927062988281,-0.0,-0.012138443067669868,0.798285961151123,0.0,0.026898955926299095
361.0,348.0,1.4889,0.1759,9.5336,-0.0289,0.0137,-0.1011,-1.5343828660300751,0.0,2.0032620429992676,-1.8716697692871094,-0.0,2.163268566131592,4.696619196529053,0.0,0.2853062152862549,-1.596701447163717,-0.0,-0.0018111966783180833,0.7979567050933838,-0.0,-0.005311775021255016,0.7982980012893677,0.0,-0.02102847769856453
361.0,348.0,1.4889,0.1759,9.5336,-0.0289,0.0137,-0.1011,-1.5343627494624634,0.0,1.9696440696716309,-1.8717296123504639,-0.0,2.120133876800537,4.696582956905029,0.0,0.2912013530731201,-1.596705738698141,-0.0,-0.01658175326883793,0.7979607582092285,-0.0,-0.011657733470201492,0.7982580065727234,0.0,0.01180085726082325
361.0,348.0,1.4889,0.1759,9.5336,-0.0289,0.0137,-0.1011,-1.534386982475855,0.0,2.0075950622558594,-1.8717211484909058,-0.0,2.1120872497558594,4.696614904994629,0.0,0.2922590672969818,-1.5967257658587855,-0.0,-0.0014011514140293002,0.7979447841644287,-0.0,0.005123406648635864,0.7982940077781677,0.0,-0.025954484939575195
361.0,348.0,1.4889,0.1759,9.5336,-0.0289,0.0137,-0.1011,-1.5344151084176083,0.0,1.9852045774459839,-1.871657371520996,-0.0,2.1841726303100586,4.696631594295166,0.0,0.30513447523117065,-1.5967138449298304,-0.0,-0.012054115533828735,0.7979846000671387,-0.0,0.0016159286024048924,0.7982819080352783,0.0,0.008307588286697865
361.0,348.0,1.4889,0.1759,9.5336,-0.0289,0.0137,-0.1011,-1.5343709600022812,0.0,1.9740142822265625,-1.8716657161712646,-0.0,2.1339564323425293,4.696631594295166,0.0,0.2906379699707031,-1.596790615712301,-0.0,-0.003349828068166971,0.7979686260223389,-0.0,0.004066928289830685,0.7982779145240784,0.0,-0.019259558990597725
365.0,362.0,1.5924,0.2016,9.3571,-0.0363,0.0223,-0.1075,-1.5343627494624634,0.0,1.9795432090759277,-1.8716812133789062,-0.0,2.108503818511963,4.696663542384766,0.0,0.29899877309799194,-1.5967095533954065,-0.0,-0.01214437186717987,0.7979488372802734,-0.0,0.0001548089785501361,0.798265814781189,0.0,-0.0050552235916256905
365.0,362.0,1.5924,0.2016,9.3571,-0.0363,0.0223,-0.1075,-1.5343787384084244,0.0,1.9559342861175537,-1.8716893196105957,-0.0,2.151275396347046,4.696610613460205,0.0,0.3054983615875244,-1.5967095533954065,-0.0,-0.0028871367685496807,0.7979645729064941,-0.0,-0.005668525118380785,0.7982980012893677,0.0,-0.010466532781720161
365.0,362.0,1.5924,0.2016,9.3571,-0.0363,0.0223,-0.1075,-1.5343709860793133,0.0,2.0202956199645996,-1.8716974258422852,-0.0,2.1205368041992188,4.696619196529053,0.0,0.2908986210823059,-1.5967214743243616,-0.0,-0.008531354367733002,0.7979486584663391,-0.0,-0.0033415681682527065,0.7983340620994568,0.0,-0.006731217727065086
365.0,362.0,1.5924,0.2016,9.3571,-0.0363,0.0223,-0.1075,-1.5343546395054837,0.0,2.0083489418029785,-1.871673822402954,-0.0,2.1523799896240234,4.696627302760742,0.0,0.30216333270072937,-1.5967257658587855,-0.0,-0.005035793408751488,0.7979767322540283,-0.0,-0.004044973757117987,0.7982498407363892,0.0,3.949413076043129e-05
365.0,362.0,1.5924,0.2016,9.3571,-0.0363,0.0223,-0.1075,-1.534374677841999,0.0,1.9946541786193848,-1.871701717376709,-0.0,2.155698537826538,4.696606798762939,0.0,0.29092592000961304,-1.5967095533954065,-0.0,-0.008464373648166656,0.7980005741119385,-0.0,0.0008436371572315693,0.798285961151123,0.0,-0.027402693405747414
365.0,362.0,1.5924,0.2016,9.3571,-0.0363,0.0223,-0.1075,-1.534378745859005,0.0,1.9680860042572021,-1.8717296123504639,-0.0,2.112852096557617,4.69659869253125,0.0,0.2892817556858063,-1.5967701117144983,-0.0,-0.01046542078256607,0.7979648113250732,-0.0,0.003333908971399069,0.7982900142669678,0.0,-0.05442274734377861
365.0,362.0,1.5924,0.2016,9.3571,-0.0363,0.0223,-0.1075,-1.5343787048808117,0.0,1.9872219562530518,-1.8716771602630615,-0.0,2.1336069107055664,4.696614904994629,0.0,0.2915293872356415,-1.5967181364642542,-0.0,0.005194778088480234,0.7979607582092285,-0.0,0.012049653567373753,0.798285961151123,0.0,-0.021185750141739845
365.0,362.0,1.5924,0.2016,9.3571,-0.0363,0.0223,-0.1075,-1.5343705725720902,0.0,1.9933302402496338,-1.8717172145843506,-0.0,2.123816967010498,4.696610613460205,0.0,0.2946620583534241,-1.5967538992511194,-0.0,-0.0030559252481907606,0.7979606986045837,-0.0,0.003268089611083269,0.7982900142669678,0.0,-0.028870433568954468
365.0,362.0,1.5924,0.2016,9.3571,-0.0363,0.0223,-0.1075,-1.5343867105296631,0.0,1.990987777709961,-1.8717211484909058,-0.0,2.118581533432007,4.696623011226318,0.0,0.2852349579334259,-1.596717659627096,-0.0,3.915431443601847e-05,0.7979286313056946,-0.0,-0.004906489048153162,0.798289954662323,0.0,-0.004460851661860943
365.0,362.0,1.5924,0.2016,9.3571,-0.0363,0.0223,-0.1075,-1.5343545538238068,0.0,1.983269214630127,-1.8716813325881958,-0.0,2.1293118000030518,4.696606798762939,0.0,0.299259215593338,-1.596757713948385,-0.0,-0.014982250519096851,0.7979726791381836,-0.0,0.006491902284324169,0.798285961151123,0.0,0.01585347019135952
365.0,362.0,1.5924,0.2016,9.3571,-0.0363,0.0223,-0.1075,-1.5343627494624634,0.0,1.973609209060669,-1.8717098236083984,-0.0,2.1631839275360107,4.696602507228516,0.0,0.28043240308761597,-1.5967376867877405,-0.0,-0.004067635163664818,0.7979928851127625,-0.0,-0.0021335275378078222,0.798314094543457,0.0,-0.0005266554653644562
365.0,362.0,1.5924,0.2016,9.3571,-0.0363,0.0223,-0.1075,-1.5343669068864365,0.0,1.9664745330810547,-1.871701717376709,-0.0,2.161910057067871,4.696602984065674,0.0,0.28814464807510376,-1.5967744032489222,-0.0,-0.01710490882396698,0.7979728579521179,-0.0,-0.020601846277713776,0.7982779145240784,0.0,0.04502914473414421
365.0,362.0,1.5924,0.2016,9.3571,-0.0363,0.0223,-0.1075,-1.5343423534980793,0.0,1.9823198318481445,-1.8717613220214844,-0.0,2.1629488468170166,4.696586771602295,0.0,0.2890789210796356,-1.5967419783221644,-0.0,-0.005684147588908672,0.797984778881073,-0.0,-0.0039867921732366085,0.7982498407363892,0.0,-0.04127240180969238
365.0,362.0,1.5924,0.2016,9.3571,-0.0363,0.0223,-0.1075,-1.5343949061683197,0.0,1.9731998443603516,-1.8716895580291748,-0.0,2.1274304389953613,4.69657485067334,0.0,0.2906780242919922,-1.5967300573932093,-0.0,-0.011675574816763401,0.797924816608429,-0.0,0.012014644220471382,0.798265814781189,0.0,0.001612266292795539
365.0,362.0,1.5924,0.2016,9.3571,-0.0363,0.0223,-0.1075,-1.5343990635922928,0.0,1.9887640476226807,-1.8716691732406616,-0.0,2.1205806732177734,4.696667357082031,0.0,0.2802692651748657,-1.5967300573932093,-0.0,-0.007620560470968485,0.7979486584663391,-0.0,-0.005473093595355749,0.7983060479164124,0.0,-0.03715941309928894
365.0,362.0,1.5924,0.2016,9.3571,-0.0363,0.0223,-0.1075,-1.5343345676413556,0.0,2.0188791751861572,-1.8716893196105957,-0.0,2.1500141620635986,4.69657485067334,0.0,0.30581900477409363,-1.5967701117144983,-0.0,-0.019917234778404236,0.7979767322540283,-0.0,-0.009835157543420792,0.7983300089836121,0.0,0.017748266458511353
358.0,359.0,1.5374,0.1226,9.457,-0.0362,0.0203,-0.1129,-1.5343464326909562,0.0,1.951168417930603,-1.8717418909072876,-0.0,2.1346187591552734,4.696623011226318,0.0,0.28922706842422485,-1.5967782179461878,-0.0,0.0044148885644972324,0.7979607582092285,-0.0,-0.0016164310509338975,0.7982980608940125,0.0,0.011489346623420715
358.0,359.0,1.5374,0.1226,9.457,-0.0362,0.0203,-0.1129,-1.5343627494624634,0.0,1.9795236587524414,-1.8717172145843506,-0.0,2.142707109451294,4.696623011226318,0.0,0.29087406396865845,-1.596733872090475,-0.0,-0.011017870157957077,0.7979926466941833,-0.0,-0.00898231565952301,0.7983222007751465,0.0,0.033653754740953445
358.0,359.0,1.5374,0.1226,9.457,-0.0362,0.0203,-0.1129,-1.5343586553684254,0.0,1.9241943359375,-1.8717089891433716,-0.0,2.1151700019836426,4.696594877833984,0.0,0.28244954347610474,-1.5967257658587855,-0.0,-0.013545037247240543,0.7979648113250732,-0.0,-0.013397084549069405,0.7982258796691895,0.0,0.011576546356081963
358.0,359.0,1.5374,0.1226,9.457,-0.0362,0.0203,-0.1129,-1.5343382519534607,0.0,1.9823306798934937,-1.871677279472351,-0.0,2.1360368728637695,4.696654959315918,0.0,0.2863922715187073,-1.596689526234762,-0.0,-0.017243746668100357,0.7980126142501831,-0.0,-0.007765306159853935,0.7983060479164124,0.0,-0.03399132192134857
358.0,359.0,1.5374,0.1226,9.457,-0.0362,0.0203,-0.1129,-1.534330041413643,0.0,1.9581493139266968,-1.8716771602630615,-0.0,2.110196828842163,4.696627302760742,0.0,0.30178749561309814,-1.596705738698141,-0.0,-0.004132474772632122,0.7979567050933838,-0.0,0.00047858746256679296,0.7982819080352783,0.0,0.001997292973101139
358.0,359.0,1.5374,0.1226,9.457,-0.0362,0.0203,-0.1129,-1.5343908381513138,0.0,1.9802178144454956,-1.8716657161712646,-0.0,2.1275126934051514,4.696614904994629,0.0,0.29455170035362244,-1.5967620054828089,-0.0,-0.005110218655318022,0.7979767322540283,-0.0,0.014560453593730927,0.798293948173523,0.0,-0.032599784433841705
358.0,359.0,1.5374,0.1226,9.457,-0.0362,0.0203,-0.1129,-1.5343788054636498,0.0,1.9579262733459473,-1.8716771602630615,-0.0,2.1174631118774414,4.696631594295166,0.0,0.3024347126483917,-1.596689526234762,-0.0,-0.00957497302442789,0.7979646325111389,-0.0,-0.0037347692996263504,0.7983060479164124,0.0,-0.0043330686166882515
358.0,359.0,1.5374,0.1226,9.457,-0.0362,0.0203,-0.1129,-1.5343627494624634,0.0,1.9491205215454102,-1.8717091083526611,-0.0,2.152325391769409,4.696594877833984,0.0,0.2867831587791443,-1.5967419783221644,-0.0,0.004847509786486626,0.7979447841644287,-0.0,0.0009703878895379603,0.798293948173523,0.0,0.0585608035326004
358.0,359.0,1.5374,0.1226,9.457,-0.0362,0.0203,-0.1129,-1.534386758958437,0.0,1.9932677745819092,-1.8716696500778198,-0.0,2.1094937324523926,4.696623011226318,0.0,0.2920350432395935,-1.5967019240008753,-0.0,-0.010417791083455086,0.797920823097229,-0.0,-0.01020952221006155,0.7982980012893677,0.0,-0.02046639285981655
358.0,359.0,1.5374,0.1226,9.457,-0.0362,0.0203,-0.1129,-1.534378745859005,0.0,2.0074949264526367,-1.8716895580291748,-0.0,2.189953088760376,4.696562929744385,0.0,0.2928590774536133,-1.5967138449298304,-0.0,-0.010429831221699715,0.7979686260223389,-0.0,0.00040598426130600274,0.7983061075210571,0.0,-0.01828780211508274
358.0,359.0,1.5374,0.1226,9.457,-0.0362,0.0203,-0.1129,-1.5343342174640675,0.0,1.9928295612335205,-1.8717293739318848,-0.0,2.154958486557007,4.696623011226318,0.0,0.2926848828792572,-1.5967133680926722,-0.0,-0.004385525360703468,0.7979646325111389,-0.0,0.004106337204575539,0.7982980012893677,0.0,0.055220551788806915
358.0,359.0,1.5374,0.1226,9.457,-0.0362,0.0203,-0.1129,-1.534374677841999,0.0,1.988732933998108,-1.8717131614685059,-0.0,2.1151630878448486,4.696594877833984,0.0,0.30392616987228394,-1.596701447163717,-0.0,-0.010165979154407978,0.7979048490524292,-0.0,-0.010250959545373917,0.7982980012893677,0.0,-0.032487981021404266
358.0,359.0,1.5374,0.1226,9.457,-0.0362,0.0203,-0.1129,-1.5343627494624634,0.0,1.9492177963256836,-1.8716657161712646,-0.0,2.1112499237060547,4.696606798762939,0.0,0.2977730631828308,-1.5967138449298304,-0.0,-0.014428213238716125,0.7979686260223389,-0.0,0.002721665892750025,0.7982981204986572,0.0,-0.006459412164986134
358.0,359.0,1.5374,0.1226,9.457,-0.0362,0.0203,-0.1129,-1.5343102005175133,0.0,1.994986653327942,-1.8716974258422852,-0.0,2.121464252471924,4.696614904994629,0.0,0.28728964924812317,-1.5967419783221644,-0.0,-0.00998099148273468,0.7979766726493835,-0.0,-0.0015953039983287454,0.7982739210128784,0.0,0.027906738221645355
358.0,359.0,1.5374,0.1226,9.457,-0.0362,0.0203,-0.1129,-1.5343949061683197,0.0,1.9878685474395752,-1.8716936111450195,-0.0,2.123929262161255,4.696614904994629,0.0,0.2946081757545471,-1.5967419783221644,-0.0,-0.0047650933265686035,0.7979726791381836,-0.0,0.0018053955864161253,0.7982819676399231,0.0,-0.009962557815015316
358.0,359.0,1.5374,0.1226,9.457,-0.0362,0.0203,-0.1129,-1.534378745859005,0.0,1.9732259511947632,-1.871753215789795,-0.0,2.1542205810546875,4.696614904994629,0.0,0.30317234992980957,-1.5967095533954065,-0.0,-0.00018533458933234215,0.797980546951294,-0.0,0.0063744885846972466,0.798318088054657,0.0,0.004748820327222347
371.0,368.0,1.6834,0.1723,9.2931,-0.0373,0.027,-0.106,-1.534378745859005,0.0,1.9995973110198975,-1.8717377185821533,-0.0,2.1507370471954346,4.6966468530842285,0.0,0.28971248865127563,-1.5966976324664515,-0.0,-0.006646301131695509,0.7979767322540283,-0.0,-0.0009538423037156463,0.7982778549194336,0.0,-0.03505886346101761
371.0,368.0,1.6834,0.1723,9.2931,-0.0373,0.027,-0.106,-1.5343829070082684,0.0,1.964219331741333,-1.8716976642608643,-0.0,2.165515899658203,4.696611090297363,0.0,0.2938615381717682,-1.5967214743243616,-0.0,-0.00024478393606841564,0.7979527115821838,-0.0,-0.008981497958302498,0.7982620596885681,0.0,0.017188195139169693
371.0,368.0,1.6834,0.1723,9.2931,-0.0373,0.027,-0.106,-1.5343669068864365,0.0,1.9858224391937256,-1.8717057704925537,-0.0,2.1642653942108154,4.696635408992432,0.0,0.294221431016922,-1.596717659627096,-0.0,0.0031289118342101574,0.7979048490524292,-0.0,0.0010882342467084527,0.7982739210128784,0.0,0.035519860684871674
371.0,368.0,1.6834,0.1723,9.2931,-0.0373,0.027,-0.106,-1.5343627643636246,0.0,1.9568085670471191,-1.8717089891433716,-0.0,2.1243324279785156,4.696626825923584,0.0,0.28031378984451294,-1.5966532866107386,-0.0,-0.003549538552761078,0.7979288697242737,-0.0,0.00012599839828908443,0.7982739210128784,0.0,-0.033901430666446686
371.0,368.0,1.6834,0.1723,9.2931,-0.0373,0.027,-0.106,-1.5343949061683197,0.0,1.9611856937408447,-1.8717057704925537,-0.0,2.144336223602295,4.696638746852539,0.0,0.29940444231033325,-1.5967095533954065,-0.0,-0.010078531689941883,0.7979767322540283,-0.0,0.0054442742839455605,0.7983340620994568,0.0,0.015424568206071854
371.0,368.0,1.6834,0.1723,9.2931,-0.0373,0.027,-0.106,-1.534358673994877,0.0,1.956627368927002,-1.871741771697998,-0.0,2.092933177947998,4.6966468530842285,0.0,0.2941247820854187,-1.5967300573932093,-0.0,-0.0017377369804307818,0.7979766726493835,-0.0,-0.013068725354969501,0.7983020544052124,0.0,0.009101049974560738
371.0,368.0,1.6834,0.1723,9.2931,-0.0373,0.027,-0.106,-1.534362358306982,0.0,1.9767433404922485,-1.871657371520996,-0.0,2.17706298828125,4.69665448247876,0.0,0.2887051999568939,-1.5967095533954065,-0.0,-0.010404180735349655,0.7979727983474731,-0.0,-0.017034359276294708,0.7982778549194336,0.0,0.008146786130964756
371.0,368.0,1.6834,0.1723,9.2931,-0.0373,0.027,-0.106,-1.5343386691859742,0.0,1.9942917823791504,-1.871673822402954,-0.0,2.1486642360687256,4.696587248439453,0.0,0.28501611948013306,-1.5967300573932093,-0.0,-0.01466977410018444,0.7980005145072937,-0.0,-0.0033867880702018738,0.7982820272445679,0.0,0.03963839262723923
371.0,368.0,1.6834,0.1723,9.2931,-0.0373,0.027,-0.106,-1.5343304325691243,0.0,1.9468079805374146,-1.8716936111450195,-0.0,2.127654552459717,4.696650667781494,0.0,0.2907414436340332,-1.5967257658587855,-0.0,-0.023297347128391266,0.7980086803436279,-0.0,-0.020453155040740967,0.798293948173523,0.0,-0.03423633426427841
371.0,368.0,1.6834,0.1723,9.2931,-0.0373,0.027,-0.106,-1.534342785631754,0.0,2.0162220001220703,-1.871701717376709,-0.0,2.1249613761901855,4.696614904994629,0.0,0.2913847863674164,-1.5967662970172327,-0.0,-0.010493103414773941,0.7979646325111389,-0.0,-0.001342445146292448,0.7982617616653442,0.0,0.026469344273209572
371.0,368.0,1.6834,0.1723,9.2931,-0.0373,0.027,-0.106,-1.5343464326909562,0.0,1.9796240329742432,-1.8717336654663086,-0.0,2.1288506984710693,4.696627302760742,0.0,0.2795499265193939,-1.5966938177691858,-0.0,-0.012521274387836456,0.7979527115821838,-0.0,0.006021884735673666,0.798285961151123,0.0,0.02953585982322693
371.0,368.0,1.6834,0.1723,9.2931,-0.0373,0.027,-0.106,-1.5344352957657357,0.0,1.9862416982650757,-1.8717418909072876,-0.0,2.1278698444366455,4.6965672212788085,0.0,0.29158395528793335,-1.5967214743243616,-0.0,-0.008145078085362911,0.7979647517204285,-0.0,-0.0016894087893888354,0.7982178926467896,0.0,0.02081245929002762
371.0,368.0,1.6834,0.1723,9.2931,-0.0373,0.027,-0.106,-1.5343505901149292,0.0,2.004509925842285,-1.8716734647750854,-0.0,2.132283926010132,4.696627302760742,0.0,0.30499207973480225,-1.596705738698141,-0.0,-0.0036120153963565826,0.7978846430778503,-0.0,0.0030629290267825127,0.7982498407363892,0.0,0.02256697788834572
371.0,368.0,1.6834,0.1723,9.2931,-0.0373,0.027,-0.106,-1.5343829293600102,0.0,2.0146632194519043,-1.8716697692871094,-0.0,2.172682523727417,4.696627302760742,0.0,0.2961495518684387,-1.5967333952533167,-0.0,-0.012613080441951752,0.7979926466941833,-0.0,-0.010105478577315807,0.7983099818229675,0.0,0.02292909100651741
371.0,368.0,1.6834,0.1723,9.2931,-0.0373,0.027,-0.106,-1.5343669068864365,0.0,1.9827749729156494,-1.8716731071472168,-0.0,2.145460605621338,4.696627302760742,0.0,0.2947830855846405,-1.5967419783221644,-0.0,-0.017002638429403305,0.7979567646980286,-0.0,-0.0017987934406846762,0.7983101606369019,0.0,-0.0026272484101355076
371.0,368.0,1.6834,0.1723,9.2931,-0.0373,0.027,-0.106,-1.5343463768116017,0.0,1.9756536483764648,-1.8717057704925537,-0.0,2.1500799655914307,4.696643038386963,0.0,0.2883288562297821,-1.5967214743243616,-0.0,-0.0113052474334836,0.7979286909103394,-0.0,0.0007218348328024149,0.7982658743858337,0.0,0.02271071821451187
365.0,367.0,1.5176,0.1292,9.5139,-0.0431,0.0215,-0.1159,-1.5343304325691243,0.0,1.9791678190231323,-1.8716893196105957,-0.0,2.179769992828369,4.696611090297363,0.0,0.29546892642974854,-1.5967214743243616,-0.0,-0.014009127393364906,0.7979847192764282,-0.0,-0.012172332964837551,0.7983059883117676,0.0,-0.04155435785651207
365.0,367.0,1.5176,0.1292,9.5139,-0.0431,0.0215,-0.1159,-1.5343746703914185,0.0,1.9695194959640503,-1.8717215061187744,-0.0,2.137833595275879,4.696639223689697,0.0,0.2985100746154785,-1.5967538992511194,-0.0,-0.005654686596244574,0.7979607582092285,-0.0,-0.006752551533281803,0.7982900142669678,0.0,0.029866188764572144
365.0,367.0,1.5176,0.1292,9.5139,-0.0431,0.0215,-0.1159,-1.5343787309578438,0.0,1.9339841604232788,-1.8716976642608643,-0.0,2.1124415397644043,4.696587248439453,0.0,0.29310208559036255,-1.5967257658587855,-0.0,-0.00464837159961462,0.7979248762130737,-0.0,0.0011234019184485078,0.7983100414276123,0.0,-0.04111456498503685
365.0,367.0,1.5176,0.1292,9.5139,-0.0431,0.0215,-0.1159,-1.5343949061683197,0.0,1.9721729755401611,-1.8717138767242432,-0.0,2.17860746383667,4.696638746852539,0.0,0.2918383479118347,-1.5966976324664515,-0.0,-0.017360646277666092,0.7979766726493835,-0.0,-0.0014451057650148869,0.7982417941093445,0.0,-0.005363094620406628
365.0,367.0,1.5176,0.1292,9.5139,-0.0431,0.0215,-0.1159,-1.5343382519534607,0.0,1.9850177764892578,-1.8717336654663086,-0.0,2.097590208053589,4.696626825923584,0.0,0.2788185179233551,-1.5967300573932093,-0.0,-0.003103577997535467,0.7978767156600952,-0.0,-0.0018477353733032942,0.7982579469680786,0.0,0.03449774906039238
365.0,367.0,1.5176,0.1292,9.5139,-0.0431,0.0215,-0.1159,-1.5343382370522995,0.0,1.9701895713806152,-1.8716697692871094,-0.0,2.132025957107544,4.6966187196918945,0.0,0.29629117250442505,-1.596689526234762,-0.0,0.006314849480986595,0.7980045676231384,-0.0,-0.005756806582212448,0.798314094543457,0.0,-0.02022625133395195
365.0,367.0,1.5176,0.1292,9.5139,-0.0431,0.0215,-0.1159,-1.5343627494624634,0.0,1.955100178718567,-1.8716697692871094,-0.0,2.1202244758605957,4.696614904994629,0.0,0.2911922335624695,-1.5967419783221644,-0.0,-0.0006146208615973592,0.7979567646980286,-0.0,-0.006710830610245466,0.7982938885688782,0.0,-0.06235453486442566
365.0,367.0,1.5176,0.1292,9.5139,-0.0431,0.0215,-0.1159,-1.5343464326909562,0.0,1.9777860641479492,-1.87172532081604,-0.0,2.1415798664093018,4.696582956905029,0.0,0.2827101945877075,-1.5967214743243616,-0.0,-0.013929071836173534,0.7979926466941833,-0.0,0.0010448712855577469,0.7982980012893677,0.0,0.010949315503239632
365.0,367.0,1.5176,0.1292,9.5139,-0.0431,0.0215,-0.1159,-1.5343304102173825,0.0,1.9737277030944824,-1.8717050552368164,-0.0,2.132199764251709,4.696642561549805,0.0,0.28854620456695557,-1.596701447163717,-0.0,-0.019247563555836678,0.7979327440261841,-0.0,-0.002463700482621789,0.7982980012893677,0.0,0.0092775234952569
365.0,367.0,1.5176,0.1292,9.5139,-0.0431,0.0215,-0.1159,-1.5343505565873166,0.0,1.988031029701233,-1.8716495037078857,-0.0,2.125450849533081,4.696599169368408,0.0,0.291617751121521,-1.596729580556051,-0.0,0.0013443827629089355,0.7979806065559387,-0.0,-0.007155370898544788,0.7983220815658569,0.0,0.016325857490301132
365.0,367.0,1.5176,0.1292,9.5139,-0.0431,0.0215,-0.1159,-1.534378745859005,0.0,1.9840842485427856,-1.8716936111450195,-0.0,2.1295313835144043,4.696614904994629,0.0,0.28818413615226746,-1.5966938177691858,-0.0,-0.013424115255475044,0.7979567646980286,-0.0,-0.014459339901804924,0.7983100414276123,0.0,8.89352522790432e-05
365.0,367.0,1.5176,0.1292,9.5139,-0.0431,0.0215,-0.1159,-1.5343423534980793,0.0,1.9938874244689941,-1.8716812133789062,-0.0,2.120015859603882,4.696575327510498,0.0,0.29449158906936646,-1.59674579301943,-0.0,-0.0036947184707969427,0.7978727221488953,-0.0,-0.007771030534058809,0.7983302474021912,0.0,0.04242709279060364
365.0,367.0,1.5176,0.1292,9.5139,-0.0431,0.0215,-0.1159,-1.5343464252403756,0.0,1.9624707698822021,-1.8716615438461304,-0.0,2.1380252838134766,4.696582956905029,0.0,0.2974586486816406,-1.5967138449298304,-0.0,-0.012128212489187717,0.7979528307914734,-0.0,-0.014146752655506134,0.7982499003410339,0.0,-0.007990412414073944
365.0,367.0,1.5176,0.1292,9.5139,-0.0431,0.0215,-0.1159,-1.534358673994877,0.0,1.971604347229004,-1.8716893196105957,-0.0,2.1129519939422607,4.696635408992432,0.0,0.2884213328361511,-1.5967095533954065,-0.0,-0.013613488525152206,0.7979965209960938,-0.0,-0.003236043266952038,0.7983219623565674,0.0,0.01046638935804367
365.0,367.0,1.5176,0.1292,9.5139,-0.0431,0.0215,-0.1159,-1.5343709600022812,0.0,1.9687602519989014,-1.8716936111450195,-0.0,2.1296420097351074,4.696631117458008,0.0,0.3047327995300293,-1.5967181364642542,-0.0,0.0006811477360315621,0.7979448437690735,-0.0,-0.005264608189463615,0.798334002494812,0.0,0.00885947048664093
365.0,367.0,1.5176,0.1292,9.5139,-0.0431,0.0215,-0.1159,-1.534378745859005,0.0,2.0105092525482178,-1.8716535568237305,-0.0,2.1285436153411865,4.6966234880634765,0.0,0.2930472493171692,-1.5967095533954065,-0.0,-0.004145946819335222,0.7979966402053833,-0.0,-0.008974457159638405,0.7982819080352783,0.0,0.005224207416176796
365.0,357.0,1.5721,0.14,9.402,-0.0414,0.0223,-0.1133,-1.5343464326909562,0.0,1.9779653549194336,-1.8717377185821533,-0.0,2.125288724899292,4.696642561549805,0.0,0.2901838719844818,-1.5967381636248987,-0.0,-0.006664889864623547,0.7980486750602722,-0.0,-0.010542340576648712,0.7983101010322571,0.0,-0.011868663132190704
365.0,357.0,1.5721,0.14,9.402,-0.0414,0.0223,-0.1133,-1.534390864228346,0.0,1.9665029048919678,-1.8716895580291748,-0.0,2.127793312072754,4.69665448247876,0.0,0.2955034375190735,-1.5966976324664515,-0.0,-0.011297140270471573,0.7979726791381836,-0.0,-0.004684088286012411,0.7982980012893677,0.0,-0.033881958574056625
365.0,357.0,1.5721,0.14,9.402,-0.0414,0.0223,-0.1133,-1.534390826975443,0.0,1.944751262664795,-1.8716657161712646,-0.0,2.1169700622558594,4.696634932155273,0.0,0.30201607942581177,-1.5967181364642542,-0.0,0.005569645203649998,0.7979568839073181,-0.0,-0.00303446501493454,0.7982980012893677,0.0,0.022316696122288704
365.0,357.0,1.5721,0.14,9.402,-0.0414,0.0223,-0.1133,-1.5343341280571003,0.0,2.0227718353271484,-1.8716778755187988,-0.0,2.1647727489471436,4.696611090297363,0.0,0.2887514531612396,-1.5967419783221644,-0.0,-0.008972881361842155,0.7979448437690735,-0.0,-0.006750695873051882,0.7982138395309448,0.0,0.05428255349397659
365.0,357.0,1.5721,0.14,9.402,-0.0414,0.0223,-0.1133,-1.5343345639160653,0.0,1.9984278678894043,-1.8716976642608643,-0.0,2.1073532104492188,4.696623011226318,0.0,0.28231483697891235,-1.5967620054828089,-0.0,-0.013874772004783154,0.7979208827018738,-0.0,-0.015656061470508575,0.7983461022377014,0.0,0.04453466087579727
365.0,357.0,1.5721,0.14,9.402,-0.0414,0.0223,-0.1133,-1.534390826975443,0.0,2.0164365768432617,-1.871701717376709,-0.0,2.1477954387664795,4.696635408992432,0.0,0.295282244682312,-1.5967538992511194,-0.0,-0.01561467070132494,0.7979089021682739,-0.0,-0.005946814548224211,0.7983421087265015,0.0,0.010386087000370026
365.0,357.0,1.5721,0.14,9.402,-0.0414,0.0223,-0.1133,-1.534362756913044,0.0,1.9808013439178467,-1.8717057704925537,-0.0,2.137324571609497,4.696594877833984,0.0,0.3088138997554779,-1.5967095533954065,-0.0,0.007878392934799194,0.7979766726493835,-0.0,-0.005472627934068441,0.7982900142669678,0.0,0.004735768772661686
365.0,357.0,1.5721,0.14,9.402,-0.0414,0.0223,-0.1133,-1.5343423721245308,0.0,1.9657721519470215,-1.871685266494751,-0.0,2.094942092895508,4.696635408992432,0.0,0.29316675662994385,-1.5967181364642542,-0.0,-0.012346474453806877,0.7979806661605835,-0.0,-0.009074184112250805,0.7983222007751465,0.0,0.0002838949440047145
365.0,357.0,1.5721,0.14,9.402,-0.0414,0.0223,-0.1133,-1.5343709860793133,0.0,1.9915966987609863,-1.8716976642608643,-0.0,2.111475944519043,4.696631117458008,0.0,0.29350897669792175,-1.5967500845538538,-0.0,-0.015091445297002792,0.7979406714439392,-0.0,-0.012795706279575825,0.7983020544052124,0.0,0.018738791346549988
365.0,357.0,1.5721,0.14,9.402,-0.0414,0.0223,-0.1133,-1.5343991231969376,0.0,1.9321212768554688,-1.871673822402954,-0.0,2.092708110809326,4.6966234880634765,0.0,0.2924967110157013,-1.5967095533954065,-0.0,-0.0005961351562291384,0.7979567050933838,-0.0,-0.001549375243484974,0.7983221411705017,0.0,0.048675183206796646
365.0,357.0,1.5721,0.14,9.402,-0.0414,0.0223,-0.1133,-1.534354669307806,0.0,1.9627244472503662,-1.8717172145843506,-0.0,2.168179512023926,4.696575327510498,0.0,0.2798721492290497,-1.5966694990741175,-0.0,-0.00858195498585701,0.7979567050933838,-0.0,-0.00409399950876832,0.7982698678970337,0.0,-0.021625664085149765
365.0,357.0,1.5721,0.14,9.402,-0.0414,0.0223,-0.1133,-1.5343587671271344,0.0,1.993600606918335,-1.8716812133789062,-0.0,2.0920424461364746,4.696611090297363,0.0,0.29576146602630615,-1.5967701117144983,-0.0,-0.004535657353699207,0.7979766726493835,-0.0,-0.005604657810181379,0.7982539534568787,0.0,-0.010247306898236275
365.0,357.0,1.5721,0.14,9.402,-0.0414,0.0223,-0.1133,-1.5343870271793385,0.0,1.9990472793579102,-1.8716174364089966,-0.0,2.1475462913513184,4.6966468530842285,0.0,0.2866143584251404,-1.5967300573932093,-0.0,-0.005157497711479664,0.7979966998100281,-0.0,-0.005372331012040377,0.798285961151123,0.0,0.002380089368671179
365.0,357.0,1.5721,0.14,9.402,-0.0414,0.0223,-0.1133,-1.5343669068864365,0.0,1.9996846914291382,-1.8717293739318848,-0.0,2.115525245666504,4.696579142207764,0.0,0.29531174898147583,-1.5967257658587855,-0.0,-0.000742328236810863,0.7980124950408936,-0.0,-0.004747346043586731,0.7983261942863464,0.0,0.00188581389375031
365.0,357.0,1.5721,0.14,9.402,-0.0414,0.0223,-0.1133,-1.5343829070082684,0.0,2.01910662651062,-1.8717014789581299,-0.0,2.142282009124756,4.696606798762939,0.0,0.28675127029418945,-1.5967620054828089,-0.0,0.008467847481369972,0.7979407906532288,-0.0,-0.00975162535905838,0.798334002494812,0.0,-0.01638312079012394
365.0,357.0,1.5721,0.14,9.402,-0.0414,0.0223,-0.1133,-1.534358662819006,0.0,1.9848041534423828,-1.8716492652893066,-0.0,2.1530070304870605,4.696631117458008,0.0,0.2860527038574219,-1.5967744032489222,-0.0,-0.0025058244355022907,0.7979129552841187,-0.0,-0.006658758502453566,0.7982818484306335,0.0,0.014201132580637932
355.0,362.0,1.5751,0.2345,9.201,-0.0376,0.0202,-0.1133,-1.5343142759850998,0.0,2.0029964447021484,-1.8717050552368164,-0.0,2.145137071609497,4.696635408992432,0.0,0.2959117889404297,-1.596705738698141,-0.0,-0.010795670561492443,0.7979764938354492,-0.0,0.014509867876768112,0.7982819080352783,0.0,0.0294334813952446
355.0,362.0,1.5751,0.2345,9.201,-0.0376,0.0202,-0.1133,-1.534358636741974,0.0,1.9605212211608887,-1.871701717376709,-0.0,2.1125826835632324,4.696650667781494,0.0,0.29109862446784973,-1.5967376867877405,-0.0,-0.01961071603000164,0.7979726791381836,-0.0,-0.005437442567199469,0.7982698678970337,0.0,-0.04077064245939255
355.0,362.0,1.5751,0.2345,9.201,-0.0376,0.0202,-0.1133,-1.5343746703914185,0.0,1.9888710975646973,-1.8717091083526611,-0.0,2.1397058963775635,4.696614904994629,0.0,0.2951156198978424,-1.5967381636248987,-0.0,-0.006357049569487572,0.7980045080184937,-0.0,0.009402354247868061,0.7982777953147888,0.0,0.00059250567574054
355.0,362.0,1.5751,0.2345,9.201,-0.0376,0.0202,-0.1133,-1.5343587037971993,0.0,1.9406683444976807,-1.8716492652893066,-0.0,2.1514201164245605,4.696611090297363,0.0,0.27972009778022766,-1.596717659627096,-0.0,-0.009441807866096497,0.7979647517204285,-0.0,-0.007338787894695997,0.798289954662323,0.0,-0.0031193443574011326
355.0,362.0,1.5751,0.2345,9.201,-0.0376,0.0202,-0.1133,-1.5343828958323975,0.0,1.954582691192627,-1.871685266494751,-0.0,2.1158008575439453,4.696606798762939,0.0,0.2910982370376587,-1.5967376867877405,-0.0,-0.008060093969106674,0.7979329228401184,-0.0,-0.010135742835700512,0.798285961151123,0.0,0.01632264256477356
355.0,362.0,1.5751,0.2345,9.201,-0.0376,0.0202,-0.1133,-1.5343586702695866,0.0,2.0154836177825928,-1.871673822402954,-0.0,2.119163751602173,4.696606798762939,0.0,0.29030469059944153,-1.596689526234762,-0.0,-0.010056056082248688,0.7979607582092285,-0.0,-0.0041494546458125114,0.7982819080352783,0.0,0.005914324428886175
355.0,362.0,1.5751,0.2345,9.201,-0.0376,0.0202,-0.1133,-1.534358673994877,0.0,1.9782037734985352,-1.8716936111450195,-0.0,2.1155571937561035,4.6966234880634765,0.0,0.2869872450828552,-1.5967419783221644,-0.0,-0.005402016453444958,0.7979646921157837,-0.0,-0.010602532885968685,0.7982620000839233,0.0,0.047256939113140106
355.0,362.0,1.5751,0.2345,9.201,-0.0376,0.0202,-0.1133,-1.5343668957105656,0.0,1.9912564754486084,-1.8716492652893066,-0.0,2.115819215774536,4.6966187196918945,0.0,0.3046836256980896,-1.5967214743243616,-0.0,-0.010373173281550407,0.7979528307914734,-0.0,-0.010206296108663082,0.798261821269989,0.0,0.016049107536673546
355.0,362.0,1.5751,0.2345,9.201,-0.0376,0.0202,-0.1133,-1.5343990635922928,0.0,1.9594022035598755,-1.871685266494751,-0.0,2.15487003326416,4.696659250850342,0.0,0.30175453424453735,-1.5967376867877405,-0.0,-0.006174480076879263,0.7979766726493835,-0.0,-0.0009285265114158392,0.7982980012893677,0.0,-0.015044603496789932
355.0,362.0,1.5751,0.2345,9.201,-0.0376,0.0202,-0.1133,-1.534390826975443,0.0,1.9644989967346191,-1.8716936111450195,-0.0,2.158135175704956,4.696606798762939,0.0,0.2860085070133209,-1.5967419783221644,-0.0,-0.017996657639741898,0.7979887127876282,-0.0,-0.008874863386154175,0.7982698678970337,0.0,-0.0003613312728703022
355.0,362.0,1.5751,0.2345,9.201,-0.0376,0.0202,-0.1133,-1.5344191391817112,0.0,1.9442224502563477,-1.871645212173462,-0.0,2.1176204681396484,4.696599169368408,0.0,0.28885459899902344,-1.5967257658587855,-0.0,-0.006407216191291809,0.7979448437690735,-0.0,-0.003147129900753498,0.7983019948005676,0.0,-0.002129612024873495
355.0,362.0,1.5751,0.2345,9.201,-0.0376,0.0202,-0.1133,-1.534378745859005,0.0,2.0129847526550293,-1.8716771602630615,-0.0,2.190662145614624,4.696606798762939,0.0,0.29795482754707336,-1.596757713948385,-0.0,-0.002105731051415205,0.7979488372802734,-0.0,-0.004757510498166084,0.7983259558677673,0.0,-0.018344532698392868
355.0,362.0,1.5751,0.2345,9.201,-0.0376,0.0202,-0.1133,-1.5343705539456387,0.0,2.0022401809692383,-1.8717336654663086,-0.0,2.142402410507202,4.696659250850342,0.0,0.3066127300262451,-1.59674579301943,-0.0,-0.00424590427428484,0.7979885935783386,-0.0,0.0006076421122997999,0.7983340620994568,0.0,-0.05221247673034668
355.0,362.0,1.5751,0.2345,9.201,-0.0376,0.0202,-0.1133,-1.5344151344946404,0.0,1.9264060258865356,-1.871737003326416,-0.0,2.16041898727417,4.696619196529053,0.0,0.2954511046409607,-1.596705738698141,-0.0,0.006639964412897825,0.7979248762130737,-0.0,-0.013992100954055786,0.7982980012893677,0.0,-0.03993374481797218
355.0,362.0,1.5751,0.2345,9.201,-0.0376,0.0202,-0.1133,-1.5343911175480862,0.0,2.0029425621032715,-1.871673822402954,-0.0,2.170816421508789,4.696663065547607,0.0,0.29150086641311646,-1.5967419783221644,-0.0,-0.0034144078381359577,0.7979726791381836,-0.0,-0.0015826048329472542,0.7983181476593018,0.0,0.007088090293109417
359.0,357.0,1.6217,0.2895,9.475,-0.036,0.0223,-0.1061,-1.5343464289656659,0.0,2.0184319019317627,-1.8716533184051514,-0.0,2.144465923309326,4.696594877833984,0.0,0.2916979193687439,-1.5967333952533167,-0.0,-0.004972211085259914,0.7979925870895386,-0.0,0.00023298151791095734,0.7983219623565674,0.0,0.01520345639437437
359.0,357.0,1.6217,0.2895,9.475,-0.036,0.0223,-0.1061,-1.5343705502203484,0.0,1.9305338859558105,-1.8717057704925537,-0.0,2.1656110286712646,4.6966749864765625,0.0,0.28914326429367065,-1.59674579301943,-0.0,-0.008052319288253784,0.7979487180709839,-0.0,-0.00018877815455198288,0.7983341217041016,0.0,-0.022457053884863853
359.0,357.0,1.6217,0.2895,9.475,-0.036,0.0223,-0.1061,-1.5342982795885582,0.0,1.9732999801635742,-1.8716933727264404,-0.0,2.155742883682251,4.696591063136719,0.0,0.2876988649368286,-1.5967620054828089,-0.0,-0.00647180387750268,0.7979806661605835,-0.0,-0.0034978834446519613,0.7983259558677673,0.0,0.04903225228190422
359.0,357.0,1.6217,0.2895,9.475,-0.036,0.0223,-0.1061,-1.5344229911318799,0.0,1.983361005783081,-1.8716933727264404,-0.0,2.1290268898010254,4.6966234880634765,0.0,0.29841530323028564,-1.5967376867877405,-0.0,-0.005631358362734318,0.7979089617729187,-0.0,-0.0033223112113773823,0.7983259558677673,0.00029112017364241183,-0.007535467855632305
359.0,357.0,1.6217,0.2895,9.475,-0.036,0.0223,-0.1061,-1.534358688896038,0.0,1.9831745624542236,-1.8716657161712646,-0.0,2.111386299133301,4.696627302760742,1.2032710401399527e-06,0.2943243980407715,-1.5967133680926722,1.3581408886409463e-08,-0.009622067213058472,0.7980207204818726,-0.0,0.004564871080219746,0.7983060479164124,0.0003031743108294904,-0.08547553420066833
359.0,357.0,1.6217,0.2895,9.475,-0.036,0.0223,-0.1061,-1.5343629021993657,0.0,2.016146183013916,-1.8716737031936646,4.248515494964522e-07,2.125004768371582,4.696638746852539,3.3493494089320563e-10,0.29302364587783813,-1.596757713948385,3.780434732619797e-12,-0.006275974214076996,0.7979687452316284,-0.0,-0.01368115283548832,0.798349916934967,0.00030787751893512905,0.021883608773350716
359.0,357.0,1.6217,0.2895,9.475,-0.036,0.0223,-0.1061,-1.5343464326909562,0.0,1.9752647876739502,-1.87169349193573,1.0259664211947905e-12,2.15260648727417,4.69663064062085,9.323037540543908e-14,0.3016294240951538,-1.5967333952533167,1.0522977236151056e-15,0.004541042260825634,0.7979567646980286,-0.0,-0.006651238072663546,0.7983060479164124,0.00042575213592499495,0.003200402483344078
359.0,357.0,1.6217,0.2895,9.475,-0.036,0.0223,-0.1061,-1.5343588416329403,0.0,1.9850249290466309,-1.8716697692871094,2.4775881211262327e-18,2.1135053634643555,4.69663064062085,2.595101824361793e-17,0.29088103771209717,-1.5967662970172327,2.9291098800659196e-19,-0.008248665370047092,0.7979965806007385,-0.0,0.008264821954071522,0.798334002494812,0.0004579384403768927,-0.062407758086919785
359.0,357.0,1.6217,0.2895,9.475,-0.036,0.0223,-0.1061,-1.534322240655758,0.0,1.9645466804504395,-1.8716449737548828,5.9830835867821026e-24,2.134136199951172,4.696651144618652,7.22356230206602e-21,0.29576683044433594,-1.5967534224139612,8.153283876597527e-23,-0.011823786422610283,0.7979885935783386,-0.0,-0.0019822067115455866,0.7983822822570801,0.00043576874304562807,0.011383887380361557
359.0,357.0,1.6217,0.2895,9.475,-0.036,0.0223,-0.1061,-1.534378745859005,0.0,1.995190143585205,-1.871673822402954,1.444844229951626e-29,2.1338720321655273,4.696638746852539,2.010704881566812e-24,0.28429752588272095,-1.5967701117144983,2.2694967412408704e-26,-0.0007805849891155958,0.7980288863182068,-0.0,-0.014948872849345207,0.7983218431472778,0.0005368415731936693,0.059939224272966385
359.0,357.0,1.6217,0.2895,9.475,-0.036,0.0223,-0.1061,-1.5343546618572255,0.0,1.9807698726654053,-1.8717055320739746,3.4891289644045996e-35,2.126565456390381,4.696659250850342,5.596869900115915e-28,0.28816625475883484,-1.5967538992511194,6.317227764256882e-30,-0.016086943447589874,0.7979766726493835,-0.0,-0.006538104731589556,0.7983701229095459,0.00048330117715522647,0.022900331765413284
359.0,357.0,1.6217,0.2895,9.475,-0.036,0.0223,-0.1061,-1.534358673994877,0.0,1.9699251651763916,-1.87169349193573,0.00022604403784498572,2.090602397918701,4.696631117458008,2.3860331034685774e-30,0.2971782982349396,-1.5967662970172327,2.6931333771194887e-32,0.005534053780138493,0.7979925870895386,-0.0,-0.015063085593283176,0.7983139157295227,0.00041901125223375857,0.0015748138539493084
359.0,357.0,1.6217,0.2895,9.475,-0.036,0.0223,-0.1061,-1.534338218425848,0.0,2.0199649333953857,-1.8716657161712646,0.0002183572796639055,2.1074891090393066,4.696619196529053,6.641612417945524e-34,0.28816962242126465,-1.5967701117144983,7.496435411091782e-36,-0.008033926598727703,0.7979647517204285,-0.0,-0.016926197335124016,0.7983540296554565,0.00039911913336254656,0.01991049386560917
359.0,357.0,1.6217,0.2895,9.475,-0.036,0.0223,-0.1061,-1.534354669307806,0.0,1.9789745807647705,-1.8717138767242432,0.00019060808699578047,2.154869794845581,4.696654959315918,1.8487171452331764e-37,0.2860739231109619,-1.596729580556051,2.0866609315399062e-39,0.001627241144888103,0.7980167269706726,-0.0,-0.004088427871465683,0.7983741760253906,0.0003422674199100584,0.0771842896938324
359.0,357.0,1.6217,0.2895,9.475,-0.036,0.0223,-0.1061,-1.5343627494624634,6.377168793036958e-10,2.003988742828369,-1.8716778755187988,0.00016911698912736028,2.1357901096343994,4.696638746852539,5.145988350540026e-41,0.30822721123695374,-1.5967701117144983,5.801375642304743e-43,-0.004532667808234692,0.7979806065559387,-0.0,0.005033713765442371,0.7983418107032776,0.00027238696929998696,-0.0007721539586782455
359.0,357.0,1.6217,0.2895,9.475,-0.036,0.0223,-0.1061,-1.5344027367285271,1.5400112478311328e-15,1.9817076921463013,-1.8716654777526855,0.0001519814395578578,2.1516671180725098,4.696642561549805,1.401298464324817e-44,0.2968301773071289,-1.5967376867877405,0.0,-0.0035897986963391304,0.7979050278663635,-0.0,0.0034711365588009357,0.7983580827713013,0.00023044354747980833,-0.015093132853507996
361.0,360.0,1.5817,0.1178,9.4223,-0.0542,0.0144,-0.1103,-1.5344109025648613,3.718945872901592e-21,2.0198278427124023,-1.8717091083526611,0.0001379987079417333,2.153318166732788,4.696611090297363,0.0,0.29338696599006653,-1.5966976324664515,0.0,0.008494948968291283,0.7979726791381836,-0.0,-0.003548610955476761,0.7983661890029907,0.00023497043002862483,0.008787200786173344
361.0,360.0,1.5817,0.1178,9.4223,-0.0542,0.0144,-0.1103,-1.534390826975443,8.980817019995741e-27,1.9534895420074463,-1.871701717376709,0.00012637232430279255,2.105039358139038,4.696599169368408,0.0,0.2899891138076782,-1.5967538992511194,0.0,0.005367554724216461,0.7979846000671387,-0.0,-0.012299627996981144,0.798349916934967,0.00021153228590264916,-0.08064773678779602
361.0,360.0,1.5817,0.1178,9.4223,-0.0542,0.0144,-0.1103,-1.5343787272325535,1.6165153809683127e-30,1.9769032001495361,-1.8716533184051514,0.00011965191515628248,2.1578855514526367,4.6966468530842285,0.0,0.29352447390556335,-1.5967214743243616,0.0,0.0008851303718984127,0.7979567646980286,-0.0,-0.005047826562076807,0.7983900904655457,0.00021762702090200037,-0.0033369571901857853
361.0,360.0,1.5817,0.1178,9.4223,-0.0542,0.0144,-0.1103,-1.5343826313367863,3.9036944830765565e-36,1.9995410442352295,-1.87169349193573,0.00011081263073720038,2.0899040699005127,4.696594877833984,0.0,0.2931669056415558,-1.5967538992511194,0.0,-0.018549097701907158,0.7979965209960938,-0.0,-0.007445402443408966,0.7983418107032776,0.00020636653061956167,0.04233970865607262
361.0,360.0,1.5817,0.1178,9.4223,-0.0542,0.0144,-0.1103,-1.5344188672355195,9.426534769513044e-42,1.9767582416534424,-1.8717015981674194,0.00010318947170162573,2.1578943729400635,4.696582956905029,0.0,0.29955029487609863,-1.5967538992511194,0.0,-0.020945945754647255,0.7979925870895386,-0.0,-0.011780904605984688,0.7983860373497009,0.0002147294144378975,-0.004893454723060131
361.0,360.0,1.5817,0.1178,9.4223,-0.0542,0.0144,-0.1103,-1.5344431449523945,0.0,1.9572505950927734,-1.8716492652893066,8.384513785131276e-05,2.1522655487060547,4.696587248439453,-3.652041414170526e-05,0.3144663870334625,-1.596729580556051,0.0,-0.008926240727305412,0.7979448437690735,-0.0,0.0023441966623067856,0.7983580827713013,0.00019710739434231073,0.02033991739153862
361.0,360.0,1.5817,0.1178,9.4223,-0.0542,0.0144,-0.1103,-1.5343582157841702,0.0,2.021580219268799,-1.8716328144073486,7.256740354932845e-05,2.106088161468506,4.696614904994629,-3.457321508903988e-05,0.2888007164001465,-1.596717659627096,0.0,-0.004193667322397232,0.7979766726493835,-0.0,-0.003411275101825595,0.7983900904655457,0.00018214787996839732,-0.027404939755797386
361.0,360.0,1.5817,0.1178,9.4223,-0.0542,0.0144,-0.1103,-1.5343867105296631,0.0,1.98643159866333,-1.871753215789795,6.842928269179538e-05,2.1474266052246094,4.696606798762939,-3.268956425017677e-05,0.2963455617427826,-1.5967419783221644,0.0,-0.000549121992662549,0.7979687452316284,-0.0,0.0033671013079583645,0.798334002494812,9.39359815674834e-05,0.04651800915598869
361.0,360.0,1.5817,0.1178,9.4223,-0.0542,0.0144,-0.1103,-1.5344147880426426,0.0,2.01088547706604,-1.871625304222107,6.473778194049373e-05,2.106816053390503,4.696582956905029,-4.6491863031405956e-05,0.29037702083587646,-1.5966976324664515,-1.4563767763320357e-05,-0.011793569661676884,0.7979646921157837,-0.0,-0.009327813982963562,0.7983179688453674,1.7383321448960487e-08,-0.02135597914457321
361.0,360.0,1.5817,0.1178,9.4223,-0.0542,0.0144,-0.1103,-1.5344026957503338,0.0,1.9676344394683838,-1.8716933727264404,6.249028956517577e-05,2.1899514198303223,4.696582956905029,-5.9680111007764935e-05,0.29968535900115967,-1.596717659627096,-1.4604048374167178e-05,-0.021615169942378998,0.7979764938354492,-0.0,-0.011426802724599838,0.7983822822570801,3.1289365629710852e-12,-0.03660689294338226
361.0,360.0,1.5817,0.1178,9.4223,-0.0542,0.0144,-0.1103,-1.5343744543245812,0.0,1.965419888496399,-1.8716976642608643,5.939721813774668e-05,2.04860520362854,4.696579142207764,-7.129368168534711e-05,0.2871992588043213,-1.596757713948385,-1.3928173757449258e-05,-0.01705305650830269,0.7980247139930725,-0.0,0.0004165068967267871,0.798334002494812,7.55601365426364e-18,-0.03645407408475876
361.0,360.0,1.5817,0.1178,9.4223,-0.0542,0.0144,-0.1103,-1.5344510127655049,-0.0011345050297677517,2.0108442306518555,-1.8717418909072876,5.659588350681588e-05,2.11698055267334,4.696575327510498,-0.0002381678350502625,0.29298603534698486,-1.5967257658587855,-1.331020666839322e-05,-0.009645577520132065,0.7979885935783386,-0.0,0.004812134429812431,0.7983941435813904,1.8246882852290312e-23,0.03929121792316437
361.0,360.0,1.5817,0.1178,9.4223,-0.0542,0.0144,-0.1103,-1.5344184537282963,-0.002356552751734853,1.9459245204925537,-1.8716492652893066,5.404686089605093e-05,2.1102657318115234,4.696587248439453,-0.0001647273893468082,0.3023412227630615,-1.5967419783221644,-1.2744755622406956e-05,-0.010265554301440716,0.7980287075042725,-0.0,-0.0024952441453933716,0.7983701229095459,4.406407643063025e-29,0.0054848687723279
361.0,360.0,1.5817,0.1178,9.4223,-0.0542,0.0144,-0.1103,-1.5344868947616597,-0.002457613358274102,1.9946575164794922,-1.8716814517974854,5.171765951672569e-05,2.1106815338134766,4.696599169368408,-0.00014480114623438567,0.29327964782714844,-1.596733872090475,-1.222540140588535e-05,0.0002978174015879631,0.7980124950408936,-0.0,-0.010860592126846313,0.7983580827713013,1.0640955980952402e-34,0.039254188537597656
361.0,360.0,1.5817,0.1178,9.4223,-0.0542,0.0144,-0.1103,-1.534478710298874,-0.0017504646675661206,1.9585814476013184,-1.8716132640838623,4.958081990480423e-05,2.12908935546875,4.696579142207764,-0.00012920737208332866,0.2975536584854126,-1.5968025366412562,-1.1746698874048889e-05,0.0008566526230424643,0.7979806065559387,-0.0,-0.014683681540191174,0.7983580827713013,2.56965908492492e-40,0.019990060478448868
361.0,360.0,1.5817,0.1178,9.4223,-0.0542,0.0144,-0.1103,-1.5344465386918564,-0.0011866501299664378,1.9697953462600708,-1.8716893196105957,4.761360469274223e-05,2.1487767696380615,4.696579142207764,-0.00011664624616969377,0.3090273439884186,-1.5967496077166956,-1.130408691096818e-05,0.002377789467573166,0.798000693321228,-0.0,-0.014751912094652653,0.7983739972114563,0.0011737640015780926,-0.013670316897332668
369.0,353.0,1.5613,0.9021,9.2118,-0.0247,0.0118,-0.1155,-1.5344663721374054,-0.0008923888090066612,1.9612431526184082,-1.8716819286346436,4.638659083866514e-05,2.1234593391418457,4.696602984065674,-9.610946290194988e-05,0.2920609414577484,-1.5967333952533167,-1.1027080290659796e-05,-0.004600679036229849,0.7980207204818726,-0.0,-0.016215600073337555,0.798366129398346,0.0009539605234749615,0.03416752070188522
369.0,353.0,1.5613,0.9021,9.2118,-0.0247,0.0118,-0.1155,-1.5344664056650181,-0.0004952307790517807,1.974064588546753,-1.8717098236083984,4.4660282583208755e-05,2.1347649097442627,4.696563406581543,-7.529035065090284e-05,0.2770106792449951,-1.5967453161822718,-1.063612762663979e-05,0.0012924401089549065,0.7979806065559387,-0.0,-0.006119192112237215,0.7983860373497009,0.00029149773763492703,0.06547302007675171
369.0,353.0,1.5613,0.9021,9.2118,-0.0247,0.0118,-0.1155,-1.534506880944111,-0.0004409464600030333,1.9360612630844116,-1.8716654777526855,4.3057825678261e-05,2.1680800914764404,4.696559591884277,-6.947444489924237e-05,0.2928489148616791,-1.5967376867877405,-1.0271955034113489e-05,-0.012312953360378742,0.7979487776756287,-0.0,0.008189084008336067,0.7983377575874329,0.00029410087154246867,0.07555593550205231
369.0,353.0,1.5613,0.9021,9.2118,-0.0247,0.0118,-0.1155,-1.5344904635897656,-0.00046604705858044326,1.9824461936950684,-1.8716893196105957,4.156637442065403e-05,2.127230167388916,4.6966187196918945,-6.449550710385665e-05,0.2983042597770691,-1.5967372099505823,-9.931891327141784e-06,-0.0018969191005453467,0.7979447245597839,-0.0,0.007114539388567209,0.7984222173690796,0.0002196549321524799,-0.023086870089173317
369.0,353.0,1.5613,0.9021,9.2118,-0.0247,0.0118,-0.1155,-1.5344622780433674,-0.0006376513629220426,1.961482286453247,-1.871657371520996,4.0174840250983834e-05,2.131007194519043,4.696642561549805,-6.018257045070641e-05,0.2830435335636139,-1.5967052618609827,-2.7645783440277683e-09,0.0068278200924396515,0.7979646325111389,-0.0,0.0018925560871139169,0.7983741760253906,0.0003971571568399668,0.017481729388237
369.0,353.0,1.5613,0.9021,9.2118,-0.0247,0.0118,-0.1155,-1.5344784160009404,-0.0020926925353705883,1.9473488330841064,-1.8717212677001953,7.1515202648697596e-09,2.1113967895507812,4.696631117458008,-2.5369550371578953e-07,0.30825167894363403,-1.5967453161822718,-7.695305438877587e-13,-0.00998544879257679,0.7979806065559387,-0.0,0.0023523278068751097,0.7983459830284119,0.0003161382337566465,0.03670170530676842
369.0,353.0,1.5613,0.9021,9.2118,-0.0247,0.0118,-0.1155,-1.534522709702589,-0.002963585313409567,1.9200313091278076,-1.8716893196105957,1.727008022266857e-14,2.1510541439056396,4.696614904994629,5.2833016525255516e-05,0.29402369260787964,-1.5967620054828089,-2.1420166216860772e-16,-0.007495663594454527,0.7979764938354492,-0.0,-0.0024695242755115032,0.7983860373497009,0.00026109881582669914,0.05553700402379036
369.0,353.0,1.5613,0.9021,9.2118,-0.0247,0.0118,-0.1155,-1.5344782222858449,-0.003101316513493657,1.914839744567871,-1.8717459440231323,3.108553840961016e-18,2.157327175140381,4.696611090297363,4.991771129425615e-05,0.2978549897670746,-1.5967782179461878,-9.131752396122296e-19,-0.01891726441681385,0.7980047464370728,-0.0,0.0036442086566239595,0.7983459830284119,0.0002339472557650879,0.10859936475753784
369.0,353.0,1.5613,0.9021,9.2118,-0.0247,0.0118,-0.1155,-1.5346111071160813,-0.0035698667634278536,1.9671412706375122,-1.8716408014297485,7.506791696613191e-24,2.0800719261169434,4.696587248439453,4.6083518100203946e-05,0.2884533405303955,-1.5967534224139612,-2.5418567540770884e-22,0.006800644099712372,0.7980126738548279,-0.0,0.009441027417778969,0.7983941435813904,0.0002023805136559531,0.063944973051548
369.0,353.0,1.5613,0.9021,9.2118,-0.0247,0.0118,-0.1155,-1.5345301938107987,-0.004978405311703682,1.9279310703277588,-1.8716404438018799,2.2926351448404603e-05,2.167551040649414,4.696602984065674,4.279639688320458e-05,0.2973894476890564,-1.596729580556051,-7.075352007197564e-26,-0.00796533189713955,0.7979686856269836,-0.0,0.00992509163916111,0.798382043838501,0.000178319780388847,0.12254723161458969
369.0,353.0,1.5613,0.9021,9.2118,-0.0247,0.0118,-0.1155,-1.5345780973187466,-0.005800379440188408,1.9190152883529663,-1.87169349193573,1.0060914974019397e-05,2.1333024501800537,4.696614904994629,3.994690632680431e-05,0.28970447182655334,-1.5967333952533167,-1.969450393989142e-29,-0.0014693294651806355,0.7980007529258728,-0.0,-0.0034931760746985674,0.798325777053833,0.0001593727938598022,0.10163949429988861
369.0,353.0,1.5613,0.9021,9.2118,-0.0247,0.0118,-0.1155,-1.534618043606617,-0.007685941644012928,1.9134750366210938,-1.871717929840088,5.247632994809237e-09,2.120274543762207,4.696582956905029,3.745327558135614e-05,0.2968711256980896,-1.5967701117144983,-5.482037658546728e-33,-0.004096331540495157,0.797972559928894,-0.0,0.0054725464433431625,0.798382043838501,0.00022541338694281876,0.0381159670650959
369.0,353.0,1.5613,0.9021,9.2118,-0.0247,0.0118,-0.1155,-1.534743071799614,-0.008080936037003994,1.945636510848999,-1.8716819286346436,1.2672417572224225e-14,2.1689016819000244,4.696599169368408,3.525266583892517e-05,0.2936002016067505,-1.5967376867877405,-1.525945240710709e-36,-0.00616156030446291,0.7979965209960938,-0.0,0.0035330611281096935,0.7983782291412354,0.0002683125203475356,0.11254782974720001
369.0,353.0,1.5613,0.9021,9.2118,-0.0247,0.0118,-0.1155,-1.534742296939232,-0.008503022603690624,1.8913520574569702,-1.871657371520996,3.0602399791405954e-20,2.1207454204559326,4.696579142207764,1.672186226642225e-05,0.29003021121025085,-1.5967538992511194,-4.247531827153526e-40,-0.009650210849940777,0.7979369163513184,-0.0,0.014808356761932373,0.7984140515327454,0.0008548227488063276,0.09968302398920059
369.0,353.0,1.5613,0.9021,9.2118,-0.0247,0.0118,-0.1155,-1.5348066811314602,-0.008763011544942856,1.8874056339263916,-1.8717057704925537,5.508324217053846e-24,2.1378304958343506,4.6966587740131835,1.605451871000696e-05,0.29756516218185425,-1.5967701117144983,-1.8104776159076637e-42,-0.0017359100747853518,0.7979726791381836,-0.0,0.008508100174367428,0.7984302639961243,0.0010584499686956406,0.1533481478691101
369.0,353.0,1.5613,0.9021,9.2118,-0.0247,0.0118,-0.1155,-1.534818248157837,-0.009095457382500172,1.8595858812332153,-1.871633529663086,1.3301954259215768e-29,2.1010284423828125,4.696587248439453,1.5238717423926573e-05,0.29302072525024414,-1.5967376867877405,-0.0,-0.00043596955947577953,0.7980005145072937,-0.0,0.001466189743950963,0.7984381914138794,0.001070147380232811,0.12338089942932129
372.0,360.0,1.1791,-0.1214,9.5767,-0.048,0.0333,-0.1414,-1.534890131359436,-0.008884969167411327,1.8309240341186523,-1.8716213703155518,3.212265319488966e-35,2.1543588638305664,4.696614904994629,1.4502064004773274e-05,0.28143420815467834,-1.5967538992511194,-0.0,-0.00819089263677597,0.7979685664176941,-0.0,-0.003664981806650758,0.798397958278656,0.0011899726232513785,0.12392564117908478
372.0,360.0,1.1791,-0.1214,9.5767,-0.048,0.0333,-0.1414,-1.5349502128413697,-0.00948843639343977,1.883036732673645,-1.871657133102417,7.757308038809322e-41,2.1628198623657227,4.696614904994629,1.3833362572768237e-05,0.29083356261253357,-1.5967214743243616,-0.0,-0.008055726066231728,0.7980527281761169,-0.0,-0.0010350060183554888,0.7984340786933899,0.0012142258929088712,0.13409776985645294
372.0,360.0,1.1791,-0.1214,9.5767,-0.048,0.0333,-0.1414,-1.5350545433214684,-0.009360219351947308,1.8612816333770752,-1.8716859817504883,0.0,2.096726894378662,4.696643038386963,1.322359821642749e-05,0.29810014367103577,-1.5967701117144983,-0.0,-0.009327808395028114,0.797976553440094,-0.0,0.01133553683757782,0.7984181642532349,0.0012469775974750519,0.14527057111263275
372.0,360.0,1.1791,-0.1214,9.5767,-0.048,0.0333,-0.1414,-1.5350579519620915,-0.009433213621377945,1.845442295074463,-1.8716291189193726,0.00010884100629482418,2.1348958015441895,4.6966187196918945,1.9929078916902654e-05,0.2864516079425812,-1.5967453161822718,-0.0,-0.01708344556391239,0.7979567646980286,-0.0,0.020331721752882004,0.7984783053398132,0.0016516799805685878,0.17142969369888306
372.0,360.0,1.1791,-0.1214,9.5767,-0.048,0.0333,-0.1414,-1.5351060193828125,-0.008726279251277447,1.8600084781646729,-1.8716654777526855,0.00022368952340912074,2.1497578620910645,4.696623011226318,1.3975870842841687e-06,0.30078792572021484,-1.5967419783221644,-0.0,-0.005350057501345873,0.7980086803436279,-0.0,0.025930870324373245,0.7984702587127686,0.0023252691607922316,0.1367824673652649
372.0,360.0,1.1791,-0.1214,9.5767,-0.048,0.0333,-0.1414,-1.5351580579629918,-0.008469700813293457,1.8627173900604248,-1.8715914487838745,0.001131501398049295,2.1674644947052,4.696611090297363,5.958133098005192e-09,0.2940165400505066,-1.5967782179461878,-0.0,-0.019406190142035484,0.7980086803436279,-0.0,0.004807332530617714,0.7984421849250793,0.00273885577917099,0.22111806273460388
372.0,360.0,1.1791,-0.1214,9.5767,-0.048,0.0333,-0.1414,-1.535185818826296,-0.008312316611409187,1.827032208442688,-1.871629238128662,0.0012723106192424893,2.1241395473480225,4.696614904994629,1.6584680677389496e-12,0.28923264145851135,-1.5967376867877405,-0.0,-0.017739154398441315,0.7979488372802734,-0.0,0.0027703805826604366,0.7984862923622131,0.0029806834645569324,0.24233637750148773
372.0,360.0,1.1791,-0.1214,9.5767,-0.048,0.0333,-0.1414,-1.5352097612670441,-0.009145068936049938,1.8592641353607178,-1.8716094493865967,0.0016481871716678143,2.1695480346679688,4.696599169368408,4.616406854292374e-16,0.29353052377700806,-1.5967538992511194,-0.0,-0.006586936302483082,0.7980086803436279,-0.0,0.016879798844456673,0.7985101342201233,0.0032761921174824238,0.22043046355247498
372.0,360.0,1.1791,-0.1214,9.5767,-0.048,0.0333,-0.1414,-1.5352859062007447,-0.009411697275936604,1.8081721067428589,-1.8715858459472656,0.002274276688694954,2.1176652908325195,4.696594877833984,1.2849936745872456e-19,0.29926490783691406,-1.5967257658587855,-0.0,-0.013829519040882587,0.7979966402053833,-0.0,-0.0027205566875636578,0.7985703945159912,0.0030103237368166447,0.20644383132457733
372.0,360.0,1.1791,-0.1214,9.5767,-0.048,0.0333,-0.1414,-1.5353741471520443,-0.010043826885521412,1.826607346534729,-1.8715856075286865,0.002763821044936776,2.1055502891540527,4.696591063136719,3.5768275573597826e-23,0.2908669710159302,-1.5967257658587855,-0.0,-0.018765151500701904,0.7980086803436279,-0.0,0.010370893403887749,0.7985422611236572,0.003021146170794964,0.22130745649337769
372.0,360.0,1.1791,-0.1214,9.5767,-0.048,0.0333,-0.1414,-1.5354420740953465,-0.011484676972031593,1.8517831563949585,-1.8715649843215942,0.0039610425010323524,2.14017915725708,4.696639223689697,9.956231203349878e-27,0.296595960855484,-1.5967214743243616,-0.0,-0.022766616195440292,0.797972559928894,-0.0,0.0016312405932694674,0.7984940409660339,0.003200408536940813,0.2416520118713379
372.0,360.0,1.1791,-0.1214,9.5767,-0.048,0.0333,-0.1414,-1.5354694214514275,-0.012896697968244553,1.821727991104126,-1.871581792831421,0.004688783548772335,2.1701242923736572,4.696602984065674,2.7713535688997587e-30,0.30387628078460693,-1.5967419783221644,-0.0,-0.0077966670505702496,0.798024594783783,-0.0,0.01279701478779316,0.7985863089561462,0.0040683443658053875,0.20283184945583344
372.0,360.0,1.1791,-0.1214,9.5767,-0.048,0.0333,-0.1414,-1.5355818171850224,-0.013514583930373192,1.7735581398010254,-1.8715370893478394,0.004408068954944611,2.069776773452759,4.696587248439453,1.1814714457226311e-32,0.3063826858997345,-1.5967333952533167,-0.0,-0.01723138615489006,0.7980325222015381,-0.0,0.007972277700901031,0.7986341714859009,0.005270504858344793,0.2292402684688568
372.0,360.0,1.1791,-0.1214,9.5767,-0.048,0.0333,-0.1414,-1.5356739324382325,-0.014138910919427872,1.7901959419250488,-1.8714810609817505,0.004339223261922598,2.1723289489746094,4.696606798762939,3.2886692954472344e-36,0.2927340567111969,-1.5967701117144983,-0.0,-0.008199994452297688,0.798024594783783,-0.0,0.02441374771296978,0.7986061573028564,0.005587216001003981,0.2193189263343811
372.0,360.0,1.1791,-0.1214,9.5767,-0.048,0.0333,-0.1414,-1.535729457890131,-0.01495613157749176,1.8674854040145874,-1.8714572191238403,0.003200434846803546,2.1377182006835938,4.696587248439453,9.154136361032943e-40,0.28994661569595337,-1.5967062155352991,-0.0,-0.019739139825105667,0.7979686856269836,-0.0,0.02157718501985073,0.7986423373222351,0.006488173734396696,0.22070902585983276
372.0,360.0,1.1791,-0.1214,9.5767,-0.048,0.0333,-0.1414,-1.5358253431371232,-0.015649348497390747,1.7850608825683594,-1.8714940547943115,0.0021419450640678406,2.1190154552459717,4.696611090297363,2.550363205071167e-43,0.30181097984313965,-1.5967181364642542,-0.0,-0.016399405896663666,0.7980126142501831,-0.0,0.011048085987567902,0.7987463474273682,0.007214192766696215,0.22560636699199677
372.0,338.0,1.4309,0.7131,9.1735,-0.004,0.0029,-0.1136,-1.5360137347928067,-0.016232982277870178,1.812177300453186,-1.8714179992675781,0.0013101845979690552,2.1399824619293213,4.696606798762939,0.0,0.30419886112213135,-1.596705738698141,-0.0,-0.013521937653422356,0.7980286478996277,-0.0,0.027086656540632248,0.7987504601478577,0.007518172264099121,0.3054453730583191
372.0,338.0,1.4309,0.7131,9.1735,-0.004,0.0029,-0.1136,-1.5360614743879815,-0.018003618344664574,1.8044555187225342,-1.8714220523834229,0.0008096789242699742,2.092172145843506,4.6966187196918945,0.0,0.29975825548171997,-1.5966656843768519,-0.0,-0.02461090311408043,0.798036515712738,-0.0,0.01762409135699272,0.798778235912323,0.007464382331818342,0.1784956455230713
372.0,338.0,1.4309,0.7131,9.1735,-0.004,0.0029,-0.1136,-1.536189080481865,-0.01952185109257698,1.7378697395324707,-1.8714334964752197,0.000584270223043859,2.1191141605377197,4.696619196529053,0.0,0.3023736774921417,-1.5966976324664515,-0.0,-0.02397807687520981,0.7980445027351379,-0.0,0.013903375715017319,0.7988144159317017,0.007961795665323734,0.24861788749694824
372.0,338.0,1.4309,0.7131,9.1735,-0.004,0.0029,-0.1136,-1.5362934295884152,-0.019113516435027122,1.7964093685150146,-1.8714698553085327,0.0004928241833113134,2.1048877239227295,4.6966187196918945,0.0,0.30297189950942993,-1.5966857115374964,-0.0,-0.02630927786231041,0.7979844808578491,-0.0,0.02239454910159111,0.7988864183425903,0.008159519173204899,0.272195965051651
372.0,338.0,1.4309,0.7131,9.1735,-0.004,0.0029,-0.1136,-1.5363810409656544,-0.01964498497545719,1.8443717956542969,-1.871485948562622,0.0004561537643894553,2.1455750465393066,4.696614904994629,0.0,0.2945236563682556,-1.5967019240008753,-0.0,-0.023009106516838074,0.798036515712738,-0.0,0.018062755465507507,0.7989345788955688,0.008717946708202362,0.20796725153923035
372.0,338.0,1.4309,0.7131,9.1735,-0.004,0.0029,-0.1136,-1.5365008164993306,-0.019084615632891655,1.7742910385131836,-1.8714375495910645,0.0003045017656404525,2.09149432182312,4.6965672212788085,0.0,0.29592159390449524,-1.596705738698141,-0.0,-0.025046605616807938,0.7980484962463379,-0.0,0.02085254341363907,0.7989985346794128,0.009534215554594994,0.2942180931568146
372.0,338.0,1.4309,0.7131,9.1735,-0.004,0.0029,-0.1136,-1.5365684491446991,-0.01895890012383461,1.8185083866119385,-1.871453046798706,0.0003195073513779789,2.0969390869140625,4.696631117458008,0.0,0.3039867877960205,-1.5967019240008753,-0.0,-0.014461689628660679,0.798020601272583,-0.0,0.0027923784218728542,0.7990425825119019,0.010857277549803257,0.2537629306316376
372.0,338.0,1.4309,0.7131,9.1735,-0.004,0.0029,-0.1136,-1.5367448155632992,-0.01759616658091545,1.785564661026001,-1.8714301586151123,0.000507631222717464,2.1613006591796875,4.696638746852539,0.0,0.3013123571872711,-1.5967100302325647,-0.0,-0.049388058483600616,0.798020601272583,-0.0,0.0239434614777565,0.7991548180580139,0.010771343484520912,0.28002607822418213
372.0,338.0,1.4309,0.7131,9.1735,-0.004,0.0029,-0.1136,-1.5368729841760178,-0.017611553892493248,1.777513027191162,-1.871469497680664,0.0004738015995826572,2.128990411758423,4.696678801173828,0.0,0.300483763217926,-1.596733872090475,-0.0,-0.01574813202023506,0.7979885339736938,-0.0,0.026746686547994614,0.7991827130317688,0.011725315824151039,0.2767006754875183
372.0,338.0,1.4309,0.7131,9.1735,-0.004,0.0029,-0.1136,-1.5370047067156811,-0.01831378974020481,1.7761560678482056,-1.871453046798706,0.00043759497930295765,2.1081433296203613,4.696602984065674,0.0,0.29984050989151,-1.5966857115374964,-0.0,-0.03460519388318062,0.7980284690856934,-0.0,0.012026553973555565,0.7992587089538574,0.011689900420606136,0.2668362259864807
372.0,338.0,1.4309,0.7131,9.1735,-0.004,0.0029,-0.1136,-1.5370123025825997,-0.01882925070822239,1.8086419105529785,-1.8713968992233276,0.000439086725236848,2.1442127227783203,4.696611090297363,0.0,0.29724612832069397,-1.5966737906085413,-0.0,-0.02137335017323494,0.7980607151985168,-0.0,0.014517828822135925,0.799274742603302,0.012427492067217827,0.2760339379310608
372.0,338.0,1.4309,0.7131,9.1735,-0.004,0.0029,-0.1136,-1.537144274716713,-0.01987714134156704,1.772902250289917,-1.8714615106582642,0.0004731041262857616,2.118455648422241,4.696606798762939,0.0,0.27875781059265137,-1.5966857115374964,-0.0,-0.029552467167377472,0.7980285882949829,-0.0,0.014567054808139801,0.7993748784065247,0.011633382178843021,0.21842911839485168
372.0,338.0,1.4309,0.7131,9.1735,-0.004,0.0029,-0.1136,-1.5372805011323472,-0.021050160750746727,1.755500078201294,-1.8713687658309937,0.0010454368311911821,2.128371000289917,4.696650667781494,0.0,0.2986191511154175,-1.5966900030719202,-0.0,-0.032638609409332275,0.7980285882949829,-0.0,0.01303250715136528,0.7993947863578796,0.010989250615239143,0.2977543771266937
372.0,338.0,1.4309,0.7131,9.1735,-0.004,0.0029,-0.1136,-1.537388091241457,-0.02298891171813011,1.8034236431121826,-1.871372938156128,0.002406083047389984,2.109071969985962,4.696614904994629,0.0,0.2883024215698242,-1.596694294606344,-0.0,-0.030717279762029648,0.7979884743690491,-0.0,0.018673408776521683,0.7994949221611023,0.010062121786177158,0.22738178074359894
372.0,338.0,1.4309,0.7131,9.1735,-0.004,0.0029,-0.1136,-1.537548006778099,-0.02457555942237377,1.7469269037246704,-1.8713940382003784,0.0034831322263926268,2.1598734855651855,4.696582956905029,0.0,0.30371445417404175,-1.5967062155352991,-0.0,-0.02217087149620056,0.7980284690856934,-0.0,0.01654946431517601,0.7995308637619019,0.00953250378370285,0.25607529282569885
372.0,338.0,1.4309,0.7131,9.1735,-0.004,0.0029,-0.1136,-1.5377361935428162,-0.02713216096162796,1.7644505500793457,-1.8712809085845947,0.005063043441623449,2.165107250213623,4.696594877833984,0.0,0.3082069158554077,-1.5966857115374964,-0.0,-0.0205596424639225,0.7979804873466492,-0.0,0.02305658720433712,0.7996030449867249,0.008375164121389389,0.24075472354888916
350.0,337.0,1.3896,0.2818,9.332,-0.0289,0.0131,-0.1051,-1.5378473860076447,-0.02955314889550209,1.731377124786377,-1.8713173866271973,0.0053068832494318485,2.073575973510742,4.696631117458008,0.0,0.2975350618362427,-1.5966656843768519,-0.0,-0.017952825874090195,0.797992467880249,-0.0,0.01750592142343521,0.7996389865875244,0.0072198789566755295,0.2528485357761383
350.0,337.0,1.3896,0.2818,9.332,-0.0289,0.0131,-0.1051,-1.5380157057992,-0.03203394636511803,1.7932429313659668,-1.8713467121124268,0.005584346130490303,2.1669867038726807,4.696639223689697,0.0,0.3020821809768677,-1.5967100302325647,-0.0,-0.019307881593704224,0.7980761528015137,-0.0,0.02425425872206688,0.7996671199798584,0.006412499118596315,0.23336689174175262
350.0,337.0,1.3896,0.2818,9.332,-0.0289,0.0131,-0.1051,-1.5381873410991211,-0.035837795585393906,1.7183644771575928,-1.87127685546875,0.0051772878505289555,2.140794277191162,4.696579142207764,0.0,0.3018239736557007,-1.5966294447528284,-0.0,-0.01463888306170702,0.7979966998100281,-0.0,0.016743231564760208,0.7997030019760132,0.004608267452567816,0.24908751249313354
350.0,337.0,1.3896,0.2818,9.332,-0.0289,0.0131,-0.1051,-1.5384513226202507,-0.04017467424273491,1.7360382080078125,-1.8711930513381958,0.005662138108164072,2.1598715782165527,4.696606798762939,0.0,0.30908387899398804,-1.5966857115374964,-0.0,-0.013650741428136826,0.7980961799621582,-0.0,0.03306254372000694,0.7997190952301025,0.003030632622539997,0.21827006340026855
350.0,337.0,1.3896,0.2818,9.332,-0.0289,0.0131,-0.1051,-1.5386952062002202,-0.044704142957925797,1.7517237663269043,-1.8711732625961304,0.005120403133332729,2.138646125793457,4.6965553003498535,0.0,0.296442449092865,-1.596694294606344,-0.0,-0.013794882223010063,0.7979845404624939,-0.0,0.013217653147876263,0.7996909022331238,0.001710011507384479,0.20231208205223083
350.0,337.0,1.3896,0.2818,9.332,-0.0289,0.0131,-0.1051,-1.5389586475542565,-0.05044012889266014,1.7327475547790527,-1.8711647987365723,0.005199566949158907,2.1882922649383545,4.696594877833984,0.0,0.2953154146671295,-1.5966656843768519,-0.0,-0.007571664173156023,0.798020601272583,-0.0,0.025693532079458237,0.7997150421142578,0.0009982242481783032,0.1726732850074768
350.0,337.0,1.3896,0.2818,9.332,-0.0289,0.0131,-0.1051,-1.5392704543522377,-0.055276211351156235,1.6953855752944946,-1.8711298704147339,0.005483461543917656,2.185558795928955,4.696587248439453,0.0,0.29308009147644043,-1.5966900030719202,-0.0,0.0023225988261401653,0.7980167269706726,-0.0,0.023103434592485428,0.7996989488601685,0.0007048466359265149,0.1835511028766632
350.0,337.0,1.3896,0.2818,9.332,-0.0289,0.0131,-0.1051,-1.53965073384855,-0.0627819299697876,1.7320109605789185,-1.871057391166687,0.0071539320051670074,2.1183130741119385,4.696642561549805,0.0,0.294855535030365,-1.5967143217669886,-0.0,0.000624902022536844,0.798020601272583,-0.0,0.019623680040240288,0.799723207950592,0.0005447906441986561,0.11310701072216034
350.0,337.0,1.3896,0.2818,9.332,-0.0289,0.0131,-0.1051,-1.5398704291186114,-0.06795163452625275,1.677354097366333,-1.8710333108901978,0.008080452680587769,2.163151264190674,4.696663065547607,0.0,0.28764671087265015,-1.596649471913473,-0.0,-0.0006557013839483261,0.7980206608772278,-0.0,0.010315615683794022,0.7996670007705688,0.00047316786367446184,0.14352230727672577
350.0,337.0,1.3896,0.2818,9.332,-0.0289,0.0131,-0.1051,-1.540346349855401,-0.07435426861047745,1.708400011062622,-1.8710263967514038,0.009394985623657703,2.1138415336608887,4.696602984065674,0.0,0.3016641139984131,-1.5966699759112757,-0.0,0.006071791518479586,0.798024594783783,-0.0,0.011104723438620567,0.7997353076934814,0.00034583028173074126,0.1438024342060089
350.0,337.0,1.3896,0.2818,9.332,-0.0289,0.0131,-0.1051,-1.540778088649251,-0.07930032163858414,1.7037620544433594,-1.8709092140197754,0.012215133756399155,2.22719407081604,4.696666880244873,0.0,0.2910532057285309,-1.5966656843768519,-0.0,-0.007851017639040947,0.798080563545227,-0.0,0.01830068603157997,0.7997150421142578,0.0002969267952721566,0.09132340550422668
350.0,337.0,1.3896,0.2818,9.332,-0.0289,0.0131,-0.1051,-1.5412858196398993,-0.08663640171289444,1.7186743021011353,-1.8708374500274658,0.014303945936262608,2.2135372161865234,4.6966234880634765,0.0,0.3051759600639343,-1.596649471913473,-0.0,-0.007682557683438063,0.7980127334594727,-0.0,0.029092758893966675,0.7997030019760132,0.0002601417654659599,0.11467091739177704
350.0,337.0,1.3896,0.2818,9.332,-0.0289,0.0131,-0.1051,-1.5418093644878645,-0.09031480550765991,1.7178282737731934,-1.870770812034607,0.016013475134968758,2.2178826332092285,4.696663065547607,0.0,0.31062281131744385,-1.5966780821429651,-0.0,0.0053190020844340324,0.7980125546455383,-0.0,0.01768660917878151,0.799727201461792,0.0002314667945029214,0.11607788503170013
350.0,337.0,1.3896,0.2818,9.332,-0.0289,0.0131,-0.1051,-1.5423363999328394,-0.09150665253400803,1.7464187145233154,-1.8706769943237305,0.016497308388352394,2.1548666954040527,4.696587248439453,0.0,0.3006555140018463,-1.5966981093036097,-0.0,0.010106781497597694,0.7979686260223389,-0.0,-0.001750378287397325,0.7997312545776367,0.00020848627900704741,0.06933923065662384
350.0,337.0,1.3896,0.2818,9.332,-0.0289,0.0131,-0.1051,-1.5429082990488787,-0.09090256690979004,1.766162633895874,-1.870553731918335,0.01807156205177307,2.201235055923462,4.696602984065674,0.0,0.3099049925804138,-1.596682373677389,-0.0,0.007998593151569366,0.7980404496192932,-0.0,0.015618184581398964,0.7997312545776367,0.0001896568137453869,0.12016144394874573
350.0,337.0,1.3896,0.2818,9.332,-0.0289,0.0131,-0.1051,-1.5432839331081887,-0.09137557446956635,1.7715857028961182,-1.8704698085784912,0.017890889197587967,2.188062906265259,4.6965672212788085,0.0,0.3028045892715454,-1.5966699759112757,-0.0,0.0068481373600661755,0.797992467880249,-0.0,0.0037276099901646376,0.7997310757637024,0.00017888615548145026,0.08429290354251862
362.0,364.0,1.2066,0.0808,9.3936,-0.0319,-0.0702,-0.1161,-1.5438309510103245,-0.09483468532562256,1.7198150157928467,-1.8704336881637573,0.016047371551394463,2.245227813720703,4.696614904994629,0.0,0.30735310912132263,-1.5966375509845179,-0.0,0.019704436883330345,0.7980007529258728,-0.0,0.012637254782021046,0.799743115901947,0.00016484393563587219,0.09315929561853409
362.0,364.0,1.2066,0.0808,9.3936,-0.0319,-0.0702,-0.1161,-1.544434792628028,-0.10005278885364532,1.757502555847168,-1.8702937364578247,0.015252863056957722,2.1919522285461426,4.696606798762939,0.0,0.2933996915817261,-1.5967062155352991,-0.0,0.014231495559215546,0.7979607582092285,-0.0,0.015216322615742683,0.7997069954872131,0.00015284605615306646,0.10539837181568146
362.0,364.0,1.2066,0.0808,9.3936,-0.0319,-0.0702,-0.1161,-1.5449938637069245,-0.10540484637022018,1.74405837059021,-1.870173454284668,0.013928697444498539,2.190169334411621,4.696634932155273,0.0,0.3004538416862488,-1.5966981093036097,-0.0,0.014349371194839478,0.7979766130447388,-0.0,0.01686989516019821,0.799743115901947,0.00014247607032302767,0.10066249966621399
362.0,364.0,1.2066,0.0808,9.3936,-0.0319,-0.0702,-0.1161,-1.5456375771066924,-0.11039458215236664,1.6758272647857666,-1.870028018951416,0.016106130555272102,2.1845335960388184,4.696627302760742,0.0,0.30492132902145386,-1.5966699759112757,-0.0,0.020101653411984444,0.7980566620826721,-0.0,0.0027198910247534513,0.7997552156448364,0.0001334239641437307,0.04791329801082611
362.0,364.0,1.2066,0.0808,9.3936,-0.0319,-0.0702,-0.1161,-1.5463176530650635,-0.11335301399230957,1.7459585666656494,-1.869924545288086,0.017713606357574463,2.177400588989258,4.696638746852539,0.0,0.30481740832328796,-1.596649471913473,-0.0,0.009174860082566738,0.7980127334594727,-0.0,0.009702915325760841,0.7997393012046814,0.00012545329809654504,0.07505324482917786
362.0,364.0,1.2066,0.0808,9.3936,-0.0319,-0.0702,-0.1161,-1.546997045432665,-0.1113828793168068,1.7789666652679443,-1.8698292970657349,0.020752009004354477,2.200831890106201,4.696671171779297,0.0,0.2985871434211731,-1.5966537634478968,-0.0,0.01865103840827942,0.7980487942695618,-0.0,0.006973862648010254,0.799727201461792,0.00011838127829832956,0.049892254173755646
362.0,364.0,1.2066,0.0808,9.3936,-0.0319,-0.0702,-0.1161,-1.5473640852472563,-0.10901039093732834,1.7965645790100098,-1.8697569370269775,0.022056622430682182,2.220111131668091,4.696638746852539,0.0,0.31005433201789856,-1.5966861883746546,-0.0,0.021020177751779556,0.797992467880249,-0.0,0.012950358912348747,0.799727201461792,0.00011409361468395218,0.05309716984629631
362.0,364.0,1.2066,0.0808,9.3936,-0.0319,-0.0702,-0.1161,-1.5480959557792922,-0.11352244764566422,1.7325963973999023,-1.8696448802947998,0.02281850390136242,2.203091621398926,4.696643038386963,0.0,0.30824849009513855,-1.5966537634478968,7.915405876701698e-05,0.019630303606390953,0.7980007529258728,-0.0,0.01210994552820921,0.7997710704803467,0.00010821423347806558,-0.031374670565128326
362.0,364.0,1.2066,0.0808,9.3936,-0.0319,-0.0702,-0.1161,-1.548803014015295,-0.1207713633775711,1.745629072189331,-1.8695497512817383,0.022480715066194534,2.233611583709717,4.696594877833984,0.0,0.29423221945762634,-1.5966904799090784,7.522288069594651e-05,0.012284694239497185,0.7980127334594727,-0.0,0.0037315096706151962,0.7997592091560364,0.00011741232447093353,-0.002371575217694044
362.0,364.0,1.2066,0.0808,9.3936,-0.0319,-0.0702,-0.1161,-1.5495505326292296,-0.12854143977165222,1.7276462316513062,-1.8694226741790771,0.02081945538520813,2.203089475631714,4.696638746852539,0.0,0.31103482842445374,-1.5966337362872522,7.16307113179937e-05,0.026521991938352585,0.7980166673660278,-0.0,0.006759758107364178,0.7997312545776367,0.00011211855598958209,-0.03305243328213692
362.0,364.0,1.2066,0.0808,9.3936,-0.0319,-0.0702,-0.1161,-1.550310132359602,-0.13141435384750366,1.7057874202728271,-1.8692338466644287,0.020330850034952164,2.1653292179107666,4.696634932155273,0.0,0.30088210105895996,-1.5966418425189417,6.836591637693346e-05,0.026554465293884277,0.7980285882949829,-0.0,0.008999500423669815,0.7997312545776367,9.374659566674381e-05,0.0005395067855715752
362.0,364.0,1.2066,0.0808,9.3936,-0.0319,-0.0702,-0.1161,-1.5510733530721446,-0.12996791303157806,1.7328308820724487,-1.8691418170928955,0.020982783287763596,2.2029497623443604,4.696627302760742,0.0,0.3132970929145813,-1.5966337362872522,7.840553007554263e-05,0.030327126383781433,0.7980526685714722,-0.0,-0.0033519151620566845,0.7997391819953918,8.981465362012386e-05,-0.015735594555735588
362.0,364.0,1.2066,0.0808,9.3936,-0.0319,-0.0702,-0.1161,-1.5518285029432555,-0.1305762529373169,1.772387981414795,-1.8689823150634766,0.021960485726594925,2.208688974380493,4.696654959315918,0.0,0.30048227310180664,-1.5966175238238733,7.518555503338575e-05,0.02130846306681633,0.7980563640594482,-0.0,0.012226155959069729,0.7997632622718811,2.509870500944089e-05,0.027001598849892616
362.0,364.0,1.2066,0.0808,9.3936,-0.0319,-0.0702,-0.1161,-1.5523842138103028,-0.12971538305282593,1.7634929418563843,-1.8688771724700928,0.0220167376101017,2.236201524734497,4.696671171779297,6.423742161132395e-05,0.3101173937320709,-1.5966737906085413,7.314869435504079e-05,0.033464036881923676,0.797992467880249,-0.0,-0.0018023423617705703,0.7997552156448364,2.441763717797585e-05,0.03988476097583771
362.0,364.0,1.2066,0.0808,9.3936,-0.0319,-0.0702,-0.1161,-1.553195623015501,-0.12957482039928436,1.742201328277588,-1.8687134981155396,0.022451037541031837,2.268962860107422,4.696634932155273,6.19993224972859e-05,0.32069677114486694,-1.5966537634478968,7.029214611975476e-05,0.03796917200088501,0.7979885339736938,-0.0,0.013381794095039368,0.7997312545776367,2.3462785975425504e-05,-0.023550977930426598
362.0,364.0,1.2066,0.0808,9.3936,-0.0319,-0.0702,-0.1161,-1.5539704982987423,-0.13456551730632782,1.7953673601150513,-1.868610143661499,0.021573567762970924,2.2389304637908936,4.696642561549805,5.953852451057173e-05,0.31088152527809143,-1.5966737906085413,6.765032594557852e-05,0.02441810816526413,0.7979965209960938,-0.0,0.007967816665768623,0.7997312545776367,2.257984488096554e-05,-0.00855915155261755
358.0,380.0,1.4919,0.3858,9.5204,-0.0322,-0.0774,-0.119,-1.5548060697368165,-0.1449686735868454,1.7326469421386719,-1.8685388565063477,0.020494036376476288,2.225886106491089,4.696678801173828,5.726556992158294e-05,0.311175137758255,-1.5966375509845179,7.58819151087664e-05,0.03645411133766174,0.7980285882949829,-0.0,0.014591008424758911,0.7997069954872131,2.176092311856337e-05,0.022188715636730194
358.0,380.0,1.4919,0.3858,9.5204,-0.0322,-0.0774,-0.119,-1.5556491243517776,-0.15026015043258667,1.7734018564224243,-1.8683667182922363,0.020453384146094322,2.2480218410491943,4.696602984065674,5.515971497516148e-05,0.31314536929130554,-1.596609894429342,7.340754382312298e-05,0.04425760731101036,0.7980407476425171,-0.0,0.030116723850369453,0.7997150421142578,2.099933772115037e-05,0.015485402196645737
358.0,380.0,1.4919,0.3858,9.5204,-0.0322,-0.0774,-0.119,-1.5566048885560413,-0.15161392092704773,1.74802827835083,-1.8682018518447876,0.02238394506275654,2.24621844291687,4.696678801173828,6.314089841907844e-05,0.3087107539176941,-1.5966418425189417,7.092826126608998e-05,0.03521332889795303,0.7980284690856934,-0.0,0.015452331863343716,0.799727201461792,2.028924791375175e-05,0.05254373699426651
358.0,380.0,1.4919,0.3858,9.5204,-0.0322,-0.0774,-0.119,-1.5571193055114527,-0.14686807990074158,1.808241605758667,-1.8680896759033203,0.025219105184078217,2.2385973930358887,4.69663064062085,7.140666275518015e-05,0.30928510427474976,-1.596609894429342,3.516032302286476e-05,0.028136087581515312,0.7980047464370728,-0.0,0.0014703376218676567,0.7996989488601685,9.936647074937355e-06,-0.011751169338822365
358.0,380.0,1.4919,0.3858,9.5204,-0.0322,-0.0774,-0.119,-1.5580869906446715,-0.14184318482875824,1.7767698764801025,-1.8679053783416748,0.0284469835460186,2.2585902214050293,4.696647329921387,7.03268960933201e-05,0.31082454323768616,-1.596654240285055,9.787004096040164e-09,0.04464075714349747,0.7980566620826721,-0.0,0.013359279371798038,0.7997591495513916,2.3995833098311437e-11,-0.02427021414041519
358.0,380.0,1.4919,0.3858,9.5204,-0.0322,-0.0774,-0.119,-1.5590746666169544,-0.14772145450115204,1.8161146640777588,-1.8678021430969238,0.028549950569868088,2.2540338039398193,4.696606798762939,2.9650624355781474e-07,0.31309130787849426,-1.5966780821429651,2.724248561111753e-12,0.030196240171790123,0.7979885339736938,-0.0,0.013275357894599438,0.799723207950592,5.794710549099789e-17,-0.04813024029135704
358.0,380.0,1.4919,0.3858,9.5204,-0.0322,-0.0774,-0.119,-1.5599775857156892,-0.16294321417808533,1.8295543193817139,-1.8676186800003052,0.028636867180466652,2.2695436477661133,4.696651144618652,6.284362461883575e-05,0.31119805574417114,-1.596661392842428,7.583047637217547e-16,0.037389419972896576,0.7980047464370728,-0.0,0.01108468510210514,0.7997351288795471,1.3993546799730353e-22,0.004072772338986397
358.0,380.0,1.4919,0.3858,9.5204,-0.0322,-0.0774,-0.119,-1.5609810615754505,-0.17463408410549164,1.7536383867263794,-1.8673769235610962,0.028636308386921883,2.2190768718719482,4.6966869074055175,5.873004192835651e-05,0.31303250789642334,-1.5966904799090784,2.1107692433216696e-19,0.03525099903345108,0.7980526685714722,-0.0,0.006110197398811579,0.799771249294281,3.379276402726947e-28,-0.030255168676376343
358.0,380.0,1.4919,0.3858,9.5204,-0.0322,-0.0774,-0.119,-1.5620241428590198,-0.17816248536109924,1.7340939044952393,-1.8672467470169067,0.033812712877988815,2.283210277557373,4.696671171779297,8.022484689718112e-05,0.3088228106498718,-1.5966737906085413,5.875403836561163e-23,0.030669251456856728,0.798048734664917,-0.0,0.025712521746754646,0.799743115901947,8.16055545318687e-34,-0.0159160029143095
358.0,380.0,1.4919,0.3858,9.5204,-0.0322,-0.0774,-0.119,-1.5631073552979906,-0.16800788044929504,1.8098063468933105,-1.8670021295547485,0.04041016101837158,2.29296875,4.696663065547607,9.839933773037046e-05,0.31972771883010864,-1.5966256300555628,1.6354403901313536e-26,0.02272544428706169,0.7980364561080933,-0.0,0.012062259018421173,0.7997150421142578,1.9706782602446697e-39,-0.0021153464913368225
358.0,380.0,1.4919,0.3858,9.5204,-0.0322,-0.0774,-0.119,-1.5638022346286853,-0.16208484768867493,1.8579487800598145,-1.866834282875061,0.04588817432522774,2.289494037628174,4.696623011226318,0.00015032076044008136,0.3140365183353424,-1.5966780821429651,6.972138436286438e-29,0.043512750416994095,0.7980127334594727,-0.0,0.003927676938474178,0.7996990084648132,3.545285114741787e-43,0.014645513147115707
358.0,380.0,1.4919,0.3858,9.5204,-0.0322,-0.0774,-0.119,-1.5648700034110625,-0.16464361548423767,1.8436684608459473,-1.8665378093719482,0.05052068829536438,2.269700527191162,4.696654959315918,7.612182525917888e-05,0.3243345618247986,-1.5966218153582972,1.9407201612460757e-32,0.028450902551412582,0.7980126142501831,-0.0,0.016421116888523102,0.7997551560401917,0.0,0.004818354733288288
358.0,380.0,1.4919,0.3858,9.5204,-0.0322,-0.0774,-0.119,-1.5659084294787426,-0.18072432279586792,1.790848970413208,-1.866185188293457,0.051678236573934555,2.306124687194824,4.6966468530842285,5.014285852666944e-05,0.3235793709754944,-1.5966981093036097,5.402065936699625e-36,0.03451482206583023,0.7980285882949829,-0.0,0.010633701458573341,0.7997511625289917,0.0,-0.060891810804605484
358.0,380.0,1.4919,0.3858,9.5204,-0.0322,-0.0774,-0.119,-1.5670316126528014,-0.19687992334365845,1.7984898090362549,-1.8659170866012573,0.05147896334528923,2.2813096046447754,4.696634932155273,2.0246606879936735e-07,0.31461265683174133,-1.5966818968402308,1.5036843366207098e-39,0.02681710198521614,0.7980325222015381,-0.0,0.003574156202375889,0.7997591495513916,0.0,-0.028494136407971382
358.0,380.0,1.4919,0.3858,9.5204,-0.0322,-0.0774,-0.119,-1.5681704564816137,-0.19723400473594666,1.8030006885528564,-1.8656471967697144,0.05582801252603531,2.234354019165039,4.696706934566162,5.6357175870491716e-11,0.3322499394416809,-1.5966418425189417,4.189882408331203e-43,0.02772068977355957,0.7979567646980286,-0.0,0.0006003619637340307,0.7997430562973022,0.0,0.05468375235795975
378.0,404.0,1.8431,0.3236,8.9599,-0.024,-0.1446,-0.1257,-1.5693056796775018,-0.18844515085220337,1.8245776891708374,-1.865153431892395,0.0635414868593216,2.330090284347534,4.696647329921387,1.568722975413446e-14,0.3211088478565216,-1.5966337362872522,0.0,0.02951902709901333,0.7980760931968689,-0.0,0.02109413780272007,0.7996789813041687,0.0,-0.0032400558702647686
378.0,404.0,1.8431,0.3236,8.9599,-0.024,-0.1446,-0.1257,-1.5704650241280724,-0.18508584797382355,1.7771127223968506,-1.864801287651062,0.06973294168710709,2.3124570846557617,4.696683092708252,4.366598358932196e-18,0.32795006036758423,-1.5966294447528284,0.0,0.022956572473049164,0.7980444431304932,-0.0,0.00572896096855402,0.7997551560401917,0.0,-0.025227582082152367
378.0,404.0,1.8431,0.3236,8.9599,-0.024,-0.1446,-0.1257,-1.5711680851378382,-0.1886732280254364,1.7859838008880615,-1.8645581007003784,0.07321636378765106,2.2716102600097656,4.69663064062085,1.861549289035275e-20,0.2982584834098816,-1.5966780821429651,0.0,0.03735414892435074,0.7980206608772278,-0.0,-0.008082488551735878,0.7997632622718811,0.0,-0.020615248009562492
378.0,404.0,1.8431,0.3236,8.9599,-0.024,-0.1446,-0.1257,-1.572338720361227,-0.19849789142608643,1.891444444656372,-1.8640375137329102,0.07696077972650528,2.2988979816436768,4.696638746852539,5.181691626081655e-24,0.321381539106369,-1.5966056028949183,0.0,0.014187204651534557,0.7980325818061829,-0.0,0.002430880907922983,0.7997431755065918,0.0,0.018883399665355682
378.0,404.0,1.8431,0.3236,8.9599,-0.024,-0.1446,-0.1257,-1.5735341511168421,-0.20164497196674347,1.872495412826538,-1.8636183738708496,0.079228974878788,2.363430976867676,4.69663064062085,1.4423430909366922e-27,0.31760749220848083,-1.5966699759112757,0.0,0.024706745520234108,0.7980126142501831,-0.0,0.010374610312283039,0.7997591495513916,0.0,0.013940127566456795
378.0,404.0,1.8431,0.3236,8.9599,-0.024,-0.1446,-0.1257,-1.5746966801085414,-0.20103947818279266,1.8612775802612305,-1.8631178140640259,0.08251701295375824,2.346207618713379,4.696659250850342,4.014815379244783e-31,0.30909377336502075,-1.5966418425189417,0.0,0.025842418894171715,0.7979885339736938,-0.0,0.016077429056167603,0.7997391223907471,0.0,0.035642966628074646
378.0,404.0,1.8431,0.3236,8.9599,-0.024,-0.1446,-0.1257,-1.5758677921690882,-0.19931918382644653,1.8609426021575928,-1.862618327140808,0.08399925380945206,2.2696964740753174,4.696654959315918,1.117538576318162e-34,0.3176022171974182,-1.5966618696795862,0.0,0.023721735924482346,0.7979766130447388,-0.0,-0.007663829252123833,0.799787163734436,0.0,0.02869587391614914
378.0,404.0,1.8431,0.3236,8.9599,-0.024,-0.1446,-0.1257,-1.5770751438536585,-0.1998642086982727,1.8633224964141846,-1.862082839012146,0.08682096004486084,2.3540306091308594,4.696654959315918,3.110709670570596e-38,0.3196462392807007,-1.59666616121401,0.0,0.024500541388988495,0.7979766130447388,-0.0,-0.00029107904992997646,0.7997591495513916,0.0,-0.004107232205569744
378.0,404.0,1.8431,0.3236,8.9599,-0.024,-0.1446,-0.1257,-1.5782257519164027,-0.19857051968574524,1.8785371780395508,-1.8615303039550781,0.0963660478591919,2.332252025604248,4.696671171779297,8.658623211063045e-42,0.3141772747039795,-1.5966337362872522,0.0,0.01418578065931797,0.7980920672416687,-0.0,0.016801759600639343,0.7997710704803467,0.0002926494344137609,0.028754593804478645
378.0,404.0,1.8431,0.3236,8.9599,-0.024,-0.1446,-0.1257,-1.5789972744383753,-0.19591401517391205,1.8428579568862915,-1.8611711263656616,0.09792303293943405,2.3504626750946045,4.696634932155273,3.6433760072445244e-44,0.30577370524406433,-1.596649471913473,1.7595584722585045e-07,0.010466840118169785,0.7979568243026733,-0.0,0.004056216683238745,0.7997751235961914,0.0003316723450552672,0.01855144463479519
378.0,404.0,1.8431,0.3236,8.9599,-0.024,-0.1446,-0.1257,-1.5801645718016566,-0.19873350858688354,1.8595685958862305,-1.8605866432189941,0.10326555371284485,2.377129554748535,4.696651144618652,0.0,0.31913089752197266,-1.5966737906085413,4.8977960576124246e-11,0.011942175216972828,0.7980047464370728,-0.0,0.006200846750289202,0.7997431755065918,0.0003269592416472733,0.044992588460445404
378.0,404.0,1.8431,0.3236,8.9599,-0.024,-0.1446,-0.1257,-1.581306596795553,-0.2002110481262207,1.901094913482666,-1.8598370552062988,0.10945580899715424,2.3795840740203857,4.6966869074055175,0.0,0.319804310798645,-1.5966699759112757,1.363319687989941e-14,0.023844759911298752,0.7980523109436035,-0.0,-0.014599752612411976,0.7997351288795471,0.000514527375344187,0.024207815527915955
378.0,404.0,1.8431,0.3236,8.9599,-0.024,-0.1446,-0.1257,-1.58250155071401,-0.19839802384376526,1.8737642765045166,-1.859225869178772,0.11430255323648453,2.3460934162139893,4.696671171779297,0.0,0.32476162910461426,-1.5966418425189417,3.794850705945237e-18,0.008930869400501251,0.7980127334594727,-0.0,0.005405627191066742,0.799763023853302,0.0004655112570617348,0.00430751359090209
378.0,404.0,1.8431,0.3236,8.9599,-0.024,-0.1446,-0.1257,-1.5836764774718226,-0.19788523018360138,1.8607786893844604,-1.8585312366485596,0.12010321021080017,2.381802797317505,4.696678801173828,0.0,0.3262116611003876,-1.596649471913473,1.056310651972175e-21,0.02307669073343277,0.7980127334594727,-0.0,0.010643317364156246,0.7997791171073914,0.0004317313141655177,0.05469117313623428
378.0,404.0,1.8431,0.3236,8.9599,-0.024,-0.1446,-0.1257,-1.5848475895323695,-0.19537656009197235,1.9425170421600342,-1.857778549194336,0.12305939197540283,2.3930022716522217,4.696659250850342,0.0,0.3334273397922516,-1.5966337362872522,2.9402788507566217e-25,0.022722819820046425,0.7979766130447388,-0.0,0.0010138883953914046,0.799747109413147,0.00040903393528424203,0.04532745108008385
378.0,404.0,1.8431,0.3236,8.9599,-0.024,-0.1446,-0.1257,-1.586039205590719,-0.19892719388008118,1.8867812156677246,-1.8570222854614258,0.12284558266401291,2.412374973297119,4.696643038386963,0.0,0.31935328245162964,-1.5966737906085413,8.184375317475881e-29,0.012193017639219761,0.7980325222015381,-0.0,0.005980184301733971,0.7997350692749023,0.00034965149825438857,0.008961856365203857
383.0,470.0,1.9585,0.1298,9.0742,-0.0431,-0.0469,-0.122,-1.58683504680776,-0.19978021085262299,1.9086458683013916,-1.8565312623977661,0.12742334604263306,2.4305484294891357,4.696678801173828,0.0,0.32523977756500244,-1.596649471913473,3.489127252590951e-31,0.008956833742558956,0.7980284690856934,-0.0,0.0021295398473739624,0.7997590899467468,0.00031869453960098326,0.08375668525695801
383.0,470.0,1.9585,0.1298,9.0742,-0.0431,-0.0469,-0.122,-1.5880290470519007,-0.19689559936523438,1.88755202293396,-1.8557262420654297,0.13695111870765686,2.3877251148223877,4.696666880244873,0.0,0.32253411412239075,-1.5966375509845179,9.71211455365495e-35,0.02385694533586502,0.7980004549026489,-0.0,0.0008038808591663837,0.7997590899467468,0.0002546496980357915,0.0399167463183403
383.0,470.0,1.9585,0.1298,9.0742,-0.0431,-0.0469,-0.122,-1.589280744592184,-0.18815337121486664,1.9869964122772217,-1.8548911809921265,0.1482069045305252,2.466827392578125,4.69662253438916,0.0,0.3391532897949219,-1.596682373677389,2.7034032142554733e-38,0.018032731488347054,0.7980127334594727,-0.0,-0.0010245899902656674,0.7997791171073914,0.0002176884445361793,0.04374481737613678
