ramyac6/ROB537/final_project/csv/test/bad/bad_110.csv
tof_0,tof_1,accelx,accely,accelz,gyrox,gyroy,gyroz,shoulder_lift_joint_position,shoulder_lift_joint_velocity,shoulder_lift_joint_effort,elbow_joint_position,elbow_joint_velocity,elbow_joint_effort,wrist_1_joint_position,wrist_1_joint_velocity,wrist_1_joint_effort,wrist_2_joint_position,wrist_2_joint_velocity,wrist_2_joint_effort,wrist_3_joint_position,wrist_3_joint_velocity,wrist_3_joint_effort,shoulder_pan_joint_position,shoulder_pan_joint_velocity,shoulder_pan_joint_effort
369.0,265.0,0.4283,-0.128,9.533,-0.0428,0.0231,-0.1211,-1.834447523156637,0.0,3.304361343383789,-1.4703928232192993,-0.0,2.1963560581207275,4.75888870933608,0.0,0.2918543815612793,-1.5694382826434534,0.0,0.005421501584351063,0.8184710741043091,0.0,-0.0025043031200766563,0.5948655009269714,0.0,-0.014834885485470295
369.0,265.0,0.4283,-0.128,9.533,-0.0428,0.0231,-0.1211,-1.8344675503172816,0.0,3.3058173656463623,-1.4703923463821411,-0.0,2.1543240547180176,4.758925101697006,0.0,0.29333922266960144,-1.569442097340719,0.0,0.004413271322846413,0.8185075521469116,0.0,-0.01448020152747631,0.5948655009269714,0.0,-0.06107797101140022
369.0,265.0,0.4283,-0.128,9.533,-0.0428,0.0231,-0.1211,-1.8344880543150843,0.0,3.281092643737793,-1.4703326225280762,-0.0,2.163918972015381,4.758860762208261,0.0,0.2728583812713623,-1.569470230733053,0.0,-0.013175111263990402,0.8185517191886902,0.0,0.0005941551644355059,0.5948975682258606,0.0,0.04916299879550934
369.0,265.0,0.4283,-0.128,9.533,-0.0428,0.0231,-0.1211,-1.8344794712462367,0.0,3.2929224967956543,-1.4703365564346313,-0.0,2.176711082458496,4.758877209364929,0.0,0.28801119327545166,-1.5694664160357874,0.0,-0.01532718911767006,0.8185235261917114,0.0,0.005434009712189436,0.5949375033378601,0.0,0.02487967163324356
369.0,265.0,0.4283,-0.128,9.533,-0.0428,0.0231,-0.1211,-1.8344718418517054,0.0,3.28956937789917,-1.4703645706176758,-0.0,2.1733858585357666,4.758856731444158,0.0,0.27911466360092163,-1.56940204301943,0.0,-0.014309980906546116,0.8185235261917114,0.0,-0.010685678571462631,0.5948454141616821,0.0,0.035788506269454956
369.0,265.0,0.4283,-0.128,9.533,-0.0428,0.0231,-0.1211,-1.8344718418517054,0.0,3.317781448364258,-1.4703763723373413,-0.0,2.165881633758545,4.758860792010584,0.0,0.2817274332046509,-1.5694182554828089,0.0,-0.01201046071946621,0.8184832334518433,0.0,0.006995225325226784,0.5949096083641052,0.0,0.02058376744389534
369.0,265.0,0.4283,-0.128,9.533,-0.0428,0.0231,-0.1211,-1.8344556293883265,0.0,3.2887368202209473,-1.4703526496887207,-0.0,2.1162352561950684,4.758889137744465,0.0,0.2937964200973511,-1.5694502035724085,0.0,-0.013334343209862709,0.8185276389122009,0.0,-0.001615842804312706,0.5948494672775269,0.0,-0.008020571433007717
369.0,265.0,0.4283,-0.128,9.533,-0.0428,0.0231,-0.1211,-1.8344594440855921,0.0,3.282041072845459,-1.4703246355056763,-0.0,2.1790270805358887,4.758892807155409,0.0,0.2946600914001465,-1.5694745222674769,0.0,-0.01853472739458084,0.8184752464294434,0.0,0.01126082707196474,0.5948935151100159,0.0,0.006144753657281399
375.0,270.0,0.4062,-0.1196,9.5091,-0.042,0.0278,-0.1112,-1.8344961605467738,0.0,3.282383918762207,-1.4703564643859863,-0.0,2.189007043838501,4.758848815202274,0.0,0.30393993854522705,-1.569430176411764,0.0,-0.013928016647696495,0.8185636401176453,0.0,0.0025237950030714273,0.5949015617370605,0.0,0.015230828896164894
375.0,270.0,0.4062,-0.1196,9.5091,-0.042,0.0278,-0.1112,-1.8344999752440394,0.0,3.3181614875793457,-1.4703843593597412,-0.0,2.1115643978118896,4.758872694313087,0.0,0.2834511697292328,-1.5694382826434534,0.0,0.00665993383154273,0.8185033798217773,0.0,0.008533843792974949,0.5948694348335266,0.0,0.043372005224227905
375.0,270.0,0.4062,-0.1196,9.5091,-0.042,0.0278,-0.1112,-1.834463735620016,0.0,3.288543939590454,-1.4703803062438965,-0.0,2.1318297386169434,4.758868954121628,0.0,0.285034716129303,-1.5694463888751429,0.0,-0.009414313361048698,0.8185116052627563,0.0,-0.007591488305479288,0.5948896408081055,0.0,-0.003980736248195171
375.0,270.0,0.4062,-0.1196,9.5091,-0.042,0.0278,-0.1112,-1.8344675503172816,0.0,3.2736833095550537,-1.4704004526138306,-0.0,2.1633782386779785,4.758844736009397,0.0,0.2868049144744873,-1.5694306532489222,0.0,-0.005925798788666725,0.8185194134712219,0.0,-0.007088672835379839,0.5948935151100159,0.0,-0.03878966346383095
375.0,270.0,0.4062,-0.1196,9.5091,-0.042,0.0278,-0.1112,-1.834503789941305,0.0,3.3023033142089844,-1.470396637916565,-0.0,2.1505560874938965,4.758876773505964,0.0,0.2912922203540802,-1.5694425741778772,0.0,-0.015112670138478279,0.8184752464294434,0.0,0.0016269977204501629,0.5949375033378601,0.0,0.02131270058453083
375.0,270.0,0.4062,-0.1196,9.5091,-0.042,0.0278,-0.1112,-1.8344351253905238,0.0,3.292651653289795,-1.4703924655914307,-0.0,2.1657650470733643,4.758872690587797,0.0,0.28670528531074524,-1.5694425741778772,0.0,-0.004724215716123581,0.8185316920280457,0.0,-0.009917943738400936,0.594885528087616,0.0,-0.0032964737620204687
375.0,270.0,0.4062,-0.1196,9.5091,-0.042,0.0278,-0.1112,-1.8344961605467738,0.0,3.2816321849823,-1.470300316810608,-0.0,2.1737658977508545,4.75891317331747,0.0,0.28809332847595215,-1.5694101492511194,0.0,-0.00417277542874217,0.8185194134712219,0.0,-0.0008725920924916863,0.5948975682258606,0.0,0.024093102663755417
375.0,270.0,0.4062,-0.1196,9.5091,-0.042,0.0278,-0.1112,-1.8344394169249476,0.0,3.2929153442382812,-1.4704084396362305,-0.0,2.1755518913269043,4.758868551790275,0.0,0.2946900725364685,-1.5694382826434534,0.0,-0.019938386976718903,0.8184788823127747,0.0,-0.01349555142223835,0.5948975682258606,0.0,0.0033759502694010735
375.0,270.0,0.4062,-0.1196,9.5091,-0.042,0.0278,-0.1112,-1.8344675503172816,0.0,3.2980618476867676,-1.4703923463821411,-0.0,2.19411039352417,4.75889282205657,0.0,0.27809298038482666,-1.5694425741778772,0.0,-0.00505441427230835,0.8185316324234009,0.0,0.004666098393499851,0.5948694348335266,0.0,-0.012741582468152046
375.0,270.0,0.4062,-0.1196,9.5091,-0.042,0.0278,-0.1112,-1.8344556293883265,0.0,3.2354514598846436,-1.4704201221466064,-0.0,2.192244052886963,4.758896863996544,0.0,0.28231170773506165,-1.5694306532489222,0.0,-0.0007646927842870355,0.8184553384780884,0.0,-0.010827071964740753,0.594881534576416,0.0,-0.006742909550666809
375.0,270.0,0.4062,-0.1196,9.5091,-0.042,0.0278,-0.1112,-1.8344999752440394,0.0,3.284062147140503,-1.4703161716461182,-0.0,2.1359758377075195,4.758868942945757,0.0,0.28037548065185547,-1.5694382826434534,0.0,-0.008807145059108734,0.8185436725616455,0.0,-0.006951450370252132,0.5948494672775269,0.0,0.04023059457540512
375.0,270.0,0.4062,-0.1196,9.5091,-0.042,0.0278,-0.1112,-1.8344351253905238,0.0,3.2880730628967285,-1.4703445434570312,-0.0,2.172206163406372,4.758844810515203,0.0,0.2664755582809448,-1.5694339911090296,0.0,0.0032007996924221516,0.8185517191886902,0.0,-0.0041316356509923935,0.5948976278305054,0.0,-0.04057450592517853
375.0,270.0,0.4062,-0.1196,9.5091,-0.042,0.0278,-0.1112,-1.834447523156637,0.0,3.3256189823150635,-1.4703603982925415,-0.0,2.155160665512085,4.758880893677034,0.0,0.2816723585128784,-1.5694096724139612,0.0,-0.013837472535669804,0.8185194134712219,0.0,-0.003085407894104719,0.5949015617370605,0.0,0.008414983749389648
375.0,270.0,0.4062,-0.1196,9.5091,-0.042,0.0278,-0.1112,-1.8344351253905238,0.0,3.2960638999938965,-1.4703644514083862,-0.0,2.1938230991363525,4.758876788407125,0.0,0.28734397888183594,-1.5694220701800745,0.0,-0.017998581752181053,0.8184870481491089,0.0,-0.010569428093731403,0.5949255228042603,0.0,0.002198422560468316
375.0,270.0,0.4062,-0.1196,9.5091,-0.042,0.0278,-0.1112,-1.8344761333861292,0.0,3.2471675872802734,-1.4703205823898315,-0.0,2.1678388118743896,4.75886486747817,0.0,0.2958734631538391,-1.5694382826434534,0.0,-0.01903649792075157,0.8185230493545532,0.0,0.008058794774115086,0.5948975682258606,0.0,-0.021832406520843506
375.0,270.0,0.4062,-0.1196,9.5091,-0.042,0.0278,-0.1112,-1.8344594440855921,0.0,3.2933168411254883,-1.4703564643859863,-0.0,2.149864673614502,4.758876773505964,0.0,0.2951853275299072,-1.5694544951068323,0.0,-0.010178133845329285,0.8185599446296692,0.0,0.006554396357387304,0.5949295163154602,0.0,-0.038556843996047974
361.0,268.0,0.3894,-0.1172,9.6006,-0.0344,0.0151,-0.1171,-1.83449186901235,0.0,3.2725696563720703,-1.4703282117843628,-0.0,2.1516857147216797,4.7588567537959,0.0,0.29788869619369507,-1.5694502035724085,0.0,-0.00900217518210411,0.8184394240379333,0.0,-0.0047253514640033245,0.5948935747146606,0.0,-0.020389916375279427
361.0,268.0,0.3894,-0.1172,9.6006,-0.0344,0.0151,-0.1171,-1.834463735620016,0.0,3.322509288787842,-1.4703285694122314,-0.0,2.221421241760254,4.758860792010584,0.0,0.28409019112586975,-1.5694621245013636,0.0,-0.019245099276304245,0.818539559841156,0.0,0.0011781337670981884,0.5948975682258606,0.0,0.014058193191885948
361.0,268.0,0.3894,-0.1172,9.6006,-0.0344,0.0151,-0.1171,-1.834463735620016,0.0,3.295947790145874,-1.4703723192214966,-0.0,2.1531519889831543,4.758844858943977,0.0,0.2804158926010132,-1.5694544951068323,0.0,-0.009999669156968594,0.8184595108032227,0.0,-0.011867842637002468,0.5948936343193054,0.0,-0.0049451193772256374
361.0,268.0,0.3894,-0.1172,9.6006,-0.0344,0.0151,-0.1171,-1.834447523156637,0.0,3.320237874984741,-1.4703763723373413,-0.0,2.1453120708465576,4.75888870933608,0.0,0.2894785404205322,-1.5694425741778772,0.0,-0.014188535511493683,0.8184829354286194,0.0,0.00038367504021152854,0.5949335098266602,0.0,-0.008856218308210373
361.0,268.0,0.3894,-0.1172,9.6006,-0.0344,0.0151,-0.1171,-1.8344551525511683,0.0,3.2304556369781494,-1.4703764915466309,-0.0,2.134972333908081,4.758884943067589,0.0,0.2923731803894043,-1.5694459120379847,0.0,-0.01231679879128933,0.8184706568717957,0.0,0.0037978696636855602,0.5949015617370605,0.0,-0.027275314554572105
361.0,268.0,0.3894,-0.1172,9.6006,-0.0344,0.0151,-0.1171,-1.8344394169249476,0.0,3.2873847484588623,-1.4703166484832764,-0.0,2.2215309143066406,4.75887272411541,0.0,0.293331503868103,-1.5694182554828089,0.0,-0.018941674381494522,0.8184752464294434,0.0,0.003956606145948172,0.594857394695282,0.0,-0.010963990353047848
361.0,268.0,0.3894,-0.1172,9.6006,-0.0344,0.0151,-0.1171,-1.8344842396178187,0.0,3.294039487838745,-1.4703365564346313,-0.0,2.1492795944213867,4.758828501194277,0.0,0.2903599143028259,-1.5694544951068323,0.0,-0.015823451802134514,0.8184788823127747,0.0,0.005414207000285387,0.5949015617370605,0.0,-0.002529969671741128
361.0,268.0,0.3894,-0.1172,9.6006,-0.0344,0.0151,-0.1171,-1.8344718418517054,0.0,3.3244311809539795,-1.4703121185302734,-0.0,2.1633241176605225,4.758860825538196,0.0,0.2789057791233063,-1.5694339911090296,0.0,-0.01867186278104782,0.8185316324234009,0.0,-0.014001701958477497,0.5949015617370605,0.0,0.05851802974939346
361.0,268.0,0.3894,-0.1172,9.6006,-0.0344,0.0151,-0.1171,-1.834451814691061,0.0,3.2745299339294434,-1.470340609550476,-0.0,2.163578510284424,4.758900976717033,0.0,0.2795574963092804,-1.5694544951068323,0.0,-0.003534803632646799,0.8185075521469116,0.0,0.012415793724358082,0.5949174761772156,0.0,0.007241514045745134
361.0,268.0,0.3894,-0.1172,9.6006,-0.0344,0.0151,-0.1171,-1.8344556293883265,0.0,3.3079280853271484,-1.470348596572876,-0.0,2.1830263137817383,4.758872746467151,0.0,0.2898573875427246,-1.5694382826434534,0.0,-0.015105482190847397,0.8184393644332886,0.0,0.00642172247171402,0.5949094891548157,0.0,0.00930272787809372
361.0,268.0,0.3894,-0.1172,9.6006,-0.0344,0.0151,-0.1171,-1.834503789941305,0.0,3.2806458473205566,-1.4703923463821411,-0.0,2.195986747741699,4.758864901005783,0.0,0.29050788283348083,-1.569470230733053,0.0,-0.009111007675528526,0.8185033798217773,0.0,0.004856366664171219,0.5948936343193054,0.0,-0.017973173409700394
361.0,268.0,0.3894,-0.1172,9.6006,-0.0344,0.0151,-0.1171,-1.8344313106932582,0.0,3.2768452167510986,-1.4703924655914307,-0.0,2.1868910789489746,4.758892799704828,0.0,0.300711065530777,-1.5694425741778772,0.0,-0.008821608498692513,0.8185033798217773,0.0,-0.004598141647875309,0.5949015021324158,0.0,-0.0031150663271546364
361.0,268.0,0.3894,-0.1172,9.6006,-0.0344,0.0151,-0.1171,-1.8344718418517054,0.0,3.313965320587158,-1.4703161716461182,-0.0,2.176241159439087,4.758860762208261,0.0,0.2820858955383301,-1.569413963948385,0.0,-0.0034624310210347176,0.8185075521469116,0.0,0.0027280200738459826,0.5949335098266602,0.0,-0.06023363396525383
361.0,268.0,0.3894,-0.1172,9.6006,-0.0344,0.0151,-0.1171,-1.834463735620016,0.0,3.28149676322937,-1.4703326225280762,-0.0,2.1726715564727783,4.7588887018855,0.0,0.29567036032676697,-1.5694664160357874,0.0,-0.00544262770563364,0.8184992671012878,0.0,-0.007402387447655201,0.5948655009269714,0.0,-0.029215125367045403
361.0,268.0,0.3894,-0.1172,9.6006,-0.0344,0.0151,-0.1171,-1.834503789941305,0.0,3.3363749980926514,-1.4703763723373413,-0.0,2.1588709354400635,4.758892799704828,0.0,0.278272420167923,-1.5694182554828089,0.0,-0.010721960105001926,0.818531334400177,0.0,0.009415775537490845,0.5949254631996155,0.0,-0.03036380000412464
361.0,268.0,0.3894,-0.1172,9.6006,-0.0344,0.0151,-0.1171,-1.8344761333861292,0.0,3.3039464950561523,-1.470420241355896,-0.0,2.1754884719848633,4.758852931648054,0.0,0.29071369767189026,-1.5694626013385218,0.0,-0.010964857414364815,0.8185874223709106,0.0,0.0011175137478858232,0.5948735475540161,0.0,-0.005388485733419657
352.0,263.0,0.3852,-0.1184,9.5204,-0.0414,0.0255,-0.118,-1.8344761333861292,0.0,3.3158864974975586,-1.4703643321990967,-0.0,2.17801570892334,4.7588607771094225,0.0,0.28367242217063904,-1.5694220701800745,0.0,-0.0017038887599483132,0.8185436725616455,0.0,-0.000651254435069859,0.5949134826660156,0.0,0.02111850678920746
352.0,263.0,0.3852,-0.1184,9.5204,-0.0414,0.0255,-0.118,-1.8344599209227503,0.0,3.25295352935791,-1.4703525304794312,-0.0,2.155893325805664,4.758896863996544,0.0,0.28237080574035645,-1.5694664160357874,0.0,-0.017302803695201874,0.8184829354286194,0.0,0.006390451919287443,0.5948976278305054,0.0,-0.0076237889006733894
352.0,263.0,0.3852,-0.1184,9.5204,-0.0414,0.0255,-0.118,-1.8344556293883265,0.0,3.280047655105591,-1.4703763723373413,-0.0,2.1422908306121826,4.758892784803667,0.0,0.28361910581588745,-1.5694220701800745,0.0,-0.0071226730942726135,0.8184952139854431,0.0,0.011312561109662056,0.5948655009269714,0.0,0.00883295014500618
352.0,263.0,0.3852,-0.1184,9.5204,-0.0414,0.0255,-0.118,-1.8344599209227503,0.0,3.2216601371765137,-1.4703525304794312,-0.0,2.144880533218384,4.758844817965784,0.0,0.2718973457813263,-1.5694621245013636,0.0,-0.016201620921492577,0.8185070157051086,0.0,0.001819020602852106,0.5949094891548157,0.0,0.03767199441790581
352.0,263.0,0.3852,-0.1184,9.5204,-0.0414,0.0255,-0.118,-1.8344274959959925,0.0,3.3316726684570312,-1.4703165292739868,-0.0,2.1933412551879883,4.758900946914711,0.0,0.2859852910041809,-1.5694063345538538,0.0,-0.0077705178409814835,0.8184829354286194,0.0,-0.011265024542808533,0.5949134826660156,0.0,-0.05588460713624954
352.0,263.0,0.3852,-0.1184,9.5204,-0.0414,0.0255,-0.118,-1.8344675503172816,0.0,3.3330671787261963,-1.4703445434570312,-0.0,2.1675162315368652,4.758840716421165,0.0,0.29061222076416016,-1.5694339911090296,0.0,-0.007941951043903828,0.8184952139854431,0.0,-0.017498498782515526,0.5949255228042603,0.0,0.04583729803562164
352.0,263.0,0.3852,-0.1184,9.5204,-0.0414,0.0255,-0.118,-1.8344799480833949,0.0,3.3152451515197754,-1.4703686237335205,-0.0,2.1805858612060547,4.7588849169905565,0.0,0.27867254614830017,-1.569470230733053,0.0,-0.006929281633347273,0.8185595870018005,0.0,0.0035244033206254244,0.5948655009269714,0.0,0.02650494873523712
352.0,263.0,0.3852,-0.1184,9.5204,-0.0414,0.0255,-0.118,-1.834451814691061,0.0,3.289052963256836,-1.4704241752624512,-0.0,2.176801919937134,4.758844791888752,0.0,0.29894423484802246,-1.569470230733053,0.0,-0.008358345367014408,0.8185033798217773,0.0,0.014449812471866608,0.5948856472969055,0.0,0.03088274411857128
352.0,263.0,0.3852,-0.1184,9.5204,-0.0414,0.0255,-0.118,-1.834451814691061,0.0,3.3085732460021973,-1.4703683853149414,-0.0,2.1524152755737305,4.758860792010584,0.0,0.2905370593070984,-1.5694220701800745,0.0,-0.0036625945940613747,0.8185235261917114,0.0,0.004902048036456108,0.5948976278305054,0.0,-0.012996479868888855
352.0,263.0,0.3852,-0.1184,9.5204,-0.0414,0.0255,-0.118,-1.834520002404684,0.0,3.3319926261901855,-1.4703924655914307,-0.0,2.2040796279907227,4.758913180768051,0.0,0.2882657051086426,-1.569413963948385,0.0,-0.008014350198209286,0.8185235857963562,0.0,-0.0004888442344963551,0.5949174761772156,0.0,-0.021216079592704773
352.0,263.0,0.3852,-0.1184,9.5204,-0.0414,0.0255,-0.118,-1.8345405064024867,0.0,3.3152995109558105,-1.4703365564346313,-0.0,2.111236572265625,4.75886486002759,0.0,0.28276878595352173,-1.5694339911090296,0.0,-0.005900206044316292,0.8184952139854431,0.0,-0.0006380872800946236,0.5948975682258606,0.0,0.008615367114543915
352.0,263.0,0.3852,-0.1184,9.5204,-0.0414,0.0255,-0.118,-1.8345076046385707,0.0,3.279783248901367,-1.4703327417373657,-0.0,2.153195858001709,4.758860792010584,0.0,0.2931172847747803,-1.5694745222674769,0.0,-0.01714714616537094,0.8185312747955322,0.0,-0.005070946644991636,0.5949214696884155,0.0,-0.022751344367861748
352.0,263.0,0.3852,-0.1184,9.5204,-0.0414,0.0255,-0.118,-1.834463735620016,0.0,3.3007712364196777,-1.4703365564346313,-0.0,2.139916181564331,4.758856712817707,0.0,0.28413140773773193,-1.5694182554828089,0.0,-0.026521984487771988,0.8185194134712219,0.0,-0.009623941034078598,0.594885528087616,0.0,0.03463360667228699
352.0,263.0,0.3852,-0.1184,9.5204,-0.0414,0.0255,-0.118,-1.8344394169249476,0.0,3.2801856994628906,-1.4703567028045654,-0.0,2.1722047328948975,4.75884476953701,0.0,0.27075013518333435,-1.5694621245013636,0.0,-0.022976327687501907,0.8185235261917114,0.0,-0.005129310768097639,0.5949015021324158,0.0,-0.03951591998338699
352.0,263.0,0.3852,-0.1184,9.5204,-0.0414,0.0255,-0.118,-1.8344675503172816,0.0,3.308655261993408,-1.470336675643921,-0.0,2.172577381134033,4.758896845370092,0.0,0.28520727157592773,-1.5694502035724085,0.0,0.007282932288944721,0.8185033798217773,0.0,0.006961156614124775,0.5949254035949707,0.0,-0.03551151603460312
352.0,263.0,0.3852,-0.1184,9.5204,-0.0414,0.0255,-0.118,-1.834447523156637,0.0,3.294865608215332,-1.4703483581542969,-0.0,2.1367733478546143,4.758836629777708,0.0,0.28543365001678467,-1.5694664160357874,0.0,-0.006871359422802925,0.8185230493545532,0.0,-0.010492784902453423,0.5948897004127502,0.0,-0.0388173833489418
365.0,260.0,0.4056,-0.1196,9.6251,-0.0302,0.0203,-0.1193,-1.8344761333861292,0.0,3.2841572761535645,-1.4703245162963867,-0.0,2.1790664196014404,4.758880856424131,0.0,0.282554566860199,-1.5694220701800745,0.0,-0.009738841094076633,0.8184792995452881,0.0,0.005147979594767094,0.594881534576416,0.0,-0.014928982593119144
365.0,260.0,0.4056,-0.1196,9.6251,-0.0302,0.0203,-0.1193,-1.8344394169249476,0.0,3.255362033843994,-1.4703645706176758,-0.0,2.125138759613037,4.75888870933608,0.0,0.27802973985671997,-1.5694220701800745,0.0,0.0037843603640794754,0.8184710741043091,0.0,-0.007347972132265568,0.5949094891548157,0.0,-0.007032363209873438
365.0,260.0,0.4056,-0.1196,9.6251,-0.0302,0.0203,-0.1193,-1.834451814691061,0.0,3.3038973808288574,-1.4703487157821655,-0.0,2.149813175201416,4.758876788407125,0.0,0.29081296920776367,-1.5694382826434534,0.0,-0.0052951546385884285,0.8185075521469116,0.0,-0.014763306826353073,0.5949015617370605,0.0,-0.036984819918870926
365.0,260.0,0.4056,-0.1196,9.6251,-0.0302,0.0203,-0.1193,-1.8345362148680628,0.0,3.2933602333068848,-1.4702839851379395,-0.0,2.19586443901062,4.758917248785057,0.0,0.2820887863636017,-1.5694101492511194,0.0,-0.016297174617648125,0.8184912204742432,0.0,-0.005133795086294413,0.5949174761772156,0.0,0.025945210829377174
365.0,260.0,0.4056,-0.1196,9.6251,-0.0302,0.0203,-0.1193,-1.8344351253905238,0.0,3.2714648246765137,-1.470380425453186,-0.0,2.159759759902954,4.758892784803667,0.0,0.27350303530693054,-1.569458309804098,0.0,-0.0030960990116000175,0.8184874057769775,0.0,0.0007987951394170523,0.594853401184082,0.0,0.025489334017038345
365.0,260.0,0.4056,-0.1196,9.6251,-0.0302,0.0203,-0.1193,-1.8344837627806605,0.0,3.3024587631225586,-1.4703564643859863,-0.0,2.1489133834838867,4.758896863996544,0.0,0.27454614639282227,-1.5694826284991663,0.0,-0.008515043184161186,0.818543553352356,0.0,-0.009965255856513977,0.5948615074157715,0.0,-0.003168226685374975
365.0,260.0,0.4056,-0.1196,9.6251,-0.0302,0.0203,-0.1193,-1.8344761333861292,0.0,3.2692949771881104,-1.4703285694122314,-0.0,2.1405160427093506,4.758872712939539,0.0,0.28341594338417053,-1.5694101492511194,0.0,-0.00782245583832264,0.8184636235237122,0.0,0.009753556922078133,0.5949134826660156,0.0,-0.009497689083218575
365.0,260.0,0.4056,-0.1196,9.6251,-0.0302,0.0203,-0.1193,-1.834463735620016,0.0,3.3290317058563232,-1.4703724384307861,-0.0,2.123659133911133,4.758896863996544,0.0,0.2818283140659332,-1.5694745222674769,0.0,-0.012981260195374489,0.8184628486633301,0.0,-0.0021382332779467106,0.5949616432189941,0.0,-0.0030786471907049417
365.0,260.0,0.4056,-0.1196,9.6251,-0.0302,0.0203,-0.1193,-1.8344961605467738,0.0,3.2990057468414307,-1.4703564643859863,-0.0,2.1574320793151855,4.758844791888752,0.0,0.28025001287460327,-1.5694382826434534,0.0,-0.0016534861642867327,0.8185033798217773,0.0,-0.009201981127262115,0.5949295163154602,0.0,0.019668634980916977
365.0,260.0,0.4056,-0.1196,9.6251,-0.0302,0.0203,-0.1193,-1.8344880543150843,0.0,3.268832206726074,-1.4703445434570312,-0.0,2.153838872909546,4.758884943067589,0.0,0.2918158173561096,-1.5694220701800745,0.0,-0.009268024936318398,0.8184870481491089,0.0,0.00017649540677666664,0.5949094891548157,0.0,0.04189739748835564
365.0,260.0,0.4056,-0.1196,9.6251,-0.0302,0.0203,-0.1193,-1.8344556293883265,0.0,3.2726502418518066,-1.4703645706176758,-0.0,2.1649270057678223,4.758876788407125,0.0,0.2880302965641022,-1.5694502035724085,0.0,-0.00241345027461648,0.8184829354286194,0.0,0.002808147110044956,0.5949015617370605,0.0,-0.0207559484988451
365.0,260.0,0.4056,-0.1196,9.6251,-0.0302,0.0203,-0.1193,-1.8344837627806605,0.0,3.3074491024017334,-1.4702523946762085,-0.0,2.1657252311706543,4.758892784803667,0.0,0.2905271351337433,-1.5694502035724085,0.0,-0.009874345734715462,0.8185194134712219,0.0,-0.0036041531711816788,0.5949215888977051,0.0,0.015248316340148449
365.0,260.0,0.4056,-0.1196,9.6251,-0.0302,0.0203,-0.1193,-1.834447523156637,0.0,3.3187830448150635,-1.470348596572876,-0.0,2.194255828857422,4.758892784803667,0.0,0.28750085830688477,-1.5694544951068323,0.0,-0.021504297852516174,0.8185116052627563,0.0,-0.005775164347141981,0.5948734283447266,0.0,0.026676557958126068
365.0,260.0,0.4056,-0.1196,9.6251,-0.0302,0.0203,-0.1193,-1.83449186901235,0.0,3.2910475730895996,-1.4703325033187866,-0.0,2.1549901962280273,4.758896863996544,0.0,0.29792916774749756,-1.5694425741778772,0.0,-0.026329662650823593,0.8185033798217773,0.0,0.007136709056794643,0.5948976278305054,0.0,0.025745075196027756
365.0,260.0,0.4056,-0.1196,9.6251,-0.0302,0.0203,-0.1193,-1.8344999752440394,0.0,3.3115487098693848,-1.4703246355056763,-0.0,2.14520001411438,4.758896893798866,0.0,0.2724938988685608,-1.5695026556598108,0.0,-0.012305617332458496,0.8184636235237122,0.0,0.0007689050398766994,0.5949374437332153,0.0,-0.0061737848445773125
365.0,260.0,0.4056,-0.1196,9.6251,-0.0302,0.0203,-0.1193,-1.8344880543150843,0.0,3.278820037841797,-1.4703161716461182,-0.0,2.1420822143554688,4.758868942945757,0.0,0.28800326585769653,-1.5694382826434534,0.0,-0.011116810142993927,0.8184311389923096,0.0,-0.010138940066099167,0.5949135422706604,0.0,-0.05742648243904114
352.0,260.0,0.3739,-0.0658,9.5946,-0.0286,0.0163,-0.1167,-1.8344675503172816,0.0,3.296452522277832,-1.4703245162963867,-0.0,2.1635143756866455,4.75886486747817,0.0,0.2826036810874939,-1.569470230733053,0.0,-0.00621536560356617,0.8184752464294434,0.0,-0.0022277808748185635,0.5948975682258606,0.0,-0.02253752574324608
352.0,260.0,0.3739,-0.0658,9.5946,-0.0286,0.0163,-0.1167,-1.834451814691061,0.0,3.3160972595214844,-1.4703205823898315,-0.0,2.20458722114563,4.75888870933608,0.0,0.28877830505371094,-1.5694869200335901,0.0,-0.032807134091854095,0.8185116052627563,0.0,0.0046593197621405125,0.5949055552482605,0.0,0.00976125430315733
352.0,260.0,0.3739,-0.0658,9.5946,-0.0286,0.0163,-0.1167,-1.834463735620016,0.0,3.2225236892700195,-1.4703325033187866,-0.0,2.1355016231536865,4.758840787201681,0.0,0.2919734716415405,-1.5694502035724085,0.0,-0.0013952641747891903,0.8185276389122009,0.0,0.003283048514276743,0.5948936343193054,0.0,0.006026551127433777
352.0,260.0,0.3739,-0.0658,9.5946,-0.0286,0.0163,-0.1167,-1.8344794712462367,0.0,3.332986354827881,-1.470312476158142,-0.0,2.1548469066619873,4.758896863996544,0.0,0.2950245141983032,-1.569470230733053,0.0,-0.008831321261823177,0.8185074925422668,0.0,0.008443550206720829,0.5949175357818604,0.0,0.013392494060099125
352.0,260.0,0.3739,-0.0658,9.5946,-0.0286,0.0163,-0.1167,-1.834503789941305,0.0,3.2382254600524902,-1.4703445434570312,-0.0,2.158564567565918,4.758892784803667,0.0,0.281484991312027,-1.5694378058062952,0.0,-0.018839607015252113,0.8184628486633301,0.0,-0.0024028276093304157,0.5949295163154602,0.0,0.002998828887939453
352.0,260.0,0.3739,-0.0658,9.5946,-0.0286,0.0163,-0.1167,-1.8344956837096156,0.0,3.2886693477630615,-1.4704087972640991,-0.0,2.182882070541382,4.758856712817707,0.0,0.26761019229888916,-1.5694745222674769,0.0,-0.014348603785037994,0.8185111880302429,0.0,-0.0018458999693393707,0.5949615836143494,0.0,-0.01662035472691059
352.0,260.0,0.3739,-0.0658,9.5946,-0.0286,0.0163,-0.1167,-1.834475656548971,0.0,3.2790846824645996,-1.4702801704406738,-0.0,2.155590295791626,4.7588887018855,0.0,0.2835160493850708,-1.569470230733053,0.0,-0.011614923365414143,0.8184710144996643,0.0,0.002498422283679247,0.5949255228042603,0.0,-0.005595125257968903
352.0,260.0,0.3739,-0.0658,9.5946,-0.0286,0.0163,-0.1167,-1.8344761333861292,0.0,3.2704150676727295,-1.4703483581542969,-0.0,2.1347413063049316,4.758860769658842,0.0,0.2875349819660187,-1.569442097340719,0.0,-0.0021972113754600286,0.8184669613838196,0.0,0.005539753939956427,0.5949413776397705,0.0,0.0755448192358017
352.0,260.0,0.3739,-0.0658,9.5946,-0.0286,0.0163,-0.1167,-1.8344599209227503,0.0,3.274116039276123,-1.4703524112701416,-0.0,2.199877977371216,4.758844791888752,0.0,0.2859112322330475,-1.5694378058062952,0.0,-0.015199637040495872,0.8185153007507324,0.0,-0.005859852768480778,0.5949456095695496,1.697162770142313e-05,0.009488556534051895
352.0,260.0,0.3739,-0.0658,9.5946,-0.0286,0.0163,-0.1167,-1.834451814691061,0.0,3.2511730194091797,-1.4703444242477417,-0.0,2.142033100128174,4.7589132254715345,0.0,0.28487205505371094,-1.5694578329669397,0.0,-0.0035000313073396683,0.818539559841156,0.0,0.002550837816670537,0.5949374437332153,0.000195612374227494,-0.011221412569284439
352.0,260.0,0.3739,-0.0658,9.5946,-0.0286,0.0163,-0.1167,-1.8344675503172816,0.0,3.283721923828125,-1.4703407287597656,-0.0,2.219315528869629,4.758832427650251,0.0,0.27560359239578247,-1.5694339911090296,0.0,-0.010078445076942444,0.8185476064682007,0.0,-0.012813273817300797,0.5949413776397705,0.0011635853443294764,0.0006391769275069237
352.0,260.0,0.3739,-0.0658,9.5946,-0.0286,0.0163,-0.1167,-1.8344675503172816,0.0,3.330599784851074,-1.4703524112701416,-0.0,2.1865878105163574,4.758876814484157,0.0,0.2887011766433716,-1.5694621245013636,0.0,-0.020628126338124275,0.8184911012649536,0.0,-0.0030948189087212086,0.5949974656105042,0.0018785286229103804,-0.007090279366821051
352.0,260.0,0.3739,-0.0658,9.5946,-0.0286,0.0163,-0.1167,-1.8344913921751917,0.0,3.3161139488220215,-1.4703445434570312,-0.0,2.1884865760803223,4.758860792010584,0.0,0.28207698464393616,-1.56948167482485,0.0,-0.004278803244233131,0.8185111880302429,0.0,0.0003967380616813898,0.5949975252151489,0.0026579853147268295,-0.05020616576075554
352.0,260.0,0.3739,-0.0658,9.5946,-0.0286,0.0163,-0.1167,-1.83449186901235,0.0,3.3281331062316895,-1.4703326225280762,-0.0,2.159081220626831,4.758860792010584,0.0,0.2805382311344147,-1.5694859663592737,0.0,-0.016709230840206146,0.8185070753097534,0.0,-0.014362726360559464,0.5950376987457275,0.0038339560851454735,-0.010701159946620464
352.0,260.0,0.3739,-0.0658,9.5946,-0.0286,0.0163,-0.1167,-1.8344718418517054,0.0,3.2764439582824707,-1.4703564643859863,-0.0,2.1949055194854736,4.758916865080156,0.0,0.278303861618042,-1.5694859663592737,0.0,-0.019310344010591507,0.8184710741043091,0.0,-0.006945759989321232,0.5950621366500854,0.005219415761530399,-0.014806403778493404
352.0,260.0,0.3739,-0.0658,9.5946,-0.0286,0.0163,-0.1167,-1.8344718418517054,0.0,3.2878119945526123,-1.4703645706176758,-0.0,2.1828184127807617,4.758896863996544,0.0,0.2954104542732239,-1.5695346037494105,0.0,-0.006931828800588846,0.8185353875160217,0.0,0.0021586762741208076,0.5950734615325928,0.006922789849340916,0.020214755088090897
356.0,264.0,0.3093,-0.3338,9.4313,-0.0318,0.0252,-0.0994,-1.8344799480833949,0.0,3.281853675842285,-1.470284104347229,-0.0,2.173220157623291,4.758860762208261,0.0,0.2841123342514038,-1.5695026556598108,0.0,-0.00515394564718008,0.8184710144996643,0.0,-0.00706195505335927,0.5951499342918396,0.00810372456908226,-0.018442021682858467
356.0,264.0,0.3093,-0.3338,9.4313,-0.0318,0.0252,-0.0994,-1.8344232044615687,0.0,3.2629053592681885,-1.4703041315078735,-0.0,2.1621837615966797,4.758896845370092,0.0,0.29872384667396545,-1.5694621245013636,0.0,-0.014984199777245522,0.8185353875160217,0.0,-0.0019848374649882317,0.5952262878417969,0.009505817666649818,-0.029532110318541527
356.0,264.0,0.3093,-0.3338,9.4313,-0.0318,0.0252,-0.0994,-1.8344761333861292,0.0,3.3143205642700195,-1.4703564643859863,-0.0,2.140838861465454,4.7588566830153844,0.0,0.29760509729385376,-1.569510285054342,0.0,-0.013897999189794064,0.8185111880302429,0.0,0.0015370248584076762,0.5952656865119934,0.010635824874043465,0.014330504462122917
356.0,264.0,0.3093,-0.3338,9.4313,-0.0318,0.0252,-0.0994,-1.834503789941305,0.0,3.2680208683013916,-1.470348596572876,-0.0,2.1086204051971436,4.758872712939539,0.0,0.28439879417419434,-1.569510285054342,0.0,0.006212128326296806,0.8185312151908875,0.0,-0.0019687023013830185,0.595354437828064,0.01162954606115818,-0.04728233441710472
356.0,264.0,0.3093,-0.3338,9.4313,-0.0318,0.0252,-0.0994,-1.8344599209227503,0.0,3.3049416542053223,-1.4703285694122314,-0.0,2.1949357986450195,4.7589210895593546,0.0,0.29039299488067627,-1.5694692770587366,0.0,-0.010355861857533455,0.8185152411460876,0.0,-0.006245273631066084,0.5954098105430603,0.013126177713274956,0.0465356782078743
356.0,264.0,0.3093,-0.3338,9.4313,-0.0318,0.0252,-0.0994,-1.83449186901235,4.4651111238636076e-05,3.2481632232666016,-1.4703283309936523,-0.0,2.1480917930603027,4.758892807155409,0.0,0.28636717796325684,-1.5695589224444788,0.0,-0.004360564053058624,0.8185029625892639,0.0,0.0030117430724203587,0.595454216003418,0.013359912671148777,-0.004555579274892807
356.0,264.0,0.3093,-0.3338,9.4313,-0.0318,0.0252,-0.0994,-1.8344642124571742,4.206140511087142e-05,3.27046799659729,-1.4703119993209839,-0.0,2.176720380783081,4.758844791888752,0.0,0.28620314598083496,-1.569510285054342,0.0,-0.010111445561051369,0.8184953331947327,0.0,0.017859231680631638,0.5955219864845276,0.013643533922731876,-0.0003360174596309662
356.0,264.0,0.3093,-0.3338,9.4313,-0.0318,0.0252,-0.0994,-1.834503789941305,1.9663795683300123e-05,3.2681632041931152,-1.4703407287597656,-0.0,2.1849591732025146,4.758892784803667,5.445235928824843e-10,0.2968956232070923,-1.5694859663592737,0.0,-0.008772876113653183,0.8184788823127747,0.0,0.0016060762573033571,0.5955737829208374,0.01353709027171135,0.00046053435653448105
356.0,264.0,0.3093,-0.3338,9.4313,-0.0318,0.0252,-0.0994,-1.834463735620016,2.158542429242516e-06,3.2668557167053223,-1.470348596572876,-0.0,2.1649107933044434,4.758880863874712,1.5157013556581223e-13,0.28167182207107544,-1.569498364125387,0.0,-0.013590632937848568,0.8184665441513062,0.0,-0.0021990141831338406,0.5956700444221497,0.014236251823604107,0.0292508564889431
356.0,264.0,0.3093,-0.3338,9.4313,-0.0318,0.0252,-0.0994,-1.8344913921751917,5.212625903833201e-12,3.212458610534668,-1.4703001976013184,-0.0,2.1695685386657715,4.758880856424131,4.219010229780586e-17,0.2881529927253723,-1.569514576588766,0.0,-0.00600836519151926,0.8185272216796875,0.0,-0.006303833797574043,0.595798671245575,0.014553423970937729,0.053446412086486816
356.0,264.0,0.3093,-0.3338,9.4313,-0.0318,0.0252,-0.0994,-1.8344556293883265,1.2587875743154365e-17,3.2934460639953613,-1.4703245162963867,-0.0,2.177882671356201,4.758857103973188,1.17437699231316e-20,0.2870352566242218,-1.5694940725909632,0.0,-0.0030712990555912256,0.8185153007507324,0.0,0.010051916353404522,0.5958179831504822,0.015999210998415947,0.06459422409534454
356.0,264.0,0.3093,-0.3338,9.4313,-0.0318,0.0252,-0.0994,-1.8344956837096156,3.0398240645381486e-23,3.257570266723633,-1.4703844785690308,4.1340268808198743e-07,2.158703327178955,4.75883253568367,3.2689216565305424e-24,0.28398799896240234,-1.569514576588766,0.0,-0.011900778859853745,0.818523108959198,0.0,-0.003784345928579569,0.5959782004356384,0.017745142802596092,0.08920037746429443
356.0,264.0,0.3093,-0.3338,9.4313,-0.0318,0.0252,-0.0994,-1.8345076046385707,7.340818001834272e-29,3.253692388534546,-1.4703446626663208,9.98318723695324e-13,2.150303602218628,4.758876814484157,9.09916291136941e-28,0.28317683935165405,-1.569510285054342,-8.189358050003648e-05,-0.027583274990320206,0.8184788823127747,0.0,0.005761993117630482,0.5960701107978821,0.01956668682396412,0.17795413732528687
356.0,264.0,0.3093,-0.3338,9.4313,-0.0318,0.0252,-0.0994,-1.8345118961729945,1.3213213310711034e-32,3.223496913909912,-1.4703242778778076,1.7969388400460235e-16,2.155808687210083,4.758844791888752,3.879115935227666e-30,0.2860006093978882,-1.569514576588766,-8.43430170789361e-05,-0.002796643879264593,0.818551778793335,0.0,0.0005600330187007785,0.5961421132087708,0.021230047568678856,0.11100386083126068
356.0,264.0,0.3093,-0.3338,9.4313,-0.0318,0.0252,-0.0994,-1.8345324001707972,3.1908353562413035e-38,3.2201037406921387,-1.4703121185302734,0.000591224292293191,2.118138074874878,4.758880863874712,1.0797661316531514e-33,0.2868754267692566,-1.5695503393756312,-9.531062823953107e-05,-0.026637515053153038,0.8185476660728455,0.0,-5.577120464295149e-05,0.5962904095649719,0.02435280755162239,0.15326499938964844
356.0,264.0,0.3093,-0.3338,9.4313,-0.0318,0.0252,-0.0994,-1.8345076046385707,7.707141553786494e-44,3.1765336990356445,-1.4702999591827393,0.0006253949250094593,2.170398712158203,4.758816554188289,3.005568845493841e-37,0.2772325277328491,-1.5695179144488733,-0.00010418685269542038,-0.032184213399887085,0.8185030221939087,0.0,0.0004134027985855937,0.5964626669883728,0.027793560177087784,0.19041848182678223
355.0,276.0,0.5174,-0.4618,9.4696,-0.0431,0.0383,-0.0904,-1.8345362148680628,0.0,3.1794228553771973,-1.4702883958816528,0.0009352078195661306,2.181938886642456,4.7589291771645925,8.366172221558455e-41,0.28231102228164673,-1.5694859663592737,-0.00010106111585628241,-0.02480047196149826,0.8185312151908875,0.0,0.009221325628459454,0.5966305732727051,0.03246275335550308,0.21039217710494995
355.0,276.0,0.5174,-0.4618,9.4696,-0.0431,0.0383,-0.0904,-1.8344713650145472,0.0,3.1744394302368164,-1.4703164100646973,0.0011822739616036415,2.1791882514953613,4.758872712939539,2.382207389352189e-44,0.27353599667549133,-1.5695708433734339,-0.00011019186786143109,-0.03031170926988125,0.8185718655586243,0.0,0.008430970832705498,0.5968345999717712,0.038634154945611954,0.26335784792900085
355.0,276.0,0.5174,-0.4618,9.4696,-0.0431,0.0383,-0.0904,-1.8344875774779261,0.0,3.142691135406494,-1.4702564477920532,0.0015964460326358676,2.154803991317749,4.758913180768051,0.0,0.2608371376991272,-1.5695422331439417,-0.0002507148892618716,-0.02357778698205948,0.8185791969299316,0.0,0.006189779844135046,0.5971237421035767,0.04528139904141426,0.30276599526405334
355.0,276.0,0.5174,-0.4618,9.4696,-0.0431,0.0383,-0.0904,-1.8344880543150843,0.0,3.1249349117279053,-1.4702881574630737,0.0034343446604907513,2.1450235843658447,4.758888716786661,0.0,0.2489282488822937,-1.5695021788226526,-0.00025764081510715187,-0.025587312877178192,0.818547248840332,0.0,-0.0038354992866516113,0.5974270105361938,0.05452040955424309,0.3535998463630676
355.0,276.0,0.5174,-0.4618,9.4696,-0.0431,0.0383,-0.0904,-1.8344837627806605,0.0,3.135960102081299,-1.4702765941619873,0.004983303602784872,2.1360108852386475,4.758884559362688,0.0,0.25746333599090576,-1.5695222059832972,-0.0002724564983509481,-0.05267993360757828,0.8185632228851318,0.0,0.015851203352212906,0.5976510643959045,0.062274083495140076,0.35916298627853394
355.0,276.0,0.5174,-0.4618,9.4696,-0.0431,0.0383,-0.0904,-1.8344999752440394,0.0,3.13140869140625,-1.470200538635254,0.0074707078747451305,2.1681535243988037,4.758880863874712,0.0,0.2600525915622711,-1.5695541540728968,-0.00024326378479599953,-0.03583668917417526,0.8185833096504211,0.0,0.01807268150150776,0.5980594754219055,0.07316270470619202,0.4356927275657654
355.0,276.0,0.5174,-0.4618,9.4696,-0.0431,0.0383,-0.0904,-1.8344794712462367,0.0,3.077995777130127,-1.4701647758483887,0.007177765015512705,2.1575918197631836,4.758872720390119,0.0,0.2642829716205597,-1.5695222059832972,-0.0002491406921762973,-0.03237210959196091,0.8185672760009766,0.0,0.006651819683611393,0.5985075235366821,0.0809437483549118,0.4830970764160156
355.0,276.0,0.5174,-0.4618,9.4696,-0.0431,0.0383,-0.0904,-1.8344913921751917,0.0,3.019643783569336,-1.4700967073440552,0.0065784878097474575,2.160787582397461,4.758905041008749,0.0,0.25814172625541687,-1.5695503393756312,-0.00022571500448975712,-0.03429720550775528,0.8185312151908875,0.0,0.006036415230482817,0.5990678071975708,0.08635298162698746,0.4800962507724762
355.0,276.0,0.5174,-0.4618,9.4696,-0.0431,0.0383,-0.0904,-1.8344675503172816,0.0,3.092418909072876,-1.4700324535369873,0.00572060514241457,2.115058660507202,4.758937398880281,0.0,0.24509644508361816,-1.5694978872882288,-0.00023846137628424913,-0.050532177090644836,0.8185669779777527,0.0,0.01544780284166336,0.5996735692024231,0.09617476165294647,0.47853565216064453
355.0,276.0,0.5174,-0.4618,9.4696,-0.0431,0.0383,-0.0904,-1.8344956837096156,0.0,3.0189425945281982,-1.4700207710266113,0.004967312328517437,2.1797709465026855,4.758917315840282,0.0,0.24852639436721802,-1.5695341269122522,-0.00020589487394317985,-0.05464308708906174,0.818587064743042,0.0,0.012281225994229317,0.6003224849700928,0.10522488504648209,0.5167965888977051
355.0,276.0,0.5174,-0.4618,9.4696,-0.0431,0.0383,-0.0904,-1.8344961605467738,0.0,3.026616096496582,-1.4700207710266113,0.0037914987187832594,2.1648170948028564,4.75886486747817,0.0,0.2469538152217865,-1.5694897810565394,-0.00021242458024062216,-0.04478516802191734,0.8186150193214417,0.0,0.01779482327401638,0.6009339094161987,0.11552228033542633,0.6508244872093201
355.0,276.0,0.5174,-0.4618,9.4696,-0.0431,0.0383,-0.0904,-1.8344956837096156,0.0,3.0366673469543457,-1.4700204133987427,0.003147440729662776,2.1188786029815674,4.7588849914963625,0.0,0.22636500000953674,-1.56950551668276,-0.0001938459899974987,-0.06343035399913788,0.8185874223709106,0.0,0.026771180331707,0.601755678653717,0.12389286607503891,0.6351437568664551
355.0,276.0,0.5174,-0.4618,9.4696,-0.0431,0.0383,-0.0904,-1.8344594440855921,0.0,2.9740307331085205,-1.4699965715408325,0.003380303969606757,2.1840715408325195,4.758880863874712,0.0,0.23496530950069427,-1.5695298353778284,-0.00018086048658005893,-0.06171315535902977,0.8185431361198425,0.0,0.02386157214641571,0.6022674441337585,0.13138806819915771,0.6192746162414551
355.0,276.0,0.5174,-0.4618,9.4696,-0.0431,0.0383,-0.0904,-1.8345042667784632,0.0,2.989236354827881,-1.4699482917785645,0.0030668447725474834,2.20546817779541,4.75887272411541,0.0,0.24346327781677246,-1.5695260206805628,-0.00016434560529887676,-0.06966594606637955,0.8186354637145996,0.0,0.03190112113952637,0.6030718088150024,0.1440766602754593,0.7433520555496216
355.0,276.0,0.5174,-0.4618,9.4696,-0.0431,0.0383,-0.0904,-1.834503789941305,0.0,2.9776182174682617,-1.4699727296829224,0.0029407048132270575,2.1234002113342285,4.758860792010584,0.0,0.24877892434597015,-1.5694978872882288,-0.00015059442375786602,-0.04673494026064873,0.8185471892356873,0.0,0.02849745750427246,0.604049026966095,0.1586494892835617,0.7363606691360474
355.0,276.0,0.5174,-0.4618,9.4696,-0.0431,0.0383,-0.0904,-1.834463735620016,-0.00010234503133688122,2.9742136001586914,-1.469956636428833,0.0018969741649925709,2.142542839050293,4.758812478720703,0.0,0.2402622103691101,-1.5695140997516077,-0.0001613386848475784,-0.0688304454088211,0.8186072111129761,0.0,0.03494842350482941,0.605000913143158,0.16904112696647644,0.7086871266365051
359.0,293.0,-0.1579,-1.3394,9.5767,-0.0409,0.025,0.0426,-1.8345324001707972,-0.0010088580893352628,2.981337547302246,-1.4699442386627197,0.001149892108514905,2.149334669113159,4.758844817965784,0.0,0.22085507214069366,-1.5695503393756312,-0.0001505075633758679,-0.0701037272810936,0.8185669779777527,0.0,0.03538220748305321,0.6061751246452332,0.18358616530895233,0.7698065042495728
359.0,293.0,-0.1579,-1.3394,9.5767,-0.0409,0.025,0.0426,-1.8344994984068812,-0.0014349794946610928,2.9314351081848145,-1.4699409008026123,0.0007771772216074169,2.1253488063812256,4.758844877570429,-0.00031617487547919154,0.2194501757621765,-1.5695140997516077,-0.0001404419745085761,-0.06270192563533783,0.8184947967529297,0.0,0.015930451452732086,0.6072865724563599,0.19270315766334534,0.8217897415161133
359.0,293.0,-0.1579,-1.3394,9.5767,-0.0409,0.025,0.0426,-1.8345843754210414,-0.0016794634284451604,2.9667396545410156,-1.4698646068572998,0.0005870041786693037,2.132235527038574,4.758824764728107,-0.00038820781628601253,0.23071862757205963,-1.5695341269122522,-0.0001316380948992446,-0.0664484053850174,0.8186071515083313,0.0,0.03089112788438797,0.60845547914505,0.1996312141418457,0.8494400978088379
359.0,293.0,-0.1579,-1.3394,9.5767,-0.0409,0.025,0.0426,-1.834604402581686,-0.00398023659363389,2.918339252471924,-1.4699164628982544,0.00047162422561086714,2.133044958114624,4.7588131604488275,-0.00036031613126397133,0.22828805446624756,-1.5695298353778284,-0.0001238728000316769,-0.08208420872688293,0.8185390830039978,0.0,0.026801973581314087,0.6097562909126282,0.21185922622680664,0.8808307647705078
359.0,293.0,-0.1579,-1.3394,9.5767,-0.0409,0.025,0.0426,-1.834604402581686,-0.005913282744586468,2.8926219940185547,-1.4699327945709229,0.0004169859748799354,2.131145477294922,4.758820629655876,-0.00033455557422712445,0.22991986572742462,-1.5695503393756312,-0.00011918577365577221,-0.06389744579792023,0.818547248840332,0.0,0.03713396564126015,0.6106372475624084,0.22333157062530518,0.9218379259109497
359.0,293.0,-0.1579,-1.3394,9.5767,-0.0409,0.025,0.0426,-1.8346320591368617,-0.009278465993702412,2.893866777420044,-1.469940185546875,0.0003552552661858499,2.113384246826172,4.758857141226091,-0.00032840087078511715,0.21878573298454285,-1.5695140997516077,-0.00011278464080533013,-0.07194918394088745,0.8186071515083313,0.0,0.04032503813505173,0.61201411485672,0.24183152616024017,0.9410938024520874
359.0,293.0,-0.1579,-1.3394,9.5767,-0.0409,0.025,0.0426,-1.8347045383849085,-0.01082050520926714,2.9073328971862793,-1.4699164628982544,0.00024392821069341153,2.177971124649048,4.758880863874712,-0.00028998139896430075,0.22007635235786438,-1.569510285054342,-0.00010703589214244857,-0.06014525145292282,0.818599283695221,0.0,0.03367321938276291,0.6134990453720093,0.2489672750234604,0.939376950263977
359.0,293.0,-0.1579,-1.3394,9.5767,-0.0409,0.025,0.0426,-1.8347522221007289,-0.011182604357600212,2.8977785110473633,-1.4699087142944336,0.00028889899840578437,2.147888422012329,4.758824790805139,-0.0002587167255114764,0.22961676120758057,-1.5695460478412073,-0.00010184484563069418,-0.07917371392250061,0.8185591697692871,0.0,0.03307940438389778,0.6150642037391663,0.25610771775245667,0.911601185798645
359.0,293.0,-0.1579,-1.3394,9.5767,-0.0409,0.025,0.0426,-1.8348399601378382,-0.012738139368593693,2.9180469512939453,-1.4699286222457886,0.00211151922121644,2.177602767944336,4.758840787201681,-0.0002335379394935444,0.22751465439796448,-1.5694902578936976,-9.71340123214759e-05,-0.07869566977024078,0.8185710906982422,0.0,0.02812400460243225,0.6165643930435181,0.2727125287055969,0.9310377836227417
359.0,293.0,-0.1579,-1.3394,9.5767,-0.0409,0.025,0.0426,-1.8349362812437953,-0.015823453664779663,2.9701409339904785,-1.469900369644165,0.0015514566330239177,2.1349213123321533,4.758828840195694,-0.00021282664965838194,0.21670109033584595,-1.569538418446676,-9.283982217311859e-05,-0.07631111890077591,0.8186030387878418,0.0,0.03669605404138565,0.6182296872138977,0.29099148511886597,0.9988810420036316
359.0,293.0,-0.1579,-1.3394,9.5767,-0.0409,0.025,0.0426,-1.8350407085814417,-0.018809828907251358,2.9196724891662598,-1.4698807001113892,0.0009191036224365234,2.1540699005126953,4.758884924441137,-0.00019548962882254273,0.23003935813903809,-1.5695303122149866,-8.890916797099635e-05,-0.07374381273984909,0.8186150789260864,0.0,0.015750151127576828,0.6200352907180786,0.2987572252750397,0.9473932385444641
359.0,293.0,-0.1579,-1.3394,9.5767,-0.0409,0.025,0.0426,-1.835104604760641,-0.019100269302725792,2.895590305328369,-1.4698846340179443,0.0007113583269529045,2.185187339782715,4.758869319200077,-0.000172357089468278,0.23271945118904114,-1.56948167482485,-8.646857895655558e-05,-0.0746786817908287,0.8185669779777527,0.0,0.02715829201042652,0.6212446093559265,0.304556280374527,0.9988265633583069
359.0,293.0,-0.1579,-1.3394,9.5767,-0.0409,0.025,0.0426,-1.8352576694884242,-0.020815113559365273,2.9057064056396484,-1.4698807001113892,0.0005808023270219564,2.128358840942383,4.758820663183489,-0.00016850483370944858,0.22265774011611938,-1.5695222059832972,-8.313140278914943e-05,-0.07570455968379974,0.8186030387878418,0.0,0.0438641682267189,0.6230772733688354,0.3232214152812958,1.049379587173462
359.0,293.0,-0.1579,-1.3394,9.5767,-0.0409,0.025,0.0426,-1.8354016743102015,-0.022763870656490326,2.915832996368408,-1.4699126482009888,0.0004845664370805025,2.1234655380249023,4.758809081255951,-0.00015724652621429414,0.23526179790496826,-1.5695059935199183,-2.9093285775161348e-05,-0.06935909390449524,0.8186190128326416,0.0,0.03509543836116791,0.6250467300415039,0.33307212591171265,0.9985992908477783
359.0,293.0,-0.1579,-1.3394,9.5767,-0.0409,0.025,0.0426,-1.8355704746642054,-0.022098692134022713,2.9454376697540283,-1.4699203968048096,0.0002838247164618224,2.1272013187408447,4.758828866272726,-0.0001686873729340732,0.24385687708854675,-1.5695303122149866,-2.7734491595765576e-05,-0.06806187331676483,0.8186109662055969,0.0,0.027321672067046165,0.6270721554756165,0.3380435109138489,0.9538272023200989
308.0,496.0,0.1334,-1.3286,9.6814,0.0015,-0.011,0.2112,-1.835642000237936,-0.021588467061519623,2.9515161514282227,-1.4698727130889893,0.0003759248647838831,2.1101760864257812,4.758836938976803,-0.00015616798191331327,0.23911678791046143,-1.5694902578936976,-2.6509138479013927e-05,-0.06442634016275406,0.818619430065155,0.0,0.037484586238861084,0.6291540265083313,0.3486678898334503,1.001635193824768
308.0,496.0,0.1334,-1.3286,9.6814,0.0015,-0.011,0.2112,-1.8358427486815394,-0.02140146866440773,2.972625255584717,-1.4699087142944336,0.0007100984803400934,2.1657869815826416,4.758828881173887,-0.00016607627912890166,0.23835361003875732,-1.5695465246783655,-2.53874713962432e-05,-0.07335422933101654,0.8185670375823975,0.0,0.05074334144592285,0.6312062740325928,0.35333961248397827,0.962996244430542
308.0,496.0,0.1334,-1.3286,9.6814,0.0015,-0.011,0.2112,-1.8358975849547328,-0.02174801379442215,2.9713916778564453,-1.4698646068572998,0.0005168275674805045,2.1312811374664307,4.758832897036829,-0.00015536877617705613,0.22995315492153168,-1.56948167482485,-1.376754244120093e-05,-0.059532225131988525,0.8186193108558655,0.0,0.048934344202280045,0.6334031820297241,0.35558953881263733,0.9875338077545166
308.0,496.0,0.1334,-1.3286,9.6814,0.0015,-0.011,0.2112,-1.8360139332213343,-0.02184930443763733,2.985827684402466,-1.4699205160140991,0.00044521247036755085,2.1573867797851562,4.758801183640518,-0.00014592197840102017,0.23693066835403442,-1.5695303122149866,-1.1703785276040435e-05,-0.06805681437253952,0.8185591101646423,0.0,0.044641781598329544,0.6356167197227478,0.35892876982688904,0.9718718528747559
308.0,496.0,0.1334,-1.3286,9.6814,0.0015,-0.011,0.2112,-1.8361708126463832,-0.021878240630030632,2.957031726837158,-1.4698683023452759,0.00044586326112039387,2.1834404468536377,4.758776820241966,-0.00014023737458046526,0.24097785353660583,-1.569442097340719,-1.1406688827264588e-05,-0.048084598034620285,0.8185833096504211,0.0,0.03437136486172676,0.6371100544929504,0.3636140823364258,0.9199346303939819
308.0,496.0,0.1334,-1.3286,9.6814,0.0015,-0.011,0.2112,-1.8362747631468714,-0.02224254608154297,2.967289447784424,-1.4698529243469238,0.000403846352128312,2.1851444244384766,4.758840854256906,-0.0001324953482253477,0.2513482868671417,-1.5694778601275843,-1.0988864232786e-05,-0.07862588763237,0.8185833096504211,0.0,0.038477204740047455,0.6392356157302856,0.36462655663490295,0.9823837876319885
308.0,496.0,0.1334,-1.3286,9.6814,0.0015,-0.011,0.2112,-1.8363987408080042,-0.021731102839112282,2.9380264282226562,-1.4698723554611206,0.0004277299449313432,2.1545157432556152,4.758857118874349,-0.00012556344154290855,0.25145861506462097,-1.5695269743548792,-1.0600578207231592e-05,-0.061381496489048004,0.8185669779777527,0.0,0.027715906500816345,0.6414576768875122,0.36412313580513,0.9466332197189331
308.0,496.0,0.1334,-1.3286,9.6814,0.0015,-0.011,0.2112,-1.836522718469137,-0.01931753009557724,2.9662539958953857,-1.4699046611785889,0.0006971124093979597,2.159501791000366,4.758877179562607,-0.00011932056804653257,0.24854499101638794,-1.569470230733053,-1.3338527651285403e-06,-0.057927634567022324,0.8185873627662659,0.0,0.035428427159786224,0.6436760425567627,0.3697911202907562,0.9347196817398071
308.0,496.0,0.1334,-1.3286,9.6814,0.0015,-0.011,0.2112,-1.8365947208800257,-0.016418490558862686,3.025240659713745,-1.4698445796966553,0.0011312912683933973,2.1823034286499023,4.75884077230052,-0.00010312021913705394,0.24716368317604065,-1.5695064703570765,-3.7128289331889164e-10,-0.04992834851145744,0.8186033964157104,0.0,0.03825894743204117,0.6458408236503601,0.3669681251049042,0.878718376159668
308.0,496.0,0.1334,-1.3286,9.6814,0.0015,-0.011,0.2112,-1.8367392025389613,-0.013531645759940147,3.029763698577881,-1.4698126316070557,0.0018074277322739363,2.1235251426696777,4.75883665585474,-9.496408893028274e-05,0.23064173758029938,-1.5694540182696741,-1.0334794679116646e-13,-0.04188418388366699,0.8185830116271973,0.0,0.02097412571310997,0.6480634808540344,0.3699914515018463,0.876460075378418
308.0,496.0,0.1334,-1.3286,9.6814,0.0015,-0.011,0.2112,-1.8368274174132289,-0.011036365292966366,3.0270888805389404,-1.4698126316070557,0.0018155331490561366,2.1255173683166504,4.758828866272726,-9.085447527468204e-05,0.2524212598800659,-1.5695021788226526,-2.876727706178537e-17,-0.04209470748901367,0.8185791969299316,0.0,0.027097046375274658,0.6502648591995239,0.3707624077796936,0.8187189102172852
308.0,496.0,0.1334,-1.3286,9.6814,0.0015,-0.011,0.2112,-1.8368712864317835,-0.008427117951214314,3.021097183227539,-1.4698288440704346,0.001443025772459805,2.1679439544677734,4.758820607304134,-4.153749250690453e-05,0.24910220503807068,-1.5694788138019007,-8.007477491173402e-21,-0.04143740236759186,0.8185393810272217,0.0,0.03216621279716492,0.652394711971283,0.3617604076862335,0.8280572891235352
308.0,496.0,0.1334,-1.3286,9.6814,0.0015,-0.011,0.2112,-1.8368827305235804,-0.007101340685039759,3.0963330268859863,-1.4697885513305664,0.0016902044881135225,2.147031545639038,4.758873126446762,-3.8994650822132826e-05,0.2649690806865692,-1.5694940725909632,-3.4137132102654235e-23,-0.04872865602374077,0.818599283695221,0.0,0.024479597806930542,0.6538881063461304,0.36182793974876404,0.7879890203475952
308.0,496.0,0.1334,-1.3286,9.6814,0.0015,-0.011,0.2112,-1.836886545220846,-0.003951518330723047,3.1192286014556885,-1.469788908958435,0.0019267939496785402,2.152667760848999,4.758832833706894,-1.8925920812762342e-05,0.2562866508960724,-1.5695064703570765,-9.502197841192454e-27,-0.042972713708877563,0.8186156749725342,0.0,0.03198543190956116,0.6560299396514893,0.3600780665874481,0.8179676532745361
308.0,496.0,0.1334,-1.3286,9.6814,0.0015,-0.011,0.2112,-1.8369432888426722,-0.0015095233684405684,3.0896260738372803,-1.4697928428649902,0.0024807818699628115,2.1866660118103027,4.758873145073213,-4.451451786735561e-06,0.2690984904766083,-1.5694459120379847,-2.6449717513840955e-30,-0.040039580315351486,0.8185713887214661,0.0,0.01833764836192131,0.6581273078918457,0.3513733446598053,0.7647454738616943
308.0,496.0,0.1334,-1.3286,9.6814,0.0015,-0.011,0.2112,-1.8369394741454066,-0.0006005782634019852,3.1175708770751953,-1.469748854637146,0.0034232879988849163,2.134451389312744,4.7588284751172445,-1.2390780623761088e-09,0.26101452112197876,-1.5694621245013636,-7.3623773402342675e-34,-0.0371476411819458,0.818543553352356,0.0,0.028513217344880104,0.6602901816368103,0.35148775577545166,0.7660493850708008
246.0,908.0,1.1145,0.0024,9.6867,0.029,0.0214,0.2324,-1.8369394741454066,-0.00030512697412632406,3.163492202758789,-1.4697489738464355,0.003875073743984103,2.1383304595947266,4.75887310409502,-3.4490192277712717e-13,0.27104800939559937,-1.569470230733053,-2.0493449700062606e-37,-0.03488995134830475,0.8185189962387085,0.0,0.0326472707092762,0.6623678207397461,0.3446838855743408,0.7310071587562561
246.0,908.0,1.1145,0.0024,9.6867,0.029,0.0214,0.2324,-1.8369151554503382,0.00033268003608100116,3.069706439971924,-1.4696927070617676,0.004743123892694712,2.1682000160217285,4.758836629777708,-9.600469947527253e-17,0.25942492485046387,-1.5694459120379847,-5.704405788573465e-41,-0.0302748903632164,0.8185713887214661,0.0,0.031160341575741768,0.6644414663314819,0.3365779221057892,0.7389253377914429
246.0,908.0,1.1145,0.0024,9.6867,0.029,0.0214,0.2324,-1.8368870220580042,0.0008269804529845715,3.1318955421447754,-1.4696041345596313,0.006621955428272486,2.192476749420166,4.75887310409502,-2.6723261991830372e-20,0.2743107080459595,-1.5694544951068323,-1.5414283107572988e-44,-0.0411284863948822,0.8185230493545532,0.0,0.01930396817624569,0.6664509177207947,0.32943272590637207,0.6787689924240112
246.0,908.0,1.1145,0.0024,9.6867,0.029,0.0214,0.2324,-1.836891313592428,0.0007764341426081955,3.1607632637023926,-1.4696648120880127,0.007513496559113264,2.2010350227355957,4.75886486747817,-1.1392546177471841e-22,0.26638364791870117,-1.5694378058062952,-0.0,-0.04440346360206604,0.8184989094734192,0.0,0.036614079028367996,0.6677881479263306,0.325407475233078,0.6362199783325195
246.0,908.0,1.1145,0.0024,9.6867,0.029,0.0214,0.2324,-1.8368669948973597,0.000648770947009325,3.172197103500366,-1.469604730606079,0.008993890136480331,2.17529296875,4.75887310409502,-3.171156744039918e-26,0.26669543981552124,-1.5694182554828089,-0.0,-0.03636263310909271,0.8185030221939087,0.0,0.017198510468006134,0.6697260141372681,0.31833332777023315,0.6844900846481323
246.0,908.0,1.1145,0.0024,9.6867,0.029,0.0214,0.2324,-1.8369070492186488,0.0005106819444335997,3.1454572677612305,-1.469541072845459,0.0087427431717515,2.165896415710449,4.758880863874712,-8.827030454674951e-30,0.2697870433330536,-1.5694664160357874,-0.0,-0.03660152480006218,0.8185272216796875,0.0,0.007966126315295696,0.6715990900993347,0.3085998594760895,0.6150461435317993
246.0,908.0,1.1145,0.0024,9.6867,0.029,0.0214,0.2324,-1.8369065723814906,0.0003684386902023107,3.1221365928649902,-1.469448208808899,0.007928865030407906,2.1675949096679688,4.758861183166065,-2.457036659187977e-33,0.27819573879241943,-1.5694940725909632,-0.0,-0.013252944685518742,0.8185713887214661,0.0,0.023177608847618103,0.673456609249115,0.30815282464027405,0.5557816028594971
246.0,908.0,1.1145,0.0024,9.6867,0.029,0.0214,0.2324,-1.836862703362936,0.00031343725277110934,3.1287596225738525,-1.4694406986236572,0.006100727245211601,2.1387665271759033,4.758896863996544,-6.839252170373636e-37,0.2715628147125244,-1.569442097340719,-0.0,-0.021350765600800514,0.8185632228851318,0.0,0.013492686673998833,0.6752621531486511,0.3058648407459259,0.6378267407417297
246.0,908.0,1.1145,0.0024,9.6867,0.029,0.0214,0.2324,-1.8368751011290492,0.0002727281244006008,3.1671833992004395,-1.469376564025879,0.004685320425778627,2.181903123855591,4.7588284751172445,-1.9037340287084802e-40,0.2657954692840576,-1.5694745222674769,-0.0,-0.03469037264585495,0.8185553550720215,0.0,0.015182428061962128,0.6770151853561401,0.2967408299446106,0.6319124698638916
246.0,908.0,1.1145,0.0024,9.6867,0.029,0.0214,0.2324,-1.8368431530394496,0.00024137804575730115,3.117678642272949,-1.4693846702575684,0.0037235550116747618,2.143692970275879,4.75888870933608,-5.324934164434305e-44,0.26836031675338745,-1.5694621245013636,-0.0,-0.02956608682870865,0.8185873031616211,0.0,0.011238299310207367,0.6787772178649902,0.29505226016044617,0.6117307543754578
246.0,908.0,1.1145,0.0024,9.6867,0.029,0.0214,0.2324,-1.8369037113585414,0.0002474206266924739,3.1457693576812744,-1.4693647623062134,0.0030915895476937294,2.1737918853759766,4.758889100491562,-0.0,0.2653374671936035,-1.569458309804098,-0.0,-0.03749968484044075,0.8185873627662659,0.0,0.01334620825946331,0.6805546283721924,0.2968301773071289,0.5776525139808655
246.0,908.0,1.1145,0.0024,9.6867,0.029,0.0214,0.2324,-1.8368951282896937,0.00023150919878389686,3.1646413803100586,-1.4693775177001953,0.0024926422629505396,2.2132318019866943,4.758784878044882,-0.0,0.2692965865135193,-1.5694382826434534,-0.0,-0.04203628748655319,0.8185952305793762,0.0,0.010175885632634163,0.6816152334213257,0.2898924946784973,0.5776806473731995
246.0,908.0,1.1145,0.0024,9.6867,0.029,0.0214,0.2324,-1.836867471734518,0.00021114163973834366,3.1894493103027344,-1.4692848920822144,0.0020537341479212046,2.166745185852051,4.758836629777708,-0.0,0.2743028998374939,-1.5694544951068323,6.607551040360704e-05,-0.04655986279249191,0.8186071515083313,0.0,0.014252936467528343,0.6833249926567078,0.28195637464523315,0.5598257184028625
246.0,908.0,1.1145,0.0024,9.6867,0.029,0.0214,0.2324,-1.8368989429869593,0.00016982310626190156,3.1202311515808105,-1.469268560409546,0.0015047197230160236,2.1771960258483887,4.758820629655876,-0.0,0.27125677466392517,-1.5694306532489222,8.77046913956292e-05,-0.024968203157186508,0.8185390830039978,0.0,0.0025738358963280916,0.685127317905426,0.28444617986679077,0.5901219248771667
246.0,908.0,1.1145,0.0024,9.6867,0.029,0.0214,0.2324,-1.8368870220580042,0.00015710575098637491,3.132843494415283,-1.4693410396575928,0.001002548960968852,2.167818069458008,4.758809111058273,-0.0,0.2753891348838806,-1.5694425741778772,9.102303010877222e-05,-0.032850734889507294,0.818583071231842,0.0,0.019150715321302414,0.6867519617080688,0.28629231452941895,0.5055257081985474
246.0,908.0,1.1145,0.0024,9.6867,0.029,0.0214,0.2324,-1.8369232616820277,2.371165646763984e-05,3.1573803424835205,-1.469308853149414,0.0007069994462653995,2.15339994430542,4.758820629655876,-0.0,0.26905858516693115,-1.5694339911090296,9.423147275811061e-05,-0.031544238328933716,0.818599283695221,0.0,0.02098419889807701,0.6884571313858032,0.276472270488739,0.5536351799964905
257.0,913.0,0.2022,0.082,9.5856,-0.0005,0.0264,0.1688,-1.8369065723814906,4.872325320981474e-10,3.147862434387207,-1.4693491458892822,0.0005460748798213899,2.1343002319335938,4.7587930774088285,-2.676451731531415e-05,0.2708323001861572,-1.5694463888751429,0.00010347930947318673,-0.011699385941028595,0.8186231851577759,0.0,0.010815119370818138,0.690127432346344,0.27433252334594727,0.5038429498672485
257.0,913.0,0.2022,0.082,9.5856,-0.0005,0.0264,0.1688,-1.8369552097716273,1.1766093377453307e-15,3.173556327819824,-1.4693528413772583,0.0004448383115231991,2.133249282836914,4.758793137013473,-7.608226587763056e-05,0.2770950198173523,-1.5694425741778772,9.951901301974431e-05,-0.01793336309492588,0.8185792565345764,0.0,0.016355253756046295,0.6917482018470764,0.27549564838409424,0.4825100898742676
257.0,913.0,0.2022,0.082,9.5856,-0.0005,0.0264,0.1688,-1.8369952640929164,-0.0011407624697312713,3.1173534393310547,-1.4693411588668823,0.00032837290200404823,2.1567394733428955,4.7587811825569055,-0.00038937642239034176,0.2671736180782318,-1.5694306532489222,0.00010813352128025144,-0.012808714993298054,0.8186071515083313,0.0,0.0048771994188427925,0.6933979392051697,0.26648053526878357,0.48267942667007446
257.0,913.0,0.2022,0.082,9.5856,-0.0005,0.0264,0.1688,-1.836959024468893,-0.0012450632639229298,3.1275744438171387,-1.4693968296051025,0.0002973620721604675,2.201517343521118,4.758777110814609,-0.0006373078213073313,0.2569516897201538,-1.5694263617144983,0.00010540858056629077,-0.015414675697684288,0.8185312747955322,0.0,0.013351145200431347,0.6944950819015503,0.26588425040245056,0.4717656970024109
257.0,913.0,0.2022,0.082,9.5856,-0.0005,0.0264,0.1688,-1.836959024468893,-0.0016894045984372497,3.087961196899414,-1.4693570137023926,0.00026047625578939915,2.1577250957489014,4.758785258024492,-0.0006364012369886041,0.24679070711135864,-1.5694387594806116,0.00018888013437390327,-0.005805451422929764,0.8185792565345764,0.0,-9.89530235528946e-06,0.6960689425468445,0.257702112197876,0.3976401686668396
257.0,913.0,0.2022,0.082,9.5856,-0.0005,0.0264,0.1688,-1.8370071850218714,-0.0025399746373295784,3.099489688873291,-1.4693608283996582,0.00023173146473709494,2.1313462257385254,4.758785272925653,-0.0007792727556079626,0.26306524872779846,-1.5694263617144983,0.00018991518300026655,-0.01637968234717846,0.8185230493545532,0.0,0.006644099950790405,0.6976780295372009,0.2541414499282837,0.42440831661224365
257.0,913.0,0.2022,0.082,9.5856,-0.0005,0.0264,0.1688,-1.8369866810240687,-0.002796636428683996,3.147817611694336,-1.4693807363510132,0.00020870089065283537,2.145080804824829,4.758785258024492,-0.0009127352386713028,0.2660430669784546,-1.569418732319967,0.00018610396364238113,-0.017677579075098038,0.818547248840332,0.0,0.0055475989356637,0.6992025375366211,0.25413039326667786,0.4486455023288727
257.0,913.0,0.2022,0.082,9.5856,-0.0005,0.0264,0.1688,-1.8370114765562953,-0.0032642383594065905,3.0760374069213867,-1.469368815422058,0.0001898345653899014,2.1524720191955566,4.7587533360119245,-0.000810501747764647,0.24602773785591125,-1.5694144407855433,0.00016866768419276923,-0.008131872862577438,0.8185393214225769,0.0,0.012477798387408257,0.7007046341896057,0.24734029173851013,0.4335722029209137
257.0,913.0,0.2022,0.082,9.5856,-0.0005,0.0264,0.1688,-1.8370267353453578,-0.003080373629927635,3.0150575637817383,-1.4692846536636353,0.0001740964944474399,2.146280288696289,4.758745181351461,-0.0006222427473403513,0.24760717153549194,-1.5694144407855433,0.00015421568241436034,0.010715563781559467,0.8185672760009766,0.0,0.02858937531709671,0.702178955078125,0.23940043151378632,0.4027373492717743
257.0,913.0,0.2022,0.082,9.5856,-0.0005,0.0264,0.1688,-1.83707918743276,-0.003105355892330408,3.077536106109619,-1.4693132638931274,0.000160768031491898,2.124547243118286,4.758761177748003,-0.0005270264227874577,0.25369635224342346,-1.56940204301943,0.00014204482431523502,-0.015328755602240562,0.818547248840332,0.0,0.01407855935394764,0.7036025524139404,0.2341511845588684,0.39759790897369385
257.0,913.0,0.2022,0.082,9.5856,-0.0005,0.0264,0.1688,-1.8370548687376917,-0.0033546998165547848,3.0653433799743652,-1.4693529605865479,0.00015296136552933604,2.1722412109375,4.758749253093757,-0.000495470012538135,0.2550429701805115,-1.5694101492511194,0.00015666958643123507,-0.017733687534928322,0.8186231255531311,0.0,0.015868209302425385,0.7044957876205444,0.2359611541032791,0.3713175356388092
257.0,913.0,0.2022,0.082,9.5856,-0.0005,0.0264,0.1688,-1.8370467625060023,-0.0030984494369477034,3.0065841674804688,-1.4693489074707031,0.00014257640577852726,2.157782554626465,4.75876525694088,-0.00041356010478921235,0.24781809747219086,-1.5694263617144983,0.0001464552478864789,-0.004263166803866625,0.8185835480690002,0.0,0.004998275078833103,0.7058817744255066,0.2299487292766571,0.3922761082649231
257.0,913.0,0.2022,0.082,9.5856,-0.0005,0.0264,0.1688,-1.8370586834349574,-0.002671419642865658,3.0670723915100098,-1.4693162441253662,0.00014605853357352316,2.1447548866271973,4.758741105883875,-0.00039483298314735293,0.250028520822525,-1.5694306532489222,0.00013690734340343624,-0.005979821551591158,0.8185030221939087,0.0,0.008797838352620602,0.7072663307189941,0.21853934228420258,0.39825475215911865
257.0,913.0,0.2022,0.082,9.5856,-0.0005,0.0264,0.1688,-1.837175031701559,-0.0020809487905353308,3.001762866973877,-1.4693489074707031,0.00014346386888064444,2.1365673542022705,4.758761177748003,-0.00028833234682679176,0.2451375126838684,-1.569385830556051,0.00014680717140436172,-0.006024734117090702,0.8185955286026001,0.0,0.012140226550400257,0.7085215449333191,0.20895157754421234,0.3430795669555664
257.0,913.0,0.2022,0.082,9.5856,-0.0005,0.0264,0.1688,-1.837090631524557,-0.0018332907930016518,3.0201914310455322,-1.46932053565979,0.00013537181075662374,2.1331558227539062,4.758704884886303,-0.00037322790012694895,0.24871695041656494,-1.56940204301943,0.00013841695908922702,-0.002005605259910226,0.8184908032417297,0.0,0.029321301728487015,0.709742546081543,0.21021704375743866,0.32012373208999634
257.0,913.0,0.2022,0.082,9.5856,-0.0005,0.0264,0.1688,-1.8371149502196253,-0.001574832946062088,3.071340560913086,-1.4693009853363037,0.00012814409274142236,2.127545118331909,4.758737335890093,-0.0008559739217162132,0.2432209551334381,-1.5694144407855433,0.00013086912804283202,0.0010037720203399658,0.818599283695221,0.0,0.017770156264305115,0.7109901905059814,0.206309974193573,0.3036007583141327
552.0,920.0,0.594,0.4433,9.6443,0.0125,0.0292,0.0771,-1.8371631107726039,-0.0011395331239327788,3.0711259841918945,-1.4693489074707031,0.00012164894724264741,2.174593925476074,4.758725511818685,-0.0012551354011520743,0.22509604692459106,-1.5694344679461878,0.0001252032961929217,0.013325314968824387,0.818498969078064,0.0,0.012237492948770523,0.7121460437774658,0.1982625424861908,0.31643831729888916
552.0,920.0,0.594,0.4433,9.6443,0.0125,0.0292,0.0771,-1.8370830021300257,-0.0008440355304628611,3.0242576599121094,-1.469313144683838,8.815485489321873e-05,2.135312557220459,4.758705007820883,-0.0010845130309462547,0.2381857931613922,-1.569418732319967,0.00012692701420746744,0.014944721013307571,0.818510890007019,0.0,-0.0019944997038692236,0.7133079767227173,0.1827036291360855,0.2502177059650421
552.0,920.0,0.594,0.4433,9.6443,0.0125,0.0292,0.0771,-1.8371430836119593,-0.0006836564862169325,3.046149492263794,-1.4693286418914795,0.00011423981050029397,2.1657586097717285,4.758717293828287,-0.0010312966769561172,0.23431995511054993,-1.5694387594806116,0.00013186028809286654,0.0025822389870882034,0.8185476064682007,0.0,0.016483047977089882,0.7139754891395569,0.17464667558670044,0.21998482942581177
552.0,920.0,0.594,0.4433,9.6443,0.0125,0.0292,0.0771,-1.8371550045409144,-0.0004852375132031739,3.0271854400634766,-1.469313144683838,0.0008921108092181385,2.137396812438965,4.758741873293676,-0.0012043328024446964,0.23653103411197662,-1.569390122090475,0.00012290313316043466,0.012733816169202328,0.8185513019561768,0.0,0.012034429237246513,0.7150573134422302,0.17329271137714386,0.24013862013816833
552.0,920.0,0.594,0.4433,9.6443,0.0125,0.0292,0.0771,-1.8371345005431117,-0.0005047147860750556,3.028409242630005,-1.4693329334259033,0.0007173280464485288,2.133207082748413,4.758689652174272,-0.0015447668265551329,0.23194068670272827,-1.5693538824664515,0.00013405393110588193,0.027427904307842255,0.818514883518219,0.0,0.0120354313403368,0.7160331010818481,0.17024853825569153,0.19722840189933777
552.0,920.0,0.594,0.4433,9.6443,0.0125,0.0292,0.0771,-1.8371311626830042,-0.00042224550270475447,3.02439546585083,-1.4693326950073242,0.0005530064227059484,2.1638243198394775,4.758677805751123,-0.0016724641900509596,0.23224516212940216,-1.5694225470172327,0.0001429800468031317,0.015476291999220848,0.8186115026473999,0.0,-0.004588391166180372,0.717100977897644,0.16712979972362518,0.23557165265083313
552.0,920.0,0.594,0.4433,9.6443,0.0125,0.0292,0.0771,-1.8371387920775355,-0.00035906510311178863,2.993596076965332,-1.46932053565979,0.0006059712031856179,2.1325175762176514,4.758677835553446,-0.0015352368354797363,0.2316122204065323,-1.5694101492511194,0.00013600956299342215,0.011600636877119541,0.818547248840332,0.0,-0.006938592530786991,0.7180447578430176,0.1596912294626236,0.18403232097625732
552.0,920.0,0.594,0.4433,9.6443,0.0125,0.0292,0.0771,-1.8371511898436488,-0.0003123334900010377,2.9953343868255615,-1.4692448377609253,0.0020951232872903347,2.1004722118377686,4.758653650968828,-0.0014127036556601524,0.24306246638298035,-1.5693662802325647,0.00018596299923956394,0.014703767374157906,0.8186393976211548,0.0,-0.01089099794626236,0.7190003991127014,0.1494852900505066,0.15541571378707886
552.0,920.0,0.594,0.4433,9.6443,0.0125,0.0292,0.0771,-1.8371345005431117,-0.0002763655793387443,3.0344080924987793,-1.4692490100860596,0.0026081549003720284,2.1714930534362793,4.758637654572286,-0.0015410201158374548,0.2405010163784027,-1.5693700949298304,0.00018177945457864553,0.03386060521006584,0.818551242351532,0.0,0.0025127632543444633,0.7198960781097412,0.1424330174922943,0.17706610262393951
552.0,920.0,0.594,0.4433,9.6443,0.0125,0.0292,0.0771,-1.8370949230589808,-0.0002199300070060417,3.0046579837799072,-1.4692245721817017,0.0024702490773051977,2.129849910736084,4.758673756360569,-0.0019588121213018894,0.24301335215568542,-1.569385830556051,0.00016213292838074267,0.041020579636096954,0.8185635805130005,0.0,0.002271560952067375,0.7207240462303162,0.14291666448116302,0.12422310560941696
552.0,920.0,0.594,0.4433,9.6443,0.0125,0.0292,0.0771,-1.837106843987936,-0.000200044407392852,3.0191690921783447,-1.469220519065857,0.002247470198199153,2.161245822906494,4.758613574295797,-0.0020511914044618607,0.23472046852111816,-1.5693219343768519,0.00016606136341579258,0.031100930646061897,0.818535327911377,0.0,0.011051078327000141,0.7213478088378906,0.14277195930480957,0.15359869599342346
552.0,920.0,0.594,0.4433,9.6443,0.0125,0.0292,0.0771,-1.8371149502196253,-0.00021180414478294551,3.0423853397369385,-1.4692045450210571,0.0020362911745905876,2.139853000640869,4.7586340112383745,-0.0020613574888557196,0.2227143943309784,-1.5693581740008753,0.0001648526667850092,0.021169370040297508,0.8185513019561768,0.0,0.005561873782426119,0.7221409678459167,0.14261971414089203,0.11323609203100204
552.0,920.0,0.594,0.4433,9.6443,0.0125,0.0292,0.0771,-1.837170740167135,-0.00018950449884869158,3.007136821746826,-1.46920907497406,0.0028254766948521137,2.1898064613342285,4.758613581746378,-0.0016460120677947998,0.2493850290775299,-1.5693782011615198,0.0001510238362243399,0.02339169755578041,0.8186033368110657,0.0,0.010746538639068604,0.7230077385902405,0.1436978578567505,0.18121260404586792
552.0,920.0,0.594,0.4433,9.6443,0.0125,0.0292,0.0771,-1.8371387920775355,-0.0001714533573249355,3.0366225242614746,-1.4691691398620605,0.0037809989880770445,2.1199326515197754,4.758557713567772,-0.001089857891201973,0.24953433871269226,-1.569390122090475,0.00013933262380305678,0.0327519029378891,0.8185393214225769,0.0,-0.0006023905007168651,0.7238890528678894,0.13803230226039886,0.10969802737236023
552.0,920.0,0.594,0.4433,9.6443,0.0125,0.0292,0.0771,-1.8371387920775355,-0.00015654219896532595,3.010988712310791,-1.4691731929779053,0.005238199606537819,2.185183048248291,4.758613883494892,-0.0006019218708388507,0.25563472509384155,-1.569373909627096,0.00015068563516251743,0.033626750111579895,0.8185632228851318,0.0,0.010336464270949364,0.7246723771095276,0.13009636104106903,0.07666148245334625
552.0,920.0,0.594,0.4433,9.6443,0.0125,0.0292,0.0771,-1.8370825252928675,-0.00014401713269762695,3.096031665802002,-1.469109058380127,0.006206922698765993,2.150203227996826,4.758589732437887,-0.000556314131245017,0.24493123590946198,-1.569373909627096,0.00014076194202061743,0.029467139393091202,0.8185591697692871,0.0,0.0003243483661208302,0.7254965305328369,0.12728188931941986,0.095675989985466
909.0,908.0,0.5509,-0.6562,9.5025,-0.0655,0.0293,0.035,-1.8371631107726039,-0.00013334809045773,3.047607898712158,-1.4690691232681274,0.006204529665410519,2.1577675342559814,4.758581555425682,-0.0005205653724260628,0.24339209496974945,-1.5693824926959437,0.00013191915058996528,0.018938258290290833,0.8184790015220642,0.0,0.01460512075573206,0.726232647895813,0.12278540432453156,0.10438230633735657
909.0,908.0,0.5509,-0.6562,9.5025,-0.0655,0.0293,0.035,-1.8371430836119593,-0.0001241507998201996,3.040945053100586,-1.4690688848495483,0.005657224450260401,2.171658992767334,4.758625864028492,-0.0005113363149575889,0.2396218180656433,-1.569390122090475,0.00012412168143782765,0.03707359731197357,0.8185632228851318,0.0,0.022130880504846573,0.7270240783691406,0.12181504815816879,0.08742833137512207
909.0,908.0,0.5509,-0.6562,9.5025,-0.0655,0.0293,0.035,-1.8371631107726039,-0.00011869305308209732,3.045710563659668,-1.4690492153167725,0.005861199926584959,2.1833927631378174,4.758549879282274,-0.00048653644626028836,0.2433014214038849,-1.5693700949298304,0.00011941604316234589,0.029390964657068253,0.818514883518219,0.0,0.0050682551227509975,0.7274958491325378,0.12214531004428864,0.08366020023822784
909.0,908.0,0.5509,-0.6562,9.5025,-0.0655,0.0293,0.035,-1.837170740167135,-0.00011135058593936265,3.122734308242798,-1.4689815044403076,0.005422194488346577,2.110658645629883,4.7585618300135515,-0.0006512579275295138,0.25145503878593445,-1.5693700949298304,0.00011299081961624324,0.038027118891477585,0.8185951709747314,0.0,0.014305036514997482,0.7282198071479797,0.12319948524236679,0.07869844138622284
909.0,908.0,0.5509,-0.6562,9.5025,-0.0655,0.0293,0.035,-1.8371387920775355,-0.00010486360406503081,3.0573320388793945,-1.4689607620239258,0.005443987436592579,2.1260664463043213,4.758557728468933,-0.0010863019851967692,0.24338065087795258,-1.569373909627096,0.00010722169099608436,0.0354156419634819,0.8185629844665527,0.0,0.0046462928876280785,0.7289392352104187,0.1211157962679863,0.09552160650491714
909.0,908.0,0.5509,-0.6562,9.5025,-0.0655,0.0293,0.035,-1.8371507130064906,-9.909088839776814e-05,3.003751277923584,-1.4688763618469238,0.004928271751850843,2.1714298725128174,4.758578202664413,-0.0012487819185480475,0.2452860176563263,-1.5693581740008753,0.00010201295663136989,0.03922040015459061,0.8185272216796875,0.0,0.005600715987384319,0.7296591997146606,0.11844804883003235,0.06330455839633942
909.0,908.0,0.5509,-0.6562,9.5025,-0.0655,0.0293,0.035,-1.8371387920775355,-9.392051288159564e-05,3.039771318435669,-1.468893051147461,0.004923282656818628,2.13702392578125,4.758546202420749,-0.0019049771362915635,0.24328698217868805,-1.5693863073932093,0.00011106467718491331,0.049946971237659454,0.818535327911377,0.0,0.021421972662210464,0.7303910851478577,0.11726517975330353,0.010298319160938263
909.0,908.0,0.5509,-0.6562,9.5025,-0.0655,0.0293,0.035,-1.8371149502196253,-8.926306327339262e-05,3.0468039512634277,-1.468876838684082,0.004512095358222723,2.1495187282562256,4.758510115533628,-0.003050733357667923,0.25015485286712646,-1.5693581740008753,0.00010626226139720529,0.03180105239152908,0.8185791969299316,0.0,0.013000997714698315,0.7310747504234314,0.11425735801458359,0.08081530034542084
909.0,908.0,0.5509,-0.6562,9.5025,-0.0655,0.0293,0.035,-1.8371387920775355,-8.504566358169541e-05,3.0480053424835205,-1.4688208103179932,0.0038325816858559847,2.1739039421081543,4.758438347816028,-0.004476598929613829,0.24052929878234863,-1.569373909627096,0.00010175696661463007,0.04535521939396858,0.8184911608695984,0.0,0.009206618182361126,0.73175448179245,0.10725102573633194,0.07873648405075073
909.0,908.0,0.5509,-0.6562,9.5025,-0.0655,0.0293,0.035,-1.8370663128294886,-9.600294288247824e-05,3.0117640495300293,-1.4688329696655273,0.0034117824397981167,2.135255813598633,4.758422429650583,-0.005999492947012186,0.24965734779834747,-1.5693982283221644,9.895968833006918e-05,0.04962197318673134,0.8185393810272217,0.0,0.010709503665566444,0.7321743965148926,0.10407551378011703,0.018232909962534904
909.0,908.0,0.5509,-0.6562,9.5025,-0.0655,0.0293,0.035,-1.8370949230589808,-9.19772355700843e-05,3.0492684841156006,-1.4688371419906616,0.002999204909428954,2.1359663009643555,4.7583744553621194,-0.010166727937757969,0.2301776111125946,-1.569361988698141,9.504092304268852e-05,0.03701917827129364,0.8185713887214661,0.0,0.014026928693056107,0.7328549027442932,0.09805925190448761,0.03155713900923729
909.0,908.0,0.5509,-0.6562,9.5025,-0.0655,0.0293,0.035,-1.8371507130064906,-9.923767356667668e-05,2.9891858100891113,-1.4687888622283936,0.002811860293149948,2.1522769927978516,4.758306785463848,-0.012081063352525234,0.23903925716876984,-1.5693581740008753,9.142064664047211e-05,0.04790260270237923,0.818514883518219,0.0,0.013163331896066666,0.7333979606628418,0.09737404435873032,0.016991496086120605
909.0,908.0,0.5509,-0.6562,9.5025,-0.0655,0.0293,0.035,-1.8371387920775355,-9.665063407737762e-05,2.9409830570220947,-1.4687328338623047,0.003156303195282817,2.1609737873077393,4.758239115565576,-0.013481047935783863,0.21803399920463562,-1.5694144407855433,8.806602272670716e-05,0.03698772192001343,0.8185713887214661,0.0,0.010850140824913979,0.7339785099029541,0.09367360919713974,0.058388929814100266
909.0,908.0,0.5509,-0.6562,9.5025,-0.0655,0.0293,0.035,-1.8371106586852015,-9.290915477322415e-05,2.997736692428589,-1.4687690734863281,0.0039305537939071655,2.1705551147460938,4.758155505150118,-0.01323646679520607,0.2199532687664032,-1.5693982283221644,8.494892972521484e-05,0.03900136053562164,0.8185591697692871,0.0,0.022833969444036484,0.7344577312469482,0.09320855885744095,0.062456682324409485
909.0,908.0,0.5509,-0.6562,9.5025,-0.0655,0.0293,0.035,-1.8371349773802699,-8.944657747633755e-05,2.9701309204101562,-1.4687373638153076,0.0049382783472537994,2.1090993881225586,4.75808364057497,-0.012423488311469555,0.2298995852470398,-1.569390122090475,8.204490586649626e-05,0.03553665801882744,0.8185591101646423,0.0,-0.0009422148577868938,0.7350339293479919,0.09350535273551941,0.09089302271604538
909.0,908.0,0.5509,-0.6562,9.5025,-0.0655,0.0293,0.035,-1.8371345005431117,-7.545441621914506e-05,2.988192081451416,-1.4686570167541504,0.005928386934101582,2.168593168258667,4.757959331363001,-0.010801109485328197,0.223005011677742,-1.5694025198565882,7.94124644016847e-05,0.044808320701122284,0.8185393810272217,0.0,0.008017124608159065,0.7355895638465881,0.09863097220659256,0.050961315631866455
915.0,918.0,0.6132,0.2674,9.4199,-0.0275,0.0058,-0.025,-1.8371387920775355,-7.283667946467176e-05,3.014275550842285,-1.4686168432235718,0.007143889553844929,2.16573429107666,4.7578752664621256,-0.008373214863240719,0.23590083420276642,-1.5693424383746546,6.22402731096372e-05,0.043821193277835846,0.8186313509941101,0.0,0.006795886438339949,0.7361814975738525,0.09826572984457016,0.05756513029336929
915.0,918.0,0.6132,0.2674,9.4199,-0.0275,0.0058,-0.025,-1.837106843987936,-8.131359936669469e-05,2.978422164916992,-1.468536615371704,0.0076882303692400455,2.199406147003174,4.757895934372701,-0.006468659732490778,0.22007814049720764,-1.5693944136248987,6.05611021455843e-05,0.047557491809129715,0.8185390830039978,0.0,0.004700459539890289,0.7365691065788269,0.09417339414358139,0.007392599247395992
915.0,918.0,0.6132,0.2674,9.4199,-0.0275,0.0058,-0.025,-1.8371626339354457,-6.308050797088072e-05,3.0013773441314697,-1.4685486555099487,0.008389266207814217,2.169672966003418,4.757840073644676,-0.004643263295292854,0.2313784509897232,-1.569390122090475,5.8210891438648105e-05,0.04375949501991272,0.818527102470398,0.0,0.003928861580789089,0.7371532320976257,0.08835485577583313,0.025988368317484856
915.0,918.0,0.6132,0.2674,9.4199,-0.0275,0.0058,-0.025,-1.8371874294676722,-9.445704927202314e-05,2.9713010787963867,-1.468501091003418,0.008053538389503956,2.1594932079315186,4.757832239359178,-0.004089504014700651,0.21638205647468567,-1.5693462530719202,5.603627869277261e-05,0.05371259152889252,0.8185230493545532,0.0,0.02251988835632801,0.7376449108123779,0.08382666856050491,-0.010046228766441345
915.0,918.0,0.6132,0.2674,9.4199,-0.0275,0.0058,-0.025,-1.8371793232359828,-0.0020898659713566303,3.0017645359039307,-1.4684853553771973,0.0060736993327736855,2.1598527431488037,4.757812249451437,-0.003956142347306013,0.21514421701431274,-1.5693581740008753,5.4018284572521225e-05,0.034653231501579285,0.818551242351532,0.0,0.00697892252355814,0.7381686568260193,0.08198569715023041,0.03544417768716812
915.0,918.0,0.6132,0.2674,9.4199,-0.0275,0.0058,-0.025,-1.8371583424010218,-0.0023013281170278788,2.9549121856689453,-1.468445062637329,0.004386602435261011,2.1146645545959473,4.757808505534687,-0.0036441637203097343,0.21715188026428223,-1.5693538824664515,5.214061093283817e-05,0.0535920225083828,0.8185632228851318,0.0,0.008398076519370079,0.7386205792427063,0.08136872202157974,0.04168429970741272
915.0,918.0,0.6132,0.2674,9.4199,-0.0275,0.0058,-0.025,-1.8372069797911585,-0.0015465565957129002,2.9782204627990723,-1.468356728553772,0.003806324675679207,2.1179611682891846,4.7577764866645715,-0.0033700596541166306,0.23313738405704498,-1.5694144407855433,5.038904782850295e-05,0.04654191434383392,0.8185230493545532,0.0,0.010615862905979156,0.7391169667243958,0.07861774414777756,0.05353153124451637
915.0,918.0,0.6132,0.2674,9.4199,-0.0275,0.0058,-0.025,-1.8371626339354457,-0.0011094739893451333,2.981194257736206,-1.468393325805664,0.0035627922043204308,2.1450111865997314,4.757716617524185,-0.003016314236447215,0.21995694935321808,-1.5694025198565882,4.1908666048584564e-07,0.04413784295320511,0.8184948563575745,0.0,-0.005659007932990789,0.7395568490028381,0.07675113528966904,0.06223318725824356
915.0,918.0,0.6132,0.2674,9.4199,-0.0275,0.0058,-0.025,-1.8371793232359828,-0.0007586506544612348,2.923179864883423,-1.4682966470718384,0.003595017595216632,2.1549618244171143,4.75769646370367,-0.0032599307596683502,0.21978259086608887,-1.5693500677691858,1.1665429733298538e-10,0.04617442935705185,0.8185553550720215,0.0,-0.004997245501726866,0.7399278283119202,0.07715392112731934,-0.017678219825029373
915.0,918.0,0.6132,0.2674,9.4199,-0.0275,0.0058,-0.025,-1.8372069797911585,-0.0006265519768930972,2.914581775665283,-1.4683573246002197,0.0038999945390969515,2.129093885421753,4.757720745145836,-0.0038411307614296675,0.21627014875411987,-1.569373909627096,4.973155676331331e-13,0.02876162715256214,0.8186193108558655,0.0,0.007912233471870422,0.7403365969657898,0.08066563308238983,0.05074330419301987
915.0,918.0,0.6132,0.2674,9.4199,-0.0275,0.0058,-0.025,-1.8371583424010218,-0.0004968154244124889,2.9397687911987305,-1.4683332443237305,0.00416580680757761,2.1228063106536865,4.757688711374559,-0.004697992466390133,0.2200872302055359,-1.5694025198565882,1.3842960195303524e-16,0.03874048590660095,0.8185632228851318,0.0,0.0012017387198284268,0.7407764196395874,0.08566803485155106,0.05239713191986084
915.0,918.0,0.6132,0.2674,9.4199,-0.0275,0.0058,-0.025,-1.8371907673277796,-0.0002927109890151769,2.905301332473755,-1.4682722091674805,0.00415534945204854,2.153128147125244,4.7576568005378626,-0.005965789780020714,0.21824631094932556,-1.569390598927633,3.8532386453495763e-20,0.043298088014125824,0.818535327911377,0.0,-0.0006627547554671764,0.7413041591644287,0.08823563903570175,0.025775037705898285
915.0,918.0,0.6132,0.2674,9.4199,-0.0275,0.0058,-0.025,-1.8371583424010218,-0.0002448947634547949,2.9402008056640625,-1.4683010578155518,0.005005700048059225,2.1524507999420166,4.757601021766224,-0.0072389510460197926,0.21739673614501953,-1.5693500677691858,1.0725632124145325e-23,0.048855096101760864,0.8185632228851318,0.0,0.0011810401920229197,0.74183189868927,0.08816822618246078,0.0037433886900544167
915.0,918.0,0.6132,0.2674,9.4199,-0.0275,0.0058,-0.025,-1.8372355900206507,-0.0002524215669836849,2.95758056640625,-1.4682612419128418,0.0066325427033007145,2.132596969604492,4.7575772171612165,-0.008251235820353031,0.21900199353694916,-1.5693424383746546,2.9855192070767503e-27,0.050296008586883545,0.8185591697692871,0.0,-0.007049534469842911,0.74232017993927,0.08507870882749557,0.06141247600317001
915.0,918.0,0.6132,0.2674,9.4199,-0.0275,0.0058,-0.025,-1.837170740167135,-0.0002938670222647488,2.914750576019287,-1.4682658910751343,0.006879819557070732,2.1053099632263184,4.7575251934821985,-0.009486277587711811,0.21873438358306885,-1.5693743864642542,8.310302134042183e-31,0.05467209219932556,0.8185230493545532,0.0,0.0012597744353115559,0.7428115606307983,0.08114320039749146,-0.002827935852110386
915.0,918.0,0.6132,0.2674,9.4199,-0.0275,0.0058,-0.025,-1.8372394047179164,-0.0005081741255708039,2.961266279220581,-1.4681693315505981,0.0073669240809977055,2.0854640007019043,4.7574455989296816,-0.010972950607538223,0.23705312609672546,-1.5693381468402308,2.3132029867503695e-34,0.044903919100761414,0.818543553352356,0.0,0.004942825064063072,0.7432634234428406,0.07536076009273529,-0.012438307516276836
923.0,902.0,0.1316,-0.3643,9.7304,-0.0076,0.0231,-0.0476,-1.837198873559469,-0.0013250818010419607,2.9544718265533447,-1.4682012796401978,0.007326657418161631,2.1285605430603027,4.757361358940162,-0.012315778061747551,0.21280929446220398,-1.5693543593036097,9.861546690129903e-37,0.05759039893746376,0.8185476660728455,0.0,0.003344761673361063,0.7435712218284607,0.07147546112537384,-0.039846114814281464
923.0,902.0,0.1316,-0.3643,9.7304,-0.0076,0.0231,-0.0476,-1.837170740167135,-0.0011944450670853257,2.9270429611206055,-1.4680970907211304,0.00810554251074791,2.193571090698242,4.7572655258472345,-0.013818410225212574,0.20887556672096252,-1.5693743864642542,2.745003561765884e-40,0.05021773278713226,0.8185915350914001,0.0,0.015215324237942696,0.7439631819725037,0.06299127638339996,-0.06803545355796814
923.0,902.0,0.1316,-0.3643,9.7304,-0.0076,0.0231,-0.0476,-1.837227006951803,-0.0009692417224869132,2.959233045578003,-1.4680455923080444,0.009369264356791973,2.1197566986083984,4.757246206491747,-0.015924911946058273,0.22429053485393524,-1.5693662802325647,7.707141553786494e-44,0.05918942391872406,0.8185352683067322,0.0,0.006198684684932232,0.744347333908081,0.059170495718717575,-0.008461402729153633
923.0,902.0,0.1316,-0.3643,9.7304,-0.0076,0.0231,-0.0476,-1.8372065029540003,-0.0007494442979805171,2.9589762687683105,-1.4679572582244873,0.011093169450759888,2.132211208343506,4.757146931230583,-0.018115419894456863,0.20488601922988892,-1.5693662802325647,0.0,0.04969445988535881,0.8185431361198425,0.0,0.006705008912831545,0.7446831464767456,0.05630085617303848,-0.07713436335325241
923.0,902.0,0.1316,-0.3643,9.7304,-0.0076,0.0231,-0.0476,-1.8371945820250453,-0.0006183204823173583,2.9672889709472656,-1.4678897857666016,0.01213869173079729,2.1741256713867188,4.7569867362971685,-0.023215727880597115,0.19490760564804077,-1.5693543593036097,0.0,0.05969180166721344,0.8185312747955322,0.0,0.007596868555992842,0.745006799697876,0.05914740636944771,-0.09467624127864838
923.0,902.0,0.1316,-0.3643,9.7304,-0.0076,0.0231,-0.0476,-1.8372355900206507,-0.0005313663859851658,2.942203998565674,-1.4678577184677124,0.0149152847006917,2.123544931411743,4.756867642491617,-0.030573630705475807,0.20866012573242188,-1.5693462530719202,0.0,0.050037726759910583,0.8185349702835083,0.0,-0.002495543332770467,0.7454115152359009,0.06416665762662888,-0.0928155854344368
923.0,902.0,0.1316,-0.3643,9.7304,-0.0076,0.0231,-0.0476,-1.8372107944884242,-0.0003895305853802711,2.9331326484680176,-1.4677374362945557,0.01708044484257698,2.139248847961426,4.756640042155542,-0.04069516062736511,0.20939680933952332,-1.5693824926959437,0.0,0.06600627303123474,0.8185751438140869,0.0,0.004493202082812786,0.7457625865936279,0.07125578075647354,-0.04499944671988487
923.0,902.0,0.1316,-0.3643,9.7304,-0.0076,0.0231,-0.0476,-1.8371907673277796,-0.0003092101542279124,2.9285426139831543,-1.467613935470581,0.020314699038863182,2.1455235481262207,4.75635269188837,-0.058863237500190735,0.1937761902809143,-1.5693581740008753,0.0,0.053863510489463806,0.8185751438140869,0.0,0.009326158091425896,0.7462148070335388,0.0761033222079277,-0.0370926596224308
923.0,902.0,0.1316,-0.3643,9.7304,-0.0076,0.0231,-0.0476,-1.837170263329977,-0.00027184432838112116,2.9491777420043945,-1.4675095081329346,0.02246907167136669,2.112445592880249,4.75608158761219,-0.07147891819477081,0.19979849457740784,-1.5693543593036097,0.0,0.05708110332489014,0.8185352683067322,0.0,0.003418624633923173,0.746522843837738,0.07772456109523773,-0.0237632617354393
923.0,902.0,0.1316,-0.3643,9.7304,-0.0076,0.0231,-0.0476,-1.8372065029540003,-0.00023013251484371722,2.9961228370666504,-1.4673569202423096,0.027273286134004593,2.1800503730773926,4.755635059415855,-0.0896097719669342,0.18414543569087982,-1.5693138281451624,0.0,0.07328341901302338,0.8185591697692871,0.0,0.004274152684956789,0.7470152974128723,0.07898475974798203,-0.05250351503491402
923.0,902.0,0.1316,-0.3643,9.7304,-0.0076,0.0231,-0.0476,-1.8371945820250453,-0.00022569068823941052,3.007129192352295,-1.4672255516052246,0.029711907729506493,2.164576530456543,4.755004740297355,-0.09427317976951599,0.17821070551872253,-1.5693424383746546,0.0,0.056711502373218536,0.8185713887214661,0.0,0.0026389400009065866,0.7474547624588013,0.07832975685596466,-0.05274525657296181
923.0,902.0,0.1316,-0.3643,9.7304,-0.0076,0.0231,-0.0476,-1.8371545277037562,-0.00024237144680228084,3.002741813659668,-1.466989517211914,0.03259075805544853,2.169905185699463,4.7544182790215395,-0.08979040384292603,0.18605723977088928,-1.5693944136248987,5.414442784967832e-05,0.052390359342098236,0.818523108959198,0.0,0.019008003175258636,0.7479225993156433,0.07822944223880768,-0.05465708673000336
923.0,902.0,0.1316,-0.3643,9.7304,-0.0076,0.0231,-0.0476,-1.8372394047179164,-0.00022456195438280702,2.991335868835449,-1.4667855501174927,0.033844802528619766,2.2090702056884766,4.753891850798883,-0.07739865779876709,0.20309507846832275,-1.5693381468402308,5.426354618975893e-05,0.06143215671181679,0.8185230493545532,0.0,0.011057287454605103,0.7483868598937988,0.07880497723817825,-0.02961594983935356
923.0,902.0,0.1316,-0.3643,9.7304,-0.0076,0.0231,-0.0476,-1.8372751675047816,-0.0012457113480195403,2.991909980773926,-1.4665937423706055,0.03655149042606354,2.1698527336120605,4.753498124867239,-0.08019126206636429,0.18541079759597778,-1.5693467299090784,5.236964352661744e-05,0.06531807780265808,0.8185751438140869,0.0,0.003908621147274971,0.7489069104194641,0.07564651221036911,-0.07099546492099762
923.0,902.0,0.1316,-0.3643,9.7304,-0.0076,0.0231,-0.0476,-1.8372589550414027,-0.0017174537060782313,2.9586448669433594,-1.466369867324829,0.040780842304229736,2.1542046070098877,4.752915087133207,-0.09893813729286194,0.18857797980308533,-1.5693944136248987,5.0602924602571875e-05,0.06725668162107468,0.818562924861908,0.0,-0.00246968911960721,0.7492377161979675,0.06811051070690155,-0.08504042774438858
923.0,902.0,0.1316,-0.3643,9.7304,-0.0076,0.0231,-0.0476,-1.8372708759703578,-0.001676758867688477,2.9702353477478027,-1.466082215309143,0.04671306535601616,2.227858781814575,4.752239531814613,-0.127244234085083,0.16495564579963684,-1.5693982283221644,8.302517926495057e-07,0.07554621249437332,0.8185673356056213,0.0,0.010207751765847206,0.7496618628501892,0.06228328123688698,-0.0838823989033699
903.0,915.0,0.9775,-0.0084,9.2877,0.0023,-0.1032,-0.0541,-1.8372308216490687,-0.0014937198720872402,2.9989161491394043,-1.465874195098877,0.051128488034009933,2.2357962131500244,4.751663799374857,-0.1378903090953827,0.16867080330848694,-1.5693782011615198,3.5394935871124744e-09,0.0785636156797409,0.8185517191886902,0.0,0.0020060576498508453,0.7499184012413025,0.05942561477422714,-0.12841446697711945
903.0,915.0,0.9775,-0.0084,9.2877,0.0023,-0.1032,-0.0541,-1.8372346363463343,-0.0009166788659058511,2.9929423332214355,-1.4654858112335205,0.05812419205904007,2.200812339782715,4.750852971314945,-0.1391219198703766,0.1628614366054535,-1.5693586508380335,9.85231102430817e-13,0.05775494873523712,0.8185029625892639,0.0,0.004123565275222063,0.7502776384353638,0.058087386190891266,-0.09387123584747314
903.0,915.0,0.9775,-0.0084,9.2877,0.0023,-0.1032,-0.0541,-1.8372789822020472,-0.000680997094605118,2.9460721015930176,-1.4651703834533691,0.0656186044216156,2.232696294784546,4.750058664917507,-0.13611061871051788,0.15473799407482147,-1.5693705717669886,2.7424269266222235e-16,0.07422462105751038,0.818611204624176,0.0,0.006560046225786209,0.7506378889083862,0.06033000349998474,-0.0519241988658905
903.0,915.0,0.9775,-0.0084,9.2877,0.0023,-0.1032,-0.0541,-1.837294717828268,-0.0006488020881079137,3.0207505226135254,-1.4647424221038818,0.07092636823654175,2.2038748264312744,4.749119120627203,-0.15726466476917267,0.16364911198616028,-1.5693543593036097,7.633645976468419e-20,0.06920987367630005,0.8186272382736206,0.0,0.01764509081840515,0.7510136961936951,0.06384965032339096,-0.05864174664020538
903.0,915.0,0.9775,-0.0084,9.2877,0.0023,-0.1032,-0.0541,-1.8372146091856898,-0.00045761922956444323,2.972243547439575,-1.4642425775527954,0.07683566212654114,2.2118172645568848,4.748011919647016,-0.18443310260772705,0.1437937319278717,-1.5693944136248987,2.1248536461979712e-23,0.06666618585586548,0.8185189962387085,0.0,0.017455561086535454,0.7514177560806274,0.06693851947784424,-0.0653609037399292
903.0,915.0,0.9775,-0.0084,9.2877,0.0023,-0.1032,-0.0541,-1.8372065029540003,-0.00042071836651302874,2.947885036468506,-1.4638028144836426,0.08124089986085892,2.2631473541259766,4.746845300286569,-0.19283895194530487,0.1480221003293991,-1.5694025198565882,5.914608281596966e-27,0.06060032173991203,0.8185189962387085,0.0,-0.00023616990074515343,0.7518096566200256,0.06970847398042679,-0.0536557175219059
903.0,915.0,0.9775,-0.0084,9.2877,0.0023,-0.1032,-0.0541,-1.8372546635069789,-0.00034099980257451534,2.9520153999328613,-1.4632623195648193,0.08516499400138855,2.2410738468170166,4.7455667471285246,-0.22496174275875092,0.13606208562850952,-1.5693467299090784,1.646353001095009e-30,0.0684257447719574,0.8185878396034241,0.0,0.0018511617090553045,0.7522093653678894,0.07105530798435211,-0.0915973037481308
903.0,915.0,0.9775,-0.0084,9.2877,0.0023,-0.1032,-0.0541,-1.8372708759703578,-0.0003357984824106097,2.965264081954956,-1.462914228439331,0.08890232443809509,2.2254233360290527,4.744628007500925,-0.24809154868125916,0.12331584095954895,-1.5693100134478968,7.018661506356884e-33,0.06064147502183914,0.8185553550720215,0.0,-0.002331899479031563,0.7524649500846863,0.07301098108291626,-0.07856176793575287
903.0,915.0,0.9775,-0.0084,9.2877,0.0023,-0.1032,-0.0541,-1.8373071155943812,-0.00030235524172894657,2.930769443511963,-1.4623225927352905,0.09627828747034073,2.251988649368286,4.743029375537791,-0.2553005814552307,0.11552578210830688,-1.5693305174456995,1.9536701402637737e-36,0.06247025728225708,0.8185553550720215,0.0,0.004725752864032984,0.7529253959655762,0.0731859877705574,-0.05279076099395752
903.0,915.0,0.9775,-0.0084,9.2877,0.0023,-0.1032,-0.0541,-1.8372789822020472,-0.0002890691685024649,2.966001510620117,-1.4617681503295898,0.10172566026449203,2.216956853866577,4.7414719676371,-0.27983734011650085,0.10179249942302704,-1.5693944136248987,5.43811704139782e-40,0.06323612481355667,0.818547248840332,0.0,0.013333426788449287,0.7533573508262634,0.07293084263801575,-0.1170651763677597
903.0,915.0,0.9775,-0.0084,9.2877,0.0023,-0.1032,-0.0541,-1.8372708759703578,-0.0002826456038746983,2.987610340118408,-1.4610624313354492,0.10402936488389969,2.270477771759033,4.739729759260573,-0.2912275195121765,0.09148652851581573,-1.569350544606344,1.5134023414708024e-43,0.060561418533325195,0.8186432123184204,0.0,0.0060031842440366745,0.7538057565689087,0.0716109499335289,-0.09511230140924454
903.0,915.0,0.9775,-0.0084,9.2877,0.0023,-0.1032,-0.0541,-1.837294717828268,-0.0007917204638943076,2.9519779682159424,-1.4604206085205078,0.11085200309753418,2.3276615142822266,4.737895618170061,-0.33063745498657227,0.07780224084854126,-1.5693348089801233,0.0,0.06658449023962021,0.818535327911377,0.0,0.0013611596077680588,0.7541888356208801,0.06734897196292877,-0.09713442623615265
903.0,915.0,0.9775,-0.0084,9.2877,0.0023,-0.1032,-0.0541,-1.8372627697386683,-0.000949147972278297,2.940444231033325,-1.4597440958023071,0.11798978596925735,2.266847610473633,4.735802198737421,-0.3494073152542114,0.08240415900945663,-1.5693381468402308,0.0,0.06914453208446503,0.8185595870018005,0.0,0.006429895758628845,0.7546007037162781,0.06168452650308609,-0.07593066245317459
903.0,915.0,0.9775,-0.0084,9.2877,0.0023,-0.1032,-0.0541,-1.8373552761473597,-0.0007134976331144571,2.950364112854004,-1.4590413570404053,0.12435105443000793,2.3268351554870605,4.733564247354426,-0.3827161192893982,0.0413375049829483,-1.5693662802325647,3.265041232225485e-05,0.06349414587020874,0.8185431361198425,0.0,0.018778787925839424,0.7549849152565002,0.05674607679247856,-0.11162705719470978
903.0,915.0,0.9775,-0.0084,9.2877,0.0023,-0.1032,-0.0541,-1.83732332805776,-0.0005809078575111926,2.9415745735168457,-1.4582476615905762,0.12175548821687698,2.2458953857421875,4.7311830697353265,-0.4150237739086151,0.05073191598057747,-1.5693705717669886,3.221915176254697e-05,0.06670895963907242,0.8185792565345764,0.0,0.009055323898792267,0.7553327679634094,0.05483577772974968,-0.10249966382980347
924.0,895.0,-0.1484,-0.2219,9.8201,-0.0223,-0.2179,-0.0557,-1.8373190365233363,-0.0005577148986048996,2.9489660263061523,-1.4577734470367432,0.12357725948095322,2.280320167541504,4.729448766424813,-0.42863017320632935,0.047939904034137726,-1.5693863073932093,3.11059266095981e-05,0.06423933804035187,0.8185352683067322,0.0,0.00035369256511330605,0.7555689215660095,0.05376705154776573,-0.13729579746723175
924.0,895.0,-0.1484,-0.2219,9.8201,-0.0223,-0.2179,-0.0557,-1.8373390636839808,-0.00021363687119446695,2.9575319290161133,-1.4569847583770752,0.13505102694034576,2.3145456314086914,4.7268149619694135,-0.4621788263320923,0.016576390713453293,-1.5693381468402308,2.9572751373052597e-05,0.06876634061336517,0.8185670375823975,0.0,-0.006522785406559706,0.7558320164680481,0.056050047278404236,-0.15319706499576569
924.0,895.0,-0.1484,-0.2219,9.8201,-0.0223,-0.2179,-0.0557,-1.8372866115965785,-0.0001522166858194396,2.967174530029297,-1.4561681747436523,0.14304672181606293,2.3636069297790527,4.723948161094942,-0.5016286969184875,0.008809119462966919,-1.5693944136248987,2.8183600079501048e-05,0.05988091975450516,0.8185915946960449,0.0,0.009734074585139751,0.7562083601951599,0.05651251971721649,-0.10568922758102417
924.0,895.0,-0.1484,-0.2219,9.8201,-0.0223,-0.2179,-0.0557,-1.8372708759703578,-0.00012140774924773723,2.975274085998535,-1.4553189277648926,0.15257258713245392,2.329451560974121,4.7208390896912,-0.5277851819992065,-0.001259867218323052,-1.5693705717669886,2.6919127776636742e-05,0.07302125543355942,0.8185151815414429,0.0,0.00011629311484284699,0.7565320134162903,0.055662721395492554,-0.09061328321695328
924.0,895.0,-0.1484,-0.2219,9.8201,-0.0223,-0.2179,-0.0557,-1.8372866115965785,-0.00010097293124999851,2.967700481414795,-1.454314947128296,0.160166397690773,2.314959764480591,4.717638640641727,-0.5597077012062073,0.00015017906844150275,-1.5693543593036097,2.5763281882973388e-05,0.06180552393198013,0.8186236619949341,0.0,0.0032066251151263714,0.7568719387054443,0.052806656807661057,-0.0866645872592926
924.0,895.0,-0.1484,-0.2219,9.8201,-0.0223,-0.2179,-0.0557,-1.8373271427550257,-0.00017108635802287608,3.0067086219787598,-1.4533675909042358,0.16460543870925903,2.37858247756958,4.714078000607461,-0.590908944606781,-0.018629757687449455,-1.5693381468402308,3.387594551895745e-05,0.06005488336086273,0.8185029625892639,0.0,0.003928474150598049,0.7571795582771301,0.050986990332603455,-0.07382898032665253
