ramyac6/ROB537/final_project/csv/test/bad/bad_126.csv
tof_0,tof_1,accelx,accely,accelz,gyrox,gyroy,gyroz,shoulder_lift_joint_position,shoulder_lift_joint_velocity,shoulder_lift_joint_effort,elbow_joint_position,elbow_joint_velocity,elbow_joint_effort,wrist_1_joint_position,wrist_1_joint_velocity,wrist_1_joint_effort,wrist_2_joint_position,wrist_2_joint_velocity,wrist_2_joint_effort,wrist_3_joint_position,wrist_3_joint_velocity,wrist_3_joint_effort,shoulder_pan_joint_position,shoulder_pan_joint_velocity,shoulder_pan_joint_effort
257.0,287.0,2.6291,0.0179,8.9109,-0.0386,0.0286,-0.1225,-1.690456052819723,0.0,2.701474189758301,-1.6677205562591553,-0.0,2.1744132041931152,4.548555536861084,-0.0,0.2943420112133026,-1.5966938177691858,-0.0,-0.0010277932742610574,0.8254942297935486,-0.0,-0.0024848217144608498,0.783194363117218,0.0,-0.010255251079797745
257.0,287.0,2.6291,0.0179,8.9109,-0.0386,0.0286,-0.1225,-1.690484186212057,0.0,2.688282012939453,-1.6677443981170654,-0.0,2.1734066009521484,4.5485564905354,-0.0,0.3080475330352783,-1.5967257658587855,-0.0,-0.02006085216999054,0.8254983425140381,-0.0,-0.008313615806400776,0.783170223236084,0.0,0.004975955933332443
257.0,287.0,2.6291,0.0179,8.9109,-0.0386,0.0286,-0.1225,-1.6904522381224574,0.0,2.68804669380188,-1.6677205562591553,-0.0,2.1662118434906006,4.548576517696045,-0.0,0.2894788682460785,-1.5967538992511194,-0.0,-0.0014891678001731634,0.8254945874214172,-0.0,-0.01747860759496689,0.783186137676239,0.0,0.01495438627898693
257.0,287.0,2.6291,0.0179,8.9109,-0.0386,0.0286,-0.1225,-1.6904646358885707,0.0,2.652146577835083,-1.6677205562591553,-0.0,2.1735785007476807,4.548559828395508,-0.0,0.28136390447616577,-1.5967214743243616,-0.0,-0.0037518178578466177,0.8255224227905273,-0.0,-0.00015573715791106224,0.7831419110298157,0.0,0.01576004922389984
257.0,287.0,2.6291,0.0179,8.9109,-0.0386,0.0286,-0.1225,-1.6904689274229945,0.0,2.6894330978393555,-1.6677247285842896,-0.0,2.156235694885254,4.548588438625,-0.0,0.2921803593635559,-1.59674579301943,-0.0,-0.022021129727363586,0.8254704475402832,-0.0,-0.0028028814122080803,0.7831740975379944,0.0,0.0034390948712825775
257.0,287.0,2.6291,0.0179,8.9109,-0.0386,0.0286,-0.1225,-1.6904884777464808,0.0,2.7058334350585938,-1.6677320003509521,-0.0,2.16627836227417,4.548559828395508,-0.0,0.29655325412750244,-1.596733872090475,-0.0,-0.0032937643118202686,0.8254384994506836,-0.0,0.008749354630708694,0.7832265496253967,0.0,-0.019910654053092003
257.0,287.0,2.6291,0.0179,8.9109,-0.0386,0.0286,-0.1225,-1.6904522381224574,0.0,2.660689353942871,-1.6677205562591553,-0.0,2.1760127544403076,4.548600359553955,-0.0,0.2916639447212219,-1.5968025366412562,-0.0,0.00016028282698243856,0.8255388140678406,-0.0,-0.0017951111076399684,0.7831661701202393,0.0,0.03795309737324715
257.0,287.0,2.6291,0.0179,8.9109,-0.0386,0.0286,-0.1225,-1.6904403171935023,0.0,2.666660785675049,-1.6677320003509521,-0.0,2.197415590286255,4.548600359553955,-0.0,0.2970030903816223,-1.5967376867877405,-0.0,-0.017041195183992386,0.8255024552345276,-0.0,0.0031119859777390957,0.7832064032554626,0.0,-0.02298915386199951
257.0,287.0,2.6291,0.0179,8.9109,-0.0386,0.0286,-0.1225,-1.6904646358885707,0.0,2.68404221534729,-1.6676679849624634,-0.0,2.148545026779175,4.548576040858887,-0.0,0.29972708225250244,-1.596705738698141,-0.0,-0.007053551264107227,0.8254904747009277,-0.0,0.0007714189123362303,0.7831902503967285,0.0,0.008563118055462837
257.0,287.0,2.6291,0.0179,8.9109,-0.0386,0.0286,-0.1225,-1.690484186212057,0.0,2.6937918663024902,-1.6677197217941284,-0.0,2.099396228790283,4.548527880305908,-0.0,0.2942762076854706,-1.5967214743243616,-0.0,-0.013849366456270218,0.8255143165588379,-0.0,-0.005516482051461935,0.7831740975379944,0.0,0.020737122744321823
252.0,286.0,2.7236,0.0891,8.8463,-0.0383,0.0235,-0.1196,-1.690444131890768,0.0,2.645435333251953,-1.6677685976028442,-0.0,2.213984727859497,4.548544092769287,-0.0,0.2937391400337219,-1.5967376867877405,-0.0,-0.0011496335500851274,0.8255749940872192,-0.0,0.003463007975369692,0.783254861831665,0.0,0.02701079286634922
252.0,286.0,2.7236,0.0891,8.8463,-0.0383,0.0235,-0.1196,-1.6904121838011683,0.0,2.7160286903381348,-1.6677165031433105,-0.0,2.1822028160095215,4.548624201411865,-0.0,0.29542747139930725,-1.5968106428729456,-0.0,-0.003649147693067789,0.8254905343055725,-0.0,-0.00274417526088655,0.7831902503967285,0.0,-0.023899702355265617
252.0,286.0,2.7236,0.0891,8.8463,-0.0383,0.0235,-0.1196,-1.690484186212057,0.0,2.680337905883789,-1.667672038078308,-0.0,2.157975196838379,4.548535986537598,-0.0,0.29944485425949097,-1.5967500845538538,-0.0,-0.007568553555756807,0.8255184292793274,-0.0,-0.012203550897538662,0.7831902503967285,0.0,7.11160246282816e-05
252.0,286.0,2.7236,0.0891,8.8463,-0.0383,0.0235,-0.1196,-1.6904603443541468,0.0,2.689695358276367,-1.6677685976028442,-0.0,2.172734498977661,4.548576517696045,-0.0,0.2928709089756012,-1.596729580556051,-0.0,-0.011813152581453323,0.8254782557487488,-0.0,0.000726847443729639,0.7832223773002625,0.0,0.007438709493726492
252.0,286.0,2.7236,0.0891,8.8463,-0.0383,0.0235,-0.1196,-1.6904689274229945,0.0,2.634125232696533,-1.6677124500274658,-0.0,2.143052101135254,4.548555536861084,-0.0,0.2878957688808441,-1.5967419783221644,-0.0,-0.006493295542895794,0.8255629539489746,-0.0,0.01463698036968708,0.783194363117218,0.0,0.011913688853383064
252.0,286.0,2.7236,0.0891,8.8463,-0.0383,0.0235,-0.1196,-1.690444131890768,0.0,2.7026448249816895,-1.6677000522613525,-0.0,2.1815567016601562,4.548559828395508,-0.0,0.3039897382259369,-1.5967419783221644,-0.0,-0.003894931636750698,0.8254580497741699,-0.0,0.005937828216701746,0.7831419110298157,0.0,0.058396998792886734
252.0,286.0,2.7236,0.0891,8.8463,-0.0383,0.0235,-0.1196,-1.690484186212057,0.0,2.6347999572753906,-1.6677287817001343,-0.0,2.184462547302246,4.548576517696045,-0.0,0.2969279885292053,-1.5967496077166956,-0.0,0.004741086158901453,0.8255224823951721,-0.0,-0.013905702158808708,0.7832064032554626,0.0,-0.024810252711176872
252.0,286.0,2.7236,0.0891,8.8463,-0.0383,0.0235,-0.1196,-1.690444131890768,0.0,2.628185510635376,-1.6677685976028442,-0.0,2.1922082901000977,4.548584147090576,-0.0,0.2978001832962036,-1.5967419783221644,-0.0,-0.011907489039003849,0.8254625797271729,-0.0,-0.01405284833163023,0.78317791223526,0.0,0.012866850011050701
252.0,286.0,2.7236,0.0891,8.8463,-0.0383,0.0235,-0.1196,-1.6904360256590785,0.0,2.6554715633392334,-1.667688012123108,-0.0,2.169950485229492,4.548523588771484,-0.0,0.2952785789966583,-1.596733872090475,-0.0,-0.007729511242359877,0.8255143761634827,-0.0,-0.011919273994863033,0.7831419110298157,0.0,-0.040230754762887955
252.0,286.0,2.7236,0.0891,8.8463,-0.0383,0.0235,-0.1196,-1.6904884777464808,0.0,2.6547908782958984,-1.6676597595214844,-0.0,2.1398377418518066,4.548579855556152,-0.0,0.3039296567440033,-1.5967419783221644,-0.0,0.001418036175891757,0.8254666328430176,-0.0,-0.010742147453129292,0.78317791223526,0.0,-0.015006118454039097
252.0,286.0,2.7236,0.0891,8.8463,-0.0383,0.0235,-0.1196,-1.6905046902098597,0.0,2.6683244705200195,-1.6676716804504395,-0.0,2.157376527786255,4.548576517696045,-0.0,0.2941742539405823,-1.5967538992511194,-0.0,-0.00899176299571991,0.8254421353340149,-0.0,-0.013852245174348354,0.7831617593765259,0.0,0.028866933658719063
252.0,286.0,2.7236,0.0891,8.8463,-0.0383,0.0235,-0.1196,-1.69047274212026,0.0,2.664322853088379,-1.6677403450012207,-0.0,2.158585548400879,4.548576517696045,-0.0,0.30432531237602234,-1.5967376867877405,-0.0,-0.019665313884615898,0.8255224823951721,-0.0,0.0016795163974165916,0.7831820845603943,0.0,-0.01722869835793972
252.0,286.0,2.7236,0.0891,8.8463,-0.0383,0.0235,-0.1196,-1.6904522381224574,0.0,2.6932919025421143,-1.667708396911621,-0.0,2.1682777404785156,4.5486084657856445,-0.0,0.2865247130393982,-1.5967620054828089,-0.0,-0.0031942210625857115,0.825486421585083,-0.0,-0.00808730162680149,0.7831902503967285,0.0,-0.011578081175684929
252.0,286.0,2.7236,0.0891,8.8463,-0.0383,0.0235,-0.1196,-1.6904479465880335,0.0,2.6876392364501953,-1.6676716804504395,-0.0,2.154655933380127,4.548564119929932,-0.0,0.2968951463699341,-1.5967538992511194,-0.0,-0.00316470954567194,0.825510561466217,-0.0,0.0001254094677278772,0.783186137676239,0.0,1.7499900422990322e-05
252.0,286.0,2.7236,0.0891,8.8463,-0.0383,0.0235,-0.1196,-1.690456052819723,0.0,2.6895689964294434,-1.6677604913711548,-0.0,2.1573402881622314,4.548551722163818,-0.0,0.29504725337028503,-1.5967376867877405,-0.0,-0.008131694048643112,0.8255466818809509,-0.0,0.004653585143387318,0.7831740975379944,0.0,0.013542195782065392
252.0,286.0,2.7236,0.0891,8.8463,-0.0383,0.0235,-0.1196,-1.6904083691039027,0.0,2.695540428161621,-1.667708396911621,-0.0,2.165767192840576,4.548584147090576,-0.0,0.2899646461009979,-1.5967982451068323,-0.0,-0.007729882374405861,0.8254945874214172,-0.0,0.002530235331505537,0.783194363117218,0.0,-0.055339518934488297
252.0,286.0,2.7236,0.0891,8.8463,-0.0383,0.0235,-0.1196,-1.69047274212026,0.0,2.7126033306121826,-1.6677360534667969,-0.0,2.1630866527557373,4.5485474306293945,-0.0,0.2976730167865753,-1.5967620054828089,-0.0,-0.00795171968638897,0.8255425691604614,-0.0,-0.009141463786363602,0.7831377983093262,0.0,-0.013230694457888603
252.0,286.0,2.7236,0.0891,8.8463,-0.0383,0.0235,-0.1196,-1.6904689274229945,0.0,2.707679271697998,-1.667708396911621,-0.0,2.134530782699585,4.548584147090576,-0.0,0.2898455858230591,-1.5967376867877405,-0.0,-0.014102708548307419,0.8254745006561279,-0.0,-0.0040404945611953735,0.7832228541374207,0.0,0.01954059861600399
252.0,286.0,2.7236,0.0891,8.8463,-0.0383,0.0235,-0.1196,-1.6904884777464808,0.0,2.677443504333496,-1.6677238941192627,-0.0,2.1924617290496826,4.548559828395508,-0.0,0.2903590798377991,-1.596701447163717,-0.0,-0.007959975861012936,0.8255102634429932,-0.0,-0.00387917784973979,0.7831579446792603,0.0,0.0015349977184087038
252.0,286.0,2.7236,0.0891,8.8463,-0.0383,0.0235,-0.1196,-1.69047274212026,0.0,2.7192506790161133,-1.6677768230438232,-0.0,2.1705093383789062,4.548572226161621,-0.0,0.30298152565956116,-1.5967538992511194,-0.0,-0.0038495389744639397,0.8254904747009277,-0.0,-0.011480661109089851,0.783194363117218,0.0,-0.03459615632891655
269.0,282.0,2.6225,0.003,9.119,-0.0421,0.0269,-0.117,-1.69047274212026,0.0,2.629753589630127,-1.6677000522613525,-0.0,2.166902542114258,4.548544092769287,-0.0,0.2921048402786255,-1.5967257658587855,-0.0,-0.007339019328355789,0.8254380226135254,-0.0,-0.006748872809112072,0.7831984162330627,0.0,-0.03409494087100029
269.0,282.0,2.6225,0.003,9.119,-0.0421,0.0269,-0.117,-1.6904760799803675,0.0,2.655531406402588,-1.6676918268203735,-0.0,2.1308109760284424,4.548551722163818,-0.0,0.2942192852497101,-1.5967419783221644,-0.0,-0.004387252498418093,0.8255184292793274,-0.0,-0.009326521307229996,0.7831946015357971,0.0,0.020502237603068352
269.0,282.0,2.6225,0.003,9.119,-0.0421,0.0269,-0.117,-1.6903959713377894,0.0,2.686278820037842,-1.6677526235580444,-0.0,2.1277081966400146,4.548559828395508,-0.0,0.2852165699005127,-1.5967620054828089,-0.0,-0.00660924706608057,0.8255224823951721,-0.0,0.007914777845144272,0.783186137676239,0.0,0.014363788068294525
269.0,282.0,2.6225,0.003,9.119,-0.0421,0.0269,-0.117,-1.6904689274229945,0.0,2.6713309288024902,-1.6677403450012207,-0.0,2.1263418197631836,4.548596544856689,-0.0,0.2917144000530243,-1.5967376867877405,-0.0,-0.013513738289475441,0.8254782557487488,-0.0,-0.004930711816996336,0.7832022905349731,0.0,0.04646241292357445
269.0,282.0,2.6225,0.003,9.119,-0.0421,0.0269,-0.117,-1.6904522381224574,0.0,2.6893529891967773,-1.6676758527755737,-0.0,2.1568291187286377,4.548523588771484,-0.0,0.3007200360298157,-1.5967257658587855,-0.0,-0.0050404733046889305,0.8255105018615723,-0.0,0.0016446667723357677,0.7832105159759521,0.0,-0.02453257516026497
269.0,282.0,2.6225,0.003,9.119,-0.0421,0.0269,-0.117,-1.690444131890768,0.0,2.6527063846588135,-1.6677165031433105,-0.0,2.1587884426116943,4.548563643092773,-0.0,0.29197314381599426,-1.5967376867877405,-0.0,-0.0016579597722738981,0.8255466222763062,-0.0,-0.014572898857295513,0.7831823825836182,0.0,-0.039884280413389206
269.0,282.0,2.6225,0.003,9.119,-0.0421,0.0269,-0.117,-1.6904603443541468,0.0,2.680738687515259,-1.6677042245864868,-0.0,2.1857516765594482,4.548600359553955,-0.0,0.2869374752044678,-1.5967214743243616,-0.0,-0.009056048467755318,0.8255102634429932,-0.0,-0.005643012467771769,0.7832025289535522,0.0,0.04620213434100151
269.0,282.0,2.6225,0.003,9.119,-0.0421,0.0269,-0.117,-1.690427919427389,0.0,2.6721577644348145,-1.667708396911621,-0.0,2.1324024200439453,4.548567934627197,-0.0,0.30295199155807495,-1.5967538992511194,-0.0,-0.0037139146588742733,0.8254384994506836,-0.0,-0.005971142090857029,0.7831902503967285,0.0,-0.04459722340106964
269.0,282.0,2.6225,0.003,9.119,-0.0421,0.0269,-0.117,-1.690500875512594,0.0,2.618788480758667,-1.6677000522613525,-0.0,2.1282505989074707,4.548564119929932,-0.0,0.2988291382789612,-1.5967419783221644,-0.0,-0.019623667001724243,0.8255306482315063,-0.0,-0.0029565179720520973,0.7831620573997498,0.0,-0.01628847047686577
269.0,282.0,2.6225,0.003,9.119,-0.0421,0.0269,-0.117,-1.6904884777464808,0.0,2.6452651023864746,-1.6676758527755737,-0.0,2.166163444519043,4.548552675838135,-0.0,0.2978094816207886,-1.5967538992511194,-0.0,-0.010684964247047901,0.8254819512367249,-0.0,0.010979682207107544,0.7832064032554626,0.0,0.012720859609544277
269.0,282.0,2.6225,0.003,9.119,-0.0421,0.0269,-0.117,-1.6904479465880335,0.0,2.6640400886535645,-1.6677279472351074,-0.0,2.1898033618927,4.548576517696045,-0.0,0.29124557971954346,-1.5967257658587855,-0.0,0.0005908013554289937,0.8255547881126404,-0.0,-0.001621317001990974,0.7832022905349731,0.0,-0.011320730671286583
269.0,282.0,2.6225,0.003,9.119,-0.0421,0.0269,-0.117,-1.6904884777464808,0.0,2.705016613006592,-1.6677321195602417,-0.0,2.1414284706115723,4.548588438625,-0.0,0.3054024279117584,-1.5967419783221644,-0.0,0.003573774127289653,0.8254863619804382,-0.0,-0.022823156788945198,0.7831420302391052,0.0,0.013678928837180138
269.0,282.0,2.6225,0.003,9.119,-0.0421,0.0269,-0.117,-1.6905371151366175,0.0,2.6553468704223633,-1.6677279472351074,-0.0,2.1431546211242676,4.548551722163818,-0.0,0.30729779601097107,-1.596717659627096,-0.0,-0.007671628147363663,0.8254500031471252,-0.0,0.0022962128277868032,0.7832187414169312,0.0,-0.030866606160998344
269.0,282.0,2.6225,0.003,9.119,-0.0421,0.0269,-0.117,-1.6904922924437464,0.0,2.705228328704834,-1.6676799058914185,-0.0,2.156609058380127,4.548564119929932,-0.0,0.28331929445266724,-1.5967538992511194,-0.0,-0.008482823148369789,0.8254782557487488,-0.0,0.00026264647021889687,0.7832105159759521,0.0,-0.00519625935703516
269.0,282.0,2.6225,0.003,9.119,-0.0421,0.0269,-0.117,-1.69047274212026,0.0,2.688596248626709,-1.6676762104034424,-0.0,2.1518137454986572,4.548515482539795,-0.0,0.3056909739971161,-1.5967538992511194,-0.0,-0.005359369330108166,0.8254585266113281,-0.0,-0.0019431698601692915,0.7831497192382812,0.0,-0.019946657121181488
269.0,282.0,2.6225,0.003,9.119,-0.0421,0.0269,-0.117,-1.6904689274229945,0.0,2.6602540016174316,-1.6677687168121338,-0.0,2.159651517868042,4.548564119929932,-0.0,0.28769898414611816,-1.5967214743243616,-0.0,-0.011861283332109451,0.8255666494369507,-0.0,-0.0027852682396769524,0.7831984758377075,0.0,-0.04166176915168762
269.0,282.0,2.6225,0.003,9.119,-0.0421,0.0269,-0.117,-1.690444131890768,0.0,2.6747469902038574,-1.6677645444869995,-0.0,2.16403865814209,4.548576517696045,-0.0,0.30162107944488525,-1.5967863241778772,-0.0,-0.0035231790971010923,0.8254904747009277,-0.0,-0.0033737628255039454,0.7831618189811707,0.0,0.014873928390443325
269.0,282.0,2.6225,0.003,9.119,-0.0421,0.0269,-0.117,-1.690427919427389,0.0,2.661844253540039,-1.6677165031433105,-0.0,2.1262338161468506,4.548584147090576,-0.0,0.28712770342826843,-1.5967376867877405,-0.0,0.0021134568378329277,0.8255826830863953,-0.0,-0.002123746322467923,0.7831620573997498,0.0,0.023290924727916718
269.0,282.0,2.6225,0.003,9.119,-0.0421,0.0269,-0.117,-1.6905085049071253,0.0,2.6953768730163574,-1.6677237749099731,-0.0,2.1661555767059326,4.548584147090576,-0.0,0.298042356967926,-1.5967662970172327,-0.0,0.0027363395784050226,0.8254618048667908,-0.0,0.00012124935165047646,0.7831902503967285,0.0,-0.015554646030068398
269.0,282.0,2.6225,0.003,9.119,-0.0421,0.0269,-0.117,-1.6904479465880335,0.0,2.6574668884277344,-1.6677082777023315,-0.0,2.1776788234710693,4.548592253322266,-0.0,0.3074095547199249,-1.596717659627096,-0.0,0.0005882554687559605,0.8254666328430176,-0.0,0.004002280533313751,0.7831538319587708,0.0,-0.005803949199616909
256.0,285.0,2.6166,0.0191,8.9791,-0.0394,0.0183,-0.1142,-1.6904603443541468,0.0,2.6890883445739746,-1.6677124500274658,-0.0,2.1375317573547363,4.548519774074219,-0.0,0.30951783061027527,-1.5967376867877405,-0.0,-0.013352964073419571,0.8255187273025513,-0.0,0.0013195752399042249,0.783186137676239,0.0,-0.046510688960552216
256.0,285.0,2.6166,0.0191,8.9791,-0.0394,0.0183,-0.1142,-1.6904717884459437,0.0,2.702458620071411,-1.6676799058914185,-0.0,2.145501136779785,4.548576517696045,-0.0,0.2967994213104248,-1.5966814200030726,-0.0,0.0021093511022627354,0.8254421353340149,-0.0,-0.00836365669965744,0.783186137676239,0.0,0.0032111189793795347
256.0,285.0,2.6166,0.0191,8.9791,-0.0394,0.0183,-0.1142,-1.6904522381224574,0.0,2.6534810066223145,-1.6677443981170654,-0.0,2.1053574085235596,4.5485803323933105,-0.0,0.29362067580223083,-1.5967376867877405,-0.0,-0.008304310962557793,0.8254704475402832,-0.0,-0.01044558733701706,0.7831699848175049,0.0,-0.02810598351061344
256.0,285.0,2.6166,0.0191,8.9791,-0.0394,0.0183,-0.1142,-1.6904689274229945,0.0,2.663147449493408,-1.6677645444869995,-0.0,2.149078130722046,4.548576517696045,-0.0,0.30430740118026733,-1.5967538992511194,-0.0,-0.0040816087275743484,0.8255143165588379,-0.0,0.0035204486921429634,0.7831944227218628,0.0,-0.009063747711479664
256.0,285.0,2.6166,0.0191,8.9791,-0.0394,0.0183,-0.1142,-1.6904965839781703,0.0,2.7060725688934326,-1.6677165031433105,-0.0,2.130857229232788,4.548620863551758,-0.0,0.3035403788089752,-1.5967620054828089,-0.0,-0.006395705509930849,0.8255060911178589,-0.0,0.004926230758428574,0.783186137676239,0.0,0.03944085165858269
256.0,285.0,2.6166,0.0191,8.9791,-0.0394,0.0183,-0.1142,-1.690505167047018,0.0,2.721304178237915,-1.6677000522613525,-0.0,2.1689810752868652,4.548587961787842,-0.0,0.3005741536617279,-1.5967825094806116,-0.0,-0.008743535727262497,0.8255507349967957,-0.0,-0.007037502713501453,0.783186137676239,0.0,-0.003450118936598301
256.0,285.0,2.6166,0.0191,8.9791,-0.0394,0.0183,-0.1142,-1.6904803715147914,0.0,2.7034263610839844,-1.6677402257919312,-0.0,2.177152633666992,4.548540278072021,-0.0,0.2915377616882324,-1.596705738698141,-0.0,-0.013187043368816376,0.8255547881126404,-0.0,0.0033906931057572365,0.7831782102584839,0.0,-0.02630922570824623
256.0,285.0,2.6166,0.0191,8.9791,-0.0394,0.0183,-0.1142,-1.6904202900328578,0.0,2.6802380084991455,-1.6676799058914185,-0.0,2.1910266876220703,4.548579855556152,-0.0,0.2872999906539917,-1.596701447163717,-0.0,-0.007526954635977745,0.825486421585083,-0.0,-0.009585428051650524,0.7831981778144836,0.0,0.0038229236379265785
256.0,285.0,2.6166,0.0191,8.9791,-0.0394,0.0183,-0.1142,-1.690484186212057,0.0,2.7108898162841797,-1.6677124500274658,-0.0,2.114917755126953,4.548572226161621,-0.0,0.30596184730529785,-1.5967538992511194,-0.0,-0.013371635228395462,0.8254860043525696,-0.0,0.00647314777597785,0.7831779718399048,0.0,0.023985687643289566
256.0,285.0,2.6166,0.0191,8.9791,-0.0394,0.0183,-0.1142,-1.690484186212057,0.0,2.7020423412323,-1.6677320003509521,-0.0,2.1805710792541504,4.548567934627197,-0.0,0.29621368646621704,-1.5967782179461878,-0.0,-0.0007228387985378504,0.825510561466217,-0.0,-0.012114237993955612,0.783202588558197,0.0,-0.03191908076405525
256.0,285.0,2.6166,0.0191,8.9791,-0.0394,0.0183,-0.1142,-1.6904565296568812,0.0,2.705354690551758,-1.6677165031433105,-0.0,2.1397054195404053,4.548588438625,-0.0,0.2876983880996704,-1.5967333952533167,-0.0,-0.010276416316628456,0.8255306482315063,-0.0,-0.0011474394705146551,0.783186137676239,0.0,0.011216619983315468
256.0,285.0,2.6166,0.0191,8.9791,-0.0394,0.0183,-0.1142,-1.6904717884459437,0.0,2.692979335784912,-1.6677124500274658,-0.0,2.157731771469116,4.548584147090576,-0.0,0.29413747787475586,-1.5967662970172327,-0.0,-0.014539288356900215,0.8254823684692383,-0.0,0.015519686043262482,0.7832022905349731,0.0,-0.0015799052780494094
256.0,285.0,2.6166,0.0191,8.9791,-0.0394,0.0183,-0.1142,-1.690399786035055,0.0,2.6692795753479004,-1.6676799058914185,-0.0,2.146599531173706,4.548551722163818,-0.0,0.30658555030822754,-1.5967214743243616,-0.0,-0.006037854589521885,0.8254663944244385,-0.0,0.0012046471238136292,0.7832384705543518,0.0,0.036454372107982635
256.0,285.0,2.6166,0.0191,8.9791,-0.0394,0.0183,-0.1142,-1.6904717884459437,0.0,2.693075656890869,-1.6677484512329102,-0.0,2.140782117843628,4.548584147090576,-0.0,0.3005935847759247,-1.5967214743243616,-0.0,-0.007532174699008465,0.8255265951156616,-0.0,0.006373201496899128,0.7831779718399048,0.0,-0.00783446803689003
256.0,285.0,2.6166,0.0191,8.9791,-0.0394,0.0183,-0.1142,-1.6904522381224574,0.0,2.6648125648498535,-1.6677645444869995,-0.0,2.1424171924591064,4.548551722163818,-0.0,0.29779332876205444,-1.5967538992511194,-0.0,0.0017695329152047634,0.8255102634429932,-0.0,0.0009391281637363136,0.7831740975379944,0.0,-0.020414896309375763
256.0,285.0,2.6166,0.0191,8.9791,-0.0394,0.0183,-0.1142,-1.6904717884459437,0.0,2.6486010551452637,-1.6677205562591553,-0.0,2.1506564617156982,4.548535986537598,-0.0,0.29882219433784485,-1.5967419783221644,-0.0,-0.011915883980691433,0.8254904747009277,-0.0,-0.008222121745347977,0.783170223236084,0.0,0.013879930600523949
256.0,285.0,2.6166,0.0191,8.9791,-0.0394,0.0183,-0.1142,-1.6904689274229945,0.0,2.6442947387695312,-1.6677000522613525,-0.0,2.135885715484619,4.548588438625,-0.0,0.28310173749923706,-1.5967744032489222,-0.0,-0.015071714296936989,0.8255023956298828,-0.0,-0.006212153937667608,0.783186137676239,0.0,-0.014155440032482147
256.0,285.0,2.6166,0.0191,8.9791,-0.0394,0.0183,-0.1142,-1.690444131890768,0.0,2.700530529022217,-1.6677402257919312,-0.0,2.13362455368042,4.548551722163818,-0.0,0.2957325279712677,-1.5967376867877405,-0.0,-0.0019423007033765316,0.8254700303077698,-0.0,0.0030558158177882433,0.7831538319587708,0.0,-0.03902493417263031
256.0,285.0,2.6166,0.0191,8.9791,-0.0394,0.0183,-0.1142,-1.690439840356344,0.0,2.678542137145996,-1.6677165031433105,-0.0,2.139688014984131,4.548572226161621,-0.0,0.30557870864868164,-1.5967701117144983,-0.0,-0.006426339969038963,0.8254905343055725,-0.0,-0.006262355484068394,0.783186137676239,0.0,-0.040172167122364044
259.0,297.0,2.5627,-0.0018,9.1621,-0.0341,0.0231,-0.1135,-1.69047274212026,0.0,2.7223496437072754,-1.6677402257919312,-0.0,2.145376205444336,4.548572226161621,-0.0,0.29792526364326477,-1.5967419783221644,-0.0,-0.008755343034863472,0.8254704475402832,-0.0,-0.011975940316915512,0.7831820845603943,0.0,-0.02567487582564354
259.0,297.0,2.5627,-0.0018,9.1621,-0.0341,0.0231,-0.1135,-1.690500875512594,0.0,2.6809332370758057,-1.6677403450012207,-0.0,2.1216063499450684,4.548596068019531,-0.0,0.3026752173900604,-1.596705738698141,-0.0,-0.0054159522987902164,0.8254544138908386,-0.0,-0.023208491504192352,0.783194363117218,0.0,-0.0005116265965625644
259.0,297.0,2.5627,-0.0018,9.1621,-0.0341,0.0231,-0.1135,-1.6904965839781703,0.0,2.6171364784240723,-1.6677238941192627,-0.0,2.1589319705963135,4.548555536861084,-0.0,0.2981397807598114,-1.5967538992511194,-0.0,-0.0014921198599040508,0.8254782557487488,-0.0,-0.0017430097796022892,0.7832063436508179,0.0,0.0032616150565445423
259.0,297.0,2.5627,-0.0018,9.1621,-0.0341,0.0231,-0.1135,-1.690500875512594,0.0,2.687930107116699,-1.6677124500274658,-0.0,2.170008659362793,4.548579855556152,-0.0,0.2960246801376343,-1.5966737906085413,-0.0,-3.5628327168524265e-05,0.8255265355110168,-0.0,-0.011347073130309582,0.7831419706344604,0.0,0.03348763287067413
259.0,297.0,2.5627,-0.0018,9.1621,-0.0341,0.0231,-0.1135,-1.6904202900328578,0.0,2.6830732822418213,-1.6677238941192627,-0.0,2.1707777976989746,4.548572226161621,-0.0,0.2880302369594574,-1.5967214743243616,-0.0,-0.0009707938879728317,0.8255102038383484,-0.0,0.0019890947733074427,0.7831902503967285,0.0,0.03666815906763077
259.0,297.0,2.5627,-0.0018,9.1621,-0.0341,0.0231,-0.1135,-1.6904565296568812,0.0,2.63771390914917,-1.6677320003509521,-0.0,2.148448944091797,4.548564119929932,-0.0,0.29701805114746094,-1.5967333952533167,-0.0,-0.008732810616493225,0.8255224227905273,-0.0,-0.008429572917521,0.7831782698631287,0.0,-0.0021903901360929012
259.0,297.0,2.5627,-0.0018,9.1621,-0.0341,0.0231,-0.1135,-1.6904803715147914,0.0,2.6108500957489014,-1.6676958799362183,-0.0,2.152256488800049,4.548584147090576,-0.0,0.29375120997428894,-1.5967419783221644,-0.0,0.0028923966456204653,0.8255383968353271,-0.0,-0.012385287322103977,0.7831621170043945,0.0,0.03352246806025505
259.0,297.0,2.5627,-0.0018,9.1621,-0.0341,0.0231,-0.1135,-1.6904522381224574,0.0,2.682755708694458,-1.6677238941192627,-0.0,2.1924405097961426,4.548604174251221,-0.0,0.2979726791381836,-1.5967376867877405,-0.0,-0.009308434091508389,0.8254942893981934,-0.0,-0.017161600291728973,0.7831984758377075,0.0,-0.031012076884508133
259.0,297.0,2.5627,-0.0018,9.1621,-0.0341,0.0231,-0.1135,-1.6904760799803675,0.0,2.670124053955078,-1.6677320003509521,-0.0,2.118253707885742,4.548604174251221,-0.0,0.2850997745990753,-1.5967538992511194,-0.0,-0.005298320669680834,0.8254539966583252,-0.0,-0.010893167927861214,0.783170223236084,0.0,0.03257288411259651
259.0,297.0,2.5627,-0.0018,9.1621,-0.0341,0.0231,-0.1135,-1.6904646358885707,0.0,2.6770567893981934,-1.667708396911621,-0.0,2.1870055198669434,4.548588438625,-0.0,0.3034645915031433,-1.5967257658587855,-0.0,-0.012944200076162815,0.8255469799041748,-0.0,-0.013838752172887325,0.7831782102584839,0.0,-0.026757461950182915
259.0,297.0,2.5627,-0.0018,9.1621,-0.0341,0.0231,-0.1135,-1.6904522381224574,0.0,2.6630427837371826,-1.6677042245864868,-0.0,2.1548943519592285,4.548564119929932,-0.0,0.28788506984710693,-1.5967496077166956,-0.0,-0.01221448928117752,0.8254343867301941,-0.0,-0.01100294478237629,0.7832063436508179,0.0,-0.007644699886441231
259.0,297.0,2.5627,-0.0018,9.1621,-0.0341,0.0231,-0.1135,-1.6904202900328578,0.0,2.6472673416137695,-1.6676839590072632,-0.0,2.1951613426208496,4.548555536861084,-0.0,0.30027011036872864,-1.59674579301943,-0.0,-0.019687287509441376,0.8255462050437927,-0.0,-0.013592103496193886,0.7831542491912842,0.0,-0.00611976208165288
259.0,297.0,2.5627,-0.0018,9.1621,-0.0341,0.0231,-0.1135,-1.6904717884459437,0.0,2.6466550827026367,-1.6677041053771973,-0.0,2.1419968605041504,4.548564119929932,-0.0,0.3013356626033783,-1.596757713948385,-0.0,0.00447539146989584,0.8255748748779297,-0.0,-0.008609466254711151,0.7832508087158203,0.0,-0.024903004989027977
259.0,297.0,2.5627,-0.0018,9.1621,-0.0341,0.0231,-0.1135,-1.6904121838011683,0.0,2.663026809692383,-1.6677361726760864,-0.0,2.13224720954895,4.548572226161621,-0.0,0.30061161518096924,-1.5967257658587855,-0.0,-0.008119815960526466,0.8254983425140381,-0.0,0.0056875827722251415,0.7831823229789734,0.0,0.00985688716173172
259.0,297.0,2.5627,-0.0018,9.1621,-0.0341,0.0231,-0.1135,-1.690444131890768,0.0,2.690115451812744,-1.6677484512329102,-0.0,2.157336711883545,4.548564119929932,-0.0,0.293775737285614,-1.59674579301943,-0.0,-0.00845497939735651,0.8255864381790161,-0.0,-0.010730564594268799,0.7831740975379944,0.0,0.02269265428185463
259.0,297.0,2.5627,-0.0018,9.1621,-0.0341,0.0231,-0.1135,-1.690444131890768,0.0,2.6719441413879395,-1.6677645444869995,-0.0,2.1585848331451416,4.548559828395508,-0.0,0.29079103469848633,-1.596757713948385,-0.0,-0.005635392852127552,0.825510561466217,-0.0,0.00059720897115767,0.7831984758377075,0.0,0.0019221478141844273
259.0,297.0,2.5627,-0.0018,9.1621,-0.0341,0.0231,-0.1135,-1.6904760799803675,0.0,2.6749255657196045,-1.6677522659301758,-0.0,2.157452344894409,4.548556013698242,-0.0,0.2882559299468994,-1.5967257658587855,-0.0,0.003589665051549673,0.8255428671836853,-0.0,-0.015070222318172455,0.7831820845603943,0.0,-0.029563194140791893
259.0,297.0,2.5627,-0.0018,9.1621,-0.0341,0.0231,-0.1135,-1.69047274212026,0.0,2.6860666275024414,-1.6677320003509521,-0.0,2.097644090652466,4.548548384303711,-0.0,0.3066684901714325,-1.596802059804098,-0.0,-0.007611008360981941,0.8255425691604614,-0.0,-0.0029654467944055796,0.7831782102584839,0.0,0.01630391739308834
259.0,297.0,2.5627,-0.0018,9.1621,-0.0341,0.0231,-0.1135,-1.6904689274229945,0.0,2.6971230506896973,-1.6677124500274658,-0.0,2.1627979278564453,4.548540278072021,-0.0,0.30448025465011597,-1.5967376867877405,-0.0,-0.005483576562255621,0.8254101276397705,-0.0,0.0017045795684680343,0.7831740975379944,0.0,-0.03978978097438812
259.0,297.0,2.5627,-0.0018,9.1621,-0.0341,0.0231,-0.1135,-1.6904884777464808,0.0,2.6858463287353516,-1.6677485704421997,-0.0,2.1749353408813477,4.548604174251221,-0.0,0.29053637385368347,-1.5967376867877405,-0.0,-0.013939685188233852,0.8255347609519958,-0.0,-0.0054284194484353065,0.7831699848175049,0.0,0.02383485436439514
255.0,286.0,2.6441,0.0347,8.9623,-0.031,0.0173,-0.1155,-1.6904403171935023,0.0,2.723240852355957,-1.6677165031433105,-0.0,2.1383800506591797,4.548567934627197,-0.0,0.29607486724853516,-1.5967333952533167,-0.0,-0.005462628323584795,0.8254942893981934,-0.0,-0.012914356775581837,0.7831863760948181,0.0,0.03745231777429581
255.0,286.0,2.6441,0.0347,8.9623,-0.031,0.0173,-0.1155,-1.6904646358885707,0.0,2.6976418495178223,-1.6677124500274658,-0.0,2.148909091949463,4.548592253322266,-0.0,0.2986464202404022,-1.596717659627096,-0.0,-0.007162801455706358,0.8254904747009277,-0.0,-0.012296946719288826,0.7831782102584839,0.0,0.006965929176658392
255.0,286.0,2.6441,0.0347,8.9623,-0.031,0.0173,-0.1155,-1.6904689274229945,0.0,2.6926074028015137,-1.6677247285842896,-0.0,2.153240442276001,4.548535986537598,-0.0,0.298111230134964,-1.5967538992511194,-0.0,-0.0020592708606272936,0.8254823684692383,-0.0,-0.005798038560897112,0.7832187414169312,0.0,0.026003452017903328
255.0,286.0,2.6441,0.0347,8.9623,-0.031,0.0173,-0.1155,-1.6904965839781703,0.0,2.6861064434051514,-1.667672038078308,-0.0,2.214334487915039,4.548596544856689,-0.0,0.2969153821468353,-1.59674579301943,-0.0,-0.004065089859068394,0.8255224823951721,-0.0,-0.008916936814785004,0.783218264579773,0.0,-0.021526135504245758
255.0,286.0,2.6441,0.0347,8.9623,-0.031,0.0173,-0.1155,-1.6904646358885707,0.0,2.675208806991577,-1.6677124500274658,-0.0,2.1451823711395264,4.548592253322266,-0.0,0.3057432770729065,-1.5967500845538538,-0.0,-0.005849520210176706,0.8254740834236145,-0.0,-0.007753371726721525,0.7832105159759521,0.0,0.03545353189110756
255.0,286.0,2.6441,0.0347,8.9623,-0.031,0.0173,-0.1155,-1.6905132732787074,0.0,2.678572654724121,-1.6677279472351074,-0.0,2.1260697841644287,4.548572226161621,-0.0,0.29414254426956177,-1.5967214743243616,-0.0,-0.005422933958470821,0.8255507349967957,-0.0,-0.0006684218533337116,0.7832105159759521,0.0,-0.0060660094022750854
255.0,286.0,2.6441,0.0347,8.9623,-0.031,0.0173,-0.1155,-1.6904760799803675,0.0,2.6713457107543945,-1.6676757335662842,-0.0,2.208935260772705,4.548576517696045,-0.0,0.3024299144744873,-1.5967496077166956,-0.0,-0.014890935271978378,0.8254782557487488,-0.0,0.0081437136977911,0.7832064032554626,0.0,0.009846079163253307
255.0,286.0,2.6441,0.0347,8.9623,-0.031,0.0173,-0.1155,-1.6904646358885707,0.0,2.6510684490203857,-1.6677523851394653,-0.0,2.205721378326416,4.548624201411865,-0.0,0.2876163125038147,-1.5967701117144983,-0.0,-0.005964370444417,0.8255102634429932,-0.0,-0.0016395564889535308,0.7831984758377075,0.0,0.004108464810997248
255.0,286.0,2.6441,0.0347,8.9623,-0.031,0.0173,-0.1155,-1.6904484234251917,0.0,2.716860294342041,-1.6677443981170654,-0.0,2.1691434383392334,4.548596544856689,-0.0,0.29185885190963745,-1.5967701117144983,-0.0,-0.006243079900741577,0.8254983425140381,-0.0,-0.009405931457877159,0.7831902503967285,0.0,0.015177992172539234
255.0,286.0,2.6441,0.0347,8.9623,-0.031,0.0173,-0.1155,-1.690500875512594,0.0,2.6995012760162354,-1.6677279472351074,-0.0,2.153595447540283,4.548604174251221,-0.0,0.30097243189811707,-1.5967133680926722,-0.0,-0.005432177800685167,0.8255143165588379,-0.0,-0.0068089645355939865,0.7831863760948181,0.0,0.009202707558870316
255.0,286.0,2.6441,0.0347,8.9623,-0.031,0.0173,-0.1155,-1.6904360256590785,0.0,2.6727638244628906,-1.6677443981170654,-0.0,2.1753194332122803,4.548604174251221,-0.0,0.2866330146789551,-1.5967214743243616,-0.0,-0.008862601593136787,0.8254462480545044,-0.0,-0.007247925736010075,0.7831782102584839,0.0,-0.03461243584752083
255.0,286.0,2.6441,0.0347,8.9623,-0.031,0.0173,-0.1155,-1.690427919427389,0.0,2.726679801940918,-1.6677000522613525,-0.0,2.1717212200164795,4.548604174251221,-0.0,0.2916810214519501,-1.5967095533954065,-0.0,-0.006174732930958271,0.8255024552345276,-0.0,0.004593079909682274,0.7831699848175049,0.0,-0.04552166536450386
255.0,286.0,2.6441,0.0347,8.9623,-0.031,0.0173,-0.1155,-1.6904803715147914,0.0,2.6581029891967773,-1.6676959991455078,-0.0,2.109212636947632,4.548567934627197,-0.0,0.2840510606765747,-1.596705738698141,-0.0,-0.011361593380570412,0.8254503607749939,-0.0,-0.00016787974163889885,0.7832105159759521,0.0,-0.0034740176051855087
255.0,286.0,2.6441,0.0347,8.9623,-0.031,0.0173,-0.1155,-1.6904689274229945,0.0,2.6766443252563477,-1.6677279472351074,-0.0,2.141068935394287,4.548540278072021,-0.0,0.28994324803352356,-1.5967257658587855,-0.0,0.0002621482126414776,0.8255306482315063,-0.0,-0.00791718065738678,0.7831982374191284,0.0,-0.009733409620821476
255.0,286.0,2.6441,0.0347,8.9623,-0.031,0.0173,-0.1155,-1.6904241047301234,0.0,2.663170576095581,-1.6676597595214844,-0.0,2.142932415008545,4.548567934627197,-0.0,0.2980113625526428,-1.596733872090475,-0.0,-0.025446608662605286,0.8254782557487488,-0.0,0.0031303088180720806,0.783202588558197,0.0,-0.014294563792645931
255.0,286.0,2.6441,0.0347,8.9623,-0.031,0.0173,-0.1155,-1.6904646358885707,0.0,2.713841676712036,-1.667679786682129,-0.0,2.1789844036102295,4.548592253322266,-0.0,0.2955109775066376,-1.5967214743243616,-0.0,0.008731106296181679,0.8255465626716614,-0.0,-0.004489213693886995,0.7832146286964417,0.0,-0.017213527113199234
255.0,286.0,2.6441,0.0347,8.9623,-0.031,0.0173,-0.1155,-1.6904565296568812,0.0,2.66524076461792,-1.6677485704421997,-0.0,2.1758623123168945,4.548604174251221,-0.0,0.30325600504875183,-1.596701447163717,-0.0,-0.0033371071331202984,0.8255023956298828,-0.0,-0.0038061845116317272,0.7832146286964417,0.0,-0.049785539507865906
255.0,286.0,2.6441,0.0347,8.9623,-0.031,0.0173,-0.1155,-1.6904717884459437,0.0,2.617399215698242,-1.6677360534667969,-0.0,2.1208548545837402,4.548584147090576,-0.0,0.28746896982192993,-1.5967214743243616,-0.0,-0.0033126105554401875,0.8255183696746826,-0.0,-0.002033236902207136,0.7831902503967285,0.0,-0.046242114156484604
255.0,286.0,2.6441,0.0347,8.9623,-0.031,0.0173,-0.1155,-1.6904922924437464,0.0,2.687307357788086,-1.6676958799362183,-0.0,2.21889066696167,4.54861228048291,-0.0,0.2963753342628479,-1.5967095533954065,-0.0,-0.014748084358870983,0.8254545331001282,-0.0,-0.0009486549533903599,0.783194363117218,0.0,0.002716298680752516
259.0,280.0,2.7015,0.0502,8.9533,-0.0348,0.0254,-0.1222,-1.6904479465880335,0.0,2.67025089263916,-1.6677000522613525,-0.0,2.1751227378845215,4.548564119929932,-0.0,0.2975364923477173,-1.596757713948385,-0.0,-0.009642927907407284,0.8255183696746826,-0.0,0.0019197433721274137,0.783194363117218,0.0,-0.03244319185614586
259.0,280.0,2.7015,0.0502,8.9533,-0.0348,0.0254,-0.1222,-1.6904479465880335,0.0,2.6631383895874023,-1.6677197217941284,-0.0,2.1974284648895264,4.548527880305908,-0.0,0.294502854347229,-1.5967376867877405,-0.0,-0.0019056389573961496,0.8255347013473511,-0.0,0.0029967431910336018,0.7831538319587708,0.0,0.016070319339632988
259.0,280.0,2.7015,0.0502,8.9533,-0.0348,0.0254,-0.1222,-1.690484186212057,0.0,2.7042059898376465,-1.6677604913711548,-0.0,2.1466574668884277,4.548544092769287,-0.0,0.29357844591140747,-1.596729580556051,-0.0,-0.002564918715506792,0.8254983425140381,-0.0,-0.0017685408238321543,0.7832187414169312,0.0,-0.034981619566679
259.0,280.0,2.7015,0.0502,8.9533,-0.0348,0.0254,-0.1222,-1.6904603443541468,0.0,2.660503387451172,-1.6677320003509521,-0.0,2.1683950424194336,4.548551722163818,-0.0,0.28882941603660583,-1.596705738698141,-0.0,-0.00490582175552845,0.8255506753921509,-0.0,-0.005703260190784931,0.7831902503967285,0.0,0.016243310645222664
259.0,280.0,2.7015,0.0502,8.9533,-0.0348,0.0254,-0.1222,-1.6904927692809046,0.0,2.650297164916992,-1.667672038078308,-0.0,2.1443800926208496,4.548551722163818,-0.0,0.3059692084789276,-1.596717659627096,-0.0,-0.010693885385990143,0.8255023956298828,-0.0,0.0013136642519384623,0.7831740975379944,0.0,-0.0011614805553108454
259.0,280.0,2.7015,0.0502,8.9533,-0.0348,0.0254,-0.1222,-1.6904565296568812,0.0,2.7210168838500977,-1.66765558719635,-0.0,2.187429189682007,4.548551722163818,-0.0,0.3012937903404236,-1.5967419783221644,-0.0,-0.011837925761938095,0.8254942893981934,-0.0,-0.009809308685362339,0.7832146286964417,0.0,-0.0017005898989737034
259.0,280.0,2.7015,0.0502,8.9533,-0.0348,0.0254,-0.1222,-1.6904717884459437,0.0,2.6655304431915283,-1.6677320003509521,-0.0,2.14693021774292,4.548592253322266,-0.0,0.29670315980911255,-1.5967419783221644,-0.0,-0.005931210704147816,0.8255106210708618,-0.0,-0.008670046925544739,0.783194363117218,0.0,-0.013518858700990677
259.0,280.0,2.7015,0.0502,8.9533,-0.0348,0.0254,-0.1222,-1.690444131890768,0.0,2.698734760284424,-1.6677289009094238,-0.0,2.1762163639068604,4.548540278072021,-0.0,0.29609715938568115,-1.5967496077166956,-0.0,-0.0013737932313233614,0.8254463076591492,-0.0,-0.013272814452648163,0.783186137676239,0.0,0.002791196573525667
259.0,280.0,2.7015,0.0502,8.9533,-0.0348,0.0254,-0.1222,-1.6904646358885707,0.0,2.6747050285339355,-1.6676918268203735,-0.0,2.117802381515503,4.548584147090576,-0.0,0.3048105239868164,-1.5967333952533167,-0.0,0.004991417750716209,0.825446605682373,-0.0,-0.004821050446480513,0.7831579446792603,0.0,0.013602286577224731
259.0,280.0,2.7015,0.0502,8.9533,-0.0348,0.0254,-0.1222,-1.6904965839781703,0.0,2.6836588382720947,-1.6677525043487549,-0.0,2.128384590148926,4.548567934627197,-0.0,0.3027416467666626,-1.5967419783221644,-0.0,-0.008822068572044373,0.8254782557487488,-0.0,-0.0034907048102468252,0.7831902503967285,0.0,-0.02328869141638279
259.0,280.0,2.7015,0.0502,8.9533,-0.0348,0.0254,-0.1222,-1.6904121838011683,0.0,2.7026782035827637,-1.6677238941192627,-0.0,2.1739633083343506,4.548632307643555,-0.0,0.2879766821861267,-1.596757713948385,-0.0,0.0038431358989328146,0.8254905343055725,-0.0,0.002280252519994974,0.783194363117218,0.0,-0.024513041600584984
259.0,280.0,2.7015,0.0502,8.9533,-0.0348,0.0254,-0.1222,-1.6904403171935023,0.0,2.692697525024414,-1.6676958799362183,-0.0,2.168790817260742,4.548564119929932,-0.0,0.2975667417049408,-1.596757713948385,-0.0,-0.018654057756066322,0.8254782557487488,-0.0,-0.004179676529020071,0.7831337451934814,0.0,0.024473806843161583
259.0,280.0,2.7015,0.0502,8.9533,-0.0348,0.0254,-0.1222,-1.6904717884459437,0.0,2.6397855281829834,-1.6677485704421997,-0.0,2.153621196746826,4.548572226161621,-0.0,0.29279547929763794,-1.5967257658587855,-0.0,0.010768482461571693,0.825498640537262,-0.0,-0.007477815728634596,0.7831782102584839,0.0,-0.02333051525056362
259.0,280.0,2.7015,0.0502,8.9533,-0.0348,0.0254,-0.1222,-1.6904646358885707,0.0,2.672253370285034,-1.6677320003509521,-0.0,2.1540257930755615,4.548588438625,-0.0,0.292941153049469,-1.5967419783221644,-0.0,0.009274248965084553,0.8254380822181702,-0.0,0.007640046067535877,0.783186137676239,0.0,0.010509571991860867
259.0,280.0,2.7015,0.0502,8.9533,-0.0348,0.0254,-0.1222,-1.690484186212057,0.0,2.6856672763824463,-1.6677041053771973,-0.0,2.1514174938201904,4.548592253322266,-0.0,0.29100409150123596,-1.596701447163717,-0.0,-0.01322264689952135,0.8254700303077698,-0.0,0.014008882455527782,0.783194363117218,0.0,-0.008206069469451904
259.0,280.0,2.7015,0.0502,8.9533,-0.0348,0.0254,-0.1222,-1.690444131890768,0.0,2.673525810241699,-1.6677042245864868,-0.0,2.1370482444763184,4.548588438625,-0.0,0.28454679250717163,-1.5967214743243616,-0.0,-0.009807316586375237,0.8254782557487488,-0.0,-0.0028726356104016304,0.7831902503967285,0.0,-0.007890588603913784
259.0,280.0,2.7015,0.0502,8.9533,-0.0348,0.0254,-0.1222,-1.6904803715147914,0.0,2.724142074584961,-1.6676959991455078,-0.0,2.146702527999878,4.548592253322266,-0.0,0.29647988080978394,-1.5967214743243616,-0.0,-0.0028403550386428833,0.825406014919281,-0.0,0.00036377011565491557,0.7831579446792603,0.0,0.01509176567196846
259.0,280.0,2.7015,0.0502,8.9533,-0.0348,0.0254,-0.1222,-1.690484186212057,0.0,2.6437487602233887,-1.6677645444869995,-0.0,2.1307761669158936,4.548592253322266,-0.0,0.29945841431617737,-1.5967214743243616,-0.0,-0.005675058346241713,0.8254544138908386,-0.0,-0.002443112665787339,0.7832385897636414,0.0,0.05494074150919914
259.0,280.0,2.7015,0.0502,8.9533,-0.0348,0.0254,-0.1222,-1.6904803715147914,0.0,2.7228293418884277,-1.6677485704421997,-0.0,2.171727180480957,4.548544092769287,-0.0,0.2816079258918762,-1.5967252890216272,-0.0,-0.009253941476345062,0.8255466818809509,-0.0,-0.016298264265060425,0.7832022905349731,0.0,-0.01486455462872982
259.0,280.0,2.7015,0.0502,8.9533,-0.0348,0.0254,-0.1222,-1.6904603443541468,0.0,2.6837451457977295,-1.6677205562591553,-0.0,2.176774501800537,4.548555536861084,-0.0,0.2831873893737793,-1.5966938177691858,-0.0,0.00036785355769097805,0.8254945874214172,-0.0,0.0015853038057684898,0.78317791223526,0.0,-0.049704838544130325
258.0,283.0,2.6393,0.1531,9.0251,-0.0301,0.0195,-0.1167,-1.690484186212057,0.0,2.6781914234161377,-1.6677082777023315,-0.0,2.1717991828918457,4.548576040858887,-0.0,0.3050899803638458,-1.5967257658587855,-0.0,-0.005409684032201767,0.8255224823951721,-0.0,-0.00681820884346962,0.7831902503967285,0.0,0.009544212371110916
258.0,283.0,2.6393,0.1531,9.0251,-0.0301,0.0195,-0.1167,-1.6904479465880335,0.0,2.698439359664917,-1.6677484512329102,-0.0,2.1323258876800537,4.548552675838135,-0.0,0.3015601336956024,-1.596757713948385,-0.0,-0.005056069232523441,0.8255224227905273,-0.0,0.00015028612688183784,0.7831456065177917,0.0,0.02251279167830944
258.0,283.0,2.6393,0.1531,9.0251,-0.0301,0.0195,-0.1167,-1.6904760799803675,0.0,2.659503936767578,-1.6677165031433105,-0.0,2.1594529151916504,4.548572226161621,-0.0,0.29468709230422974,-1.5967658201800745,-0.0,-0.007772904820740223,0.8254983425140381,-0.0,-0.001309731975197792,0.783194363117218,0.0,-0.011255141347646713
258.0,283.0,2.6393,0.1531,9.0251,-0.0301,0.0195,-0.1167,-1.6904479465880335,0.0,2.694227695465088,-1.6677041053771973,-0.0,2.1869449615478516,4.548588438625,-0.0,0.30131521821022034,-1.59674579301943,-0.0,-1.652655191719532e-05,0.8254942893981934,-0.0,-0.007810679730027914,0.7832344174385071,0.0,-0.018976066261529922
258.0,283.0,2.6393,0.1531,9.0251,-0.0301,0.0195,-0.1167,-1.6904202900328578,0.0,2.6328988075256348,-1.6676877737045288,-0.0,2.200636148452759,4.548567934627197,-0.0,0.29761993885040283,-1.5967538992511194,-0.0,-0.0009998399764299393,0.8254544138908386,-0.0,-0.0020281623583287,0.783254861831665,0.0,-0.03766524791717529
258.0,283.0,2.6393,0.1531,9.0251,-0.0301,0.0195,-0.1167,-1.6905046902098597,0.0,2.665177822113037,-1.6676675081253052,-0.0,2.1837971210479736,4.548535986537598,-0.0,0.30435407161712646,-1.596701447163717,-0.0,-0.011622225865721703,0.8254904747009277,-0.0,0.004834814928472042,0.7832022905349731,0.0,-0.007013063877820969
258.0,283.0,2.6393,0.1531,9.0251,-0.0301,0.0195,-0.1167,-1.6904479465880335,0.0,2.696516513824463,-1.6677484512329102,-0.0,2.1441991329193115,4.548596544856689,-0.0,0.28592416644096375,-1.5967453161822718,-0.0,0.0019073873991146684,0.8255143165588379,-0.0,0.001006620703265071,0.7831820845603943,0.0,0.010091984644532204
258.0,283.0,2.6393,0.1531,9.0251,-0.0301,0.0195,-0.1167,-1.6904603443541468,0.0,2.663583755493164,-1.6677484512329102,-0.0,2.154188632965088,4.548567934627197,-0.0,0.304583877325058,-1.5967419783221644,-0.0,-0.0017215029802173376,0.825462281703949,-0.0,-0.0014717546291649342,0.7832064032554626,0.0,-0.0022040894255042076
258.0,283.0,2.6393,0.1531,9.0251,-0.0301,0.0195,-0.1167,-1.6904760799803675,0.0,2.6591272354125977,-1.6676839590072632,-0.0,2.1887269020080566,4.5486084657856445,-0.0,0.3014071583747864,-1.5967419783221644,-0.0,-0.012351843528449535,0.8254945874214172,-0.0,-0.0038239178247749805,0.783186137676239,0.0,0.004324969835579395
258.0,283.0,2.6393,0.1531,9.0251,-0.0301,0.0195,-0.1167,-1.6904884777464808,0.0,2.70267391204834,-1.6677165031433105,-0.0,2.171018123626709,4.548588438625,-0.0,0.29826122522354126,-1.5967376867877405,-0.0,-0.019747059792280197,0.8255388140678406,-0.0,0.001872910070233047,0.7831820845603943,0.0,-0.007339458912611008
258.0,283.0,2.6393,0.1531,9.0251,-0.0301,0.0195,-0.1167,-1.6904803715147914,0.0,2.6869914531707764,-1.6677165031433105,-0.0,2.1076223850250244,4.548588438625,-0.0,0.2849496901035309,-1.596729580556051,-0.0,-0.011785898357629776,0.8255347013473511,-0.0,-0.0017485319403931499,0.7832064032554626,0.0,-0.06409093737602234
258.0,283.0,2.6393,0.1531,9.0251,-0.0301,0.0195,-0.1167,-1.6904803715147914,0.0,2.7000861167907715,-1.667736291885376,-0.0,2.176544666290283,4.548588438625,-0.0,0.29921409487724304,-1.5967415014850062,-0.0,-0.011951882392168045,0.8254904747009277,-0.0,-0.00029633892700076103,0.7831740975379944,0.0,-0.023078521713614464
258.0,283.0,2.6393,0.1531,9.0251,-0.0301,0.0195,-0.1167,-1.6904360256590785,0.0,2.6558566093444824,-1.6677041053771973,4.581013346438567e-09,2.191295862197876,4.548584147090576,-0.0,0.293975830078125,-1.5967496077166956,-0.0,-0.008200161159038544,0.8255023956298828,-0.0,-0.0038892109878361225,0.7832829356193542,0.0,-0.02289304882287979
258.0,283.0,2.6393,0.1531,9.0251,-0.0301,0.0195,-0.1167,-1.6904851398863734,0.0,2.650568962097168,-1.667688012123108,8.245662724663816e-13,2.1348299980163574,4.548631830806396,-0.0,0.3060415983200073,-1.596757713948385,-0.0,0.0022030568215996027,0.8254541158676147,-0.0,-0.00905492715537548,0.7831820845603943,0.0,-0.020780734717845917
258.0,283.0,2.6393,0.1531,9.0251,-0.0301,0.0195,-0.1167,-1.6904603443541468,0.0,2.6583805084228516,-1.6677765846252441,1.4841900560714003e-16,2.132918119430542,4.548559828395508,-1.1819651035693823e-08,0.2960633635520935,-1.5967538992511194,-0.0,-0.0033067117910832167,0.8254905343055725,-0.0,0.004567642696201801,0.7832220792770386,0.0,-0.027867842465639114
258.0,283.0,2.6393,0.1531,9.0251,-0.0301,0.0195,-0.1167,-1.6904484234251917,0.0,2.67832612991333,-1.6676839590072632,0.0005243426421657205,2.1489336490631104,4.548555536861084,-5.038902281540025e-11,0.295246422290802,-1.5967620054828089,-0.0,-0.02637447603046894,0.8254860639572144,-0.0,-0.012196083553135395,0.7832262516021729,0.0,-0.042237862944602966
258.0,283.0,2.6393,0.1531,9.0251,-0.0301,0.0195,-0.1167,-1.6904603443541468,0.0,2.669431686401367,-1.6676762104034424,0.0013962772209197283,2.1258175373077393,4.548591776485107,-1.4025970292705966e-14,0.3002554774284363,-1.5967782179461878,-0.0,-0.009594879113137722,0.8254385590553284,-0.0,0.002407968044281006,0.7832543849945068,0.0008234392153099179,-0.006817622110247612
258.0,283.0,2.6393,0.1531,9.0251,-0.0301,0.0195,-0.1167,-1.690427919427389,0.0,2.665726661682129,-1.6677287817001343,0.0012895551044493914,2.145981788635254,4.548559828395508,-5.979491448287804e-17,0.29095137119293213,-1.5967496077166956,-0.0,-0.0034122599754482508,0.8255346417427063,-0.0,0.007096336223185062,0.7832543849945068,0.0012163574574515224,-0.005758748855441809
258.0,283.0,2.6393,0.1531,9.0251,-0.0301,0.0195,-0.1167,-1.690456052819723,0.0,2.6746106147766113,-1.667704463005066,0.0012905378825962543,2.1220383644104004,4.548567934627197,-2.549150928038222e-19,0.29078125953674316,-1.5967620054828089,-0.0,-0.004840468522161245,0.8254622220993042,-0.0,0.004114554263651371,0.7832543849945068,0.0011244866764172912,0.008965692482888699
258.0,283.0,2.6393,0.1531,9.0251,-0.0301,0.0195,-0.1167,-1.690432687798971,0.0,2.7191505432128906,-1.6676921844482422,0.0011387929553166032,2.198674440383911,4.548616095180176,-1.086743062916527e-21,0.2945922613143921,-1.5967901388751429,-0.0,-0.01168857142329216,0.825510561466217,-0.0,-0.018008185550570488,0.7832179069519043,0.001013280707411468,-0.02689833752810955
256.0,278.0,2.2397,-0.4869,9.329,-0.0469,0.0086,-0.1762,-1.6904446087279261,0.0,2.6586172580718994,-1.6676357984542847,0.0010531630832701921,2.145724058151245,4.548584147090576,-3.0249894464686156e-25,0.2979125678539276,-1.5968263784991663,-0.0,-0.004745197482407093,0.8255064487457275,-0.0,-0.004011637065559626,0.7832664847373962,0.0008609052165411413,-0.04646158590912819
256.0,278.0,2.2397,-0.4869,9.329,-0.0469,0.0086,-0.1762,-1.690432687798971,0.0,2.7051124572753906,-1.6676316261291504,0.0009914996335282922,2.1394588947296143,4.548576040858887,-1.2896003796457599e-27,0.290558397769928,-1.5967782179461878,-0.0,-0.004338142462074757,0.8254704475402832,-0.0,-0.004395634401589632,0.7832503318786621,0.0006571237463504076,0.03514321520924568
256.0,278.0,2.2397,-0.4869,9.329,-0.0469,0.0086,-0.1762,-1.6903802357115687,0.0,2.6657190322875977,-1.6676688194274902,0.0008402147213928401,2.094053030014038,4.548644705409668,-5.4977682708862255e-30,0.28850919008255005,-1.5967863241778772,-0.0,-0.0018864597659558058,0.825486421585083,-0.0,-0.008772535249590874,0.7832421660423279,0.0006088609807193279,0.016344238072633743
256.0,278.0,2.2397,-0.4869,9.329,-0.0469,0.0086,-0.1762,-1.6904646358885707,0.0,2.7078349590301514,-1.6676398515701294,0.0006223837262950838,2.152559995651245,4.5486036974140625,-1.5303238409382222e-33,0.29336774349212646,-1.5967982451068323,-0.0,0.0023492826148867607,0.8254704475402832,-0.0,-0.004744884092360735,0.7832542061805725,0.0005310593987815082,-0.006741517223417759
256.0,278.0,2.2397,-0.4869,9.329,-0.0469,0.0086,-0.1762,-1.6904365024962367,0.0,2.707068920135498,-1.6676563024520874,0.000593772332649678,2.130934238433838,4.54861228048291,-6.524010866219225e-36,0.2962024211883545,-1.5967620054828089,-0.0,-0.0010297046974301338,0.8254987001419067,-0.0,0.006375428289175034,0.783258318901062,0.00045443864655680954,-0.009328900836408138
256.0,278.0,2.2397,-0.4869,9.329,-0.0469,0.0086,-0.1762,-1.6904484234251917,0.0,2.653355121612549,-1.6677165031433105,0.00043801081483252347,2.167311668395996,4.548611803645752,-2.781288503941418e-38,0.29818469285964966,-1.5967662970172327,-0.0,-0.0009110388346016407,0.8254860043525696,-0.0,-0.003957187756896019,0.7832623720169067,0.0004470812273211777,-0.01851104572415352
256.0,278.0,2.2397,-0.4869,9.329,-0.0469,0.0086,-0.1762,-1.6904884777464808,0.0,2.639894485473633,-1.667696237564087,0.0003646796685643494,2.1787211894989014,4.548596068019531,-1.185708695588444e-40,0.2940756678581238,-1.5967662970172327,-0.0,-0.007051083259284496,0.8255183696746826,-0.0,0.0006227260455489159,0.7832865715026855,0.00040304494905285537,0.020153062418103218
256.0,278.0,2.2397,-0.4869,9.329,-0.0469,0.0086,-0.1762,-1.6904360256590785,0.0,2.693471908569336,-1.6677004098892212,0.00029334562714211643,2.1825318336486816,4.548564119929932,-3.363116314379561e-44,0.29834702610969543,-1.5967415014850062,-0.0,2.7671223506331444e-05,0.8254823684692383,-0.0,0.011947271414101124,0.7832944989204407,0.0003450874355621636,0.031152289360761642
256.0,278.0,2.2397,-0.4869,9.329,-0.0469,0.0086,-0.1762,-1.6904803715147914,5.484114808496088e-05,2.6676688194274902,-1.667656421661377,0.0002595063706394285,2.1393423080444336,4.548632307643555,-0.0,0.30226677656173706,-1.5967662970172327,-0.0,-0.009549770504236221,0.8254625797271729,-0.0,-0.004691602662205696,0.783282458782196,0.0003148986434098333,-0.023841574788093567
256.0,278.0,2.2397,-0.4869,9.329,-0.0469,0.0086,-0.1762,-1.690484186212057,2.6079573217430152e-05,2.6933298110961914,-1.6676843166351318,0.00023266788048204035,2.1201839447021484,4.548611803645752,-0.0,0.28847455978393555,-1.5967701117144983,-0.0,-0.0013231867924332619,0.8254983425140381,-0.0,-0.004811928141862154,0.7832623720169067,0.0002895680663641542,-0.006222269497811794
256.0,278.0,2.2397,-0.4869,9.329,-0.0469,0.0086,-0.1762,-1.69047274212026,1.3650479857574283e-08,2.6764750480651855,-1.6676843166351318,0.0002108613116433844,2.137942314147949,4.548592253322266,4.765374251292087e-05,0.29929664731025696,-1.5967620054828089,-0.0,-0.010287914425134659,0.8255265951156616,-0.0,0.014002788811922073,0.7832783460617065,0.0002680100442375988,0.00236224802210927
256.0,278.0,2.2397,-0.4869,9.329,-0.0469,0.0086,-0.1762,-1.6904803715147914,3.296430308081556e-14,2.666198492050171,-1.6676523685455322,0.00018487130000721663,2.137979030609131,4.548604174251221,4.450502819963731e-05,0.2893196642398834,-1.5967662970172327,-0.0,-0.013229239732027054,0.8255343437194824,-0.0,-0.000913496594876051,0.7832542061805725,0.00024108655634336174,0.025397643446922302
256.0,278.0,2.2397,-0.4869,9.329,-0.0469,0.0086,-0.1762,-1.690496107141012,5.933457937300555e-18,2.641798973083496,-1.6676762104034424,0.0001708339696051553,2.1743993759155273,4.548584147090576,4.240797716192901e-05,0.2884013056755066,-1.5967453161822718,-0.0,0.007908257655799389,0.8254380822181702,-0.0,0.0076279728673398495,0.7832942605018616,0.00022595449991058558,0.03741326183080673
256.0,278.0,2.2397,-0.4869,9.329,-0.0469,0.0086,-0.1762,-1.6905409298338832,-0.0006452506640926003,2.681411027908325,-1.6676441431045532,0.00015877815894782543,2.13073992729187,4.548584623927734,4.049952985951677e-05,0.2950218915939331,-1.5967701117144983,-0.0,-0.005965013988316059,0.8255023956298828,-0.0,-0.005737854167819023,0.7833107113838196,0.0002126095787389204,-0.01209818385541439
256.0,278.0,2.2397,-0.4869,9.329,-0.0469,0.0086,-0.1762,-1.6905046902098597,-0.0006881855078972876,2.642650604248047,-1.6676723957061768,0.0001483116502640769,2.1794872283935547,4.548588438625,3.875553738907911e-05,0.29866406321525574,-1.5967376867877405,-0.0,0.0020381067879498005,0.8254544138908386,-0.0,-0.009682269766926765,0.7832664847373962,0.00020075292559340596,6.995140574872494e-05
256.0,278.0,2.2397,-0.4869,9.329,-0.0469,0.0086,-0.1762,-1.6904922924437464,-0.0005053213099017739,2.675863265991211,-1.667664647102356,0.00013496671454049647,2.190580129623413,4.548604174251221,1.8361146430834197e-05,0.30050188302993774,-1.5967620054828089,-0.0,-0.007075726520270109,0.8254740238189697,-0.0,-0.0037151272408664227,0.7832863330841064,0.00018525662017054856,0.002179725095629692
256.0,278.0,2.2397,-0.4869,9.329,-0.0469,0.0086,-0.1762,-1.6904760799803675,-0.00049652747111395,2.673956871032715,-1.6676398515701294,0.0001273288216907531,2.157862663269043,4.548564119929932,1.749504190229345e-05,0.2918928861618042,-1.5967782179461878,-0.0,-0.013992180116474628,0.8255265951156616,-0.0,-0.02124873921275139,0.7832542061805725,0.00017619007849134505,0.015911007300019264
256.0,278.0,2.2397,-0.4869,9.329,-0.0469,0.0086,-0.1762,-1.690496107141012,-0.0004689953930210322,2.660951614379883,-1.6676605939865112,0.00012050897203152999,2.1612613201141357,4.548632307643555,2.5127235858235508e-05,0.29314088821411133,-1.596729580556051,-0.0,-0.010993566364049911,0.8255183696746826,-0.0,-0.0025403269100934267,0.7832623720169067,0.00012235180474817753,-0.020067123696208
256.0,278.0,2.2397,-0.4869,9.329,-0.0469,0.0086,-0.1762,-1.6904636822142542,-0.0004314490652177483,2.7145609855651855,-1.6676641702651978,0.00013725500321015716,2.156090259552002,4.548588438625,3.242801540181972e-05,0.2985199987888336,-1.596729580556051,-0.0,0.004682593978941441,0.8255265951156616,-0.0,-0.01884368807077408,0.7833024859428406,0.0001158481027232483,0.045405976474285126
255.0,282.0,2.4431,-0.1472,8.8768,-0.0414,0.018,-0.1316,-1.6905204258360804,-0.0003697350330185145,2.6298720836639404,-1.667656421661377,0.00012753423652611673,2.1825199127197266,4.548588438625,3.079806629102677e-05,0.30388692021369934,-1.5967376867877405,-0.0,0.0019172546453773975,0.8255864381790161,-0.0,-0.008371010422706604,0.7832781076431274,0.00010754235700005665,0.014814507216215134
255.0,282.0,2.4431,-0.1472,8.8768,-0.0414,0.018,-0.1316,-1.690512319604391,-0.00033101774170063436,2.6980714797973633,-1.6676243543624878,0.00014207490312401205,2.1755568981170654,4.548600359553955,2.977899021061603e-05,0.2874334454536438,-1.5967333952533167,-0.0,-0.01355616096407175,0.8255425691604614,-0.0,-0.002187283243983984,0.783266544342041,0.00012288228026591241,0.039460260421037674
255.0,282.0,2.4431,-0.1472,8.8768,-0.0414,0.018,-0.1316,-1.690512319604391,-0.0003270503948442638,2.7038750648498535,-1.6676925420761108,0.00012660952052101493,2.1668307781219482,4.548567934627197,2.8825237677665427e-05,0.29416048526763916,-1.596729580556051,-0.0,0.01003270037472248,0.8255302906036377,-0.0,-0.008280842565000057,0.7833467125892639,0.00011779076885432005,0.040610507130622864
255.0,282.0,2.4431,-0.1472,8.8768,-0.0414,0.018,-0.1316,-1.6904717884459437,-0.0002955824602395296,2.638488292694092,-1.6676398515701294,0.001432328368537128,2.1170592308044434,4.5486203867146,1.387110478390241e-05,0.30400514602661133,-1.596757713948385,-0.0,-0.012677254155278206,0.8255060911178589,-0.0,-0.007085469551384449,0.7832619547843933,0.00014715550059918314,-0.0512128621339798
255.0,282.0,2.4431,-0.1472,8.8768,-0.0414,0.018,-0.1316,-1.6905609569945277,-0.00030876375967636704,2.6858224868774414,-1.6676480770111084,0.00218388345092535,2.168910264968872,4.548567934627197,1.3344656508706976e-05,0.3014724552631378,-1.5967133680926722,-0.0,-0.00688756350427866,0.8255425691604614,-0.0,0.005965350195765495,0.7832701802253723,0.00039003678830340505,-0.0546414889395237
255.0,282.0,2.4431,-0.1472,8.8768,-0.0414,0.018,-0.1316,-1.690524240533346,-0.0004414344730321318,2.6083784103393555,-1.6676242351531982,0.0025961175560951233,2.1742382049560547,4.5486084657856445,1.2959842024429236e-05,0.307345986366272,-1.5967534224139612,-0.0,-0.001675621373578906,0.8255547285079956,-0.0,-0.016958383843302727,0.7833425402641296,0.0017258744919672608,-0.012159256264567375
255.0,282.0,2.4431,-0.1472,8.8768,-0.0414,0.018,-0.1316,-1.690540452996725,-0.0010877009481191635,2.6824941635131836,-1.667572021484375,0.003326646750792861,2.192079544067383,4.548576517696045,1.259705277334433e-05,0.2926752269268036,-1.596729580556051,-0.0,-0.0023416681215167046,0.8255343437194824,-0.0,-0.009472929872572422,0.7833141088485718,0.002393200760707259,-0.06456149369478226
255.0,282.0,2.4431,-0.1472,8.8768,-0.0414,0.018,-0.1316,-1.6905566654601039,-0.0015432133805006742,2.6873152256011963,-1.6675399541854858,0.005256888456642628,2.148388385772705,4.548584147090576,1.2089411029592156e-05,0.30499744415283203,-1.5967901388751429,-0.0,-0.004990387707948685,0.8254823684692383,-0.0,-0.006281924434006214,0.7833703756332397,0.003376365639269352,0.03725897893309593
255.0,282.0,2.4431,-0.1472,8.8768,-0.0414,0.018,-0.1316,-1.690564294854635,-0.0017064317362383008,2.6434719562530518,-1.6675399541854858,0.005502237007021904,2.1673662662506104,4.548607988948486,1.177312879008241e-05,0.29726043343544006,-1.5967538992511194,-0.0,-0.010284820571541786,0.8255425691604614,-0.0,0.003329800209030509,0.7833744883537292,0.004328290931880474,0.014451504684984684
255.0,282.0,2.4431,-0.1472,8.8768,-0.0414,0.018,-0.1316,-1.6906286678709925,-0.0016817919677123427,2.7099180221557617,-1.667487621307373,0.0061409249901771545,2.159825325012207,4.548571749324463,2.289573967573233e-05,0.30265969038009644,-1.5967782179461878,-0.0,0.006991703994572163,0.8255383968353271,-0.0,0.0024773532059043646,0.7834104895591736,0.005851675756275654,0.016732819378376007
255.0,282.0,2.4431,-0.1472,8.8768,-0.0414,0.018,-0.1316,-1.6905724010863246,-0.0020742369815707207,2.7068135738372803,-1.6675000190734863,0.007918503135442734,2.1602933406829834,4.548583670253418,2.237525950476993e-05,0.28558504581451416,-1.5967701117144983,-0.0,-0.003892148844897747,0.8255347609519958,-0.0,-0.000779671419877559,0.7834062576293945,0.0078070578165352345,-0.0398041307926178
255.0,282.0,2.4431,-0.1472,8.8768,-0.0414,0.018,-0.1316,-1.6905962429442347,-0.002188308397307992,2.6648969650268555,-1.6674363613128662,0.009872079826891422,2.192495584487915,4.548628492946289,2.157103517674841e-05,0.30316904187202454,-1.596717659627096,-0.0,-0.006631613243371248,0.8255302906036377,-0.0,-0.014054730534553528,0.7835227251052856,0.010269474238157272,0.003328129183501005
255.0,282.0,2.4431,-0.1472,8.8768,-0.0414,0.018,-0.1316,-1.6905962429442347,-0.0027914484962821007,2.7011232376098633,-1.6673963069915771,0.01158081740140915,2.179124355316162,4.548600359553955,3.1420320738106966e-05,0.2968498170375824,-1.5967376867877405,-0.0,0.008173387497663498,0.8255704045295715,-0.0,0.0031847022473812103,0.783614993095398,0.012611175887286663,0.05049588158726692
255.0,282.0,2.4431,-0.1472,8.8768,-0.0414,0.018,-0.1316,-1.6906124554076136,-0.003497933968901634,2.7116925716400146,-1.667336344718933,0.01293350663036108,2.129838466644287,4.5486036974140625,3.0875718948664144e-05,0.29778242111206055,-1.5967133680926722,-0.0,-0.004116637632250786,0.825558602809906,-0.0,0.002262381138280034,0.783639132976532,0.015214936807751656,-0.04294370487332344
255.0,282.0,2.4431,-0.1472,8.8768,-0.0414,0.018,-0.1316,-1.6906076870360316,-0.0034917474258691072,2.6631951332092285,-1.6672606468200684,0.014004543423652649,2.179142951965332,4.548607988948486,3.9911323256092146e-05,0.2967439889907837,-1.5967333952533167,-0.0,-0.014256780035793781,0.8254783153533936,-0.0,0.003955316264182329,0.7836989164352417,0.018068047240376472,0.05046277493238449
255.0,282.0,2.4431,-0.1472,8.8768,-0.0414,0.018,-0.1316,-1.6906606159605921,-0.0051633445546031,2.666689157485962,-1.6671322584152222,0.01645311340689659,2.193791389465332,4.548640413875244,3.9508271584054455e-05,0.2965995967388153,-1.5967333952533167,-0.0,-0.0045570251531898975,0.8254939913749695,-0.0,-0.009729310870170593,0.7838026285171509,0.023256972432136536,0.037765949964523315
255.0,282.0,2.4431,-0.1472,8.8768,-0.0414,0.018,-0.1316,-1.6906639538206996,-0.005942219402641058,2.6868197917938232,-1.6671082973480225,0.0177115797996521,2.2418971061706543,4.548595591182373,6.027098424965516e-05,0.3134433627128601,-1.5967538992511194,-0.0,-0.001347112818621099,0.8255622386932373,-0.0,-0.005627037957310677,0.7839550971984863,0.027291448786854744,0.00991703849285841
255.0,282.0,2.4431,-0.1472,8.8768,-0.0414,0.018,-0.1316,-1.6906916103758753,-0.00618272740393877,2.6499838829040527,-1.667012095451355,0.019161606207489967,2.186365842819214,4.5486365991779785,7.387128425762057e-05,0.2989995777606964,-1.5967901388751429,-0.0,-0.007393736392259598,0.8255462050437927,-0.0,-0.003560771234333515,0.7840714454650879,0.03230878338217735,0.08460508286952972
255.0,282.0,2.4431,-0.1472,8.8768,-0.0414,0.018,-0.1316,-1.6907440624632777,-0.007747420109808445,2.6488516330718994,-1.6669085025787354,0.018881672993302345,2.2034807205200195,4.548664255733154,0.0006331804324872792,0.3040790557861328,-1.596778694783346,-0.0,-0.006706014275550842,0.8255425691604614,-0.0,-0.01357996091246605,0.7842552661895752,0.036804892122745514,0.07404685020446777
255.0,282.0,2.4431,-0.1472,8.8768,-0.0414,0.018,-0.1316,-1.6908117733397425,-0.008675603196024895,2.6861367225646973,-1.6668002605438232,0.019414022564888,2.203000068664551,4.548667593593262,0.0005874708876945078,0.3039715588092804,-1.5967662970172327,-0.0,0.006671273149549961,0.8255343437194824,-0.0,-0.00901330541819334,0.7844196557998657,0.04195078834891319,0.03637084364891052
260.0,286.0,2.7123,-0.0568,9.0257,-0.0228,0.025,-0.1013,-1.6908604107298792,-0.009858017787337303,2.6728672981262207,-1.666719913482666,0.01867050491273403,2.2356433868408203,4.548619909877441,0.000511534686665982,0.30921846628189087,-1.5967372099505823,-0.0,0.006505797617137432,0.8255626559257507,-0.0,0.0020528046879917383,0.7845593094825745,0.043152209371328354,-0.006321355700492859
260.0,286.0,2.7123,-0.0568,9.0257,-0.0228,0.025,-0.1013,-1.6908794842162074,-0.011491813696920872,2.6456193923950195,-1.6666442155838013,0.01830165646970272,2.2413456439971924,4.548599882716797,0.00048631784738972783,0.3107457458972931,-1.5967333952533167,-0.0,0.006826873868703842,0.8255622386932373,-0.0,0.016207721084356308,0.7847154140472412,0.04602177441120148,0.022331275045871735
260.0,286.0,2.7123,-0.0568,9.0257,-0.0228,0.025,-0.1013,-1.6909839115538539,-0.013942921534180641,2.6951522827148438,-1.6665438413619995,0.01640421338379383,2.167877197265625,4.548663302058838,0.00040531327249482274,0.3266148567199707,-1.596729580556051,-0.0,0.008080050349235535,0.8255786299705505,-0.0,-0.0025248415768146515,0.7850602269172668,0.046522106975317,-0.017550380900502205
260.0,286.0,2.7123,-0.0568,9.0257,-0.0228,0.025,-0.1013,-1.6910597286620082,-0.0159743744879961,2.6251487731933594,-1.666472315788269,0.014576544985175133,2.1834535598754883,4.548679991359375,0.0004110072914045304,0.30184024572372437,-1.5967133680926722,-0.0,0.026213694363832474,0.8255380988121033,-0.0,0.004773958586156368,0.785159707069397,0.04537229239940643,0.06021427735686302
260.0,286.0,2.7123,-0.0568,9.0257,-0.0228,0.025,-0.1013,-1.6911193333067835,-0.018064718693494797,2.6339311599731445,-1.6664241552352905,0.012952584773302078,2.230272054672241,4.548660441035889,0.00041668396443128586,0.3109753429889679,-1.5967133680926722,-0.0,0.014999832957983017,0.8255221247673035,-0.0,0.005959436297416687,0.7853684425354004,0.04373765364289284,0.05664941668510437
260.0,286.0,2.7123,-0.0568,9.0257,-0.0228,0.025,-0.1013,-1.6911756000914515,-0.02011365443468094,2.615893602371216,-1.6664007902145386,0.011972717940807343,2.1737327575683594,4.548619909877441,0.00036842681583948433,0.3221196234226227,-1.5967581907855433,-0.0,0.017382612451910973,0.8255302906036377,-3.981157590260409e-07,0.005020880606025457,0.7855848073959351,0.0424884557723999,0.08465640991926193
260.0,286.0,2.7123,-0.0568,9.0257,-0.0228,0.025,-0.1013,-1.691359659234518,-0.022632187232375145,2.607173442840576,-1.6663117408752441,0.009078442119061947,2.19412899017334,4.548675699824951,0.00035798357566818595,0.3199811577796936,-1.5967662970172327,-0.0,0.01075029093772173,0.8254979252815247,-1.1081699446968685e-10,-0.014639206230640411,0.7858288288116455,0.040565215051174164,0.05019379407167435
260.0,286.0,2.7123,-0.0568,9.0257,-0.0228,0.025,-0.1013,-1.6913992367186488,-0.0240451842546463,2.633716106414795,-1.6663204431533813,0.00754416361451149,2.1799232959747314,4.548659487361572,0.00037210204754956067,0.31296777725219727,-1.5967701117144983,-0.0,0.005699580535292625,0.8254901170730591,-4.724302546388337e-13,-0.0011741657508537173,0.7860209941864014,0.04012259095907211,0.04812859743833542
260.0,286.0,2.7123,-0.0568,9.0257,-0.0228,0.025,-0.1013,-1.6915437183775843,-0.02423173189163208,2.6367807388305664,-1.6662919521331787,0.005684115923941135,2.201601982116699,4.548688097591064,0.00032018605270422995,0.31121084094047546,-1.596717659627096,-0.0,0.009722360409796238,0.8255626559257507,-2.0140442370369374e-15,-0.0034396694973111153,0.7861568331718445,0.04053674265742302,0.045097969472408295
260.0,286.0,2.7123,-0.0568,9.0257,-0.0228,0.025,-0.1013,-1.6916352711119593,-0.024000227451324463,2.6592648029327393,-1.6662919521331787,0.003990715369582176,2.1746973991394043,4.548639460200928,0.0002802810922730714,0.3148934841156006,-1.5967662970172327,-0.0,-0.002822950016707182,0.8255343437194824,-8.586186870679018e-18,0.00015523796901106834,0.7863774299621582,0.043380964547395706,0.10362274944782257
260.0,286.0,2.7123,-0.0568,9.0257,-0.0228,0.025,-0.1013,-1.6918112240233363,-0.02337281033396721,2.624603748321533,-1.666244387626648,0.0022986645344644785,2.1516566276550293,4.548639937038086,0.0002832510508596897,0.3199082612991333,-1.5967820326434534,-0.0,0.026498984545469284,0.8255541324615479,-2.3899966122009744e-21,-0.01304357685148716,0.7866454124450684,0.045617666095495224,0.04079970344901085
260.0,286.0,2.7123,-0.0568,9.0257,-0.0228,0.025,-0.1013,-1.6918746433653773,-0.022912655025720596,2.6445069313049316,-1.666260838508606,0.0015361037803813815,2.1371207237243652,4.548684282893799,0.00025644354172982275,0.3135678768157959,-1.5967496077166956,-0.0,0.010894989594817162,0.8254979252815247,-1.0188931396139115e-23,-0.010044225491583347,0.7868054509162903,0.048348333686590195,0.0510517843067646
260.0,286.0,2.7123,-0.0568,9.0257,-0.0228,0.025,-0.1013,-1.6919704876341761,-0.022866247221827507,2.6133222579956055,-1.666252613067627,0.000958478543907404,2.184359312057495,4.548656149501465,0.00023419460922013968,0.30212387442588806,-1.596773926411764,-0.0,0.0009120744653046131,0.8255422115325928,-4.343700796484173e-26,0.0025821528397500515,0.7870174646377563,0.05051887035369873,0.09417164325714111
260.0,286.0,2.7123,-0.0568,9.0257,-0.0228,0.025,-0.1013,-1.6920749149718226,-0.02235340140759945,2.6443734169006348,-1.6662640571594238,0.0007247834582813084,2.1836659908294678,4.548639937038086,0.00018021951836999506,0.30810850858688354,-1.5967333952533167,-0.0,0.018135732039809227,0.8255462646484375,-1.851788021171268e-28,0.003628756385296583,0.7872177958488464,0.05274966359138489,0.07358010113239288
260.0,286.0,2.7123,-0.0568,9.0257,-0.0228,0.025,-0.1013,-1.692258974114889,-0.023548433557152748,2.632894992828369,-1.6662039756774902,0.000538744789082557,2.1377177238464355,4.548656149501465,0.00016037838940974325,0.32488858699798584,-1.5967376867877405,-0.0,-0.0019624053966253996,0.8255745768547058,-5.15451980621589e-32,-0.0014425825793296099,0.7874614596366882,0.055233728140592575,0.03927669674158096
260.0,286.0,2.7123,-0.0568,9.0257,-0.0228,0.025,-0.1013,-1.6923066578307093,-0.02297123335301876,2.6084582805633545,-1.6662158966064453,0.00046004418982192874,2.157647132873535,4.548607512111328,0.00014970582560636103,0.30832919478416443,-1.5967538992511194,-0.0,0.01421174593269825,0.8255782127380371,-2.1974523794491354e-34,0.010522632859647274,0.7877541184425354,0.05669497326016426,0.08057717978954315
260.0,286.0,2.7123,-0.0568,9.0257,-0.0228,0.025,-0.1013,-1.6924106083311976,-0.021333618089556694,2.6583411693573,-1.6662360429763794,0.00040140628698281944,2.1711418628692627,4.548664255733154,0.00014036544598639011,0.3086448311805725,-1.596705738698141,-0.0,0.011200297623872757,0.8255942463874817,-9.368084256384636e-37,-0.010572240687906742,0.787998378276825,0.057486556470394135,0.0709926038980484
260.0,286.0,2.7123,-0.0568,9.0257,-0.0228,0.025,-0.1013,-1.6925422153868617,-0.019086681306362152,2.636655807495117,-1.6662650108337402,0.0003369846090208739,2.2225871086120605,4.548688097591064,0.00012835348024964333,0.29878365993499756,-1.5967538992511194,-0.0,-0.0038421032950282097,0.8255261778831482,-2.6076342733081223e-40,-0.0019935318268835545,0.788366973400116,0.060628946870565414,0.14794796705245972
260.0,286.0,2.7123,-0.0568,9.0257,-0.0228,0.025,-0.1013,-1.6926142177977503,-0.017552528530359268,2.6641271114349365,-1.6662282943725586,0.00030441556009463966,2.1601710319519043,4.548663302058838,0.0001214260482811369,0.32248568534851074,-1.5967419783221644,-0.0,-0.003420544322580099,0.8255622386932373,-1.11122968220958e-42,-0.008327550254762173,0.7886468768119812,0.06429744511842728,0.11721307784318924
252.0,279.0,2.2319,0.0443,8.7523,-0.0082,-0.007,-0.0654,-1.6926776371397914,-0.016768774017691612,2.6442408561706543,-1.666296124458313,0.0002775865432340652,2.1507198810577393,4.548667593593262,0.00011520818225108087,0.32088083028793335,-1.5967496077166956,-0.0,0.010988626629114151,0.8255622386932373,-4.203895392974451e-45,-0.003164864843711257,0.7889153957366943,0.06622178852558136,0.11193935573101044
252.0,279.0,2.2319,0.0443,8.7523,-0.0082,-0.007,-0.0654,-1.6927663288512171,-0.015428892336785793,2.655578136444092,-1.6662640571594238,0.00025510438717901707,2.176847219467163,4.548660441035889,0.0001095962361432612,0.30657947063446045,-1.5967257658587855,-0.0,-0.001182118896394968,0.8255701065063477,-0.0,-0.004615128971636295,0.7891955971717834,0.06960024684667587,0.13923388719558716
252.0,279.0,2.2319,0.0443,8.7523,-0.0082,-0.007,-0.0654,-1.6928054294981898,-0.0127035453915596,2.650811195373535,-1.6662485599517822,0.00022747069306205958,2.1878976821899414,4.548616095180176,0.00010213351924903691,0.32236796617507935,-1.596729580556051,-0.0,0.0168522447347641,0.825614333152771,-0.0,0.0026944451965391636,0.78961580991745,0.07513958215713501,0.14766070246696472
252.0,279.0,2.2319,0.0443,8.7523,-0.0082,-0.007,-0.0654,-1.692885538140768,-0.01194024458527565,2.6155898571014404,-1.6663285493850708,0.00021215064043644816,2.1275086402893066,4.548607512111328,9.769853932084516e-05,0.31831926107406616,-1.5967496077166956,4.893498726232792e-07,0.002703739097341895,0.825538158416748,-0.0,0.004644795786589384,0.7899442911148071,0.0787772610783577,0.19516319036483765
252.0,279.0,2.2319,0.0443,8.7523,-0.0082,-0.007,-0.0654,-1.6928893528380335,-0.011710472404956818,2.6255264282226562,-1.6662567853927612,0.0001987638243008405,2.1394314765930176,4.548640413875244,9.363269055029377e-05,0.3126686215400696,-1.5967496077166956,2.086175232562937e-09,0.00835263542830944,0.8255340456962585,-0.0,-0.01434445008635521,0.7902643084526062,0.08313397318124771,0.15304063260555267
252.0,279.0,2.2319,0.0443,8.7523,-0.0082,-0.007,-0.0654,-1.6930262051024378,-0.01003783568739891,2.642009735107422,-1.666260004043579,0.0002125983010046184,2.182374954223633,4.548640413875244,8.989182970253751e-05,0.30077996850013733,-1.5967419783221644,8.893691338940357e-12,0.007638124283403158,0.825558602809906,-0.0,0.013314343988895416,0.790600597858429,0.08501700311899185,0.17115084826946259
252.0,279.0,2.2319,0.0443,8.7523,-0.0082,-0.007,-0.0654,-1.6930095158019007,-0.008912800811231136,2.675725221633911,-1.6662040948867798,0.00019702824647538364,2.1718637943267822,4.548656149501465,8.480929682264104e-05,0.3185778260231018,-1.5967133680926722,2.475591854721095e-15,0.012148162350058556,0.8255380988121033,-0.0,-0.0011118128895759583,0.7911088466644287,0.08713851869106293,0.16293664276599884
252.0,279.0,2.2319,0.0443,8.7523,-0.0082,-0.007,-0.0654,-1.693029066125387,-0.007898268289864063,2.605404853820801,-1.6662205457687378,0.00014183972962200642,2.1442761421203613,4.548667593593262,8.172862726496533e-05,0.3236323595046997,-1.596733872090475,1.055383530816402e-17,0.011317473836243153,0.825614333152771,-0.0,0.0028593242168426514,0.7915297150611877,0.0901493951678276,0.13922905921936035
252.0,279.0,2.2319,0.0443,8.7523,-0.0082,-0.007,-0.0654,-1.6930977306761683,-0.006855106446892023,2.6684603691101074,-1.6662405729293823,0.00015987041115295142,2.133786201477051,4.548683806056641,7.88639736128971e-05,0.3240102231502533,-1.5967419783221644,4.4992660575186374e-20,0.0029349406249821186,0.825614333152771,-0.0,0.019940709695219994,0.7918496131896973,0.09416984021663666,0.16496679186820984
252.0,279.0,2.2319,0.0443,8.7523,-0.0082,-0.007,-0.0654,-1.6930896244444789,-0.00605637114495039,2.6494617462158203,-1.6662278175354004,0.0005360426148399711,2.196037769317627,4.548628016109131,7.6193296990823e-05,0.3124006986618042,-1.5967214743243616,1.9181077179802e-22,0.007091361563652754,0.8255540728569031,-0.0,0.006249619647860527,0.7922421097755432,0.09691908955574036,0.19974273443222046
252.0,279.0,2.2319,0.0443,8.7523,-0.0082,-0.007,-0.0654,-1.693124910394186,-0.004563768394291401,2.657125473022461,-1.6662123203277588,0.0007564256084151566,2.1980979442596436,4.5486718851276855,7.251004717545584e-05,0.3122961223125458,-1.5967095533954065,5.339122772695769e-26,0.009250451810657978,0.825614333152771,-0.0,0.005369752645492554,0.7929065823554993,0.1024121418595314,0.19214114546775818
252.0,279.0,2.2319,0.0443,8.7523,-0.0082,-0.007,-0.0654,-1.693096777001852,-0.003796154400333762,2.6828293800354004,-1.666191577911377,0.000999552896246314,2.1278743743896484,4.548647566432617,7.02462566550821e-05,0.33476442098617554,-1.5967095533954065,2.276152119571791e-28,-0.0017570808995515108,0.825577974319458,-0.0,0.00465988926589489,0.7932749390602112,0.10160070657730103,0.17774933576583862
252.0,279.0,2.2319,0.0443,8.7523,-0.0082,-0.007,-0.0654,-1.6931659183897914,-0.003373845014721155,2.664764404296875,-1.6662323474884033,0.0009963276097550988,2.201099395751953,4.548664255733154,6.81195524521172e-05,0.3219074606895447,-1.5967376867877405,9.703593018580304e-31,0.011882411316037178,0.8255579471588135,-0.0,0.013121489435434341,0.7936875224113464,0.10056781023740768,0.12748309969902039
252.0,279.0,2.2319,0.0443,8.7523,-0.0082,-0.007,-0.0654,-1.6931654415526332,-0.0026613494846969843,2.682612180709839,-1.6662205457687378,0.0012030026409775019,2.16282320022583,4.548648043269775,6.516042776638642e-05,0.31846269965171814,-1.5967376867877405,2.701030945099038e-34,0.010272632353007793,0.8255341053009033,-0.0,0.004623986780643463,0.7943119406700134,0.09934578090906143,0.12327000498771667
252.0,279.0,2.2319,0.0443,8.7523,-0.0082,-0.007,-0.0654,-1.6932093105711878,-0.0029881419613957405,2.67545747756958,-1.6662205457687378,0.0013862071791663766,2.150825262069702,4.548683806056641,6.33264789939858e-05,0.3083541989326477,-1.5967214743243616,1.151491655161908e-36,0.010208353400230408,0.825542151927948,-0.0,0.012255216017365456,0.7946555614471436,0.09985148906707764,0.1207306832075119
252.0,279.0,2.2319,0.0443,8.7523,-0.0082,-0.007,-0.0654,-1.6932136021056117,-0.0033736845944076777,2.6851770877838135,-1.6661677360534668,0.0013036943273618817,2.151644229888916,4.5486437517353515,6.159292388474569e-05,0.3254185616970062,-1.59674579301943,4.908989543865698e-39,0.006933399476110935,0.8255459666252136,-0.0,-0.0035604459699243307,0.7951045036315918,0.10124737024307251,0.15993726253509521
252.0,279.0,2.2319,0.0443,8.7523,-0.0082,-0.007,-0.0654,-1.6932455501952113,-0.0036552955862134695,2.668593406677246,-1.6661802530288696,0.0011372106382623315,2.168583631515503,4.54858319341626,5.995178435114212e-05,0.32282987236976624,-1.596705738698141,2.0928392564691143e-41,0.006444163154810667,0.8255020380020142,-0.0,0.009439821355044842,0.7954927086830139,0.10179340094327927,0.15177154541015625
252.0,279.0,2.2319,0.0443,8.7523,-0.0082,-0.007,-0.0654,-1.6932374439635218,-0.003029110375791788,2.6618242263793945,-1.6662122011184692,0.0009815016528591514,2.202054977416992,4.548639460200928,5.764774323324673e-05,0.32957011461257935,-1.5967782179461878,5.605193857299268e-45,0.01872330717742443,0.8255422115325928,-0.0,0.004872730001807213,0.7961092591285706,0.10121812671422958,0.142557293176651
252.0,279.0,2.2319,0.0443,8.7523,-0.0082,-0.007,-0.0654,-1.6932250461974085,-0.0026128399185836315,2.6402976512908936,-1.66615629196167,0.0012639268534258008,2.2216649055480957,4.548692389125488,5.620763113256544e-05,0.3314608335494995,-1.5967214743243616,0.0,0.003979749046266079,0.8255663514137268,-0.0,0.002095878357067704,0.7965213656425476,0.1023460254073143,0.15813587605953217
252.0,279.0,2.2319,0.0443,8.7523,-0.0082,-0.007,-0.0654,-1.6932574711241664,-0.0021525269839912653,2.6561264991760254,-1.6661646366119385,0.0015302158426493406,2.180893659591675,4.548656149501465,5.4837710194988176e-05,0.3267836570739746,-1.5967376867877405,0.0,-0.004751394968479872,0.825577974319458,-0.0,-0.002284127986058593,0.7969133853912354,0.10645141452550888,0.15883103013038635
252.0,278.0,2.5813,-0.5001,9.2608,-0.0263,0.0203,-0.0301,-1.6933137379088343,-0.0017971998313441873,2.6568055152893066,-1.6661686897277832,0.0017852324526757002,2.198831558227539,4.548675699824951,5.353302549337968e-05,0.32994529604911804,-1.596677605305807,0.0,0.00024036853574216366,0.8255380988121033,-0.0,0.0007347760256379843,0.7973299026489258,0.11243803054094315,0.14664243161678314
252.0,278.0,2.5813,-0.5001,9.2608,-0.0263,0.0203,-0.0301,-1.6932693920531214,-0.001385512761771679,2.6986987590789795,-1.6661485433578491,0.0016663824208080769,2.1799256801605225,4.548628016109131,5.168836651137099e-05,0.32684531807899475,-1.5967181364642542,0.0,-0.0013327575288712978,0.8254938721656799,-0.0,0.016047365963459015,0.7980509996414185,0.1166822761297226,0.15452846884727478
252.0,278.0,2.5813,-0.5001,9.2608,-0.0263,0.0203,-0.0301,-1.6932693920531214,-0.0009207442053593695,2.7060186862945557,-1.6661521196365356,0.001507284352555871,2.1969778537750244,4.548679991359375,5.052762571722269e-05,0.32502079010009766,-1.5967419783221644,0.0,0.007150987628847361,0.825590193271637,-0.0,0.002164188539609313,0.7985312342643738,0.1161065623164177,0.20373135805130005
252.0,278.0,2.5813,-0.5001,9.2608,-0.0263,0.0203,-0.0301,-1.693245073358053,-0.0007834049174562097,2.659367561340332,-1.66618013381958,0.0014265255304053426,2.222299098968506,4.548628016109131,1.2697200872935355e-05,0.32888907194137573,-1.5967581907855433,0.0,0.013496508821845055,0.825590193271637,-0.0,0.023471318185329437,0.7989674806594849,0.11190436780452728,0.16906139254570007
252.0,278.0,2.5813,-0.5001,9.2608,-0.0263,0.0203,-0.0301,-1.6933213673033656,-0.0006072539836168289,2.7005629539489746,-1.6662089824676514,0.0016477277968078852,2.180614709854126,4.548675699824951,5.413015813360289e-08,0.33347153663635254,-1.5967500845538538,0.0,0.0013649420579895377,0.8255459666252136,-0.0,0.009926201775670052,0.7993676066398621,0.1075453981757164,0.15827086567878723
252.0,278.0,2.5813,-0.5001,9.2608,-0.0263,0.0203,-0.0301,-1.6933175526061,-0.0006021664594300091,2.684131145477295,-1.6661242246627808,0.0024111156817525625,2.1844279766082764,4.548639460200928,1.5067329328655177e-11,0.3307459354400635,-1.5967300573932093,0.0,0.0074882968328893185,0.8255701065063477,-0.0,0.012262102216482162,0.8000605702400208,0.1021934375166893,0.17023682594299316
252.0,278.0,2.5813,-0.5001,9.2608,-0.0263,0.0203,-0.0301,-1.6932975254454554,-0.0005164070171304047,2.7015461921691895,-1.6661159992218018,0.0025358323473483324,2.225339889526367,4.548667593593262,6.423439118932381e-14,0.33738845586776733,-1.596733872090475,0.0,0.0042611681856215,0.8255581855773926,-0.0,0.011153903789818287,0.8004891872406006,0.09930185973644257,0.16677694022655487
252.0,278.0,2.5813,-0.5001,9.2608,-0.0263,0.0203,-0.0301,-1.6933251820006312,-0.0005845226114615798,2.7048861980438232,-1.6661282777786255,0.002408164320513606,2.2336037158966064,4.548619909877441,2.738412784545626e-16,0.3322714567184448,-1.5966618696795862,0.0,0.016972582787275314,0.825529932975769,-0.0,0.009001517668366432,0.8008084893226624,0.09742144495248795,0.13269104063510895
252.0,278.0,2.5813,-0.5001,9.2608,-0.0263,0.0203,-0.0301,-1.6932975254454554,-0.0007159581291489303,2.7021517753601074,-1.6660921573638916,0.0028731091879308224,2.160370349884033,4.548651857967041,7.622472575850418e-20,0.32983845472335815,-1.596705738698141,0.0,-8.0933328717947e-05,0.8255622386932373,-0.0,0.013291925191879272,0.8013449311256409,0.08982259780168533,0.13833676278591156
252.0,278.0,2.5813,-0.5001,9.2608,-0.0263,0.0203,-0.0301,-1.6933218441405238,-0.000543011527042836,2.708199977874756,-1.6660683155059814,0.0031053966376930475,2.2026357650756836,4.548708124751709,3.2495795917726465e-22,0.3295133113861084,-1.5967538992511194,0.0,0.007850414142012596,0.8255581855773926,-0.0,0.007197943516075611,0.8017135262489319,0.0903448835015297,0.10614673793315887
252.0,278.0,2.5813,-0.5001,9.2608,-0.0263,0.0203,-0.0301,-1.6932651005186976,-0.0004373887204565108,2.6987810134887695,-1.6660444736480713,0.00449034757912159,2.189002752304077,4.548656149501465,4.319666459196014e-06,0.3307139277458191,-1.596677605305807,0.0,0.0025148389395326376,0.8255663514137268,-0.0,0.009849285706877708,0.8020977973937988,0.09164773672819138,0.1307474672794342
252.0,278.0,2.5813,-0.5001,9.2608,-0.0263,0.0203,-0.0301,-1.693261285821432,-0.00036617834120988846,2.7292323112487793,-1.6659835577011108,0.00532181654125452,2.201155185699463,4.548655195827148,1.8415414970718302e-08,0.34254181385040283,-1.5967181364642542,0.0,0.006139264442026615,0.8255782723426819,-0.0,-0.0032272106036543846,0.8024702072143555,0.09439143538475037,0.12121688574552536
252.0,278.0,2.5813,-0.5001,9.2608,-0.0263,0.0203,-0.0301,-1.6932693920531214,-0.0002943129511550069,2.714808464050293,-1.6660081148147583,0.006483500357717276,2.1774778366088867,4.548651857967041,5.1259985839324784e-12,0.3471027612686157,-1.5967181364642542,0.0,0.011081773787736893,0.8254896998405457,-0.0,0.01626810058951378,0.8029944896697998,0.0965137705206871,0.14239579439163208
252.0,278.0,2.5813,-0.5001,9.2608,-0.0263,0.0203,-0.0301,-1.6932736835875453,-0.00026026321575045586,2.684849262237549,-1.6660245656967163,0.0076309810392558575,2.184049606323242,4.548663302058838,2.1852938431260807e-14,0.3457523584365845,-1.5967381636248987,0.0,8.459016680717468e-05,0.8255422115325928,-0.0,0.013767612166702747,0.8032943606376648,0.09630248695611954,0.08539897203445435
252.0,278.0,2.5813,-0.5001,9.2608,-0.0263,0.0203,-0.0301,-1.6932369671263636,-0.000233276208746247,2.72861909866333,-1.6659398078918457,0.008372874930500984,2.2019217014312744,4.548660441035889,9.316250689054032e-17,0.33374595642089844,-1.5967138449298304,0.0,0.008725950494408607,0.825590193271637,-0.0,0.010697411373257637,0.8037553429603577,0.09469445794820786,0.10794427245855331
252.0,278.0,2.5813,-0.5001,9.2608,-0.0263,0.0203,-0.0301,-1.693245073358053,-0.000211360355024226,2.7032508850097656,-1.6659045219421387,0.008859219960868359,2.2171497344970703,4.548700495357178,3.9716637672033205e-19,0.3391497731208801,-1.5967095533954065,0.0,0.009292792528867722,0.8255864381790161,-0.0,0.0020157687831670046,0.8041433095932007,0.09188661724328995,0.11484131962060928
252.0,278.0,2.5813,-0.5001,9.2608,-0.0263,0.0203,-0.0301,-1.6932569942870082,-0.00021792350162286311,2.702510356903076,-1.6658114194869995,0.009816653095185757,2.208970546722412,4.548679991359375,1.105527216843258e-22,0.3383897840976715,-1.5967138449298304,0.0,-0.0018494224641472101,0.8255622386932373,-0.0,-0.006787448190152645,0.8046837449073792,0.08839641511440277,0.10702577978372574
252.0,278.0,2.5813,-0.5001,9.2608,-0.0263,0.0203,-0.0301,-1.6933170757689417,-0.00023558294924441725,2.733070135116577,-1.6657596826553345,0.00981959979981184,2.198596715927124,4.548675699824951,4.713035673177094e-25,0.34751468896865845,-1.5967062155352991,0.0,0.017959844321012497,0.8255462646484375,-0.0,-0.0014345892705023289,0.8050118684768677,0.08674763143062592,0.12866848707199097
252.0,278.0,2.5813,-0.5001,9.2608,-0.0263,0.0203,-0.0301,-1.6933418713011683,-0.00025536169414408505,2.7322568893432617,-1.6657679080963135,0.008964921347796917,2.2729427814483643,4.548692389125488,2.0092408589565667e-27,0.32388967275619507,-1.5966857115374964,0.0,-0.005664176773279905,0.8255462646484375,-0.0,0.02305017225444317,0.8053602576255798,0.08455831557512283,0.11539770662784576
252.0,278.0,2.5813,-0.5001,9.2608,-0.0263,0.0203,-0.0301,-1.6932851276793421,-0.00023862642410676926,2.741016387939453,-1.665748119354248,0.008140774443745613,2.2602648735046387,4.548679991359375,8.565709596927831e-30,0.3444218337535858,-1.5967219511615198,0.0,0.016195788979530334,0.8255942463874817,-0.0,0.011697985231876373,0.8057169318199158,0.07864096760749817,0.10673294216394424
252.0,279.0,2.8708,0.8674,9.0108,0.0574,0.0195,-0.0318,-1.693312784234518,-0.0012268745340406895,2.7493910789489746,-1.665752649307251,0.007454728242009878,2.1658787727355957,4.548688097591064,2.384296701417109e-33,0.34483134746551514,-1.5966938177691858,0.0,0.008801896125078201,0.8255701065063477,-0.0,0.008748128078877926,0.8061164021492004,0.07173927128314972,0.10491740703582764
252.0,279.0,2.8708,0.8674,9.0108,0.0574,0.0195,-0.0318,-1.6933418713011683,-0.0010224587749689817,2.730677604675293,-1.6656839847564697,0.007200459484010935,2.237318515777588,4.548631353969238,1.0164631091114196e-35,0.3416043519973755,-1.5967300573932093,0.0,-0.0021757858339697123,0.8255541324615479,-0.0,0.014136062003672123,0.8064209818840027,0.06649129837751389,0.111625537276268
252.0,279.0,2.8708,0.8674,9.0108,0.0574,0.0195,-0.0318,-1.6933008633055628,-0.0007709033670835197,2.758635997772217,-1.6656641960144043,0.0075569795444607735,2.23598051071167,4.548656149501465,4.3333414596552276e-38,0.3468124270439148,-1.5966976324664515,0.0,0.008084401488304138,0.8255380988121033,-0.0,0.0031951451674103737,0.8066812753677368,0.06253069639205933,0.0873953178524971
252.0,279.0,2.8708,0.8674,9.0108,0.0574,0.0195,-0.0318,-1.6933213673033656,-0.0006886494229547679,2.706997871398926,-1.665636658668518,0.007322885096073151,2.2595722675323486,4.5486437517353515,1.847373804473336e-40,0.3403667211532593,-1.5966656843768519,0.0,0.010538015514612198,0.8254938721656799,-0.0,-0.0011543427826836705,0.8068366050720215,0.05960935726761818,0.14500759541988373
252.0,279.0,2.8708,0.8674,9.0108,0.0574,0.0195,-0.0318,-1.6932927570738734,-0.0005776254693046212,2.713937759399414,-1.665571928024292,0.00797343160957098,2.2584421634674072,4.548688097591064,5.184804318001823e-44,0.33692312240600586,-1.5967538992511194,0.0,0.0031341775320470333,0.8255541324615479,-0.0,0.008248847909271717,0.8072534203529358,0.05747509002685547,0.11497172713279724
252.0,279.0,2.8708,0.8674,9.0108,0.0574,0.0195,-0.0318,-1.6933375797667445,-0.0005363541422411799,2.724362373352051,-1.6655203104019165,0.008217559196054935,2.235067844390869,4.548679991359375,0.0,0.35341790318489075,-1.5967062155352991,0.0,-0.0008824898395687342,0.8255741596221924,-0.0,0.009263550862669945,0.8074494004249573,0.05750789865851402,0.0404115654528141
252.0,279.0,2.8708,0.8674,9.0108,0.0574,0.0195,-0.0318,-1.6933008633055628,-0.00048510602209717035,2.763552665710449,-1.6655480861663818,0.008398937992751598,2.1992766857147217,4.548712416286133,0.0,0.34835126996040344,-1.5967300573932093,0.0,-0.0034270903561264277,0.8255540728569031,-0.0,0.01081473845988512,0.8076937198638916,0.058944422751665115,0.10835879296064377
252.0,279.0,2.8708,0.8674,9.0108,0.0574,0.0195,-0.0318,-1.6933337650694789,-0.00039902879507280886,2.725987434387207,-1.6654486656188965,0.010040698572993279,2.20432186126709,4.548696203822754,0.0,0.34887877106666565,-1.5967300573932093,0.0,0.004940067883580923,0.8255983591079712,-0.0,0.012414862401783466,0.8080663681030273,0.06182844191789627,0.07607850432395935
252.0,279.0,2.8708,0.8674,9.0108,0.0574,0.0195,-0.0318,-1.6933614216246546,-0.00046301641850732267,2.694115161895752,-1.6653794050216675,0.009831513278186321,2.228261709213257,4.54869191228833,0.0,0.3388291299343109,-1.5966976324664515,0.0,-0.002149341395124793,0.8255782723426819,-0.0,0.01781444065272808,0.8082903623580933,0.062679223716259,0.11410197615623474
252.0,279.0,2.8708,0.8674,9.0108,0.0574,0.0195,-0.0318,-1.6933533153929652,-0.0007959003560245037,2.7413573265075684,-1.6654201745986938,0.010023791342973709,2.2269558906555176,4.548667593593262,0.0,0.33922943472862244,-1.5966737906085413,0.0,0.0024039004929363728,0.8255820274353027,-0.0,0.011662977747619152,0.8085266351699829,0.06343328952789307,0.11616520583629608
252.0,279.0,2.8708,0.8674,9.0108,0.0574,0.0195,-0.0318,-1.693329473535055,-0.0008350724237971008,2.7339468002319336,-1.6653193235397339,0.010609825141727924,2.192479133605957,4.548624201411865,0.0,0.3407963812351227,-1.5966976324664515,0.0,-0.006668225862085819,0.825518012046814,-0.0,0.010983331128954887,0.8087869882583618,0.06372694671154022,0.07362695783376694
252.0,279.0,2.8708,0.8674,9.0108,0.0574,0.0195,-0.0318,-1.6933733425536097,-0.001320113893598318,2.7782669067382812,-1.6652803421020508,0.012515745125710964,2.22908353805542,4.548624201411865,0.0,0.3393336534500122,-1.596733872090475,0.0,-0.004319814033806324,0.8255782127380371,-0.0,-0.0033884197473526,0.8091667294502258,0.06346981227397919,0.1001199334859848
252.0,279.0,2.8708,0.8674,9.0108,0.0574,0.0195,-0.0318,-1.6934133968748988,-0.0014374953461810946,2.7570347785949707,-1.6652445793151855,0.013156802393496037,2.249572277069092,4.548624201411865,0.0,0.34211093187332153,-1.5966976324664515,0.0,0.006276407279074192,0.8255343437194824,-0.0,-0.0012468536151573062,0.8094192743301392,0.061305008828639984,0.051084209233522415
252.0,279.0,2.8708,0.8674,9.0108,0.0574,0.0195,-0.0318,-1.6933771572508753,-0.0019986547995358706,2.699998378753662,-1.665200114250183,0.014412078075110912,2.2086856365203857,4.548651857967041,0.0,0.3518882691860199,-1.5966699759112757,0.0,0.005752953235059977,0.8255663514137268,-0.0,0.006031594704836607,0.80962735414505,0.059860825538635254,0.062356941401958466
252.0,279.0,2.8708,0.8674,9.0108,0.0574,0.0195,-0.0318,-1.6933971844115199,-0.002336574252694845,2.715853691101074,-1.6651079654693604,0.015748968347907066,2.2269978523254395,4.5486437517353515,0.0,0.34827935695648193,-1.5967181364642542,0.0,0.010587181895971298,0.8255823254585266,-0.0,0.011198044754564762,0.8099235892295837,0.059802714735269547,0.09055352956056595
252.0,279.0,2.8708,0.8674,9.0108,0.0574,0.0195,-0.0318,-1.6934172115721644,-0.0027773298788815737,2.748887062072754,-1.6650198698043823,0.01801390014588833,2.249664068222046,4.548667593593262,0.0,0.34107425808906555,-1.5966656843768519,0.0,-3.193016164004803e-05,0.8255983591079712,-0.0,0.014623669907450676,0.8102115988731384,0.056722838431596756,0.06456228345632553
252.0,279.0,2.8708,0.8674,9.0108,0.0574,0.0195,-0.0318,-1.693364759484762,-0.002902242122218013,2.699489116668701,-1.6650047302246094,0.018967611715197563,2.2260656356811523,4.548632307643555,0.0,0.34255748987197876,-1.5966618696795862,0.0,0.008959874510765076,0.825638473033905,-0.0,0.009942563250660896,0.8104556798934937,0.0531822144985199,0.031600140035152435
252.0,279.0,2.8708,0.8674,9.0108,0.0574,0.0195,-0.0318,-1.6934167347350062,-0.003144229296594858,2.6929969787597656,-1.6648797988891602,0.021718759089708328,2.2311387062072754,4.548616095180176,0.0,0.3349595367908478,-1.5966857115374964,0.0,0.0016569879371672869,0.8255139589309692,-0.0,-0.0032095653004944324,0.8106839656829834,0.050894368439912796,-0.02862086333334446
252.0,279.0,2.8708,0.8674,9.0108,0.0574,0.0195,-0.0318,-1.6934448681273402,-0.003389769932255149,2.7153806686401367,-1.6647639274597168,0.023213282227516174,2.205951452255249,4.548688097591064,0.0,0.34030479192733765,-1.5966575781451624,0.0,0.007730687037110329,0.8255176544189453,-0.0,0.0056643737480044365,0.8108762502670288,0.04571672901511192,0.07578514516353607
251.0,280.0,2.6608,-0.0215,9.0844,-0.0452,0.0341,-0.0564,-1.693461080590719,-0.004145057871937752,2.7120800018310547,-1.664628267288208,0.02698877453804016,2.255316972732544,4.548679991359375,0.0,0.3470107316970825,-1.5967219511615198,0.0,-0.0003663250245153904,0.8255261778831482,-0.0,0.01400753203779459,0.8111846446990967,0.040313590317964554,0.009005039930343628
251.0,280.0,2.6608,-0.0215,9.0844,-0.0452,0.0341,-0.0564,-1.6934768162169398,-0.0048608542419970036,2.746507167816162,-1.664507508277893,0.02917219139635563,2.2762606143951416,4.5486036974140625,2.4343522454728372e-05,0.3397204875946045,-1.5967062155352991,0.0,0.006107863038778305,0.8256102800369263,-0.0,0.012447822839021683,0.8113082051277161,0.03644156828522682,0.0421256348490715
251.0,280.0,2.6608,-0.0215,9.0844,-0.0452,0.0341,-0.0564,-1.6934925518431605,-0.005550775211304426,2.7515275478363037,-1.6643837690353394,0.030961858108639717,2.225600481033325,4.548639460200928,2.5490036932751536e-05,0.3365921378135681,-1.596762482319967,0.0,-0.0009068740764632821,0.825550377368927,-0.0,0.016970230266451836,0.8114606142044067,0.03284827619791031,0.04568827897310257
251.0,280.0,2.6608,-0.0215,9.0844,-0.0452,0.0341,-0.0564,-1.693556924859518,-0.006938395090401173,2.7398743629455566,-1.6641759872436523,0.03458331525325775,2.2374038696289062,4.548607512111328,2.4458711777697317e-05,0.328012615442276,-1.5966742674456995,0.0,-0.0005592871457338333,0.8255619406700134,-0.0,0.010649455711245537,0.8116771578788757,0.028104908764362335,0.04355165362358093
251.0,280.0,2.6608,-0.0215,9.0844,-0.0452,0.0341,-0.0564,-1.6936050854124964,-0.008053703233599663,2.710794448852539,-1.6641007661819458,0.0374453142285347,2.2301008701324463,4.548651857967041,2.3811615392332897e-05,0.3363918662071228,-1.5966857115374964,0.0,0.0056481994688510895,0.8255020380020142,-0.0,0.005475493613630533,0.8117566108703613,0.025266133248806,0.04183416813611984
251.0,280.0,2.6608,-0.0215,9.0844,-0.0452,0.0341,-0.0564,-1.693625112573141,-0.008692129515111446,2.7572379112243652,-1.6638678312301636,0.040869127959012985,2.267202854156494,4.548635645503662,2.319786472071428e-05,0.3485177755355835,-1.5966737906085413,0.0,0.011504127644002438,0.8256384134292603,-0.0,0.007204616442322731,0.81182461977005,0.023185137659311295,0.051546141505241394
251.0,280.0,2.6608,-0.0215,9.0844,-0.0452,0.0341,-0.0564,-1.6937014065184535,-0.009351587854325771,2.6712021827697754,-1.6637362241744995,0.04440134018659592,2.2699761390686035,4.548664255733154,2.2614951376453973e-05,0.348283976316452,-1.5966938177691858,0.0,-0.00482961256057024,0.8255099654197693,-0.0,0.00729342270642519,0.8119329214096069,0.02018941007554531,0.05781727284193039
251.0,280.0,2.6608,-0.0215,9.0844,-0.0452,0.0341,-0.0564,-1.6937328777708949,-0.010741856880486012,2.724311113357544,-1.6634559631347656,0.050524838268756866,2.353893280029297,4.548628016109131,1.2317119399085641e-05,0.3470826745033264,-1.5966900030719202,0.0,0.009554958902299404,0.8255380988121033,-0.0,0.006564079783856869,0.8120208978652954,0.016704434528946877,0.020903877913951874
251.0,280.0,2.6608,-0.0215,9.0844,-0.0452,0.0341,-0.0564,-1.6937772236266078,-0.012065727263689041,2.7068989276885986,-1.663243055343628,0.05503423139452934,2.279926300048828,4.548651857967041,1.0645194379321765e-05,0.3391631841659546,-1.5966737906085413,0.0,0.0075388881377875805,0.8255422115325928,-0.0,0.01396702416241169,0.8121252059936523,0.014383352361619473,0.018212800845503807
251.0,280.0,2.6608,-0.0215,9.0844,-0.0452,0.0341,-0.0564,-1.6938206158080042,-0.013626962900161743,2.668236255645752,-1.6629791259765625,0.05927645415067673,2.3008110523223877,4.5486365991779785,1.7648548578108603e-07,0.33772990107536316,-1.5966976324664515,0.0,0.01783045381307602,0.8254653811454773,-0.0,0.014185165986418724,0.8121732473373413,0.01240761298686266,0.04155956208705902
251.0,280.0,2.6608,-0.0215,9.0844,-0.0452,0.0341,-0.0564,-1.6938969097533167,-0.015738142654299736,2.7026703357696533,-1.6627882719039917,0.06491366773843765,2.2911157608032227,4.5486365991779785,7.523852652013829e-10,0.35029685497283936,-1.5966938177691858,0.0,0.010652266442775726,0.8255982995033264,-0.0,-0.0010532061569392681,0.8121650815010071,0.010728027671575546,-0.03799920156598091
251.0,280.0,2.6608,-0.0215,9.0844,-0.0452,0.0341,-0.0564,-1.6940247021117152,-0.020144876092672348,2.6407506465911865,-1.6623475551605225,0.07381932437419891,2.3001604080200195,4.548624201411865,2.0942918081169604e-13,0.3338842988014221,-1.5967100302325647,0.0,-1.9099563360214233e-05,0.8256180882453918,-0.0,0.003804515115916729,0.812228798866272,0.00825442373752594,0.006803075782954693
251.0,280.0,2.6608,-0.0215,9.0844,-0.0452,0.0341,-0.0564,-1.6940843067564906,-0.023889990523457527,2.6385762691497803,-1.6620155572891235,0.07888194918632507,2.309330463409424,4.548644705409668,8.928294776134986e-16,0.33856070041656494,-1.5966900030719202,0.0,0.018752122297883034,0.8255020976066589,-0.0,-0.006544990465044975,0.8122243881225586,0.007152431178838015,0.045131999999284744
251.0,280.0,2.6608,-0.0215,9.0844,-0.0452,0.0341,-0.0564,-1.6941763363280238,-0.02862638048827648,2.644993305206299,-1.6617077589035034,0.08321704715490341,2.2955029010772705,4.548611803645752,3.8062724158433694e-18,0.3401148021221161,-1.5966699759112757,0.0,0.009858516976237297,0.8255701065063477,-0.0,0.0012334352359175682,0.8122809529304504,0.005974917206913233,-0.014906873926520348
251.0,280.0,2.6608,-0.0215,9.0844,-0.0452,0.0341,-0.0564,-1.6943322620787562,-0.031493041664361954,2.6540584564208984,-1.661335825920105,0.08484562486410141,2.2949066162109375,4.548664255733154,1.6226735837380254e-20,0.35135239362716675,-1.5966489950763147,0.0,0.012462581507861614,0.8255462646484375,-0.0,0.01570894569158554,0.8122806549072266,0.00441994471475482,-0.006298469379544258
