ramyac6/ROB537/final_project/csv/test/bad/bad_128.csv
tof_0,tof_1,accelx,accely,accelz,gyrox,gyroy,gyroz,shoulder_lift_joint_position,shoulder_lift_joint_velocity,shoulder_lift_joint_effort,elbow_joint_position,elbow_joint_velocity,elbow_joint_effort,wrist_1_joint_position,wrist_1_joint_velocity,wrist_1_joint_effort,wrist_2_joint_position,wrist_2_joint_velocity,wrist_2_joint_effort,wrist_3_joint_position,wrist_3_joint_velocity,wrist_3_joint_effort,shoulder_pan_joint_position,shoulder_pan_joint_velocity,shoulder_pan_joint_effort
301.0,303.0,-0.4349,0.2536,9.5222,-0.0389,0.0208,-0.1124,-1.7805496654906214,0.0,2.8855319023132324,-1.8164987564086914,8.447933395899417e-21,1.9568490982055664,5.093928086548605,0.0,0.27484893798828125,-1.5967538992511194,-0.0,-0.0033686936367303133,0.7979806661605835,-0.0,-0.003492375137284398,0.8364671468734741,0.0,0.0016107254195958376
301.0,303.0,-0.4349,0.2536,9.5222,-0.0389,0.0208,-0.1124,-1.7805377445616664,0.0,2.915020704269409,-1.8164182901382446,2.0400768847775519e-26,2.008805274963379,5.093876111298361,0.0,0.26763594150543213,-1.5967500845538538,-0.0,-0.02232106775045395,0.7979607582092285,-0.0,-0.0020152621436864138,0.8364431858062744,0.0,0.05415089800953865
301.0,303.0,-0.4349,0.2536,9.5222,-0.0389,0.0208,-0.1124,-1.780501504937643,0.0,2.858048915863037,-1.8164782524108887,6.6095907579676745e-34,2.0177764892578125,5.093880164414205,0.0,0.2744089961051941,-1.5967662970172327,-0.0,-0.018123336136341095,0.7979329824447632,-0.0,0.004496997222304344,0.8364711999893188,0.0,0.02239615097641945
301.0,303.0,-0.4349,0.2536,9.5222,-0.0389,0.0208,-0.1124,-1.7805458507933558,0.0,2.865299701690674,-1.8164337873458862,2.1414643131811854e-41,1.9097812175750732,5.093832003861227,0.0,0.27904725074768066,-1.5967419783221644,-0.0,-0.011250393465161324,0.797929048538208,-0.0,-0.00042054359801113605,0.8364270925521851,0.0,-0.04203818738460541
301.0,303.0,-0.4349,0.2536,9.5222,-0.0389,0.0208,-0.1124,-1.780513425866598,0.0,2.879225730895996,-1.81650710105896,-0.0,1.9763398170471191,5.093860107451238,0.0,0.2794715166091919,-1.5967376867877405,-0.0,-0.021718017756938934,0.7979488968849182,-0.0,0.005040889140218496,0.8364591002464294,0.0,-0.03417781740427017
301.0,303.0,-0.4349,0.2536,9.5222,-0.0389,0.0208,-0.1124,-1.7805501423277796,0.0,2.8978142738342285,-1.816422462463379,-0.0,1.9470674991607666,5.093900519400396,0.0,0.2728981673717499,-1.5967538992511194,-0.0,-0.014880020171403885,0.7979568243026733,-0.0,0.003964422736316919,0.8364510536193848,0.0,-0.020606782287359238
292.0,297.0,-0.4367,0.1956,9.3793,-0.0389,0.0247,-0.1216,-1.780497213403219,5.6903700169641525e-05,2.8846044540405273,-1.8164658546447754,-0.0,2.0181198120117188,5.093888270645895,0.0,0.2652246952056885,-1.5967662970172327,-0.0,-0.01112846564501524,0.7979448437690735,-0.0,-0.007289343513548374,0.8364549875259399,0.0,-0.040820445865392685
292.0,297.0,-0.4367,0.1956,9.3793,-0.0389,0.0247,-0.1216,-1.780513425866598,6.497978756669909e-05,2.8575384616851807,-1.816474199295044,-0.0,1.95711350440979,5.093852031021871,0.0,0.2800752520561218,-1.5967419783221644,-0.0,-0.006173711270093918,0.7979449033737183,-0.0,-0.012680673971772194,0.8364150524139404,0.0,-0.026194479316473007
292.0,297.0,-0.4367,0.1956,9.3793,-0.0389,0.0247,-0.1216,-1.780485292474264,7.229868060676381e-05,2.8891258239746094,-1.8164658546447754,-0.0,1.9929052591323853,5.093876111298361,0.0,0.2682335376739502,-1.5967333952533167,-0.0,-0.01580827683210373,0.7979925274848938,-0.0,-0.009670811705291271,0.8364671468734741,0.0,-0.019481893628835678
292.0,297.0,-0.4367,0.1956,9.3793,-0.0389,0.0247,-0.1216,-1.7804652653136195,6.993726856308058e-05,2.882371425628662,-1.8164502382278442,-0.0,1.9717257022857666,5.093892413168707,0.0,0.27668869495391846,-1.5967333952533167,-0.0,0.007781852036714554,0.797992467880249,-0.0,0.000578935316298157,0.8364190459251404,0.0,0.06220294535160065
292.0,297.0,-0.4367,0.1956,9.3793,-0.0389,0.0247,-0.1216,-1.780485292474264,1.9454353059056295e-11,2.8888449668884277,-1.8164337873458862,-0.0,1.9536986351013184,5.093892413168707,7.214003971967031e-08,0.285006046295166,-1.5967701117144983,-0.0,-0.011628162115812302,0.797980546951294,-0.0,0.006808491423726082,0.8364110589027405,0.0,0.03738662600517273
292.0,297.0,-0.4367,0.1956,9.3793,-0.0389,0.0247,-0.1216,-1.780485292474264,0.0001989321317523718,2.8965325355529785,-1.8164297342300415,6.146542386176179e-09,1.94792640209198,5.093876111298361,1.3111096409945677e-12,0.27767401933670044,-1.5967662970172327,-0.0,-0.014151209965348244,0.7980245351791382,-0.0,-0.016324054449796677,0.8364750146865845,0.0,-0.012194194830954075
292.0,297.0,-0.4367,0.1956,9.3793,-0.0389,0.0247,-0.1216,-1.7805258236327113,0.00016906099335756153,2.8764967918395996,-1.8164658546447754,1.9914014581700538e-16,1.9817006587982178,5.093919890909948,2.382877057682738e-17,0.28409451246261597,-1.5967333952533167,-0.0,-0.006216053850948811,0.7979211211204529,-0.0,0.0009321353863924742,0.8364549875259399,6.304460112005472e-05,-0.012531508691608906
292.0,297.0,-0.4367,0.1956,9.3793,-0.0389,0.0247,-0.1216,-1.780497213403219,0.00017517825472168624,2.8771886825561523,-1.8165152072906494,6.4518878455368455e-24,2.012782335281372,5.0938241360481165,4.330760541596867e-22,0.2800770103931427,-1.5967415014850062,-0.0,-0.010559989139437675,0.7979727387428284,-0.0,0.008024522103369236,0.8364831805229187,8.030611206777394e-05,-0.037067387253046036
292.0,297.0,-0.4367,0.1956,9.3793,-0.0389,0.0247,-0.1216,-1.7805339298644007,0.00015598692698404193,2.8927102088928223,-1.8164782524108887,2.0903296472169675e-31,1.9991756677627563,5.093816029816427,7.87094365238822e-27,0.2787976562976837,-1.596717659627096,-0.0,-0.00901239924132824,0.7979766726493835,-0.0,-0.011358920484781265,0.8364750742912292,0.0005504940636456013,0.021870804950594902
292.0,297.0,-0.4367,0.1956,9.3793,-0.0389,0.0247,-0.1216,-1.7804933987059535,0.00013983194367028773,2.887439727783203,-1.8164626359939575,6.772402610561696e-39,2.027006149291992,5.093899953156271,1.430505154894194e-31,0.28574448823928833,-1.5967620054828089,-0.0,-0.01992156356573105,0.7979766130447388,-0.0,-0.005105918273329735,0.8364669680595398,0.0004679641861002892,0.022516600787639618
292.0,297.0,-0.4367,0.1956,9.3793,-0.0389,0.0247,-0.1216,-1.7805057964720667,0.0001267074403585866,2.8359522819519043,-1.8164420127868652,0.0,1.999448537826538,5.093860137253561,2.5998725820077166e-36,0.27691733837127686,-1.5967538992511194,-0.0,-0.019600359722971916,0.7979766130447388,-0.0,0.01093688327819109,0.8364990949630737,0.00044601919944398105,-0.024701382964849472
292.0,297.0,-0.4367,0.1956,9.3793,-0.0389,0.0247,-0.1216,-1.7804938755431117,0.00011837476631626487,2.8709473609924316,-1.8164945840835571,-0.0,1.953977108001709,5.0938641903694055,7.236837763189799e-40,0.27769339084625244,-1.5967982451068323,-0.0,-0.014047025702893734,0.7980325222015381,-0.0,0.0025425488129258156,0.836495041847229,0.00042297705658711493,0.031947072595357895
288.0,298.0,-0.4845,0.1974,9.4768,-0.0357,0.029,-0.1196,-1.780501504937643,0.0001088309072656557,2.9150824546813965,-1.8164420127868652,-0.0,1.9589521884918213,5.093871968775549,1.2611686178923354e-44,0.268499493598938,-1.5967620054828089,-0.0,-0.003608983475714922,0.7979806661605835,-0.0,0.002492731437087059,0.836491048336029,0.0003759928804356605,-0.0022566206753253937
288.0,298.0,-0.4845,0.1974,9.4768,-0.0357,0.029,-0.1196,-1.7805377445616664,0.00010070477583212778,2.9194908142089844,-1.8164421319961548,-0.0,1.9786548614501953,5.093848007708349,0.0,0.28237056732177734,-1.5968025366412562,-0.0,-0.006688915658742189,0.7979607582092285,-0.0,-0.013165753334760666,0.8365392088890076,0.0003154096193611622,0.006944354623556137
288.0,298.0,-0.4845,0.1974,9.4768,-0.0357,0.029,-0.1196,-1.7805215320982875,9.371487976750359e-05,2.8686389923095703,-1.8164420127868652,-0.0,1.9616903066635132,5.093888270645895,0.0,0.27639779448509216,-1.5967453161822718,-0.0,-0.01065140962600708,0.797992467880249,-0.0,-0.0029115367215126753,0.8364588618278503,0.00025711176567710936,0.034221574664115906
288.0,298.0,-0.4845,0.1974,9.4768,-0.0357,0.029,-0.1196,-1.7805215320982875,8.763655205257237e-05,2.9109199047088623,-1.8164420127868652,-0.0,2.0307607650756836,5.09391616561965,0.0,0.2908877730369568,-1.5967820326434534,-0.0,-0.0028530852869153023,0.7979568243026733,-0.0,-0.0022929117549210787,0.836479127407074,0.00025112510775215924,-0.0017168866470456123
288.0,298.0,-0.4845,0.1974,9.4768,-0.0357,0.029,-0.1196,-1.7805620632567347,6.859697896288708e-05,2.9026050567626953,-1.8164823055267334,-0.0,1.9605610370635986,5.093876111298361,0.0,0.27773788571357727,-1.5967820326434534,-0.0,-0.010766620747745037,0.7979647517204285,-0.0,-0.008461462333798409,0.8365270495414734,0.00021174171706661582,0.008171177469193935
288.0,298.0,-0.4845,0.1974,9.4768,-0.0357,0.029,-0.1196,-1.7805501423277796,6.46384505671449e-05,2.8484609127044678,-1.8165069818496704,-0.0,1.9774383306503296,5.093880164414205,0.0,0.2785717248916626,-1.5967415014850062,-0.0,-0.011123728938400745,0.7979528903961182,-0.0,-0.00931190513074398,0.8364871740341187,0.0002135380491381511,0.02361709251999855
288.0,298.0,-0.4845,0.1974,9.4768,-0.0357,0.029,-0.1196,-1.7805053196349085,6.112326809670776e-05,2.9162049293518066,-1.8164749145507812,-0.0,1.9442346096038818,5.09385226944045,0.0,0.2844133973121643,-1.5968344847308558,-0.0,-0.00627369899302721,0.7980004549026489,-0.0,0.0028105885721743107,0.8364831805229187,0.00018804239516612142,0.0691174641251564
288.0,298.0,-0.4845,0.1974,9.4768,-0.0357,0.029,-0.1196,-1.780530115167135,5.87300855841022e-05,2.875880718231201,-1.8164265155792236,-0.0,2.0285751819610596,5.093836295395651,0.0,0.27122777700424194,-1.596773926411764,-0.0,-0.003177825128659606,0.7979648113250732,-0.0,-0.0051705241203308105,0.8364548087120056,0.0001725879847072065,0.003779985709115863
288.0,298.0,-0.4845,0.1974,9.4768,-0.0357,0.029,-0.1196,-1.780497213403219,5.581631921813823e-05,2.892643928527832,-1.8164100646972656,-0.0,1.9813623428344727,5.093864518194952,0.0,0.2820602059364319,-1.5967696348773401,-0.0,-0.012646564282476902,0.7979640364646912,-0.0,-0.0033074216917157173,0.8365152478218079,0.0001555436901981011,0.029833076521754265
288.0,298.0,-0.4845,0.1974,9.4768,-0.0357,0.029,-0.1196,-1.7805215320982875,5.3177966037765145e-05,2.891341209411621,-1.8164502382278442,-0.0,2.006505012512207,5.09391616561965,0.0,0.2710845470428467,-1.596773926411764,-0.0,-0.0043826354667544365,0.7979723215103149,-0.0,0.002733564004302025,0.836466908454895,0.00014156312681734562,0.003278166987001896
288.0,298.0,-0.4845,0.1974,9.4768,-0.0357,0.029,-0.1196,-1.7804933987059535,5.07799704791978e-05,2.86077618598938,-1.8164100646972656,-0.0,1.985776424407959,5.093844461231985,0.0,0.28409841656684875,-1.5967820326434534,-0.0,-0.019971251487731934,0.7979846000671387,-0.0,-0.003501582657918334,0.8365071415901184,0.00012988861999474466,0.012033790349960327
289.0,313.0,-0.3649,0.3613,9.2644,-0.0409,0.0279,-0.126,-1.7805258236327113,8.93815688129962e-09,2.918001651763916,-1.8164379596710205,-0.0,2.0190396308898926,5.093828129559316,0.0,0.2815482020378113,-1.5967257658587855,-0.0,-0.013105339370667934,0.7979682087898254,-0.0,-0.0012940065935254097,0.8364549875259399,0.00011999297566944733,-0.013707499951124191
289.0,313.0,-0.3649,0.3613,9.2644,-0.0409,0.0279,-0.126,-1.7804776630797328,2.895849739660599e-16,2.896397590637207,-1.8164502382278442,-0.0,2.0037050247192383,5.093828129559316,0.0,0.28899717330932617,-1.596729580556051,-0.0,-0.00988039467483759,0.7979965209960938,-0.0,0.004381091799587011,0.8365111351013184,0.00011149847705382854,0.025648821145296097
289.0,313.0,-0.3649,0.3613,9.2644,-0.0409,0.0279,-0.126,-1.780530115167135,9.382185436474932e-24,2.8826370239257812,-1.8164544105529785,-0.0,2.0100045204162598,5.093824046641149,0.0,0.2798631191253662,-1.5967415014850062,-0.0,-0.00723155727609992,0.7980047464370728,-0.0,-0.005587578285485506,0.836495041847229,0.00010412710253149271,0.040590010583400726
289.0,313.0,-0.3649,0.3613,9.2644,-0.0409,0.0279,-0.126,-1.7805010281004847,3.039708961000392e-31,2.901480197906494,-1.8164945840835571,-0.0,1.9491667747497559,5.093844491034307,0.0,0.28352218866348267,-1.5967333952533167,-0.0,-0.013824481517076492,0.7979722619056702,-0.0,-0.005321497097611427,0.8365311026573181,9.766997391125187e-05,-0.019994154572486877
289.0,313.0,-0.3649,0.3613,9.2644,-0.0409,0.0279,-0.126,-1.7805053196349085,9.848269555336241e-39,2.867953300476074,-1.8164618015289307,-0.0,1.959672451019287,5.093840348511495,-1.7495436850367696e-06,0.271025151014328,-1.596757713948385,-0.0,-0.007506342139095068,0.7979882955551147,-0.0,0.0007368531078100204,0.8364831805229187,3.967233715229668e-05,-0.030979350209236145
289.0,313.0,-0.3649,0.3613,9.2644,-0.0409,0.0279,-0.126,-1.780473371545309,2.382207389352189e-44,2.867283821105957,-1.8165184259414673,-0.0,2.0194852352142334,5.093852239638128,-4.869919467687112e-10,0.2865721881389618,-1.5967538992511194,-0.0,-0.01906542107462883,0.7980006337165833,-0.0,-0.010800324380397797,0.8365351557731628,3.107411248493008e-05,-0.07592013478279114
289.0,313.0,-0.3649,0.3613,9.2644,-0.0409,0.0279,-0.126,-1.780530115167135,0.0,2.8963446617126465,-1.8164781332015991,-0.0,1.966960072517395,5.093844103604116,-8.850837001240369e-15,0.276538610458374,-1.596729580556051,-0.0,-0.010564370080828667,0.7979763150215149,-0.0,0.005834374576807022,0.836466908454895,1.4601208022213541e-05,-4.0057115256786346e-05
289.0,313.0,-0.3649,0.3613,9.2644,-0.0409,0.0279,-0.126,-1.7805339298644007,0.0,2.9201135635375977,-1.8164864778518677,-0.0,1.9722435474395752,5.093828189163961,-1.6085959067529106e-19,0.27737289667129517,-1.5967620054828089,-0.0,-0.0087627237662673,0.7979886531829834,-0.0,0.001012625521980226,0.8365272879600525,1.3651681001647376e-05,0.024960145354270935
289.0,313.0,-0.3649,0.3613,9.2644,-0.0409,0.0279,-0.126,-1.780501504937643,0.0,2.9180989265441895,-1.8164141178131104,-0.0,2.0105607509613037,5.093808102398672,-2.9235429694371316e-24,0.26996374130249023,-1.5967701117144983,-0.0,-0.010515282861888409,0.797980546951294,-0.0,-0.0020240917801856995,0.8365030884742737,1.751831035790019e-07,0.04300621151924133
289.0,313.0,-0.3649,0.3613,9.2644,-0.0409,0.0279,-0.126,-1.7805458507933558,0.0,2.8850808143615723,-1.8164700269699097,-0.0,2.025428056716919,5.093828159361639,-5.313395160496474e-29,0.2674350142478943,-1.5967376867877405,-0.0,-0.00351102277636528,0.7979923486709595,-0.0,0.006185097619891167,0.8364629149436951,5.675709858018628e-15,-0.04698369652032852
289.0,313.0,-0.3649,0.3613,9.2644,-0.0409,0.0279,-0.126,-1.780501504937643,0.0,2.885986328125,-1.8164700269699097,-0.0,1.9443721771240234,5.093844491034307,-9.656833028798945e-34,0.2840421497821808,-1.5967782179461878,-0.0,-0.007294917479157448,0.7980246543884277,-0.0,0.007786968257278204,0.8365391492843628,1.838858120352973e-22,0.027743935585021973
289.0,313.0,-0.3649,0.3613,9.2644,-0.0409,0.0279,-0.126,-1.7805091343321742,0.0,2.905493974685669,-1.8164864778518677,-0.0,1.9933173656463623,5.0938322124774835,-1.7550817652756679e-38,0.2830222547054291,-1.5967376867877405,-0.0,-0.005293985828757286,0.7980164885520935,-0.0,0.0025774771347641945,0.8364990949630737,5.957666799910976e-30,0.016284843906760216
285.0,302.0,-0.6353,0.2142,9.8423,-0.0367,0.0249,-0.1119,-1.7805777988829554,0.0,2.890866279602051,-1.8164379596710205,-0.0,1.974017858505249,5.0938322124774835,-3.194960498660583e-43,0.27269864082336426,-1.5967376867877405,-0.0,-0.007405722513794899,0.7980406284332275,-0.0,-0.002814103150740266,0.8364669680595398,1.9302079198158904e-37,-0.022024190053343773
285.0,302.0,-0.6353,0.2142,9.8423,-0.0367,0.0249,-0.1119,-1.780513425866598,0.0,2.925443649291992,-1.8164658546447754,-0.0,2.0317468643188477,5.093824106245794,-0.0,0.28439098596572876,-1.59674579301943,-0.0,-0.010032211430370808,0.7980688810348511,-0.0,0.007373540662229061,0.8364389538764954,4.666323886201641e-43,0.02495889738202095
285.0,302.0,-0.6353,0.2142,9.8423,-0.0367,0.0249,-0.1119,-1.780501504937643,0.0,2.8636856079101562,-1.8164658546447754,-0.0,2.008401393890381,5.093848573952474,-0.0,0.28337758779525757,-1.5967782179461878,-0.0,-0.004831018857657909,0.798012375831604,-0.0,0.012370947748422623,0.8364669680595398,0.0,0.00737883523106575
285.0,302.0,-0.6353,0.2142,9.8423,-0.0367,0.0249,-0.1119,-1.780497213403219,0.0,2.884416103363037,-1.8164782524108887,-0.0,1.9912712574005127,5.093828189163961,-0.0,0.2868737578392029,-1.5967214743243616,-0.0,-0.014462446793913841,0.7980325222015381,-4.425252164708127e-09,0.025558991357684135,0.8365151882171631,0.0,0.02223041281104088
285.0,302.0,-0.6353,0.2142,9.8423,-0.0367,0.0249,-0.1119,-1.7804933987059535,0.0,2.8623790740966797,-1.8164544105529785,-0.0,1.9705357551574707,5.093836325197973,-0.0,0.2825848460197449,-1.5967662970172327,-0.0,-0.0066698347218334675,0.7980722784996033,-8.042676767627821e-14,0.036759667098522186,0.8365311026573181,0.0,0.046197183430194855
285.0,302.0,-0.6353,0.2142,9.8423,-0.0367,0.0249,-0.1119,-1.7805258236327113,0.0,2.8800301551818848,-1.816406011581421,-0.0,1.9787235260009766,5.09385226944045,-0.0,0.2756481170654297,-1.5967376867877405,-0.0,-0.02176833152770996,0.7980642318725586,-1.4617169608994728e-18,0.04101908951997757,0.8365271091461182,0.0,-0.029539186507463455
285.0,302.0,-0.6353,0.2142,9.8423,-0.0367,0.0249,-0.1119,-1.7805091343321742,0.0,2.8566341400146484,-1.8164502382278442,-0.0,1.958648443222046,5.093808042794027,-0.0,0.27921438217163086,-1.5967701117144983,-0.0,-0.002028458286076784,0.7980606555938721,0.0003244639956392348,0.03606758639216423,0.836539089679718,0.0,0.022154059261083603
285.0,302.0,-0.6353,0.2142,9.8423,-0.0367,0.0249,-0.1119,-1.7805215320982875,0.0,2.907578468322754,-1.8164305686950684,-0.0,2.025564670562744,5.093836295395651,-0.0,0.2805876135826111,-1.5967620054828089,-0.0,-0.00018091406673192978,0.7981042861938477,0.0003529563546180725,0.034361712634563446,0.8365111351013184,0.0,0.023559043183922768
285.0,302.0,-0.6353,0.2142,9.8423,-0.0367,0.0249,-0.1119,-1.780497213403219,0.0,2.8817057609558105,-1.8164821863174438,-0.0,1.982499599456787,5.093792068749227,-0.0,0.2777259349822998,-1.5967538992511194,-0.0,-0.00908246822655201,0.7980883121490479,0.00045641555334441364,0.050580766052007675,0.8365350961685181,0.0,0.082858145236969
285.0,302.0,-0.6353,0.2142,9.8423,-0.0367,0.0249,-0.1119,-1.7805091343321742,0.0,2.902975082397461,-1.8164987564086914,-0.0,1.9889254570007324,5.093872296601095,-0.0,0.2700980305671692,-1.596773926411764,-0.0,-0.010197236202657223,0.7980485558509827,0.0004814984567929059,0.059453703463077545,0.8365311026573181,0.0007227344322018325,0.05829404294490814
285.0,302.0,-0.6353,0.2142,9.8423,-0.0367,0.0249,-0.1119,-1.7805453739561976,0.0,2.876737117767334,-1.8164584636688232,-0.0,1.9859567880630493,5.093775737076559,-0.0,0.28111404180526733,-1.5967214743243616,-0.0,-0.011491501703858376,0.7980841994285583,0.0005243855412118137,0.06559160351753235,0.8365230560302734,0.0006362698622979224,-0.01295936293900013
288.0,300.0,-0.6191,0.2524,9.7502,-0.0344,0.0258,-0.1156,-1.7805258236327113,0.0,2.923888683319092,-1.8164141178131104,-0.0,2.017404556274414,5.093840348511495,-0.0,0.28056812286376953,-1.5967496077166956,-0.0,-0.006203505676239729,0.7980918884277344,0.0005688402452506125,0.05660402774810791,0.8365833759307861,0.0005669186357408762,0.05044884234666824
288.0,300.0,-0.6191,0.2524,9.7502,-0.0344,0.0258,-0.1156,-1.7805377445616664,0.0,2.874812126159668,-1.816434621810913,9.251786892150449e-09,1.9981176853179932,5.093848216324606,-0.0,0.2825162708759308,-1.596773926411764,-0.0,-0.0015657298499718308,0.7980039715766907,0.0005764803499914706,0.070672906935215,0.8365631699562073,0.00039923927397467196,0.08024760335683823
288.0,300.0,-0.6191,0.2524,9.7502,-0.0344,0.0258,-0.1156,-1.7804695568480433,0.0,2.8692359924316406,-1.8164058923721313,2.997461400200001e-16,2.02990460395813,5.09385226944045,-0.0,0.2794318199157715,-1.5967620054828089,-0.0,-0.0014160042628645897,0.7981403470039368,0.00047504546819254756,0.06389032304286957,0.8365350961685181,0.00030810513999313116,0.0720762386918068
288.0,300.0,-0.6191,0.2524,9.7502,-0.0344,0.0258,-0.1156,-1.780513425866598,0.0,2.8731071949005127,-1.8164502382278442,9.711394447163575e-24,2.001535415649414,5.093828159361639,-0.0,0.268955796957016,-1.5968101660357874,-0.0,-0.010605339892208576,0.798136293888092,0.0004171553591731936,0.0860791951417923,0.8365230560302734,0.00029265618650242686,0.11783803999423981
288.0,300.0,-0.6191,0.2524,9.7502,-0.0344,0.0258,-0.1156,-1.780513425866598,0.0,2.9263129234313965,-1.8164666891098022,3.146368616416603e-31,1.9990882873535156,5.0938641903694055,-0.0,0.28023168444633484,-1.5967376867877405,-0.0,-0.006039952859282494,0.798124372959137,0.0003386502212379128,0.07682302594184875,0.8365069627761841,0.000246795651037246,0.08932170271873474
288.0,300.0,-0.6191,0.2524,9.7502,-0.0344,0.0258,-0.1156,-1.7805539570250453,0.0,2.9057655334472656,-1.8164420127868652,1.0193835361832599e-38,1.9705400466918945,5.093824046641149,-0.0,0.28808897733688354,-1.5967453161822718,-0.0,0.0037564467638731003,0.7980965375900269,0.000237788466620259,0.06629538536071777,0.8365833163261414,0.00021336170902941376,0.04406292736530304
288.0,300.0,-0.6191,0.2524,9.7502,-0.0344,0.0258,-0.1156,-1.780513425866598,0.0,2.873758316040039,-1.8164337873458862,2.5223372357846707e-44,1.9940235614776611,5.093864518194952,-0.0,0.26794105768203735,-1.5967782179461878,-0.0,-0.012454310432076454,0.7980759739875793,0.0002052400668617338,0.06976287811994553,0.8365673422813416,6.663834938080981e-05,0.13207700848579407
288.0,300.0,-0.6191,0.2524,9.7502,-0.0344,0.0258,-0.1156,-1.7804895840086878,0.0,2.8923916816711426,-1.8164461851119995,-0.0,1.9871758222579956,5.093844133406439,-0.0,0.27112820744514465,-1.5967453161822718,-0.0,-0.005951054859906435,0.7980638742446899,0.000173568056197837,0.07445260137319565,0.8365309834480286,-6.292963371379301e-05,0.11405972391366959
288.0,300.0,-0.6191,0.2524,9.7502,-0.0344,0.0258,-0.1156,-1.7805382213988246,0.0,2.8942110538482666,-1.816401720046997,-0.0,1.976207971572876,5.093848216324606,-0.0,0.2754773795604706,-1.5967214743243616,-0.0,-0.014634092338383198,0.7981204986572266,0.0001503656239947304,0.06887497007846832,0.836547315120697,-8.768925908952951e-05,0.07876526564359665
288.0,300.0,-0.6191,0.2524,9.7502,-0.0344,0.0258,-0.1156,-1.7804895840086878,0.0,2.8596575260162354,-1.8165069818496704,-0.0,2.0032806396484375,5.093836295395651,-0.0,0.2869599461555481,-1.5967496077166956,-0.0,0.0021585531067103148,0.7981083393096924,0.00013263602158986032,0.06852319836616516,0.8365310430526733,-6.30918875685893e-05,0.06941065937280655
288.0,300.0,-0.6191,0.2524,9.7502,-0.0344,0.0258,-0.1156,-1.7805215320982875,0.0,2.903177261352539,-1.816434621810913,-0.0,2.0599474906921387,5.0938559649284265,-0.0,0.27741432189941406,-1.596729580556051,-0.0,-0.0012330005411058664,0.7980961203575134,9.512712858850136e-05,0.08926507830619812,0.8365309834480286,-4.927305053570308e-05,0.03274213522672653
288.0,300.0,-0.6191,0.2524,9.7502,-0.0344,0.0258,-0.1156,-1.780473371545309,0.0,2.9041733741760254,-1.8164429664611816,-0.0,2.0137202739715576,5.093896525889196,-0.0,0.26969000697135925,-1.596757713948385,-0.0,-0.008510005660355091,0.7980760335922241,8.58614657772705e-05,0.06509260088205338,0.8364989757537842,-4.0420480218017474e-05,0.05863289535045624
297.0,305.0,-0.5671,0.1543,9.7382,-0.0365,0.0154,-0.1029,-1.7805620632567347,0.0,2.8805408477783203,-1.816454291343689,-0.0,1.9929814338684082,5.093791740923681,-0.0,0.2730334401130676,-1.5967939535724085,-0.0,0.005756119266152382,0.7980679273605347,7.838318560970947e-05,0.0621030293405056,0.8365431427955627,-3.426458715694025e-05,0.09095945209264755
297.0,305.0,-0.5671,0.1543,9.7382,-0.0365,0.0154,-0.1029,-1.7804895840086878,0.0,2.8948493003845215,-1.816402554512024,-0.0,2.0066564083099365,5.093892442971029,-0.0,0.2707115113735199,-1.5967376867877405,-0.0,-0.013664009980857372,0.7981005907058716,7.210324110928923e-05,0.05144405737519264,0.836539089679718,-2.973606387968175e-05,0.06467541307210922
297.0,305.0,-0.5671,0.1543,9.7382,-0.0365,0.0154,-0.1029,-1.7804976902403773,0.0,2.8951659202575684,-1.8164740800857544,-0.0,1.9789323806762695,5.093936222582617,-0.0,0.27605098485946655,-1.5967662970172327,-0.0,-0.0075912452302873135,0.7980842590332031,6.675503391306847e-05,0.06522147357463837,0.8365150094032288,-5.906829469992658e-10,0.03705596551299095
297.0,305.0,-0.5671,0.1543,9.7382,-0.0365,0.0154,-0.1029,-1.7805057964720667,3.100258894050967e-08,2.8784680366516113,-1.8164305686950684,8.063542190939188e-05,2.004826545715332,5.0938322124774835,-0.0,0.2713833749294281,-1.5967419783221644,-0.0,-0.014126254245638847,0.7980800867080688,6.323710840661079e-05,0.0633632242679596,0.836514949798584,-1.4264299529558435e-15,0.024804402142763138
297.0,305.0,-0.5671,0.1543,9.7382,-0.0365,0.0154,-0.1029,-1.7804695568480433,1.0044444913808554e-15,2.9186630249023438,-1.8164502382278442,7.525215187342837e-05,1.9939215183258057,5.093860435276785,-0.0,0.270035982131958,-1.5967453161822718,-0.0,-0.008421799167990685,0.7980566024780273,5.9085519751533866e-05,0.05396394431591034,0.836491048336029,-4.6214513675497404e-23,0.017844250425696373
297.0,305.0,-0.5671,0.1543,9.7382,-0.0365,0.0154,-0.1029,-1.7805539570250453,3.2542724306344977e-23,2.8706164360046387,-1.8164305686950684,5.6427405070280656e-05,2.008043050765991,5.0938641903694055,-0.0,0.2761276960372925,-1.596717659627096,-0.0,-0.015702147036790848,0.7980043292045593,4.15843642258551e-05,0.03931628167629242,0.8365591764450073,-1.4972913836536765e-30,0.006970496848225594
297.0,305.0,-0.5671,0.1543,9.7382,-0.0365,0.0154,-0.1029,-1.7805177174010218,1.054342730851399e-30,2.910893678665161,-1.8164947032928467,5.309828702593222e-05,1.9692533016204834,5.093856352358618,-0.0,0.2618565559387207,-1.5967744032489222,-0.0,-0.01757330819964409,0.7980648279190063,-3.3750700822565705e-05,0.034527428448200226,0.8365351557731628,-4.851033520939381e-38,0.028403788805007935
297.0,305.0,-0.5671,0.1543,9.7382,-0.0365,0.0154,-0.1029,-1.7805010281004847,3.415936298174435e-38,2.875772476196289,-1.8164100646972656,3.90671739296522e-05,1.9962292909622192,5.093888300448217,-0.0,0.2662314474582672,-1.5967095533954065,-0.0,-0.015528212301433086,0.7980559468269348,-4.7079025534912944e-05,0.03658705949783325,0.8365190029144287,-1.401298464324817e-45,-0.011690136045217514
297.0,305.0,-0.5671,0.1543,9.7382,-0.0365,0.0154,-0.1029,-1.780513425866598,1.401298464324817e-45,2.9307291507720947,-1.8164305686950684,3.562070560292341e-05,1.9299585819244385,5.09385226944045,-0.0,0.2846681773662567,-1.5967701117144983,-0.0,-0.006224846001714468,0.7980446219444275,-5.778512786491774e-05,0.023388374596834183,0.8365151882171631,-0.0003248354187235236,0.016901517286896706
297.0,305.0,-0.5671,0.1543,9.7382,-0.0365,0.0154,-0.1029,-1.7805215320982875,0.0,2.9165408611297607,-1.8164501190185547,3.383519651833922e-05,2.0077426433563232,5.093848216324606,-0.0,0.27530917525291443,-1.5967376867877405,-0.0,0.00574059784412384,0.7980002164840698,-5.515893644769676e-05,0.02312310039997101,0.8365230560302734,-0.00025204604025930166,0.04587541148066521
297.0,305.0,-0.5671,0.1543,9.7382,-0.0365,0.0154,-0.1029,-1.7804933987059535,0.0,2.839561700820923,-1.8164420127868652,3.222016312065534e-05,1.9854121208190918,5.093815851002493,-0.0,0.2736968994140625,-1.5967662970172327,-0.0,-0.016041193157434464,0.7980570197105408,-6.493797263829038e-05,0.024138662964105606,0.8365031480789185,-0.00016472979041282088,0.04334714263677597
299.0,296.0,-0.6353,0.0867,9.5169,-0.0257,0.017,-0.1185,-1.780529638329977,0.0,2.9033501148223877,-1.8164337873458862,3.1106595997698605e-05,2.0276529788970947,5.0938641903694055,-0.0,0.27763551473617554,-1.5967209974872034,-0.0,-0.0031524659134447575,0.7980722784996033,-6.2269922636915e-05,0.03276727348566055,0.836510956287384,-0.0001129122611018829,0.036229707300662994
299.0,296.0,-0.6353,0.0867,9.5169,-0.0257,0.017,-0.1185,-1.780530115167135,0.0,2.8850889205932617,-1.8163779973983765,1.0147886314371135e-05,1.9776962995529175,5.093828129559316,-0.0,0.2832682728767395,-1.5967453161822718,-0.0,0.0004739603027701378,0.7980763912200928,-5.900403266423382e-05,0.019813021644949913,0.8365350961685181,9.549561946187168e-05,0.045376215130090714
299.0,296.0,-0.6353,0.0867,9.5169,-0.0257,0.017,-0.1185,-1.7804933987059535,0.0,2.902820587158203,-1.816402554512024,3.2877858963976936e-13,1.972638726234436,5.093880194216528,-0.0,0.2792927026748657,-1.5967744032489222,-0.0,0.008209191262722015,0.798108696937561,-5.6063545343931764e-05,0.024896960705518723,0.8365191221237183,7.899127376731485e-05,-0.012647966854274273
299.0,296.0,-0.6353,0.0867,9.5169,-0.0257,0.017,-0.1185,-1.780497213403219,0.0,2.8660666942596436,-1.816462516784668,1.0652007029041677e-20,1.9710578918457031,5.093880164414205,-0.0,0.2841549217700958,-1.5967415014850062,-0.0,-0.005335237830877304,0.7980365753173828,-5.3402276535052806e-05,0.004554325249046087,0.8365311026573181,6.7195447627455e-05,0.010165629908442497
299.0,296.0,-0.6353,0.0867,9.5169,-0.0257,0.017,-0.1185,-1.7805215320982875,0.0,2.8942360877990723,-1.8164782524108887,3.451114793358806e-28,1.9768966436386108,5.093848186522283,-0.0,0.2852371037006378,-1.5967744032489222,-0.0,-0.004256448708474636,0.7980446815490723,-5.101990609546192e-05,0.006527663674205542,0.8365190029144287,2.9232580345706083e-05,0.04728349298238754
299.0,296.0,-0.6353,0.0867,9.5169,-0.0257,0.017,-0.1185,-1.7804614506163539,0.0,2.9494516849517822,-1.8164100646972656,1.1181171829918462e-35,1.983245611190796,5.093856352358618,-0.0,0.2866917550563812,-1.5967620054828089,-0.0,-0.007491584867238998,0.7980406284332275,-0.0001084405739675276,0.01169604528695345,0.8364912271499634,4.94077800894388e-09,0.019645709544420242
299.0,296.0,-0.6353,0.0867,9.5169,-0.0257,0.017,-0.1185,-1.780445238152975,0.0,2.9116673469543457,-1.8164100646972656,3.629363022601276e-43,1.9649155139923096,5.093880611449041,-0.0,0.2770942449569702,-1.5967252890216272,-0.0,-0.012204781174659729,0.7980366349220276,-9.890736691886559e-05,0.026858896017074585,0.8364790678024292,1.6007493335007785e-16,0.05713550001382828
299.0,296.0,-0.6353,0.0867,9.5169,-0.0257,0.017,-0.1185,-1.780501504937643,0.0,2.9136223793029785,-1.8164141178131104,-0.0,2.0010313987731934,5.09384452083663,-0.0,0.2886994481086731,-1.596729580556051,-0.0,-0.007993691600859165,0.7980406284332275,-9.091406536754221e-05,0.009351302869617939,0.8364871740341187,-0.0006320869433693588,-0.004210573621094227
299.0,296.0,-0.6353,0.0867,9.5169,-0.0257,0.017,-0.1185,-1.7805539570250453,0.0,2.8773350715637207,-1.8164141178131104,-2.7958123610005714e-05,1.9687927961349487,5.093824046641149,-0.0,0.288854718208313,-1.5967782179461878,-0.0,-0.02219894900918007,0.798080563545227,-8.571848593419418e-05,0.015412682667374611,0.8364951014518738,-0.00042334379395470023,-0.0022516055032610893
299.0,296.0,-0.6353,0.0867,9.5169,-0.0257,0.017,-0.1185,-1.7804895840086878,0.0,2.9193739891052246,-1.8164379596710205,-2.650074748089537e-05,1.9953848123550415,5.093828189163961,-0.0,0.28419098258018494,-1.5967415014850062,-0.0,-0.00594421848654747,0.7980606555938721,-7.964958058437333e-05,0.02921788953244686,0.8365553021430969,-0.000292771786917001,0.000524776172824204
299.0,296.0,-0.6353,0.0867,9.5169,-0.0257,0.017,-0.1185,-1.7804533443846644,0.0,2.8889427185058594,-1.8164584636688232,-2.5026904040714726e-05,1.9479926824569702,5.0938604948814294,-0.0,0.28482747077941895,-1.596773926411764,-0.0,-0.014068715274333954,0.7980446815490723,-7.438319153152406e-05,0.005691965110599995,0.836495041847229,-0.0002323064545635134,0.007945443503558636
299.0,296.0,-0.6353,0.0867,9.5169,-0.0257,0.017,-0.1185,-1.780530115167135,0.0,2.8871917724609375,-1.8164182901382446,-2.3708384105702862e-05,2.0456759929656982,5.093832182675161,-0.0,0.2650553584098816,-1.5967939535724085,-0.0,-0.012711269780993462,0.7980405688285828,-8.366256952285767e-05,0.010983023792505264,0.8365030884742737,-0.00019254398648627102,-0.018853239715099335
304.0,300.0,-0.2489,0.4056,9.536,-0.0197,0.0084,-0.1122,-1.7805139027037562,0.0,2.9121975898742676,-1.8164544105529785,-2.079332928062172e-09,1.998927354812622,5.093856322556295,-7.56824083509855e-05,0.27680885791778564,-1.5967820326434534,-0.0,-0.005785918794572353,0.7980082631111145,-8.859186345944181e-05,0.020381057634949684,0.8364951014518738,-0.00016440455510746688,0.014940355904400349
304.0,300.0,-0.2489,0.4056,9.536,-0.0197,0.0084,-0.1122,-1.7805096111693324,0.0,2.867460250854492,-1.8164058923721313,-6.736775960824591e-17,1.9984688758850098,5.093811797886648,-6.514280539704487e-05,0.27449503540992737,-1.5967538992511194,-0.0,-0.021501420065760612,0.7980123162269592,-9.611927816877142e-05,0.016190525144338608,0.836495041847229,-0.00014344180817715824,0.038627587258815765
304.0,300.0,-0.2489,0.4056,9.536,-0.0197,0.0084,-0.1122,-1.7804695568480433,0.0,2.8669896125793457,-1.8164305686950684,-2.182629818896358e-24,1.9584019184112549,5.093836265593328,-5.690420948667452e-05,0.28154256939888,-1.5967453161822718,-0.0,0.0004789191298186779,0.7980529069900513,-9.412049257662147e-05,0.01576056331396103,0.8364509344100952,-0.00012722036626655608,0.06004597991704941
304.0,300.0,-0.2489,0.4056,9.536,-0.0197,0.0084,-0.1122,-1.7805091343321742,0.0,2.8905277252197266,-1.816386103630066,-7.07144252513995e-32,1.9473888874053955,5.0938641903694055,-5.051564585301094e-05,0.2740147113800049,-1.5967453161822718,-0.0,-0.01984635926783085,0.798000156879425,-0.0001049495767802,-0.004880174994468689,0.836495041847229,-0.00011429526057327166,0.019823402166366577
304.0,300.0,-0.2489,0.4056,9.536,-0.0197,0.0084,-0.1122,-1.7805091343321742,0.0,2.874471664428711,-1.8164265155792236,-1.7076700648778863e-37,1.9931466579437256,5.093819963722982,-4.659268233808689e-05,0.28243178129196167,-1.5967782179461878,-0.0,-0.01488577015697956,0.7980448603630066,-0.00011640538286883384,0.003001532517373562,0.8365072011947632,-0.00012744309788104147,0.005801559891551733
304.0,300.0,-0.2489,0.4056,9.536,-0.0197,0.0084,-0.1122,-1.7804895840086878,0.0,2.8805155754089355,-1.8164223432540894,-5.605193857299268e-45,1.9724527597427368,5.093824046641149,-5.787300688098185e-05,0.27330881357192993,-1.596733872090475,-0.0,-0.008047287352383137,0.7980246543884277,-0.0001239527337020263,-0.0066208066418766975,0.8364912867546082,-0.0001553337788209319,-0.007673772983253002
304.0,300.0,-0.2489,0.4056,9.536,-0.0197,0.0084,-0.1122,-1.780530115167135,0.0,2.8684744834899902,-1.816426396369934,-0.0,1.9868258237838745,5.09380395987586,-5.789875649497844e-05,0.2736004889011383,-1.596717659627096,-0.0,-0.0037705358117818832,0.7980570197105408,-0.00011694001295836642,-0.004278483334928751,0.8364549875259399,-0.00011877797078341246,0.006218021269887686
304.0,300.0,-0.2489,0.4056,9.536,-0.0197,0.0084,-0.1122,-1.7804814777769984,0.0,2.8835155963897705,-1.8163976669311523,-0.0,2.0333285331726074,5.09384040811614,-5.332472574082203e-05,0.27342167496681213,-1.596757713948385,-0.0,-0.011829236522316933,0.7980005145072937,-0.00012439946294762194,0.00851152278482914,0.8364469408988953,-0.00014554642257280648,0.0006820647977292538
304.0,300.0,-0.2489,0.4056,9.536,-0.0197,0.0084,-0.1122,-1.7805420360960902,0.0,2.959656238555908,-1.8164305686950684,-0.0,1.9594041109085083,5.093812185316839,-4.942041414324194e-05,0.2652386724948883,-1.5967538992511194,-0.0,-0.021667959168553352,0.7979320287704468,-0.0001163656561402604,-0.008661942556500435,0.8365072011947632,-0.00037819158751517534,-0.03718636557459831
304.0,300.0,-0.2489,0.4056,9.536,-0.0197,0.0084,-0.1122,-1.7805377445616664,0.0,2.879072427749634,-1.816454291343689,-0.0,2.017159938812256,5.093832182675161,-6.138965545687824e-05,0.27131223678588867,-1.5967620054828089,-0.0,-0.019503556191921234,0.7980169057846069,-0.0001576034992467612,0.007214111275970936,0.8364389538764954,-0.00033962586894631386,-0.04218249022960663
304.0,300.0,-0.2489,0.4056,9.536,-0.0197,0.0084,-0.1122,-1.780530115167135,0.0,2.8472352027893066,-1.8164223432540894,-0.0,1.9815462827682495,5.093856352358618,-5.74773657717742e-05,0.2755357623100281,-1.5967138449298304,-0.0,-0.008675211109220982,0.7980128526687622,-0.000151502710650675,-0.005798076745122671,0.8364790678024292,-0.00031635919003747404,-0.012327907606959343
292.0,311.0,-0.5127,-0.0431,9.6987,-0.0586,0.0275,-0.1129,-1.7804891071715296,0.0,2.87222957611084,-1.8163779973983765,-0.0,2.0095300674438477,5.09384452083663,-5.402700844570063e-05,0.2724052369594574,-1.5967138449298304,-0.0,-0.00908687710762024,0.7979645729064941,-0.0001335196429863572,-0.0010980553925037384,0.8364510536193848,-0.0003012412053067237,-0.054204799234867096
292.0,311.0,-0.5127,-0.0431,9.6987,-0.0586,0.0275,-0.1129,-1.7805010281004847,0.0,2.897615671157837,-1.8164347410202026,-0.0,1.9921886920928955,5.093836265593328,-5.096740278531797e-05,0.2819436192512512,-1.5966818968402308,-0.0,-0.015272168442606926,0.7979727387428284,-0.00014322286006063223,-0.003224158426746726,0.836431086063385,-0.00023880387016106397,0.006469838321208954
292.0,311.0,-0.5127,-0.0431,9.6987,-0.0586,0.0275,-0.1129,-1.780513425866598,0.0,2.8334012031555176,-1.8163983821868896,0.00023863246315158904,2.003922700881958,5.093864577799597,-4.889089541393332e-05,0.2669941484928131,-1.5967181364642542,-0.0,-0.0027113272808492184,0.7980247139930725,-0.0001490522554377094,0.005069570615887642,0.8364150524139404,-0.00024720525834709406,0.019561829045414925
292.0,311.0,-0.5127,-0.0431,9.6987,-0.0586,0.0275,-0.1129,-1.7804933987059535,0.0,2.8417906761169434,-1.8163737058639526,0.0012394272489473224,2.032127857208252,5.093792038946905,-4.637183155864477e-05,0.25821366906166077,-1.596694294606344,-0.0,-0.00404615793377161,0.7980006337165833,-0.00014092816854827106,0.004238174296915531,0.836431086063385,-0.000274475896731019,-0.004468886181712151
292.0,311.0,-0.5127,-0.0431,9.6987,-0.0586,0.0275,-0.1129,-1.780501504937643,0.0,2.8724613189697266,-1.816358208656311,0.0027838891837745905,2.0099825859069824,5.093819963722982,-3.115427534794435e-05,0.27152788639068604,-1.5966861883746546,-0.0,-0.003858711803331971,0.798004686832428,-0.00014782142534386367,0.0002573451492935419,0.8364351391792297,-0.0003829615016002208,-0.05529961735010147
292.0,311.0,-0.5127,-0.0431,9.6987,-0.0586,0.0275,-0.1129,-1.7805658779540003,0.0,2.882124423980713,-1.8163342475891113,0.004246533382683992,2.029841184616089,5.093812215119161,-5.48137140867766e-05,0.26433831453323364,-1.596682373677389,-0.0,0.0006399105186574161,0.7979965806007385,-0.00013660833064932376,0.010490648448467255,0.8364230394363403,-0.0003995122970081866,-0.04480535537004471
292.0,311.0,-0.5127,-0.0431,9.6987,-0.0586,0.0275,-0.1129,-1.7805377445616664,4.0709289238216595e-12,2.7966904640197754,-1.816306233406067,0.004123039077967405,2.0040905475616455,5.093836355000295,-0.00047616608208045363,0.25788962841033936,-1.5966900030719202,-0.0,0.010338401421904564,0.798041045665741,-0.00014393858145922422,0.0029822997748851776,0.8364391326904297,-0.0006798564572818577,-0.0711677223443985
292.0,311.0,-0.5127,-0.0431,9.6987,-0.0586,0.0275,-0.1129,-1.7804728947081507,1.3189292762051164e-19,2.8364031314849854,-1.8162504434585571,0.003609976964071393,2.029628276824951,5.093832272082128,-0.00045442901318892837,0.2443765103816986,-1.5966456572162073,0.00021519865549635142,0.02460392750799656,0.7979804873466492,-0.00012764860002789646,-0.00040069723036140203,0.8364070057868958,-0.0008891919860616326,-0.16530224680900574
292.0,311.0,-0.5127,-0.0431,9.6987,-0.0586,0.0275,-0.1129,-1.7805215320982875,4.273162456713024e-27,2.7582132816314697,-1.8162264823913574,0.0028496275190263987,2.0034608840942383,5.093808430224218,-0.00042694038711488247,0.2400938868522644,-1.5966256300555628,0.0002500041446182877,0.0326947383582592,0.7979644536972046,-0.00011463987175375223,-0.0021557000000029802,0.8364110589027405,-0.0015425560995936394,-0.17662185430526733
292.0,311.0,-0.5127,-0.0431,9.6987,-0.0586,0.0275,-0.1129,-1.7805377445616664,1.3844502955010795e-34,2.7096714973449707,-1.8162058591842651,0.002199143636971712,2.0254595279693604,5.0937645612056635,-0.000417424802435562,0.2224922776222229,-1.5966618696795862,0.00025065275258384645,0.028869230300188065,0.797980546951294,-0.00010403765918454155,-0.010762245394289494,0.8363710045814514,-0.004101249389350414,-0.17387357354164124
292.0,311.0,-0.5127,-0.0431,9.6987,-0.0586,0.0275,-0.1129,-1.7805053196349085,3.343287941109365e-40,2.7093374729156494,-1.8161747455596924,0.002215736545622349,2.033573865890503,5.093760508089819,-0.00039601739263162017,0.2366962432861328,-1.5966418425189417,0.000353392242686823,0.03890062868595123,0.7979206442832947,-9.728956501930952e-05,-0.010506021790206432,0.8363670110702515,-0.008580697700381279,-0.15862950682640076
292.0,311.0,-0.5127,-0.0431,9.6987,-0.0586,0.0275,-0.1129,-1.7804810009398402,-0.00020122801652178168,2.7320914268493652,-1.816146731376648,0.0032112987246364355,2.0620970726013184,5.093812542944708,-0.00042592710815370083,0.2280847728252411,-1.5966375509845179,0.0003692402387969196,0.04378008097410202,0.7979686260223389,-8.954537770478055e-05,-0.011860473081469536,0.8362870216369629,-0.009270276874303818,-0.22011883556842804
298.0,292.0,-0.7059,0.1507,9.6885,-0.0344,0.0255,-0.1284,-1.780530115167135,-0.0002048437891062349,2.6831955909729004,-1.8161311149597168,0.0037497899029403925,2.0113251209259033,5.093760448485174,-0.00044910816359333694,0.20406973361968994,-1.5966222921954554,0.0003457329876255244,0.05988016724586487,0.7979567050933838,-8.294329018099234e-05,-0.009764582850039005,0.8362150192260742,-0.007991145364940166,-0.2382713258266449
298.0,292.0,-0.7059,0.1507,9.6885,-0.0344,0.0255,-0.1284,-1.7805215320982875,-0.00017785579257179052,2.7172136306762695,-1.8161588907241821,0.005498828366398811,2.1036264896392822,5.09380059221343,-0.0004940428189001977,0.20289364457130432,-1.5966180006610315,0.0003370106278453022,0.06675517559051514,0.7979927659034729,-9.256315388483927e-05,0.00233633816242218,0.8361067175865173,-0.00919581763446331,-0.2609172761440277
298.0,292.0,-0.7059,0.1507,9.6885,-0.0344,0.0255,-0.1284,-1.7805458507933558,-0.00018026487668976188,2.678633689880371,-1.816022515296936,0.008268279954791069,2.0515341758728027,5.09381656625823,-0.000496051914524287,0.20240798592567444,-1.596581761037008,0.00033608198282308877,0.06261329352855682,0.7979965209960938,-8.674131095176563e-05,-0.011800749227404594,0.8360586762428284,-0.01014399528503418,-0.2741382122039795
298.0,292.0,-0.7059,0.1507,9.6885,-0.0344,0.0255,-0.1284,-1.780513425866598,-0.00016422593034803867,2.6946229934692383,-1.815934419631958,0.010140374302864075,2.0735220909118652,5.093748527556219,-0.0005340990610420704,0.20035818219184875,-1.5966017881976526,0.00031782875885255635,0.07499414682388306,0.7980570793151855,-8.150425856001675e-05,-0.0006544473581016064,0.8359344005584717,-0.011508313938975334,-0.3205282986164093
298.0,292.0,-0.7059,0.1507,9.6885,-0.0344,0.0255,-0.1284,-1.780513425866598,-0.0001487190165789798,2.6534693241119385,-1.8158628940582275,0.012216517701745033,2.058126211166382,5.093776780157842,-0.0005072557250969112,0.1967083215713501,-1.5965774695025843,0.00030675847665406764,0.08286888897418976,0.7979403138160706,-7.686381286475807e-05,0.00768329156562686,0.8358426690101624,-0.013489472679793835,-0.3211992681026459
298.0,292.0,-0.7059,0.1507,9.6885,-0.0344,0.0255,-0.1284,-1.7804938755431117,-0.00013588782167062163,2.6412124633789062,-1.8157674074172974,0.014259431511163712,2.117471933364868,5.0937488851840875,-0.0005654137930832803,0.18953537940979004,-1.5965536276446741,0.00028920744080096483,0.10152983665466309,0.7979484796524048,-7.272321090567857e-05,-0.007915809750556946,0.8357826471328735,-0.013723018579185009,-0.30392563343048096
298.0,292.0,-0.7059,0.1507,9.6885,-0.0344,0.0255,-0.1284,-1.780501504937643,-0.0001276292750844732,2.63743257522583,-1.8156317472457886,0.016673212870955467,2.0692222118377686,5.093720662384786,-0.0005789962597191334,0.18690696358680725,-1.596597973500387,0.00028518371982499957,0.10166334360837936,0.7979804873466492,-6.989912799326703e-05,0.005830185487866402,0.8356665968894958,-0.01506116148084402,-0.2829016149044037
298.0,292.0,-0.7059,0.1507,9.6885,-0.0344,0.0255,-0.1284,-1.780485292474264,-0.00011806219845311716,2.6390349864959717,-1.8154672384262085,0.01892441138625145,2.1301779747009277,5.093708324223318,-0.0006144029903225601,0.17638224363327026,-1.596597973500387,0.0002454256173223257,0.09880247712135315,0.7980005741119385,-6.645816029049456e-05,0.014894263818860054,0.8355824947357178,-0.017265917733311653,-0.35921603441238403
298.0,292.0,-0.7059,0.1507,9.6885,-0.0344,0.0255,-0.1284,-1.7805377445616664,-0.00010982952517224476,2.6296541690826416,-1.8153964281082153,0.02215939201414585,2.122103452682495,5.0937325833137415,-0.0008261205512098968,0.1786377727985382,-1.596557919179098,0.0002426660794299096,0.09995626658201218,0.7979846000671387,-6.334001227514818e-05,0.004571978002786636,0.8353580832481384,-0.02048075944185257,-0.31766268610954285
298.0,292.0,-0.7059,0.1507,9.6885,-0.0344,0.0255,-0.1284,-1.7805496654906214,-0.00011726879893103614,2.6095454692840576,-1.8151644468307495,0.026679208502173424,2.091050624847412,5.093708741455831,-0.002421416575089097,0.18352240324020386,-1.5965941588031214,0.0002105126914102584,0.1002751812338829,0.7980692982673645,-6.050140655133873e-05,0.007582056801766157,0.8352140784263611,-0.020173145458102226,-0.3542711138725281
298.0,292.0,-0.7059,0.1507,9.6885,-0.0344,0.0255,-0.1284,-1.7805377445616664,-0.00010308044875273481,2.5693116188049316,-1.8149489164352417,0.03055415116250515,2.1609420776367188,5.093648898392477,-0.014952283352613449,0.18970102071762085,-1.596586052571432,0.00021215996821410954,0.10180193185806274,0.7979767322540283,-3.285453331614008e-08,-0.00466460594907403,0.8351181149482727,-0.019650503993034363,-0.3936398923397064
301.0,293.0,-0.5151,-0.2889,9.8381,-0.0628,0.0351,-0.1286,-1.780557771722311,-9.134336141869426e-05,2.6099092960357666,-1.8146650791168213,0.03356600180268288,2.125070571899414,5.09347744563178,-0.021454332396388054,0.1904475837945938,-1.596569840108053,0.00018381202244199812,0.1146135926246643,0.7979444265365601,-5.971149681475996e-13,-0.004699546378105879,0.8348979353904724,-0.019940108060836792,-0.4052892327308655
301.0,293.0,-0.5151,-0.2889,9.8381,-0.0628,0.0351,-0.1286,-1.7804810009398402,-8.44838868943043e-05,2.6236395835876465,-1.814405918121338,0.03671227768063545,2.134647846221924,5.093325841217794,-0.012605600990355015,0.16796888411045074,-1.5965374151812952,0.00018827429448720068,0.11923766136169434,0.7980005145072937,-1.0852271319825189e-17,-0.00038973335176706314,0.8347858786582947,-0.01925615593791008,-0.39591550827026367
301.0,293.0,-0.5151,-0.2889,9.8381,-0.0628,0.0351,-0.1286,-1.7805539570250453,-7.858256140025333e-05,2.6079111099243164,-1.814034104347229,0.039007436484098434,2.129476547241211,5.093270319491186,-0.004743531346321106,0.15689460933208466,-1.5965374151812952,0.0001685453171376139,0.12100083380937576,0.798004686832428,-1.9723468908150656e-22,0.00592234218493104,0.8346177935600281,-0.017515331506729126,-0.46041637659072876
301.0,293.0,-0.5151,-0.2889,9.8381,-0.0628,0.0351,-0.1286,-1.780530115167135,-7.467075920430943e-05,2.587405204772949,-1.813810110092163,0.040308207273483276,2.150644540786743,5.093213844090261,-0.0020367035176604986,0.174844890832901,-1.5965536276446741,0.00015602234634570777,0.11761718988418579,0.7979723215103149,-5.490099040301009e-26,-0.007971987128257751,0.8344936370849609,-0.016698172315955162,-0.42610663175582886
301.0,293.0,-0.5151,-0.2889,9.8381,-0.0628,0.0351,-0.1286,-1.7805701694884242,-8.402762614423409e-05,2.5493619441986084,-1.81349515914917,0.04274947941303253,2.1047585010528564,5.093201863556661,-0.0007984105031937361,0.1742984503507614,-1.5965622107135218,0.0001622154377400875,0.11181136965751648,0.7980005741119385,-9.977983492717607e-31,-0.005153054371476173,0.8344136476516724,-0.014738512225449085,-0.4220464527606964
301.0,293.0,-0.5151,-0.2889,9.8381,-0.0628,0.0351,-0.1286,-1.780530115167135,-9.228786802850664e-05,2.5833425521850586,-1.8130549192428589,0.047203317284584045,2.171710968017578,5.09321420171813,-0.0012670547002926469,0.16324949264526367,-1.596557919179098,0.00014882445975672454,0.11336920410394669,0.7980406880378723,-1.813449713898558e-35,-0.0048886616714298725,0.834217369556427,-0.013679785653948784,-0.39043745398521423
301.0,293.0,-0.5151,-0.2889,9.8381,-0.0628,0.0351,-0.1286,-1.7805458507933558,-8.717996388440952e-05,2.6028404235839844,-1.8126602172851562,0.05192155763506889,2.149901866912842,5.093242454319753,-0.002128004562109709,0.16040480136871338,-1.5965412298785608,0.0001374588900944218,0.11627709865570068,0.7980169057846069,-3.2958539880919698e-40,-0.00616991613060236,0.8341412544250488,-0.014046430587768555,-0.36770331859588623
301.0,293.0,-0.5151,-0.2889,9.8381,-0.0628,0.0351,-0.1286,-1.7805215320982875,-9.037432755576447e-05,2.5758590698242188,-1.8122859001159668,0.05792497098445892,2.128767490386963,5.093186306744375,-0.003798756515607238,0.1606159806251526,-1.5965536276446741,0.00012770634202752262,0.11299290508031845,0.7979800701141357,-5.605193857299268e-45,0.0012224162928760052,0.8340334296226501,-0.013158826157450676,-0.48003923892974854
301.0,293.0,-0.5151,-0.2889,9.8381,-0.0628,0.0351,-0.1286,-1.7805215320982875,-8.970374619821087e-05,2.5263266563415527,-1.8117544651031494,0.06396206468343735,2.1416730880737305,5.093130546599188,-0.003225012682378292,0.1545030176639557,-1.5965340773211878,0.0001062961237039417,0.10761973261833191,0.7979965209960938,-0.0,-0.002734039444476366,0.8339173197746277,-0.013808554038405418,-0.4204932451248169
301.0,293.0,-0.5151,-0.2889,9.8381,-0.0628,0.0351,-0.1286,-1.7805496654906214,-8.544561569578946e-05,2.5485262870788574,-1.811203122138977,0.06429630517959595,2.172778606414795,5.09314655044631,-0.0027000694535672665,0.15200874209403992,-1.5965536276446741,9.676823538029566e-05,0.12121930718421936,0.7980086803436279,-0.0,-0.0011696271831169724,0.8338531851768494,-0.014049948193132877,-0.429143488407135
301.0,293.0,-0.5151,-0.2889,9.8381,-0.0628,0.0351,-0.1286,-1.7805377445616664,-7.138228102121502e-05,2.5709311962127686,-1.810720443725586,0.06303855031728745,2.1653151512145996,5.093186634569921,-0.0013517849147319794,0.15273678302764893,-1.5965340773211878,8.910366159398109e-05,0.11991395056247711,0.7980128526687622,-0.0,-0.002255053259432316,0.8336970210075378,-0.012497472576797009,-0.38481512665748596
301.0,293.0,-0.5151,-0.2889,9.8381,-0.0628,0.0351,-0.1286,-1.7805215320982875,-1.0786364867954035e-07,2.5587174892425537,-1.8102333545684814,0.06503660976886749,2.1458418369293213,5.0931429145629785,-0.0007053776062093675,0.1491401195526123,-1.596529785786764,8.256419096142054e-05,0.10693062841892242,0.7979521155357361,-0.0,0.0018563870107755065,0.8336290121078491,-0.01300236489623785,-0.37221741676330566
289.0,291.0,-0.2285,-0.1657,9.6485,-0.0374,0.0367,-0.1365,-1.780497213403219,-2.6047799984649234e-13,2.5638628005981445,-1.8097609281539917,0.06734373420476913,2.056723117828369,5.093146520643987,-0.0005472289631143212,0.1640896052122116,-1.5965412298785608,9.363987192045897e-05,0.11522077769041061,0.7979965209960938,-0.0,0.0047085462138056755,0.8335568904876709,-0.014411692507565022,-0.47204574942588806
289.0,291.0,-0.2285,-0.1657,9.6485,-0.0374,0.0367,-0.1365,-1.780530115167135,-8.439155911000978e-21,2.529423236846924,-1.8092302083969116,0.06999240815639496,2.1653125286102295,5.093106376915731,-0.0004887569230049849,0.16529473662376404,-1.596557919179098,8.780042844591662e-05,0.11291220039129257,0.7979603409767151,-0.0,-0.0005421671085059643,0.8334408402442932,-0.014534362591803074,-0.418805867433548
289.0,291.0,-0.2285,-0.1657,9.6485,-0.0374,0.0367,-0.1365,-1.7805739841856898,-2.734179427099637e-28,2.5520615577697754,-1.8086026906967163,0.07476379722356796,2.1539969444274902,5.093098211079397,-0.00041196265374310315,0.15998254716396332,-1.5965493361102503,8.243873890023679e-05,0.10964658856391907,0.798028826713562,-0.0,-0.007004363462328911,0.83335280418396,-0.014210782013833523,-0.4056597352027893
289.0,291.0,-0.2285,-0.1657,9.6485,-0.0374,0.0367,-0.1365,-1.7805420360960902,-7.11607062839903e-05,2.5269994735717773,-1.8080564737319946,0.07830367237329483,2.1456708908081055,5.09310262182311,-0.002094070892781019,0.1599198281764984,-1.5965412298785608,7.769426156301051e-05,0.11348383128643036,0.7979682087898254,-0.0,0.002025282010436058,0.833212673664093,-0.015259452164173126,-0.40104931592941284
289.0,291.0,-0.2285,-0.1657,9.6485,-0.0374,0.0367,-0.1365,-1.780496736566061,-0.00010861107875825837,2.564251661300659,-1.8073736429214478,0.0836709663271904,2.1782326698303223,5.0930266855056665,-0.004831547848880291,0.14703574776649475,-1.5965173880206507,8.570706268073991e-05,0.11792412400245667,0.7980406880378723,-0.0,0.0020954133942723274,0.8330965042114258,-0.016722360625863075,-0.4397897720336914
289.0,291.0,-0.2285,-0.1657,9.6485,-0.0374,0.0367,-0.1365,-1.7805983028807582,-0.0005116359679959714,2.5478146076202393,-1.8066233396530151,0.0890502855181694,2.254868745803833,5.093010800867834,-0.006987378932535648,0.1481722891330719,-1.5965421835528772,8.128704212140292e-05,0.12139540910720825,0.7979723215103149,-0.0,-0.0009153479477390647,0.832928478717804,-0.018774131312966347,-0.4673679769039154
289.0,291.0,-0.2285,-0.1657,9.6485,-0.0374,0.0367,-0.1365,-1.7805215320982875,-0.0003516425786074251,2.518740653991699,-1.8059208393096924,0.09241078794002533,2.225890636444092,5.09295533874587,-0.008153505623340607,0.15776567161083221,-1.5965498129474085,8.83338725543581e-05,0.12114188075065613,0.7980005741119385,-0.0,-0.005617349408566952,0.8328044414520264,-0.02169473096728325,-0.46888333559036255
289.0,291.0,-0.2285,-0.1657,9.6485,-0.0374,0.0367,-0.1365,-1.7805177174010218,-0.0002678906312212348,2.5157480239868164,-1.805177927017212,0.09610187262296677,2.2184441089630127,5.092935311585226,-0.0087661137804389,0.14017058908939362,-1.5965383688556116,8.420749509241432e-05,0.1272914707660675,0.7979882955551147,-0.0,-0.0054979776032269,0.8326162695884705,-0.025918420404195786,-0.4504873752593994
289.0,291.0,-0.2285,-0.1657,9.6485,-0.0374,0.0367,-0.1365,-1.7805091343321742,-0.00022729205375071615,2.535677194595337,-1.804551124572754,0.10384286940097809,2.178384780883789,5.092851626663961,-0.0078119984827935696,0.14934378862380981,-1.5965173880206507,8.135306416079402e-05,0.1359785795211792,0.797980546951294,-0.0,0.006864076014608145,0.8324200510978699,-0.03035872057080269,-0.44778650999069214
289.0,291.0,-0.2285,-0.1657,9.6485,-0.0374,0.0367,-0.1365,-1.7805658779540003,-0.0001890865678433329,2.5071635246276855,-1.8036561012268066,0.11071699112653732,2.1816647052764893,5.09282003620223,-0.011265472508966923,0.15463769435882568,-1.5965455214129847,3.391566281152336e-07,0.1131257489323616,0.7980046272277832,-0.0,0.005850504152476788,0.8321518301963806,-0.03715142235159874,-0.5399640798568726
289.0,291.0,-0.2285,-0.1657,9.6485,-0.0374,0.0367,-0.1365,-1.7805615864195765,-0.00016187751316465437,2.5367043018341064,-1.80266535282135,0.12026715278625488,2.246990919113159,5.092704403191366,-0.01863316260278225,0.13082697987556458,-1.5965536276446741,7.014607399469241e-05,0.11847615242004395,0.7980005145072937,-0.0,-0.007407260127365589,0.8318597674369812,-0.04307188838720322,-0.47462034225463867
296.0,290.0,-0.6293,0.3159,9.9535,-0.0331,0.1058,-0.1385,-1.780581613580221,-0.00016981161024887115,2.593946933746338,-1.8017959594726562,0.12971167266368866,2.2189505100250244,5.092476892262258,-0.03314787894487381,0.1300274282693863,-1.5965216795550745,7.621651457156986e-05,0.12418590486049652,0.7979759573936462,-0.0,-0.0024182763881981373,0.8314714431762695,-0.04934580624103546,-0.5025347471237183
296.0,290.0,-0.6293,0.3159,9.9535,-0.0331,0.1058,-0.1385,-1.780553480187887,-0.00015084217011462897,2.5819263458251953,-1.8006852865219116,0.13403093814849854,2.248328685760498,5.092081832676687,-0.06707753241062164,0.1290484070777893,-1.5965784231769007,7.138077489798889e-05,0.14466509222984314,0.7980287671089172,-0.0,0.006512125954031944,0.8310591578483582,-0.05488157644867897,-0.5181321501731873
296.0,290.0,-0.6293,0.3159,9.9535,-0.0331,0.1058,-0.1385,-1.7805215320982875,-0.00013568181020673364,2.543488025665283,-1.7995878458023071,0.14030693471431732,2.2784385681152344,5.091311651259222,-0.11321785300970078,0.10271407663822174,-1.596489731465475,6.712185859214514e-05,0.12470538914203644,0.7980406880378723,-0.0,0.006288895383477211,0.8306108117103577,-0.05854649469256401,-0.4908232092857361
296.0,290.0,-0.6293,0.3159,9.9535,-0.0331,0.1058,-0.1385,-1.7805377445616664,-0.00010356499115005136,2.5545010566711426,-1.7984936237335205,0.15497374534606934,2.300905466079712,5.0902711627777,-0.13505592942237854,0.1001742035150528,-1.596513573323385,6.334261706797406e-05,0.13002926111221313,0.7980406880378723,-0.0,5.875970236957073e-05,0.8301305174827576,-0.06249134987592697,-0.5186251997947693
296.0,290.0,-0.6293,0.3159,9.9535,-0.0331,0.1058,-0.1385,-1.7805177174010218,-0.00011271394032519311,2.5318307876586914,-1.79718816280365,0.16554918885231018,2.3163747787475586,5.089111345797338,-0.14157719910144806,0.09649001061916351,-1.596529785786764,5.996622712700628e-05,0.12427971512079239,0.7980247139930725,-0.0,-0.015001379884779453,0.829594075679779,-0.06517736613750458,-0.5383877158164978
296.0,290.0,-0.6293,0.3159,9.9535,-0.0331,0.1058,-0.1385,-1.7805983028807582,-0.000106301304185763,2.5510568618774414,-1.7961012125015259,0.1685609370470047,2.3322525024414062,5.088242041855612,-0.15808060765266418,0.09005673229694366,-1.5965455214129847,5.766114190919325e-05,0.12774688005447388,0.7980128526687622,-0.0,0.00048807362327352166,0.8292216658592224,-0.06298188120126724,-0.515509307384491
296.0,290.0,-0.6293,0.3159,9.9535,-0.0331,0.1058,-0.1385,-1.7805329761900843,-0.00011496573279146105,2.5324907302856445,-1.7947635650634766,0.17176908254623413,2.275838613510132,5.086718100100317,-0.18689537048339844,0.07231684029102325,-1.5965536276446741,5.4849831940373406e-05,0.11929398030042648,0.7980247139930725,-0.0,-0.006345335394144058,0.8287094235420227,-0.05694827437400818,-0.5116429328918457
296.0,290.0,-0.6293,0.3159,9.9535,-0.0331,0.1058,-0.1385,-1.7805983028807582,-0.00010714487143559381,2.586623191833496,-1.7933462858200073,0.18072658777236938,2.31748104095459,5.085200148611822,-0.1951192319393158,0.06787547469139099,-1.5965383688556116,6.139698962215334e-05,0.13453462719917297,0.7980284690856934,-0.0,0.0011875808704644442,0.828233003616333,-0.05266837030649185,-0.4817274212837219
296.0,290.0,-0.6293,0.3159,9.9535,-0.0331,0.1058,-0.1385,-1.780541559258932,-0.00010032031423179433,2.5282254219055176,-1.7918410301208496,0.18995361030101776,2.328099489212036,5.083373176842489,-0.23615612089633942,0.055622681975364685,-1.5965302626239222,5.9971898735966533e-05,0.1347576081752777,0.7980529069900513,-0.0,0.0020521541591733694,0.827804684638977,-0.05301940441131592,-0.49579328298568726
296.0,290.0,-0.6293,0.3159,9.9535,-0.0331,0.1058,-0.1385,-1.7805739841856898,-9.431315265828744e-05,2.5313615798950195,-1.790348768234253,0.1996859610080719,2.3430871963500977,5.081343817501821,-0.25012049078941345,0.041657235473394394,-1.5965054670916956,4.242020956723991e-09,0.14006616175174713,0.7980970144271851,-0.0,0.003973742946982384,0.8274004459381104,-0.0573212131857872,-0.5106459856033325
296.0,290.0,-0.6293,0.3159,9.9535,-0.0331,0.1058,-0.1385,-1.7805735073485316,-8.89847069629468e-05,2.49291729927063,-1.7886908054351807,0.20370584726333618,2.2966113090515137,5.079151052027502,-0.28999918699264526,-0.0007615560898557305,-1.5964973608600062,7.709664070348898e-14,0.1257886290550232,0.7980046272277832,-0.0,-0.008995426818728447,0.8269560933113098,-0.06079323962330818,-0.5284533500671387
296.0,290.0,-0.6293,0.3159,9.9535,-0.0331,0.1058,-0.1385,-1.7805215320982875,-8.422619430348277e-05,2.4932823181152344,-1.787102222442627,0.21786624193191528,2.35054874420166,5.0766232190425775,-0.33640503883361816,0.02193332090973854,-1.596546475087301,1.4011939132377694e-18,0.1251962035894394,0.7980005145072937,-0.0,-0.02295656129717827,0.8264678120613098,-0.06250917166471481,-0.5516191720962524
303.0,283.0,-2.0094,0.4002,10.1695,-0.0371,0.1112,-0.177,-1.7805983028807582,-6.221597141120583e-05,2.525439977645874,-1.785276174545288,0.22425948083400726,2.298583745956421,5.073732363968649,-0.36747244000434875,-0.023938117548823357,-1.5965383688556116,2.5466006164622893e-23,0.123988077044487,0.7980046272277832,-0.0,0.009667153470218182,0.8259714841842651,-0.062404680997133255,-0.5122912526130676
303.0,283.0,-2.0094,0.4002,10.1695,-0.0371,0.1112,-0.177,-1.7805859051146449,-0.0008894584025256336,2.553126811981201,-1.7834686040878296,0.22522036731243134,2.38232421875,5.07069872596816,-0.40132400393486023,-0.028666650876402855,-1.5965536276446741,4.628320694048546e-28,0.13460592925548553,0.7980165481567383,-0.0,-0.0020354108419269323,0.8254510760307312,-0.061424367129802704,-0.48921117186546326
303.0,283.0,-2.0094,0.4002,10.1695,-0.0371,0.1112,-0.177,-1.7805496654906214,-0.0006880738656036556,2.5002458095550537,-1.7821367979049683,0.23106640577316284,2.3887686729431152,5.068220066815176,-0.4392230212688446,-0.052360422909259796,-1.5965421835528772,1.28831018770319e-31,0.1205333024263382,0.7980366349220276,-0.0,-0.0011117411777377129,0.8251227736473083,-0.06241876259446144,-0.5181615352630615
303.0,283.0,-2.0094,0.4002,10.1695,-0.0371,0.1112,-0.177,-1.7805692158141078,-0.00045568813220597804,2.5240793228149414,-1.7802327871322632,0.2394581437110901,2.386558771133423,5.064455199032583,-0.4806370139122009,-0.06272685527801514,-1.5965340773211878,2.3414401418047886e-36,0.13083875179290771,0.7979883551597595,-0.0,-0.000208595534786582,0.8245744109153748,-0.06499204784631729,-0.5210193991661072
303.0,283.0,-2.0094,0.4002,10.1695,-0.0371,0.1112,-0.177,-1.7805692158141078,-0.0003406674659345299,2.5195727348327637,-1.7782378196716309,0.24142639338970184,2.385378837585449,5.060388105898657,-0.5325453877449036,-0.07609213888645172,-1.5965660254107874,4.2554631764616045e-41,0.12668490409851074,0.798020601272583,-0.0,0.001321249408647418,0.8240979313850403,-0.06238890066742897,-0.5265882611274719
303.0,283.0,-2.0094,0.4002,10.1695,-0.0371,0.1112,-0.177,-1.780541559258932,-0.0002720165066421032,2.4885807037353516,-1.7762668132781982,0.2485266923904419,2.3739218711853027,5.055841523199835,-0.5905473232269287,-0.09632086753845215,-1.5965216795550745,1.401298464324817e-45,0.13045161962509155,0.7979841828346252,-0.0,-0.0014661153545603156,0.8235694766044617,-0.05667596310377121,-0.49690181016921997
303.0,283.0,-2.0094,0.4002,10.1695,-0.0371,0.1112,-0.177,-1.7805010281004847,-0.0002263958886032924,2.5006113052368164,-1.7742843627929688,0.2522578835487366,2.3916666507720947,5.050892758160391,-0.6263360381126404,-0.08657839149236679,-1.59650165239443,0.0,0.1355789452791214,0.7980043292045593,-0.0,-0.0014902153052389622,0.8232053518295288,-0.05093184858560562,-0.5115052461624146
303.0,283.0,-2.0094,0.4002,10.1695,-0.0371,0.1112,-0.177,-1.780581613580221,-0.00019388018699828535,2.532400608062744,-1.7722337245941162,0.2574959993362427,2.3522469997406006,5.045486259251394,-0.6739908456802368,-0.10768959671258926,-1.596489731465475,0.0,0.11709687113761902,0.7980325222015381,-0.0,0.00032257172279059887,0.8227689862251282,-0.048102967441082,-0.5138250589370728
303.0,283.0,-2.0094,0.4002,10.1695,-0.0371,0.1112,-0.177,-1.7805983028807582,-0.000169532053405419,2.5484602451324463,-1.7701187133789062,0.2663779556751251,2.3469085693359375,5.039969968586721,-0.7106469869613647,-0.0729416161775589,-1.5965054670916956,0.0,0.12993016839027405,0.7980005145072937,-0.0,-0.01244307216256857,0.8223525285720825,-0.04854663833975792,-0.49317365884780884
303.0,283.0,-2.0094,0.4002,10.1695,-0.0371,0.1112,-0.177,-1.7805777988829554,-0.0001506174448877573,2.5424187183380127,-1.7680244445800781,0.26779165863990784,2.4324138164520264,5.034091132670202,-0.7578619122505188,-0.09773479402065277,-1.5965660254107874,0.0,0.12062656879425049,0.7980124354362488,-0.0,-0.0021981156896799803,0.8219642639160156,-0.049644745886325836,-0.5095933079719543
303.0,283.0,-2.0094,0.4002,10.1695,-0.0371,0.1112,-0.177,-1.7805859051146449,-0.00016215145296882838,2.509889602661133,-1.7664762735366821,0.27233362197875977,2.3950934410095215,5.029480594187536,-0.7785954475402832,-0.0863988846540451,-1.5965259710894983,2.0496061551966704e-05,0.128941610455513,0.7980325222015381,-0.0,0.0036966002080589533,0.8217041492462158,-0.05019647255539894,-0.5346179604530334
298.0,293.0,-1.3896,-0.3488,9.5593,-0.0564,-0.2094,-0.1582,-1.7805777988829554,-0.00016801706806290895,2.538445472717285,-1.7642379999160767,0.2762327194213867,2.3825230598449707,5.023047315865316,-0.8212658166885376,-0.08499768376350403,-1.5965455214129847,5.545785164429162e-09,0.12025662511587143,0.7980086207389832,-0.0,-0.0016178216319531202,0.8212958574295044,-0.046130433678627014,-0.5123497843742371
298.0,293.0,-1.3896,-0.3488,9.5593,-0.0564,-0.2094,-0.1582,-1.7805901966490687,-0.00015367400192189962,2.5571165084838867,-1.7620238065719604,0.28089776635169983,2.4193615913391113,5.016289818077841,-0.8508349061012268,-0.07408667355775833,-1.5965536276446741,1.00791906288214e-13,0.11427248269319534,0.798012375831604,-0.0,0.009898237884044647,0.820899486541748,-0.04355311766266823,-0.48160848021507263
298.0,293.0,-1.3896,-0.3488,9.5593,-0.0564,-0.2094,-0.1582,-1.7806059322752894,-0.00014158613339532167,2.552252769470215,-1.7597410678863525,0.289634108543396,2.419839382171631,5.009363907366552,-0.8797630667686462,-0.060396164655685425,-1.5965455214129847,1.8318429584918112e-18,0.12017985433340073,0.798020601272583,-0.0,0.003995339851826429,0.8205512762069702,-0.04138803109526634,-0.45373111963272095
298.0,293.0,-1.3896,-0.3488,9.5593,-0.0564,-0.2094,-0.1582,-1.7805859051146449,-0.00013126141857355833,2.5473697185516357,-1.7574354410171509,0.2920844852924347,2.349766492843628,5.002256828337469,-0.9018987417221069,-0.08228158950805664,-1.5965455214129847,3.3292839519345153e-23,0.11333246529102325,0.7980046272277832,-0.0,-0.009784763678908348,0.8201949596405029,-0.040249649435281754,-0.42723503708839417
298.0,293.0,-1.3896,-0.3488,9.5593,-0.0564,-0.2094,-0.1582,-1.7806059322752894,-0.00012234017776791006,2.6026875972747803,-1.7551699876785278,0.308583527803421,2.4182379245758057,4.994854825526037,-0.91707843542099,-0.07521679252386093,-1.5965259710894983,6.050808217630584e-28,0.10527798533439636,0.7980046272277832,-0.0,-0.0011122445575892925,0.8199188709259033,-0.04131206497550011,-0.4464845061302185
298.0,293.0,-1.3896,-0.3488,9.5593,-0.0564,-0.2094,-0.1582,-1.7805572948851527,-0.0001145542919402942,2.5890915393829346,-1.7526438236236572,0.3037553131580353,2.4541449546813965,4.98742641785697,-0.9347625374794006,-0.08658692240715027,-1.5965293089496058,1.0997044260214174e-32,0.10795189440250397,0.7980165481567383,-0.0,-0.0020849176216870546,0.8195825219154358,-0.04259178787469864,-0.38886314630508423
298.0,293.0,-1.3896,-0.3488,9.5593,-0.0564,-0.2094,-0.1582,-1.780637880364889,-0.00010770030348794535,2.6462173461914062,-1.7501184940338135,0.3126230239868164,2.4157490730285645,4.97986866810874,-0.9436258673667908,-0.06663081049919128,-1.5965498129474085,1.9986587714089834e-37,0.10582385212182999,0.7979923486709595,-0.0,0.010125181637704372,0.8192181587219238,-0.040664833039045334,-0.36821264028549194
298.0,293.0,-1.3896,-0.3488,9.5593,-0.0564,-0.2094,-0.1582,-1.7805448971190394,-0.00010307491902494803,2.6757469177246094,-1.7482346296310425,0.3168696165084839,2.4423904418945312,4.974311429053106,-0.9447563886642456,-0.03419559448957443,-1.596557919179098,5.563295033215956e-41,0.09760910272598267,0.7980732321739197,-0.0,-0.007995795458555222,0.819006085395813,-0.039998847991228104,-0.38598066568374634
298.0,293.0,-1.3896,-0.3488,9.5593,-0.0564,-0.2094,-0.1582,-1.7805901966490687,-8.530567720299587e-05,2.6937012672424316,-1.745560884475708,0.31695684790611267,2.475522041320801,4.966900098114767,-0.9411829710006714,-0.060605742037296295,-1.596485439931051,1.401298464324817e-45,0.09366418421268463,0.7979603409767151,-0.0,-0.004506365861743689,0.8186933994293213,-0.0394866019487381,-0.3916821777820587
298.0,293.0,-1.3896,-0.3488,9.5593,-0.0564,-0.2094,-0.1582,-1.7805777988829554,-2.3514343805430826e-09,2.7438111305236816,-1.742936134338379,0.3269530236721039,2.5399715900421143,4.959381404310026,-0.9333204627037048,-0.033935628831386566,-1.596557919179098,0.0,0.085300013422966,0.7979562878608704,-0.0,-8.331728167831898e-05,0.8183615803718567,-0.03558782488107681,-0.33754321932792664
298.0,293.0,-1.3896,-0.3488,9.5593,-0.0564,-0.2094,-0.1582,-1.7805658779540003,-7.618348661736656e-17,2.73476505279541,-1.7403072118759155,0.33459556102752686,2.513305187225342,4.95193429568366,-0.9164431095123291,-0.032158948481082916,-1.5965259710894983,0.0,0.08805833011865616,0.7979763746261597,-0.0,-0.011819450184702873,0.8180891275405884,-0.03206885606050491,-0.3171277642250061
298.0,293.0,-1.3896,-0.3488,9.5593,-0.0564,-0.2094,-0.1582,-1.7805739841856898,-2.468248150899525e-24,2.7650723457336426,-1.7376255989074707,0.34202563762664795,2.528984546661377,4.944772246270933,-0.8998869061470032,-0.03281943127512932,-1.5965383688556116,0.0,0.07687508314847946,0.7979963421821594,-0.0,-0.010862139984965324,0.8179012537002563,-0.028336182236671448,-0.29668062925338745
305.0,272.0,-0.6945,-0.3685,9.1902,-0.0724,-0.6008,-0.1362,-1.780625959435934,-7.996811073764043e-32,2.8413662910461426,-1.7348653078079224,0.3508356213569641,2.5680878162384033,4.937644499331274,-0.8875752091407776,-0.026033323258161545,-1.596513573323385,0.0,0.07440365105867386,0.7979882955551147,-0.0,-0.010414967313408852,0.8177011609077454,-0.02291218191385269,-0.30422723293304443
305.0,272.0,-0.6945,-0.3685,9.1902,-0.0724,-0.6008,-0.1362,-1.7805935345091761,-2.5908649345855473e-39,2.811202049255371,-1.7320125102996826,0.3535665273666382,2.5756030082702637,4.930501553207197,-0.8752089142799377,-0.018502334132790565,-1.596513573323385,0.0,0.0616459995508194,0.7979563474655151,-0.0,-0.0051916856318712234,0.8174848556518555,-0.019287994131445885,-0.3024945855140686
305.0,272.0,-0.6945,-0.3685,9.1902,-0.0724,-0.6008,-0.1362,-1.7806021175780238,-0.0,2.788113594055176,-1.7292280197143555,0.36341339349746704,2.578197956085205,4.9236532775457285,-0.8606422543525696,-0.00530336145311594,-1.5965622107135218,0.0,0.08259761333465576,0.7980651259422302,-0.0,-0.015196887776255608,0.8172999620437622,-0.017994703724980354,-0.2831959128379822
305.0,272.0,-0.6945,-0.3685,9.1902,-0.0724,-0.6008,-0.1362,-1.7806178532042445,0.0,2.837754249572754,-1.7270580530166626,0.364018052816391,2.5899651050567627,4.918504598527708,-0.8490075469017029,-0.023567799478769302,-1.5965455214129847,0.0,0.07659600675106049,0.798065185546875,-0.0,-0.0021503157913684845,0.817240834236145,-0.01654740422964096,-0.25564050674438477
305.0,272.0,-0.6945,-0.3685,9.1902,-0.0724,-0.6008,-0.1362,-1.780581613580221,0.0,2.802597999572754,-1.7240606546401978,0.37797868251800537,2.610135078430176,4.911841529398718,-0.8330962061882019,0.001805208856239915,-1.5965498129474085,0.0,0.05699877068400383,0.7979763746261597,-0.0,-0.0006433752132579684,0.8171082139015198,-0.016380352899432182,-0.2957300543785095
305.0,272.0,-0.6945,-0.3685,9.1902,-0.0724,-0.6008,-0.1362,-1.7806059322752894,0.0,2.8194470405578613,-1.7210570573806763,0.3772946000099182,2.5945398807525635,4.90521319487647,-0.8192437291145325,-0.005689653102308512,-1.5965173880206507,0.0,0.07810099422931671,0.7979882955551147,-0.0,0.005635123234242201,0.8169603943824768,-0.016003986820578575,-0.28288373351097107
305.0,272.0,-0.6945,-0.3685,9.1902,-0.0724,-0.6008,-0.1362,-1.780581613580221,0.0,2.8256609439849854,-1.717929720878601,0.385072261095047,2.58121919631958,4.898577946215429,-0.8107991814613342,-0.0021385536529123783,-1.5965455214129847,-0.00016959614004008472,0.06998313218355179,0.7979882955551147,-0.0,-0.003783209016546607,0.8168726563453674,-0.015178794041275978,-0.3174120783805847
305.0,272.0,-0.6945,-0.3685,9.1902,-0.0724,-0.6008,-0.1362,-1.7805978260436,0.0,2.8627028465270996,-1.714884877204895,0.38395848870277405,2.5977301597595215,4.892186942487516,-0.7947373986244202,0.007141363341361284,-1.5965622107135218,-9.66666339081712e-05,0.07940958440303802,0.7980086803436279,-0.0,-0.0028002795297652483,0.816760241985321,-0.013423815369606018,-0.32589173316955566
305.0,272.0,-0.6945,-0.3685,9.1902,-0.0724,-0.6008,-0.1362,-1.780581613580221,0.0,2.7933061122894287,-1.7117935419082642,0.38872066140174866,2.629366397857666,4.8859038827712915,-0.7833802103996277,-0.004599423613399267,-1.596513573323385,-6.759251846233383e-05,0.06648470461368561,0.7980169057846069,-0.0,0.0010542911477386951,0.8166524767875671,-0.01148673053830862,-0.24582624435424805
305.0,272.0,-0.6945,-0.3685,9.1902,-0.0724,-0.6008,-0.1362,-1.780525346795553,0.0,2.830085039138794,-1.7087337970733643,0.38929152488708496,2.607280731201172,4.879783051996984,-0.7715606093406677,-0.008946271613240242,-1.5965412298785608,-5.197064092499204e-05,0.06923169642686844,0.7980005741119385,-0.0,0.0069164494052529335,0.8165441155433655,-0.011376895941793919,-0.24067559838294983
305.0,272.0,-0.6945,-0.3685,9.1902,-0.0724,-0.6008,-0.1362,-1.7805897198119105,0.0,2.8087286949157715,-1.705625295639038,0.3965397775173187,2.583987236022949,4.8737182942922495,-0.7528662085533142,-0.00976555421948433,-1.596546475087301,-4.221602648613043e-05,0.08558282256126404,0.7980169057846069,-0.0,0.007246042601764202,0.8164477944374084,-0.010991236194968224,-0.2410675585269928
271.0,252.0,0.8704,-0.0622,10.0804,-0.0484,-0.485,-0.1257,-1.780581613580221,0.0,2.8014426231384277,-1.702448844909668,0.4034392833709717,2.588222026824951,4.867554071336546,-0.7522756457328796,0.016374172642827034,-1.5965216795550745,-3.554527575033717e-05,0.07826138287782669,0.7980046272277832,-0.0,-0.007282231003046036,0.8164205551147461,-0.009235337376594543,-0.27152782678604126
271.0,252.0,0.8704,-0.0622,10.0804,-0.0484,-0.485,-0.1257,-1.7806135616698207,-3.0924304155632854e-05,2.843486785888672,-1.7000844478607178,0.39988839626312256,2.610494613647461,4.863056230335989,-0.7425382733345032,0.006101188249886036,-1.5965536276446741,-3.177933467668481e-05,0.0834130123257637,0.7980169057846069,-0.0,-0.007285227999091148,0.81632399559021,-0.008047118782997131,-0.2402421236038208
271.0,252.0,0.8704,-0.0622,10.0804,-0.0484,-0.485,-0.1257,-1.7806292972960414,-0.0005889763124287128,2.711393356323242,-1.6968804597854614,0.4034416377544403,2.6227169036865234,4.857081743865766,-0.7364807724952698,0.005669932346791029,-1.5965622107135218,-2.7845875592902303e-05,0.07016865909099579,0.7979682683944702,-0.0,-0.0038955050986260176,0.8162516355514526,-0.005692643579095602,-0.27703094482421875
271.0,252.0,0.8704,-0.0622,10.0804,-0.0484,-0.485,-0.1257,-1.780604978600973,-0.0007885253289714456,2.766249179840088,-1.6936166286468506,0.411150187253952,2.630972385406494,4.851274925261297,-0.7322436571121216,-0.020673278719186783,-1.5965498129474085,-2.4778990336926654e-05,0.0702286809682846,0.7979764342308044,-0.0,-0.004789894912391901,0.8162118792533875,-0.0035834305454045534,-0.29787740111351013
271.0,252.0,0.8704,-0.0622,10.0804,-0.0484,-0.485,-0.1257,-1.7805849514403285,-0.0005402876413427293,2.753415107727051,-1.6904014348983765,0.4058350920677185,2.6199545860290527,4.845558094769277,-0.7348394393920898,-0.01760740578174591,-1.5965173880206507,-2.232067345175892e-05,0.0702093169093132,0.7979645729064941,-0.0,-0.004407187923789024,0.816227912902832,-0.004130651243031025,-0.23230525851249695
271.0,252.0,0.8704,-0.0622,10.0804,-0.0484,-0.485,-0.1257,-1.780621191064352,-0.0007781150052323937,2.7886555194854736,-1.6870814561843872,0.40481072664260864,2.585533618927002,4.839628252177992,-0.736385703086853,0.0037827298510819674,-1.5965455214129847,-6.896284503454808e-07,0.06781376153230667,0.797996461391449,-0.0,0.0011464920826256275,0.8161839246749878,-0.004819665104150772,-0.32152530550956726
271.0,252.0,0.8704,-0.0622,10.0804,-0.0484,-0.485,-0.1257,-1.7806745968260707,-0.001410336815752089,2.775716543197632,-1.6837115287780762,0.4044569730758667,2.6071324348449707,4.833662646799841,-0.7359821796417236,-0.010758199729025364,-1.5965173880206507,-1.2533657271773802e-11,0.08397606015205383,0.7980246543884277,-0.0,0.003199382685124874,0.816163957118988,-0.0038838349282741547,-0.27911195158958435
271.0,252.0,0.8704,-0.0622,10.0804,-0.0484,-0.485,-0.1257,-1.780682226220602,-0.0007101700757630169,2.781383514404297,-1.6804883480072021,0.4047100245952606,2.591331958770752,4.8277040151651285,-0.7361868619918823,-0.011636709794402122,-1.596513573323385,-2.277929940215726e-16,0.07529498636722565,0.7979645729064941,-0.0,-0.004329594783484936,0.8161197900772095,-0.0040459767915308475,-0.2508094906806946
271.0,252.0,0.8704,-0.0622,10.0804,-0.0484,-0.485,-0.1257,-1.7806092701353968,-0.0005590908112935722,2.7216849327087402,-1.67725670337677,0.4032709002494812,2.6052119731903076,4.821946497052469,-0.7302194237709045,-0.026964504271745682,-1.5965536276446741,-4.1400252333372654e-21,0.07879213988780975,0.7980165481567383,-0.0,-0.0019278584513813257,0.8160837888717651,-0.004843398928642273,-0.27663397789001465
271.0,252.0,0.8704,-0.0622,10.0804,-0.0484,-0.485,-0.1257,-1.7806087932982386,-0.0004535162588581443,2.7201595306396484,-1.674820899963379,0.4059984087944031,2.562589168548584,4.817571761995115,-0.733325183391571,-0.02209845557808876,-1.5965259710894983,-1.1523914789587844e-24,0.07291281223297119,0.7979445457458496,-0.0,-5.529937334358692e-05,0.8160238862037659,-0.005411970894783735,-0.30570971965789795
271.0,252.0,0.8704,-0.0622,10.0804,-0.0484,-0.485,-0.1257,-1.7806698284544886,-0.0003634889726527035,2.7211618423461914,-1.6715925931930542,0.4092186391353607,2.6186327934265137,4.811706970423021,-0.7304002642631531,-0.01400731410831213,-1.5965259710894983,-2.0944145088939846e-29,0.07908117771148682,0.7980128526687622,-0.0,-0.0035171571653336287,0.8159714937210083,-0.006045923568308353,-0.32401564717292786
271.0,252.0,0.8704,-0.0622,10.0804,-0.0484,-0.485,-0.1257,-1.7807141743102015,-0.0014339457266032696,2.69114351272583,-1.6682957410812378,0.405181348323822,2.574507236480713,4.805793310492792,-0.7440185546875,-0.02224639803171158,-1.5965173880206507,-3.8064945312048664e-34,0.07810506969690323,0.7980046272277832,-0.0,-0.0012515054550021887,0.8159396648406982,-0.007150526158511639,-0.32078003883361816
253.0,249.0,1.3866,0.3769,9.7017,-0.0408,-0.3267,-0.1255,-1.7806979618468226,-0.004769990220665932,2.6952896118164062,-1.6651214361190796,0.40492603182792664,2.551121234893799,4.79976553747014,-0.7484090328216553,-0.021441161632537842,-1.5965340773211878,-6.918115230076048e-39,0.07632523775100708,0.7980127334594727,-0.0,-0.0070533351972699165,0.8159160614013672,-0.007892154157161713,-0.2965983748435974
253.0,249.0,1.3866,0.3769,9.7017,-0.0408,-0.3267,-0.1255,-1.7807499370970667,-0.003905104473233223,2.6658685207366943,-1.6618354320526123,0.4118748605251312,2.646044969558716,4.793746012240209,-0.7461186647415161,-0.052277497947216034,-1.5965259710894983,-1.2611686178923354e-43,0.08711379766464233,0.7980168461799622,-0.0,-0.0006317668594419956,0.8158076405525208,-0.008215186186134815,-0.3336946368217468
253.0,249.0,1.3866,0.3769,9.7017,-0.0408,-0.3267,-0.1255,-1.7807980976500453,-0.0012573092244565487,2.6916613578796387,-1.6585842370986938,0.40263137221336365,2.586026668548584,4.787804852216997,-0.7509426474571228,-0.020146062597632408,-1.5965660254107874,-0.0,0.09871816635131836,0.7979883551597595,-0.0,0.0026590859051793814,0.8156994581222534,-0.009139991365373135,-0.3382902443408966
253.0,249.0,1.3866,0.3769,9.7017,-0.0408,-0.3267,-0.1255,-1.7807818851866664,-0.002335878321900964,2.7210230827331543,-1.6553252935409546,0.3959745168685913,2.5500454902648926,4.781857225089826,-0.7598978281021118,-0.02601521462202072,-1.5965340773211878,-0.0,0.08061794936656952,0.7980168461799622,-0.0,-0.01320936344563961,0.8156554102897644,-0.008523083291947842,-0.3213498592376709
253.0,249.0,1.3866,0.3769,9.7017,-0.0408,-0.3267,-0.1255,-1.780801912347311,-0.003270688932389021,2.6988182067871094,-1.6521018743515015,0.3908005654811859,2.572039842605591,4.775745215802946,-0.7652047872543335,-0.028925959020853043,-1.596513573323385,-0.0,0.09140346199274063,0.797996461391449,-0.0,0.004913570359349251,0.8155950307846069,-0.007172880228608847,-0.35411322116851807
253.0,249.0,1.3866,0.3769,9.7017,-0.0408,-0.3267,-0.1255,-1.780801912347311,-0.0015628552064299583,2.6373696327209473,-1.6497384309768677,0.38846516609191895,2.5527851581573486,4.771136692702331,-0.7645323872566223,-0.023131046444177628,-1.5965383688556116,-0.0,0.09349891543388367,0.7979604601860046,-0.0,-0.0061226580291986465,0.8155794143676758,-0.00716513441875577,-0.32277780771255493
253.0,249.0,1.3866,0.3769,9.7017,-0.0408,-0.3267,-0.1255,-1.7808062038817347,-0.0007837538723833859,2.637998342514038,-1.646654725074768,0.37983760237693787,2.517548084259033,4.76499609181241,-0.7739220261573792,-0.046726081520318985,-1.5965383688556116,-0.0,0.08773573487997055,0.798032820224762,-0.0,-0.004254037514328957,0.8155397772789001,-0.00769793288782239,-0.30038636922836304
253.0,249.0,1.3866,0.3769,9.7017,-0.0408,-0.3267,-0.1255,-1.7808181248106898,-0.0005232420517131686,2.6612701416015625,-1.6435952186584473,0.38062191009521484,2.5006635189056396,4.758861544519224,-0.7721660137176514,-0.04321081191301346,-1.59650165239443,-0.0,0.09799786657094955,0.7979604005813599,-0.0,-0.0027223138604313135,0.8154916167259216,-0.006665016058832407,-0.3742201328277588
253.0,249.0,1.3866,0.3769,9.7017,-0.0408,-0.3267,-0.1255,-1.7808181248106898,-0.00039273619768209755,2.6309566497802734,-1.6406564712524414,0.379235178232193,2.581498622894287,4.752593456744709,-0.7738819122314453,-0.05218120291829109,-1.5965383688556116,-0.0,0.09690456092357635,0.7979965806007385,-0.0,0.003173799952492118,0.8154431581497192,-0.006358301732689142,-0.3223631978034973
253.0,249.0,1.3866,0.3769,9.7017,-0.0408,-0.3267,-0.1255,-1.7807818851866664,-0.00024512640084140003,2.7174363136291504,-1.6376404762268066,0.36941319704055786,2.52612566947937,4.74629224368886,-0.7830902934074402,-0.03543522581458092,-1.5965383688556116,-0.0,0.09004122018814087,0.7979161739349365,-0.0,-0.0017734213033691049,0.8153835535049438,-0.005587875843048096,-0.37069791555404663
253.0,249.0,1.3866,0.3769,9.7017,-0.0408,-0.3267,-0.1255,-1.7808624706664027,-0.0015182157512754202,2.659306049346924,-1.634640097618103,0.3698329031467438,2.4936439990997314,4.7399288201476715,-0.7938978672027588,-0.029166534543037415,-1.5965421835528772,-0.0,0.08478487282991409,0.7980005741119385,-0.0,-0.00811738334596157,0.8153512477874756,-0.004551204852759838,-0.36975690722465515
249.0,241.0,1.1312,0.3338,9.052,-0.0281,-0.3462,-0.1235,-1.7808619938292445,-0.00221003545448184,2.659055233001709,-1.6317856311798096,0.36393746733665466,2.496263027191162,4.733564539789715,-0.807599663734436,-0.030549678951501846,-1.5965173880206507,-0.0,0.09208783507347107,0.7980046272277832,-0.0,0.010708293877542019,0.8153112530708313,-0.004998703952878714,-0.3972739279270172
249.0,241.0,1.1312,0.3338,9.052,-0.0281,-0.3462,-0.1235,-1.7808662853636683,-0.0009307364234700799,2.647217035293579,-1.6289303302764893,0.3595266044139862,2.47104811668396,4.727128033503451,-0.8187884092330933,-0.05208904296159744,-1.5965097586261194,-0.0,0.102329783141613,0.7980246543884277,-0.0,-0.013856491073966026,0.8152751922607422,-0.005159053485840559,-0.35229170322418213
249.0,241.0,1.1312,0.3338,9.052,-0.0281,-0.3462,-0.1235,-1.7808782062926234,-0.0007893246947787702,2.655620574951172,-1.6267914772033691,0.35048916935920715,2.4979231357574463,4.722223138413884,-0.8297037482261658,-0.041015177965164185,-1.5965173880206507,-0.0,0.08681351691484451,0.7980325222015381,-0.0,-0.003497905097901821,0.8152350783348083,-0.005074038170278072,-0.40434926748275757
249.0,241.0,1.1312,0.3338,9.052,-0.0281,-0.3462,-0.1235,-1.7808577022948207,-0.0020592105574905872,2.65346622467041,-1.6239122152328491,0.3465392291545868,2.4596786499023438,4.715494701616027,-0.8348686099052429,-0.034361306577920914,-1.5965622107135218,-0.0,0.09348753094673157,0.7979682087898254,-0.0,-0.00427969079464674,0.8151748776435852,-0.004112730734050274,-0.3781070113182068
249.0,241.0,1.1312,0.3338,9.052,-0.0281,-0.3462,-0.1235,-1.7809063396849574,-0.0019419133896008134,2.611668586730957,-1.6211365461349487,0.3361752927303314,2.502427101135254,4.7087318140217285,-0.8409423828125,-0.02591138333082199,-1.5965340773211878,-0.0,0.09749260544776917,0.7979603409767151,-0.0,0.0035165189765393734,0.8152399063110352,-0.003662307281047106,-0.3734056353569031
249.0,241.0,1.1312,0.3338,9.052,-0.0281,-0.3462,-0.1235,-1.7809025249876917,-0.0008267703233286738,2.608065128326416,-1.618517518043518,0.3308848440647125,2.411780595779419,4.7019616800495605,-0.8478499054908752,-0.03938833996653557,-1.5965254942523401,-0.0,0.0927877202630043,0.7979759573936462,-0.0,-0.0031380525324493647,0.8151029944419861,-0.003869743086397648,-0.37285536527633667
249.0,241.0,1.1312,0.3338,9.052,-0.0281,-0.3462,-0.1235,-1.7808782062926234,-0.000559942505788058,2.644397735595703,-1.6158649921417236,0.3221657872200012,2.4293651580810547,4.695223017329834,-0.8549460172653198,-0.051500625908374786,-1.596489731465475,-0.0,0.09352916479110718,0.7979965209960938,-0.0,-0.011673817411065102,0.8151354789733887,-0.004302388522773981,-0.3806404173374176
249.0,241.0,1.1312,0.3338,9.052,-0.0281,-0.3462,-0.1235,-1.7809301815428675,-0.0005325527745299041,2.630526065826416,-1.613426685333252,0.31351637840270996,2.4380602836608887,4.688410921687744,-0.8578336834907532,-0.043002329766750336,-1.5964816252337855,-0.0,0.11538375914096832,0.7979722619056702,-0.0,0.007962598465383053,0.8150951266288757,-0.004923149477690458,-0.3765343427658081
249.0,241.0,1.1312,0.3338,9.052,-0.0281,-0.3462,-0.1235,-1.780898233453268,-0.0003437614068388939,2.602473258972168,-1.6109501123428345,0.30985745787620544,2.4328835010528564,4.6813551622578125,-0.8640919327735901,-0.045232243835926056,-1.5965622107135218,-0.0,0.10863623023033142,0.7979603409767151,-0.0,-0.003475809469819069,0.8149989247322083,-0.005791280418634415,-0.4395507574081421
249.0,241.0,1.1312,0.3338,9.052,-0.0281,-0.3462,-0.1235,-1.7809339962401332,-0.0006096586002968252,2.6396164894104004,-1.6085758209228516,0.29978325963020325,2.4468491077423096,4.674452944392822,-0.8696869015693665,-0.04057513177394867,-1.5965054670916956,-0.0,0.10097703337669373,0.7980005145072937,-0.0,-0.005609123967587948,0.8149868845939636,-0.006585140246897936,-0.4343751072883606
249.0,241.0,1.1312,0.3338,9.052,-0.0281,-0.3462,-0.1235,-1.7809587917723597,-0.00235633528791368,2.651216745376587,-1.6061954498291016,0.29376929998397827,2.4118664264678955,4.6674720483967285,-0.870401918888092,-0.041758306324481964,-1.5964935461627405,-0.0,0.10296940803527832,0.7980128526687622,-0.0,0.0042491271160542965,0.8149427771568298,-0.008273398503661156,-0.39572015404701233
249.0,241.0,1.1312,0.3338,9.052,-0.0281,-0.3462,-0.1235,-1.7809826336302699,-0.0024518484715372324,2.6206376552581787,-1.6044838428497314,0.2899773418903351,2.446402072906494,4.66224114477124,-0.8732635974884033,-0.06934276968240738,-1.596529785786764,-0.0,0.10658680647611618,0.7980127930641174,-0.0,-0.011151930317282677,0.8148788213729858,-0.010247375816106796,-0.41800588369369507
243.0,226.0,0.7657,0.326,9.1944,-0.0374,-0.4748,-0.1133,-1.780978342095846,-0.003351975465193391,2.6246249675750732,-1.6022398471832275,0.27758708596229553,2.3940675258636475,4.655316038722656,-0.8780260682106018,-0.05750953406095505,-1.5965097586261194,-0.0,0.10043325275182724,0.7979841828346252,-0.0,-0.007680363021790981,0.8148267865180969,-0.011172086000442505,-0.4010591506958008
243.0,226.0,0.7657,0.326,9.1944,-0.0374,-0.4748,-0.1133,-1.7809702358641566,-0.002873713383451104,2.5893540382385254,-1.6000772714614868,0.28034576773643494,2.4041848182678223,4.648202581996582,-0.8771220445632935,-0.055954158306121826,-1.5965340773211878,-0.0,0.08225412666797638,0.7980369925498962,-0.0,0.0028687072917819023,0.8147104978561401,-0.012140977196395397,-0.3959744870662689
243.0,226.0,0.7657,0.326,9.1944,-0.0374,-0.4748,-0.1133,-1.7810589275755824,-0.0014342991635203362,2.608977794647217,-1.597946286201477,0.26572126150131226,2.3709750175476074,4.641187353725098,-0.8789421916007996,-0.040660709142684937,-1.596489731465475,-0.0,0.09591218829154968,0.7980086207389832,-0.0,-0.003328180406242609,0.8145865797996521,-0.01473055500537157,-0.3908061385154724
243.0,226.0,0.7657,0.326,9.1944,-0.0374,-0.4748,-0.1133,-1.780961652795309,-0.0026902344543486834,2.6466212272644043,-1.5958210229873657,0.25282418727874756,2.363034963607788,4.634294195766113,-0.876446545124054,-0.03521300107240677,-1.5965097586261194,-0.0,0.08951756358146667,0.7980206608772278,-0.0,-0.004786001052707434,0.8145226240158081,-0.015266007743775845,-0.4258897304534912
243.0,226.0,0.7657,0.326,9.1944,-0.0374,-0.4748,-0.1133,-1.7810422382750453,-0.003426136914640665,2.631208896636963,-1.593853235244751,0.24960526823997498,2.3389384746551514,4.627367659206055,-0.8748478889465332,-0.02948089689016342,-1.5965340773211878,-0.0,0.08457496762275696,0.7979603409767151,-0.0,-0.014963236637413502,0.8143218159675598,-0.015469170175492764,-0.3681168556213379
243.0,226.0,0.7657,0.326,9.1944,-0.0374,-0.4748,-0.1133,-1.781107088128561,-0.0028603323735296726,2.6342976093292236,-1.5918889045715332,0.23066556453704834,2.3253254890441895,4.620289011592529,-0.8770669102668762,-0.04749438911676407,-1.5964973608600062,-0.0,0.07570122927427292,0.7980366349220276,-0.0,-0.002951026428490877,0.8142223358154297,-0.016574522480368614,-0.3701111674308777
243.0,226.0,0.7657,0.326,9.1944,-0.0374,-0.4748,-0.1133,-1.7810336552061976,-0.001570198335684836,2.6694235801696777,-1.5900202989578247,0.22184713184833527,2.316222667694092,4.613241358394287,-0.8694272041320801,-0.03386012464761734,-1.5965421835528772,-0.0,0.08334514498710632,0.7980448007583618,-0.0,-0.01079055666923523,0.8140940070152283,-0.017195522785186768,-0.34636297821998596
243.0,226.0,0.7657,0.326,9.1944,-0.0374,-0.4748,-0.1133,-1.781046529809469,-0.0010264290031045675,2.659928798675537,-1.588706612586975,0.21975724399089813,2.327423572540283,4.608126326198242,-0.8584321141242981,-0.013918145559728146,-1.5965383688556116,-0.0,0.09004434943199158,0.797980546951294,-0.0,0.0010052972938865423,0.813998281955719,-0.017478197813034058,-0.33360326290130615
243.0,226.0,0.7657,0.326,9.1944,-0.0374,-0.4748,-0.1133,-1.7810584507384242,-0.0006561516784131527,2.669405937194824,-1.586964726448059,0.20550374686717987,2.3458709716796875,4.601346178645752,-0.8531424403190613,-0.027863379567861557,-1.5964935461627405,-0.0,0.09030503034591675,0.7980128526687622,-0.0,-0.00200661807321012,0.8138458728790283,-0.01786065101623535,-0.31348660588264465
243.0,226.0,0.7657,0.326,9.1944,-0.0374,-0.4748,-0.1133,-1.7811023197569789,-0.0005387950222939253,2.6894407272338867,-1.5853850841522217,0.19378820061683655,2.3264472484588623,4.594651861781738,-0.8423143029212952,-0.01249532587826252,-1.5965340773211878,-0.0,0.08521818369626999,0.7980005145072937,-0.0,0.0004567122086882591,0.8136377930641174,-0.018116164952516556,-0.36367613077163696
243.0,226.0,0.7657,0.326,9.1944,-0.0374,-0.4748,-0.1133,-1.7811066112914027,-0.0007799739250913262,2.6851425170898438,-1.5838676691055298,0.19062528014183044,2.4080448150634766,4.5880018907734375,-0.830885648727417,-0.006369811482727528,-1.5965216795550745,-0.0,0.08427605777978897,0.7979800701141357,-0.0,0.003992551006376743,0.8136103749275208,-0.01757328025996685,-0.3528286814689636
238.0,207.0,1.5224,0.1938,8.79,-0.0275,-0.6164,-0.1187,-1.7810541592040003,-0.0005277830641716719,2.686704635620117,-1.5824583768844604,0.1774156391620636,2.325176477432251,4.581286593074463,-0.8172845840454102,0.0010536034824326634,-1.5965536276446741,-0.0,0.06939414143562317,0.7980169057846069,-0.0,-0.00546156195923686,0.8134495615959167,-0.017252782359719276,-0.33710193634033203
238.0,207.0,1.5224,0.1938,8.79,-0.0275,-0.6164,-0.1187,-1.7811147175230921,-0.00039528959314338863,2.7496378421783447,-1.5810800790786743,0.1736851930618286,2.3480420112609863,4.574782057399414,-0.80375736951828,-0.015821825712919235,-1.5965903441058558,-0.0,0.08092187345027924,0.798041045665741,-0.0,-0.007889960892498493,0.813297688961029,-0.016803700476884842,-0.28308460116386414
238.0,207.0,1.5224,0.1938,8.79,-0.0275,-0.6164,-0.1187,-1.7810660801329554,-0.0003159761254210025,2.741366386413574,-1.5797390937805176,0.16850528120994568,2.32979416847229,4.568518324489258,-0.7898550629615784,-0.008645117282867432,-1.5965216795550745,-0.0,0.08641466498374939,0.7980369925498962,-0.0,-0.005434863269329071,0.8131335377693176,-0.017433781176805496,-0.3292795717716217
238.0,207.0,1.5224,0.1938,8.79,-0.0275,-0.6164,-0.1187,-1.781098028222555,-0.00030070776119828224,2.7677884101867676,-1.578410029411316,0.16380344331264496,2.3483221530914307,4.562333269710205,-0.7727446556091309,-0.012861181981861591,-1.5965216795550745,-0.0,0.07762712985277176,0.7980407476425171,-0.0,-0.003879387630149722,0.8130134344100952,-0.016530970111489296,-0.303170382976532
238.0,207.0,1.5224,0.1938,8.79,-0.0275,-0.6164,-0.1187,-1.7811428509154261,-0.000236029431107454,2.745774745941162,-1.5773833990097046,0.15691111981868744,2.3793997764587402,4.557689829463623,-0.7676871418952942,0.00048810511361807585,-1.5965216795550745,-0.0,0.07267080992460251,0.7980165481567383,-0.0,0.0029739015735685825,0.8129816055297852,-0.016395648941397667,-0.3404518961906433
238.0,207.0,1.5224,0.1938,8.79,-0.0275,-0.6164,-0.1187,-1.7810903988280238,-0.00023444033286068588,2.784639358520508,-1.5762054920196533,0.15024100244045258,2.29887318611145,4.5516907411762695,-0.743600070476532,-0.01079054456204176,-1.596489731465475,-0.0,0.07377863675355911,0.7979682087898254,-0.0,-0.010138162411749363,0.8127892017364502,-0.01726374216377735,-0.29335570335388184
238.0,207.0,1.5224,0.1938,8.79,-0.0275,-0.6164,-0.1187,-1.781187196771139,-0.000204064097488299,2.768537998199463,-1.5749988555908203,0.1499631255865097,2.355973958969116,4.545854254359863,-0.7215191125869751,0.014400884509086609,-1.5965140501605433,-0.0,0.0854131355881691,0.7980570197105408,-0.0,-0.0050532934255898,0.8126330375671387,-0.018902979791164398,-0.3193244934082031
238.0,207.0,1.5224,0.1938,8.79,-0.0275,-0.6164,-0.1187,-1.7811266384520472,-0.00020610874344129115,2.788846969604492,-1.5738383531570435,0.14907126128673553,2.371004343032837,4.54020278036084,-0.7077009677886963,0.004021371249109507,-1.596529785786764,-0.0,0.05882861465215683,0.7980086207389832,-0.0,0.0024491799995303154,0.8124489188194275,-0.0201430507004261,-0.31617042422294617
238.0,207.0,1.5224,0.1938,8.79,-0.0275,-0.6164,-0.1187,-1.7811185322203578,-0.00037112776772119105,2.8422000408172607,-1.5726642608642578,0.14210328459739685,2.3753621578216553,4.534629507655762,-0.6871487498283386,0.007201006636023521,-1.5965259710894983,-0.0,0.06545118987560272,0.7980448007583618,-0.0,0.005611770320683718,0.8123406767845154,-0.02165389060974121,-0.32106590270996094
238.0,207.0,1.5224,0.1938,8.79,-0.0275,-0.6164,-0.1187,-1.781187196771139,-0.0009421781287528574,2.8416337966918945,-1.5715135335922241,0.1356329470872879,2.3743529319763184,4.529224081630371,-0.6630201935768127,0.03227116912603378,-1.596546475087301,-0.0,0.07999114692211151,0.7979965209960938,-0.0,-0.014087606221437454,0.8121287226676941,-0.024148374795913696,-0.30732083320617676
238.0,207.0,1.5224,0.1938,8.79,-0.0275,-0.6164,-0.1187,-1.7810780010619105,-0.0005893679335713387,2.802156448364258,-1.5704998970031738,0.13728266954421997,2.4274802207946777,4.524019404048584,-0.6407402753829956,0.010405167937278748,-1.5965455214129847,-0.0,0.07196132838726044,0.7979923486709595,-0.0,-0.005406972020864487,0.8119246363639832,-0.0279709380120039,-0.3110901117324829
238.0,207.0,1.5224,0.1938,8.79,-0.0275,-0.6164,-0.1187,-1.78110994915151,-0.0004288441559765488,2.829813241958618,-1.5694056749343872,0.14137056469917297,2.3882806301116943,4.518989248866699,-0.6133094429969788,0.03041357360780239,-1.5965383688556116,-0.0,0.08443056046962738,0.7979923486709595,-0.0,0.003631988540291786,0.8116962909698486,-0.03113984502851963,-0.33554255962371826
198.0,196.0,2.6058,0.2237,8.6668,-0.0383,-0.6151,-0.1327,-1.781142374078268,-0.000356110482243821,2.8814759254455566,-1.5684908628463745,0.14697708189487457,2.4201250076293945,4.515375776881836,-0.5985372066497803,0.038009628653526306,-1.596513573323385,-0.0,0.075104720890522,0.7980246543884277,-0.0,-0.011411082930862904,0.8114799857139587,-0.03190687298774719,-0.3054424524307251
198.0,196.0,2.6058,0.2237,8.6668,-0.0383,-0.6151,-0.1327,-1.781215330163473,-0.0003858900163322687,2.857137680053711,-1.56735360622406,0.1436854898929596,2.4189529418945312,4.510734243983887,-0.56936115026474,0.02469755709171295,-1.596529785786764,-0.0,0.06807299703359604,0.7980283498764038,-0.0,0.006054549477994442,0.8112717270851135,-0.032331231981515884,-0.2914435863494873
198.0,196.0,2.6058,0.2237,8.6668,-0.0383,-0.6151,-0.1327,-1.7812067470946253,-0.0022427979856729507,2.8515491485595703,-1.5662317276000977,0.13543793559074402,2.4129037857055664,4.5063158708759765,-0.5530537366867065,0.042780034244060516,-1.5965216795550745,-0.0,0.07066002488136292,0.7979965209960938,-0.0,-0.004704385995864868,0.8110318779945374,-0.030783724039793015,-0.2651366591453552
198.0,196.0,2.6058,0.2237,8.6668,-0.0383,-0.6151,-0.1327,-1.7811666927733363,-0.0010823846096172929,2.8325743675231934,-1.565105676651001,0.13692142069339752,2.4764885902404785,4.502072973842285,-0.5229595899581909,0.04036683589220047,-1.5965421835528772,-0.0,0.06862868368625641,0.7979722619056702,-0.0,-0.00929673295468092,0.810747504234314,-0.030414165928959846,-0.23598892986774445
198.0,196.0,2.6058,0.2237,8.6668,-0.0383,-0.6151,-0.1327,-1.7811461887755335,-0.0004409446264617145,2.8800222873687744,-1.564035177230835,0.1381072849035263,2.4237096309661865,4.498068495387695,-0.49523457884788513,0.051033418625593185,-1.5965054670916956,-0.0,0.07029655575752258,0.7980210185050964,-0.0,-6.418791599571705e-05,0.8105396032333374,-0.03197925537824631,-0.3458864688873291
198.0,196.0,2.6058,0.2237,8.6668,-0.0383,-0.6151,-0.1327,-1.7812029323973597,-9.644158853916451e-05,2.8802502155303955,-1.5629335641860962,0.14106227457523346,2.4546961784362793,4.4940430360981445,-0.4794989824295044,0.05058082938194275,-1.5965493361102503,-0.0,0.08572670817375183,0.7979800701141357,-0.0,-0.00787598080933094,0.8102588653564453,-0.028069104999303818,-0.3225838243961334
198.0,196.0,2.6058,0.2237,8.6668,-0.0383,-0.6151,-0.1327,-1.781198640862936,-0.00010912605648627505,2.886383295059204,-1.5617514848709106,0.13711832463741302,2.449979782104492,4.490256949062012,-0.4543655216693878,0.049013685435056686,-1.596513573323385,-0.0,0.08191084861755371,0.7979841828346252,-0.0,-0.014149095863103867,0.8100592494010925,-0.022913526743650436,-0.2575012445449829
198.0,196.0,2.6058,0.2237,8.6668,-0.0383,-0.6151,-0.1327,-1.7811910114684046,-0.00015304269618354738,2.9011292457580566,-1.5606458187103271,0.13345970213413239,2.4108142852783203,4.486703081721924,-0.4326498508453369,0.06388118863105774,-1.5965140501605433,-0.0,0.07758716493844986,0.7979841828346252,-0.0,-0.008369425311684608,0.8098709583282471,-0.019369909539818764,-0.26639705896377563
198.0,196.0,2.6058,0.2237,8.6668,-0.0383,-0.6151,-0.1327,-1.7811790905394496,-0.00012481170415412635,2.880476474761963,-1.5596075057983398,0.12947440147399902,2.4337825775146484,4.483390970821045,-0.4045984148979187,0.07302065193653107,-1.5965340773211878,-0.0,0.0801718682050705,0.7980046272277832,-0.0,-0.011086731217801571,0.8096427321434021,-0.01797824166715145,-0.2571087181568146
