ramyac6/ROB537/final_project/csv/bad/bad_55.csv
tof_0,tof_1,accelx,accely,accelz,gyrox,gyroy,gyroz,shoulder_lift_joint_position,shoulder_lift_joint_velocity,shoulder_lift_joint_effort,elbow_joint_position,elbow_joint_velocity,elbow_joint_effort,wrist_1_joint_position,wrist_1_joint_velocity,wrist_1_joint_effort,wrist_2_joint_position,wrist_2_joint_velocity,wrist_2_joint_effort,wrist_3_joint_position,wrist_3_joint_velocity,wrist_3_joint_effort,shoulder_pan_joint_position,shoulder_pan_joint_velocity,shoulder_pan_joint_effort
226.0,252.0,1.7073,-1.7498,9.256,-0.0383,0.0305,-0.0796,-1.7854811153807582,0.0,3.036323070526123,-1.63395357131958,-0.0,2.1859283447265625,4.690122767085693,0.0,0.31328079104423523,-1.6208675543414515,-0.0,0.01940605603158474,1.562125325202942,0.0,-0.011258081533014774,0.6974102258682251,0.0,-0.026935085654258728
226.0,252.0,1.7073,-1.7498,9.256,-0.0383,0.0305,-0.0796,-1.7854725323119105,0.0,3.025355339050293,-1.6339411735534668,-0.0,2.127279758453369,4.690114184016846,0.0,0.3100406229496002,-1.6208913961993616,-0.0,0.01850726455450058,1.562145709991455,0.0,-0.007663925644010305,0.6973697543144226,0.0,-0.05134355276823044
226.0,252.0,1.7073,-1.7498,9.256,-0.0383,0.0305,-0.0796,-1.7854725323119105,0.0,3.057774305343628,-1.6339492797851562,-0.0,2.1099345684051514,4.6901466089436035,0.0,0.29906848073005676,-1.6208480040179651,-0.0,0.011604366824030876,1.562193512916565,0.0,0.0008054669015109539,0.697430431842804,0.0,0.0050488365814089775
226.0,252.0,1.7073,-1.7498,9.256,-0.0383,0.0305,-0.0796,-1.7855011425414027,0.0,3.06951904296875,-1.6339452266693115,-0.0,2.1118927001953125,4.690070314998291,0.0,0.3000686466693878,-1.6208799521075647,-0.0,0.016319353133440018,1.5621695518493652,0.0,-0.0021714104805141687,0.6974102258682251,0.0,0.020606813952326775
226.0,252.0,1.7073,-1.7498,9.256,-0.0383,0.0305,-0.0796,-1.7854567966856898,0.0,3.0711841583251953,-1.6339492797851562,-0.0,2.143644332885742,4.690130396480225,0.0,0.29531145095825195,-1.6208675543414515,-0.0,0.012678470462560654,1.5621856451034546,0.0,-0.0014561433345079422,0.6974142789840698,0.0,-0.04171603545546532
226.0,252.0,1.7073,-1.7498,9.256,-0.0383,0.0305,-0.0796,-1.7854486904540003,0.0,3.111623764038086,-1.6338609457015991,-0.0,2.1220271587371826,4.690082235927246,0.0,0.2908799648284912,-1.6208837668048304,-0.0,0.012176116928458214,1.5621216297149658,0.0,-0.008356137201189995,0.6974183917045593,0.0,-0.0202538650482893
226.0,252.0,1.7073,-1.7498,9.256,-0.0383,0.0305,-0.0796,-1.7855049572386683,0.0,3.058932304382324,-1.6339292526245117,-0.0,2.131718158721924,4.690134688014648,0.0,0.2929619550704956,-1.620875660573141,-0.0,0.024936813861131668,1.5621615648269653,0.0,-0.006240547634661198,0.6974102258682251,0.0,-0.02313927561044693
226.0,252.0,1.7073,-1.7498,9.256,-0.0383,0.0305,-0.0796,-1.7854930363097132,0.0,3.0014216899871826,-1.6339372396469116,-0.0,2.1417951583862305,4.690097971553467,0.0,0.29004743695259094,-1.6209200064288538,-0.0,0.022793788462877274,1.5621734857559204,1.8306589026906295e-06,-0.007906473241746426,0.697430431842804,0.0,0.03198893368244171
226.0,252.0,1.7073,-1.7498,9.256,-0.0383,0.0305,-0.0796,-1.7854649029173792,0.0,3.0676567554473877,-1.633937120437622,-0.0,2.154884099960327,4.69008652746167,0.0,0.29644277691841125,-1.6209119001971644,-0.0,0.0028374025132507086,1.5621339082717896,7.804386470411373e-09,0.0007537432247772813,0.6974024176597595,0.0,-0.003504963591694832
225.0,243.0,1.8281,-1.7139,8.9312,-0.0296,0.0286,-0.1171,-1.7855006657042445,0.0,3.0767922401428223,-1.633925199508667,-0.0,2.150782823562622,4.690106077785156,0.0,0.2933359146118164,-1.6209242979632776,-0.0,0.017169104889035225,1.5621376037597656,2.1723796806566442e-12,0.0015103514306247234,0.6973456740379333,0.0,0.007180152460932732
225.0,243.0,1.8281,-1.7139,8.9312,-0.0296,0.0286,-0.1171,-1.7854725323119105,0.0,3.066559076309204,-1.6338974237442017,-0.0,2.1317338943481445,4.690134688014648,0.0,0.30486738681793213,-1.6208837668048304,-0.0,0.012103126384317875,1.5621376037597656,6.046898859625894e-16,-0.012608795426785946,0.6974507570266724,0.0,0.017186149954795837
225.0,243.0,1.8281,-1.7139,8.9312,-0.0296,0.0286,-0.1171,-1.7854930363097132,0.0,3.0492286682128906,-1.6339616775512695,-0.0,2.1576478481292725,4.690082235927246,0.0,0.30475088953971863,-1.620871369038717,-0.0,0.001046380028128624,1.5621376037597656,1.6831764494852522e-19,-0.001309244311414659,0.6974184513092041,0.0,-0.050487909466028214
225.0,243.0,1.8281,-1.7139,8.9312,-0.0296,0.0286,-0.1171,-1.7854811153807582,0.0,3.057377338409424,-1.6339173316955566,-0.0,2.127497673034668,4.69007842122998,0.0,0.31263601779937744,-1.6209076086627405,-0.0,0.014791088178753853,1.5621216297149658,7.175644896442527e-22,-0.009360344149172306,0.6974102258682251,0.0,-0.017422057688236237
225.0,243.0,1.8281,-1.7139,8.9312,-0.0296,0.0286,-0.1171,-1.7854887447752894,0.0,2.992307186126709,-1.6340014934539795,-0.0,2.164285659790039,4.690130396480225,0.0,0.3056609630584717,-1.6208837668048304,-0.0,0.009538809768855572,1.5621256828308105,1.9973669692927547e-25,-0.008844240568578243,0.697422206401825,0.0,0.01779136061668396
225.0,243.0,1.8281,-1.7139,8.9312,-0.0296,0.0286,-0.1171,-1.7854567966856898,0.0,3.078449249267578,-1.6339292526245117,-0.0,2.095651149749756,4.690150423640869,0.0,0.2942686676979065,-1.6209161917315882,-0.0,0.015676438808441162,1.5621535778045654,5.559743868948584e-29,3.659958019852638e-05,0.6973538994789124,0.0,0.027171729132533073
225.0,243.0,1.8281,-1.7139,8.9312,-0.0296,0.0286,-0.1171,-1.7854887447752894,0.0,3.049948215484619,-1.6338893175125122,-0.0,2.108518600463867,4.690126581782959,0.0,0.3077234625816345,-1.6209200064288538,-0.0,0.019676651805639267,1.5621378421783447,2.370205918390688e-31,-0.010278290137648582,0.6973942518234253,0.0,0.011762120760977268
225.0,243.0,1.8281,-1.7139,8.9312,-0.0296,0.0286,-0.1171,-1.7854968510069789,0.0,3.0380520820617676,-1.6339013576507568,-0.0,2.142177104949951,4.690122767085693,0.0,0.29786962270736694,-1.6208675543414515,-0.0,0.00775890750810504,1.5621294975280762,6.597555027429949e-35,-0.012285753153264523,0.697378396987915,0.0,0.04130660369992256
225.0,243.0,1.8281,-1.7139,8.9312,-0.0296,0.0286,-0.1171,-1.7854649029173792,0.0,3.0215797424316406,-1.6339770555496216,-0.0,2.1242458820343018,4.690150423640869,0.0,0.30706506967544556,-1.6208632628070276,-0.0,0.023904208093881607,1.5621658563613892,1.836453905930392e-38,-0.009980296716094017,0.69739830493927,0.0,-0.012157226912677288
225.0,243.0,1.8281,-1.7139,8.9312,-0.0296,0.0286,-0.1171,-1.7854811153807582,0.0,3.02681303024292,-1.633905291557312,-0.0,2.1601808071136475,4.690106077785156,0.0,0.3021288514137268,-1.6209076086627405,-0.0,0.027050530537962914,1.5621256828308105,5.1119367978569327e-42,-0.0012607513926923275,0.6974143385887146,0.0,-0.0319792777299881
225.0,243.0,1.8281,-1.7139,8.9312,-0.0296,0.0286,-0.1171,-1.7854930363097132,0.0,3.020260810852051,-1.6339213848114014,-0.0,2.109417200088501,4.690134688014648,0.0,0.30267608165740967,-1.6208675543414515,-0.0,0.00842610839754343,1.5621296167373657,2.2420775429197073e-44,-0.0071656848303973675,0.6973739266395569,0.0,0.013377271592617035
225.0,243.0,1.8281,-1.7139,8.9312,-0.0296,0.0286,-0.1171,-1.7854892216124476,0.0,3.067746639251709,-1.6339656114578247,-0.0,2.098597526550293,4.690150423640869,0.0,0.30071717500686646,-1.6208394209491175,-0.0,0.012103649787604809,1.5621131658554077,0.0,-0.005059562623500824,0.6973497867584229,0.0,-0.011209787800908089
225.0,243.0,1.8281,-1.7139,8.9312,-0.0296,0.0286,-0.1171,-1.7854567966856898,0.0,3.0449838638305664,-1.633917212486267,-0.0,2.099036455154419,4.690114184016846,0.0,0.30322015285491943,-1.6209161917315882,-0.0,0.016056185588240623,1.5621576309204102,0.0,-0.0023060105741024017,0.6974346041679382,0.0,0.01105635054409504
225.0,243.0,1.8281,-1.7139,8.9312,-0.0296,0.0286,-0.1171,-1.785440584222311,0.0,3.087235927581787,-1.6339211463928223,-0.0,2.136829376220703,4.69011036931958,0.0,0.29073452949523926,-1.620892349873678,-0.0,0.003301407443359494,1.5621216297149658,0.0,0.005374390631914139,0.6974184513092041,0.0,0.008594421669840813
225.0,243.0,1.8281,-1.7139,8.9312,-0.0296,0.0286,-0.1171,-1.7854567966856898,0.0,3.1153860092163086,-1.6339532136917114,-0.0,2.1192660331726074,4.690138502711914,0.0,0.30918413400650024,-1.620875660573141,-0.0,0.013553381897509098,1.5621535778045654,0.0,-0.01302156038582325,0.697390079498291,0.0,8.711544796824455e-05
225.0,243.0,1.8281,-1.7139,8.9312,-0.0296,0.0286,-0.1171,-1.7854968510069789,0.0,3.0504977703094482,-1.6338974237442017,-0.0,2.1412715911865234,4.6900903421589355,0.0,0.29960840940475464,-1.6208837668048304,-0.0,0.017050594091415405,1.5622056722640991,0.0,-0.014246084727346897,0.6974102258682251,0.0,0.022232428193092346
223.0,252.0,1.7838,-1.7109,9.1496,-0.0391,0.0246,-0.1135,-1.7854567966856898,0.0,3.05051851272583,-1.6339492797851562,-0.0,2.1584651470184326,4.69008652746167,0.0,0.30237260460853577,-1.6209562460528772,-0.0,0.013899284414947033,1.5621376037597656,0.0,-0.0045434944331645966,0.6973820924758911,0.0,-0.0079338438808918
223.0,252.0,1.7838,-1.7109,9.1496,-0.0391,0.0246,-0.1135,-1.7854725323119105,0.0,3.061999797821045,-1.6339696645736694,-0.0,2.11397123336792,4.690126581782959,0.0,0.2931310832500458,-1.6208961645709437,-0.0,0.005807137116789818,1.5621211528778076,0.0,-0.005731359124183655,0.6974101662635803,0.0,0.030909927561879158
223.0,252.0,1.7838,-1.7109,9.1496,-0.0391,0.0246,-0.1135,-1.7854887447752894,0.0,3.0784993171691895,-1.633905291557312,-0.0,2.104870557785034,4.690159006709717,0.0,0.3035077750682831,-1.620899502431051,-0.0,0.0076416367664933205,1.5621734857559204,0.0,-0.004679377656430006,0.6974102258682251,0.0,-0.005715062376111746
223.0,252.0,1.7838,-1.7109,9.1496,-0.0391,0.0246,-0.1135,-1.785440584222311,0.0,3.092073917388916,-1.6339412927627563,-0.0,2.099994421005249,4.690101786250732,0.0,0.29324954748153687,-1.6209076086627405,-0.0,0.013182912021875381,1.5621058940887451,0.0,-0.014738325029611588,0.6973822116851807,0.0,0.013406285084784031
223.0,252.0,1.7838,-1.7109,9.1496,-0.0391,0.0246,-0.1135,-1.7855130634703578,0.0,3.104167938232422,-1.633925199508667,-0.0,2.1630361080169678,4.690154715175293,0.0,0.29445409774780273,-1.620875660573141,-0.0,0.005590326152741909,1.5621695518493652,0.0,-0.008140748366713524,0.6973780393600464,0.0,0.006919850129634142
223.0,252.0,1.7838,-1.7109,9.1496,-0.0391,0.0246,-0.1135,-1.7855130634703578,0.0,3.072897434234619,-1.6339333057403564,-0.0,2.1196060180664062,4.690138502711914,0.0,0.3096281886100769,-1.6208880583392542,-0.0,0.012363523244857788,1.562153697013855,0.0,-0.006623958237469196,0.6974102258682251,0.0,-0.004061045125126839
223.0,252.0,1.7838,-1.7109,9.1496,-0.0391,0.0246,-0.1135,-1.7854567966856898,0.0,3.056574583053589,-1.6338649988174438,-0.0,2.172524929046631,4.690130873317383,0.0,0.29955726861953735,-1.6208952108966272,-0.0,0.019289840012788773,1.5621455907821655,0.0,-0.0034463973715901375,0.6974304914474487,0.0,-0.03385310247540474
223.0,252.0,1.7838,-1.7109,9.1496,-0.0391,0.0246,-0.1135,-1.7854725323119105,0.0,3.0540871620178223,-1.6339492797851562,-0.0,2.1241250038146973,4.690122290248535,0.0,0.2947549819946289,-1.6208799521075647,-0.0,0.008557578548789024,1.5621256828308105,0.0,-0.0031238277442753315,0.6973942518234253,0.0,0.010931444354355335
223.0,252.0,1.7838,-1.7109,9.1496,-0.0391,0.0246,-0.1135,-1.7854768238463343,0.0,3.0537467002868652,-1.6339656114578247,-0.0,2.1574535369873047,4.690126581782959,0.0,0.28950268030166626,-1.6209119001971644,-0.0,0.017703475430607796,1.5621535778045654,0.0,-0.012899143621325493,0.6974143385887146,0.0,-0.03828238323330879
223.0,252.0,1.7838,-1.7109,9.1496,-0.0391,0.0246,-0.1135,-1.7854930363097132,0.0,3.0745487213134766,-1.633913278579712,-0.0,2.1284523010253906,4.690130396480225,0.0,0.3008064031600952,-1.620875660573141,-0.0,0.013863270170986652,1.562101125717163,0.0,-0.0070224422961473465,0.6974508166313171,0.0,-0.041632041335105896
223.0,252.0,1.7838,-1.7109,9.1496,-0.0391,0.0246,-0.1135,-1.7854768238463343,0.0,3.077333927154541,-1.633917212486267,-0.0,2.14526629447937,4.690101786250732,0.0,0.3061986267566681,-1.620871369038717,-0.0,0.01566099002957344,1.562153697013855,0.0,-0.013104146346449852,0.6974061131477356,0.0,-0.02121865004301071
223.0,252.0,1.7838,-1.7109,9.1496,-0.0391,0.0246,-0.1135,-1.7854849300780238,0.0,3.005181312561035,-1.6339292526245117,-0.0,2.1068859100341797,4.690130396480225,0.0,0.2967335879802704,-1.6209242979632776,-0.0,0.009132299572229385,1.5621256828308105,0.0,0.003956587053835392,0.6974061131477356,0.0,0.012116516008973122
223.0,252.0,1.7838,-1.7109,9.1496,-0.0391,0.0246,-0.1135,-1.7854887447752894,0.0,3.02614688873291,-1.6339492797851562,-0.0,2.133146286010742,4.690138502711914,0.0,0.30398666858673096,-1.6209076086627405,-0.0,0.011376941576600075,1.5621296167373657,0.0,-0.007419549860060215,0.6973942518234253,0.0,-0.0011816765181720257
223.0,252.0,1.7838,-1.7109,9.1496,-0.0391,0.0246,-0.1135,-1.7854448757567347,0.0,3.0819549560546875,-1.6339452266693115,-0.0,2.2307143211364746,4.69014231740918,0.0,0.3055494725704193,-1.6209242979632776,-0.0,0.012164751067757607,1.562145709991455,0.0,-0.006012498866766691,0.6973903775215149,0.0,-0.01913411170244217
223.0,252.0,1.7838,-1.7109,9.1496,-0.0391,0.0246,-0.1135,-1.7854768238463343,0.0,3.056917428970337,-1.6339770555496216,-0.0,2.205289363861084,4.69011036931958,0.0,0.30934637784957886,-1.620899502431051,-0.0,0.001042655436322093,1.5621576309204102,0.0,-0.0004560425877571106,0.6973416209220886,0.0,-0.01702120527625084
223.0,252.0,1.7838,-1.7109,9.1496,-0.0391,0.0246,-0.1135,-1.7854687176146449,0.0,3.058145046234131,-1.6339656114578247,-0.0,2.150895118713379,4.69011036931958,0.0,0.3084975779056549,-1.620892349873678,-0.0,0.009846488013863564,1.5621376037597656,0.0,-0.002982789184898138,0.69739830493927,0.0,0.03501150757074356
232.0,243.0,1.7827,-1.7384,9.2243,-0.0402,0.0261,-0.1147,-1.7854887447752894,0.0,3.054938316345215,-1.6339616775512695,-0.0,2.1544735431671143,4.690159006709717,0.0,0.3020358085632324,-1.6208599249469202,-0.0,0.013779627159237862,1.562117338180542,0.0,-0.004682398401200771,0.6973457336425781,0.0,-0.00967679638415575
232.0,243.0,1.7827,-1.7384,9.2243,-0.0402,0.0261,-0.1147,-1.7854768238463343,0.0,3.0824031829833984,-1.6339412927627563,-0.0,2.106956720352173,4.69011036931958,0.0,0.30159100890159607,-1.6208561102496546,-0.0,0.012978168204426765,1.5621657371520996,0.0,-0.008986270986497402,0.6974102258682251,0.0,-0.011486632749438286
232.0,243.0,1.7827,-1.7384,9.2243,-0.0402,0.0261,-0.1147,-1.7854887447752894,0.0,3.0586159229278564,-1.6339173316955566,-0.0,2.1664671897888184,4.690074129695557,0.0,0.3061990737915039,-1.6208880583392542,-0.0,0.005655777174979448,1.5621416568756104,0.0,-0.003828569548204541,0.6973983645439148,0.0,0.015141129493713379
232.0,243.0,1.7827,-1.7384,9.2243,-0.0402,0.0261,-0.1147,-1.7854649029173792,0.0,3.0698065757751465,-1.6338974237442017,-0.0,2.10142183303833,4.690094633693359,0.0,0.2947029769420624,-1.6208837668048304,-0.0,0.011471644043922424,1.5621336698532104,0.0,-0.0004253326915204525,0.6974102258682251,0.0,-0.0648312196135521
232.0,243.0,1.7827,-1.7384,9.2243,-0.0402,0.0261,-0.1147,-1.7854887447752894,0.0,3.0443811416625977,-1.6339173316955566,-0.0,2.1299095153808594,4.690089388484619,0.0,0.302845299243927,-1.6209200064288538,-0.0,0.014784086495637894,1.5620778799057007,0.0,-0.010971033945679665,0.6973538994789124,0.0,-0.022289782762527466
232.0,243.0,1.7827,-1.7384,9.2243,-0.0402,0.0261,-0.1147,-1.7854844532408656,0.0,3.049283504486084,-1.6339616775512695,-0.0,2.089094638824463,4.690097971553467,0.0,0.2906971573829651,-1.6208880583392542,-0.0,0.006497330963611603,1.5621495246887207,0.0,-0.013694392517209053,0.6974747180938721,0.0,-0.025888673961162567
232.0,243.0,1.7827,-1.7384,9.2243,-0.0402,0.0261,-0.1147,-1.7854725323119105,0.0,3.087531566619873,-1.6338893175125122,-0.0,2.077669143676758,4.690101786250732,0.0,0.2855772376060486,-1.6208952108966272,-0.0,0.01444603968411684,1.562074065208435,0.0,-0.012233402580022812,0.6973538994789124,0.0,0.0017084672581404448
232.0,243.0,1.7827,-1.7384,9.2243,-0.0402,0.0261,-0.1147,-1.7855049572386683,0.0,3.0230236053466797,-1.6339211463928223,-0.0,2.1380317211151123,4.6901466089436035,0.0,0.30570822954177856,-1.6208871046649378,-0.0,0.007507679518312216,1.5621176958084106,0.0,-0.021432258188724518,0.697442889213562,0.0,0.017828375101089478
232.0,243.0,1.7827,-1.7384,9.2243,-0.0402,0.0261,-0.1147,-1.7854286632933558,0.0,3.1066861152648926,-1.6339333057403564,-0.0,2.171970844268799,4.690138502711914,0.0,0.2957172989845276,-1.6209161917315882,-0.0,0.004803640302270651,1.5621734857559204,0.0,-0.0021715029142796993,0.6974387168884277,0.0,-0.008910607546567917
232.0,243.0,1.7827,-1.7384,9.2243,-0.0402,0.0261,-0.1147,-1.7854887447752894,0.0,3.077141284942627,-1.633913278579712,-0.0,2.132445812225342,4.690097971553467,0.0,0.30452537536621094,-1.6208837668048304,-0.0,0.012742307037115097,1.5621376037597656,0.0,-0.007122384384274483,0.6973941922187805,0.0,-0.031086929142475128
232.0,243.0,1.7827,-1.7384,9.2243,-0.0402,0.0261,-0.1147,-1.7854730091490687,0.0,3.0479061603546143,-1.6338855028152466,-0.0,2.1185412406921387,4.690130396480225,0.0,0.3104194104671478,-1.6208880583392542,-0.0,0.003688403405249119,1.5621092319488525,0.0,-0.023028386756777763,0.6974061131477356,0.0,-0.009626067243516445
232.0,243.0,1.7827,-1.7384,9.2243,-0.0402,0.0261,-0.1147,-1.7854887447752894,0.0,3.0200579166412354,-1.6339292526245117,-0.0,2.132542133331299,4.6901184755512695,0.0,0.3013935089111328,-1.6209362188922327,-0.0,0.01755565032362938,1.5621297359466553,0.0,-0.008183089084923267,0.6973901391029358,0.0,0.00493844598531723
232.0,243.0,1.7827,-1.7384,9.2243,-0.0402,0.0261,-0.1147,-1.7854768238463343,0.0,3.053553819656372,-1.6339173316955566,-0.0,2.1008691787719727,4.690150423640869,0.0,0.301993191242218,-1.6208561102496546,-0.0,0.005541550926864147,1.5621339082717896,0.0,-0.001724829664453864,0.697406530380249,0.0,-0.007991691119968891
232.0,243.0,1.7827,-1.7384,9.2243,-0.0402,0.0261,-0.1147,-1.7854930363097132,0.0,3.0377256870269775,-1.6339333057403564,-0.0,2.152092456817627,4.690106077785156,0.0,0.2913587689399719,-1.620892349873678,-0.0,0.017518959939479828,1.5621416568756104,0.0,-0.00845214445143938,0.6973701119422913,0.0,0.012751324102282524
232.0,243.0,1.7827,-1.7384,9.2243,-0.0402,0.0261,-0.1147,-1.7854725323119105,0.0,3.053257703781128,-1.6339372396469116,-0.0,2.1480114459991455,4.6901184755512695,0.0,0.31182336807250977,-1.6208837668048304,-0.0,0.019754989072680473,1.5621296167373657,0.0,-0.007163618691265583,0.6974181532859802,0.0,-0.010550768114626408
232.0,243.0,1.7827,-1.7384,9.2243,-0.0402,0.0261,-0.1147,-1.7854606113829554,0.0,3.019824981689453,-1.6339253187179565,-0.0,2.1700949668884277,4.690130396480225,0.0,0.3029276132583618,-1.6208837668048304,-0.0,0.016434160992503166,1.5621694326400757,0.0,-0.004057969897985458,0.6974024176597595,0.0,0.024054324254393578
232.0,243.0,1.7827,-1.7384,9.2243,-0.0402,0.0261,-0.1147,-1.7854649029173792,0.0,3.0376031398773193,-1.6338648796081543,-0.0,2.1480016708374023,4.690154715175293,0.0,0.28969812393188477,-1.620899502431051,-0.0,0.023502660915255547,1.5621856451034546,0.0,-0.0062775020487606525,0.6973942518234253,0.0,-0.021818015724420547
236.0,237.0,1.794,-1.7575,9.1992,-0.0363,0.0221,-0.1083,-1.785440584222311,0.0,3.0375566482543945,-1.6339737176895142,-0.0,2.1031205654144287,4.690134688014648,0.0,0.2941471338272095,-1.6208837668048304,-0.0,0.005539975594729185,1.5621817111968994,0.0,-0.0141437454149127,0.6974346041679382,0.0,0.006340194493532181
236.0,237.0,1.794,-1.7575,9.1992,-0.0363,0.0221,-0.1083,-1.7854768238463343,0.0,3.0671639442443848,-1.633913278579712,-0.0,2.120542049407959,4.69007842122998,0.0,0.30650830268859863,-1.620875660573141,-0.0,0.011554218828678131,1.5620899200439453,0.0,-0.000492872903123498,0.6973821520805359,0.0,-0.003453649580478668
236.0,237.0,1.794,-1.7575,9.1992,-0.0363,0.0221,-0.1083,-1.7854768238463343,0.0,3.0484085083007812,-1.6339013576507568,-0.0,2.1047234535217285,4.69008652746167,0.0,0.3088146448135376,-1.620899502431051,-0.0,0.0011851903982460499,1.5621616840362549,0.0,0.0032101597171276808,0.6973580718040466,0.0,-0.01541280746459961
236.0,237.0,1.794,-1.7575,9.1992,-0.0363,0.0221,-0.1083,-1.7854968510069789,0.0,3.045779228210449,-1.633917212486267,-0.0,2.1484451293945312,4.690066023463867,0.0,0.2940264940261841,-1.6208880583392542,-0.0,0.012425088323652744,1.5621657371520996,0.0,-0.0010461111087352037,0.6973821520805359,0.0,-0.005517309531569481
236.0,237.0,1.794,-1.7575,9.1992,-0.0363,0.0221,-0.1083,-1.7854725323119105,0.0,3.042487621307373,-1.6339013576507568,-0.0,2.1077067852020264,4.690130396480225,0.0,0.2995174527168274,-1.6209362188922327,-0.0,0.010593400336802006,1.5621455907821655,0.0,-0.0005845716223120689,0.6973659992218018,0.0,0.0516854003071785
236.0,237.0,1.794,-1.7575,9.1992,-0.0363,0.0221,-0.1083,-1.7854448757567347,0.0,3.0697059631347656,-1.6338891983032227,-0.0,2.1184442043304443,4.69008652746167,0.0,0.30686652660369873,-1.6208561102496546,-0.0,0.012976931408047676,1.5621576309204102,0.0,0.0014731569681316614,0.6973859667778015,0.0,0.03751508891582489
236.0,237.0,1.794,-1.7575,9.1992,-0.0363,0.0221,-0.1083,-1.785440584222311,0.0,3.030757427215576,-1.6338855028152466,-0.0,2.091907024383545,4.690138025874756,0.0,0.2999010384082794,-1.6208837668048304,-0.0,0.013204673305153847,1.562145709991455,0.0,-0.008917240425944328,0.6973862648010254,0.0,-0.02602558396756649
236.0,237.0,1.794,-1.7575,9.1992,-0.0363,0.0221,-0.1083,-1.7854806385436,0.0,3.060900926589966,-1.6339292526245117,-0.0,2.1158602237701416,4.69011036931958,0.0,0.3090740740299225,-1.620899502431051,-0.0,0.015799131244421005,1.5622172355651855,0.0,-0.014919184148311615,0.697426438331604,0.0,0.018992651253938675
236.0,237.0,1.794,-1.7575,9.1992,-0.0363,0.0221,-0.1083,-1.7854606113829554,0.0,3.0654609203338623,-1.6339452266693115,-0.0,2.0810632705688477,4.6901466089436035,0.0,0.2944324016571045,-1.620899502431051,-0.0,0.01709090545773506,1.5621535778045654,0.0,-0.012057779356837273,0.6974107027053833,0.0,0.01303163729608059
236.0,237.0,1.794,-1.7575,9.1992,-0.0363,0.0221,-0.1083,-1.7854887447752894,0.0,3.0533013343811035,-1.6339212656021118,-0.0,2.108914852142334,4.690162821406982,0.0,0.3050099015235901,-1.6208837668048304,-0.0,0.014926327392458916,1.5621339082717896,0.0,-0.007092233747243881,0.6973903775215149,0.0,0.026501208543777466
236.0,237.0,1.794,-1.7575,9.1992,-0.0363,0.0221,-0.1083,-1.7854768238463343,0.0,3.0305027961730957,-1.6339616775512695,-0.0,2.14829158782959,4.69014231740918,0.0,0.30694088339805603,-1.6208561102496546,-0.0,-0.004756531678140163,1.5621297359466553,0.0,0.003538676770403981,0.6974225640296936,0.0,-0.018280982971191406
236.0,237.0,1.794,-1.7575,9.1992,-0.0363,0.0221,-0.1083,-1.7854768238463343,0.0,3.109523296356201,-1.6339092254638672,-0.0,2.134176731109619,4.690138502711914,0.0,0.29254013299942017,-1.620875660573141,-0.0,0.015564640052616596,1.5621893405914307,0.0,-0.003371109487488866,0.6973983645439148,0.0,0.023611674085259438
236.0,237.0,1.794,-1.7575,9.1992,-0.0363,0.0221,-0.1083,-1.7854725323119105,0.0,3.0347228050231934,-1.6339292526245117,-0.0,2.126408338546753,4.690138502711914,0.0,0.2960160970687866,-1.6209076086627405,-0.0,0.007585062645375729,1.5621297359466553,0.0,-0.010166710242629051,0.6973862648010254,0.0,-0.006057210266590118
236.0,237.0,1.794,-1.7575,9.1992,-0.0363,0.0221,-0.1083,-1.785440584222311,0.0,3.0702576637268066,-1.6339333057403564,-0.0,2.1045632362365723,4.69014231740918,0.0,0.2996986508369446,-1.620875660573141,-0.0,0.00399631354957819,1.5621020793914795,0.0,0.000571219774428755,0.6974143385887146,0.0,-0.037762150168418884
236.0,237.0,1.794,-1.7575,9.1992,-0.0363,0.0221,-0.1083,-1.7854887447752894,0.0,3.0526018142700195,-1.6339452266693115,-0.0,2.1393957138061523,4.690097971553467,0.0,0.30016976594924927,-1.620871369038717,-0.0,0.011341718025505543,1.5621416568756104,0.0,-0.004961654543876648,0.6973536014556885,0.0,0.032010212540626526
236.0,237.0,1.794,-1.7575,9.1992,-0.0363,0.0221,-0.1083,-1.7854649029173792,0.0,3.049814224243164,-1.6339012384414673,-0.0,2.1620588302612305,4.690134688014648,0.0,0.30267244577407837,-1.6208837668048304,-0.0,0.00938180461525917,1.562117338180542,0.0,-0.004655290395021439,0.6973618865013123,0.0,-0.05255744978785515
222.0,263.0,1.7384,-1.7145,9.1167,-0.033,0.0185,-0.1171,-1.7854844532408656,0.0,3.066058874130249,-1.633937120437622,-0.0,2.1328446865081787,4.690089388484619,0.0,0.3024500906467438,-1.6208880583392542,-0.0,0.013814268633723259,1.5621256828308105,0.0,0.006318029016256332,0.6973862648010254,0.0,-0.024710267782211304
222.0,263.0,1.7384,-1.7145,9.1167,-0.033,0.0185,-0.1171,-1.7854887447752894,0.0,3.0342750549316406,-1.6338934898376465,-0.0,2.1234657764434814,4.690097971553467,0.0,0.3090610206127167,-1.620875660573141,-0.0,-0.0003016191767528653,1.5621339082717896,0.0,-0.004856334999203682,0.6973982453346252,0.0,-0.04606408253312111
222.0,263.0,1.7384,-1.7145,9.1167,-0.033,0.0185,-0.1171,-1.785445352593893,0.0,3.039336919784546,-1.6339333057403564,-0.0,2.137315034866333,4.690106077785156,0.0,0.3053324222564697,-1.6208880583392542,-0.0,0.0041732811369001865,1.5621131658554077,0.0,-0.002052499447017908,0.6973903775215149,0.0,0.012306606397032738
222.0,263.0,1.7384,-1.7145,9.1167,-0.033,0.0185,-0.1171,-1.785440584222311,0.0,3.058391571044922,-1.6339657306671143,-0.0,2.1594576835632324,4.690162821406982,0.0,0.29832887649536133,-1.620899502431051,-0.0,0.0021612050477415323,1.562145709991455,0.0,0.004228526260703802,0.69739830493927,0.0,0.019282761961221695
222.0,263.0,1.7384,-1.7145,9.1167,-0.033,0.0185,-0.1171,-1.7854887447752894,0.0,3.0301315784454346,-1.6339292526245117,-0.0,2.1639404296875,4.69008652746167,0.0,0.28698965907096863,-1.620871369038717,-0.0,0.012861779890954494,1.5621695518493652,0.0,-0.00195393618196249,0.697390079498291,0.0,-0.0344649963080883
222.0,263.0,1.7384,-1.7145,9.1167,-0.033,0.0185,-0.1171,-1.785525461236471,0.0,3.0598678588867188,-1.6338814496994019,-0.0,2.1284446716308594,4.690061731929443,0.0,0.3074526786804199,-1.6209400335894983,-0.0,0.015730198472738266,1.56209397315979,0.0,-0.012412498705089092,0.6973618865013123,0.0,0.05373702570796013
222.0,263.0,1.7384,-1.7145,9.1167,-0.033,0.0185,-0.1171,-1.7854930363097132,0.0,3.0307998657226562,-1.6339051723480225,-0.0,2.12969708442688,4.6901184755512695,0.0,0.2908456325531006,-1.6208871046649378,-0.0,0.01635430008172989,1.5621497631072998,0.0,-1.2194155715405941e-05,0.6973941922187805,0.0,-0.0012954447884112597
222.0,263.0,1.7384,-1.7145,9.1167,-0.033,0.0185,-0.1171,-1.7854811153807582,0.0,3.0660948753356934,-1.6339452266693115,-0.0,2.158102035522461,4.690102263087891,0.0,0.3129953145980835,-1.6208837668048304,-0.0,-0.0023131505586206913,1.5621615648269653,0.0,-0.00928746908903122,0.6973739266395569,0.0,0.022186025977134705
222.0,263.0,1.7384,-1.7145,9.1167,-0.033,0.0185,-0.1171,-1.7854930363097132,0.0,3.0488364696502686,-1.6339292526245117,-0.0,2.1528995037078857,4.6901184755512695,0.0,0.3171888291835785,-1.6209319273578089,-0.0,0.005810650531202555,1.562117338180542,0.0,-0.0001677507534623146,0.6974024176597595,0.0,-0.0392514243721962
222.0,263.0,1.7384,-1.7145,9.1167,-0.033,0.0185,-0.1171,-1.7854567966856898,0.0,3.0807571411132812,-1.63395357131958,-0.0,2.162569999694824,4.690150423640869,0.0,0.2977936267852783,-1.6208880583392542,-0.0,0.008138056844472885,1.5621615648269653,0.0,-0.008718820288777351,0.6974142789840698,0.0,-0.016205253079533577
222.0,263.0,1.7384,-1.7145,9.1167,-0.033,0.0185,-0.1171,-1.785441061059469,0.0,3.0563135147094727,-1.6339333057403564,-0.0,2.0866518020629883,4.690126581782959,0.0,0.3064974248409271,-1.620892349873678,-0.0,0.0010020749177783728,1.5622172355651855,0.0,-0.01428939402103424,0.69739830493927,0.0,0.010566646233201027
222.0,263.0,1.7384,-1.7145,9.1167,-0.033,0.0185,-0.1171,-1.7854768238463343,0.0,3.0716516971588135,-1.6339616775512695,-0.0,2.1907765865325928,4.690154715175293,0.0,0.2799931466579437,-1.6209281126605433,-0.0,0.008692835457623005,1.5621211528778076,0.0,-0.021295985206961632,0.6974143981933594,0.0,-0.01335938274860382
222.0,263.0,1.7384,-1.7145,9.1167,-0.033,0.0185,-0.1171,-1.7854968510069789,0.0,3.0486490726470947,-1.6339013576507568,-0.0,2.1681718826293945,4.690097971553467,0.0,0.30497094988822937,-1.6209119001971644,-0.0,0.013538448140025139,1.5621774196624756,0.0,0.0013073247391730547,0.6973862648010254,0.0,-6.480608135461807e-05
222.0,263.0,1.7384,-1.7145,9.1167,-0.033,0.0185,-0.1171,-1.7854930363097132,0.0,3.0795111656188965,-1.6339294910430908,-0.0,2.1064181327819824,4.690114184016846,0.0,0.2899321913719177,-1.620903793965475,-0.0,0.0077092344872653484,1.5621339082717896,0.0,-0.0010488962288945913,0.6973942518234253,0.0,0.022917253896594048
222.0,263.0,1.7384,-1.7145,9.1167,-0.033,0.0185,-0.1171,-1.785440584222311,0.0,3.056368827819824,-1.6339492797851562,-0.0,2.1441755294799805,4.690154715175293,0.0,0.30803388357162476,-1.6208394209491175,-0.0,0.010644681751728058,1.5621854066848755,0.0,-0.0042162369936704636,0.6973742246627808,0.0,0.03523567318916321
222.0,263.0,1.7384,-1.7145,9.1167,-0.033,0.0185,-0.1171,-1.785508771935934,0.0,3.0741381645202637,-1.6338932514190674,-0.0,2.1082305908203125,4.690130396480225,0.0,0.2988484501838684,-1.6209119001971644,-0.0,0.01176520623266697,1.5621377229690552,0.0,-0.0048738522455096245,0.697430431842804,0.0,0.00216675759293139
222.0,263.0,1.7384,-1.7145,9.1167,-0.033,0.0185,-0.1171,-1.7854768238463343,0.0,3.1025195121765137,-1.6339333057403564,-0.0,2.1527087688446045,4.690122767085693,0.0,0.31695953011512756,-1.6208518187152308,-0.0,0.016067346557974815,1.5621932744979858,0.0,-0.006416107527911663,0.6973698139190674,0.0,-0.0111405523493886
229.0,262.0,1.745,-1.7605,9.0903,-0.0316,0.0237,-0.1191,-1.7854968510069789,0.0,3.083634853363037,-1.6339616775512695,-0.0,2.1485402584075928,4.690122767085693,0.0,0.3053915500640869,-1.6208880583392542,-0.0,0.014565926045179367,1.562145709991455,0.0,-0.0056191254407167435,0.6974143385887146,0.0,-0.002720434218645096
229.0,262.0,1.745,-1.7605,9.0903,-0.0316,0.0237,-0.1191,-1.7854930363097132,0.0,3.0627894401550293,-1.6339616775512695,-0.0,2.1264381408691406,4.690154715175293,0.0,0.30920928716659546,-1.6209076086627405,-0.0,0.014167518354952335,1.562117338180542,0.0,-0.010804999619722366,0.6974225044250488,0.0,0.003400223795324564
229.0,262.0,1.745,-1.7605,9.0903,-0.0316,0.0237,-0.1191,-1.7854448757567347,0.0,3.0094966888427734,-1.6338733434677124,-0.0,2.1358730792999268,4.690097971553467,0.0,0.29258137941360474,-1.6208675543414515,-0.0,0.013377704657614231,1.5621178150177002,0.0,-0.0078269112855196,0.6973941922187805,0.0,0.008521489799022675
229.0,262.0,1.745,-1.7605,9.0903,-0.0316,0.0237,-0.1191,-1.785464426080221,0.0,3.0151119232177734,-1.6339333057403564,-0.0,2.150029420852661,4.690082235927246,0.0,0.29925641417503357,-1.6208718458758753,-0.0,0.01569654792547226,1.5621297359466553,0.0,-0.007087462116032839,0.69739830493927,0.0,-0.028665250167250633
229.0,262.0,1.745,-1.7605,9.0903,-0.0316,0.0237,-0.1191,-1.7854567966856898,0.0,3.022361993789673,-1.6339452266693115,-0.0,2.1172900199890137,4.690126104945801,0.0,0.30275633931159973,-1.6208913961993616,-0.0,0.007082969415932894,1.5621416568756104,0.0,-0.006330698728561401,0.697365939617157,0.0,0.03031298518180847
229.0,262.0,1.745,-1.7605,9.0903,-0.0316,0.0237,-0.1191,-1.7854248485960902,0.0,3.0397634506225586,-1.633933424949646,-0.0,2.093684196472168,4.690130396480225,0.0,0.30268850922584534,-1.6208437124835413,-0.0,0.013545412570238113,1.5621497631072998,0.0,-0.011204099282622337,0.6974024176597595,0.0,0.011229364201426506
229.0,262.0,1.745,-1.7605,9.0903,-0.0316,0.0237,-0.1191,-1.7854768238463343,0.0,3.0728869438171387,-1.6339292526245117,-0.0,2.136512279510498,4.6901866632648925,0.0,0.3033629059791565,-1.6208632628070276,-0.0,0.008588021621108055,1.5621973276138306,0.0,-0.0013182061957195401,0.69739830493927,0.0,-0.009492214769124985
229.0,262.0,1.745,-1.7605,9.0903,-0.0316,0.0237,-0.1191,-1.7854725323119105,0.0,3.096057891845703,-1.6339576244354248,-0.0,2.1361026763916016,4.690138502711914,0.0,0.30011066794395447,-1.6208799521075647,-0.0,0.01681094989180565,1.5620932579040527,0.0,-0.009977531619369984,0.6974263787269592,0.0,-0.022396646440029144
229.0,262.0,1.745,-1.7605,9.0903,-0.0316,0.0237,-0.1191,-1.7854448757567347,0.0,3.066897392272949,-1.6339492797851562,-0.0,2.1439857482910156,4.690093680019043,0.0,0.2894810438156128,-1.6209362188922327,-0.0,0.015649795532226562,1.5621815919876099,0.0,0.00433401670306921,0.6973739862442017,0.0,-0.002852213568985462
229.0,262.0,1.745,-1.7605,9.0903,-0.0316,0.0237,-0.1191,-1.7854486904540003,0.0,3.0360443592071533,-1.6339292526245117,-0.0,2.1157312393188477,4.690130396480225,0.0,0.30022910237312317,-1.620899502431051,-0.0,0.00460817152634263,1.5621377229690552,0.0,-0.0072977663949131966,0.6973742246627808,0.0,-0.004472589120268822
229.0,262.0,1.745,-1.7605,9.0903,-0.0316,0.0237,-0.1191,-1.7854968510069789,0.0,3.0523130893707275,-1.633937120437622,-0.0,2.135749578475952,4.690126104945801,0.0,0.2962782382965088,-1.6209200064288538,-0.0,0.015919983386993408,1.5621815919876099,0.0,0.0003708100412040949,0.6974346041679382,0.0,0.04482312873005867
229.0,262.0,1.745,-1.7605,9.0903,-0.0316,0.0237,-0.1191,-1.785440584222311,0.0,3.0680344104766846,-1.6339576244354248,-0.0,2.1199095249176025,4.69008652746167,0.0,0.2899346351623535,-1.6209200064288538,-0.0,0.004566947929561138,1.5621496438980103,0.0,-0.0010331426747143269,0.6974183917045593,0.0,-0.04057101905345917
229.0,262.0,1.745,-1.7605,9.0903,-0.0316,0.0237,-0.1191,-1.7854768238463343,0.0,3.0701236724853516,-1.6339372396469116,-0.0,2.109426975250244,4.690089388484619,0.0,0.29883015155792236,-1.6209319273578089,-0.0,0.004453715402632952,1.5621497631072998,0.0,-0.008403497748076916,0.697365939617157,0.0,-0.022646110504865646
229.0,262.0,1.745,-1.7605,9.0903,-0.0316,0.0237,-0.1191,-1.7854567966856898,0.0,3.0228826999664307,-1.6339411735534668,-0.0,2.148127794265747,4.690089388484619,0.0,0.29812029004096985,-1.6209161917315882,-0.0,0.012397415935993195,1.5621615648269653,0.0,-0.0009906634222716093,0.6974024176597595,0.0,0.01567533239722252
229.0,262.0,1.745,-1.7605,9.0903,-0.0316,0.0237,-0.1191,-1.785440584222311,0.0,3.046555519104004,-1.6339411735534668,-0.0,2.1581602096557617,4.69011036931958,0.0,0.2990078926086426,-1.6208718458758753,-0.0,0.019686546176671982,1.5621416568756104,0.0,-0.007337581366300583,0.6973783373832703,0.0,-0.03217397257685661
229.0,262.0,1.745,-1.7605,9.0903,-0.0316,0.0237,-0.1191,-1.7854930363097132,0.0,3.0193700790405273,-1.6339935064315796,-0.0,2.117736339569092,4.690114184016846,0.0,0.3110167384147644,-1.6209242979632776,-0.0,0.005634544417262077,1.5621734857559204,0.0,-0.007443185895681381,0.69739830493927,0.0,0.01928577572107315
222.0,256.0,1.7611,-1.7761,9.207,-0.0357,0.0215,-0.117,-1.7854811153807582,0.0,3.0517067909240723,-1.6338932514190674,-0.0,2.1117234230041504,4.69014231740918,0.0,0.2902202606201172,-1.6209161917315882,-0.0,0.003471167292445898,1.5620900392532349,0.0,0.0011747401440516114,0.6974102258682251,0.0,-0.008614933118224144
222.0,256.0,1.7611,-1.7761,9.207,-0.0357,0.0215,-0.117,-1.7854725323119105,0.0,3.0573043823242188,-1.63395357131958,-0.0,2.1375253200531006,4.690134688014648,0.0,0.30644798278808594,-1.6208837668048304,-0.0,0.007664442993700504,1.5621099472045898,0.0,0.008528027683496475,0.6974143385887146,0.0,-0.00010205432772636414
222.0,256.0,1.7611,-1.7761,9.207,-0.0357,0.0215,-0.117,-1.7854887447752894,0.0,3.0598738193511963,-1.6339614391326904,-0.0,2.122189998626709,4.690097971553467,0.0,0.3104345202445984,-1.620899502431051,-0.0,0.014859654009342194,1.5621058940887451,0.0,-0.004071885719895363,0.6974106431007385,0.0,-0.02608552575111389
222.0,256.0,1.7611,-1.7761,9.207,-0.0357,0.0215,-0.117,-1.7855011425414027,0.0,3.0548923015594482,-1.6338974237442017,-0.0,2.11806583404541,4.690138025874756,0.0,0.3019464612007141,-1.620903793965475,-0.0,0.011837607249617577,1.5620663166046143,0.0,-0.01700139418244362,0.6973820924758911,0.0,-0.01858755387365818
222.0,256.0,1.7611,-1.7761,9.207,-0.0357,0.0215,-0.117,-1.7854687176146449,0.0,3.0455126762390137,-1.6339616775512695,-0.0,2.1541242599487305,4.69011036931958,0.0,0.3055424392223358,-1.6209076086627405,-0.0,0.015998374670743942,1.5621377229690552,0.0,0.001095564803108573,0.697406530380249,0.0,0.017712192609906197
222.0,256.0,1.7611,-1.7761,9.207,-0.0357,0.0215,-0.117,-1.7854811153807582,0.0,3.0947632789611816,-1.633868932723999,-0.0,2.144704580307007,4.690097971553467,0.0,0.2954480051994324,-1.620859448109762,-0.0,0.014943324029445648,1.5621497631072998,0.0,0.006825009826570749,0.6974425315856934,0.0,-0.04928324744105339
222.0,256.0,1.7611,-1.7761,9.207,-0.0357,0.0215,-0.117,-1.7854930363097132,0.0,3.0825047492980957,-1.6339173316955566,-0.0,2.170015573501587,4.690126104945801,0.0,0.30341923236846924,-1.6209281126605433,-0.0,0.019764764234423637,1.5620980262756348,0.0,-0.0014684423804283142,0.6973618865013123,0.0,-0.04688190296292305
222.0,256.0,1.7611,-1.7761,9.207,-0.0357,0.0215,-0.117,-1.7855168781676234,0.0,3.0695433616638184,-1.6339572668075562,-0.0,2.157987117767334,4.690162821406982,0.0,0.3069497346878052,-1.6208918730365198,-0.0,0.009567219763994217,1.5621092319488525,0.0,-0.006467473227530718,0.6974263787269592,0.0,-0.06550202518701553
222.0,256.0,1.7611,-1.7761,9.207,-0.0357,0.0215,-0.117,-1.785469194451803,0.0,3.0776429176330566,-1.6339173316955566,-0.0,2.137355327606201,4.690114184016846,0.0,0.3024164140224457,-1.6209119001971644,-0.0,0.006291560363024473,1.5621496438980103,0.0,-0.0057183485478162766,0.6974425315856934,0.0,-0.01967865787446499
222.0,256.0,1.7611,-1.7761,9.207,-0.0357,0.0215,-0.117,-1.7854930363097132,0.0,3.0636324882507324,-1.6339253187179565,-0.0,2.143143653869629,4.690093680019043,0.0,0.2977178692817688,-1.620899502431051,-0.0,0.017079800367355347,1.5621377229690552,0.0,0.0023147554602473974,0.6974346041679382,0.0,-0.005645542871206999
222.0,256.0,1.7611,-1.7761,9.207,-0.0357,0.0215,-0.117,-1.785440584222311,0.0,3.0853517055511475,-1.6338891983032227,-0.0,2.1360621452331543,4.6901184755512695,0.0,0.2982449531555176,-1.6209119001971644,-0.0,0.006409041117876768,1.5622053146362305,0.0,-9.128614328801632e-05,0.6973780989646912,0.0,0.010329623706638813
222.0,256.0,1.7611,-1.7761,9.207,-0.0357,0.0215,-0.117,-1.7854887447752894,0.0,3.03994083404541,-1.6338810920715332,-0.0,2.097705841064453,4.690134688014648,0.0,0.30386069416999817,-1.6209242979632776,-0.0,0.011519482359290123,1.5621575117111206,0.0,0.002509351819753647,0.6973820924758911,0.0,-0.009062268771231174
222.0,256.0,1.7611,-1.7761,9.207,-0.0357,0.0215,-0.117,-1.785469194451803,0.0,3.076287031173706,-1.6339173316955566,-0.0,2.130307197570801,4.69014231740918,0.0,0.29666173458099365,-1.6208837668048304,-0.0,0.015147811733186245,1.562097430229187,0.0,-0.005924894940108061,0.6973942518234253,0.0,-0.009519902057945728
222.0,256.0,1.7611,-1.7761,9.207,-0.0357,0.0215,-0.117,-1.7854324779906214,0.0,3.056952476501465,-1.633953332901001,-0.0,2.149641990661621,4.69014231740918,0.0,0.29801279306411743,-1.6209076086627405,-0.0,0.016953788697719574,1.5621416568756104,0.0,-0.0027788435108959675,0.6973942518234253,0.0,0.044861290603876114
222.0,256.0,1.7611,-1.7761,9.207,-0.0357,0.0215,-0.117,-1.7854768238463343,0.0,3.0541133880615234,-1.6338729858398438,-0.0,2.0792160034179688,4.690150423640869,0.0,0.30121302604675293,-1.6209195295916956,-0.0,0.0047871749848127365,1.5621258020401,0.0,-0.011106902733445168,0.6974024176597595,0.0,-0.04024764150381088
222.0,256.0,1.7611,-1.7761,9.207,-0.0357,0.0215,-0.117,-1.7854567966856898,0.0,3.0740151405334473,-1.6339092254638672,-0.0,2.136784553527832,4.690154715175293,0.0,0.3121567368507385,-1.6209281126605433,-0.0,0.005432917736470699,1.5621258020401,0.0,0.008788862265646458,0.6974102258682251,0.0,-0.0370858870446682
227.0,266.0,1.727,-1.6786,9.055,-0.042,0.0272,-0.1156,-1.7854887447752894,0.0,3.063593864440918,-1.6339454650878906,-0.0,2.1180319786071777,4.69013421117749,0.0,0.29987841844558716,-1.6209319273578089,-0.0,0.007047051098197699,1.5621377229690552,0.0,-0.007374602369964123,0.6973941922187805,0.0,-0.03245930373668671
227.0,266.0,1.727,-1.6786,9.055,-0.042,0.0272,-0.1156,-1.7854768238463343,0.0,3.067969799041748,-1.633897304534912,-0.0,2.125647783279419,4.69014231740918,0.0,0.3089035153388977,-1.6209076086627405,-4.146747301092546e-07,0.01605837792158127,1.5621535778045654,0.0,-0.005792283918708563,0.6974425315856934,0.0,-0.025879088789224625
227.0,266.0,1.727,-1.6786,9.055,-0.042,0.0272,-0.1156,-1.7854887447752894,0.0,2.9900221824645996,-1.6338329315185547,-1.0272959372059631e-07,2.093055486679077,4.690126104945801,0.0,0.3042254149913788,-1.6208952108966272,-1.1542623107319017e-10,0.013022413477301598,1.562165379524231,0.0,-0.012743640691041946,0.697413980960846,0.0,0.005755129270255566
227.0,266.0,1.727,-1.6786,9.055,-0.042,0.0272,-0.1156,-1.785440584222311,0.0,3.064981460571289,-1.6338168382644653,-1.849096396833172e-11,2.1033012866973877,4.6901466089436035,0.0,0.2856519818305969,-1.6209238211261194,-4.920801721826351e-13,0.02718014270067215,1.5621932744979858,0.0,-0.011791110038757324,0.6974664330482483,0.0,-0.05393245071172714
227.0,266.0,1.727,-1.6786,9.055,-0.042,0.0272,-0.1156,-1.7855130634703578,0.0,3.040285110473633,-1.6338777542114258,0.00076644541695714,2.1781580448150635,4.690194769496582,0.0,0.3057730793952942,-1.620899502431051,-1.3697230823706382e-16,0.004792096093297005,1.5620781183242798,0.0,-0.0020653344690799713,0.6974744200706482,0.0017476591747254133,-0.030850619077682495
227.0,266.0,1.727,-1.6786,9.055,-0.042,0.0272,-0.1156,-1.7854567966856898,0.0,2.98907208442688,-1.633829116821289,0.0007302954327315092,2.161440134048462,4.690138025874756,1.407186633883839e-08,0.30177807807922363,-1.6209400335894983,-3.812674806709227e-20,0.008340165950357914,1.562121868133545,0.0,-0.0025196571368724108,0.697514533996582,0.003351279068738222,0.009236080572009087
227.0,266.0,1.727,-1.6786,9.055,-0.042,0.0272,-0.1156,-1.785440584222311,0.0,3.051300525665283,-1.633889079093933,0.000542659719940275,2.09625244140625,4.690178557033203,3.916955735455696e-12,0.3051978647708893,-1.6209195295916956,-0.000311506591970101,0.013784075155854225,1.5621496438980103,7.728142570329055e-09,0.00834253802895546,0.6975260972976685,0.006060452666133642,0.00583595409989357
227.0,266.0,1.727,-1.6786,9.055,-0.042,0.0272,-0.1156,-1.7854725323119105,0.0,3.0288968086242676,-1.6338810920715332,0.0004628916212823242,2.169285774230957,4.690134688014648,1.6698597257551462e-14,0.29322701692581177,-1.6209400335894983,-0.0003275134367868304,0.01972726732492447,1.562145709991455,3.2946284589385755e-11,-0.010281117632985115,0.6975383162498474,0.007759665604680777,0.008233217522501945
227.0,266.0,1.727,-1.6786,9.055,-0.042,0.0272,-0.1156,-1.7855049572386683,0.0,3.057966709136963,-1.633909821510315,0.00037927328958176076,2.1425249576568604,4.690138025874756,4.648115218344206e-18,0.2888028919696808,-1.6209676901446741,-0.00032090937020257115,0.020195279270410538,1.5621013641357422,9.170719840803903e-15,0.0035356134176254272,0.6976425051689148,0.009854122065007687,0.003333312924951315
227.0,266.0,1.727,-1.6786,9.055,-0.042,0.0272,-0.1156,-1.7854844532408656,0.0,3.0002317428588867,-1.6338697671890259,0.00032124645076692104,2.123577356338501,4.690162821406982,1.2938201360096482e-21,0.28678619861602783,-1.6209800879107874,-0.0003003578749485314,0.01873900182545185,1.5621377229690552,2.5527033585764074e-18,-0.00027949089417234063,0.6977307796478271,0.011364876292645931,0.02468174882233143
227.0,266.0,1.727,-1.6786,9.055,-0.042,0.0272,-0.1156,-1.7854687176146449,0.0,3.0003910064697266,-1.633876919746399,0.00029151426861062646,2.130810499191284,4.69013421117749,5.515758442224649e-24,0.31241509318351746,-1.6209357420550745,-0.0002945123706012964,0.006769497413188219,1.5621337890625,1.0882573123474463e-20,-0.01561751589179039,0.6977826356887817,0.01279256958514452,0.005965567193925381
227.0,266.0,1.727,-1.6786,9.055,-0.042,0.0272,-0.1156,-1.785492559472555,0.0,3.0677385330200195,-1.6338729858398438,0.00014758872566744685,2.1359457969665527,4.690114184016846,1.53533141829058e-27,0.2968713939189911,-1.6209076086627405,-0.0003406989562790841,0.01724328100681305,1.5621535778045654,3.0292045768042444e-24,-0.0030148765072226524,0.6978790163993835,0.015390843152999878,-0.03294367715716362
227.0,266.0,1.727,-1.6786,9.055,-0.042,0.0272,-0.1156,-1.7855330906310023,0.0,3.03792405128479,-1.6338655948638916,7.874787115724757e-05,2.135667085647583,4.6901466089436035,4.273651241934265e-31,0.2952015995979309,-1.6209476629840296,-0.00038589685573242605,0.02119254320859909,1.5621378421783447,8.431902333942091e-28,-0.006229185499250889,0.6979708671569824,0.017406020313501358,0.014373868703842163
227.0,266.0,1.727,-1.6786,9.055,-0.042,0.0272,-0.1156,-1.7855211697020472,0.0,3.031391143798828,-1.633913516998291,6.961112376302481e-05,2.1056952476501465,4.690150423640869,1.1895866225021015e-34,0.3030700087547302,-1.6209433714496058,-0.0007246622117236257,0.01780540868639946,1.562205195426941,2.3470507955693204e-31,0.0029967427253723145,0.6980547308921814,0.019453417509794235,0.02164357155561447
227.0,266.0,1.727,-1.6786,9.055,-0.042,0.0272,-0.1156,-1.7855049572386683,0.0,3.0372226238250732,-1.6339534521102905,3.275623021181673e-05,2.160886287689209,4.6901466089436035,5.071393758063824e-37,0.29762566089630127,-1.6209514776812952,-0.0006822225986979902,0.012732828967273235,1.562121868133545,1.0005845566752736e-33,-0.01328327227383852,0.6981875896453857,0.020570453256368637,0.004775123670697212
227.0,266.0,1.727,-1.6786,9.055,-0.042,0.0272,-0.1156,-1.7855287990965785,0.0,3.038203239440918,-1.6338576078414917,2.916577250289265e-05,2.1494827270507812,4.69008652746167,1.4116400469915342e-40,0.30572664737701416,-1.6209395567523401,-0.0007123040268197656,-0.00042818288784474134,1.5621774196624756,2.7851641031301705e-37,0.0016071349382400513,0.6982713341712952,0.0223199725151062,0.019665434956550598
227.0,266.0,1.727,-1.6786,9.055,-0.042,0.0272,-0.1156,-1.785508771935934,0.0,3.0629050731658936,-1.633853554725647,2.6581463316688314e-05,2.1345138549804688,4.6901466089436035,3.923635700109488e-44,0.30382639169692993,-1.620995823537008,-0.0006048743380233645,0.010094154626131058,1.5621893405914307,7.752543624030618e-41,-0.00928785465657711,0.6984480619430542,0.023637503385543823,0.061155062168836594
228.0,258.0,1.7779,-1.8365,9.2183,-0.0354,-0.0015,-0.0924,-1.785532613793844,-0.0002674238057807088,3.0331549644470215,-1.6339094638824463,1.3557624356508313e-08,2.114861249923706,4.690101786250732,0.0,0.29433923959732056,-1.6209715048419397,-0.0005370060680434108,0.0067727528512477875,1.5621614456176758,2.1019476964872256e-44,-0.01325033139437437,0.6985673308372498,0.027476483955979347,0.04194814711809158
228.0,258.0,1.7779,-1.8365,9.2183,-0.0354,-0.0015,-0.0924,-1.785536905328268,-0.00032163647119887173,3.026172637939453,-1.6339094638824463,2.4403244182347184e-12,2.1617226600646973,4.690162821406982,0.0,0.29826152324676514,-1.6209753195392054,-0.00044585010618902743,0.021789655089378357,1.5621535778045654,0.0,0.0037177070043981075,0.6986836791038513,0.028033370152115822,0.07191576063632965
228.0,258.0,1.7779,-1.8365,9.2183,-0.0354,-0.0015,-0.0924,-1.7855411968626917,-0.0007690801867283881,3.058964729309082,-1.633925437927246,5.893096486491642e-18,2.1193957328796387,4.690106077785156,0.0,0.3052241802215576,-1.6209753195392054,-0.0004028422699775547,0.02217521332204342,1.5621654987335205,0.0,0.0010438888566568494,0.6988476514816284,0.030072972178459167,0.05468457564711571
228.0,258.0,1.7779,-1.8365,9.2183,-0.0354,-0.0015,-0.0924,-1.7855564556517542,-0.0006379252881743014,3.021904945373535,-1.6339411735534668,1.4231135927164817e-23,2.0988030433654785,4.690093680019043,0.0,0.30135247111320496,-1.6209796110736292,-0.0003353887004777789,0.019873391836881638,1.5621694326400757,0.0,-0.0016928056720644236,0.6990358233451843,0.031786881387233734,0.046215735375881195
228.0,258.0,1.7779,-1.8365,9.2183,-0.0354,-0.0015,-0.0924,-1.785536905328268,-0.000603092135861516,3.0136795043945312,-1.6338932514190674,2.5615544261760717e-27,2.1299092769622803,4.690097971553467,0.0,0.30674615502357483,-1.6209715048419397,-0.00029831804567947984,0.013575427234172821,1.5621614456176758,0.0,-0.0038501033559441566,0.6992121338844299,0.030865924432873726,0.07314993441104889
228.0,258.0,1.7779,-1.8365,9.2183,-0.0354,-0.0015,-0.0924,-1.7855564556517542,-0.00048398529179394245,3.0063223838806152,-1.6339333057403564,6.185852411474095e-33,2.1523921489715576,4.69011036931958,0.0,0.29308491945266724,-1.6210082213031214,-0.00025589391589164734,0.012670591473579407,1.5621575117111206,0.0,-0.01399113517254591,0.6993968486785889,0.029454486444592476,0.007085186429321766
228.0,258.0,1.7779,-1.8365,9.2183,-0.0354,-0.0015,-0.0924,-1.7856093845763148,-0.00040275216451846063,3.0998332500457764,-1.6338813304901123,1.4938106475112307e-38,2.1276917457580566,4.690061731929443,0.0,0.3028157949447632,-1.620955769215719,-0.00022403632465284318,0.01690598949790001,1.5621377229690552,0.0,0.00885193981230259,0.6995083689689636,0.027271172031760216,-0.0021899668499827385
228.0,258.0,1.7779,-1.8365,9.2183,-0.0354,-0.0015,-0.0924,-1.785532613793844,-0.000344871892593801,3.026106357574463,-1.6339737176895142,3.6433760072445244e-44,2.0968596935272217,4.690138502711914,0.0,0.3001440167427063,-1.6209033171283167,-0.00019923446234315634,0.006751460488885641,1.5621179342269897,0.0,-0.01110474020242691,0.6997369527816772,0.02517981268465519,0.026052169501781464
228.0,258.0,1.7779,-1.8365,9.2183,-0.0354,-0.0015,-0.0924,-1.785560747186178,-0.0003147201205138117,3.048025608062744,-1.6339213848114014,-0.0,2.1456875801086426,4.690122767085693,0.0,0.292741596698761,-1.6209638754474085,-0.00018554106645751745,0.017004815861582756,1.562121868133545,0.0,-0.011074346490204334,0.6997764110565186,0.023823175579309464,0.004593218676745892
228.0,258.0,1.7779,-1.8365,9.2183,-0.0354,-0.0015,-0.0924,-1.785565038720602,-0.0002783187374006957,3.0303046703338623,-1.6339892148971558,-0.0,2.184586763381958,4.690097971553467,0.0,0.30099791288375854,-1.6209996382342737,-0.00016820109158288687,0.0204362440854311,1.5621535778045654,0.0,-0.0029870609287172556,0.6999325752258301,0.021948663517832756,0.02291262336075306
228.0,258.0,1.7779,-1.8365,9.2183,-0.0354,-0.0015,-0.0924,-1.7855731449522914,-0.00018915014516096562,3.0372002124786377,-1.633897304534912,-0.0,2.1241958141326904,4.69011036931958,0.0,0.29027706384658813,-1.6209633986102503,-0.00015382538549602032,0.02241460606455803,1.5621377229690552,0.0,-0.008584856986999512,0.700056791305542,0.021212665364146233,0.025496456772089005
228.0,258.0,1.7779,-1.8365,9.2183,-0.0354,-0.0015,-0.0924,-1.7855531177916468,-0.0002015609061345458,3.0624656677246094,-1.6338615417480469,-0.0,2.124925374984741,4.69011036931958,0.0,0.28994664549827576,-1.6209433714496058,-0.00014171400107443333,0.024331070482730865,1.5621337890625,0.0,-0.0008737339521758258,0.7002533674240112,0.020252546295523643,0.0369550958275795
228.0,258.0,1.7779,-1.8365,9.2183,-0.0354,-0.0015,-0.0924,-1.7856093845763148,-0.00021881362772546709,3.0294671058654785,-1.6338772773742676,-0.0,2.143930435180664,4.690094633693359,0.0,0.290202796459198,-1.6209753195392054,-0.00013464645599015057,0.01099908072501421,1.5621140003204346,0.0,-0.001839376986026764,0.7003334164619446,0.019527217373251915,0.07185795158147812
228.0,258.0,1.7779,-1.8365,9.2183,-0.0354,-0.0015,-0.0924,-1.7855364284911097,-0.00019816969870589674,3.031798839569092,-1.6339335441589355,-0.0,2.1272025108337402,4.69008652746167,0.0,0.3001294732093811,-1.6209400335894983,-0.0001252750080311671,0.019215751439332962,1.562185287475586,0.0,-0.007849357090890408,0.700413167476654,0.018598970025777817,0.03901303559541702
228.0,258.0,1.7779,-1.8365,9.2183,-0.0354,-0.0015,-0.0924,-1.7855364284911097,-0.00018108134099747986,3.080501079559326,-1.633925437927246,5.377285197027959e-05,2.1571173667907715,4.690126104945801,0.0,0.2928069829940796,-1.6209595839129847,-0.00011712319974321872,0.018270235508680344,1.5621377229690552,0.0,-0.007010878995060921,0.7005369067192078,0.01784512959420681,0.007118430454283953
228.0,258.0,1.7779,-1.8365,9.2183,-0.0354,-0.0015,-0.0924,-1.7855893574156703,-0.00017123772704508156,3.02569580078125,-1.6338655948638916,7.630284380866215e-05,2.1470041275024414,4.690114184016846,0.0,0.2994767725467682,-1.6209357420550745,-0.0001122535759350285,0.007648993283510208,1.5621496438980103,0.0,-0.008479518815875053,0.7005807161331177,0.01793217658996582,0.02254834584891796
226.0,250.0,1.8975,-1.407,9.1214,-0.0157,0.0041,-0.0936,-1.7855445347227992,-0.0001583271223353222,3.0361878871917725,-1.6338210105895996,7.063911471050233e-05,2.156435489654541,4.690122290248535,0.0,0.30298200249671936,-1.620927635823385,-0.00010566393029876053,0.015140891075134277,1.5621654987335205,0.0,-0.004692044574767351,0.7007330656051636,0.018120069056749344,0.0014093515928834677
226.0,250.0,1.8975,-1.407,9.1214,-0.0157,0.0041,-0.0936,-1.7855364284911097,-0.00016816049173939973,3.031804323196411,-1.6338655948638916,8.731897105462849e-05,2.114055871963501,4.690114184016846,0.0,0.3143536150455475,-1.6209796110736292,-9.980504546547309e-05,0.012315698899328709,1.5621932744979858,0.0,-0.005096539855003357,0.7007884383201599,0.018461422994732857,0.020461557433009148
226.0,250.0,1.8975,-1.407,9.1214,-0.0157,0.0041,-0.0936,-1.7856255970396937,-0.00020453969773370773,3.0482254028320312,-1.6338655948638916,8.140666614053771e-05,2.1201114654541016,4.6900903421589355,0.0,0.31517529487609863,-1.6209481398211878,-9.456175757804886e-05,0.005381922237575054,1.5621258020401,0.0,-0.004084746353328228,0.7009651064872742,0.01860320009291172,3.0280090868473053e-05
226.0,250.0,1.8975,-1.407,9.1214,-0.0157,0.0041,-0.0936,-1.7856089077391566,-0.00026631177752278745,3.0111911296844482,-1.633913516998291,7.78842659201473e-05,2.145334482192993,4.690134688014648,0.0,0.30313658714294434,-1.6209314505206507,-9.136192966252565e-05,0.008423963561654091,1.5621535778045654,0.0,-0.012128259986639023,0.7010208368301392,0.0188731849193573,0.004161819349974394
226.0,250.0,1.8975,-1.407,9.1214,-0.0157,0.0041,-0.0936,-1.7855926952757777,-0.0024333694018423557,3.024101734161377,-1.633885145187378,7.313735841307789e-05,2.145665168762207,4.6901184755512695,0.0,0.3012777864933014,-1.6209319273578089,-8.694871212355793e-05,0.008187114261090755,1.562082290649414,0.0,-0.011308714747428894,0.7011086940765381,0.01931605488061905,-0.003836270421743393
226.0,250.0,1.8975,-1.407,9.1214,-0.0157,0.0041,-0.0936,-1.785617013970846,-0.005361507646739483,2.9941508769989014,-1.6339056491851807,8.548062032787129e-05,2.166776180267334,4.6901466089436035,0.0,0.3062543570995331,-1.6209600607501429,-8.294217695947737e-05,-0.010382718406617641,1.562097430229187,0.0,-0.00043524056673049927,0.7012771368026733,0.020329466089606285,0.03603844717144966
226.0,250.0,1.8975,-1.407,9.1214,-0.0157,0.0041,-0.0936,-1.7856933079161585,-0.00827723741531372,2.9156670570373535,-1.6338738203048706,8.149274799507111e-05,2.109969139099121,4.6900903421589355,0.0,0.29795950651168823,-1.6209400335894983,-7.928862032713369e-05,-0.00962265394628048,1.5621614456176758,0.0,0.0002622544998303056,0.7013407945632935,0.021359408274292946,0.08723262697458267
226.0,250.0,1.8975,-1.407,9.1214,-0.0157,0.0041,-0.0936,-1.7857371769347132,-0.009996152482926846,2.9438657760620117,-1.6338932514190674,0.00021055692923255265,2.15185809135437,4.690122767085693,0.0,0.29752469062805176,-1.6209076086627405,-7.702668517595157e-05,0.0026260274462401867,1.5621377229690552,0.0,-0.008814336732029915,0.7014852166175842,0.02290540561079979,0.02005050890147686
226.0,250.0,1.8975,-1.407,9.1214,-0.0157,0.0041,-0.0936,-1.7857815227904261,-0.008335103280842304,2.9817557334899902,-1.6338456869125366,0.0010110011789947748,2.163964033126831,4.690122767085693,0.0,0.29603952169418335,-1.6209195295916956,-6.15583558101207e-05,-0.005390713922679424,1.5621694326400757,0.0,-0.0020715673454105854,0.7015480995178223,0.022527096793055534,-0.001518411561846733
226.0,250.0,1.8975,-1.407,9.1214,-0.0157,0.0041,-0.0936,-1.7858010731139125,-0.007054513785988092,2.9428606033325195,-1.6339054107666016,0.0016608359292149544,2.0985326766967773,4.69007842122998,0.0,0.2892763912677765,-1.6209200064288538,-5.912836058996618e-05,-0.00831709522753954,1.562153697013855,0.0,-0.008655487559735775,0.7017651796340942,0.022376520559191704,0.014786424115300179
226.0,250.0,1.8975,-1.407,9.1214,-0.0157,0.0041,-0.0936,-1.7859298191466273,-0.0051834168843925,2.9647936820983887,-1.6338415145874023,0.0014680004678666592,2.095567464828491,4.690142794246338,0.0,0.29948243498802185,-1.6209033171283167,-5.688600867870264e-05,-0.0046759555116295815,1.562145709991455,0.0,-0.0029225992038846016,0.701872706413269,0.02121453918516636,-0.009140732698142529
226.0,250.0,1.8975,-1.407,9.1214,-0.0157,0.0041,-0.0936,-1.785877367059225,-0.005185134243220091,2.9267330169677734,-1.6338776350021362,0.0011476428480818868,2.149111747741699,4.690106077785156,0.0,0.2875427007675171,-1.6209114233600062,-5.548324770643376e-05,0.0008430005982518196,1.5621416568756104,0.0,-0.01183679886162281,0.7019526362419128,0.019728830084204674,-0.02522188052535057
226.0,250.0,1.8975,-1.407,9.1214,-0.0157,0.0041,-0.0936,-1.785929342309469,-0.005764245521277189,2.9529709815979004,-1.6338177919387817,0.0006541747716255486,2.1365907192230225,4.6901184755512695,0.0,0.2983202636241913,-1.6209319273578089,-5.3504212701227516e-05,0.000400516320951283,1.5621337890625,0.0,-0.0013833798002451658,0.7020485997200012,0.016719074919819832,-0.04062945395708084
226.0,250.0,1.8975,-1.407,9.1214,-0.0157,0.0041,-0.0936,-1.7859693966307582,-0.006764565594494343,2.9025254249572754,-1.6338653564453125,0.0004554042825475335,2.0916152000427246,4.690082235927246,0.0,0.2967837154865265,-1.6209238211261194,-5.166147821000777e-05,0.00573377450928092,1.562117338180542,0.0,-0.002770697232335806,0.7021368145942688,0.014466299675405025,-0.02970585972070694
226.0,250.0,1.8975,-1.407,9.1214,-0.0157,0.0041,-0.0936,-1.7859937153258265,-0.006475118920207024,2.892721176147461,-1.6338493824005127,0.0003787179884966463,2.1398682594299316,4.69007842122998,0.0,0.28520455956459045,-1.620899502431051,-5.0501963414717466e-05,-0.0031885828357189894,1.5621576309204102,0.0,-0.010352826677262783,0.70218425989151,0.012477963231503963,-0.0341549813747406
226.0,250.0,1.8975,-1.407,9.1214,-0.0157,0.0041,-0.0936,-1.7860542736449183,-0.007374817971140146,2.8376526832580566,-1.633833408355713,0.00030235949088819325,2.1485025882720947,4.690069838161133,0.0,0.2969226837158203,-1.6209481398211878,-8.286221486741852e-07,-0.0045560793951153755,1.5621378421783447,0.0,-0.023048562929034233,0.7022646069526672,0.00993212591856718,-0.07831928133964539
226.0,250.0,1.8975,-1.407,9.1214,-0.0157,0.0041,-0.0936,-1.7860614262022914,-0.006682862527668476,2.8705825805664062,-1.6338374614715576,0.0002516285458113998,2.102220058441162,4.690114184016846,0.0,0.276233047246933,-1.6208952108966272,-2.3064999910005213e-10,-0.009340046904981136,1.5621089935302734,0.0,-0.0033184755593538284,0.7023043036460876,0.008301042951643467,-0.061420440673828125
232.0,253.0,1.9101,-1.4865,9.1651,-0.0405,0.0093,-0.1097,-1.7861062488951625,-0.0062500895000994205,2.860225200653076,-1.6338293552398682,0.00021547768847085536,2.1260671615600586,4.690114184016846,0.0,0.27781325578689575,-1.6209400335894983,-6.42022784762275e-14,-0.006502941716462374,1.5621416568756104,0.0,0.00458952784538269,0.7023162245750427,0.0060364678502082825,-0.0508103184401989
232.0,253.0,1.9101,-1.4865,9.1651,-0.0405,0.0093,-0.1097,-1.78613342861318,-0.00593029847368598,2.844712257385254,-1.633768916130066,0.00019664429419208318,2.121020555496216,4.6901184755512695,0.0,0.27361825108528137,-1.6209400335894983,-2.7370437675446264e-16,0.0020110425539314747,1.5621256828308105,0.0,-0.014223038218915462,0.7023564577102661,0.005406353157013655,-0.033777475357055664
232.0,253.0,1.9101,-1.4865,9.1651,-0.0405,0.0093,-0.1097,-1.786145349542135,-0.005513192620128393,2.8731117248535156,-1.6338014602661133,0.00020813659648410976,2.0979785919189453,4.6901184755512695,0.0,0.2820984423160553,-1.6208913961993616,-7.618662375153845e-20,0.009999596513807774,1.5621416568756104,0.0,-0.014055346138775349,0.7023763060569763,0.004048608243465424,-0.05325555056333542
232.0,253.0,1.9101,-1.4865,9.1651,-0.0405,0.0093,-0.1097,-1.7862140140929164,-0.00560194393619895,2.841550827026367,-1.6337929964065552,0.00018695282051339746,2.1007540225982666,4.690069838161133,0.0,0.29114240407943726,-1.6209076086627405,-2.1206827808198867e-23,-1.9409460946917534e-05,1.5621297359466553,0.0,-0.00867791660130024,0.7023964524269104,0.0026289725210517645,-0.07514801621437073
232.0,253.0,1.9101,-1.4865,9.1651,-0.0405,0.0093,-0.1097,-1.7862221203246058,-0.005781005136668682,2.8672900199890137,-1.6337848901748657,0.0002246763469884172,2.110926389694214,4.6901184755512695,0.0,0.28032684326171875,-1.620903793965475,-5.9029987758921994e-27,-0.01832260563969612,1.5622056722640991,0.0,-0.010022049769759178,0.7024365663528442,0.0020425040274858475,-0.02173144370317459
232.0,253.0,1.9101,-1.4865,9.1651,-0.0405,0.0093,-0.1097,-1.7862535915770472,-0.006264273542910814,2.838967800140381,-1.6338014602661133,0.00017592744552530348,2.120619535446167,4.690101786250732,0.0,0.28089648485183716,-1.6208913961993616,-2.5165408873477173e-29,-0.009010251611471176,1.5621293783187866,0.0,-0.014829658903181553,0.7023681402206421,0.0017163458978757262,-0.06218847259879112
232.0,253.0,1.9101,-1.4865,9.1651,-0.0405,0.0093,-0.1097,-1.7863222561278285,-0.006873537786304951,2.863800048828125,-1.6337532997131348,0.0011457890504971147,2.1053645610809326,4.690122767085693,0.0,0.28049105405807495,-1.6209080854998987,-7.004883977881278e-33,-0.025118011981248856,1.5621378421783447,0.0,-0.013377435505390167,0.7024283409118652,0.0016647686716169119,-0.07382716238498688
232.0,253.0,1.9101,-1.4865,9.1651,-0.0405,0.0093,-0.1097,-1.786342283288473,-0.007933447137475014,2.8214759826660156,-1.6337610483169556,0.0016059789340943098,2.0929934978485107,4.6901466089436035,0.0,0.2823449671268463,-1.6208832899676722,-1.9498352908343638e-36,-0.007819459773600101,1.562201976776123,0.0,-0.013130861334502697,0.7024362683296204,0.0019720462150871754,-0.027079977095127106
232.0,253.0,1.9101,-1.4865,9.1651,-0.0405,0.0093,-0.1097,-1.7864428959288539,-0.008742136880755424,2.827244758605957,-1.6337933540344238,0.0022033173590898514,2.143436908721924,4.6901466089436035,0.0,0.27575117349624634,-1.6209400335894983,-8.312453444928563e-39,-0.017944786697626114,1.562142014503479,0.0,-0.02211560681462288,0.702484667301178,0.0027690415736287832,-0.06994044035673141
232.0,253.0,1.9101,-1.4865,9.1651,-0.0405,0.0093,-0.1097,-1.7864581547179164,-0.00998843926936388,2.8401498794555664,-1.6337774991989136,0.003819463774561882,2.0867080688476562,4.690074129695557,0.0,0.2782553434371948,-1.620943848286764,-2.313543764600273e-42,-0.008153221569955349,1.562150001525879,0.0,-0.008521885611116886,0.7025085687637329,0.0033110708463937044,-0.015984734520316124
232.0,253.0,1.9101,-1.4865,9.1651,-0.0405,0.0093,-0.1097,-1.7864982090392054,-0.010448931716382504,2.8732235431671143,-1.633725643157959,0.00457997340708971,2.0996720790863037,4.6900903421589355,0.0,0.28461867570877075,-1.6209400335894983,-0.0,-0.02287740260362625,1.5621659755706787,0.0,-0.018839018419384956,0.7025288343429565,0.005209759343415499,-0.014935377985239029
232.0,253.0,1.9101,-1.4865,9.1651,-0.0405,0.0093,-0.1097,-1.7865501842894496,-0.011574110016226768,2.8453903198242188,-1.6336767673492432,0.005588931031525135,2.114481210708618,4.690094633693359,0.0,0.2878488004207611,-1.620899502431051,-0.0,-0.008588214404881,1.562117338180542,0.0,-0.021866651251912117,0.7025160789489746,0.006959181744605303,-0.02693716436624527
232.0,253.0,1.9101,-1.4865,9.1651,-0.0405,0.0093,-0.1097,-1.7866260013976039,-0.012631773017346859,2.8311729431152344,-1.63358473777771,0.0060879080556333065,2.1931686401367188,4.690069838161133,0.0,0.27689415216445923,-1.6209357420550745,-0.0,-0.01838451437652111,1.5621654987335205,0.0,-0.025415543466806412,0.7025119662284851,0.008771790191531181,-0.012189251370728016
232.0,253.0,1.9101,-1.4865,9.1651,-0.0405,0.0093,-0.1097,-1.7866903744139613,-0.014407788403332233,2.8609869480133057,-1.6336013078689575,0.006522518582642078,2.150035858154297,4.690130873317383,-0.00013916665920987725,0.2798323631286621,-1.6209357420550745,-0.0,-0.01890181005001068,1.5621216297149658,0.0,-0.016332954168319702,0.7026001214981079,0.009988534264266491,-0.052270736545324326
232.0,253.0,1.9101,-1.4865,9.1651,-0.0405,0.0093,-0.1097,-1.7867785892882289,-0.016885895282030106,2.851947069168091,-1.6335774660110474,0.007289354223757982,2.1224868297576904,4.690101786250732,-0.00012783138663507998,0.2729249596595764,-1.620899502431051,-0.0,-0.004349196329712868,1.562145709991455,0.0,-0.022219639271497726,0.7026803493499756,0.011873423121869564,0.018975045531988144
232.0,253.0,1.9101,-1.4865,9.1651,-0.0405,0.0093,-0.1097,-1.786943098107809,-0.018373576924204826,2.7484142780303955,-1.633525013923645,0.007672282867133617,2.1249189376831055,4.6901184755512695,-0.00011779250053223222,0.28446298837661743,-1.6209400335894983,-0.0,-0.013846859335899353,1.5621049404144287,0.0,-0.020562361925840378,0.7027563452720642,0.0145848598331213,0.014029111713171005
225.0,255.0,1.4973,-1.4345,9.0233,-0.0357,0.0211,-0.1165,-1.7870031795897425,-0.019424324855208397,2.8035688400268555,-1.6335004568099976,0.008390027098357677,2.121825695037842,4.69006268560376,-0.00011193237878615037,0.28862228989601135,-1.6209476629840296,-0.0,-0.004564024042338133,1.5621049404144287,0.0,-0.009453287348151207,0.7028486132621765,0.016116786748170853,-0.04865553230047226
225.0,255.0,1.4973,-1.4345,9.0233,-0.0357,0.0211,-0.1165,-1.7871233425536097,-0.020447909832000732,2.749666690826416,-1.6334691047668457,0.009045860730111599,2.1228013038635254,4.6900903421589355,-0.0001235988747794181,0.29050034284591675,-1.6209076086627405,-0.0,-0.028086453676223755,1.5621334314346313,0.0,-0.02280670776963234,0.7029286026954651,0.017240174114704132,-0.022909831255674362
225.0,255.0,1.4973,-1.4345,9.0233,-0.0357,0.0211,-0.1165,-1.7872959576048792,-0.021641934290528297,2.756290912628174,-1.6334097385406494,0.00980894360691309,2.095472812652588,4.69011036931958,-0.00011687478399835527,0.28073999285697937,-1.6208952108966272,-0.0,-0.011229021474719048,1.5621216297149658,0.0,-0.0077445185743272305,0.7030564546585083,0.0185380931943655,-0.008266855962574482
225.0,255.0,1.4973,-1.4345,9.0233,-0.0357,0.0211,-0.1165,-1.787335058251852,-0.023244772106409073,2.75028657913208,-1.6333286762237549,0.010794594883918762,2.206055164337158,4.690122767085693,-0.00011202567839063704,0.2791396379470825,-1.620903793965475,-0.0,-0.011034815572202206,1.5621699094772339,0.0,-0.026221822947263718,0.7030881643295288,0.020256897434592247,0.016817884519696236
225.0,255.0,1.4973,-1.4345,9.0233,-0.0357,0.0211,-0.1165,-1.7875076733031214,-0.025824645534157753,2.7593255043029785,-1.6332201957702637,0.011530204676091671,2.1379494667053223,4.690102739925049,-0.0001054618987836875,0.26059430837631226,-1.6209119001971644,-0.0,-0.020706752315163612,1.5621256828308105,0.0,-0.014976456761360168,0.7032483220100403,0.023258190602064133,0.05621873587369919
225.0,255.0,1.4973,-1.4345,9.0233,-0.0357,0.0211,-0.1165,-1.7876759968199671,-0.029037732630968094,2.7308990955352783,-1.6331491470336914,0.013165568001568317,2.128413438796997,4.690122767085693,-0.00011594410898396745,0.27057456970214844,-1.6209200064288538,-0.0,-0.013477365486323833,1.5621256828308105,0.0,-0.02786765806376934,0.7033922076225281,0.025350766256451607,0.01179547980427742
225.0,255.0,1.4973,-1.4345,9.0233,-0.0357,0.0211,-0.1165,-1.7878686390318812,-0.031856514513492584,2.759385347366333,-1.6331331729888916,0.014107407070696354,2.1198856830596924,4.6901184755512695,-0.00011013333278242499,0.2710482180118561,-1.6209481398211878,-0.0,-0.01927820034325123,1.562142014503479,0.0,-0.015168379992246628,0.7035683989524841,0.02867957390844822,0.01528909057378769
225.0,255.0,1.4973,-1.4345,9.0233,-0.0357,0.0211,-0.1165,-1.7879845104613246,-0.03612562641501427,2.7102999687194824,-1.6330854892730713,0.015211658552289009,2.1217496395111084,4.690114184016846,-0.00010641281551215798,0.27824175357818604,-1.6209519545184534,-0.0,-0.018855053931474686,1.5621777772903442,0.0,-0.010858436115086079,0.703652024269104,0.03147726133465767,0.003654761239886284
225.0,255.0,1.4973,-1.4345,9.0233,-0.0357,0.0211,-0.1165,-1.7882172069945277,-0.03974774479866028,2.757962703704834,-1.6329525709152222,0.018148548901081085,2.118569850921631,4.69011036931958,-0.00010128068242920563,0.2734847068786621,-1.620943848286764,-0.0,0.001368347555398941,1.562133550643921,0.0,-0.0056429896503686905,0.7038440704345703,0.03579971566796303,-0.015088861808180809
225.0,255.0,1.4973,-1.4345,9.0233,-0.0357,0.0211,-0.1165,-1.7884499035277308,-0.04665284603834152,2.7146716117858887,-1.6327929496765137,0.021180476993322372,2.1200273036956787,4.690101786250732,-9.66207153396681e-05,0.27157747745513916,-1.620943848286764,-0.0,-0.009201280772686005,1.5621174573898315,0.0,-0.016429515555500984,0.7041041851043701,0.04034331813454628,0.023413516581058502
225.0,255.0,1.4973,-1.4345,9.0233,-0.0357,0.0211,-0.1165,-1.788746019402975,-0.053701531141996384,2.6889054775238037,-1.6327176094055176,0.024469153955578804,2.1805200576782227,4.690058394069336,-9.23707484616898e-05,0.29155778884887695,-1.6209161917315882,-0.0,-0.007552025839686394,1.562117338180542,0.0,-0.019918126985430717,0.7043726444244385,0.043667249381542206,0.02900165319442749
225.0,255.0,1.4973,-1.4345,9.0233,-0.0357,0.0211,-0.1165,-1.7889262638487757,-0.05968602001667023,2.6850709915161133,-1.6325819492340088,0.02798021025955677,2.125480890274048,4.690094633693359,-8.973921649158001e-05,0.26511168479919434,-1.620903793965475,-0.0,0.003216410521417856,1.5621938705444336,0.0,-0.008801763877272606,0.7045725584030151,0.04569461941719055,0.040038079023361206
225.0,255.0,1.4973,-1.4345,9.0233,-0.0357,0.0211,-0.1165,-1.7893592319884242,-0.06811077147722244,2.636021137237549,-1.6323572397232056,0.03520289063453674,2.1258950233459473,4.690058394069336,-8.606154733570293e-05,0.27035051584243774,-1.6209319273578089,-0.0,0.0009701696108095348,1.5621297359466553,0.0,-0.010870590806007385,0.7048606872558594,0.04651942104101181,0.012647677212953568
225.0,255.0,1.4973,-1.4345,9.0233,-0.0357,0.0211,-0.1165,-1.7897516689696253,-0.07543622702360153,2.672924041748047,-1.6321293115615845,0.04413873702287674,2.1603729724884033,4.690066023463867,-8.267349767265841e-05,0.2724750339984894,-1.6209238211261194,-0.0,-0.004911570809781551,1.5620694160461426,0.0,-0.014264389872550964,0.7051325440406799,0.04608021304011345,-0.061199113726615906
225.0,255.0,1.4973,-1.4345,9.0233,-0.0357,0.0211,-0.1165,-1.7900763950743617,-0.07911087572574615,2.6805009841918945,-1.6319366693496704,0.05155952274799347,2.1420257091522217,4.6901184755512695,-8.055918442551047e-05,0.2746843695640564,-1.620903793965475,-0.0,-0.009170711040496826,1.5621576309204102,0.0,-0.02508891373872757,0.7053322792053223,0.04489823058247566,0.0021582930348813534
225.0,255.0,1.4973,-1.4345,9.0233,-0.0357,0.0211,-0.1165,-1.7906209431090296,-0.08628156036138535,2.654967784881592,-1.6316254138946533,0.062196578830480576,2.2077114582061768,4.690058394069336,-7.758300489513204e-05,0.2838144898414612,-1.6209800879107874,-0.0,-0.007766133639961481,1.5621579885482788,0.0,-0.01865755021572113,0.7055559754371643,0.04405808076262474,0.02805228903889656
227.0,239.0,0.7561,-1.5799,9.1101,-0.0218,0.0221,-0.0715,-1.7911659679808558,-0.0946907252073288,2.6311237812042236,-1.6311837434768677,0.0736486166715622,2.1826319694519043,4.690101786250732,-7.481888314941898e-05,0.27877628803253174,-1.6209161917315882,-0.0,-0.005980172194540501,1.5621212720870972,0.0,-0.0022890744730830193,0.7058721780776978,0.04106144234538078,-0.01714957505464554
227.0,239.0,0.7561,-1.5799,9.1101,-0.0218,0.0221,-0.0715,-1.79179110149526,-0.10142103582620621,2.6516380310058594,-1.6306928396224976,0.08191275596618652,2.2041313648223877,4.690130873317383,-7.224499131552875e-05,0.27050697803497314,-1.6209119001971644,-0.0,-0.011162417940795422,1.5621058940887451,0.0,-0.010688262060284615,0.7060717344284058,0.04038309305906296,-0.012184898369014263
227.0,239.0,0.7561,-1.5799,9.1101,-0.0218,0.0221,-0.0715,-1.7921234569945277,-0.1061398833990097,2.66825270652771,-1.6303396224975586,0.08331794291734695,2.2263669967651367,4.690106077785156,-7.062521763145924e-05,0.27393266558647156,-1.620927635823385,-0.0,-0.0017659524455666542,1.5621379613876343,0.0,-0.013989558443427086,0.706231951713562,0.03780052810907364,-0.00583838252350688
227.0,239.0,0.7561,-1.5799,9.1101,-0.0218,0.0221,-0.0715,-1.7928444347777308,-0.11314140260219574,2.6273796558380127,-1.629921555519104,0.08690610527992249,2.196413516998291,4.690138502711914,-5.873941972822649e-07,0.28004100918769836,-1.620943848286764,-0.0,-0.012818088755011559,1.5621659755706787,0.0,-0.0013637659139931202,0.7064878940582275,0.03764811530709267,-0.041338734328746796
227.0,239.0,0.7561,-1.5799,9.1101,-0.0218,0.0221,-0.0715,-1.793481012383932,-0.12240579724311829,2.607435941696167,-1.6292855739593506,0.08690352737903595,2.235598564147949,4.690094633693359,-1.6350333587045185e-10,0.2782311737537384,-1.6208913961993616,-0.0,0.00446614483371377,1.5620616674423218,0.0,-0.016521356999874115,0.7066674828529358,0.037367094308137894,-0.05723315477371216
227.0,239.0,0.7561,-1.5799,9.1101,-0.0218,0.0221,-0.0715,-1.7943068943419398,-0.12937131524085999,2.565659999847412,-1.6287561655044556,0.08731047064065933,2.206730604171753,4.690167112941406,-2.7816420697490685e-05,0.25567492842674255,-1.6208718458758753,-0.0,-0.01601569354534149,1.56210196018219,0.0,-0.01459021307528019,0.7068756222724915,0.03617660701274872,-0.03511783853173256
227.0,239.0,0.7561,-1.5799,9.1101,-0.0218,0.0221,-0.0715,-1.794755598107809,-0.13342155516147614,2.5507326126098633,-1.6284528970718384,0.09147075563669205,2.1903038024902344,4.6901466089436035,-2.5754719899850897e-05,0.2596462070941925,-1.620943848286764,-0.0,-0.014871083199977875,1.562153935432434,0.0,-0.016139250248670578,0.7070314884185791,0.03678180277347565,-0.03297658637166023
227.0,239.0,0.7561,-1.5799,9.1101,-0.0218,0.0221,-0.0715,-1.7955566845335902,-0.13722959160804749,2.5280423164367676,-1.627926230430603,0.0988018587231636,2.2332193851470947,4.690097971553467,-2.468957973178476e-05,0.26094746589660645,-1.6209238211261194,-0.0,-0.005041545256972313,1.562137484550476,0.0,-0.012736942619085312,0.7072598934173584,0.03470144048333168,-0.010676022619009018
227.0,239.0,0.7561,-1.5799,9.1101,-0.0218,0.0221,-0.0715,-1.7964221439757289,-0.13838380575180054,2.606865882873535,-1.6272581815719604,0.10639116168022156,2.2258849143981934,4.690114184016846,-1.2254786270204931e-05,0.26176127791404724,-1.6209357420550745,-0.0,-0.005648557562381029,1.5621378421783447,0.0,-0.023006727918982506,0.7074556350708008,0.03499659150838852,-0.04251498356461525
227.0,239.0,0.7561,-1.5799,9.1101,-0.0218,0.0221,-0.0715,-1.7972189388670863,-0.14114564657211304,2.634521484375,-1.6265652179718018,0.11509866267442703,2.2698426246643066,4.6901466089436035,-1.1406204976083245e-05,0.27278366684913635,-1.6209514776812952,-0.0,-0.004698434844613075,1.562145709991455,0.0,-0.017714936286211014,0.7076798677444458,0.03255390748381615,-0.05852741748094559
227.0,239.0,0.7561,-1.5799,9.1101,-0.0218,0.0221,-0.0715,-1.7978483639159144,-0.1450366973876953,2.646207332611084,-1.626105785369873,0.12175843119621277,2.275758743286133,4.690154715175293,-1.1124131560791284e-05,0.27559515833854675,-1.6209238211261194,-0.0,-0.026339052245020866,1.5621130466461182,0.0,-0.02956092171370983,0.7077832818031311,0.03285017982125282,-0.031739264726638794
227.0,239.0,0.7561,-1.5799,9.1101,-0.0218,0.0221,-0.0715,-1.7987820110716761,-0.1554945409297943,2.6203830242156982,-1.6253138780593872,0.1277754306793213,2.2878599166870117,4.690114184016846,-1.0726399523264263e-05,0.2822648286819458,-1.6209195295916956,-0.0,-0.01892666146159172,1.5620895624160767,0.0,-0.01918567158281803,0.7080197334289551,0.03244885802268982,-0.05802393704652786
227.0,239.0,0.7561,-1.5799,9.1101,-0.0218,0.0221,-0.0715,-1.7997433147826136,-0.16616304218769073,2.587360143661499,-1.6244697570800781,0.1304474025964737,2.2496962547302246,4.6901184755512695,-1.0356215170759242e-05,0.28565678000450134,-1.620899502431051,-0.0,-0.015143387019634247,1.5621049404144287,0.0,-0.016302743926644325,0.7081954479217529,0.032556887716054916,-0.05965639278292656
227.0,239.0,0.7561,-1.5799,9.1101,-0.0218,0.0221,-0.0715,-1.8003722629942835,-0.1730373352766037,2.6343703269958496,-1.6239250898361206,0.1301419734954834,2.280663013458252,4.690101786250732,-1.0123178981302772e-05,0.2660371661186218,-1.6209357420550745,-0.0,-0.01839521899819374,1.5621099472045898,0.0,-0.035507265478372574,0.7083032131195068,0.032372232526540756,-0.019161410629749298
227.0,239.0,0.7561,-1.5799,9.1101,-0.0218,0.0221,-0.0715,-1.8013974628844203,-0.17522408068180084,2.590977668762207,-1.623134970664978,0.13514217734336853,2.2840311527252197,4.6901466089436035,-2.1633193014736207e-08,0.28128713369369507,-1.620903793965475,-0.0,-0.012144749984145164,1.5621379613876343,0.0,-0.015246028080582619,0.7084832191467285,0.03213364630937576,-0.04079737886786461
227.0,239.0,0.7561,-1.5799,9.1101,-0.0218,0.0221,-0.0715,-1.8023749790587367,-0.17191632091999054,2.6196365356445312,-1.6222933530807495,0.14246447384357452,2.304835557937622,4.690161867732666,-6.021678815304465e-12,0.27653101086616516,-1.6209195295916956,-0.0,-0.01204288937151432,1.5621699094772339,0.0,-0.024795783683657646,0.708626925945282,0.03193654865026474,-0.04156539589166641
227.0,239.0,0.7561,-1.5799,9.1101,-0.0218,0.0221,-0.0715,-1.8034044704832972,-0.1746833771467209,2.6401336193084717,-1.6214014291763306,0.1512640118598938,2.288325786590576,4.690159006709717,-1.6761564416300926e-15,0.2941596806049347,-1.6209400335894983,-0.0,-0.024191569536924362,1.5621174573898315,0.0,-0.008850190788507462,0.7088632583618164,0.03328448906540871,-0.03852422162890434
216.0,237.0,1.8185,-1.4578,9.8608,-0.0968,-0.011,-0.1003,-1.8041373691954554,-0.17921601235866547,2.616128444671631,-1.6207935810089111,0.15591175854206085,2.328854560852051,4.690170450801514,-7.145718008366925e-18,0.2732062041759491,-1.6209519545184534,-0.0,-0.018622808158397675,1.5621659755706787,0.0,-0.005723088048398495,0.7089871764183044,0.03419388830661774,-0.01995633915066719
216.0,237.0,1.8185,-1.4578,9.8608,-0.0968,-0.011,-0.1003,-1.80521883587026,-0.18220441043376923,2.660043716430664,-1.6197549104690552,0.16540469229221344,2.3296942710876465,4.690174265498779,-1.9890367641888414e-21,0.28144389390945435,-1.62091571489443,-0.0,-0.025109492242336273,1.5621130466461182,0.0,-0.0211714506149292,0.7092152833938599,0.036836229264736176,-0.01877312920987606
216.0,237.0,1.8185,-1.4578,9.8608,-0.0968,-0.011,-0.1003,-1.8063651523985804,-0.18679270148277283,2.647183656692505,-1.6187028884887695,0.17149043083190918,2.3214364051818848,4.690154715175293,-5.536556168345122e-25,0.2759162187576294,-1.6208871046649378,-0.0,-0.025902772322297096,1.5621293783187866,0.0,-0.014940192922949791,0.709423303604126,0.03948105499148369,-0.02336857095360756
216.0,237.0,1.8185,-1.4578,9.8608,-0.0968,-0.011,-0.1003,-1.8075305424132289,-0.1895572394132614,2.6541497707366943,-1.617735743522644,0.17681065201759338,2.328852891921997,4.6901466089436035,-1.541120595184538e-28,0.2925364077091217,-1.6209195295916956,-0.0,-0.0223845187574625,1.5621256828308105,0.0,-0.01601535826921463,0.7096589803695679,0.04318839684128761,-0.012130821123719215
216.0,237.0,1.8185,-1.4578,9.8608,-0.0968,-0.011,-0.1003,-1.8083158932127894,-0.19722521305084229,2.647928237915039,-1.6169390678405762,0.18137873709201813,2.3372106552124023,4.690138025874756,-6.570038701180885e-31,0.2849912941455841,-1.6209238211261194,-0.0,-0.021617067977786064,1.5621416568756104,0.0,-0.02684231847524643,0.7098513245582581,0.042248282581567764,-0.05657852068543434
216.0,237.0,1.8185,-1.4578,9.8608,-0.0968,-0.011,-0.1003,-1.8095461330809535,-0.21059779822826385,2.660693645477295,-1.6158206462860107,0.1863783299922943,2.3254518508911133,4.690159006709717,-1.8287945069515968e-34,0.28778111934661865,-1.6208913961993616,-0.0,-0.015345647931098938,1.5620936155319214,0.0,-0.015719445422291756,0.7100546956062317,0.044068582355976105,-0.03928791359066963
216.0,237.0,1.8185,-1.4578,9.8608,-0.0968,-0.011,-0.1003,-1.8107992611327113,-0.21950480341911316,2.6785550117492676,-1.6147665977478027,0.19437912106513977,2.315537452697754,4.690174265498779,0.00012523302575573325,0.2875528335571289,-1.6209357420550745,-0.0,-0.0315917506814003,1.5621256828308105,0.0,-0.008084826171398163,0.7103108167648315,0.042858198285102844,-0.034197960048913956
216.0,237.0,1.8185,-1.4578,9.8608,-0.0968,-0.011,-0.1003,-1.8117004833617152,-0.21711115539073944,2.654972553253174,-1.6139624118804932,0.20158910751342773,2.3911375999450684,4.690222426051758,0.0002458469243720174,0.292339026927948,-1.6209476629840296,-9.330067314294865e-07,-0.04474493861198425,1.562150001525879,0.0,-0.015307096764445305,0.7104747295379639,0.041922833770513535,-0.07788670808076859
216.0,237.0,1.8185,-1.4578,9.8608,-0.0968,-0.011,-0.1003,-1.8130189381041468,-0.20408906042575836,2.7439210414886475,-1.6127779483795166,0.20913390815258026,2.4023752212524414,4.690234346980713,0.0013175772037357092,0.2992134392261505,-1.6209638754474085,-0.0011346549727022648,-0.04113849624991417,1.5621416568756104,0.0,-0.011102642863988876,0.710702657699585,0.04084760323166847,-0.033968135714530945
216.0,237.0,1.8185,-1.4578,9.8608,-0.0968,-0.011,-0.1003,-1.8143326244749964,-0.2066454440355301,2.7000651359558105,-1.611456036567688,0.22258800268173218,2.391331195831299,4.690194292659424,0.0007829315145500004,0.29019832611083984,-1.620967213307516,-0.004566211253404617,-0.050703227519989014,1.562134027481079,0.0,-0.006072071380913258,0.7110190391540527,0.04145054146647453,-0.0030250567942857742
216.0,237.0,1.8185,-1.4578,9.8608,-0.0968,-0.011,-0.1003,-1.8156749210753382,-0.22431693971157074,2.6761856079101562,-1.6101661920547485,0.2252795547246933,2.3806347846984863,4.690138025874756,0.00021960567391943187,0.28189945220947266,-1.6210358778582972,-0.010871870443224907,-0.04881049692630768,1.5621339082717896,0.0,-0.012009851634502411,0.7112948894500732,0.043940238654613495,-0.02033107727766037
216.0,237.0,1.8185,-1.4578,9.8608,-0.0968,-0.011,-0.1003,-1.8166161976256312,-0.23594637215137482,2.666280746459961,-1.6092544794082642,0.22944720089435577,2.3839430809020996,4.690159006709717,8.84113906067796e-05,0.3036060333251953,-1.6210592428790491,-0.015210081823170185,-0.04381505399942398,1.5621297359466553,0.0,-0.003898044116795063,0.71145099401474,0.04322901740670204,-0.011399844661355019
216.0,237.0,1.8185,-1.4578,9.8608,-0.0968,-0.011,-0.1003,-1.8180738888182582,-0.23747551441192627,2.6956639289855957,-1.6078660488128662,0.23201560974121094,2.421877384185791,4.690198107356689,0.00013349934306461364,0.3015778958797455,-1.6211431662188929,-0.011071274988353252,-0.04615291580557823,1.5621416568756104,0.0,-0.0034361714497208595,0.7117147445678711,0.042288847267627716,-0.029571296647191048
216.0,237.0,1.8185,-1.4578,9.8608,-0.0968,-0.011,-0.1003,-1.8195044002928675,-0.23255307972431183,2.717256546020508,-1.606527328491211,0.24331790208816528,2.370375394821167,4.690194292659424,0.00011084174911957234,0.2952064275741577,-1.6211069265948694,-0.0035573551431298256,-0.0556013323366642,1.5621576309204102,0.0,-0.01637912355363369,0.7118943929672241,0.038622066378593445,-0.016567926853895187
216.0,237.0,1.8185,-1.4578,9.8608,-0.0968,-0.011,-0.1003,-1.820878644982809,-0.2357388138771057,2.7173073291778564,-1.605053424835205,0.2551025152206421,2.450002670288086,4.690122290248535,2.4387716621276923e-05,0.293707937002182,-1.621138874684469,-0.0005235826829448342,-0.05307973921298981,1.562133550643921,0.0,-0.009285763837397099,0.7121344208717346,0.03416518494486809,-0.008979680016636848
216.0,237.0,1.8185,-1.4578,9.8608,-0.0968,-0.011,-0.1003,-1.8218361339964808,-0.24150444567203522,2.7061891555786133,-1.6040256023406982,0.2558307349681854,2.4515929222106934,4.690106077785156,1.0396865945949685e-07,0.30695563554763794,-1.6211307684527796,0.00024123895855154842,-0.05738268420100212,1.5621212720870972,0.0,-0.0082267289981246,0.7122704982757568,0.03188299015164375,-0.0605153888463974
217.0,253.0,1.6834,-0.865,9.8327,0.0124,-0.0063,-0.0887,-1.823254247704977,-0.24129894375801086,2.7116243839263916,-1.6024435758590698,0.2575148344039917,2.4272778034210205,4.690170450801514,2.894006041753716e-11,0.2972821295261383,-1.6211431662188929,0.000142227640026249,-0.06595452129840851,1.5621130466461182,0.0,-0.025715775787830353,0.7124662399291992,0.02841617539525032,-0.013028287328779697
217.0,253.0,1.6834,-0.865,9.8327,0.0124,-0.0063,-0.0887,-1.8246919117369593,-0.24010565876960754,2.64677095413208,-1.6008508205413818,0.2699935734272003,2.502291440963745,4.690170450801514,8.055573013656357e-15,0.2765570878982544,-1.621138874684469,1.3541522093873937e-05,-0.0534588098526001,1.5621256828308105,0.0,-0.0063316961750388145,0.7126181721687317,0.025060033425688744,-0.046962447464466095
217.0,253.0,1.6834,-0.865,9.8327,0.0124,-0.0063,-0.0887,-1.8256737194456996,-0.24199925363063812,2.733646869659424,-1.5998233556747437,0.2792378067970276,2.456350803375244,4.690138025874756,3.434216998792736e-17,0.29183292388916016,-1.6211069265948694,5.772963973527112e-08,-0.05934680253267288,1.5620976686477661,0.0,-0.004754372872412205,0.7127587795257568,0.023016082122921944,-0.016003292053937912
217.0,253.0,1.6834,-0.865,9.8327,0.0124,-0.0063,-0.0887,-1.8270794353880824,-0.24381332099437714,2.7104978561401367,-1.5981553792953491,0.2812683880329132,2.4627225399017334,4.690150423640869,-0.00013806379865854979,0.2882559895515442,-1.6211264769183558,1.6069257036122053e-11,-0.05341773480176926,1.562150001525879,0.0,-0.01746734045445919,0.7128580212593079,0.021100686863064766,-0.051652368158102036
217.0,253.0,1.6834,-0.865,9.8327,0.0124,-0.0063,-0.0887,-1.8284932575621546,-0.2414322793483734,2.6917333602905273,-1.5964220762252808,0.2811533808708191,2.4570484161376953,4.690182848567627,-0.0001263460289919749,0.28451061248779297,-1.6211350599872034,4.4729374724776245e-15,-0.0569273866713047,1.562145709991455,0.0,-0.019206160679459572,0.7129945755004883,0.02040831930935383,-0.08044902980327606
217.0,253.0,1.6834,-0.865,9.8327,0.0124,-0.0063,-0.0887,-1.8299676380553187,-0.24197538197040558,2.695059299468994,-1.59468412399292,0.28963586688041687,2.465721607208252,4.690154715175293,-0.00010436282900627702,0.2867988049983978,-1.6211431662188929,1.2450585061371336e-18,-0.057031236588954926,1.5621579885482788,0.0,-0.023238956928253174,0.7130902409553528,0.01833454705774784,-0.04354063421487808
217.0,253.0,1.6834,-0.865,9.8327,0.0124,-0.0063,-0.0887,-1.8308888874449671,-0.24023663997650146,2.750594139099121,-1.5934981107711792,0.29520031809806824,2.4762423038482666,4.690154715175293,-9.351495100418106e-05,0.2863622009754181,-1.6211674849139612,5.307879858052831e-21,-0.04680841416120529,1.5621416568756104,0.0,-0.027065511792898178,0.7131298780441284,0.016260065138339996,-0.0540977343916893
217.0,253.0,1.6834,-0.865,9.8327,0.0124,-0.0063,-0.0887,-1.8322750530638636,-0.2402224838733673,2.6799254417419434,-1.591706395149231,0.29599717259407043,2.4334559440612793,4.6901866632648925,-8.090192568488419e-05,0.2939072251319885,-1.6211631933795374,1.477467943187814e-24,-0.06392224133014679,1.5621215105056763,0.0,-0.019189734011888504,0.7132580280303955,0.012869685888290405,-0.10263049602508545
217.0,253.0,1.6834,-0.865,9.8327,0.0124,-0.0063,-0.0887,-1.8337093792357386,-0.23667991161346436,2.786973476409912,-1.5898851156234741,0.29819145798683167,2.5274734497070312,4.690102263087891,-7.128762808861211e-05,0.2845541536808014,-1.6211469809161585,4.112586025373296e-28,-0.04387377202510834,1.562150001525879,0.0,-0.02617526426911354,0.7132735848426819,0.011448139324784279,-0.09663884341716766
217.0,253.0,1.6834,-0.865,9.8327,0.0124,-0.0063,-0.0887,-1.8350869617857875,-0.23913495242595673,2.735793352127075,-1.5880640745162964,0.30386513471603394,2.488393783569336,4.690138025874756,-3.401444701012224e-05,0.29272693395614624,-1.6211350599872034,1.1447534103067585e-31,-0.050162650644779205,1.5621215105056763,0.0,-0.014945130795240402,0.713345468044281,0.010953272692859173,-0.051483698189258575
217.0,253.0,1.6834,-0.865,9.8327,0.0124,-0.0063,-0.0887,-1.8359881840147914,-0.23902001976966858,2.7365353107452393,-1.5868496894836426,0.30431509017944336,2.5079665184020996,4.690138025874756,-5.750314812758006e-05,0.28585636615753174,-1.6211469809161585,4.880263162110428e-34,-0.05504436045885086,1.5621256828308105,0.0,-0.008859507739543915,0.7133979201316833,0.010027465410530567,-0.07926008105278015
217.0,253.0,1.6834,-0.865,9.8327,0.0124,-0.0063,-0.0887,-1.837393423120016,-0.2330007702112198,2.7821571826934814,-1.5849976539611816,0.3073461949825287,2.489633083343506,4.6901466089436035,-2.7098290956928395e-05,0.2995483875274658,-1.6211512724505823,1.358439022118241e-37,-0.05206913873553276,1.562117338180542,0.0,-0.020370038226246834,0.7134579420089722,0.009335567243397236,-0.12074998021125793
217.0,253.0,1.6834,-0.865,9.8327,0.0124,-0.0063,-0.0887,-1.8387319050230921,-0.2234651893377304,2.761404037475586,-1.5831363201141357,0.3113207221031189,2.5126430988311768,4.690129919643066,-2.482681520632468e-05,0.295348584651947,-1.6211751143084925,3.7812637761340864e-41,-0.06143946200609207,1.5620853900909424,0.0,-0.03585682809352875,0.7135501503944397,0.009520758874714375,-0.055173248052597046
217.0,253.0,1.6834,-0.865,9.8327,0.0124,-0.0063,-0.0887,-1.8396836719908656,-0.2240104079246521,2.767817735671997,-1.5819042921066284,0.3126446604728699,2.4925312995910645,4.690206213588379,-2.3528638848802075e-05,0.28233301639556885,-1.6212189833270472,1.6114932339735396e-43,-0.04216978698968887,1.5621130466461182,0.0,-0.022236252203583717,0.7135216593742371,0.010123339481651783,-0.08895723521709442
217.0,253.0,1.6834,-0.865,9.8327,0.0124,-0.0063,-0.0887,-1.8410946331419886,-0.23047995567321777,2.7995264530181885,-1.5799857378005981,0.31838512420654297,2.505197525024414,4.6901466089436035,-2.1817406377522275e-05,0.2760738730430603,-1.6211307684527796,0.0,-0.0495808869600296,1.5621618032455444,0.0,-0.01570148393511772,0.7135854363441467,0.010378324426710606,-0.01515902578830719
217.0,253.0,1.6834,-0.865,9.8327,0.0124,-0.0063,-0.0887,-1.8424936733641566,-0.2339240312576294,2.809562921524048,-1.5781700611114502,0.3235999345779419,2.533433437347412,4.690170450801514,-2.033827331615612e-05,0.2907201051712036,-1.6211712996112269,0.0,-0.05993279442191124,1.5621659755706787,0.0,-0.017597883939743042,0.713698148727417,0.009472375735640526,-0.058374643325805664
217.0,253.0,1.6834,-0.865,9.8327,0.0124,-0.0063,-0.0887,-1.8439699612059535,-0.22394807636737823,2.812350273132324,-1.57620108127594,0.32141098380088806,2.5086069107055664,4.690130396480225,-1.904693453980144e-05,0.308384507894516,-1.6211751143084925,0.0,-0.05294835940003395,1.562100887298584,0.0,-0.016261247918009758,0.7136975526809692,0.008892783895134926,-0.050282347947359085
203.0,239.0,1.9639,-1.742,9.1549,0.0533,0.0854,-0.1167,-1.844844480554098,-0.22124624252319336,2.844298839569092,-1.5749433040618896,0.3256221413612366,2.53141713142395,4.690138025874756,-1.8273480236530304e-05,0.2948126792907715,-1.6211589018451136,0.0,-0.04595614969730377,1.5621376037597656,0.0,-0.01774439588189125,0.7137454748153687,0.008682241663336754,-0.05536297708749771
203.0,239.0,1.9639,-1.742,9.1549,0.0533,0.0854,-0.1167,-1.8461758098998011,-0.22799506783485413,2.838839054107666,-1.5729777812957764,0.3283444046974182,2.527066230773926,4.690167112941406,-3.219096834072843e-05,0.3015773892402649,-1.621211353932516,0.0,-0.05645817890763283,1.562145709991455,0.0,-0.01494586281478405,0.7138339281082153,0.010415567085146904,-0.013393432833254337
203.0,239.0,1.9639,-1.742,9.1549,0.0533,0.0854,-0.1167,-1.8476549587645472,-0.237021341919899,2.842632293701172,-1.5709697008132935,0.3227780759334564,2.4999938011169434,4.690154715175293,-3.257748539908789e-05,0.2972888648509979,-1.6211870352374476,0.0,-0.06834056973457336,1.5621577501296997,0.0,-0.02840113639831543,0.7138737440109253,0.013833168894052505,0.024273306131362915
203.0,239.0,1.9639,-1.742,9.1549,0.0533,0.0854,-0.1167,-1.8490740261473597,-0.22728489339351654,2.871608257293701,-1.569064974784851,0.3303845226764679,2.5095183849334717,4.690154715175293,-3.0900333513272926e-05,0.2938803434371948,-1.6212032477008265,0.0,-0.0607902929186821,1.5621376037597656,0.0,-0.010645292699337006,0.7140499949455261,0.01707451231777668,0.0090800691395998
203.0,239.0,1.9639,-1.742,9.1549,0.0533,0.0854,-0.1167,-1.849969049493307,-0.2196054905653,2.876038074493408,-1.567744493484497,0.3338155150413513,2.5485949516296387,4.6900855737873535,-2.9874589017708786e-05,0.3000355064868927,-1.6211712996112269,0.0,-0.05735594406723976,1.5621616840362549,0.0,-0.008753696456551552,0.7140578627586365,0.020372001454234123,0.06233326718211174
203.0,239.0,1.9639,-1.742,9.1549,0.0533,0.0854,-0.1167,-1.8512479267516078,-0.21322476863861084,2.9299631118774414,-1.5658077001571655,0.3240925669670105,2.4927711486816406,4.690122767085693,-5.499273902387358e-05,0.2929040789604187,-1.6212309042560022,0.0,-0.05519074201583862,1.5621134042739868,0.0,-0.006824671756476164,0.7141938209533691,0.025168711319565773,0.04745616391301155
203.0,239.0,1.9639,-1.742,9.1549,0.0533,0.0854,-0.1167,-1.852534910241598,-0.2181214839220047,2.9249656200408936,-1.5638383626937866,0.317106693983078,2.5145158767700195,4.690069838161133,-0.00010381589527241886,0.29021120071411133,-1.6211989561664026,-0.0006185257225297391,-0.060539521276950836,1.5621856451034546,0.0,-0.012209990993142128,0.7143535614013672,0.031558066606521606,0.09171584248542786
203.0,239.0,1.9639,-1.742,9.1549,0.0533,0.0854,-0.1167,-1.8534189663329066,-0.2213948518037796,2.873931407928467,-1.5626212358474731,0.3138129413127899,2.5268216133117676,4.690077944392822,-0.0001198431637021713,0.29447686672210693,-1.6212027708636683,-0.0005645650089718401,-0.06840716302394867,1.5621535778045654,0.0,0.004954630974680185,0.7144942879676819,0.03552971035242081,0.04481489211320877
203.0,239.0,1.9639,-1.742,9.1549,0.0533,0.0854,-0.1167,-1.8547421894469203,-0.21528202295303345,2.9173786640167236,-1.5606932640075684,0.300613671541214,2.44449520111084,4.690070791835449,-0.0007149337325245142,0.29287347197532654,-1.6211426893817347,-0.0004449136322364211,-0.06667913496494293,1.562182068824768,0.0,-0.0003807405009865761,0.7146774530410767,0.041385311633348465,0.05202030390501022
203.0,239.0,1.9639,-1.742,9.1549,0.0533,0.0854,-0.1167,-1.8559934101500453,-0.2068903148174286,2.9258546829223633,-1.5588480234146118,0.29621458053588867,2.5179922580718994,4.6901184755512695,-0.0005142067675478756,0.2844773530960083,-1.6212151686297815,-0.00035668755299411714,-0.06282036006450653,1.5621938705444336,0.0,-0.0035811569541692734,0.7149739861488342,0.04604433476924896,0.05594442039728165
203.0,239.0,1.9639,-1.742,9.1549,0.0533,0.0854,-0.1167,-1.857208868066305,-0.20298652350902557,2.8959412574768066,-1.5571008920669556,0.29501551389694214,2.491339683532715,4.690102739925049,-0.0003998626198153943,0.29527050256729126,-1.6211989561664026,-0.00034722109558060765,-0.07141546905040741,1.5621412992477417,0.0,-0.010470982640981674,0.7152939438819885,0.05177120119333267,0.09813527762889862
203.0,239.0,1.9639,-1.742,9.1549,0.0533,0.0854,-0.1167,-1.8579393825926722,-0.19916729629039764,2.9524192810058594,-1.5559008121490479,0.2892341911792755,2.5017056465148926,4.690102739925049,-0.00039839817327447236,0.2910153865814209,-1.621207062398092,-0.00032299780286848545,-0.0671917200088501,1.562133550643921,0.0,-0.010495004244148731,0.7155097723007202,0.055842239409685135,0.10711970925331116
203.0,239.0,1.9639,-1.742,9.1549,0.0533,0.0854,-0.1167,-1.8591672382750453,-0.18990932404994965,2.9684488773345947,-1.5541760921478271,0.27978602051734924,2.4197545051574707,4.690077944392822,-0.00034831330412998796,0.2873154878616333,-1.6212547461139124,-0.0004052889416925609,-0.05801311135292053,1.562125325202942,0.0,0.011244548484683037,0.7158737778663635,0.06456606090068817,0.11940187960863113
203.0,239.0,1.9639,-1.742,9.1549,0.0533,0.0854,-0.1167,-1.8602220020689906,-0.18509693443775177,2.988947868347168,-1.5525076389312744,0.2749066650867462,2.479611396789551,4.690075083369873,-0.00021303548419382423,0.28460419178009033,-1.6211946646319788,-0.000960993638727814,-0.07051202654838562,1.5621453523635864,0.0,-0.0034728776663541794,0.7162773013114929,0.07220802456140518,0.11361612379550934
203.0,239.0,1.9639,-1.742,9.1549,0.0533,0.0854,-0.1167,-1.8613654575743617,-0.1831991970539093,2.9310874938964844,-1.5509560108184814,0.26192981004714966,2.4260635375976562,4.690078898067139,-0.000245674658799544,0.28337347507476807,-1.6212261358844202,-0.0010752149391919374,-0.0737275704741478,1.5621293783187866,0.0,-0.012134132906794548,0.7167817950248718,0.07976580411195755,0.1052110493183136
203.0,239.0,1.9639,-1.742,9.1549,0.0533,0.0854,-0.1167,-1.8621016941466273,-0.1821126639842987,2.9613535404205322,-1.5499260425567627,0.25866711139678955,2.441126585006714,4.690054102534912,-0.00028015035786665976,0.28858548402786255,-1.6212385336505335,-0.0009665947291068733,-0.07405553013086319,1.5621134042739868,0.0,-0.00012069789227098227,0.717077374458313,0.08543796092271805,0.15949389338493347
191.0,234.0,1.1216,-2.4353,9.0694,0.0588,0.1026,-0.062,-1.8631450138487757,-0.18196932971477509,2.979848861694336,-1.5484497547149658,0.25149765610694885,2.4802823066711426,4.690058394069336,-0.00029130090842954814,0.2946210205554962,-1.6212309042560022,-0.0006775444489903748,-0.07502198219299316,1.5621376037597656,0.0,-0.009113495238125324,0.7176331877708435,0.08886434882879257,0.17618811130523682
191.0,234.0,1.1216,-2.4353,9.0694,0.0588,0.1026,-0.062,-1.8641277752318324,-0.17427460849285126,2.972339630126953,-1.546898603439331,0.24148564040660858,2.4594950675964355,4.69005457937207,-0.0016380742890760303,0.283192902803421,-1.6212266127215784,-0.0005530769121833146,-0.07792264223098755,1.5621654987335205,0.0,-0.006804466247558594,0.718076765537262,0.08663806319236755,0.16059644520282745
191.0,234.0,1.1216,-2.4353,9.0694,0.0588,0.1026,-0.062,-1.8651911220946253,-0.17034897208213806,2.949800968170166,-1.5455421209335327,0.229629784822464,2.426638126373291,4.690050764674805,-0.0010812338441610336,0.2750715911388397,-1.6212833563434046,-0.0004269233322702348,-0.08888702094554901,1.562133550643921,0.0,-0.0028808461502194405,0.7187255024909973,0.08342295140028,0.19161200523376465
191.0,234.0,1.1216,-2.4353,9.0694,0.0588,0.1026,-0.062,-1.86582674602651,-0.1725366860628128,2.941333770751953,-1.544615626335144,0.22774513065814972,2.3538293838500977,4.689994497890137,-0.0008042994886636734,0.27812057733535767,-1.6212347189532679,-0.00036859800457023084,-0.09264656156301498,1.5621614456176758,0.0,-0.01045714970678091,0.7190293073654175,0.08257611840963364,0.17203590273857117
191.0,234.0,1.1216,-2.4353,9.0694,0.0588,0.1026,-0.062,-1.866861959496969,-0.1728266179561615,2.967519521713257,-1.5432721376419067,0.2258787453174591,2.4201931953430176,4.690058870906494,-0.0005812715389765799,0.2789243161678314,-1.6212547461139124,-0.00035642809234559536,-0.0682445615530014,1.5621893405914307,0.0,0.00583097618073225,0.7195370197296143,0.08607282489538193,0.16911861300468445
