ramyac6/ROB537/final_project/csv/bad/bad_146.csv
tof_0,tof_1,accelx,accely,accelz,gyrox,gyroy,gyroz,shoulder_lift_joint_position,shoulder_lift_joint_velocity,shoulder_lift_joint_effort,elbow_joint_position,elbow_joint_velocity,elbow_joint_effort,wrist_1_joint_position,wrist_1_joint_velocity,wrist_1_joint_effort,wrist_2_joint_position,wrist_2_joint_velocity,wrist_2_joint_effort,wrist_3_joint_position,wrist_3_joint_velocity,wrist_3_joint_effort,shoulder_pan_joint_position,shoulder_pan_joint_velocity,shoulder_pan_joint_effort
384.0,351.0,0.7693,0.2495,9.4056,-0.0402,0.0275,-0.1161,-1.5963851414122523,0.0,2.1860482692718506,-1.8661390542984009,-0.0,2.080146312713623,4.865954342275419,-0.0,0.29460224509239197,-1.597325627003805,0.0,-0.019738495349884033,0.7840532660484314,0.0,-0.0009582064813002944,0.778122067451477,0.0,-0.004350088071078062
384.0,351.0,0.7693,0.2495,9.4056,-0.0402,0.0275,-0.1161,-1.5963484249510707,0.0,2.179476499557495,-1.8661227226257324,-0.0,2.1412997245788574,4.865877988725462,-0.0,0.2902642786502838,-1.5973337332354944,0.0,-0.014521394856274128,0.7840733528137207,0.0,-0.009946439415216446,0.7781462669372559,0.0,-0.021950991824269295
384.0,351.0,0.7693,0.2495,9.4056,-0.0402,0.0275,-0.1161,-1.5963484249510707,0.0,2.207735300064087,-1.8661227226257324,-0.0,2.095468044281006,4.865934359818258,-0.0,0.28994888067245483,-1.5973179976092737,0.0,-0.008349575102329254,0.7840614914894104,0.0,-0.0040816254913806915,0.7781383991241455,0.0,-0.03097989782691002
384.0,351.0,0.7693,0.2495,9.4056,-0.0402,0.0275,-0.1161,-1.5963851414122523,0.0,2.2168850898742676,-1.8661348819732666,-0.0,2.0965003967285156,4.865934359818258,-0.0,0.2881459593772888,-1.5972617308246058,0.0,-0.006115554366260767,0.7841096520423889,0.0,0.004958953708410263,0.7781141400337219,0.0,-0.0005496037192642689
384.0,351.0,0.7693,0.2495,9.4056,-0.0402,0.0275,-0.1161,-1.5964013538756312,0.0,2.182555675506592,-1.8660826683044434,-0.0,2.056337356567383,4.865950318961897,-0.0,0.2830987870693207,-1.59731370607485,0.0,-0.005502311047166586,0.7840652465820312,0.0,0.0027794456109404564,0.7781664729118347,0.0,-0.056656595319509506
384.0,351.0,0.7693,0.2495,9.4056,-0.0402,0.0275,-0.1161,-1.596344610253805,0.0,2.2229573726654053,-1.8661227226257324,-0.0,2.0901131629943848,4.865922438889303,-0.0,0.283867746591568,-1.5972698370562952,0.0,-0.005447402596473694,0.7840774059295654,0.0,0.003575156442821026,0.7781503200531006,0.0,-0.004415541421622038
384.0,351.0,0.7693,0.2495,9.4056,-0.0402,0.0275,-0.1161,-1.5963808498778285,0.0,2.2173080444335938,-1.8661143779754639,-0.0,2.1540191173553467,4.865950318961897,-0.0,0.28778719902038574,-1.597309414540426,0.0,-0.012985548935830593,0.7840332984924316,0.0,-0.011555229313671589,0.7781544327735901,0.0,0.008852282539010048
384.0,351.0,0.7693,0.2495,9.4056,-0.0402,0.0275,-0.1161,-1.5963732204832972,0.0,2.210324764251709,-1.8661022186279297,-0.0,2.0970394611358643,4.86589432039813,-0.0,0.28906309604644775,-1.59731370607485,0.0,-0.011822672560811043,0.784105658531189,0.0,0.0009336256189271808,0.778142511844635,0.0,-0.026473606005311012
384.0,351.0,0.7693,0.2495,9.4056,-0.0402,0.0275,-0.1161,-1.5964013538756312,0.0,2.19399356842041,-1.8661561012268066,-0.0,2.059236526489258,4.865906494646826,-0.0,0.28624090552330017,-1.597370449696676,0.0,-0.02087603136897087,0.7840254306793213,0.0,0.0034942138008773327,0.7781343460083008,0.0,0.010534047149121761
384.0,351.0,0.7693,0.2495,9.4056,-0.0402,0.0275,-0.1161,-1.5964051685728968,0.0,2.232450485229492,-1.8661389350891113,-0.0,2.0889720916748047,4.865918415575781,-0.0,0.287716805934906,-1.5973299185382288,0.0,-0.012547404505312443,0.7840651869773865,0.0,0.0010654979851096869,0.7781462669372559,0.0,-0.004416280891746283
377.0,349.0,0.6568,0.2171,9.4618,-0.0394,0.0273,-0.1164,-1.5964213810362757,0.0,2.230663299560547,-1.8661110401153564,-0.0,2.1038241386413574,4.8659184006746194,-0.0,0.2883000671863556,-1.5973017851458948,0.0,-0.01928398758172989,0.7840454578399658,0.0,-0.0029978761449456215,0.7781866788864136,0.0,0.008963240310549736
377.0,349.0,0.6568,0.2171,9.4618,-0.0394,0.0273,-0.1164,-1.5963689289488734,0.0,2.211498737335205,-1.866101861000061,-0.0,2.135448932647705,4.865946265846052,-0.0,0.2857591509819031,-1.5972979704486292,0.0,-0.018495213240385056,0.7840530276298523,0.0,-0.012455456890165806,0.7781586050987244,0.0,-0.02580598182976246
377.0,349.0,0.6568,0.2171,9.4618,-0.0394,0.0273,-0.1164,-1.596360822717184,0.0,2.1893160343170166,-1.8661060333251953,-0.0,2.1081416606903076,4.865890222578802,-0.0,0.2875487208366394,-1.5972655455218714,0.0,-0.014904806390404701,0.7840333580970764,0.0,-0.0006450413493439555,0.7781867384910583,0.0,0.031866591423749924
377.0,349.0,0.6568,0.2171,9.4618,-0.0394,0.0273,-0.1164,-1.5963894329466761,0.0,2.2366220951080322,-1.8661022186279297,-0.0,2.0852832794189453,4.865910532861509,-0.0,0.29197973012924194,-1.59731370607485,0.0,-0.026683593168854713,0.7839931845664978,0.0,0.00042302231304347515,0.77816241979599,0.0,0.028530459851026535
377.0,349.0,0.6568,0.2171,9.4618,-0.0394,0.0273,-0.1164,-1.5964132748045863,0.0,2.23858642578125,-1.8661308288574219,-0.0,2.075892448425293,4.865898000984945,-0.0,0.2882016599178314,-1.5973337332354944,0.0,-0.004187379963696003,0.7839850783348083,0.0,-0.0007908367551863194,0.7781584858894348,0.0,0.027091750875115395
377.0,349.0,0.6568,0.2171,9.4618,-0.0394,0.0273,-0.1164,-1.5964051685728968,0.0,2.173306941986084,-1.8661227226257324,-0.0,2.0978384017944336,4.865962552815237,-0.0,0.2885509729385376,-1.5972898642169397,0.0,-0.006181485950946808,0.7840533256530762,0.0,-0.00220773508772254,0.7781583070755005,0.0,-0.005883912555873394
377.0,349.0,0.6568,0.2171,9.4618,-0.0394,0.0273,-0.1164,-1.5963894329466761,0.0,2.173292875289917,-1.8660948276519775,-0.0,2.112626075744629,4.865874233632841,-0.0,0.2921990752220154,-1.5972936789142054,0.0,-0.00606950419023633,0.7840815782546997,0.0,-0.017089419066905975,0.778130292892456,0.0,0.03862033039331436
377.0,349.0,0.6568,0.2171,9.4618,-0.0394,0.0273,-0.1164,-1.5963808498778285,0.0,2.238556385040283,-1.8661227226257324,-0.0,2.093034267425537,4.865914362459936,-0.0,0.2928248643875122,-1.5973179976092737,0.0,-0.01044056098908186,0.7840815782546997,0.0,0.004850833676755428,0.7781503200531006,0.0,0.009275974705815315
377.0,349.0,0.6568,0.2171,9.4618,-0.0394,0.0273,-0.1164,-1.5963527164854945,0.0,2.183443546295166,-1.8661022186279297,-0.0,2.086665630340576,4.865906464844503,-0.0,0.28936442732810974,-1.597285572682516,0.0,-0.012575635686516762,0.7840613722801208,0.0,0.007636041380465031,0.778130292892456,0.0,-0.005697404034435749
377.0,349.0,0.6568,0.2171,9.4618,-0.0394,0.0273,-0.1164,-1.596429010430807,0.0,2.194493532180786,-1.8661227226257324,-0.0,2.0883429050445557,4.865950318961897,-0.0,0.2978082597255707,-1.5973213354693812,0.0,-0.014400936663150787,0.7840611338615417,0.0,-0.0028731226921081543,0.7781867384910583,0.0,0.0017536357045173645
377.0,349.0,0.6568,0.2171,9.4618,-0.0394,0.0273,-0.1164,-1.596417089501852,0.0,2.2457773685455322,-1.8660790920257568,-0.0,2.1397619247436523,4.865918385773458,-0.0,0.2893746793270111,-1.5973218123065394,0.0,0.0009844054002314806,0.7840573787689209,0.0,0.006301290355622768,0.7781462669372559,0.0,-0.01639132760465145
377.0,349.0,0.6568,0.2171,9.4618,-0.0394,0.0273,-0.1164,-1.5963651142516078,0.0,2.2111425399780273,-1.8661549091339111,-0.0,2.0812082290649414,4.865886124759474,-0.0,0.29255712032318115,-1.5973337332354944,0.0,-0.0034435035195201635,0.7840332388877869,0.0,-0.005768023431301117,0.7781462669372559,0.0,-0.003867783583700657
377.0,349.0,0.6568,0.2171,9.4618,-0.0394,0.0273,-0.1164,-1.596377512017721,0.0,2.215097665786743,-1.8661143779754639,-0.0,2.0925557613372803,4.865974727063932,-0.0,0.2788795232772827,-1.597285572682516,0.0,-0.0038362862542271614,0.7841216921806335,0.0,-0.008571671321988106,0.7781947255134583,0.0,-0.05796520411968231
377.0,349.0,0.6568,0.2171,9.4618,-0.0394,0.0273,-0.1164,-1.5964051685728968,0.0,2.2379443645477295,-1.8661270141601562,-0.0,2.069248914718628,4.8659462360437296,-0.0,0.2898298501968384,-1.597297493611471,0.0,-0.005323070101439953,0.7840132117271423,0.0,-0.016562780365347862,0.7781384587287903,0.0,0.03129448741674423
377.0,349.0,0.6568,0.2171,9.4618,-0.0394,0.0273,-0.1164,-1.5964132748045863,0.0,2.3021552562713623,-1.8660988807678223,-0.0,2.1392149925231934,4.865946534066953,-0.0,0.2815379202365875,-1.59731370607485,0.0,-0.008875043131411076,0.7840051054954529,0.0,0.0034353844821453094,0.7781223058700562,0.0,0.025775425136089325
377.0,349.0,0.6568,0.2171,9.4618,-0.0394,0.0273,-0.1164,-1.5963851414122523,0.0,2.221513509750366,-1.8660948276519775,-0.0,2.103828191757202,4.865962582617559,-0.0,0.29393747448921204,-1.5973017851458948,0.0,0.002843801863491535,0.7840652465820312,0.0,-0.002872039098292589,0.7781100869178772,0.0,0.00652240589261055
377.0,349.0,0.6568,0.2171,9.4618,-0.0394,0.0273,-0.1164,-1.5964051685728968,0.0,2.228649139404297,-1.8660833835601807,-0.0,2.087358236312866,4.865914377361097,-0.0,0.29608941078186035,-1.597297493611471,0.0,-0.01123751513659954,0.7840291857719421,0.0,0.004392293281853199,0.778130292892456,0.0,-0.007925821468234062
377.0,349.0,0.6568,0.2171,9.4618,-0.0394,0.0273,-0.1164,-1.5963651142516078,0.0,2.2320046424865723,-1.8661061525344849,-0.0,2.105884552001953,4.865922215371885,-0.0,0.28514716029167175,-1.5973337332354944,0.0,-0.007206344977021217,0.7840613722801208,0.0,-0.005474692210555077,0.7781626582145691,0.0,0.01801411807537079
377.0,349.0,0.6568,0.2171,9.4618,-0.0394,0.0273,-0.1164,-1.5964094601073207,0.0,2.1999826431274414,-1.8660988807678223,-0.0,2.1031322479248047,4.865946578770437,-0.0,0.2873598635196686,-1.5973213354693812,0.0,-0.016451964154839516,0.7840291857719421,0.0,-0.004193376749753952,0.7781745791435242,0.0,-0.022540707141160965
377.0,349.0,0.6568,0.2171,9.4618,-0.0394,0.0273,-0.1164,-1.5963651142516078,0.0,2.2042970657348633,-1.8660948276519775,-0.0,2.0744831562042236,4.865886124759474,-0.0,0.2862393260002136,-1.5972774664508265,0.0,-0.006409136578440666,0.7840655446052551,0.0,0.00798892229795456,0.7780981659889221,0.0,0.027219155803322792
364.0,342.0,0.6473,0.1884,9.4678,-0.033,0.0237,-0.1138,-1.59635653118276,0.0,2.236433506011963,-1.8661115169525146,-0.0,2.140194892883301,4.865922438889303,-0.0,0.2801723778247833,-1.597297493611471,0.0,-0.002121134428307414,0.784069299697876,0.0,0.0018119043670594692,0.7781384587287903,0.0,-0.007676724810153246
364.0,342.0,0.6473,0.1884,9.4678,-0.033,0.0237,-0.1138,-1.5964533291258753,0.0,2.2072675228118896,-1.8660588264465332,-0.0,2.136341094970703,4.865902441530981,-0.0,0.2889367938041687,-1.5973179976092737,0.0,-0.0027073007076978683,0.7840332984924316,0.0,-0.0009371837368234992,0.7780899405479431,0.0,0.007423992268741131
364.0,342.0,0.6473,0.1884,9.4678,-0.033,0.0237,-0.1138,-1.5963651142516078,0.0,2.2047348022460938,-1.8660907745361328,-0.0,2.1288909912109375,4.865914362459936,-0.0,0.2765622138977051,-1.59731370607485,0.0,-0.009800899773836136,0.7840492725372314,0.0,-0.002860793611034751,0.7781141400337219,0.0,0.0018899417482316494
364.0,342.0,0.6473,0.1884,9.4678,-0.033,0.0237,-0.1138,-1.5963689289488734,0.0,2.2189383506774902,-1.8660874366760254,-0.0,2.055936574935913,4.865906330734052,-0.0,0.2907508313655853,-1.59731370607485,0.0,-0.001927053090184927,0.7841096520423889,0.0,-0.006790297105908394,0.7781462669372559,0.0,-0.018903883174061775
364.0,342.0,0.6473,0.1884,9.4678,-0.033,0.0237,-0.1138,-1.5964251957335414,0.0,2.1627323627471924,-1.866102933883667,-0.0,2.0939059257507324,4.865946280747213,-0.0,0.27878737449645996,-1.5973098913775843,0.0,-0.0049852947704494,0.7841055989265442,0.0,0.0034075372386723757,0.7781022191047668,0.0,-0.0044041830115020275
364.0,342.0,0.6473,0.1884,9.4678,-0.033,0.0237,-0.1138,-1.596377512017721,0.0,2.2174806594848633,-1.866078495979309,-0.0,2.1188483238220215,4.8659424660499475,-0.0,0.2947496175765991,-1.597325627003805,0.0,-0.00707542710006237,0.7840254306793213,0.0,-0.0001509051799075678,0.7781384587287903,0.0,0.007688054349273443
364.0,342.0,0.6473,0.1884,9.4678,-0.033,0.0237,-0.1138,-1.5964013538756312,0.0,2.1588592529296875,-1.8661311864852905,-0.0,2.0885543823242188,4.865930172591963,-0.0,0.2744678556919098,-1.5973547140704554,0.0,-0.016902321949601173,0.7840370535850525,0.0,0.001401211367920041,0.7781181931495667,0.0,-0.04847481846809387
364.0,342.0,0.6473,0.1884,9.4678,-0.033,0.0237,-0.1138,-1.5963484249510707,0.0,2.220207691192627,-1.8661350011825562,-0.0,2.1120657920837402,4.865914362459936,-0.0,0.29389244318008423,-1.597325627003805,0.0,-0.01647348515689373,0.7840451598167419,0.0,0.008835498243570328,0.7781262397766113,0.0,-0.005605736747384071
364.0,342.0,0.6473,0.1884,9.4678,-0.033,0.0237,-0.1138,-1.5963851414122523,0.0,2.2507457733154297,-1.8661472797393799,-0.0,2.0838146209716797,4.86593838313178,-0.0,0.29071784019470215,-1.5973337332354944,0.0,-0.0004721455043181777,0.7840213775634766,0.0,-0.001241464400663972,0.7782108187675476,0.0,-0.02031124196946621
364.0,342.0,0.6473,0.1884,9.4678,-0.033,0.0237,-0.1138,-1.5963932476439417,0.0,2.2427310943603516,-1.8661353588104248,-0.0,2.1075236797332764,4.865922438889303,-0.0,0.28314048051834106,-1.5973179976092737,0.0,-0.02074778825044632,0.7840451598167419,0.0,-0.0014046416617929935,0.7781141400337219,0.0,0.006225760094821453
364.0,342.0,0.6473,0.1884,9.4678,-0.033,0.0237,-0.1138,-1.5963970623412074,0.0,2.192640542984009,-1.8661144971847534,-0.0,2.123314619064331,4.8659101752336404,-0.0,0.29348528385162354,-1.597309414540426,0.0,-0.002992672612890601,0.7840733528137207,0.0,0.007426491938531399,0.7781100869178772,0.0,-0.008713848888874054
364.0,342.0,0.6473,0.1884,9.4678,-0.033,0.0237,-0.1138,-1.5963808498778285,0.0,2.219419240951538,-1.8661143779754639,-0.0,2.065779447555542,4.865922438889303,-0.0,0.28302687406539917,-1.597325627003805,0.0,-0.009538092650473118,0.7840050458908081,0.0,-0.004906202666461468,0.778130292892456,0.0,0.03627004474401474
364.0,342.0,0.6473,0.1884,9.4678,-0.033,0.0237,-0.1138,-1.5963732204832972,0.0,2.2229795455932617,-1.8660866022109985,-0.0,2.1084988117218018,4.865902396827497,-0.0,0.2868003249168396,-1.5973547140704554,0.0,-0.009543565101921558,0.7840213775634766,0.0,-0.006513550877571106,0.7781584858894348,0.0,0.012173144146800041
364.0,342.0,0.6473,0.1884,9.4678,-0.033,0.0237,-0.1138,-1.5964051685728968,0.0,2.158539056777954,-1.8661270141601562,-0.0,2.092806816101074,4.8659583804901025,-0.0,0.2837415933609009,-1.5972817579852503,0.0,-0.011751027777791023,0.7840291261672974,0.0,0.008495766669511795,0.7781462669372559,0.0,-0.016296226531267166
364.0,342.0,0.6473,0.1884,9.4678,-0.033,0.0237,-0.1138,-1.5963851414122523,0.0,2.2159879207611084,-1.866062879562378,-0.0,2.1043038368225098,4.865918966918745,-0.0,0.2882022261619568,-1.5972655455218714,0.0,-0.01281583122909069,0.7840492725372314,0.0,0.019309524446725845,0.778130292892456,0.0,0.02432628534734249
364.0,342.0,0.6473,0.1884,9.4678,-0.033,0.0237,-0.1138,-1.5963851414122523,0.0,2.2332637310028076,-1.866074800491333,-0.0,2.100759983062744,4.8659424660499475,-0.0,0.2957073748111725,-1.597325627003805,0.0,0.00018593680579215288,0.7840210795402527,0.0,-0.007058707531541586,0.778130292892456,0.0,0.016979370266199112
364.0,342.0,0.6473,0.1884,9.4678,-0.033,0.0237,-0.1138,-1.5963970623412074,0.0,2.1579999923706055,-1.866114616394043,-0.0,2.079239845275879,4.865934359818258,-0.0,0.28958186507225037,-1.5973060766803187,0.0,-0.005939069669693708,0.7840492725372314,0.0,-0.016738897189497948,0.7781384587287903,0.0,-0.02358272671699524
364.0,342.0,0.6473,0.1884,9.4678,-0.033,0.0237,-0.1138,-1.5964251957335414,0.0,2.214390993118286,-1.8660916090011597,-0.0,2.143584728240967,4.86593838313178,-0.0,0.2853298485279083,-1.5972936789142054,0.0,-0.018146321177482605,0.7840855717658997,0.0,-0.012864965945482254,0.7781705856323242,0.0,-0.005025338381528854
364.0,342.0,0.6473,0.1884,9.4678,-0.033,0.0237,-0.1138,-1.5964013538756312,0.0,2.221848964691162,-1.8660833835601807,-0.0,2.136474370956421,4.865938398032942,-0.0,0.2970126271247864,-1.597325627003805,0.0,-0.018294934183359146,0.7840332984924316,0.0,-0.01213259156793356,0.7781462669372559,0.0,0.008695526048541069
364.0,342.0,0.6473,0.1884,9.4678,-0.033,0.0237,-0.1138,-1.5963651142516078,0.0,2.240427255630493,-1.8660948276519775,-0.0,2.1033761501312256,4.865914377361097,-0.0,0.282294899225235,-1.5973017851458948,0.0,-0.0017501311376690865,0.7840896248817444,0.0,0.004192692693322897,0.7781664729118347,0.0,-0.013405932113528252
378.0,351.0,0.6951,0.2375,9.469,-0.0389,0.0209,-0.1194,-1.5963808498778285,0.0,2.2423791885375977,-1.866086721420288,-0.0,2.0457372665405273,4.8659184006746194,-0.0,0.3041583299636841,-1.5972979704486292,0.0,-0.010357962921261787,0.7840332984924316,0.0,-0.004903644789010286,0.7781421542167664,0.0,-0.005534053780138493
378.0,351.0,0.6951,0.2375,9.469,-0.0389,0.0209,-0.1194,-1.5964213810362757,0.0,2.238020420074463,-1.8661391735076904,-0.0,2.079890489578247,4.86589843311862,-0.0,0.3088580369949341,-1.597325627003805,0.0,-0.013720106333494186,0.7840172648429871,0.0,-0.006294052582234144,0.778142511844635,0.0,-0.013655686751008034
378.0,351.0,0.6951,0.2375,9.469,-0.0389,0.0209,-0.1194,-1.5963770351805628,0.0,2.1761505603790283,-1.8661593198776245,-0.0,2.1185011863708496,4.865906464844503,-0.0,0.30229127407073975,-1.5973175207721155,0.0,-0.018040478229522705,0.7840733528137207,0.0,-0.009562320075929165,0.7781222462654114,0.0,-0.016214996576309204
378.0,351.0,0.6951,0.2375,9.469,-0.0389,0.0209,-0.1194,-1.5963970623412074,0.0,2.2046985626220703,-1.8661069869995117,-0.0,2.1130690574645996,4.865942704468527,-0.0,0.2863600552082062,-1.5973337332354944,0.0,-0.005618124734610319,0.7840172648429871,0.0,0.00328716984950006,0.77816241979599,0.0,-0.03616780787706375
378.0,351.0,0.6951,0.2375,9.469,-0.0389,0.0209,-0.1194,-1.5963527164854945,0.0,2.1675190925598145,-1.866086721420288,-0.0,2.15521502494812,4.865930291801252,-0.0,0.2850840985774994,-1.5973179976092737,0.0,-0.0037950577680021524,0.7839890122413635,0.0,0.0026936670765280724,0.7781384587287903,0.0,0.007510686293244362
378.0,351.0,0.6951,0.2375,9.469,-0.0389,0.0209,-0.1194,-1.5963808498778285,0.0,2.186687707901001,-1.8661227226257324,-0.0,2.0890018939971924,4.8659024117286584,-0.0,0.28819242119789124,-1.597309414540426,0.0,-0.017876338213682175,0.7840332388877869,0.0,-0.0012258540373295546,0.7781503200531006,0.0,-7.856544107198715e-05
378.0,351.0,0.6951,0.2375,9.469,-0.0389,0.0209,-0.1194,-1.5964371166624964,0.0,2.2195322513580322,-1.8660746812820435,-0.0,2.1096372604370117,4.865922453790464,-0.0,0.29236283898353577,-1.5973780790912073,0.0,-0.014574253931641579,0.7840213179588318,0.0,0.004205126781016588,0.7781343460083008,0.0,-0.04103155806660652
378.0,351.0,0.6951,0.2375,9.469,-0.0389,0.0209,-0.1194,-1.5963689289488734,0.0,2.2467470169067383,-1.8660666942596436,-0.0,2.0759615898132324,4.865966650634565,-0.0,0.2852691411972046,-1.5973661581622522,0.0,-0.01164319645613432,0.7840774059295654,0.0,-0.00023678928846493363,0.7781585454940796,0.0,0.03578304126858711
378.0,351.0,0.6951,0.2375,9.469,-0.0389,0.0209,-0.1194,-1.5963770351805628,0.0,2.191897392272949,-1.8660832643508911,-0.0,2.134542465209961,4.8659264771039865,-0.0,0.29170310497283936,-1.5973380247699183,0.0,-0.012291972525417805,0.7840815782546997,0.0,-0.0020340709015727043,0.7781343460083008,0.0,-0.0035991985350847244
378.0,351.0,0.6951,0.2375,9.469,-0.0389,0.0209,-0.1194,-1.5964213810362757,0.0,2.2648391723632812,-1.866101861000061,-0.0,2.0988831520080566,4.8659303216035745,-0.0,0.2889007329940796,-1.597269360219137,0.0,-0.0084784971550107,0.7840774059295654,0.0,-0.006620445288717747,0.7781466841697693,0.0,-0.024760792031884193
378.0,351.0,0.6951,0.2375,9.469,-0.0389,0.0209,-0.1194,-1.5963851414122523,0.0,2.223051071166992,-1.8661022186279297,-0.0,2.1116437911987305,4.8659264771039865,-0.0,0.2855437397956848,-1.5972774664508265,0.0,-0.009757770225405693,0.7840090394020081,0.0,0.01025231834501028,0.7781664729118347,0.0,0.00778281781822443
378.0,351.0,0.6951,0.2375,9.469,-0.0389,0.0209,-0.1194,-1.5963970623412074,0.0,2.195950984954834,-1.8660833835601807,-0.0,2.0872559547424316,4.865922438889303,-0.0,0.288488507270813,-1.597241226826803,0.0,-0.011964913457632065,0.7840733528137207,0.0,-0.004729902371764183,0.7781503200531006,0.0,-0.029281552881002426
378.0,351.0,0.6951,0.2375,9.469,-0.0389,0.0209,-0.1194,-1.5963851414122523,0.0,2.2323315143585205,-1.8661061525344849,-0.0,2.1134417057037354,4.865946593671598,-0.0,0.2875944972038269,-1.597297493611471,0.0,-0.022380171343684196,0.7840492725372314,0.0,0.005374223925173283,0.7781384587287903,0.0,0.015562052838504314
378.0,351.0,0.6951,0.2375,9.469,-0.0389,0.0209,-0.1194,-1.5964213810362757,0.0,2.180079936981201,-1.866154670715332,-0.0,2.10122013092041,4.865950289159574,-0.0,0.29384902119636536,-1.5972936789142054,0.0,-0.016920536756515503,0.7840492725372314,0.0,-0.003737614257261157,0.7781745195388794,0.0,0.0684145987033844
378.0,351.0,0.6951,0.2375,9.469,-0.0389,0.0209,-0.1194,-1.5963851414122523,0.0,2.247821569442749,-1.8661627769470215,-0.0,2.111642599105835,4.865890177875318,-0.0,0.2830715775489807,-1.597297493611471,0.0,-0.009788158349692822,0.7840897440910339,0.0,-0.0007168760057538748,0.7781384587287903,0.0,0.010404905304312706
378.0,351.0,0.6951,0.2375,9.469,-0.0389,0.0209,-0.1194,-1.5963851414122523,0.0,2.202737331390381,-1.8660906553268433,-0.0,2.0791304111480713,4.865885722428121,-0.0,0.292770117521286,-1.5973580519305628,0.0,-0.003324768738821149,0.7840369343757629,0.0,-0.0013166950084269047,0.7781744599342346,0.0,-0.03748209401965141
378.0,351.0,0.6951,0.2375,9.469,-0.0389,0.0209,-0.1194,-1.5963851414122523,0.0,2.2298316955566406,-1.8660948276519775,-0.0,2.0843801498413086,4.8659424660499475,-0.0,0.2891022264957428,-1.597297493611471,0.0,-0.016017578542232513,0.7840614914894104,0.0,0.006346062291413546,0.7781503200531006,0.0,-0.05061803013086319
378.0,351.0,0.6951,0.2375,9.469,-0.0389,0.0209,-0.1194,-1.5964051685728968,0.0,2.2274651527404785,-1.8660873174667358,-0.0,2.1294984817504883,4.865938368230619,-0.0,0.28174740076065063,-1.597309414540426,0.0,-0.0046937414444983006,0.7840130925178528,0.0,-0.014835680834949017,0.7781384587287903,0.0,0.008682634681463242
378.0,351.0,0.6951,0.2375,9.469,-0.0389,0.0209,-0.1194,-1.5964094601073207,0.0,2.2284364700317383,-1.8660746812820435,-0.0,2.1421279907226562,4.865926492005148,-0.0,0.29994869232177734,-1.59731370607485,0.0,-0.005599006544798613,0.784069299697876,0.0,0.001971443649381399,0.7781785726547241,0.0,-0.011916467919945717
369.0,337.0,0.6598,0.1819,9.5228,-0.0322,0.0267,-0.1197,-1.5963527164854945,0.0,2.1782209873199463,-1.8661268949508667,-0.0,2.1098265647888184,4.865930336504736,-0.0,0.28560400009155273,-1.597325627003805,0.0,0.007678677327930927,0.7840693593025208,0.0,-0.0003243805840611458,0.7781462669372559,0.0,0.027677536010742188
369.0,337.0,0.6598,0.1819,9.5228,-0.0322,0.0267,-0.1197,-1.5963970623412074,0.0,2.1772594451904297,-1.8661227226257324,-0.0,2.0990118980407715,4.865906479745664,-0.0,0.2754918336868286,-1.5973299185382288,0.0,-0.010711494833230972,0.7840976119041443,0.0,0.007758168503642082,0.7781343460083008,0.0,0.036021068692207336
369.0,337.0,0.6598,0.1819,9.5228,-0.0322,0.0267,-0.1197,-1.596360822717184,0.0,2.2412257194519043,-1.8661270141601562,-0.0,2.1304214000701904,4.865938100009718,-0.0,0.29718559980392456,-1.597297493611471,0.0,-0.0013389871455729008,0.7840652465820312,0.0,0.0003168287221342325,0.7781462669372559,0.0,-0.016210559755563736
369.0,337.0,0.6598,0.1819,9.5228,-0.0322,0.0267,-0.1197,-1.5963689289488734,0.0,2.1964364051818848,-1.8661472797393799,-0.0,2.117258071899414,4.865914362459936,-0.0,0.28106388449668884,-1.597325627003805,0.0,-0.003557410091161728,0.7840332388877869,0.0,0.007149215321987867,0.7781664729118347,0.0,0.027543840929865837
369.0,337.0,0.6598,0.1819,9.5228,-0.0322,0.0267,-0.1197,-1.5963808498778285,0.0,2.1937243938446045,-1.8661069869995117,-0.0,2.070888042449951,4.865897971182623,-0.0,0.2926177978515625,-1.5973261038409632,0.0,-0.008512415923178196,0.784065306186676,0.0,0.003874098416417837,0.7780859470367432,0.0,0.013349154964089394
369.0,337.0,0.6598,0.1819,9.5228,-0.0322,0.0267,-0.1197,-1.5964013538756312,0.0,2.199948787689209,-1.8660669326782227,-0.0,2.108513116836548,4.865918698697843,-0.0,0.2902401387691498,-1.5972774664508265,0.0,-0.0015232916921377182,0.78409343957901,0.0,-0.003438143990933895,0.7780981659889221,0.0,-0.022766347974538803
369.0,337.0,0.6598,0.1819,9.5228,-0.0322,0.0267,-0.1197,-1.596360822717184,0.0,2.2508397102355957,-1.8660935163497925,-0.0,2.1245384216308594,4.865942436247625,-0.0,0.28538942337036133,-1.5972736517535608,0.0,-0.005229779984802008,0.7841136455535889,0.0,-0.011790275573730469,0.778174638748169,0.0,0.0029126652516424656
369.0,337.0,0.6598,0.1819,9.5228,-0.0322,0.0267,-0.1197,-1.5964132748045863,0.0,2.215792417526245,-1.8660874366760254,-0.0,2.150895118713379,4.8659184006746194,-0.0,0.28287428617477417,-1.5972936789142054,0.0,-0.013603927567601204,0.7841017246246338,0.0,0.009863524697721004,0.7781543731689453,0.0,0.029742969200015068
369.0,337.0,0.6598,0.1819,9.5228,-0.0322,0.0267,-0.1197,-1.5964094601073207,0.0,2.196704626083374,-1.8660866022109985,-0.0,2.098759889602661,4.8659024117286584,-0.0,0.2837173342704773,-1.59731370607485,0.0,-0.01575046218931675,0.7840492725372314,0.0,0.0009048015344887972,0.7781141400337219,0.0,-0.05903640016913414
369.0,337.0,0.6598,0.1819,9.5228,-0.0322,0.0267,-0.1197,-1.5963851414122523,0.0,2.2114813327789307,-1.8660833835601807,-0.0,2.0873615741729736,4.865914377361097,-0.0,0.2942306101322174,-1.5973179976092737,0.0,-0.01685856655240059,0.7840656042098999,0.0,-0.005881275050342083,0.778130292892456,0.0,0.024846870452165604
369.0,337.0,0.6598,0.1819,9.5228,-0.0322,0.0267,-0.1197,-1.5963970623412074,0.0,2.232861042022705,-1.8660904169082642,-0.0,2.176368236541748,4.865938412934103,-0.0,0.2819103002548218,-1.5973017851458948,0.0,-0.0012634675949811935,0.7840450406074524,0.0,-0.008866808377206326,0.7781503200531006,0.0,0.02923290990293026
369.0,337.0,0.6598,0.1819,9.5228,-0.0322,0.0267,-0.1197,-1.5963689289488734,0.0,2.199016571044922,-1.8660948276519775,-0.0,2.1207151412963867,4.8659264771039865,-0.0,0.2921748757362366,-1.5973213354693812,0.0,-0.0060464972630143166,0.7840652465820312,0.0,-0.009392672218382359,0.7781544327735901,0.0,0.004530823789536953
369.0,337.0,0.6598,0.1819,9.5228,-0.0322,0.0267,-0.1197,-1.596417089501852,0.0,2.2365758419036865,-1.86613929271698,-0.0,2.0999770164489746,4.865942436247625,-0.0,0.30513983964920044,-1.5972774664508265,0.0,-0.011120383627712727,0.7840815782546997,0.0,-0.0076319994404911995,0.7781705260276794,0.0,-0.033685967326164246
369.0,337.0,0.6598,0.1819,9.5228,-0.0322,0.0267,-0.1197,-1.5964051685728968,0.0,2.1674599647521973,-1.8661143779754639,-0.0,2.093458652496338,4.865886437683859,-0.0,0.29553425312042236,-1.5972979704486292,0.0,0.004122414626181126,0.784125804901123,0.0,-0.0010374706471338868,0.7781664729118347,0.0,-0.018047351390123367
369.0,337.0,0.6598,0.1819,9.5228,-0.0322,0.0267,-0.1197,-1.596360822717184,0.0,2.1904454231262207,-1.8660832643508911,-0.0,2.1052517890930176,4.865938398032942,-0.0,0.2858797013759613,-1.597309414540426,0.0,-0.01778939552605152,0.784101665019989,0.0,-0.014364786446094513,0.7781503200531006,0.0,0.021615689620375633
369.0,337.0,0.6598,0.1819,9.5228,-0.0322,0.0267,-0.1197,-1.5964051685728968,0.0,2.1975462436676025,-1.8660792112350464,-0.0,2.1098055839538574,4.8659424660499475,-0.0,0.28484228253364563,-1.5972936789142054,0.0,0.0033189866226166487,0.7840332388877869,0.0,0.0020564491860568523,0.7781181931495667,0.0,-0.051184505224227905
369.0,337.0,0.6598,0.1819,9.5228,-0.0322,0.0267,-0.1197,-1.5963970623412074,0.0,2.235930919647217,-1.8661433458328247,-0.0,2.0802087783813477,4.865877988725462,-0.0,0.28459638357162476,-1.5973179976092737,0.0,-0.005836882628500462,0.7840933799743652,0.0,-0.003101394511759281,0.7780900597572327,0.0,0.018407631665468216
369.0,337.0,0.6598,0.1819,9.5228,-0.0322,0.0267,-0.1197,-1.596360822717184,0.0,2.208338975906372,-1.8660832643508911,-0.0,2.0887417793273926,4.865934359818258,-0.0,0.2876855134963989,-1.5972774664508265,0.0,-0.0011863699182868004,0.7841053009033203,0.0,-0.003483701031655073,0.778130292892456,0.0,0.04980165883898735
369.0,337.0,0.6598,0.1819,9.5228,-0.0322,0.0267,-0.1197,-1.5963689289488734,0.0,2.214859962463379,-1.866079330444336,-0.0,2.143495559692383,4.865922438889303,-0.0,0.279641717672348,-1.5973380247699183,0.0,-0.007629759609699249,0.784061074256897,0.0,0.00031801173463463783,0.7781018614768982,0.0,-0.005753695964813232
369.0,337.0,0.6598,0.1819,9.5228,-0.0322,0.0267,-0.1197,-1.5964213810362757,0.0,2.2242579460144043,-1.8661143779754639,-0.0,2.1145172119140625,4.8659182516630075,-0.0,0.2923804223537445,-1.597309414540426,0.0,-0.013541921973228455,0.7840130925178528,0.0,-0.001169703551568091,0.77816241979599,0.0,-0.021138716489076614
368.0,339.0,0.7202,0.2357,9.457,-0.0363,0.025,-0.1191,-1.5963732204832972,0.0,2.226869583129883,-1.866094708442688,-0.0,2.1091229915618896,4.8659264771039865,-0.0,0.29277583956718445,-1.597309414540426,0.0,-0.014437522739171982,0.784069299697876,0.0,-0.00688349362462759,0.7781261801719666,0.0,-0.00942507665604353
368.0,339.0,0.7202,0.2357,9.457,-0.0363,0.025,-0.1191,-1.5963732204832972,0.0,2.195829391479492,-1.8661103248596191,-0.0,2.1029906272888184,4.865930604725637,-0.0,0.28324148058891296,-1.5973017851458948,0.0,-0.0002951514907181263,0.7840815782546997,0.0,-0.005684463307261467,0.7781462669372559,0.0,-0.028047636151313782
368.0,339.0,0.7202,0.2357,9.457,-0.0363,0.025,-0.1191,-1.596360822717184,0.0,2.18308162689209,-1.8660874366760254,-0.0,2.0817058086395264,4.865938398032942,-0.0,0.2878594696521759,-1.597325627003805,0.0,-0.007738459389656782,0.7839730381965637,0.0,0.0010140363592654467,0.7781223058700562,0.0,0.048269663006067276
368.0,339.0,0.7202,0.2357,9.457,-0.0363,0.025,-0.1191,-1.5964251957335414,0.0,2.2287960052490234,-1.8660904169082642,-0.0,2.113752603530884,4.865882116347112,-0.0,0.28543224930763245,-1.597285572682516,0.0,-0.012909770011901855,0.7840937972068787,0.0,-0.0035236645489931107,0.7781141400337219,0.0,-0.005178142338991165
368.0,339.0,0.7202,0.2357,9.457,-0.0363,0.025,-0.1191,-1.59635653118276,0.0,2.1992835998535156,-1.8660669326782227,-0.0,2.1085009574890137,4.865942704468527,-0.0,0.29383140802383423,-1.597309414540426,0.0,-0.011679275892674923,0.7841299772262573,0.0,0.0027552423998713493,0.7781141400337219,0.0,0.024827975779771805
368.0,339.0,0.7202,0.2357,9.457,-0.0363,0.025,-0.1191,-1.5963927708067835,0.0,2.2860615253448486,-1.8660874366760254,-0.0,2.1085968017578125,4.865918355971136,-0.0,0.2840634286403656,-1.5973060766803187,0.0,0.0022318921983242035,0.7840734124183655,0.0,-0.00258301361463964,0.7781584858894348,0.0,0.021329892799258232
368.0,339.0,0.7202,0.2357,9.457,-0.0363,0.025,-0.1191,-1.5963527164854945,0.0,2.2006795406341553,-1.8660948276519775,-0.0,2.1022419929504395,4.865918698697843,-0.0,0.29098227620124817,-1.5973337332354944,0.0,-0.015498461201786995,0.7840492725372314,0.0,-0.0038350087124854326,0.7781381011009216,0.0,-0.03448697179555893
368.0,339.0,0.7202,0.2357,9.457,-0.0363,0.025,-0.1191,-1.596344610253805,0.0,2.182375907897949,-1.8661473989486694,-0.0,2.0877130031585693,4.865950318961897,-0.0,0.29622897505760193,-1.5973218123065394,0.0,-0.015991773456335068,0.7840254306793213,0.0,-0.00861215777695179,0.7781022191047668,0.0,0.01370094995945692
368.0,339.0,0.7202,0.2357,9.457,-0.0363,0.025,-0.1191,-1.5964046917357386,0.0,2.18989896774292,-1.8660988807678223,-0.0,2.1022112369537354,4.865950318961897,-0.0,0.2735788822174072,-1.5973337332354944,0.0,0.0033017750829458237,0.7840896844863892,0.0,0.003527201246470213,0.7781103849411011,0.0,-0.036814283579587936
368.0,339.0,0.7202,0.2357,9.457,-0.0363,0.025,-0.1191,-1.5963651142516078,0.0,2.241732120513916,-1.8660308122634888,-0.0,2.09147572517395,4.865918385773458,-0.0,0.2778185307979584,-1.5973299185382288,0.0,-0.01431300025433302,0.7840815782546997,0.0,-0.0025961315259337425,0.7780818939208984,0.0,0.0070321690291166306
368.0,339.0,0.7202,0.2357,9.457,-0.0363,0.025,-0.1191,-1.5964251957335414,0.0,2.1912944316864014,-1.8660831451416016,-0.0,2.1293962001800537,4.86589369454936,-0.0,0.29461395740509033,-1.5972936789142054,0.0,0.00039031304186210036,0.7840652465820312,0.0,0.006003773305565119,0.7781544327735901,0.0,-0.014670914970338345
368.0,339.0,0.7202,0.2357,9.457,-0.0363,0.025,-0.1191,-1.5963894329466761,0.0,2.2336063385009766,-1.8660622835159302,-0.0,2.0718400478363037,4.86596659102992,-0.0,0.2981453537940979,-1.5973461310016077,0.0,-0.002947432454675436,0.7840652465820312,0.0,0.004592380486428738,0.7781141400337219,0.0,-0.0011716800509020686
368.0,339.0,0.7202,0.2357,9.457,-0.0363,0.025,-0.1191,-1.596360822717184,0.0,2.2611336708068848,-1.8660906553268433,-0.0,2.0672554969787598,4.865974756866255,-0.0,0.28766801953315735,-1.5973060766803187,0.0,0.0016984767280519009,0.7840893864631653,0.0,-0.0010594986379146576,0.7781421542167664,0.0,0.039016243070364
368.0,339.0,0.7202,0.2357,9.457,-0.0363,0.025,-0.1191,-1.5963970623412074,0.0,2.212075710296631,-1.8660751581192017,-0.0,2.093878746032715,4.865910219937124,-0.0,0.2823854684829712,-1.597257439290182,0.0,-0.011783416382968426,0.7840611338615417,0.0,-0.005103296134620905,0.7781703472137451,0.0,-0.039249859750270844
368.0,339.0,0.7202,0.2357,9.457,-0.0363,0.025,-0.1191,-1.5963651142516078,0.0,2.2268803119659424,-1.8661350011825562,-0.0,2.125420570373535,4.865910532861509,-0.0,0.2917584478855133,-1.597309414540426,0.0,-0.009396795183420181,0.7840529680252075,0.0,0.00011621468001976609,0.7780818939208984,0.0,0.010462813079357147
368.0,339.0,0.7202,0.2357,9.457,-0.0363,0.025,-0.1191,-1.5964371166624964,0.0,2.177917242050171,-1.866152048110962,-0.0,2.0724635124206543,4.865886124759474,-0.0,0.2824910283088684,-1.597297493611471,0.0,0.004712096881121397,0.7840492725372314,0.0,-0.0013546773698180914,0.7781584858894348,0.0,0.02194802649319172
368.0,339.0,0.7202,0.2357,9.457,-0.0363,0.025,-0.1191,-1.5963927708067835,0.0,2.1559526920318604,-1.8660988807678223,-0.0,2.0990805625915527,4.865946295648374,-0.0,0.2900387942790985,-1.5973299185382288,0.0,-0.013850261457264423,0.7840414047241211,0.0,0.0014442985411733389,0.7781181931495667,0.0,0.009773164056241512
368.0,339.0,0.7202,0.2357,9.457,-0.0363,0.025,-0.1191,-1.5963894329466761,0.0,2.2465498447418213,-1.8661309480667114,-0.0,2.0925066471099854,4.865942153125562,-0.0,0.28612083196640015,-1.59731370607485,0.0,-0.004627701826393604,0.7840532660484314,0.0,0.0013912147842347622,0.7781625986099243,0.0,-0.015064327046275139
368.0,339.0,0.7202,0.2357,9.457,-0.0363,0.025,-0.1191,-1.5964051685728968,0.0,2.1882262229919434,-1.8660866022109985,-0.0,2.1001901626586914,4.865934359818258,-0.0,0.2939852476119995,-1.5972774664508265,0.0,-0.0025687653105705976,0.7840933799743652,0.0,0.0008168849162757397,0.7781421542167664,0.0,-0.029406962916254997
370.0,366.0,0.6826,0.2435,9.5073,-0.0365,0.0238,-0.1182,-1.5963970623412074,0.0,2.2544846534729004,-1.8661030530929565,-0.0,2.1131749153137207,4.86595435717658,-0.0,0.2830871045589447,-1.597309414540426,0.0,-0.005664614494889975,0.7841135859489441,0.0,-0.0053803808987140656,0.778154194355011,0.0,-0.02801276557147503
370.0,366.0,0.6826,0.2435,9.5073,-0.0365,0.0238,-0.1182,-1.5964051685728968,0.0,2.174365282058716,-1.8661270141601562,-0.0,2.079967498779297,4.865910517960348,-0.0,0.28536489605903625,-1.5972936789142054,0.0,-0.012102571316063404,0.784077525138855,0.0,-0.008422017097473145,0.7781221270561218,0.0,0.03749766945838928
370.0,366.0,0.6826,0.2435,9.5073,-0.0365,0.0238,-0.1182,-1.5963651142516078,0.0,2.193700075149536,-1.8661185503005981,-0.0,2.121363401412964,4.86595472970561,-0.0,0.27593401074409485,-1.5973017851458948,0.0,-0.00346826808527112,0.7840290665626526,0.0,-0.004770703613758087,0.77816241979599,0.0,0.029116198420524597
370.0,366.0,0.6826,0.2435,9.5073,-0.0365,0.0238,-0.1182,-1.5964209041991175,0.0,2.1857337951660156,-1.866102933883667,-0.0,2.133591651916504,4.865946250944891,-0.0,0.3005950450897217,-1.5972898642169397,0.0,-0.008487426675856113,0.7840372920036316,0.0,-0.0026818145997822285,0.7781544327735901,0.0,0.0416826568543911
370.0,366.0,0.6826,0.2435,9.5073,-0.0365,0.0238,-0.1182,-1.5964251957335414,0.0,2.183408737182617,-1.8661061525344849,-0.0,2.0993871688842773,4.865918370872297,-0.0,0.28621575236320496,-1.5973055998431605,0.0,-0.009705808945000172,0.7840652465820312,0.0,-0.00017221324378624558,0.7781222462654114,0.0,-0.014590834267437458
370.0,366.0,0.6826,0.2435,9.5073,-0.0365,0.0238,-0.1182,-1.5963970623412074,0.0,2.208688259124756,-1.8661350011825562,-0.0,2.11350417137146,4.86593838313178,-0.0,0.29712194204330444,-1.597342316304342,0.0,-0.001150286290794611,0.784029483795166,0.0,-0.007146276533603668,0.7781343460083008,0.0,-0.0007809465751051903
370.0,366.0,0.6826,0.2435,9.5073,-0.0365,0.0238,-0.1182,-1.596384664575094,0.0,2.250121831893921,-1.8661350011825562,-0.0,2.1111323833465576,4.86594249585227,-0.0,0.2855117917060852,-1.5972936789142054,0.0,-0.012434445321559906,0.7840652465820312,0.0,-0.009738495573401451,0.7781021595001221,0.0,0.03835196793079376
370.0,366.0,0.6826,0.2435,9.5073,-0.0365,0.0238,-0.1182,-1.5964213810362757,0.0,2.224724292755127,-1.8661072254180908,-0.0,2.103631019592285,4.865942480951109,-0.0,0.2837226092815399,-1.5973017851458948,0.0,0.002540339482948184,0.7840373516082764,0.0,-0.009617611765861511,0.778142511844635,0.0,0.01772892102599144
370.0,366.0,0.6826,0.2435,9.5073,-0.0365,0.0238,-0.1182,-1.5964013538756312,0.0,2.2068145275115967,-1.8660904169082642,-0.0,2.0976922512054443,4.865894230991163,-0.0,0.2861630916595459,-1.597285572682516,0.0,0.002540889661759138,0.7840373516082764,0.0,0.0037008796352893114,0.7781544327735901,0.0,-0.010446986183524132
370.0,366.0,0.6826,0.2435,9.5073,-0.0365,0.0238,-0.1182,-1.5963770351805628,0.0,2.1849513053894043,-1.866075038909912,-0.0,2.056800365447998,4.865954759507932,-0.0,0.2912471294403076,-1.5973299185382288,0.0,-0.013723397627472878,0.7840529084205627,0.0,-0.0020801762584596872,0.7781462669372559,0.0,-0.07282669097185135
370.0,366.0,0.6826,0.2435,9.5073,-0.0365,0.0238,-0.1182,-1.5963770351805628,0.0,2.1823248863220215,-1.8661513328552246,-0.0,2.1262423992156982,4.865926492005148,-0.0,0.2958812117576599,-1.5973098913775843,0.0,-0.0009728358127176762,0.7840290665626526,0.0,-0.006840449757874012,0.7781384587287903,0.0,-0.01636451482772827
370.0,366.0,0.6826,0.2435,9.5073,-0.0365,0.0238,-0.1182,-1.596429010430807,0.0,2.2221508026123047,-1.866058111190796,-0.0,2.1614482402801514,4.865926492005148,-0.0,0.29005101323127747,-1.59731370607485,0.0,-0.005349954590201378,0.7839849591255188,0.0,-0.006540033034980297,0.7781544327735901,0.0,-0.043200936168432236
370.0,366.0,0.6826,0.2435,9.5073,-0.0365,0.0238,-0.1182,-1.5964333019652308,0.0,2.230727434158325,-1.8660948276519775,-0.0,2.0807337760925293,4.865914362459936,-0.0,0.29413101077079773,-1.5973380247699183,0.0,-0.001616031164303422,0.7840492725372314,0.0,-0.001895928755402565,0.7781343460083008,0.0,0.004271719604730606
370.0,366.0,0.6826,0.2435,9.5073,-0.0365,0.0238,-0.1182,-1.5963689289488734,0.0,2.17461895942688,-1.8661229610443115,-0.0,2.1189541816711426,4.865898358612814,-0.0,0.2961169183254242,-1.5973337332354944,0.0,-0.018792083486914635,0.7840570211410522,0.0,-0.003953267820179462,0.7781222462654114,0.0,-0.02359633706510067
370.0,366.0,0.6826,0.2435,9.5073,-0.0365,0.0238,-0.1182,-1.5964089832701625,0.0,2.185964822769165,-1.8660866022109985,-0.0,2.1134185791015625,4.8659706739480875,-0.0,0.2937619090080261,-1.5972774664508265,0.0,-0.0036139008589088917,0.784029483795166,0.0,0.002837086096405983,0.7781383991241455,0.0,-0.0010281717404723167
370.0,366.0,0.6826,0.2435,9.5073,-0.0365,0.0238,-0.1182,-1.5964333019652308,0.0,2.2293777465820312,-1.8660861253738403,-0.0,2.107041597366333,4.865934344917097,-0.0,0.29068055748939514,-1.5973218123065394,0.0,0.0027968790382146835,0.7840774655342102,0.0,-0.0007987613789737225,0.778154194355011,0.0,0.005325626116245985
370.0,366.0,0.6826,0.2435,9.5073,-0.0365,0.0238,-0.1182,-1.596377512017721,0.0,2.187655210494995,-1.8661549091339111,-0.0,2.145495891571045,4.865954655199804,-0.0,0.28774672746658325,-1.5973017851458948,0.0,-0.003511263057589531,0.7840692400932312,0.0,-0.009424884803593159,0.7781503796577454,0.0,0.0077018761076033115
370.0,366.0,0.6826,0.2435,9.5073,-0.0365,0.0238,-0.1182,-1.5964371166624964,0.0,2.1948118209838867,-1.8660669326782227,-0.0,2.114036798477173,4.865930679231443,-0.0,0.28615516424179077,-1.5972817579852503,0.0,-0.005290619097650051,0.7840291857719421,0.0,0.0014067105948925018,0.7781543731689453,0.0,0.0073389699682593346
370.0,366.0,0.6826,0.2435,9.5073,-0.0365,0.0238,-0.1182,-1.5963970623412074,0.0,2.1893222332000732,-1.8660988807678223,-0.0,2.1038148403167725,4.865918370872297,-0.0,0.29331448674201965,-1.597309414540426,0.0,-0.002146814949810505,0.7839967608451843,0.0,0.0028724451549351215,0.7781141400337219,0.0,0.013050252571702003
370.0,366.0,0.6826,0.2435,9.5073,-0.0365,0.0238,-0.1182,-1.5963927708067835,0.0,2.21712327003479,-1.8660988807678223,-0.0,2.0822720527648926,4.865874174028196,-0.0,0.2862624526023865,-1.5973179976092737,0.0,-0.010013921186327934,0.7840614318847656,0.0,-0.0039493367075920105,0.7781384587287903,0.0,-0.028715776279568672
373.0,352.0,0.6897,0.2578,9.4714,-0.0347,0.0231,-0.118,-1.5964013538756312,0.0,2.2127652168273926,-1.8660669326782227,-0.0,2.1118857860565186,4.865974682360449,-0.0,0.28575074672698975,-1.597309414540426,0.0,-0.008103538304567337,0.7840172648429871,0.0,-0.006839047651737928,0.7781384587287903,0.0,0.06880299746990204
373.0,352.0,0.6897,0.2578,9.4714,-0.0347,0.0231,-0.118,-1.5963732204832972,0.0,2.206939220428467,-1.8661227226257324,-0.0,2.1118485927581787,4.865934359818258,-0.0,0.28224366903305054,-1.5973213354693812,0.0,-0.011405962519347668,0.7841057777404785,0.0,-0.001964240800589323,0.7781664729118347,0.0,-0.015905089676380157
373.0,352.0,0.6897,0.2578,9.4714,-0.0347,0.0231,-0.118,-1.5963970623412074,0.0,2.2061140537261963,-1.8661069869995117,-0.0,2.094956398010254,4.865926492005148,-0.0,0.2849142849445343,-1.597330395375387,0.0,-0.003546828171238303,0.7840172648429871,0.0,-0.007051588036119938,0.7781500816345215,0.0,-0.028287209570407867
373.0,352.0,0.6897,0.2578,9.4714,-0.0347,0.0231,-0.118,-1.596412797967428,0.0,2.2058136463165283,-1.8661308288574219,-0.0,2.0748722553253174,4.865930619626798,-0.0,0.2906186282634735,-1.597297493611471,0.0,-0.008328478783369064,0.7840653657913208,0.0,0.0018018435221165419,0.7781141400337219,0.0,0.002653705421835184
373.0,352.0,0.6897,0.2578,9.4714,-0.0347,0.0231,-0.118,-1.59635653118276,0.0,2.2189385890960693,-1.8661060333251953,-0.0,2.0815277099609375,4.865930306702413,-0.0,0.2917420268058777,-1.5973380247699183,0.0,0.003475524950772524,0.7840774059295654,0.0,-0.009601841680705547,0.7780900001525879,0.0,-0.010417903773486614
373.0,352.0,0.6897,0.2578,9.4714,-0.0347,0.0231,-0.118,-1.5963689289488734,0.0,2.26257586479187,-1.8660948276519775,-0.0,2.116443634033203,4.865962523012914,-0.0,0.2890413701534271,-1.5973017851458948,0.0,-0.02049851045012474,0.7840454578399658,0.0,0.0006585863884538412,0.7781988382339478,0.0,-0.019395414739847183
373.0,352.0,0.6897,0.2578,9.4714,-0.0347,0.0231,-0.118,-1.596412797967428,0.0,2.2146999835968018,-1.8660751581192017,-0.0,2.093842029571533,4.8659865883882425,-0.0,0.30041560530662537,-1.5973299185382288,0.0,-0.019197681918740273,0.7840049862861633,0.0,-0.00790078192949295,0.7781664729118347,0.0,0.002209852449595928
373.0,352.0,0.6897,0.2578,9.4714,-0.0347,0.0231,-0.118,-1.5964490375914515,0.0,2.187244176864624,-1.8661144971847534,-0.0,2.0952656269073486,4.865954386978903,-0.0,0.2844119071960449,-1.59731370607485,0.0,-0.006385968532413244,0.7840492725372314,0.0,-0.0036245007067918777,0.778130292892456,0.0,-0.016978241503238678
373.0,352.0,0.6897,0.2578,9.4714,-0.0347,0.0231,-0.118,-1.5963851414122523,0.0,2.1793179512023926,-1.8661473989486694,-0.0,2.1154587268829346,4.86594249585227,-0.0,0.2922773063182831,-1.597309414540426,0.0,-0.00892407726496458,0.784061074256897,0.0,-0.004579008556902409,0.778154194355011,0.0,0.017323236912488937
373.0,352.0,0.6897,0.2578,9.4714,-0.0347,0.0231,-0.118,-1.5963732204832972,0.0,2.194316864013672,-1.8660874366760254,-0.0,2.0896215438842773,4.865922066360273,-0.0,0.2919069528579712,-1.5973580519305628,0.0,0.0019277047831565142,0.7840734124183655,0.0,0.007675322704017162,0.778154194355011,0.0,-0.011992372572422028
373.0,352.0,0.6897,0.2578,9.4714,-0.0347,0.0231,-0.118,-1.5963808498778285,0.0,2.2005271911621094,-1.8660866022109985,-0.0,2.1377179622650146,4.865918385773458,-0.0,0.27992314100265503,-1.597309414540426,0.0,-0.0023170700296759605,0.784069299697876,0.0,-0.0026584984734654427,0.7781583070755005,0.0,0.0028217188082635403
373.0,352.0,0.6897,0.2578,9.4714,-0.0347,0.0231,-0.118,-1.5964251957335414,0.0,2.206831216812134,-1.8661185503005981,-0.0,2.0925989151000977,4.8659303216035745,-0.0,0.2956387996673584,-1.5973055998431605,0.0,-0.020062321797013283,0.7840409874916077,0.0,-0.00547284260392189,0.7781261801719666,0.0,-0.003462183754891157
373.0,352.0,0.6897,0.2578,9.4714,-0.0347,0.0231,-0.118,-1.5964414081969203,0.0,2.2236242294311523,-1.8660709857940674,-0.0,2.1015920639038086,4.865922453790464,-0.0,0.28242701292037964,-1.5973213354693812,0.0,-0.014887966215610504,0.7840975522994995,0.0,-0.003320414572954178,0.7781785726547241,0.0,0.033269450068473816
373.0,352.0,0.6897,0.2578,9.4714,-0.0347,0.0231,-0.118,-1.5964051685728968,0.0,2.2418060302734375,-1.8661309480667114,-0.0,2.1214466094970703,4.865942451148786,-0.0,0.29703450202941895,-1.597309414540426,0.0,-0.0016685420414432883,0.7841057181358337,0.0,-0.0014700230676680803,0.7781384587287903,0.0,0.01942402869462967
373.0,352.0,0.6897,0.2578,9.4714,-0.0347,0.0231,-0.118,-1.5964051685728968,0.0,2.1739652156829834,-1.8660948276519775,-0.0,2.122007131576538,4.865898358612814,-0.0,0.2943061888217926,-1.5973299185382288,0.0,-0.009970862418413162,0.7839890122413635,0.0,-0.014455118216574192,0.7781462669372559,0.0,0.017485611140727997
373.0,352.0,0.6897,0.2578,9.4714,-0.0347,0.0231,-0.118,-1.5963851414122523,0.0,2.2438251972198486,-1.8661562204360962,-0.0,2.090214967727661,4.865946265846052,-0.0,0.2904617190361023,-1.597325627003805,0.0,0.0008677267469465733,0.784061074256897,0.0,-0.004637999460101128,0.77816241979599,0.0,-0.034731995314359665
373.0,352.0,0.6897,0.2578,9.4714,-0.0347,0.0231,-0.118,-1.5963970623412074,0.0,2.1912965774536133,-1.8661227226257324,-0.0,2.089099168777466,4.865914645581999,-0.0,0.29174649715423584,-1.5973299185382288,0.0,-0.0012745284475386143,0.7840774059295654,0.0,0.0046529462561011314,0.7782191038131714,0.0,-0.03814733773469925
373.0,352.0,0.6897,0.2578,9.4714,-0.0347,0.0231,-0.118,-1.5964051685728968,0.0,2.212791681289673,-1.8660948276519775,-0.0,2.115324020385742,4.865906464844503,-0.0,0.2812275290489197,-1.5973461310016077,0.0,-0.012009166181087494,0.7840332388877869,0.0,0.007791459094733,0.7781503200531006,0.0,0.039684396237134933
373.0,352.0,0.6897,0.2578,9.4714,-0.0347,0.0231,-0.118,-1.5963927708067835,0.0,2.2172272205352783,-1.8661185503005981,-0.0,2.1028339862823486,4.865914317756452,-0.0,0.2934073209762573,-1.59731370607485,0.0,0.0023627295158803463,0.7840172648429871,0.0,0.013416733592748642,0.7781261801719666,0.0,-0.013702969998121262
373.0,352.0,0.6897,0.2578,9.4714,-0.0347,0.0231,-0.118,-1.5963484249510707,0.0,2.1764626502990723,-1.8661227226257324,-0.0,2.1099071502685547,4.8659424660499475,-0.0,0.2916319668292999,-1.5973380247699183,0.0,-0.01567847467958927,0.7840369343757629,0.0,-0.009752239100635052,0.7781421542167664,0.0,-0.009678908623754978
364.0,363.0,0.5731,0.2614,9.5767,-0.0226,0.018,-0.1208,-1.5963970623412074,0.0,2.2178499698638916,-1.8661186695098877,-0.0,2.133286237716675,4.865990701108732,-0.0,0.2771052420139313,-1.5972936789142054,0.0,0.0025507851969450712,0.7840492725372314,0.0,-0.003678543958812952,0.7781220078468323,0.0,0.03782614693045616
364.0,363.0,0.5731,0.2614,9.5767,-0.0226,0.018,-0.1208,-1.5963770351805628,0.0,2.19014835357666,-1.8660866022109985,-0.0,2.098982810974121,4.865910503059187,-0.0,0.29434436559677124,-1.5973213354693812,0.0,-0.014172631315886974,0.7840816378593445,0.0,-0.0014359503984451294,0.7781503200531006,0.0,-0.020946577191352844
364.0,363.0,0.5731,0.2614,9.5767,-0.0226,0.018,-0.1208,-1.5964089832701625,0.0,2.1952829360961914,-1.8661186695098877,-0.0,2.143792152404785,4.865946593671598,-0.0,0.29017722606658936,-1.5972936789142054,0.0,0.0007679795380681753,0.784101665019989,0.0,0.006203898694366217,0.7781220078468323,0.0,0.022953426465392113
364.0,363.0,0.5731,0.2614,9.5767,-0.0226,0.018,-0.1208,-1.5963970623412074,0.0,2.1983251571655273,-1.866071105003357,-0.0,2.1136622428894043,4.8659143326576135,-0.0,0.31019413471221924,-1.5972936789142054,0.0,-0.0055345939472317696,0.7840492725372314,0.0,0.002384837716817856,0.7781947255134583,0.0,0.024899842217564583
364.0,363.0,0.5731,0.2614,9.5767,-0.0226,0.018,-0.1208,-1.5963651142516078,0.0,2.2210206985473633,-1.8661103248596191,-0.0,2.099539041519165,4.86596671023921,-0.0,0.2944684624671936,-1.5973299185382288,0.0,0.006302156485617161,0.7840410470962524,0.0,0.0060493783093988895,0.7781544327735901,0.0,-0.025860924273729324
364.0,363.0,0.5731,0.2614,9.5767,-0.0226,0.018,-0.1208,-1.5963851414122523,0.0,2.1935982704162598,-1.866094708442688,-0.0,2.0448379516601562,4.865978541761198,-0.0,0.2794421315193176,-1.5973461310016077,0.0,-0.004288475960493088,0.7840611934661865,0.0,-0.007074818946421146,0.7781664729118347,0.0,-0.031633950769901276
364.0,363.0,0.5731,0.2614,9.5767,-0.0226,0.018,-0.1208,-1.596377512017721,0.0,2.248671293258667,-1.8660988807678223,-0.0,2.1438231468200684,4.865970718651571,-0.0,0.28946027159690857,-1.5972736517535608,0.0,-0.015308847650885582,0.7840172648429871,0.0,0.00217750808224082,0.7781503200531006,0.0,-0.018129201605916023
364.0,363.0,0.5731,0.2614,9.5767,-0.0226,0.018,-0.1208,-1.5964251957335414,0.0,2.2296929359436035,-1.8661060333251953,-0.0,2.0975499153137207,4.865922468691625,-0.0,0.2801564335823059,-1.5972936789142054,0.0,-0.010218195617198944,0.7840774655342102,0.0,-0.0002747736871242523,0.7781063914299011,-3.7536485031353095e-10,0.04929490387439728
364.0,363.0,0.5731,0.2614,9.5767,-0.0226,0.018,-0.1208,-1.5963689289488734,0.0,2.1851768493652344,-1.866106390953064,-0.0,2.1194636821746826,4.865934359818258,-0.0,0.29505497217178345,-1.5973299185382288,0.0,-0.00997586827725172,0.7840369939804077,0.0,-0.012305252254009247,0.7781421542167664,-6.756434875552358e-14,-0.014672764576971531
364.0,363.0,0.5731,0.2614,9.5767,-0.0226,0.018,-0.1208,-1.5963732204832972,0.0,2.223682403564453,-1.8660906553268433,-0.0,2.141986608505249,4.8659143326576135,-0.0,0.30800479650497437,-1.59731370607485,0.0,-0.0017604150343686342,0.7840529084205627,0.0,-0.001490382943302393,0.7781141400337219,-1.2161342541833234e-17,0.010013903491199017
364.0,363.0,0.5731,0.2614,9.5767,-0.0226,0.018,-0.1208,-1.5963732204832972,0.0,2.22346830368042,-1.8660904169082642,-0.0,2.116692066192627,4.865902381926336,-0.0,0.29137086868286133,-1.5972936789142054,0.0,-0.02151351235806942,0.7840290069580078,0.0,-0.004234752152115107,0.7780981063842773,-2.936821233965993e-23,0.03297572582960129
364.0,363.0,0.5731,0.2614,9.5767,-0.0226,0.018,-0.1208,-1.596360822717184,0.0,2.2019033432006836,-1.8661227226257324,-0.0,2.0698065757751465,4.8659424660499475,-0.0,0.29327309131622314,-1.5973060766803187,0.0,-0.018086863681674004,0.7840979099273682,0.0,-0.014433292672038078,0.7781222462654114,-5.286175029627477e-27,0.010395025834441185
364.0,363.0,0.5731,0.2614,9.5767,-0.0226,0.018,-0.1208,-1.596388956109518,0.0,2.2156577110290527,-1.8661061525344849,-0.0,2.112234354019165,4.865926506906309,-0.0,0.2918977737426758,-1.5972774664508265,0.0,-0.012426478788256645,0.7840130925178528,0.0,0.0012039479333907366,0.7781705856323242,-9.51492899645977e-31,0.017909150570631027
364.0,363.0,0.5731,0.2614,9.5767,-0.0226,0.018,-0.1208,-1.5964371166624964,0.0,2.2219624519348145,-1.8660914897918701,-0.0,2.060823917388916,4.865922438889303,-0.0,0.286230206489563,-1.59731370607485,0.0,-0.0028079578187316656,0.7841020226478577,0.0,0.00610075518488884,0.7781381011009216,-2.297743485422911e-36,0.018804993480443954
364.0,363.0,0.5731,0.2614,9.5767,-0.0226,0.018,-0.1208,-1.5963851414122523,0.0,2.2049472332000732,-1.8661103248596191,-0.0,2.1341652870178223,4.865878227144041,-0.0,0.28428664803504944,-1.5973299185382288,0.0,-0.008953679352998734,0.7840614914894104,0.0,-0.011373994871973991,0.7781422138214111,-4.135862352531481e-40,0.005680091679096222
364.0,363.0,0.5731,0.2614,9.5767,-0.0226,0.018,-0.1208,-1.5963851414122523,0.0,2.2446937561035156,-1.8660825490951538,-0.0,2.082784414291382,4.865858170181074,-0.0,0.30208975076675415,-1.5973060766803187,0.0,-0.010644782334566116,0.7840734124183655,0.0,-0.0029789546970278025,0.7781058549880981,-7.42688186092153e-44,0.03284912928938866
364.0,363.0,0.5731,0.2614,9.5767,-0.0226,0.018,-0.1208,-1.5963970623412074,0.0,2.23699951171875,-1.8661270141601562,-0.0,2.0999643802642822,4.865930917650022,-0.0,0.2870253622531891,-1.5973299185382288,0.0,-0.01794682815670967,0.7840450406074524,0.0,-0.004963355604559183,0.7781181931495667,0.0,0.011492155492305756
364.0,363.0,0.5731,0.2614,9.5767,-0.0226,0.018,-0.1208,-1.5963927708067835,0.0,2.2219529151916504,-1.8661350011825562,-0.0,2.0810017585754395,4.865934672742643,-0.0,0.297484427690506,-1.5972936789142054,0.0,-0.009788800030946732,0.7840414047241211,0.0,-0.008931489661335945,0.7781380414962769,0.0,-0.013427904807031155
364.0,363.0,0.5731,0.2614,9.5767,-0.0226,0.018,-0.1208,-1.5963689289488734,0.0,2.169857978820801,-1.866147756576538,-0.0,2.096642017364502,4.865898358612814,-0.0,0.29221728444099426,-1.5973175207721155,0.0,-0.00013049255358055234,0.7840614914894104,0.0,-0.0005881341639906168,0.7781746983528137,0.0,0.008448843844234943
371.0,357.0,0.6281,0.4241,9.2985,-0.035,0.029,-0.1127,-1.596360822717184,0.0,2.1971755027770996,-1.8661519289016724,-0.0,2.119436264038086,4.86591466048316,-0.0,0.2886032462120056,-1.5972936789142054,0.0,-0.008586248382925987,0.784069299697876,0.0,0.0027583595365285873,0.7781021595001221,0.0,-0.030601877719163895
371.0,357.0,0.6281,0.4241,9.2985,-0.035,0.029,-0.1127,-1.5963570080199183,0.0,2.22524094581604,-1.8661227226257324,-0.0,2.1110384464263916,4.865946638375082,-0.0,0.29133516550064087,-1.597309414540426,0.0,-0.004455992020666599,0.784069299697876,0.0,-0.006416772957891226,0.7782029509544373,0.0,0.02487359754741192
371.0,357.0,0.6281,0.4241,9.2985,-0.035,0.029,-0.1127,-1.5964132748045863,0.0,2.2240419387817383,-1.8661465644836426,-0.0,2.0915846824645996,4.865934717446127,-0.0,0.29880857467651367,-1.597309414540426,0.0,-0.006420842371881008,0.784029483795166,0.0,-0.00533918384462595,0.7781099677085876,0.0,-0.005736430175602436
371.0,357.0,0.6281,0.4241,9.2985,-0.035,0.029,-0.1127,-1.5964013538756312,0.0,2.214921712875366,-1.8661435842514038,-0.0,2.151115894317627,4.8659024117286584,-0.0,0.2788599729537964,-1.5972898642169397,0.0,-0.0071365712210536,0.7840734124183655,0.0,-0.009106121957302094,0.7781462669372559,0.0,0.026842987164855003
371.0,357.0,0.6281,0.4241,9.2985,-0.035,0.029,-0.1127,-1.5963970623412074,0.0,2.196331024169922,-1.866101861000061,-0.0,2.116513967514038,4.865926492005148,-0.0,0.2896515130996704,-1.5973017851458948,0.0,-0.0098760686814785,0.7840652465820312,0.0,0.0018057466950267553,0.7781141400337219,0.0,-0.0063905795104801655
371.0,357.0,0.6281,0.4241,9.2985,-0.035,0.029,-0.1127,-1.5964209041991175,0.0,2.2113704681396484,-1.8661061525344849,-0.0,2.095838785171509,4.86591466048316,-0.0,0.2785024642944336,-1.5972936789142054,0.0,-0.018601153045892715,0.7840290665626526,0.0,0.0035861018113791943,0.7781665325164795,0.0,0.02060578390955925
371.0,357.0,0.6281,0.4241,9.2985,-0.035,0.029,-0.1127,-1.5963851414122523,-5.1416598978448746e-08,2.177551507949829,-1.8661311864852905,-0.0,2.0880467891693115,4.865882384568014,-0.0,0.27458661794662476,-1.597325627003805,0.0,-0.0025442487094551325,0.7840332388877869,0.0,-0.014280934818089008,0.7781584858894348,0.0,-0.006928938440978527
371.0,357.0,0.6281,0.4241,9.2985,-0.035,0.029,-0.1127,-1.5963403187193812,-1.241650147499121e-13,2.247675895690918,-1.8661061525344849,-0.0,2.1453752517700195,4.865950706392088,-0.0,0.2758996784687042,-1.5973299185382288,0.0,-0.014950948767364025,0.784141480922699,0.0,0.002186054363846779,0.7781544327735901,0.0,-0.02921724133193493
371.0,357.0,0.6281,0.4241,9.2985,-0.035,0.029,-0.1127,-1.596400877038473,-2.234926375268646e-17,2.2173943519592285,-1.8661956787109375,-0.0,2.090066909790039,4.865918728500166,-0.0,0.3010078966617584,-1.5973013083087366,0.0,-0.0050657447427511215,0.7840734124183655,0.0,-0.005256074946373701,0.7781544327735901,-9.593791764928028e-05,0.03738759458065033
371.0,357.0,0.6281,0.4241,9.2985,-0.035,0.029,-0.1127,-1.5964371166624964,-4.022788537379213e-21,2.231200695037842,-1.8661473989486694,-0.0,2.11913800239563,4.865834417730131,-0.0,0.30166491866111755,-1.597309414540426,0.0,-0.00807337649166584,0.7840369343757629,0.0,-0.0029204734601080418,0.7781500220298767,-4.6220655349316075e-05,0.027127832174301147
371.0,357.0,0.6281,0.4241,9.2985,-0.035,0.029,-0.1127,-1.5964371166624964,-0.00045836647041141987,2.18148136138916,-1.8661390542984009,-0.0,2.095221519470215,4.865923213749685,-0.0,0.2837446928024292,-1.5973213354693812,0.0,-0.0011072158813476562,0.7840652465820312,0.0,0.004062460735440254,0.7781544327735901,-3.867844498017803e-05,0.035735808312892914
371.0,357.0,0.6281,0.4241,9.2985,-0.035,0.029,-0.1127,-1.596412797967428,-0.0004802193434443325,2.234936475753784,-1.8661103248596191,-0.0,2.0539355278015137,4.865866037994184,-0.0,0.2875193953514099,-1.5973299185382288,0.0,-0.015911590307950974,0.7840130925178528,0.0,-0.010659543797373772,0.7781379818916321,-3.561691119102761e-05,0.010595499537885189
371.0,357.0,0.6281,0.4241,9.2985,-0.035,0.029,-0.1127,-1.5964251957335414,-0.000476965302368626,2.19466495513916,-1.8660906553268433,-0.0,2.110625982284546,4.865866410523214,-0.0,0.297821581363678,-1.5973179976092737,0.0,-0.004872143734246492,0.7840856909751892,0.0,0.0020242894534021616,0.7781100273132324,-3.894269866577815e-06,-0.017678752541542053
371.0,357.0,0.6281,0.4241,9.2985,-0.035,0.029,-0.1127,-1.5964609585204066,-0.0005202812608331442,2.2308363914489746,-1.8660626411437988,-0.0,2.132192850112915,4.865846472769537,-0.0004092552699148655,0.2916349768638611,-1.5973299185382288,0.0,-0.012113550677895546,0.7841374278068542,0.0,-0.007792417425662279,0.7781865000724792,-9.404205712770786e-12,0.03641378507018089
371.0,357.0,0.6281,0.4241,9.2985,-0.035,0.029,-0.1127,-1.5964528522887171,-0.00042253403807990253,2.2044618129730225,-1.866066575050354,-0.0,2.0673835277557373,4.865874516754904,-0.0003469552320893854,0.28106534481048584,-1.5972731749164026,0.0,-0.001965976320207119,0.7840693593025208,0.0,0.007065664045512676,0.7781703472137451,-1.6927236649245578e-15,4.0582846850156784e-05
371.0,357.0,0.6281,0.4241,9.2985,-0.035,0.029,-0.1127,-1.5964976749815882,-0.00035570960608311,2.1784169673919678,-1.8661103248596191,-0.0,2.040943145751953,4.865858527808943,-0.0003005746693816036,0.2826584279537201,-1.5973017851458948,0.0,-0.002362326020374894,0.7840573787689209,0.0,-0.002871147356927395,0.7781298160552979,-3.0468427551445334e-19,0.00033945683389902115
371.0,357.0,0.6281,0.4241,9.2985,-0.035,0.029,-0.1127,-1.5964652500548304,-0.0003251254092901945,2.181471824645996,-1.8661030530929565,-0.0,2.1014957427978516,4.865854206472196,-0.0002503781288396567,0.3002133071422577,-1.59731370607485,0.0,-0.010683270171284676,0.7840050458908081,0.0,0.013533294200897217,0.7781703472137451,-7.3577658136404e-25,0.0033020428381860256
371.0,357.0,0.6281,0.4241,9.2985,-0.035,0.029,-0.1127,-1.5964285335936488,-0.0003392958897165954,2.241054058074951,-1.8660624027252197,-0.0,2.079273223876953,4.865874516754904,-0.0002252978883916512,0.28497013449668884,-1.5973785559283655,0.0,-0.024975193664431572,0.7840652465820312,0.0,-0.0038820342160761356,0.7781865000724792,-1.324371985530202e-28,-0.0008407304994761944
371.0,357.0,0.6281,0.4241,9.2985,-0.035,0.029,-0.1127,-1.5964447460570277,-0.00032717586145736277,2.1989598274230957,-1.8661224842071533,-0.0,2.0958151817321777,4.86591054776267,-0.0001958706707227975,0.2898388206958771,-1.59731370607485,0.0,-0.0048603187315166,0.7840732932090759,0.0,-0.0031147226691246033,0.77816241979599,-3.198202607359478e-34,0.005561369936913252
371.0,357.0,0.6281,0.4241,9.2985,-0.035,0.029,-0.1127,-1.5964371166624964,-0.0003813109069596976,2.266864061355591,-1.8660832643508911,-0.0,2.1020736694335938,4.865858393698492,-0.00018018185801338404,0.2907010316848755,-1.5973504225360315,0.0,-0.015024175867438316,0.7840774059295654,0.0,0.004856701008975506,0.778203010559082,-5.756651239997966e-38,-0.0412115678191185
369.0,353.0,0.3655,0.1986,9.3619,-0.0359,0.0218,-0.1203,-1.596457143823141,-0.001234380528330803,2.2187867164611816,-1.8661268949508667,-0.0,2.114353895187378,4.86590256074027,-0.00016682034765835851,0.2872917056083679,-1.597285572682516,0.0,-0.014990502968430519,0.7840934991836548,0.0,-0.008414770476520061,0.7781662344932556,-1.0361200845217697e-41,0.032426800578832626
369.0,353.0,0.3655,0.1986,9.3619,-0.0359,0.0218,-0.1203,-1.5964890919127406,-0.002517118351534009,2.2329659461975098,-1.8661350011825562,-0.0,2.107288122177124,4.865870314627447,-0.00015012231597211212,0.29036009311676025,-1.597297493611471,0.0,-0.010791253298521042,0.7840933799743652,0.0,0.005412200465798378,0.7782026529312134,-0.0,-0.0025741802528500557
369.0,353.0,0.3655,0.1986,9.3619,-0.0359,0.0218,-0.1203,-1.5964728794493617,-0.0031277816742658615,2.260366916656494,-1.8661267757415771,-0.0,2.0736589431762695,4.8659231690462015,-0.00014073160127736628,0.28726333379745483,-1.59731370607485,0.0,-0.014597207307815552,0.7841053009033203,0.0,0.005630935542285442,0.7781703472137451,0.0,0.04057391732931137
369.0,353.0,0.3655,0.1986,9.3619,-0.0359,0.0218,-0.1203,-1.5964809856810511,-0.004420897923409939,2.220141887664795,-1.8661143779754639,-0.0,2.109924793243408,4.865866097598829,-0.0001324464683420956,0.28898707032203674,-1.5972774664508265,0.0,0.009300829842686653,0.7840774059295654,0.0,0.005415360908955336,0.7782267332077026,0.0,-0.015692204236984253
369.0,353.0,0.3655,0.1986,9.3619,-0.0359,0.0218,-0.1203,-1.596553464929098,-0.00484178401529789,2.1922874450683594,-1.8661143779754639,-0.0,2.055936813354492,4.86586186566905,-0.00012169991532573476,0.2951256036758423,-1.597370449696676,0.0,-0.007898242212831974,0.7840933799743652,0.0,-0.0022753202356398106,0.7781944274902344,0.0,0.00750234629958868
369.0,353.0,0.3655,0.1986,9.3619,-0.0359,0.0218,-0.1203,-1.596536775628561,-0.005228111054748297,2.2161359786987305,-1.8660988807678223,-0.0,2.096531391143799,4.865870314627447,-0.00011545473535079509,0.28618091344833374,-1.5973299185382288,0.0,-0.006445890758186579,0.7840492725372314,0.0,0.002716843504458666,0.7781339287757874,0.0,-0.03150935471057892
369.0,353.0,0.3655,0.1986,9.3619,-0.0359,0.0218,-0.1203,-1.5966135464110316,-0.005280809011310339,2.223536968231201,-1.8661435842514038,-0.0,2.111506462097168,4.8659067181642435,-0.00010720291902543977,0.29279908537864685,-1.597285572682516,0.0,0.0009495467529632151,0.7840652465820312,0.0,0.006829800084233284,0.7781782746315002,0.00014163109881337732,-0.020714448764920235
369.0,353.0,0.3655,0.1986,9.3619,-0.0359,0.0218,-0.1203,-1.596616884271139,-0.005690506659448147,2.180234432220459,-1.8660988807678223,-0.0,2.093233108520508,4.865906777768888,-0.00010232717613689601,0.28554755449295044,-1.59731370607485,0.0,-0.0006168410181999207,0.784069299697876,0.0,-0.01170051097869873,0.7781823873519897,0.00013721302093472332,0.0640367716550827
369.0,353.0,0.3655,0.1986,9.3619,-0.0359,0.0218,-0.1203,-1.596685071984762,-0.006206677760928869,2.215474843978882,-1.866062879562378,-0.0,2.0781972408294678,4.865898388415136,-9.78756943368353e-05,0.3039705753326416,-1.5973661581622522,0.0,-0.01620512455701828,0.784061074256897,0.0,0.0017797849141061306,0.7781865000724792,0.00015515035192947835,0.006454264745116234
369.0,353.0,0.3655,0.1986,9.3619,-0.0359,0.0218,-0.1203,-1.5967327557005824,-0.007663939148187637,2.199880361557007,-1.8660709857940674,-0.0,2.121751070022583,4.8659308878477,-9.188035619445145e-05,0.28610748052597046,-1.597309414540426,0.0,-0.0017469699960201979,0.7840290665626526,0.0,-0.010324398055672646,0.7782308459281921,0.00018954034021589905,0.00031825422775000334
369.0,353.0,0.3655,0.1986,9.3619,-0.0359,0.0218,-0.1203,-1.596764703790182,-0.008656494319438934,2.2047834396362305,-1.8661143779754639,-0.0,2.161775588989258,4.865894827037611,-7.517625635955483e-05,0.28613507747650146,-1.5972774664508265,0.0,-0.01050206832587719,0.7841333150863647,0.0,-0.0001671845093369484,0.7782026529312134,0.0001815135037759319,-0.02854808419942856
369.0,353.0,0.3655,0.1986,9.3619,-0.0359,0.0218,-0.1203,-1.5968052349486292,-0.00937990378588438,2.2176246643066406,-1.866050362586975,-0.0,2.100646734237671,4.86585000434474,-6.797364767407998e-05,0.2896009683609009,-1.5972774664508265,0.0,-0.017633046954870224,0.7840529084205627,0.0,-0.0004947627894580364,0.7782427668571472,0.0004462370998226106,0.0029120282270014286
369.0,353.0,0.3655,0.1986,9.3619,-0.0359,0.0218,-0.1203,-1.5968367062010707,-0.010190311819314957,2.165532350540161,-1.8660832643508911,-0.0,2.107689619064331,4.865894081979551,-6.431226938730106e-05,0.2871233820915222,-1.5973261038409632,0.0,-0.01036958210170269,0.7840652465820312,0.0,-0.0022178783547133207,0.7782349586486816,0.0004374234704300761,0.006042123306542635
369.0,353.0,0.3655,0.1986,9.3619,-0.0359,0.0218,-0.1203,-1.596861024896139,-0.010265487246215343,2.1963963508605957,-1.866102933883667,-0.0,2.1006901264190674,4.865890595107832,-6.209367711562663e-05,0.29179704189300537,-1.597297493611471,0.0,-0.016302945092320442,0.7840734124183655,0.0,4.233152139931917e-05,0.7782509922981262,0.00043902991455979645,0.021978000178933144
369.0,353.0,0.3655,0.1986,9.3619,-0.0359,0.0218,-0.1203,-1.5969449482359828,-0.010273152962327003,2.187195062637329,-1.8660669326782227,-0.0,2.1440224647521973,4.865886437683859,-6.002303780405782e-05,0.2908022403717041,-1.597297493611471,0.0,-0.009302251040935516,0.7841094136238098,0.0,-0.0020943726412951946,0.7781782746315002,0.00048235495341941714,-0.011108922772109509
369.0,353.0,0.3655,0.1986,9.3619,-0.0359,0.0218,-0.1203,-1.5969559154906214,-0.01125958189368248,2.193603992462158,-1.866111159324646,-0.0,2.106132745742798,4.8658983437116525,-5.717373642255552e-05,0.28960317373275757,-1.5972936789142054,0.0,-0.005471501033753157,0.7841176390647888,0.0,0.007523613981902599,0.7781903743743896,0.0003729863674379885,0.01839490234851837
369.0,353.0,0.3655,0.1986,9.3619,-0.0359,0.0218,-0.1203,-1.5970164738097132,-0.011936252936720848,2.202021598815918,-1.8660709857940674,-0.0,2.115572690963745,4.865914705186643,-1.6241547200479545e-05,0.29523754119873047,-1.5973337332354944,0.0,-0.023446034640073776,0.784032940864563,0.0,0.004717391915619373,0.7782185673713684,0.00038299738662317395,0.003680739551782608
369.0,353.0,0.3655,0.1986,9.3619,-0.0359,0.0218,-0.1203,-1.5971485577025355,-0.01441518496721983,2.198608875274658,-1.8661001920700073,-0.0,2.064274787902832,4.865877944021978,-1.5251945114869159e-05,0.2908388376235962,-1.597297493611471,0.0,-0.014954918995499611,0.7840852737426758,0.0,-0.003072250634431839,0.7782104015350342,0.0003688959404826164,0.03547527641057968
369.0,353.0,0.3655,0.1986,9.3619,-0.0359,0.0218,-0.1203,-1.597224851647848,-0.015471181832253933,2.2173469066619873,-1.8661144971847534,2.1464151359396055e-05,2.0666463375091553,4.86587047854022,-2.8524556910269894e-05,0.2905871570110321,-1.5973218123065394,0.0,-0.004450201988220215,0.7840332388877869,0.0,0.007380787283182144,0.7782267332077026,0.0003304273122921586,0.0090842479839921
357.0,357.0,0.9218,0.1735,9.8016,-0.0429,0.0107,-0.115,-1.597260137597555,-0.01661396212875843,2.1813149452209473,-1.8660260438919067,0.0003198549384251237,2.124635696411133,4.865894603520193,-2.856315222743433e-05,0.2858526110649109,-1.5972898642169397,0.0,-0.0079152537509799,0.7841057181358337,0.0,0.00478832982480526,0.7782344818115234,0.0002990541106555611,-0.06818482279777527
357.0,357.0,0.9218,0.1735,9.8016,-0.0429,0.0107,-0.115,-1.5973640880980433,-0.018776286393404007,2.1430084705352783,-1.866079330444336,0.0012439117999747396,2.0489652156829834,4.86589856722907,-5.4075273510534316e-05,0.2778761386871338,-1.5973218123065394,0.0,-0.012123613618314266,0.7840651869773865,0.0,-0.0032321226317435503,0.7781981229782104,0.00026177341351285577,-0.0065232375636696815
357.0,357.0,0.9218,0.1735,9.8016,-0.0429,0.0107,-0.115,-1.5974647007384242,-0.019351616501808167,2.1691386699676514,-1.8660426139831543,0.002093664836138487,2.094470739364624,4.865887108236112,-0.0003244025574531406,0.28860804438591003,-1.5973017851458948,0.0,-0.01675422117114067,0.7840774655342102,0.0,0.0018617367604747415,0.7782021760940552,0.00024168717209249735,0.013992104679346085
357.0,357.0,0.9218,0.1735,9.8016,-0.0429,0.0107,-0.115,-1.59751619915151,-0.018943453207612038,2.1891980171203613,-1.8660107851028442,0.0027760323137044907,2.081536293029785,4.8658106354768655,-0.0003701633249875158,0.28897061944007874,-1.5973017851458948,2.3494095557907713e-08,-0.0048055159859359264,0.7840410470962524,0.0,0.0010778643190860748,0.7782427072525024,0.00022446439834311604,0.014296770095825195
357.0,357.0,0.9218,0.1735,9.8016,-0.0429,0.0107,-0.115,-1.5976764164366664,-0.019804760813713074,2.1743359565734863,-1.8659826517105103,0.003717245999723673,2.110546588897705,4.865810888796606,-0.000382926722522825,0.27806004881858826,-1.5972822348224085,6.539667678912009e-12,-0.016762331128120422,0.7841135859489441,0.0,-0.0026730597019195557,0.7782509922981262,0.0002027880254900083,-0.015104904770851135
357.0,357.0,0.9218,0.1735,9.8016,-0.0429,0.0107,-0.115,-1.5977522335448207,-0.02040638029575348,2.183079481124878,-1.8660236597061157,0.0055925254710018635,2.0665202140808105,4.865810844093122,-0.0005002205725759268,0.28845590353012085,-1.5973380247699183,2.78796252848202e-14,-0.014149569906294346,0.7840815782546997,0.0,-0.00931753870099783,0.7781903147697449,0.00019052247807849199,-0.02404775470495224
357.0,357.0,0.9218,0.1735,9.8016,-0.0429,0.0107,-0.115,-1.597884317437643,-0.02112348936498165,2.1441333293914795,-1.8659298419952393,0.006686543580144644,2.10141658782959,4.865842970996656,-0.00042828707955777645,0.2838977575302124,-1.5972493330584925,7.760396748735692e-18,-0.0036865109577775,0.7841135859489441,0.0,-0.004945139866322279,0.7782386541366577,0.0001746749330777675,0.03168250247836113
357.0,357.0,0.9218,0.1735,9.8016,-0.0429,0.0107,-0.115,-1.5979482136168421,-0.021396080031991005,2.1741724014282227,-1.8659113645553589,0.007574754301458597,2.1123080253601074,4.865826833039083,-0.00039911712519824505,0.2864410877227783,-1.5973060766803187,3.3083786532700183e-20,-0.01483607292175293,0.7841053605079651,0.0,-0.013971919193863869,0.7781903743743896,0.000165497389389202,-0.01186351291835308
357.0,357.0,0.9218,0.1735,9.8016,-0.0429,0.0107,-0.115,-1.5980597935118617,-0.02219526655972004,2.1670689582824707,-1.8658833503723145,0.008186707273125648,2.130826950073242,4.865822765022077,-0.0004017403698526323,0.275304913520813,-1.5972941557513636,1.41041362634002e-22,0.0015266812406480312,0.7839844822883606,0.0,-0.010511806234717369,0.778251051902771,0.0001572362962178886,0.008654039353132248
357.0,357.0,0.9218,0.1735,9.8016,-0.0429,0.0107,-0.115,-1.5981551609435023,-0.022499315440654755,2.1087656021118164,-1.865847110748291,0.009968292899429798,2.0782957077026367,4.865810680180349,-0.0003400471177883446,0.2663288116455078,-1.5972698370562952,0.00026658744900487363,-0.00815178919583559,0.7840733528137207,0.0,-0.004012548364698887,0.7782387137413025,0.00014628346252720803,-0.05871940404176712
357.0,357.0,0.9218,0.1735,9.8016,-0.0429,0.0107,-0.115,-1.5982920132079066,-0.02188105694949627,2.129185438156128,-1.8657184839248657,0.010935747995972633,2.086081027984619,4.865806805878439,-0.00034773992956615984,0.28578436374664307,-1.5972941557513636,0.0002850810415111482,-0.0006149257533252239,0.7841094136238098,0.0,-0.0002510386984795332,0.7782185673713684,0.0001397915038978681,0.0002733874134719372
357.0,357.0,0.9218,0.1735,9.8016,-0.0429,0.0107,-0.115,-1.5983883343138636,-0.02094988524913788,2.126254081726074,-1.8656946420669556,0.012383947148919106,2.1684088706970215,4.865798446327009,-0.0003195894823875278,0.2796918451786041,-1.5972541014300745,0.00030245326342992485,0.006895757745951414,0.7840976119041443,0.0,-0.0020728681702166796,0.7782506942749023,0.00015288338181562722,-0.056770049035549164
357.0,357.0,0.9218,0.1735,9.8016,-0.0429,0.0107,-0.115,-1.5984837017455042,-0.018926702439785004,2.1311917304992676,-1.865598201751709,0.014591037295758724,2.1529481410980225,4.865810739784994,-0.0002573054807726294,0.2853964865207672,-1.5972655455218714,0.0005972322542220354,0.020028116181492805,0.7840369343757629,0.0,-0.004032941535115242,0.7782304286956787,0.00010873492283280939,-0.08087603747844696
357.0,357.0,0.9218,0.1735,9.8016,-0.0429,0.0107,-0.115,-1.5985633335509242,-0.01687464490532875,2.111424684524536,-1.8655747175216675,0.016397010535001755,2.1188812255859375,4.865847188025274,-0.00025037492741830647,0.2644151449203491,-1.5972417036639612,0.0005931986961513758,0.006071045994758606,0.7840533256530762,0.0,-0.0003342388663440943,0.7782708406448364,0.00012427584442775697,-0.07453161478042603
357.0,357.0,0.9218,0.1735,9.8016,-0.0429,0.0107,-0.115,-1.5986196003355921,-0.01564987376332283,2.1152091026306152,-1.8654751777648926,0.01814023032784462,2.143242835998535,4.865782665997305,-0.0002484165597707033,0.258371502161026,-1.5972583929644983,0.0005717301391996443,0.015561660751700401,0.7840976119041443,0.0,-0.0034153659362345934,0.7782062888145447,0.00015610047557856888,-0.09586141258478165
357.0,357.0,0.9218,0.1735,9.8016,-0.0429,0.0107,-0.115,-1.5986792049803675,-0.013538549654185772,2.117882013320923,-1.8653550148010254,0.020784925669431686,2.123749256134033,4.865835341602125,-0.00025471055414527655,0.2814016342163086,-1.5972779432879847,0.0006391990464180708,0.014967046678066254,0.7840529084205627,0.0,0.000485579133965075,0.7782666683197021,0.0006441330187954009,-0.0842687115073204
357.0,357.0,0.9218,0.1735,9.8016,-0.0429,0.0107,-0.115,-1.5987831554808558,-0.012602010741829872,2.1132724285125732,-1.8652783632278442,0.021987242624163628,2.1584901809692383,4.8658350733812235,-0.00023569037148263305,0.2645708918571472,-1.597245995198385,0.0006668207934126258,0.023224571719765663,0.7841012477874756,0.0,0.00339338555932045,0.7782383561134338,0.0006078293081372976,-0.14649726450443268
357.0,357.0,0.9218,0.1735,9.8016,-0.0429,0.0107,-0.115,-1.5988832912840785,-0.01093505509197712,2.0584280490875244,-1.8650977611541748,0.025645142421126366,2.137277364730835,4.8657788662012,-0.00024113271501846611,0.273649662733078,-1.5972374121295374,0.0006777800736017525,0.020754696801304817,0.7840290665626526,0.0,-0.0071664834395051,0.7782949209213257,0.0005387974670156837,-0.13693279027938843
357.0,357.0,0.9218,0.1735,9.8016,-0.0429,0.0107,-0.115,-1.5988794765868128,-0.0098104327917099,2.0950348377227783,-1.8650180101394653,0.027595600113272667,2.0976052284240723,4.865818413883009,-0.00022690540936309844,0.2619754672050476,-1.5972297827350062,0.0006529867532663047,0.02285032346844673,0.7840933799743652,0.0,0.007308917585760355,0.7782584428787231,0.0005038820090703666,-0.11911556124687195
357.0,357.0,0.9218,0.1735,9.8016,-0.0429,0.0107,-0.115,-1.598943372766012,-0.00855130236595869,2.10306978225708,-1.864874005317688,0.02960621751844883,2.103083610534668,4.865814912110128,-0.000213454375625588,0.26351064443588257,-1.5972498098956507,0.0007555223419331014,0.022246915847063065,0.7840733528137207,0.0,-0.021152855828404427,0.7782543897628784,0.00041167851304635406,-0.10643721371889114
354.0,351.0,0.6837,-0.5803,9.7944,-0.0641,0.0848,-0.1219,-1.5990478001036585,-0.0069543300196528435,2.0600485801696777,-1.8647427558898926,0.03328048437833786,2.1943109035491943,4.865835296898641,-0.00022821698803454638,0.25173407793045044,-1.597245995198385,0.0008305601659230888,0.02779821865260601,0.7840933799743652,0.0,-0.01048259250819683,0.7782062292098999,0.0003875888360198587,-0.15961597859859467
354.0,351.0,0.6837,-0.5803,9.7944,-0.0641,0.0848,-0.1219,-1.5990153751769007,-0.006560411304235458,2.0465126037597656,-1.864574909210205,0.03474024310708046,2.149099111557007,4.8657942591007135,-0.00022749298659618944,0.2476477324962616,-1.597222153340475,0.0009446406620554626,0.03479088842868805,0.7840815782546997,0.0,-0.012100533582270145,0.7782585024833679,0.00033893517684191465,-0.1240634173154831
354.0,351.0,0.6837,-0.5803,9.7944,-0.0641,0.0848,-0.1219,-1.599011083642477,-0.005976869259029627,2.0728888511657715,-1.8644462823867798,0.03679261356592178,2.1216940879821777,4.865806954890051,-0.00022761995205655694,0.24671992659568787,-1.59723407426943,0.0009681808296591043,0.03408031165599823,0.7840373516082764,0.0,-0.004705422557890415,0.7782623171806335,0.000301129010040313,-0.15688183903694153
354.0,351.0,0.6837,-0.5803,9.7944,-0.0641,0.0848,-0.1219,-1.5990711651244105,-0.00602689478546381,2.040717840194702,-1.8641254901885986,0.039495840668678284,2.121605634689331,4.865806954890051,-0.00023134591174311936,0.2485576719045639,-1.5971534887896937,0.0014338322216644883,0.035945288836956024,0.784101665019989,0.0,-0.004589317366480827,0.7781698107719421,0.00030095913098193705,-0.12711511552333832
354.0,351.0,0.6837,-0.5803,9.7944,-0.0641,0.0848,-0.1219,-1.5991112194456996,-0.005698990076780319,2.0683512687683105,-1.863998532295227,0.04193108528852463,2.142216205596924,4.865810724883833,-0.00021937675774097443,0.23993130028247833,-1.5971773306476038,0.0019469105172902346,0.03906429558992386,0.78409343957901,0.0,0.0019227562006562948,0.7782543897628784,0.00011488435848150402,-0.11371313035488129
354.0,351.0,0.6837,-0.5803,9.7944,-0.0641,0.0848,-0.1219,-1.5991064510741175,-0.00591210275888443,2.034881591796875,-1.8637187480926514,0.045281410217285156,2.1465206146240234,4.865754011064329,-0.00021255857427604496,0.2445710003376007,-1.5971816221820276,0.00562982028350234,0.026915129274129868,0.7840896844863892,0.0,-0.009241444990038872,0.7782705426216125,9.623442747397348e-05,-0.07108035683631897
354.0,351.0,0.6837,-0.5803,9.7944,-0.0641,0.0848,-0.1219,-1.5991507969298304,-0.005736557766795158,2.0136749744415283,-1.8635090589523315,0.047568079084157944,2.130156993865967,4.865770476847448,-0.00021348809241317213,0.23270085453987122,-1.5971139113055628,0.014268693514168262,0.05820179358124733,0.7841012477874756,0.0,0.0020733708515763283,0.7782623171806335,8.693778363522142e-05,-0.18960125744342804
354.0,351.0,0.6837,-0.5803,9.7944,-0.0641,0.0848,-0.1219,-1.5991550884642542,-0.005496439523994923,2.0207841396331787,-1.8633540868759155,0.04796506091952324,2.1549696922302246,4.8658432243163965,-0.00020159041741862893,0.2529635429382324,-1.5970657507525843,0.021831484511494637,0.045559898018836975,0.7840570211410522,0.0,0.005438169464468956,0.7782383561134338,7.927869592094794e-05,-0.15089602768421173
354.0,351.0,0.6837,-0.5803,9.7944,-0.0641,0.0848,-0.1219,-1.5991665325560511,-0.004942667670547962,1.9943289756774902,-1.8630588054656982,0.05055731534957886,2.169785261154175,4.865795033961096,-0.00021105824271216989,0.24098852276802063,-1.5969494024859827,0.017379801720380783,0.05324409902095795,0.7841135859489441,0.0,-0.004717890173196793,0.7782705426216125,3.64343541150447e-05,-0.18252426385879517
354.0,351.0,0.6837,-0.5803,9.7944,-0.0641,0.0848,-0.1219,-1.5992514095702113,-0.0042897486127913,1.9673740863800049,-1.8628661632537842,0.049449142068624496,2.1582322120666504,4.86583091595725,-0.00019298947881907225,0.2335616946220398,-1.5969179312335413,0.013874641619622707,0.05435124784708023,0.7840611338615417,0.0,0.0004052617587149143,0.7782502770423889,3.248534630984068e-05,-0.1896546185016632
354.0,351.0,0.6837,-0.5803,9.7944,-0.0641,0.0848,-0.1219,-1.5992309055724085,-0.0041206092573702335,2.0358519554138184,-1.8626619577407837,0.051196079701185226,2.1069698333740234,4.865802752762594,-0.0002120553981512785,0.2422393560409546,-1.5969098250018519,0.005011722445487976,0.04174356162548065,0.7840529084205627,0.0,-0.010924644768238068,0.7782344818115234,1.702531804426144e-08,-0.14613226056098938
354.0,351.0,0.6837,-0.5803,9.7944,-0.0641,0.0848,-0.1219,-1.599210878411764,-0.0032632851507514715,1.9873313903808594,-1.8623515367507935,0.055348560214042664,2.181307315826416,4.865790831833639,-0.00022032044944353402,0.24566523730754852,-1.596893612538473,0.00028407585341483355,0.05286652222275734,0.7840815782546997,0.0,-0.0063637299463152885,0.7782705426216125,4.111413900304006e-14,-0.15367761254310608
354.0,351.0,0.6837,-0.5803,9.7944,-0.0641,0.0848,-0.1219,-1.5992628536620082,-0.0032496736384928226,2.0060062408447266,-1.8620212078094482,0.05904929339885712,2.2065234184265137,4.865790831833639,-0.00020778529869858176,0.2367698848247528,-1.5968893210040491,0.0003013576497323811,0.05115995183587074,0.784061074256897,0.0,-0.01646442525088787,0.7782543897628784,7.400400301527101e-18,-0.15197715163230896
354.0,351.0,0.6837,-0.5803,9.7944,-0.0641,0.0848,-0.1219,-1.5993067226805628,-0.004018633160740137,1.9720726013183594,-1.8618590831756592,0.06457137316465378,2.2122578620910645,4.865778896003523,-0.00022182536486070603,0.21721160411834717,-1.5968859831439417,0.0002387211425229907,0.05315301567316055,0.7841094136238098,0.0,0.008021868765354156,0.7782222628593445,1.3320460383137025e-21,-0.21707269549369812
354.0,351.0,0.6837,-0.5803,9.7944,-0.0641,0.0848,-0.1219,-1.5993148289122523,-0.0057358271442353725,2.005610942840576,-1.8614717721939087,0.07285034656524658,2.1852128505706787,4.865783068328657,-0.00042972780647687614,0.2213129997253418,-1.5968697706805628,0.00017073263006750494,0.06398768723011017,0.7840774059295654,0.0,0.007839452475309372,0.7782021164894104,3.2167338376552433e-27,-0.2010769546031952
354.0,351.0,0.6837,-0.5803,9.7944,-0.0641,0.0848,-0.1219,-1.599330564538473,-0.006832962390035391,1.9817006587982178,-1.861183762550354,0.07852239161729813,2.190032482147217,4.865746575384893,-0.001113716047257185,0.22321084141731262,-1.5968816916095179,0.0001434828736819327,0.07063554227352142,0.7840856313705444,0.0,0.0006422981387004256,0.7782062292098999,5.790007921444154e-31,-0.23619070649147034
354.0,351.0,0.6837,-0.5803,9.7944,-0.0641,0.0848,-0.1219,-1.5994311771788539,-0.010829604230821133,1.9617695808410645,-1.860606074333191,0.08669323474168777,2.239440679550171,4.865791711002149,-0.0009605261730030179,0.24153132736682892,-1.596893612538473,0.00011577732220757753,0.08037036657333374,0.784069299697876,0.0,0.00389744620770216,0.7782021164894104,1.3982188362949643e-36,-0.24092385172843933
354.0,351.0,0.6837,-0.5803,9.7944,-0.0641,0.0848,-0.1219,-1.5994507275023402,-0.012103197164833546,1.9797087907791138,-1.8602100610733032,0.09302860498428345,2.1931276321411133,4.865787166147985,-0.000937370874453336,0.21904155611991882,-1.596877400075094,0.0001469422859372571,0.07119668275117874,0.7841012477874756,0.0,-0.003448278410360217,0.7782987356185913,2.5167460549120147e-40,-0.26328372955322266
354.0,351.0,0.6837,-0.5803,9.7944,-0.0641,0.0848,-0.1219,-1.599551340142721,-0.01399183738976717,1.9446067810058594,-1.8598874807357788,0.09848374873399734,2.2020339965820312,4.8657429096992395,-0.0008617964340373874,0.2290562242269516,-1.5968735853778284,0.00013808549556415528,0.07421007752418518,0.7840815782546997,0.0,-0.0009657463524490595,0.7782864570617676,4.484155085839415e-44,-0.21279621124267578
354.0,351.0,0.6837,-0.5803,9.7944,-0.0641,0.0848,-0.1219,-1.5995670757689417,-0.0163057092577219,1.9240643978118896,-1.8592214584350586,0.10590426623821259,2.221597909927368,4.8657551286514185,-0.0012232426088303328,0.22136609256267548,-1.5968979040728968,0.00011973465007031336,0.07517233490943909,0.7840652465820312,0.0,-0.002392204012721777,0.7782623171806335,0.0,-0.2357129156589508
379.0,354.0,0.4337,0.3595,9.2285,-0.0447,0.1345,-0.1257,-1.5996629200377406,-0.017988767474889755,1.9484460353851318,-1.858859658241272,0.11104518920183182,2.2249608039855957,4.8657225398118875,-0.0020700120367109776,0.2332886904478073,-1.596865479146139,0.00010997864592354745,0.06787814199924469,0.7840975522994995,0.0,0.0021517667919397354,0.7782905101776123,0.0,-0.2614525556564331
379.0,354.0,0.4337,0.3595,9.2285,-0.0447,0.1345,-0.1257,-1.5997630558409632,-0.019326101988554,1.9389073848724365,-1.858383059501648,0.11555087566375732,2.241482734680176,4.865735205798902,-0.0029212378431111574,0.22327828407287598,-1.5969141165362757,0.00013441586634144187,0.0670650452375412,0.7840652465820312,0.0,-0.0004404773935675621,0.7782905101776123,0.0,-0.20633482933044434
379.0,354.0,0.4337,0.3595,9.2285,-0.0447,0.1345,-0.1257,-1.5998622379698695,-0.02188577689230442,1.9246948957443237,-1.8575661182403564,0.1206044852733612,2.2494630813598633,4.865658405214109,-0.00963816698640585,0.21043694019317627,-1.5968416372882288,0.0001218224861077033,0.06684260815382004,0.7840975522994995,0.0,-0.004766987171024084,0.7783226370811462,0.0,-0.20122581720352173
379.0,354.0,0.4337,0.3595,9.2285,-0.0447,0.1345,-0.1257,-1.5999509296812953,-0.02447790652513504,1.9215649366378784,-1.8571313619613647,0.12363798916339874,2.2548935413360596,4.865631195693769,-0.016961056739091873,0.21316638588905334,-1.5969184080706995,0.00011409988655941561,0.07381561398506165,0.7841094136238098,0.0,0.006063179112970829,0.778314471244812,0.0010888659162446856,-0.23709487915039062
379.0,354.0,0.4337,0.3595,9.2285,-0.0447,0.1345,-0.1257,-1.6001340351500453,-0.027536576613783836,1.9279241561889648,-1.8563549518585205,0.13241590559482574,2.2714223861694336,4.865523400693693,-0.01725253462791443,0.19577282667160034,-1.5968859831439417,0.00010419194586575031,0.05770367383956909,0.7840771079063416,0.0,-0.002880711108446121,0.7783185839653015,0.0018167209345847368,-0.2397489845752716
379.0,354.0,0.4337,0.3595,9.2285,-0.0447,0.1345,-0.1257,-1.6001783810057582,-0.029473664239048958,1.9235060214996338,-1.8557947874069214,0.14077892899513245,2.2439510822296143,4.865427094488897,-0.016728779301047325,0.21728301048278809,-1.5968893210040491,9.84904618235305e-05,0.07959146797657013,0.7840529084205627,0.0,-0.000338225276209414,0.7783669233322144,0.0022174061741679907,-0.1759539544582367
379.0,354.0,0.4337,0.3595,9.2285,-0.0447,0.1345,-0.1257,-1.6003500423827113,-0.032131630927324295,1.9088194370269775,-1.855234980583191,0.15006066858768463,2.284447431564331,4.865371379047193,-0.01487045269459486,0.21384871006011963,-1.5969422499286097,5.0666858442127705e-05,0.07340701669454575,0.7840856313705444,0.0,-0.0014523703139275312,0.778314471244812,0.0020458558574318886,-0.21033090353012085
379.0,354.0,0.4337,0.3595,9.2285,-0.0447,0.1345,-0.1257,-1.6005298099913539,-0.03819119930267334,1.8578767776489258,-1.8543401956558228,0.16043798625469208,2.322711706161499,4.865344586759367,-0.011695553548634052,0.20750382542610168,-1.5969222227679651,4.5429536839947104e-05,0.06567679345607758,0.7841693162918091,0.0,0.009143861010670662,0.7783706784248352,0.001989648211747408,-0.24759085476398468
379.0,354.0,0.4337,0.3595,9.2285,-0.0447,0.1345,-0.1257,-1.6007300815977992,-0.0434267483651638,1.8864400386810303,-1.8536549806594849,0.168338343501091,2.308300018310547,4.865239742189207,-0.008032926358282566,0.20844051241874695,-1.5968616644488733,4.324605470173992e-05,0.07058660686016083,0.7840812802314758,0.0,0.0035018716007471085,0.7783021330833435,0.0019374752882868052,-0.16461452841758728
379.0,354.0,0.4337,0.3595,9.2285,-0.0447,0.1345,-0.1257,-1.6009098492064417,-0.04970528185367584,1.8394408226013184,-1.8530033826828003,0.17435500025749207,2.2798280715942383,4.86522455790595,-0.00572094414383173,0.21438899636268616,-1.5968859831439417,4.126317799091339e-05,0.07200533151626587,0.7841053009033203,0.0,-0.000672188529279083,0.7783385515213013,0.0019041995983570814,-0.20299437642097473
379.0,354.0,0.4337,0.3595,9.2285,-0.0447,0.1345,-0.1257,-1.6012422047057093,-0.05896322801709175,1.843448519706726,-1.8519026041030884,0.17846611142158508,2.2698967456817627,4.865216451674261,-0.0024327372666448355,0.20311620831489563,-1.59682542482485,3.860798096866347e-05,0.0727953091263771,0.7840451002120972,0.0,-0.0018275908660143614,0.7783703207969666,0.0015459618298336864,-0.18984445929527283
379.0,354.0,0.4337,0.3595,9.2285,-0.0447,0.1345,-0.1257,-1.6014582119383753,-0.06199835240840912,1.865816593170166,-1.851186990737915,0.18686543405056,2.3277153968811035,4.865276592760839,-0.0011315892916172743,0.21655955910682678,-1.5968697706805628,3.7019817682448775e-05,0.07049930095672607,0.7840611934661865,0.0,-0.005906640086323023,0.7783784866333008,0.0013721839059144258,-0.16594022512435913
379.0,354.0,0.4337,0.3595,9.2285,-0.0447,0.1345,-0.1257,-1.601689954797262,-0.06802335381507874,1.8229241371154785,-1.8504194021224976,0.192708358168602,2.3047561645507812,4.86525251248435,-0.0007919339695945382,0.2209831178188324,-1.5968778769122522,3.555723014869727e-05,0.06603255122900009,0.7840248346328735,0.0,0.0043756598606705666,0.778374433517456,0.001115920371375978,-0.13757918775081635
379.0,354.0,0.4337,0.3595,9.2285,-0.0447,0.1345,-0.1257,-1.602121969262594,-0.0740925595164299,1.8226261138916016,-1.8492300510406494,0.20584608614444733,2.3517038822174072,4.865204217820921,-0.0005849812878295779,0.2176477313041687,-1.5969017187701624,3.3567856007721275e-05,0.0765056386590004,0.7841135263442993,0.0,0.0007495302706956863,0.7783905267715454,0.0006391627248376608,-0.15312859416007996
379.0,354.0,0.4337,0.3595,9.2285,-0.0447,0.1345,-0.1257,-1.6024371586241664,-0.07829604297876358,1.8008697032928467,-1.8483667373657227,0.21468351781368256,2.3155062198638916,4.865180361061849,-0.0005497246165759861,0.21372422575950623,-1.596865479146139,3.236087650293484e-05,0.06043986976146698,0.7841495871543884,0.0,0.007254008203744888,0.7783263325691223,0.0005970185738988221,-0.16099771857261658
379.0,354.0,0.4337,0.3595,9.2285,-0.0447,0.1345,-0.1257,-1.6029449901976527,-0.08927420526742935,1.7970613241195679,-1.8470182418823242,0.21976222097873688,2.3690314292907715,4.865212338953771,-0.00044252685620449483,0.21215921640396118,-1.5968979040728968,3.070478851441294e-05,0.06384721398353577,0.784069299697876,0.0,0.0087064728140831,0.7783423066139221,0.00044837151654064655,-0.13064101338386536
379.0,354.0,0.4337,0.3595,9.2285,-0.0447,0.1345,-0.1257,-1.6033083401122035,-0.09474658221006393,1.7986993789672852,-1.84615159034729,0.2212403565645218,2.3457183837890625,4.86524464467124,-0.0003879897703882307,0.20839561522006989,-1.5968578497516077,2.9691786039620638e-05,0.07526328414678574,0.7840448617935181,0.0,0.009342736564576626,0.778390645980835,0.000384501792723313,-0.21395140886306763
379.0,354.0,0.4337,0.3595,9.2285,-0.0447,0.1345,-0.1257,-1.6036883793272914,-0.1011635884642601,1.7638661861419678,-1.8452211618423462,0.22708560526371002,2.4161782264709473,4.8652324108178995,-0.00034542460343800485,0.2018725574016571,-1.5968697706805628,2.8743510483764112e-05,0.06924612820148468,0.78409343957901,0.0,4.5580556616187096e-05,0.7783865332603455,0.0003732641926035285,-0.17694665491580963
379.0,354.0,0.4337,0.3595,9.2285,-0.0447,0.1345,-0.1257,-1.6043526134886683,-0.10778967291116714,1.7868998050689697,-1.8438568115234375,0.23933278024196625,2.3701529502868652,4.865236478834905,-0.00029661855660378933,0.21640318632125854,-1.5968979040728968,2.7429476176621392e-05,0.055300623178482056,0.7841011881828308,0.0,-0.003393345046788454,0.778354287147522,0.0003780245315283537,-0.17282046377658844
390.0,359.0,0.1095,0.146,10.0026,-0.0406,0.1697,-0.1115,-1.6047355137267054,-0.10880386829376221,1.821192741394043,-1.8428574800491333,0.24791306257247925,2.431609869003296,4.86524053195075,-0.0002710851840674877,0.20132151246070862,-1.5968454519854944,2.661822691152338e-05,0.06735539436340332,0.7840451598167419,0.0,0.016706954687833786,0.7783988118171692,0.0002644107153173536,-0.16857680678367615
390.0,359.0,0.1095,0.146,10.0026,-0.0406,0.1697,-0.1115,-1.6052032909789027,-0.10982979834079742,1.8071191310882568,-1.8418315649032593,0.248515784740448,2.365473985671997,4.865216451674261,-0.00021797082445118576,0.2038668394088745,-1.5969060103045862,2.5853574697976e-05,0.06255318224430084,0.7840972542762756,0.0,-0.0028696293011307716,0.7783463597297668,0.0001946636039065197,-0.17071110010147095
390.0,359.0,0.1095,0.146,10.0026,-0.0406,0.1697,-0.1115,-1.6059109173216761,-0.11753035336732864,1.7822028398513794,-1.8403345346450806,0.2510334551334381,2.3998000621795654,4.865224617510595,-0.0015772187616676092,0.19155210256576538,-1.596877400075094,2.4785591449472122e-05,0.06551489233970642,0.7840975522994995,0.0,0.011784740723669529,0.778374433517456,0.00014165059837978333,-0.1835138499736786
390.0,359.0,0.1095,0.146,10.0026,-0.0406,0.1697,-0.1115,-1.6063586674132289,-0.11996892094612122,1.8566703796386719,-1.839247226715088,0.2564530372619629,2.4283838272094727,4.86516814210967,-0.0012952742399647832,0.20230209827423096,-1.5968816916095179,2.412128378637135e-05,0.07276386022567749,0.7841536998748779,0.0,0.00186626217328012,0.7783986330032349,0.0003914214903488755,-0.13433843851089478
390.0,359.0,0.1095,0.146,10.0026,-0.0406,0.1697,-0.1115,-1.606849809686178,-0.12298302352428436,1.849268913269043,-1.8382331132888794,0.2644290328025818,2.4349417686462402,4.86517225483016,-0.000960433972068131,0.19209972023963928,-1.5968454519854944,2.3491698811994866e-05,0.07235947251319885,0.7840369939804077,0.0,4.4789223466068506e-05,0.7783823013305664,0.0011066626757383347,-0.17651787400245667
390.0,359.0,0.1095,0.146,10.0026,-0.0406,0.1697,-0.1115,-1.607633729974264,-0.13426408171653748,1.7898683547973633,-1.8366481065750122,0.26843690872192383,2.375197172164917,4.865156891732969,-0.0017092033522203565,0.21352693438529968,-1.5968740622149866,2.2606576749240048e-05,0.06243091821670532,0.7841216325759888,0.0,-0.002085536252707243,0.7783864736557007,0.0016599734080955386,-0.15083763003349304
390.0,359.0,0.1095,0.146,10.0026,-0.0406,0.1697,-0.1115,-1.608157297173971,-0.14138562977313995,1.7580169439315796,-1.8356202840805054,0.2702111303806305,2.419053554534912,4.865136536746778,-0.003267452819272876,0.1976870894432068,-1.5968616644488733,3.2891581213334575e-05,0.06147632747888565,0.7841250896453857,0.0,0.005491428077220917,0.7784225940704346,0.0014782794751226902,-0.15559905767440796
390.0,359.0,0.1095,0.146,10.0026,-0.0406,0.1697,-0.1115,-1.6090012989439906,-0.14906662702560425,1.7584762573242188,-1.8338489532470703,0.2768266201019287,2.4557199478149414,4.865156861930647,-0.003237359691411257,0.1885213851928711,-1.5968621412860315,3.190625648130663e-05,0.07006688416004181,0.7840169668197632,0.0,0.014627087861299515,0.7784023880958557,0.0012457170523703098,-0.12628798186779022
390.0,359.0,0.1095,0.146,10.0026,-0.0406,0.1697,-0.1115,-1.6095601520934046,-0.1502331644296646,1.7449772357940674,-1.8327624797821045,0.28486108779907227,2.466221332550049,4.865168812661924,-0.0020980392582714558,0.2008633017539978,-1.5968454519854944,3.11696385324467e-05,0.06435440480709076,0.7841176390647888,0.0,-0.004407512489706278,0.7784185409545898,0.0010980801889672875,-0.15727362036705017
390.0,359.0,0.1095,0.146,10.0026,-0.0406,0.1697,-0.1115,-1.6102119884886683,-0.14943215250968933,1.798612117767334,-1.8316092491149902,0.2913548946380615,2.4398305416107178,4.865132781654157,-0.001327312202192843,0.19914336502552032,-1.5968897978412073,3.046621714020148e-05,0.07878269255161285,0.7840130925178528,0.0,0.0018783025443553925,0.7784267067909241,0.0011842395178973675,-0.14056234061717987
390.0,359.0,0.1095,0.146,10.0026,-0.0406,0.1697,-0.1115,-1.6110912762083949,-0.1561417579650879,1.8053183555603027,-1.829905390739441,0.3000194728374481,2.42146897315979,4.86512457111434,-0.0007134546176530421,0.19478631019592285,-1.5968454519854944,1.9453250388323795e-06,0.08395501971244812,0.78413325548172,0.0,0.006456627510488033,0.7784548401832581,0.0014840989606454968,-0.22131267189979553
390.0,359.0,0.1095,0.146,10.0026,-0.0406,0.1697,-0.1115,-1.611706872979635,-0.16304345428943634,1.765118956565857,-1.8286497592926025,0.30465149879455566,2.408581495285034,4.865112665086546,-0.0007463356014341116,0.19653023779392242,-1.5968859831439417,8.293225661759607e-09,0.08020251989364624,0.7840774059295654,0.0,-0.0008378371130675077,0.7784586548805237,0.0014841831289231777,-0.1792285144329071
390.0,359.0,0.1095,0.146,10.0026,-0.0406,0.1697,-0.1115,-1.6124068699278773,-0.1699955314397812,1.7252264022827148,-1.8274716138839722,0.30845609307289124,2.4748291969299316,4.8651123372609995,-0.0011978019028902054,0.19456510245800018,-1.5968740622149866,3.535532283605036e-11,0.07982386648654938,0.7841094136238098,0.0,-0.0003327180165797472,0.7784508466720581,0.0016405836213380098,-0.15496094524860382
390.0,359.0,0.1095,0.146,10.0026,-0.0406,0.1697,-0.1115,-1.6134258709349574,-0.1778407096862793,1.809262752532959,-1.825530767440796,0.31033506989479065,2.4522786140441895,4.865104737668791,-0.0022640638053417206,0.18628156185150146,-1.5968740622149866,9.841284484926084e-15,0.07230792939662933,0.784032940864563,0.0,0.016233399510383606,0.7784180641174316,0.0021567142102867365,-0.19674982130527496
390.0,359.0,0.1095,0.146,10.0026,-0.0406,0.1697,-0.1115,-1.614169260064596,-0.1826576441526413,1.7816576957702637,-1.8243865966796875,0.31532710790634155,2.4510905742645264,4.8650929657514475,-0.0016072584548965096,0.20151960849761963,-1.5968535582171839,4.1954941467101936e-17,0.07922771573066711,0.7841455340385437,0.0,-0.009476067498326302,0.7784825563430786,0.0019833415281027555,-0.19734783470630646
390.0,359.0,0.1095,0.146,10.0026,-0.0406,0.1697,-0.1115,-1.6152569256224574,-0.1873851865530014,1.8129150867462158,-1.8223735094070435,0.3301829993724823,2.480219841003418,4.865113037615576,-0.0007767547504045069,0.20983704924583435,-1.5968578497516077,1.1678311987021239e-20,0.06816262006759644,0.7841373085975647,0.0,-0.0025233400519937277,0.7785027623176575,0.0016143388347700238,-0.17494194209575653
390.0,359.0,0.1095,0.146,10.0026,-0.0406,0.1697,-0.1115,-1.6160079441466273,-0.19211643934249878,1.7623624801635742,-1.8210794925689697,0.3335992097854614,2.446089744567871,4.865076678782263,-0.0005768554983660579,0.21065375208854675,-1.5968416372882288,4.9786472698894524e-23,0.06879948824644089,0.7840893268585205,0.0,0.005005174316465855,0.7784784436225891,0.0012195135932415724,-0.17707732319831848
390.0,359.0,0.1095,0.146,10.0026,-0.0406,0.1697,-0.1115,-1.616768022576803,-0.19876495003700256,1.8039034605026245,-1.8197376728057861,0.3345060348510742,2.4600024223327637,4.865124928742208,-0.0005260181496851146,0.2104264199733734,-1.5968740622149866,2.1224753784801496e-25,0.05765344947576523,0.7840611338615417,0.0,0.009656974114477634,0.7784866094589233,0.001053157146088779,-0.21210059523582458
390.0,359.0,0.1095,0.146,10.0026,-0.0406,0.1697,-0.1115,-1.6179944477477015,-0.20953339338302612,1.8300923109054565,-1.8176976442337036,0.34668901562690735,2.480933666229248,4.865096676140585,-0.00035200719139538705,0.20664924383163452,-1.5968292395221155,5.907988114080253e-29,0.05599401518702507,0.78409343957901,0.0,0.00986168347299099,0.7785148620605469,0.0008293730206787586,-0.16935977339744568
390.0,359.0,0.1095,0.146,10.0026,-0.0406,0.1697,-0.1115,-1.6188460789122523,-0.2125709056854248,1.778603434562683,-1.8162918090820312,0.353721022605896,2.5063014030456543,4.865189346462049,-0.0003038502181880176,0.20727753639221191,-1.5968816916095179,2.5186675635153605e-31,0.07418929040431976,0.7840489149093628,0.0,-0.002357070567086339,0.7784384489059448,0.000602138286922127,-0.15354441106319427
