ramyac6/ROB537/final_project/csv/bad/bad_139.csv
tof_0,tof_1,accelx,accely,accelz,gyrox,gyroy,gyroz,shoulder_lift_joint_position,shoulder_lift_joint_velocity,shoulder_lift_joint_effort,elbow_joint_position,elbow_joint_velocity,elbow_joint_effort,wrist_1_joint_position,wrist_1_joint_velocity,wrist_1_joint_effort,wrist_2_joint_position,wrist_2_joint_velocity,wrist_2_joint_effort,wrist_3_joint_position,wrist_3_joint_velocity,wrist_3_joint_effort,shoulder_pan_joint_position,shoulder_pan_joint_velocity,shoulder_pan_joint_effort
366.0,333.0,0.6479,0.2901,9.5216,-0.0338,0.0266,-0.1205,-1.6555267773070277,0.0,2.4986777305603027,-1.767926573753357,-0.0,2.110764980316162,4.800478595286169,-0.0,0.2878207862377167,-1.5967419783221644,-0.0,-0.005452450830489397,0.7428015470504761,0.0,0.010041926056146622,0.751605212688446,0.0,0.0076814740896224976
366.0,333.0,0.6479,0.2901,9.5216,-0.0338,0.0266,-0.1205,-1.6554743252196253,0.0,2.4848203659057617,-1.7679625749588013,-0.0,2.1322383880615234,4.800478625088491,-0.0,0.28665634989738464,-1.5967300573932093,-0.0,0.0017320204060524702,0.742765486240387,0.0,-0.004976009950041771,0.7515285015106201,0.0,-0.023741934448480606
366.0,333.0,0.6479,0.2901,9.5216,-0.0338,0.0266,-0.1205,-1.655461927453512,0.0,2.5157008171081543,-1.7679314613342285,-0.0,2.1571288108825684,4.8004904491598985,-0.0,0.2906656265258789,-1.596701447163717,-0.0,-0.019540272653102875,0.7427418231964111,0.0,0.007280117832124233,0.7515566349029541,0.0,0.01243616547435522
366.0,333.0,0.6479,0.2901,9.5216,-0.0338,0.0266,-0.1205,-1.6555587253966273,0.0,2.4878056049346924,-1.7679067850112915,-0.0,2.1018338203430176,4.800482708006658,-0.0,0.2922874987125397,-1.596705738698141,-0.0,0.0015429244376718998,0.7427494525909424,0.0,0.007669683080166578,0.7515486478805542,0.0,0.012842749245464802
366.0,333.0,0.6479,0.2901,9.5216,-0.0338,0.0266,-0.1205,-1.655534406701559,0.0,2.474254846572876,-1.7679314613342285,-0.0,2.157184600830078,4.800458992808618,-0.0,0.28649741411209106,-1.5967100302325647,-0.0,-0.004112241789698601,0.7427735328674316,0.0,-0.003141870489344001,0.7515890598297119,0.0,-0.0018010754138231277
366.0,333.0,0.6479,0.2901,9.5216,-0.0338,0.0266,-0.1205,-1.6554938755431117,0.0,2.482576370239258,-1.7679067850112915,-0.0,2.124906063079834,4.800462226360597,-0.0,0.2988584637641907,-1.596733872090475,-0.0,-0.008730236440896988,0.7427616119384766,0.0,-0.004973330534994602,0.7515367269515991,0.0,0.017855264246463776
366.0,333.0,0.6479,0.2901,9.5216,-0.0338,0.0266,-0.1205,-1.6555024586119593,0.0,2.4776456356048584,-1.7679667472839355,-0.0,2.1087846755981445,4.800539243012228,-0.0,0.30207309126853943,-1.5967419783221644,-0.0,-0.004576717037707567,0.7427936792373657,0.0,-0.00320926820859313,0.7516006827354431,0.0,-0.03011944331228733
366.0,333.0,0.6479,0.2901,9.5216,-0.0338,0.0266,-0.1205,-1.6555348835387171,0.0,2.4622316360473633,-1.767866611480713,-0.0,2.08528470993042,4.800470459252157,-0.0,0.28727465867996216,-1.5967095533954065,-0.0,-0.005820210557430983,0.7427695393562317,0.0,0.005156896077096462,0.7515524625778198,0.0,-0.009150026366114616
366.0,333.0,0.6479,0.2901,9.5216,-0.0338,0.0266,-0.1205,-1.6554867229857386,0.0,2.491604804992676,-1.7679708003997803,-0.0,2.1300132274627686,4.80045476832942,-0.0,0.2931819558143616,-1.5967376867877405,-0.0,-0.01272033341228962,0.7427494525909424,0.0,0.008143442682921886,0.7515445351600647,0.0,-0.01806609332561493
366.0,333.0,0.6479,0.2901,9.5216,-0.0338,0.0266,-0.1205,-1.6555267773070277,0.0,2.46474552154541,-1.7679191827774048,-0.0,2.1268129348754883,4.800518813520231,-0.0,0.2953675091266632,-1.5967095533954065,-0.0,-0.005108117125928402,0.7426974773406982,0.0,0.0038944801781326532,0.7515202760696411,0.0,0.0009613446891307831
359.0,340.0,0.6718,0.2967,9.5216,-0.0418,0.0292,-0.1219,-1.6554938755431117,0.0,2.4514894485473633,-1.7679274082183838,-0.0,2.1526901721954346,4.800498726754942,-0.0,0.2850634455680847,-1.5967376867877405,-0.0,-0.010824467055499554,0.7427777647972107,0.0,-0.006414645351469517,0.7515849471092224,0.0,-0.018567658960819244
359.0,340.0,0.6718,0.2967,9.5216,-0.0418,0.0292,-0.1219,-1.655506273309225,0.0,2.5157549381256104,-1.767991542816162,-0.0,2.1436376571655273,4.800482700556078,-0.0,0.27620550990104675,-1.5967138449298304,-0.0,-0.012886635959148407,0.7427854537963867,0.0,0.005846460349857807,0.751596987247467,0.0,0.05044148862361908
359.0,340.0,0.6718,0.2967,9.5216,-0.0418,0.0292,-0.1219,-1.6555425129332484,0.0,2.474384307861328,-1.7679749727249146,-0.0,2.106393337249756,4.80047049650506,-0.0,0.298340767621994,-1.596701447163717,-0.0,-0.015541003085672855,0.7427935004234314,0.0,-0.0009981965413317084,0.7515767216682434,0.0,-0.038560304790735245
359.0,340.0,0.6718,0.2967,9.5216,-0.0418,0.0292,-0.1219,-1.6554857693114222,0.0,2.499852418899536,-1.7679543495178223,-0.0,2.1527717113494873,4.800486776023664,-0.0,0.2810715436935425,-1.59674579301943,-0.0,-0.009810823947191238,0.7427337765693665,0.0,0.002765025943517685,0.7515849471092224,0.0,0.009487833827733994
359.0,340.0,0.6718,0.2967,9.5216,-0.0418,0.0292,-0.1219,-1.6555224857726039,0.0,2.4737017154693604,-1.7679469585418701,-0.0,2.131563186645508,4.800482678204336,-0.0,0.2975958287715912,-1.5967376867877405,-0.0,-0.0035378294996917248,0.7427775263786316,0.0,-0.003836533520370722,0.7515527606010437,0.0,0.061824992299079895
359.0,340.0,0.6718,0.2967,9.5216,-0.0418,0.0292,-0.1219,-1.6555186710753382,0.0,2.4955785274505615,-1.767958402633667,-0.0,2.1313531398773193,4.800502832024851,-0.0,0.290444016456604,-1.596717659627096,-0.0,-0.014335419051349163,0.7427854537963867,0.0,0.0031011179089546204,0.7515527606010437,0.0,-0.013312818482518196
359.0,340.0,0.6718,0.2967,9.5216,-0.0418,0.0292,-0.1219,-1.6555386982359828,0.0,2.4986813068389893,-1.7678821086883545,-0.0,2.126467704772949,4.80049097070054,-0.0,0.29386410117149353,-1.5967095533954065,-0.0,-0.008109628222882748,0.7427777647972107,0.0,-0.005654332228004932,0.7515285015106201,0.0,-0.031192447990179062
359.0,340.0,0.6718,0.2967,9.5216,-0.0418,0.0292,-0.1219,-1.6554938755431117,0.0,2.4639978408813477,-1.7679665088653564,-0.0,2.1615068912506104,4.800486776023664,-0.0,0.29717937111854553,-1.5966976324664515,-0.0,-0.01110940519720316,0.7426735758781433,0.0,-0.004064120352268219,0.751629114151001,0.0,0.023039285093545914
359.0,340.0,0.6718,0.2967,9.5216,-0.0418,0.0292,-0.1219,-1.6555148563780726,0.0,2.538649797439575,-1.7678943872451782,-0.0,2.094958543777466,4.80049096324996,-0.0,0.28700757026672363,-1.5967095533954065,-0.0,-0.010451197624206543,0.7427533864974976,0.0,0.002444800455123186,0.7515928149223328,0.0,-0.020462192595005035
359.0,340.0,0.6718,0.2967,9.5216,-0.0418,0.0292,-0.1219,-1.6554743252196253,0.0,2.455578565597534,-1.7679624557495117,-0.0,2.139356851577759,4.800518768816747,-0.0,0.29247501492500305,-1.5967620054828089,-0.0,-0.006747347302734852,0.742805540561676,0.0,0.009348217397928238,0.7515367269515991,0.0,-0.01510847918689251
359.0,340.0,0.6718,0.2967,9.5216,-0.0418,0.0292,-0.1219,-1.655506273309225,0.0,2.485999584197998,-1.7679232358932495,-0.0,2.128296375274658,4.800526964455404,-0.0,0.291806161403656,-1.5967095533954065,-0.0,-0.0008506830781698227,0.7427576184272766,0.0,0.001590126077644527,0.7515890598297119,0.0,0.011289824731647968
359.0,340.0,0.6718,0.2967,9.5216,-0.0418,0.0292,-0.1219,-1.655506273309225,0.0,2.501431465148926,-1.767958402633667,-0.0,2.083183765411377,4.80050694474534,-0.0,0.2924650311470032,-1.596705738698141,-0.0,-0.014167590998113155,0.742709755897522,0.0,0.0006503133336082101,0.7515846490859985,0.0,0.0005295989103615284
359.0,340.0,0.6718,0.2967,9.5216,-0.0418,0.0292,-0.1219,-1.655522962609762,0.0,2.5053012371063232,-1.7679667472839355,-0.0,2.1213786602020264,4.800486783474245,-0.0,0.285709947347641,-1.5967419783221644,-0.0,-0.0010180776007473469,0.7427657246589661,0.0,0.005498209968209267,0.7516010999679565,0.0,-0.039643995463848114
359.0,340.0,0.6718,0.2967,9.5216,-0.0418,0.0292,-0.1219,-1.6555186710753382,0.0,2.4873580932617188,-1.7679429054260254,-0.0,2.0900659561157227,4.800506914943018,-0.0,0.30928340554237366,-1.5967214743243616,-0.0,-0.0006554292049258947,0.7427016496658325,0.0,-0.0019053047290071845,0.751605212688446,0.0,0.002627274952828884
359.0,340.0,0.6718,0.2967,9.5216,-0.0418,0.0292,-0.1219,-1.6554867229857386,0.0,2.497387409210205,-1.7679067850112915,-0.0,2.129316568374634,4.8004987118537805,-0.0,0.2913326919078827,-1.59674579301943,-0.0,-0.0109598059207201,0.742721676826477,0.0,-0.0027242230717092752,0.7515890002250671,0.0,0.0033315569162368774
359.0,340.0,0.6718,0.2967,9.5216,-0.0418,0.0292,-0.1219,-1.6554938755431117,0.0,2.4721689224243164,-1.7679429054260254,-0.0,2.100213050842285,4.800498682051458,-0.0,0.3095664083957672,-1.596701447163717,-0.0,-0.00025862312759272754,0.7427413463592529,0.0,-0.0064954692497849464,0.751629114151001,0.0,-0.007911918684840202
359.0,340.0,0.6718,0.2967,9.5216,-0.0418,0.0292,-0.1219,-1.6554700336852015,0.0,2.500323534011841,-1.7679873704910278,-0.0,2.141206741333008,4.800535137742319,-0.0,0.2889682650566101,-1.5967214743243616,-0.0,0.002084960462525487,0.7427735924720764,0.0,-0.0008328636176884174,0.7515689134597778,0.0,-0.009155156090855598
359.0,340.0,0.6718,0.2967,9.5216,-0.0418,0.0292,-0.1219,-1.6554700336852015,0.0,2.4613194465637207,-1.767983317375183,-0.0,2.1697795391082764,4.800466368883409,-0.0,0.2908262014389038,-1.596717659627096,-0.0,-0.00850343331694603,0.7427894473075867,0.0,0.0051449439488351345,0.7515890002250671,0.0,-0.023280661553144455
349.0,335.0,0.6754,0.335,9.5294,-0.0363,0.0244,-0.1205,-1.6555148563780726,0.0,2.495924949645996,-1.7679510116577148,-0.0,2.1277949810028076,4.800506460457601,-0.0,0.30153128504753113,-1.5967138449298304,-0.0,-0.017742997035384178,0.7427535653114319,0.0,-0.006206846795976162,0.7515286207199097,0.0,-0.003685496747493744
349.0,335.0,0.6754,0.335,9.5294,-0.0363,0.0244,-0.1205,-1.6555148563780726,0.0,2.477771759033203,-1.7679585218429565,-0.0,2.163628101348877,4.800522978394785,-0.0,0.29309967160224915,-1.5967538992511194,-0.0,-0.005763565190136433,0.742765486240387,0.0,0.004300725646317005,0.7515689134597778,0.0,0.010075757279992104
349.0,335.0,0.6754,0.335,9.5294,-0.0363,0.0244,-0.1205,-1.655506273309225,0.0,2.4695065021514893,-1.7679420709609985,-0.0,2.107516288757324,4.80051093825654,-0.0,0.3049931824207306,-1.5966818968402308,-0.0,-0.011464998126029968,0.7427935004234314,0.0,0.006273411214351654,0.7515928745269775,0.0,-0.042298972606658936
349.0,335.0,0.6754,0.335,9.5294,-0.0363,0.0244,-0.1205,-1.6555267773070277,0.0,2.518996477127075,-1.7678903341293335,-0.0,2.1469919681549072,4.800494971662321,-0.0,0.2903258800506592,-1.5967257658587855,-0.0,-0.008303148671984673,0.7427332997322083,0.0,0.0007779235020279884,0.751596987247467,0.0,-0.0037191796582192183
349.0,335.0,0.6754,0.335,9.5294,-0.0363,0.0244,-0.1205,-1.6555386982359828,0.0,2.4991157054901123,-1.7678943872451782,-0.0,2.101280927658081,4.800514723151483,-0.0,0.29081273078918457,-1.5967419783221644,-0.0,-0.00938963983207941,0.7427936792373657,0.0,0.006401744671165943,0.7515726089477539,0.0,0.01816943660378456
349.0,335.0,0.6754,0.335,9.5294,-0.0363,0.0244,-0.1205,-1.6554786167540492,0.0,2.4590132236480713,-1.7679274082183838,-0.0,2.1155166625976562,4.800551186292925,-0.0,0.2931775748729706,-1.5967820326434534,-0.0,-0.00336019997484982,0.7427297234535217,0.0,0.004087759181857109,0.7515730261802673,0.0,0.002178790047764778
349.0,335.0,0.6754,0.335,9.5294,-0.0363,0.0244,-0.1205,-1.6555267773070277,0.0,2.4786643981933594,-1.7678903341293335,-0.0,2.151611804962158,4.800522985845365,-0.0,0.2875468134880066,-1.596733872090475,-0.0,-0.020073177292943,0.742765486240387,0.0,0.003774581477046013,0.751548707485199,0.0,0.008142818696796894
349.0,335.0,0.6754,0.335,9.5294,-0.0363,0.0244,-0.1205,-1.6554981670775355,0.0,2.474710702896118,-1.767958402633667,-0.0,2.158651828765869,4.800494971662321,-0.0,0.28406450152397156,-1.596705738698141,-0.0,-0.0047447155229747295,0.7427616119384766,0.0,-0.0008320639608427882,0.7515767216682434,0.0,0.021149752661585808
349.0,335.0,0.6754,0.335,9.5294,-0.0363,0.0244,-0.1205,-1.6554786167540492,0.0,2.486949920654297,-1.7679388523101807,-0.0,2.14481258392334,4.800494621485033,-0.0,0.27613720297813416,-1.5967376867877405,-0.0,0.00869335513561964,0.7428094148635864,0.0,-0.009093319065868855,0.751596987247467,0.0,-0.01958354562520981
349.0,335.0,0.6754,0.335,9.5294,-0.0363,0.0244,-0.1205,-1.655562540093893,0.0,2.4824938774108887,-1.7679150104522705,-0.0,2.1253066062927246,4.800522978394785,-0.0,0.2924456000328064,-1.5967252890216272,-0.0,0.003010157495737076,0.7428014278411865,0.0,0.011332908645272255,0.7515730857849121,0.0,-0.024969007819890976
349.0,335.0,0.6754,0.335,9.5294,-0.0363,0.0244,-0.1205,-1.6554981670775355,0.0,2.479098081588745,-1.767974853515625,-0.0,2.104163646697998,4.800502802222528,-0.0,0.2977321445941925,-1.5967257658587855,-0.0,-0.009775237180292606,0.7427297234535217,0.0,-0.0010769127402454615,0.7515808343887329,0.0,0.00665334053337574
349.0,335.0,0.6754,0.335,9.5294,-0.0363,0.0244,-0.1205,-1.6554743252196253,0.0,2.492154836654663,-1.7679429054260254,-0.0,2.117661476135254,4.800486790924825,-0.0,0.2906596064567566,-1.5967419783221644,-0.0,0.009556388482451439,0.7427377700805664,0.0,-0.0006082779727876186,0.7515689134597778,0.0,-0.02654194086790085
349.0,335.0,0.6754,0.335,9.5294,-0.0363,0.0244,-0.1205,-1.6555544338622035,0.0,2.4745118618011475,-1.7679461240768433,-0.0,2.155574083328247,4.800531017571249,-0.0,0.29277271032333374,-1.5967419783221644,-0.0,-0.0023659514263272285,0.7427773475646973,0.0,-0.004437477793544531,0.7515408992767334,0.0,0.024498075246810913
349.0,335.0,0.6754,0.335,9.5294,-0.0363,0.0244,-0.1205,-1.6555425129332484,0.0,2.4888365268707275,-1.7678945064544678,-0.0,2.0824952125549316,4.800478639989652,-0.0,0.274781197309494,-1.5967138449298304,-0.0,-0.007316557690501213,0.7427058219909668,0.0,0.002791709266602993,0.7515367865562439,0.0,0.015544945374131203
349.0,335.0,0.6754,0.335,9.5294,-0.0363,0.0244,-0.1205,-1.6555267773070277,0.0,2.4857616424560547,-1.767923355102539,-0.0,2.1087563037872314,4.800543236523428,-0.0,0.2801080346107483,-1.596689526234762,-0.0,0.0006591938436031342,0.7428094148635864,0.0,-0.0008101945277303457,0.7516211867332458,0.0,0.012395905330777168
349.0,335.0,0.6754,0.335,9.5294,-0.0363,0.0244,-0.1205,-1.6554824314513148,0.0,2.483858585357666,-1.7679461240768433,-0.0,2.156994104385376,4.800486790924825,-0.0,0.2906528115272522,-1.5967138449298304,-0.0,-0.0010899186599999666,0.742737352848053,0.0,-0.014372002333402634,0.7516129612922668,0.0,0.02020813524723053
349.0,335.0,0.6754,0.335,9.5294,-0.0363,0.0244,-0.1205,-1.6555105648436488,0.0,2.506941795349121,-1.7679067850112915,-0.0,2.128772735595703,4.800494621485033,-0.0,0.2967967391014099,-1.5967376867877405,-0.0,0.0025050747208297253,0.7427536249160767,0.0,-0.0007509863935410976,0.7515689730644226,0.0,0.027835402637720108
349.0,335.0,0.6754,0.335,9.5294,-0.0363,0.0244,-0.1205,-1.6555305920042933,0.0,2.512856960296631,-1.767966628074646,-0.0,2.143643617630005,4.80052279213027,-0.0,0.2851519286632538,-1.5967419783221644,-0.0,0.0025120084173977375,0.7427775263786316,0.0,-0.003929339814931154,0.7516010403633118,0.0,-0.010617302730679512
349.0,335.0,0.6754,0.335,9.5294,-0.0363,0.0244,-0.1205,-1.6554824314513148,0.0,2.474653482437134,-1.76791512966156,-0.0,2.1079070568084717,4.800538803427973,-0.0,0.2858790457248688,-1.5967376867877405,-0.0,-0.0025976216420531273,0.7427098155021667,0.0,-0.0017522965790703893,0.7516252994537354,0.0,0.009039647877216339
346.0,321.0,0.6479,0.2949,9.5492,-0.0417,0.0247,-0.1139,-1.6555186710753382,0.0,2.4949207305908203,-1.767958402633667,-0.0,2.146942615509033,4.800486790924825,-0.0,0.29365208745002747,-1.5967453161822718,-0.0,-0.009242342785000801,0.7427855730056763,0.0,-0.002498666290193796,0.7515807747840881,0.0,0.02954961732029915
346.0,321.0,0.6479,0.2949,9.5492,-0.0417,0.0247,-0.1139,-1.6555425129332484,0.0,2.5068883895874023,-1.7679109573364258,-0.0,2.125676393508911,4.800474631577291,-0.0,0.28394174575805664,-1.5967538992511194,-0.0,-0.005330156534910202,0.7427217364311218,0.0,-0.002664081519469619,0.7515808343887329,0.0,0.038261353969573975
346.0,321.0,0.6479,0.2949,9.5492,-0.0417,0.0247,-0.1139,-1.6555506191649378,0.0,2.497939109802246,-1.7679274082183838,-0.0,2.109132766723633,4.800470474153318,-0.0,0.2897501587867737,-1.5967620054828089,-0.0,0.00038186798337846994,0.7426698207855225,0.0,0.006895898841321468,0.7515689134597778,0.0,-0.001031510066241026
346.0,321.0,0.6479,0.2949,9.5492,-0.0417,0.0247,-0.1139,-1.6555148563780726,0.0,2.437602996826172,-1.7678943872451782,-0.0,2.162313938140869,4.800486776023664,-0.0,0.2809048295021057,-1.596733872090475,-0.0,-0.002102864906191826,0.7427533864974976,0.0,-0.015721047297120094,0.7515689730644226,0.0,-0.050366222858428955
346.0,321.0,0.6479,0.2949,9.5492,-0.0417,0.0247,-0.1139,-1.6555105648436488,0.0,2.5231733322143555,-1.7679306268692017,-0.0,2.1439194679260254,4.8004909483487985,-0.0,0.29171258211135864,-1.5967496077166956,-0.0,-0.012083018198609352,0.7427616119384766,0.0,-0.0011619706638157368,0.751605212688446,0.0,-0.007916087284684181
346.0,321.0,0.6479,0.2949,9.5492,-0.0417,0.0247,-0.1139,-1.655506273309225,0.0,2.4818811416625977,-1.7679706811904907,-0.0,2.1368706226348877,4.800486761122503,-0.0,0.2804180681705475,-1.5967133680926722,-0.0,-0.01652499847114086,0.7427095770835876,0.0,-0.007642732001841068,0.7515688538551331,0.0,0.02055644616484642
346.0,321.0,0.6479,0.2949,9.5492,-0.0417,0.0247,-0.1139,-1.65551819423818,0.0,2.481781244277954,-1.7679388523101807,-0.0,2.125251054763794,4.8004581583435915,-0.0,0.2773388624191284,-1.5967333952533167,-0.0,-0.0073698582127690315,0.7427297830581665,0.0,0.0036149933002889156,0.7515807747840881,0.0,0.01761624962091446
346.0,321.0,0.6479,0.2949,9.5492,-0.0417,0.0247,-0.1139,-1.6554938755431117,0.0,2.478893756866455,-1.7678788900375366,-0.0,2.1168031692504883,4.800478639989652,-0.0,0.2944077253341675,-1.5967538992511194,-0.0,-0.005025137215852737,0.7427377700805664,0.0,0.01046612486243248,0.7515808343887329,0.0,0.016459757462143898
346.0,321.0,0.6479,0.2949,9.5492,-0.0417,0.0247,-0.1139,-1.6554981670775355,0.0,2.4958839416503906,-1.7678903341293335,-0.0,2.1627745628356934,4.800466368883409,-0.0,0.2864706814289093,-1.5967376867877405,-0.0,-0.02421972155570984,0.7427257299423218,0.0,-0.006109654903411865,0.7515650391578674,0.0,0.02260533533990383
346.0,321.0,0.6479,0.2949,9.5492,-0.0417,0.0247,-0.1139,-1.6555305920042933,0.0,2.5408544540405273,-1.7679510116577148,-0.0,2.1341755390167236,4.800506952195921,-0.0,0.2828580141067505,-1.596733872090475,-0.0,0.004699505865573883,0.7428253889083862,0.0,0.00045982375741004944,0.7516052722930908,0.0,-0.027901258319616318
346.0,321.0,0.6479,0.2949,9.5492,-0.0417,0.0247,-0.1139,-1.6554538212218226,0.0,2.467954397201538,-1.7679510116577148,-0.0,2.107328414916992,4.800486790924825,-0.0,0.28698134422302246,-1.5967138449298304,-0.0,-0.007455839775502682,0.7427935004234314,0.0,-0.003941541071981192,0.7515890002250671,0.0,0.0013995651388540864
346.0,321.0,0.6479,0.2949,9.5492,-0.0417,0.0247,-0.1139,-1.655490060845846,0.0,2.484149694442749,-1.7679388523101807,-0.0,2.1415014266967773,4.800518783717909,-0.0,0.2937015891075134,-1.5967500845538538,-0.0,0.0015052893431857228,0.7427974939346313,0.0,0.001770129194483161,0.7515808343887329,0.0,0.009555398486554623
346.0,321.0,0.6479,0.2949,9.5492,-0.0417,0.0247,-0.1139,-1.6555105648436488,0.0,2.4701294898986816,-1.7679510116577148,-0.0,2.1394944190979004,4.800486790924825,-0.0,0.29669222235679626,-1.59674579301943,-0.0,-0.014021112583577633,0.7427573800086975,0.0,0.0009514028206467628,0.7515124082565308,0.0,0.05118461325764656
346.0,321.0,0.6479,0.2949,9.5492,-0.0417,0.0247,-0.1139,-1.655506273309225,0.0,2.483717918395996,-1.7679109573364258,-0.0,2.0871846675872803,4.800510632782736,-0.0,0.30142930150032043,-1.59674579301943,-0.0,-0.0019843271002173424,0.7427494525909424,0.0,0.0014302092604339123,0.7515928745269775,0.0,-0.01904929243028164
346.0,321.0,0.6479,0.2949,9.5492,-0.0417,0.0247,-0.1139,-1.6555425129332484,0.0,2.4576900005340576,-1.7679150104522705,-0.0,2.0992681980133057,4.800486790924825,-0.0,0.28005069494247437,-1.596705738698141,-0.0,-0.010921979323029518,0.7427453398704529,0.0,-0.010839700698852539,0.7515848875045776,0.0,0.04726610705256462
346.0,321.0,0.6479,0.2949,9.5492,-0.0417,0.0247,-0.1139,-1.655466218987936,0.0,2.533919095993042,-1.7679388523101807,-0.0,2.0627102851867676,4.8004987118537805,-0.0,0.28514063358306885,-1.5967376867877405,-0.0,-0.0058928728103637695,0.7427453398704529,0.0,0.0013368787476792932,0.7515808343887329,0.0,0.003270593471825123
346.0,321.0,0.6479,0.2949,9.5492,-0.0417,0.0247,-0.1139,-1.655506273309225,0.0,2.478163480758667,-1.7679429054260254,-0.0,2.131077766418457,4.800482715457239,-0.0,0.29699814319610596,-1.5967376867877405,-0.0,-0.012089073657989502,0.7427297830581665,0.0,0.0008821885567158461,0.7516170740127563,0.0,0.021329736337065697
346.0,321.0,0.6479,0.2949,9.5492,-0.0417,0.0247,-0.1139,-1.6554824314513148,0.0,2.4831159114837646,-1.7679429054260254,-0.0,2.1186695098876953,4.800470474153318,-0.0,0.2900829017162323,-1.5967662970172327,-0.0,-0.001910146907903254,0.7427576184272766,0.0,-0.013122901320457458,0.7515206336975098,0.0,0.03450392186641693
356.0,343.0,0.6383,0.283,9.6628,-0.0406,0.0246,-0.12,-1.6554743252196253,0.0,2.483748197555542,-1.767966628074646,-0.0,2.1514432430267334,4.800498741656103,-0.0,0.28573399782180786,-1.5967744032489222,-0.0,-0.0069114454090595245,0.7427338361740112,0.0,0.0023454083129763603,0.7515689134597778,0.0,0.044859979301691055
356.0,343.0,0.6383,0.283,9.6628,-0.0406,0.0246,-0.12,-1.65551819423818,0.0,2.5345354080200195,-1.76792311668396,-0.0,2.105647325515747,4.800474519818582,-0.0,0.27443134784698486,-1.5967500845538538,-0.0,-0.011845340020954609,0.7428174614906311,0.0,-0.004841100890189409,0.7515931129455566,0.0,-0.03592929244041443
356.0,343.0,0.6383,0.283,9.6628,-0.0406,0.0246,-0.12,-1.6555305920042933,0.0,2.500767707824707,-1.767958402633667,-0.0,2.1679248809814453,4.800450722664156,-0.0,0.28799930214881897,-1.5967257658587855,-0.0,0.005315890070050955,0.7428014278411865,0.0,-0.0069804806262254715,0.7515849471092224,0.0,0.034742794930934906
356.0,343.0,0.6383,0.283,9.6628,-0.0406,0.0246,-0.12,-1.6554981670775355,0.0,2.501638650894165,-1.767939567565918,-0.0,2.10526967048645,4.800514730602064,-0.0,0.28672921657562256,-1.5967376867877405,-0.0,-0.013714374974370003,0.7427338361740112,0.0,-0.006346601061522961,0.7515849471092224,0.0,0.003503078129142523
356.0,343.0,0.6383,0.283,9.6628,-0.0406,0.0246,-0.12,-1.6554938755431117,0.0,2.5301272869110107,-1.7679109573364258,-0.0,2.1047844886779785,4.800486790924825,-0.0,0.30010759830474854,-1.5967376867877405,-0.0,-0.009325891733169556,0.7427735328674316,0.0,-0.006334344856441021,0.7515568733215332,0.0,-0.04413073509931564
356.0,343.0,0.6383,0.283,9.6628,-0.0406,0.0246,-0.12,-1.655506273309225,0.0,2.4689536094665527,-1.7679873704910278,-0.0,2.1093597412109375,4.800466398685732,-0.0,0.2950698733329773,-1.5967300573932093,-0.0,-0.00023237057030200958,0.7427814602851868,0.0,0.00364692322909832,0.7515689134597778,0.0,0.0020311514381319284
356.0,343.0,0.6383,0.283,9.6628,-0.0406,0.0246,-0.12,-1.6555224857726039,0.0,2.491056203842163,-1.7679708003997803,-0.0,2.106485605239868,4.800466428488054,-0.0,0.29423758387565613,-1.5967496077166956,-0.0,-0.005414272658526897,0.7427297830581665,0.0,0.002947272267192602,0.7515808343887329,0.0,0.0014381135115399957
356.0,343.0,0.6383,0.283,9.6628,-0.0406,0.0246,-0.12,-1.6555224857726039,0.0,2.472362518310547,-1.7679954767227173,-0.0,2.1372475624084473,4.800498741656103,-0.0,0.29098477959632874,-1.5967376867877405,-0.0,-0.012366030365228653,0.7427453994750977,0.0,-0.0008382397936657071,0.7515486478805542,0.0,0.006031900644302368
356.0,343.0,0.6383,0.283,9.6628,-0.0406,0.0246,-0.12,-1.6554938755431117,0.0,2.522507667541504,-1.767934799194336,-0.0,2.114215850830078,4.800514715700903,-0.0,0.30159080028533936,-1.596729580556051,-0.0,-0.022518157958984375,0.7428334951400757,0.0,-0.0018473683157935739,0.7516093254089355,0.0,0.04818716645240784
356.0,343.0,0.6383,0.283,9.6628,-0.0406,0.0246,-0.12,-1.6554867229857386,0.0,2.5338287353515625,-1.767934799194336,-0.0,2.159766674041748,4.800495008915224,-0.0,0.2759809195995331,-1.5967376867877405,-0.0,-0.005622861906886101,0.7427377700805664,0.0,-0.0014226780040189624,0.7515408396720886,0.0,0.052846964448690414
356.0,343.0,0.6383,0.283,9.6628,-0.0406,0.0246,-0.12,-1.6555148563780726,0.0,2.5076072216033936,-1.767939567565918,-0.0,2.088972568511963,4.800551074534216,-0.0,0.27599212527275085,-1.5967419783221644,-0.0,-0.00015319231897592545,0.7427815794944763,0.0,-0.006028387695550919,0.7515726089477539,0.0,0.021214645355939865
356.0,343.0,0.6383,0.283,9.6628,-0.0406,0.0246,-0.12,-1.655461927453512,0.0,2.5229249000549316,-1.7679624557495117,-0.0,2.16182279586792,4.800486805825987,-0.0,0.2931244373321533,-1.5967214743243616,-0.0,-0.01018875278532505,0.7427854537963867,0.0,0.010500559583306313,0.7515890598297119,0.0,0.0593390092253685
356.0,343.0,0.6383,0.283,9.6628,-0.0406,0.0246,-0.12,-1.6555105648436488,0.0,2.5154483318328857,-1.767974853515625,-0.0,2.147582530975342,4.800506952195921,-0.0,0.29725900292396545,-1.596705738698141,-0.0,-0.0005712684942409396,0.7427536249160767,0.0,-0.01878904551267624,0.7515566349029541,0.0,-0.027213577181100845
356.0,343.0,0.6383,0.283,9.6628,-0.0406,0.0246,-0.12,-1.6555105648436488,0.0,2.4738471508026123,-1.7679914236068726,-0.0,2.132612705230713,4.800506996899404,-0.0,0.28597143292427063,-1.5967376867877405,-0.0,-0.014673033729195595,0.7427338361740112,0.0,-0.00394626148045063,0.7515648007392883,0.0,0.0030291802249848843
356.0,343.0,0.6383,0.283,9.6628,-0.0406,0.0246,-0.12,-1.6555019817748011,0.0,2.4984586238861084,-1.7679109573364258,-0.0,2.1397018432617188,4.800535137742319,-0.0,0.2807185649871826,-1.5967214743243616,-0.0,-0.008916150778532028,0.7427414059638977,0.0,0.001045694574713707,0.7515730261802673,0.0,0.005627091974020004
356.0,343.0,0.6383,0.283,9.6628,-0.0406,0.0246,-0.12,-1.6555305920042933,0.0,2.493009567260742,-1.767983078956604,-0.0,2.1226346492767334,4.8005069745476625,-0.0,0.2988489270210266,-1.5967581907855433,-0.0,0.0012754704803228378,0.7427297830581665,0.0,0.0010153724579140544,0.7515606880187988,0.0,0.011579195037484169
356.0,343.0,0.6383,0.283,9.6628,-0.0406,0.0246,-0.12,-1.6554938755431117,0.0,2.4623093605041504,-1.7679388523101807,-0.0,2.1374545097351074,4.800482700556078,-0.0,0.30491065979003906,-1.5967538992511194,-0.0,-0.014130985364317894,0.7427414059638977,0.0,-0.00418061250820756,0.7515367269515991,0.0,0.010398082435131073
356.0,343.0,0.6383,0.283,9.6628,-0.0406,0.0246,-0.12,-1.6555148563780726,0.0,2.4833450317382812,-1.7679461240768433,-0.0,2.1115150451660156,4.80047461667613,-0.0,0.28829440474510193,-1.5967214743243616,-0.0,-0.01486564613878727,0.7427855134010315,0.0,0.0003097066655755043,0.7515767216682434,0.0,-0.013654474169015884
356.0,343.0,0.6383,0.283,9.6628,-0.0406,0.0246,-0.12,-1.6555348835387171,0.0,2.4659769535064697,-1.7679708003997803,-0.0,2.116642951965332,4.800531054824152,-0.0,0.30075275897979736,-1.5967620054828089,-0.0,-0.006695963442325592,0.7427257895469666,0.0,-0.0030204891227185726,0.7515692114830017,0.0,-0.027901768684387207
362.0,327.0,0.6574,0.3494,9.4899,-0.0379,0.026,-0.1177,-1.6554867229857386,0.0,2.478191614151001,-1.7679067850112915,-0.0,2.0876264572143555,4.800514730602064,-0.0,0.2916581928730011,-1.5967538992511194,-0.0,-0.00811739731580019,0.7428173422813416,0.0,-0.0006249966099858284,0.751605212688446,0.0,0.0021257130429148674
362.0,327.0,0.6574,0.3494,9.4899,-0.0379,0.026,-0.1177,-1.6555024586119593,0.0,2.4419076442718506,-1.7679388523101807,-0.0,2.0825302600860596,4.800462285965242,-0.0,0.284077912569046,-1.59674579301943,-0.0,-0.004388117231428623,0.7427453994750977,0.0,0.006739196367561817,0.751588761806488,0.0,-0.03915516287088394
362.0,327.0,0.6574,0.3494,9.4899,-0.0379,0.026,-0.1177,-1.6555425129332484,0.0,2.4660983085632324,-1.7679914236068726,-0.0,2.1116838455200195,4.800518813520231,-0.0,0.29220661520957947,-1.5967701117144983,-0.0,-0.004975891672074795,0.742733895778656,0.0,-0.0003044253680855036,0.7516212463378906,0.0,0.020540498197078705
362.0,327.0,0.6574,0.3494,9.4899,-0.0379,0.026,-0.1177,-1.655506273309225,0.0,2.457615375518799,-1.7679191827774048,-0.0,2.1060287952423096,4.8004987118537805,-0.0,0.28840887546539307,-1.5967419783221644,-0.0,-0.004116989206522703,0.7427695989608765,0.0,0.004420765209943056,0.7516010999679565,0.0,0.014995604753494263
362.0,327.0,0.6574,0.3494,9.4899,-0.0379,0.026,-0.1177,-1.6554743252196253,0.0,2.488416910171509,-1.767890214920044,-0.0,2.1491661071777344,4.80050694474534,-0.0,0.28817829489707947,-1.5967419783221644,-0.0,-0.008341279812157154,0.7427855134010315,0.0,-0.008777324110269547,0.7515767216682434,0.0,-0.03456815332174301
362.0,327.0,0.6574,0.3494,9.4899,-0.0379,0.026,-0.1177,-1.6554824314513148,0.0,2.5224246978759766,-1.7679191827774048,-0.0,2.0949103832244873,4.80045065560893,-0.0,0.2972278296947479,-1.5967257658587855,-0.0,-0.0068039726465940475,0.7427616119384766,0.0,0.0029656647238880396,0.7515928745269775,3.9253194472621544e-07,0.011209225282073021
362.0,327.0,0.6574,0.3494,9.4899,-0.0379,0.026,-0.1177,-1.655522962609762,0.0,2.531313896179199,-1.767890214920044,-0.0,2.1120269298553467,4.800502802222528,-0.0,0.281609445810318,-1.596717659627096,-0.0,-0.0006623719818890095,0.7427180409431458,0.0,-0.004379809368401766,0.7515804767608643,9.479183930849455e-13,-0.0026534553617239
362.0,327.0,0.6574,0.3494,9.4899,-0.0379,0.026,-0.1177,-1.6554857693114222,0.0,2.506758451461792,-1.7679502964019775,-0.0,2.1000566482543945,4.800502802222528,-0.0,0.28440672159194946,-1.5967620054828089,-0.0,-0.012833993881940842,0.7427616119384766,0.0,-0.011929003521800041,0.751588761806488,1.7062194938127198e-16,0.030494488775730133
362.0,327.0,0.6574,0.3494,9.4899,-0.0379,0.026,-0.1177,-1.6554938755431117,0.0,2.4668586254119873,-1.7679708003997803,-0.0,2.1519856452941895,4.800494971662321,-0.0,0.2916862368583679,-1.5967376867877405,-0.0,-0.023716377094388008,0.7427894473075867,0.0,-0.00028680553077720106,0.7516250610351562,4.1203194626812956e-22,0.011440018191933632
362.0,327.0,0.6574,0.3494,9.4899,-0.0379,0.026,-0.1177,-1.6554743252196253,0.0,2.4712133407592773,-1.7679502964019775,-0.0,2.1350479125976562,4.800486790924825,-0.0,0.28150010108947754,-1.5967701117144983,-0.0,-0.008846213109791279,0.7427453994750977,0.0,-0.007312609814107418,0.751596987247467,7.416429578116677e-26,-0.026041531935334206
362.0,327.0,0.6574,0.3494,9.4899,-0.0379,0.026,-0.1177,-1.655522962609762,0.0,2.4974169731140137,-1.767958402633667,-0.0,2.1217007637023926,4.80048684307889,-0.0,0.27947795391082764,-1.5966814200030726,-0.0,-0.010696646757423878,0.7427338361740112,0.0,-0.001357882283627987,0.7515808343887329,1.7909804892758304e-31,-0.023646611720323563
362.0,327.0,0.6574,0.3494,9.4899,-0.0379,0.026,-0.1177,-1.6555143795409144,0.0,2.4879462718963623,-1.767958402633667,-0.0,2.1550252437591553,4.800518813520231,-0.0,0.28963109850883484,-1.5967453161822718,-0.0,0.00699940649792552,0.7427695393562317,0.0,-0.00708280922845006,0.7515767216682434,3.22370113464804e-35,-0.005448054522275925
362.0,327.0,0.6574,0.3494,9.4899,-0.0379,0.026,-0.1177,-1.6555186710753382,0.0,2.5075032711029053,-1.7679873704910278,-0.0,2.074737548828125,4.8004987118537805,-0.0,0.29306113719940186,-1.5967620054828089,-0.0,0.001640919828787446,0.7427533864974976,0.0,-0.012694479897618294,0.7516007423400879,0.00022833140974398702,-0.01107916608452797
362.0,327.0,0.6574,0.3494,9.4899,-0.0379,0.026,-0.1177,-1.6555267773070277,0.0,2.4843385219573975,-1.767966628074646,-0.0,2.1111321449279785,4.800502787321367,-0.0,0.28816846013069153,-1.596729580556051,-0.0,-0.009020442143082619,0.7427616119384766,0.0,-0.009322110563516617,0.751588761806488,0.00022039467876311392,0.00304227601736784
362.0,327.0,0.6574,0.3494,9.4899,-0.0379,0.026,-0.1177,-1.6555024586119593,0.0,2.4733400344848633,-1.7680069208145142,-0.0,2.0920000076293945,4.8005671603377245,-0.0,0.301403284072876,-1.5967376867877405,-0.0,-0.012971119955182076,0.7427854537963867,0.0,0.004334845580160618,0.7515808343887329,0.00020073092309758067,-0.007131123915314674
362.0,327.0,0.6574,0.3494,9.4899,-0.0379,0.026,-0.1177,-1.6555267773070277,0.0,2.4900364875793457,-1.7679791450500488,-0.0,2.079684257507324,4.800482700556078,-0.0,0.28598976135253906,-1.596705738698141,-0.0,-0.011167827993631363,0.742733895778656,0.0,0.002166053047403693,0.7516209483146667,0.00017703826597426087,-0.024048293009400368
362.0,327.0,0.6574,0.3494,9.4899,-0.0379,0.026,-0.1177,-1.6555105648436488,0.0,2.4379725456237793,-1.7679871320724487,-0.0,2.1033411026000977,4.800486790924825,-0.0,0.2904999852180481,-1.5967538992511194,-0.0,-0.011317425407469273,0.7427493929862976,0.0,-0.0011413447791710496,0.7515808343887329,0.00016412367403972894,-0.00545002706348896
362.0,327.0,0.6574,0.3494,9.4899,-0.0379,0.026,-0.1177,-1.6554981670775355,0.0,2.467764377593994,-1.7679550647735596,-0.0,2.1329591274261475,4.80050694474534,-0.0,0.28887826204299927,-1.5967376867877405,-0.0,-0.003811245085671544,0.7427297830581665,0.0,0.00032523483969271183,0.7515808343887329,0.00014793638547416776,0.056548334658145905
351.0,345.0,0.7466,0.4558,9.3721,-0.0363,0.0224,-0.1228,-1.6555143795409144,0.0,2.459139108657837,-1.7679388523101807,-0.0,2.1348092555999756,4.800482700556078,-0.0,0.2909497618675232,-1.5967538992511194,-0.0,-0.00711926631629467,0.742733895778656,0.0,0.005985565017908812,0.7515804767608643,0.00013880965707357973,-0.015723150223493576
351.0,345.0,0.7466,0.4558,9.3721,-0.0363,0.0224,-0.1228,-1.6555105648436488,0.0,2.472651958465576,-1.767974853515625,-0.0,2.1515026092529297,4.800514708250322,-0.0,0.2841281294822693,-1.5967620054828089,-0.0,-0.005731182172894478,0.7427573800086975,0.0,0.004715365823358297,0.7515527606010437,0.0001270520588150248,-0.016831619665026665
351.0,345.0,0.7466,0.4558,9.3721,-0.0363,0.0224,-0.1228,-1.6554824314513148,0.0,2.4530487060546875,-1.7679511308670044,-0.0,2.1249701976776123,4.800470474153318,-0.0,0.2828935980796814,-1.596729580556051,-0.0,-0.01236746460199356,0.742733895778656,0.0,-0.007177701219916344,0.7516047954559326,0.00012026110925944522,-0.01832878217101097
351.0,345.0,0.7466,0.4558,9.3721,-0.0363,0.0224,-0.1228,-1.6554981670775355,0.0,2.5009334087371826,-1.7679706811904907,-0.0,2.1161551475524902,4.800498726754942,-0.0,0.29375743865966797,-1.5967419783221644,-0.0,0.006594502367079258,0.7426937222480774,0.0,-0.0038498633075505495,0.7515928745269775,0.00011133497901028022,-0.006742959842085838
351.0,345.0,0.7466,0.4558,9.3721,-0.0363,0.0224,-0.1228,-1.6555224857726039,0.0,2.4855804443359375,-1.7679461240768433,-0.0,2.0971922874450684,4.800474631577291,-0.0,0.2893940508365631,-1.5967500845538538,-0.0,-0.004508604295551777,0.7427616119384766,0.0,0.009705228731036186,0.7516089081764221,0.00010608552838675678,-0.026251018047332764
351.0,345.0,0.7466,0.4558,9.3721,-0.0363,0.0224,-0.1228,-1.6554705105223597,0.0,2.5157113075256348,-1.7679708003997803,-0.0,2.1077451705932617,4.800466398685732,-0.0,0.31462106108665466,-1.5967095533954065,-0.0,0.0001109140575863421,0.7427775263786316,0.0,-0.002598336897790432,0.7516697645187378,0.00011889030429301783,-0.008873546496033669
351.0,345.0,0.7466,0.4558,9.3721,-0.0363,0.0224,-0.1228,-1.655466218987936,0.0,2.4589834213256836,-1.7679429054260254,-0.0,2.1334965229034424,4.8005229634936235,-0.0,0.2935940623283386,-1.5967333952533167,-0.0,-0.013853841461241245,0.7428053617477417,0.0,0.0006037206621840596,0.7516089081764221,0.0001138793959398754,0.0281740203499794
351.0,345.0,0.7466,0.4558,9.3721,-0.0363,0.0224,-0.1228,-1.6555105648436488,0.0,2.5070807933807373,-1.7679510116577148,-0.0,2.117853879928589,4.8004540903265855,-0.0,0.28460693359375,-1.5967538992511194,-0.0,-0.0036028448957949877,0.7427576184272766,0.0,-0.0026048847939819098,0.7515643239021301,0.00010927063704002649,0.0022713085636496544
351.0,345.0,0.7466,0.4558,9.3721,-0.0363,0.0224,-0.1228,-1.6555186710753382,0.0,2.5273935794830322,-1.7679429054260254,6.037077060483398e-09,2.1340091228485107,4.8005064753587625,-0.0,0.28774744272232056,-1.5967376867877405,-0.0,-0.002491612220183015,0.7426976561546326,0.0,-0.004909898620098829,0.75163733959198,0.00010301700240233913,0.03884162753820419
351.0,345.0,0.7466,0.4558,9.3721,-0.0363,0.0224,-0.1228,-1.6555305920042933,0.0,2.497755765914917,-1.7679429054260254,1.0866524693953217e-12,2.1055502891540527,4.800526942103662,-0.0,0.2805980443954468,-1.5967538992511194,-0.0,-0.0008634128607809544,0.7427775263786316,0.0,0.0005257558077573776,0.7515808343887329,9.923094330588356e-05,-0.005104292184114456
351.0,345.0,0.7466,0.4558,9.3721,-0.0363,0.0224,-0.1228,-1.6555305920042933,0.0,2.4765095710754395,-1.7679749727249146,2.624137435505568e-18,2.098504066467285,4.80052279213027,-0.0,0.2683221697807312,-1.5967333952533167,-0.0,-0.00037933397106826305,0.7427533268928528,0.0,-0.0111849345266819,0.7515648007392883,9.40464306040667e-05,0.024839244782924652
351.0,345.0,0.7466,0.4558,9.3721,-0.0363,0.0224,-0.1228,-1.6555105648436488,0.0,2.450190544128418,-1.767958402633667,4.7233542735845285e-22,2.0994231700897217,4.800506505161085,-0.0,0.2859179377555847,-1.5967133680926722,-0.0,-0.014966672286391258,0.7427735328674316,0.0,0.004119630437344313,0.7516089081764221,9.088079241337255e-05,0.037512604147195816
351.0,345.0,0.7466,0.4558,9.3721,-0.0363,0.0224,-0.1228,-1.6554786167540492,0.0,2.484896183013916,-1.7679272890090942,1.140634416975771e-27,2.132232904434204,4.8004424823220155,-0.0,0.27404695749282837,-1.5967333952533167,-0.0,-0.010155380703508854,0.7427293658256531,0.0,0.0016747901681810617,0.7516089081764221,0.00011042265396099538,-0.009153759106993675
351.0,345.0,0.7466,0.4558,9.3721,-0.0363,0.0224,-0.1228,-1.6555186710753382,0.0,2.449009418487549,-1.7679026126861572,2.0531012709286854e-31,2.0664327144622803,4.800510632782736,-0.0,0.28745293617248535,-1.5967662970172327,-0.0,-0.0035553614143282175,0.7428374886512756,0.0,-0.0034131016582250595,0.7516209483146667,0.00010060404747491702,0.017055146396160126
351.0,345.0,0.7466,0.4558,9.3721,-0.0363,0.0224,-0.1228,-1.6554867229857386,0.0,2.4519834518432617,-1.767923355102539,0.0003237004275433719,2.1407172679901123,4.800502787321367,-0.0,0.2868471145629883,-1.5967252890216272,-0.0,-0.011601762846112251,0.7427815794944763,0.0,-0.005688197910785675,0.7516209483146667,0.00014045763236936182,0.017505692318081856
351.0,345.0,0.7466,0.4558,9.3721,-0.0363,0.0224,-0.1228,-1.655522962609762,0.0,2.481860876083374,-1.7678706645965576,0.0003386313619557768,2.0859858989715576,4.800526949554243,-0.0,0.29650062322616577,-1.5967372099505823,-0.0,0.00505744107067585,0.7426778078079224,0.0,0.0025790492072701454,0.7516168355941772,0.0011275664437562227,-0.002639535814523697
351.0,345.0,0.7466,0.4558,9.3721,-0.0363,0.0224,-0.1228,-1.6555024586119593,0.0,2.505664587020874,-1.7679067850112915,0.0003338220703881234,2.1333420276641846,4.8005064753587625,-0.0,0.291570782661438,-1.596729580556051,-0.0,-0.014613395556807518,0.7427656650543213,0.0,0.008392559364438057,0.7516571283340454,0.002402370562776923,-0.02849653922021389
351.0,345.0,0.7466,0.4558,9.3721,-0.0363,0.0224,-0.1228,-1.655490060845846,0.0,2.533627986907959,-1.767906665802002,0.0004931841976940632,2.1124398708343506,4.800502787321367,-0.0,0.2957771420478821,-1.596757713948385,-0.0,-0.004140463657677174,0.7427775263786316,0.0,-0.0008931619813665748,0.7516449689865112,0.0037892451509833336,0.03812820091843605
351.0,345.0,0.7466,0.4558,9.3721,-0.0363,0.0224,-0.1228,-1.6554786167540492,0.0,2.476475715637207,-1.7678829431533813,0.00040475494461134076,2.0757389068603516,4.8004987118537805,-0.0,0.2958518862724304,-1.596790615712301,-0.0,-0.004919556900858879,0.7427417635917664,0.0,0.007361206226050854,0.7517091035842896,0.005320101510733366,-0.009345407597720623
343.0,333.0,0.5785,0.3165,9.3894,-0.0275,0.031,-0.12,-1.655461927453512,0.0,2.470402240753174,-1.7678821086883545,0.00038246516487561166,2.1558475494384766,4.800522948592462,-0.0,0.2883116602897644,-1.5967901388751429,-0.0,-0.0030660645570605993,0.7427573204040527,0.0,0.004591506905853748,0.7517127990722656,0.007674055639654398,0.011708969250321388
343.0,333.0,0.5785,0.3165,9.3894,-0.0275,0.031,-0.12,-1.6554581127562464,0.0,2.4391837120056152,-1.7679872512817383,0.00033500458812341094,2.1034626960754395,4.800535167544641,-0.0,0.293567419052124,-1.596729580556051,-0.0,-0.02061621844768524,0.7427096962928772,0.0,-0.0025603717658668756,0.7517409920692444,0.008481433615088463,-0.02463807910680771
343.0,333.0,0.5785,0.3165,9.3894,-0.0275,0.031,-0.12,-1.6554824314513148,0.0,2.4757795333862305,-1.7679108381271362,0.00028243273845873773,2.0824942588806152,4.8004987118537805,8.912046212117275e-09,0.29082661867141724,-1.5967662970172327,-0.0,-0.020963354036211967,0.7427219152450562,0.0,0.0008243698393926024,0.7517930269241333,0.008529679849743843,0.00991461519151926
343.0,333.0,0.5785,0.3165,9.3894,-0.0275,0.031,-0.12,-1.6554867229857386,0.0,2.467418670654297,-1.7679274082183838,0.000255683931754902,2.1300408840179443,4.800482715457239,3.799345560384637e-11,0.2875436246395111,-1.596757713948385,7.788046900714107e-07,-0.0052695199847221375,0.7427138686180115,0.0,-0.007958865724503994,0.7518249154090881,0.00818677432835102,-0.018643081188201904
343.0,333.0,0.5785,0.3165,9.3894,-0.0275,0.031,-0.12,-1.6555024586119593,0.0,2.4868650436401367,-1.7679346799850464,0.00022388063371181488,2.103504180908203,4.800518783717909,1.05756196985482e-14,0.29023534059524536,-1.5967782179461878,2.1678314698903023e-10,-0.01619822159409523,0.7428094148635864,0.0,-0.005265208892524242,0.7518688440322876,0.0071702031418681145,0.029162323102355003
343.0,333.0,0.5785,0.3165,9.3894,-0.0275,0.031,-0.12,-1.6555386982359828,0.0,2.5238187313079834,-1.7679190635681152,0.00020673761900980026,2.1461753845214844,4.800494636386194,4.5085525609317076e-17,0.2835489809513092,-1.5967662970172327,9.241806538801134e-13,-0.019233256578445435,0.7427338361740112,0.0,-0.006027784198522568,0.7518928050994873,0.006607211660593748,0.03614673763513565
343.0,333.0,0.5785,0.3165,9.3894,-0.0275,0.031,-0.12,-1.6555024586119593,0.0,2.4309442043304443,-1.767991304397583,0.00015454913955181837,2.078592300415039,4.800531025021829,1.2549720912951711e-20,0.29766133427619934,-1.596757713948385,2.5724906768815334e-16,-0.014522504061460495,0.7427616119384766,0.0,0.00685602892190218,0.7519447803497314,0.005218719597905874,0.03640598803758621
343.0,333.0,0.5785,0.3165,9.3894,-0.0275,0.031,-0.12,-1.6555468044676722,0.0,2.4618382453918457,-1.7678943872451782,0.00014460050442721695,2.106229782104492,4.800494636386194,5.350143011630287e-23,0.27835866808891296,-1.5967538992511194,1.0966930133253614e-18,-0.021826930344104767,0.7427775263786316,0.0,-0.002507393714040518,0.7519570589065552,0.004886149894446135,0.03755250200629234
343.0,333.0,0.5785,0.3165,9.3894,-0.0275,0.031,-0.12,-1.6555024586119593,2.9140572223695926e-05,2.5310282707214355,-1.7679429054260254,0.0001318862196058035,2.117098808288574,4.800518813520231,1.4892318006220433e-26,0.2954533100128174,-1.596802059804098,3.0526854634102547e-22,-0.0008595255203545094,0.7427219152450562,0.0,-0.0010311482474207878,0.7519524693489075,0.0044315834529697895,0.02334626019001007
343.0,333.0,0.5785,0.3165,9.3894,-0.0275,0.031,-0.12,-1.6554938755431117,2.822976966854185e-05,2.5053069591522217,-1.7679469585418701,0.00012458353012334555,2.147228240966797,4.800514730602064,6.348828663525631e-29,0.28567513823509216,-1.5967696348773401,1.3014076983854861e-24,0.002471998566761613,0.7427493929862976,0.0,7.8913988545537e-05,0.7519887685775757,0.004034038167446852,0.04723939299583435
343.0,333.0,0.5785,0.3165,9.3894,-0.0275,0.031,-0.12,-1.65551819423818,2.737124486884568e-05,2.473766326904297,-1.7679067850112915,0.00011804714449681342,2.1308257579803467,4.800486761122503,2.7066051301270875e-31,0.2989432215690613,-1.5967496077166956,5.548105739110019e-27,-0.007720011752098799,0.7427099943161011,0.0,-0.0031691426411271095,0.7520454525947571,0.003998073749244213,-0.011446269229054451
343.0,333.0,0.5785,0.3165,9.3894,-0.0275,0.031,-0.12,-1.6555425129332484,2.6177129257121123e-05,2.4995834827423096,-1.7679706811904907,0.00010943487723125145,2.121349334716797,4.80047461667613,7.533936148961972e-35,0.28392696380615234,-1.596773926411764,1.5443356079690651e-30,-0.007222252897918224,0.7427139282226562,0.0,-0.017578285187482834,0.7520167827606201,0.003983039874583483,0.025623224675655365
343.0,333.0,0.5785,0.3165,9.3894,-0.0275,0.031,-0.12,-1.6555267773070277,2.5437264412175864e-05,2.5408358573913574,-1.7679429054260254,0.00010435908188810572,2.118988513946533,4.800518768816747,3.2118350468718595e-37,0.28419578075408936,-1.5967453161822718,6.583744759599962e-33,0.00035886585828848183,0.7427735328674316,0.0,0.008853541687130928,0.752056896686554,0.0031523793004453182,-0.0028290115296840668
343.0,333.0,0.5785,0.3165,9.3894,-0.0275,0.031,-0.12,-1.655546327630514,2.4402721464866772e-05,2.5432944297790527,-1.7679108381271362,7.832429400878027e-05,2.133216142654419,4.800450759917059,8.940284202392333e-41,0.2893677055835724,-1.5967696348773401,1.8326096117493327e-36,-0.014307048171758652,0.7427494525909424,0.0,-0.004815633874386549,0.7520691752433777,0.0023407156113535166,-0.009826568886637688
343.0,333.0,0.5785,0.3165,9.3894,-0.0275,0.031,-0.12,-1.6555105648436488,2.3758531824569218e-05,2.4820070266723633,-1.7679511308670044,7.481253851437941e-05,2.1071724891662598,4.800470451801576,3.8115318229635024e-43,0.3110120892524719,-1.5967415014850062,7.812701367104082e-39,-0.014071092009544373,0.7427695393562317,0.0,-0.0009691545274108648,0.7520045638084412,0.0018974751001223922,0.023150121793150902
343.0,333.0,0.5785,0.3165,9.3894,-0.0275,0.031,-0.12,-1.6555267773070277,2.285359732923098e-05,2.474850654602051,-1.7679274082183838,7.042218931019306e-05,2.1064229011535645,4.800458992808618,0.0,0.2827422320842743,-1.5967538992511194,2.174815216632116e-42,-0.0021471634972840548,0.7427417039871216,0.0,0.005968364421278238,0.7520732879638672,0.0010857790475711226,0.08001154661178589
343.0,333.0,0.5785,0.3165,9.3894,-0.0275,0.031,-0.12,-1.6554938755431117,1.2442637853382621e-05,2.4659359455108643,-1.7679543495178223,6.777072849217802e-05,2.0957915782928467,4.800442929356851,0.0,0.29076582193374634,-1.5967744032489222,9.80908925027372e-45,-0.012866010889410973,0.7427695393562317,0.0,-0.004666567780077457,0.7520123720169067,0.0007745602051727474,-0.021251527592539787
343.0,333.0,0.5785,0.3165,9.3894,-0.0275,0.031,-0.12,-1.6555668316283167,1.074471674655797e-05,2.4982833862304688,-1.767966628074646,4.833000639337115e-05,2.0793404579162598,4.800470481603899,0.0,0.2968519628047943,-1.5967777411090296,0.0,0.002409121487289667,0.7428013682365417,0.0,0.0038976266514509916,0.7520368099212646,0.00036110455403104424,0.036860041320323944
366.0,344.0,0.7286,0.4708,9.4678,-0.0353,0.0234,-0.1199,-1.6555425129332484,1.0494146408746019e-05,2.5045785903930664,-1.7679388523101807,4.645543958758935e-05,2.1272454261779785,4.800470474153318,0.0,0.2914540767669678,-1.5967701117144983,0.0,-0.014447052031755447,0.7427695393562317,0.0,-0.006006899289786816,0.7520409226417542,-4.677517063100822e-05,0.014041667804121971
366.0,344.0,0.7286,0.4708,9.4678,-0.0353,0.0234,-0.1199,-1.655534406701559,1.0139467121916823e-05,2.5084972381591797,-1.767934799194336,4.41752745246049e-05,2.1281118392944336,4.8004827303584,0.0,0.2916854918003082,-1.5967257658587855,0.0,-0.0036166300997138023,0.7428133487701416,0.0,-0.0021132309921085835,0.7520450949668884,-0.0002898772363550961,0.002311362884938717
366.0,344.0,0.7286,0.4708,9.4678,-0.0353,0.0234,-0.1199,-1.6555224857726039,3.941518400552013e-07,2.5103607177734375,-1.7679749727249146,4.27755803684704e-05,2.1147079467773438,4.80045102813796,0.0,0.2983880639076233,-1.5967415014850062,0.0,-0.010248911567032337,0.7427734732627869,0.0,-0.008478338830173016,0.7519561648368835,-0.0002519495028536767,0.00234117079526186
366.0,344.0,0.7286,0.4708,9.4678,-0.0353,0.0234,-0.1199,-1.655490060845846,9.518304113637077e-13,2.4982786178588867,-1.7679232358932495,4.08347841585055e-05,2.1019554138183594,4.8004949418599985,0.0,0.28945815563201904,-1.596717659627096,0.0,0.003361842129379511,0.7428135871887207,0.0,0.007151070982217789,0.7520127296447754,-0.00020822316582780331,0.03466275706887245
366.0,344.0,0.7286,0.4708,9.4678,-0.0353,0.0234,-0.1199,-1.655546327630514,1.7132611169312612e-16,2.464993953704834,-1.7679988145828247,-2.9464423278113827e-05,2.1073217391967773,4.80048685052947,0.0,0.2957521378993988,-1.5966933409320276,0.0,-0.013312214985489845,0.7427735328674316,0.0,0.0029385725501924753,0.7520008087158203,-0.00023306169896386564,0.004823379218578339
366.0,344.0,0.7286,0.4708,9.4678,-0.0353,0.0234,-0.1199,-1.65551819423818,3.083809456719528e-20,2.5015969276428223,-1.7679429054260254,-4.32271663157735e-05,2.1010589599609375,4.800451057940283,0.0,0.29107218980789185,-1.5967538992511194,0.0,-0.018307197839021683,0.7427734732627869,0.0,-0.00564167182892561,0.7519925832748413,-0.00036292243748903275,0.030080344527959824
366.0,344.0,0.7286,0.4708,9.4678,-0.0353,0.0234,-0.1199,-1.6555420360960902,7.44703676494167e-26,2.504195213317871,-1.767975091934204,-5.502269050339237e-05,2.10766863822937,4.800459253578939,0.0,0.29672569036483765,-1.5967376867877405,0.0,-0.007339247036725283,0.7427575588226318,0.0,0.00943231862038374,0.7520206570625305,-0.00029371760319918394,0.027315158396959305
366.0,344.0,0.7286,0.4708,9.4678,-0.0353,0.0234,-0.1199,-1.655534406701559,1.3404401695195016e-29,2.5100584030151367,-1.767975091934204,-5.3390805987874046e-05,2.1146483421325684,4.800455096154966,0.0,0.27576687932014465,-1.5967453161822718,0.0,-0.004561201669275761,0.7427496910095215,0.0,-0.005262421909719706,0.7520127296447754,-0.00025979746715165675,0.013845104724168777
366.0,344.0,0.7286,0.4708,9.4678,-0.0353,0.0234,-0.1199,-1.655546327630514,3.237005228182078e-35,2.5115652084350586,-1.767958402633667,-5.111649807076901e-05,2.1249771118164062,4.80044328698472,-0.0002840951783582568,0.2950064539909363,-1.5967453161822718,0.0,-0.010146514512598515,0.7427973747253418,0.0,-0.0027295800391584635,0.7520368099212646,-0.00022143975365906954,0.007238314487040043
366.0,344.0,0.7286,0.4708,9.4678,-0.0353,0.0234,-0.1199,-1.6555663547911585,5.8264953185762293e-39,2.467245578765869,-1.7679109573364258,-4.9705027777235955e-05,2.0842981338500977,4.800450998335638,-0.00030249045812524855,0.28742721676826477,-1.5967620054828089,-1.1184049071744084e-05,-0.01732260175049305,0.7428334355354309,0.0,-0.003992205951362848,0.7520168423652649,-0.00020159709674771875,-0.016287261620163918
366.0,344.0,0.7286,0.4708,9.4678,-0.0353,0.0234,-0.1199,-1.655558248559469,1.401298464324817e-44,2.4697811603546143,-1.7679873704910278,-5.826881533721462e-05,2.0715646743774414,4.800406764238634,-0.00029955682111904025,0.29733043909072876,-1.5967662970172327,-1.4541617929353379e-05,-0.0057974341325461864,0.7427735328674316,0.0,-0.009085496887564659,0.7519966959953308,-0.0001777113793650642,-0.034279435873031616
366.0,344.0,0.7286,0.4708,9.4678,-0.0353,0.0234,-0.1199,-1.6555420360960902,0.0,2.4795033931732178,-1.7679585218429565,-5.811886876472272e-05,2.10605525970459,4.800406801491537,-0.0002759937196969986,0.27896854281425476,-1.5967496077166956,-1.4087482668401208e-05,-0.01428750716149807,0.7428334951400757,0.0,-0.00043285603169351816,0.7520487904548645,-0.0001430739212082699,-0.022714126855134964
366.0,344.0,0.7286,0.4708,9.4678,-0.0353,0.0234,-0.1199,-1.6555701694884242,0.0,2.4973158836364746,-1.7679551839828491,-5.595125912805088e-05,2.1231679916381836,4.800447347551145,-0.00027874548686668277,0.30022695660591125,-1.5967901388751429,-1.3455631233227905e-05,-0.007061533629894257,0.7428255081176758,0.0,-0.012409081682562828,0.7520167827606201,-0.00011872518371092156,-0.051476310938596725
366.0,344.0,0.7286,0.4708,9.4678,-0.0353,0.0234,-0.1199,-1.655586381951803,-0.00025968393310904503,2.4632010459899902,-1.767958402633667,-5.459369640448131e-05,2.1157922744750977,4.800370740681448,-0.00025874655693769455,0.2897905707359314,-1.5967538992511194,-1.3064969607512467e-05,-0.009277083911001682,0.7427294850349426,0.0,0.0021875377278774977,0.7520569562911987,-8.366623660549521e-05,-0.024422215297818184
366.0,344.0,0.7286,0.4708,9.4678,-0.0353,0.0234,-0.1199,-1.6555987797179164,-0.0002663856139406562,2.4882893562316895,-1.7679346799850464,-5.267656524665654e-05,2.119377851486206,4.80045102813796,-0.00023356298333965242,0.2830154597759247,-1.5967419783221644,-1.251973935723072e-05,-0.006932652555406094,0.7427456378936768,0.0,-0.024082766845822334,0.7520085573196411,-7.643915159860626e-05,-0.021302182227373123
366.0,344.0,0.7286,0.4708,9.4678,-0.0353,0.0234,-0.1199,-1.6556226215758265,-0.00024248282716143876,2.4481723308563232,-1.7679667472839355,-5.147154297446832e-05,2.149751663208008,4.8004068089421175,-0.00021933158859610558,0.28790128231048584,-1.5967496077166956,-1.2180846169940196e-05,-0.011991878971457481,0.742801308631897,0.0,0.00040432647801935673,0.752016544342041,6.825936725363135e-05,0.0026475402992218733
366.0,344.0,0.7286,0.4708,9.4678,-0.0353,0.0234,-0.1199,-1.655558248559469,-0.0002551967918407172,2.477964162826538,-1.7679709196090698,-5.032041735830717e-05,2.112619400024414,4.800422768085756,-0.00020696928550023586,0.290149986743927,-1.5967496077166956,-1.1859820915560704e-05,-0.0034571911673992872,0.7427893877029419,0.0,-0.0032997860107570887,0.7519921064376831,6.402823055395856e-05,0.0811355859041214
366.0,344.0,0.7286,0.4708,9.4678,-0.0353,0.0234,-0.1199,-1.6555782757201136,-0.00023102411068975925,2.5349419116973877,-1.7679388523101807,-2.624567052578186e-08,2.1679115295410156,4.800399090140619,-0.00018480804283171892,0.2825591564178467,-1.596757713948385,-1.140880340244621e-05,-0.024198491126298904,0.7427854537963867,0.0,-0.006984001025557518,0.7520044445991516,8.677952428115532e-05,-0.017357921227812767
366.0,344.0,0.7286,0.4708,9.4678,-0.0353,0.0234,-0.1199,-1.655602594415182,-0.00024236241006292403,2.4983723163604736,-1.7679461240768433,-4.724128206679001e-12,2.1214635372161865,4.800443249731817,-0.00017077891970984638,0.29502397775650024,-1.5967901388751429,-1.1126695426355582e-05,-0.015918271616101265,0.7428215146064758,0.0,0.0010864522773772478,0.7520691752433777,8.153969247359782e-05,-0.017111847177147865
355.0,341.0,0.5922,0.2788,9.6,-0.0246,0.0307,-0.1184,-1.6555901966490687,-0.0002231180260423571,2.4942193031311035,-1.7679510116577148,-1.1408213619257791e-17,2.1272659301757812,4.8004752425249,-0.0001533208996988833,0.28471919894218445,-1.5967333952533167,-1.0728794222814031e-05,-0.003211610484868288,0.7427973747253418,0.0,-0.006376175209879875,0.75202476978302,7.476586324628443e-05,0.0553852878510952
355.0,341.0,0.5922,0.2788,9.6,-0.0246,0.0307,-0.1184,-1.655602594415182,-0.00021009580814279616,2.476646661758423,-1.7680360078811646,-2.0534383082620282e-21,2.1540141105651855,4.80043092647151,-0.00014353860751725733,0.3002135157585144,-1.5967662970172327,-1.0478956028237008e-05,-0.010194088332355022,0.7427973747253418,0.0,-0.009875146672129631,0.7520445585250854,9.350713662570342e-05,0.024387430399656296
355.0,341.0,0.5922,0.2788,9.6,-0.0246,0.0307,-0.1184,-1.655586381951803,-0.00019318447448313236,2.486721992492676,-1.7679543495178223,-4.958811235470368e-27,2.126904249191284,4.800439114659586,-0.0001310015795752406,0.3057238459587097,-1.5967538992511194,-1.012528628052678e-05,-0.0044314502738416195,0.7428253889083862,0.0,-0.005165122449398041,0.7520691752433777,8.756406168686226e-05,-0.02732919342815876
355.0,341.0,0.5922,0.2788,9.6,-0.0246,0.0307,-0.1184,-1.6556068859496058,-0.00018334547348786145,2.5015814304351807,-1.7679388523101807,-8.925685651838899e-31,2.1277339458465576,4.800439114659586,-0.00012379334657453,0.2919410467147827,-1.5967662970172327,-5.0193430070066825e-06,-0.006194370798766613,0.7427456974983215,0.0,-0.005765469744801521,0.752061128616333,8.350188727490604e-05,-0.020856859162449837
355.0,341.0,0.5922,0.2788,9.6,-0.0246,0.0307,-0.1184,-1.655574461022848,-0.00017033317999448627,2.5158605575561523,-1.7679067850112915,-2.1554479714501722e-36,2.1375350952148438,4.800435039191999,-0.00011435512715252116,0.2981640100479126,-1.5967496077166956,-1.3971526158229608e-09,-0.0010361981112509966,0.742845356464386,0.0,0.013211213983595371,0.7519843578338623,9.731918544275686e-05,-0.0030255187302827835
355.0,341.0,0.5922,0.2788,9.6,-0.0246,0.0307,-0.1184,-1.6555782757201136,-0.0001594533387105912,2.4813833236694336,-1.7679543495178223,-3.879733019222191e-40,2.122100353240967,4.800419147103586,-0.00010882391507038847,0.29127198457717896,-1.596729580556051,-5.956280173941009e-12,0.0064339470118284225,0.7427456974983215,0.0,0.008423450402915478,0.7520610690116882,9.353028144687414e-05,-0.009008790366351604
355.0,341.0,0.5922,0.2788,9.6,-0.0246,0.0307,-0.1184,-1.6555820904173792,-0.00014407113485503942,2.4838221073150635,-1.7679502964019775,-1.401298464324817e-45,2.126732349395752,4.800447347551145,-0.00010146261774934828,0.29241758584976196,-1.5967782179461878,-1.6579523271650584e-15,0.001916204346343875,0.7428215146064758,0.0,0.009638280607759953,0.7520206570625305,8.804063691059127e-05,0.03129821643233299
355.0,341.0,0.5922,0.2788,9.6,-0.0246,0.0307,-0.1184,-1.655614515344137,-0.00016246619634330273,2.491943836212158,-1.7679191827774048,-0.0,2.1386470794677734,4.8003666428621194,-0.00011148541670991108,0.29410451650619507,-1.5967982451068323,-7.068110268935974e-18,-0.0024440051056444645,0.7428691387176514,0.0,0.004713596776127815,0.7520123720169067,8.472538320347667e-05,0.03656936064362526
355.0,341.0,0.5922,0.2788,9.6,-0.0246,0.0307,-0.1184,-1.6555539570250453,-0.00017382646910846233,2.499284267425537,-1.7679429054260254,-3.0507684641634114e-05,2.1084094047546387,4.800443257182398,-0.0001264389866264537,0.29702994227409363,-1.5967701117144983,-1.9674343447247796e-21,-0.006147035397589207,0.7427814602851868,0.0,0.00446906266734004,0.7520445585250854,8.019572851480916e-05,-0.03289979323744774
355.0,341.0,0.5922,0.2788,9.6,-0.0246,0.0307,-0.1184,-1.6555901966490687,-0.0001647720782784745,2.499066114425659,-1.767983317375183,-2.006736940529663e-05,2.103154182434082,4.800378981023588,-0.0001396120060235262,0.2983003258705139,-1.5967620054828089,-8.387481533228265e-24,0.0016524489037692547,0.7428373694419861,0.0,-0.003411795711144805,0.7520326972007751,7.743574678897858e-05,0.014769839122891426
355.0,341.0,0.5922,0.2788,9.6,-0.0246,0.0307,-0.1184,-1.6555820904173792,-0.00017894594930112362,2.4862048625946045,-1.7679511308670044,-1.447614067728864e-05,2.1351842880249023,4.800455453782835,-0.00013797984865959734,0.29478418827056885,-1.5967744032489222,-3.575714814818781e-26,-0.003091452643275261,0.7428492307662964,0.0,0.007481108419597149,0.7520528435707092,7.485939568141475e-05,-0.021116953343153
355.0,341.0,0.5922,0.2788,9.6,-0.0246,0.0307,-0.1184,-1.6555820904173792,-0.000287046714220196,2.4770596027374268,-1.767923355102539,-2.5642505896428247e-09,2.1262519359588623,4.8003588421042345,-0.00012923244503326714,0.2958534061908722,-1.5967376867877405,-9.953134482536705e-30,0.007054558955132961,0.7427615523338318,0.0,0.006591975688934326,0.7520528435707092,7.130104495445266e-05,0.024707844480872154
355.0,341.0,0.5922,0.2788,9.6,-0.0246,0.0307,-0.1184,-1.6555777988829554,-0.00035034053144045174,2.5450596809387207,-1.767934799194336,-4.615560321094558e-13,2.122302532196045,4.800407181471147,-0.0001464396482333541,0.27269798517227173,-1.5967496077166956,-4.24317696231222e-32,-0.002148215426132083,0.7427497506141663,0.0,0.00926917977631092,0.7520445585250854,6.911103992024437e-05,0.016337187960743904
355.0,341.0,0.5922,0.2788,9.6,-0.0246,0.0307,-0.1184,-1.6556183300414027,-0.000609218142926693,2.4410433769226074,-1.7679873704910278,-1.1146033347435127e-18,2.0873780250549316,4.80037489065484,-0.00015800833352841437,0.29414770007133484,-1.5967419783221644,-1.1811038494684692e-35,-0.010682418011128902,0.7427973747253418,0.0,0.01267552375793457,0.7520732879638672,6.606703391298652e-05,-0.032063182443380356
355.0,341.0,0.5922,0.2788,9.6,-0.0246,0.0307,-0.1184,-1.6556140385069789,-0.0007685288437642157,2.5190634727478027,-1.7679193019866943,-2.0062467051584368e-22,2.145503282546997,4.800419117301264,-0.0001506405242253095,0.29834356904029846,-1.5967214743243616,-5.035231401477949e-38,0.015433015301823616,0.742829442024231,0.0,-0.007334929890930653,0.7520527839660645,9.933934779837728e-05,0.01760919764637947
355.0,341.0,0.5922,0.2788,9.6,-0.0246,0.0307,-0.1184,-1.6556178532042445,-0.001699587213806808,2.49405574798584,-1.7679224014282227,-4.8448496273186005e-28,2.1366498470306396,4.800363044231691,-0.00014055830251891166,0.30205607414245605,-1.5967538992511194,-1.401578724017682e-41,0.005766164977103472,0.7427814602851868,0.0,0.0068809534423053265,0.7520445585250854,9.321979450760409e-05,-0.004776455461978912
355.0,341.0,0.5922,0.2788,9.6,-0.0246,0.0307,-0.1184,-1.6556784115233363,-0.003041120944544673,2.4817137718200684,-1.7679790258407593,-8.720558243587922e-32,2.15554141998291,4.8004310233290575,-0.00013455402222461998,0.29296910762786865,-1.596717659627096,-6.025583396596713e-44,0.0002769900602288544,0.7427774667739868,0.0,0.02458537183701992,0.7520527839660645,0.0001245960738742724,0.02584652230143547
355.0,341.0,0.5922,0.2788,9.6,-0.0246,0.0307,-0.1184,-1.6557146511473597,-0.006126606371253729,2.4733853340148926,-1.767898440361023,-2.1059121379986162e-37,2.1246721744537354,4.8003871170576,-0.00012645167589653283,0.29473185539245605,-1.5967133680926722,-0.0,-0.009675602428615093,0.742801308631897,0.0,0.025717327371239662,0.752109169960022,0.0007492563454434276,0.05111825093626976
378.0,335.0,0.4947,0.1292,9.4744,-0.0374,0.0351,-0.1229,-1.6557423077025355,-0.008394633419811726,2.492892026901245,-1.7679109573364258,-3.79051234599863e-41,2.1367123126983643,4.800459290831842,-0.00012157121818745509,0.3122352361679077,-1.5967376867877405,-0.0,0.003589223138988018,0.7427974343299866,0.0,0.025874000042676926,0.7521330714225769,0.002434220165014267,0.04563295096158981
378.0,335.0,0.4947,0.1292,9.4744,-0.0374,0.0351,-0.1229,-1.6558262310423792,-0.010065468959510326,2.46402645111084,-1.7679510116577148,-0.0,2.147697925567627,4.800367156952181,-0.0001311922969762236,0.304104208946228,-1.5967095533954065,-0.0,-0.003988252487033606,0.7428053021430969,0.0,0.022174673154950142,0.7521212100982666,0.0037299287505447865,0.00017280085012316704
378.0,335.0,0.4947,0.1292,9.4744,-0.0374,0.0351,-0.1229,-1.6558176479735316,-0.010177940130233765,2.455501079559326,-1.767881989479065,-0.0,2.173001289367676,4.8004071963723085,-0.00017727955128066242,0.3021090030670166,-1.59674579301943,-0.0,0.0018980326130986214,0.7428056001663208,0.0,0.01775430515408516,0.752177357673645,0.005417679902166128,0.03835650533437729
378.0,335.0,0.4947,0.1292,9.4744,-0.0374,0.0351,-0.1229,-1.6558863125243128,-0.009871827438473701,2.485466957092285,-1.7679314613342285,-0.0,2.127945899963379,4.8003666503127,-0.00019860676547978073,0.30690866708755493,-1.5967376867877405,-0.0,0.00579154584556818,0.7427893877029419,0.0,0.00984511524438858,0.7521364688873291,0.00688139209523797,0.058801040053367615
378.0,335.0,0.4947,0.1292,9.4744,-0.0374,0.0351,-0.1229,-1.6559621296324671,-0.00964838545769453,2.435372829437256,-1.7679107189178467,-0.0,2.150907039642334,4.800374853401937,-0.0007349904626607895,0.29937422275543213,-1.5967019240008753,-0.0,-0.0065069422125816345,0.7427294850349426,0.0,0.014124362729489803,0.7521844506263733,0.00892464630305767,0.02902236208319664
378.0,335.0,0.4947,0.1292,9.4744,-0.0374,0.0351,-0.1229,-1.656001707116598,-0.009473848156630993,2.474743366241455,-1.767886996269226,-0.0,2.1275181770324707,4.800371195166864,-0.0008739742916077375,0.3112875521183014,-1.5967300573932093,-0.0,0.0034239180386066437,0.7427973747253418,0.0,0.010819882154464722,0.7522485852241516,0.01078595221042633,0.023308422416448593
378.0,335.0,0.4947,0.1292,9.4744,-0.0374,0.0351,-0.1229,-1.656126161614889,-0.010296748019754887,2.45926833152771,-1.7679274082183838,-0.0,2.0917534828186035,4.8003671047981165,-0.001233090297318995,0.3032015562057495,-1.5967620054828089,-0.0,-0.012334979139268398,0.7427853941917419,0.0,0.01588883064687252,0.7523449063301086,0.012362408451735973,0.11993028223514557
378.0,335.0,0.4947,0.1292,9.4744,-0.0374,0.0351,-0.1229,-1.6561500034727992,-0.011184079572558403,2.432711124420166,-1.767895221710205,-0.0,2.107583522796631,4.800347703486242,-0.001132464618422091,0.3045418858528137,-1.5967257658587855,-0.0,-0.016266440972685814,0.7427135705947876,0.0,0.005865440238267183,0.7523247003555298,0.011909293942153454,0.027386773377656937
378.0,335.0,0.4947,0.1292,9.4744,-0.0374,0.0351,-0.1229,-1.6561771831908167,-0.01206674799323082,2.5150537490844727,-1.7679024934768677,-0.0,2.154906749725342,4.800315330713548,-0.0011945499572902918,0.29065731167793274,-1.5967181364642542,-0.0,-0.013422807678580284,0.742829442024231,0.0,-2.9863091185688972e-05,0.752400815486908,0.012416780926287174,0.05817357823252678
378.0,335.0,0.4947,0.1292,9.4744,-0.0374,0.0351,-0.1229,-1.6562773189940394,-0.012691907584667206,2.4418447017669678,-1.7679026126861572,-0.0,2.108097553253174,4.800383101194658,-0.001140202977694571,0.303940087556839,-1.5966857115374964,-0.0,0.008176906034350395,0.7427974343299866,0.0,0.006676842924207449,0.7525414228439331,0.01234130933880806,0.037102632224559784
378.0,335.0,0.4947,0.1292,9.4744,-0.0374,0.0351,-0.1229,-1.6563416920103968,-0.013812307268381119,2.4703598022460938,-1.767898440361023,0.00019248714670538902,2.1411731243133545,4.800283002644338,-0.0011954199289903045,0.3069000542163849,-1.596689526234762,-0.0,-0.011762016452848911,0.7427974343299866,0.0,0.013711327686905861,0.7525571584701538,0.012116373516619205,0.038197100162506104
378.0,335.0,0.4947,0.1292,9.4744,-0.0374,0.0351,-0.1229,-1.6564256153502406,-0.013994555920362473,2.4744203090667725,-1.7679469585418701,0.00017736619338393211,2.1081395149230957,4.800315330713548,-0.0011218897998332977,0.29953351616859436,-1.5966737906085413,-0.0,-0.0004734015092253685,0.7428056001663208,0.0,0.012450985610485077,0.7526088953018188,0.012237010523676872,0.07952626794576645
378.0,335.0,0.4947,0.1292,9.4744,-0.0374,0.0351,-0.1229,-1.6564651928343714,-0.0149363549426198,2.405366897583008,-1.7679107189178467,0.00015861046267673373,2.1242034435272217,4.800331342011251,-0.0012292786268517375,0.30440375208854675,-1.5967138449298304,-0.0,-0.00854838639497757,0.7427774667739868,0.0,-0.010358299128711224,0.7526446580886841,0.012019041925668716,0.06460846215486526
378.0,335.0,0.4947,0.1292,9.4744,-0.0374,0.0351,-0.1229,-1.656609674493307,-0.015814781188964844,2.448495864868164,-1.767983078956604,0.00014816543261986226,2.1288094520568848,4.8003111881907365,-0.0011395117035135627,0.31075742840766907,-1.5967138449298304,-0.0,0.008437775075435638,0.7428135871887207,0.0,0.011953240260481834,0.7527248859405518,0.01217246986925602,0.0014913068152964115
378.0,335.0,0.4947,0.1292,9.4744,-0.0374,0.0351,-0.1229,-1.656661172906393,-0.017050111666321754,2.4536819458007812,-1.7679511308670044,0.0001618128881091252,2.121318817138672,4.800323191076078,-0.0009916857816278934,0.2959257960319519,-1.5966656843768519,-0.0,-0.015350127592682838,0.7427735328674316,0.0,0.001078292727470398,0.7527524828910828,0.010764723643660545,0.023632140830159187
378.0,335.0,0.4947,0.1292,9.4744,-0.0374,0.0351,-0.1229,-1.656769414941305,-0.01742163486778736,2.4792046546936035,-1.7679189443588257,0.00017806788673624396,2.089470863342285,4.800291190832414,-0.0007775729754939675,0.3076423108577728,-1.5967019240008753,-0.0,0.0074139973148703575,0.7428253889083862,0.0,0.0043742461130023,0.7528409361839294,0.010462053120136261,0.02590130642056465
378.0,335.0,0.4947,0.1292,9.4744,-0.0374,0.0351,-0.1229,-1.656804700891012,-0.018883079290390015,2.4032390117645264,-1.7679437398910522,0.00019262131536379457,2.165498733520508,4.800375203579225,-0.0006235125474631786,0.30259525775909424,-1.5966976324664515,-0.0,-0.003824345301836729,0.742825448513031,0.0,0.00010438170284032822,0.7528811693191528,0.008504320867359638,0.010450419038534164
378.0,335.0,0.4947,0.1292,9.4744,-0.0374,0.0351,-0.1229,-1.6569205723204554,-0.020730383694171906,2.450972557067871,-1.7679026126861572,0.0002887572627514601,2.1114792823791504,4.80028302499608,-0.0004806477518286556,0.30326876044273376,-1.5966938177691858,-0.0,0.00854559987783432,0.742809534072876,0.0,-0.0009864445310086012,0.7529129385948181,0.006314845290035009,0.05242519825696945
378.0,335.0,0.4947,0.1292,9.4744,-0.0374,0.0351,-0.1229,-1.6570450268187464,-0.023394960910081863,2.4633169174194336,-1.7678797245025635,0.0003334846696816385,2.0847644805908203,4.800367156952181,-0.0004169770109001547,0.31361624598503113,-1.596694294606344,-0.0,-0.011846158653497696,0.7428135871887207,0.0,-0.007916475646197796,0.752888560295105,0.004386387299746275,0.045050859451293945
355.0,335.0,0.6556,0.8213,9.4798,-0.0267,0.0021,-0.1165,-1.6571928463377894,-0.0251177828758955,2.4538090229034424,-1.7679076194763184,0.0008419355726800859,2.123664379119873,4.800327169686117,-0.00034786915057338774,0.306540310382843,-1.5966861883746546,-0.0,0.0035623738076537848,0.7427815198898315,0.0,0.00961890909820795,0.7529369592666626,0.002625026972964406,0.01987326890230179
355.0,335.0,0.6556,0.8213,9.4798,-0.0267,0.0021,-0.1165,-1.6572920284666957,-0.027152210474014282,2.457895517349243,-1.7679355144500732,0.0012259577633813024,2.1432809829711914,4.800343501358785,-0.00031326201860792935,0.3051750063896179,-1.596682373677389,-0.0,0.0055404650047421455,0.7427973747253418,0.0,-0.002342327730730176,0.7529247999191284,0.0015642622020095587,0.030457166954874992
355.0,335.0,0.6556,0.8213,9.4798,-0.0267,0.0021,-0.1165,-1.6575128040709437,-0.03096429444849491,2.453530788421631,-1.7678797245025635,0.0018965596100315452,2.179933547973633,4.800278867572107,-0.0002725886879488826,0.31745195388793945,-1.5966981093036097,-0.0,-0.0021680649369955063,0.7427973747253418,0.0,-0.0010500127682462335,0.7529084086418152,0.00034709155443124473,0.0034609304275363684
355.0,335.0,0.6556,0.8213,9.4798,-0.0267,0.0021,-0.1165,-1.6576644382872523,-0.0340227410197258,2.44343638420105,-1.7678507566452026,0.0028459366876631975,2.152940511703491,4.8003674177225015,-0.0002508745528757572,0.3077656328678131,-1.596694294606344,-0.0,-0.00542093301191926,0.7427893877029419,0.0,0.007787973154336214,0.7528486251831055,3.744491550605744e-05,0.018284758552908897
355.0,335.0,0.6556,0.8213,9.4798,-0.0267,0.0021,-0.1165,-1.6578442058958949,-0.03747127205133438,2.4372003078460693,-1.7679239511489868,0.003794627031311393,2.156552791595459,4.800311143487253,-0.000224098825128749,0.2957753539085388,-1.596661392842428,-0.0,0.010131210088729858,0.742801308631897,0.0,0.00803733803331852,0.7528406977653503,9.042507020939894e-11,0.008062439039349556
355.0,335.0,0.6556,0.8213,9.4798,-0.0267,0.0021,-0.1165,-1.6579719982542933,-0.04086079075932503,2.410281181335449,-1.7678309679031372,0.005045014899224043,2.15090274810791,4.800327169686117,-0.00020921279792673886,0.31793779134750366,-1.5966656843768519,0.00015846683527342975,-0.013146323151886463,0.7427656650543213,0.0,-0.00576670840382576,0.7529049515724182,-0.0012031316291540861,-0.04138066992163658
355.0,335.0,0.6556,0.8213,9.4798,-0.0267,0.0021,-0.1165,-1.6581956348814906,-0.046255603432655334,2.400984525680542,-1.7677998542785645,0.005989708937704563,2.1450555324554443,4.800323198526659,-0.00019025604706257582,0.31188803911209106,-1.5966699759112757,0.00017304903303738683,0.011829737573862076,0.7427933216094971,0.0,-0.008069210685789585,0.7528567910194397,-0.001908137695863843,-0.0035076995845884085
355.0,335.0,0.6556,0.8213,9.4798,-0.0267,0.0021,-0.1165,-1.6584516964354457,-0.049791090190410614,2.4274964332580566,-1.767738938331604,0.006399724632501602,2.1531636714935303,4.800351719349184,-0.00017941882833838463,0.30214178562164307,-1.5966737906085413,0.0001660537236602977,0.004202612675726414,0.7427735328674316,0.0,-0.004068620502948761,0.7527720332145691,-0.0017062773695215583,-0.0491989329457283
355.0,335.0,0.6556,0.8213,9.4798,-0.0267,0.0021,-0.1165,-1.6586200199522914,-0.05315897613763809,2.408320426940918,-1.7676953077316284,0.006558991502970457,2.1437408924102783,4.8003031490142725,-0.00016974940081126988,0.3195234537124634,-1.596661392842428,0.0001807679800549522,0.01465516071766615,0.7427537441253662,0.0,0.0027903954032808542,0.7528368830680847,-0.0014115810627117753,-0.06541219353675842
355.0,335.0,0.6556,0.8213,9.4798,-0.0267,0.0021,-0.1165,-1.6589952907957972,-0.058356501162052155,2.3979625701904297,-1.7677117586135864,0.00883617252111435,2.1577553749084473,4.800327229290762,-0.000157053567818366,0.312255859375,-1.596682373677389,0.0001797060831449926,0.009125524200499058,0.7428171038627625,0.0,0.00507710175588727,0.7527760863304138,-0.0007548375288024545,-0.013790275901556015
355.0,335.0,0.6556,0.8213,9.4798,-0.0267,0.0021,-0.1165,-1.65922274212026,-0.06324470043182373,2.383556365966797,-1.767623782157898,0.009497607126832008,2.1372532844543457,4.800343501358785,-0.00014959473628550768,0.3086453378200531,-1.5966537634478968,0.00018214868032373488,0.018208786845207214,0.742801308631897,0.0,0.00274726958014071,0.7528165578842163,-0.0005650520324707031,-0.03018360212445259
355.0,335.0,0.6556,0.8213,9.4798,-0.0267,0.0021,-0.1165,-1.6596266231932582,-0.06784288585186005,2.3735787868499756,-1.7675760984420776,0.011210820637643337,2.1455624103546143,4.800331342011251,-0.00013964650861453265,0.3054899573326111,-1.5966904799090784,0.00016934388258960098,0.008894717320799828,0.7427497506141663,0.0,-0.004594606347382069,0.7528206706047058,-0.00041037274058908224,-0.03489310294389725
355.0,335.0,0.6556,0.8213,9.4798,-0.0267,0.0021,-0.1165,-1.659938474694723,-0.07159241288900375,2.3510231971740723,-1.7675440311431885,0.012766759842634201,2.199706554412842,4.800371232419767,-0.00013371833483688533,0.3007065951824188,-1.5966537634478968,0.0002421060489723459,0.009242440573871136,0.7427656650543213,0.0,-0.006756206974387169,0.7527964115142822,-0.0003470526135060936,-0.07900551706552505
355.0,335.0,0.6556,0.8213,9.4798,-0.0267,0.0021,-0.1165,-1.6603661976256312,-0.07832476496696472,2.357522487640381,-1.7674641609191895,0.015415800735354424,2.134683609008789,4.800375225930967,-5.007680010749027e-05,0.3074042797088623,-1.5966256300555628,0.0002131342189386487,0.021902909502387047,0.7428135871887207,0.0,-0.002315410180017352,0.7528406381607056,-0.00028183116228319705,-0.06054013594985008
355.0,335.0,0.6556,0.8213,9.4798,-0.0267,0.0021,-0.1165,-1.660661359826559,-0.0808967798948288,2.3624722957611084,-1.767340064048767,0.016781222075223923,2.180330991744995,4.800331342011251,-3.710552118718624e-05,0.2853260040283203,-1.5966737906085413,0.0002309693518327549,0.019872434437274933,0.7427893877029419,0.0,-0.0038617674726992846,0.7528165578842163,-0.00025045371148735285,-0.046378977596759796
355.0,335.0,0.6556,0.8213,9.4798,-0.0267,0.0021,-0.1165,-1.661201616326803,-0.08005277812480927,2.329774856567383,-1.7672600746154785,0.018968403339385986,2.1766698360443115,4.800335410028257,-3.490126255201176e-05,0.3052055537700653,-1.5966537634478968,0.00020678187138400972,0.019716326147317886,0.7428333759307861,0.0,-0.0015581465559080243,0.7528529763221741,-0.00021461574942804873,-0.06607620418071747
355.0,335.0,0.6556,0.8213,9.4798,-0.0267,0.0021,-0.1165,-1.6614843807616175,-0.07518889755010605,2.3481199741363525,-1.7672165632247925,0.01881316304206848,2.1197712421417236,4.800359214633264,-3.359828406246379e-05,0.2970821261405945,-1.5966132322894495,0.0001920705835800618,0.02153874561190605,0.7428373098373413,0.0,-0.003828209126368165,0.7528529763221741,-0.00019592592434491962,-0.05658045411109924
355.0,335.0,0.6556,0.8213,9.4798,-0.0267,0.0021,-0.1165,-1.6619440517821253,-0.07072167843580246,2.3309059143066406,-1.7671129703521729,0.017791561782360077,2.154508590698242,4.800395297795095,-4.768922372022644e-05,0.31142741441726685,-1.596649471913473,0.00018773446208797395,0.011367722414433956,0.7427537441253662,0.0,0.0005217427387833595,0.7528489232063293,-0.00013863883214071393,-0.09088417887687683
361.0,317.0,-0.1059,0.1974,9.32,-0.0302,-0.0315,-0.1234,-1.6622878513731898,-0.07062971591949463,2.344546318054199,-1.767040491104126,0.016023460775613785,2.1552577018737793,4.800351778953829,-4.609518509823829e-05,0.2860497534275055,-1.5966375509845179,0.00019018133752979338,0.019988853484392166,0.7428333759307861,0.0,0.007200419437140226,0.7528162002563477,-0.00012871819490101188,-0.07885732501745224
361.0,317.0,-0.1059,0.1974,9.32,-0.0302,-0.0315,-0.1234,-1.662715574304098,-0.0741393193602562,2.3845486640930176,-1.7669328451156616,0.012729309499263763,2.1293282508850098,4.8002787856157205,-5.844940824317746e-05,0.2958765923976898,-1.5966537634478968,0.0001744400942698121,0.029451321810483932,0.7427815198898315,0.0,-0.003563794307410717,0.7528486251831055,-8.718617027625442e-05,-0.08364376425743103
361.0,317.0,-0.1059,0.1974,9.32,-0.0302,-0.0315,-0.1234,-1.6629868946471156,-0.07652746140956879,2.3656487464904785,-1.766897439956665,0.010442639701068401,2.102771043777466,4.80034767368392,-5.662660623784177e-05,0.2883983254432678,-1.5966861883746546,0.00016528632841072977,0.019249852746725082,0.742801308631897,0.0,0.003779380116611719,0.7528082728385925,-8.189701475203037e-05,-0.055970143526792526
361.0,317.0,-0.1059,0.1974,9.32,-0.0302,-0.0315,-0.1234,-1.663279195825094,-0.07949815690517426,2.345426559448242,-1.7668694257736206,0.008745625615119934,2.1630873680114746,4.800295243948259,-5.4899643146200106e-05,0.29361024498939514,-1.5966699759112757,0.00015704533143434674,0.025894345715641975,0.7427852749824524,0.0,-0.0009273733012378216,0.7528164982795715,-7.721284055151045e-05,-0.04131156951189041
361.0,317.0,-0.1059,0.1974,9.32,-0.0302,-0.0315,-0.1234,-1.6636740169920863,-0.08101694285869598,2.3139984607696533,-1.7668135166168213,0.00906781293451786,2.157238006591797,4.800343501358785,-5.249786045169458e-05,0.2810252606868744,-1.5966294447528284,0.00016697909450158477,0.02885030396282673,0.7427973747253418,0.0,-0.014852683991193771,0.7528848648071289,-7.111195009201765e-05,-0.11763229966163635
361.0,317.0,-0.1059,0.1974,9.32,-0.0302,-0.0315,-0.1234,-1.6640058956541957,-0.0815114751458168,2.322021722793579,-1.7668224573135376,0.010472341440618038,2.1743204593658447,4.800371202617445,-4.153940608375706e-05,0.2977316081523895,-1.5966256300555628,0.0001595883077243343,0.02715345472097397,0.7427893877029419,0.0,-0.003413447178900242,0.7528567910194397,-6.755352660547942e-05,-0.1351965367794037
361.0,317.0,-0.1059,0.1974,9.32,-0.0302,-0.0315,-0.1234,-1.6644493542113246,-0.08281809836626053,2.326578378677368,-1.7666540145874023,0.013788186945021152,2.1622605323791504,4.800399447768488,-3.669855868793093e-05,0.2798555791378021,-1.5966175238238733,0.00014550382911693305,0.022880662232637405,0.7427815198898315,0.0,-8.903723210096359e-05,0.7528327107429504,-6.28370326012373e-05,-0.1012839823961258
361.0,317.0,-0.1059,0.1974,9.32,-0.0302,-0.0315,-0.1234,-1.6648174724974574,-0.08367778360843658,2.3394079208374023,-1.7666382789611816,0.015959909185767174,2.119835376739502,4.800327147334375,-3.572649438865483e-05,0.3051759898662567,-1.5966780821429651,0.00013666173617821187,0.03440573811531067,0.7428215146064758,0.0,-0.003322334960103035,0.7528324127197266,-6.004231909173541e-05,-0.09732970595359802
361.0,317.0,-0.1059,0.1974,9.32,-0.0302,-0.0315,-0.1234,-1.6653653583922328,-0.08481297641992569,2.368316888809204,-1.7664942741394043,0.018342290073633194,2.1340293884277344,4.800383116095819,2.733393012022134e-05,0.2907273471355438,-1.5966537634478968,0.00012524973135441542,0.036210253834724426,0.7427695989608765,0.0,-0.012136315926909447,0.7528489232063293,4.0726750739850104e-05,-0.11998144537210464
361.0,317.0,-0.1059,0.1974,9.32,-0.0302,-0.0315,-0.1234,-1.6656438312926234,-0.0887494906783104,2.31050968170166,-1.7664425373077393,0.019657140597701073,2.152040958404541,4.800335387676515,2.6012299713329412e-05,0.31662097573280334,-1.5966737906085413,0.00011864460248034447,0.03245966136455536,0.742729663848877,0.0,0.0034665323328226805,0.7528808116912842,5.820313162985258e-05,-0.08491061627864838
361.0,317.0,-0.1059,0.1974,9.32,-0.0302,-0.0315,-0.1234,-1.6661950550475062,-0.09457725286483765,2.2816176414489746,-1.7663273811340332,0.020283346995711327,2.176241397857666,4.800355176418581,2.393766953900922e-05,0.29565972089767456,-1.5967028776751917,0.00010994762851623818,0.02275995910167694,0.7427695989608765,0.0,0.0031166004482656717,0.7528406381607056,7.319467113120481e-05,-0.09313705563545227
361.0,317.0,-0.1059,0.1974,9.32,-0.0302,-0.0315,-0.1234,-1.6666151485838832,-0.09775658696889877,2.34797739982605,-1.7662911415100098,0.022066010162234306,2.127532720565796,4.800351138203897,2.272855090268422e-05,0.30230534076690674,-1.5966418425189417,0.00012507739302236587,0.04001496732234955,0.742801308631897,0.0,0.009070518426597118,0.7528645992279053,7.034385635051876e-05,-0.08480113744735718
361.0,317.0,-0.1059,0.1974,9.32,-0.0302,-0.0315,-0.1234,-1.6671582661070765,-0.09886116534471512,2.330674409866333,-1.7660870552062988,0.02091728150844574,2.1316981315612793,4.800371180265703,3.653604778719455e-07,0.29879891872406006,-1.5965974966632288,0.00011757309403037652,0.05038347840309143,0.7427657246589661,0.0,-0.003736505750566721,0.7528766393661499,7.738106796750799e-05,-0.1300407201051712
361.0,317.0,-0.1059,0.1974,9.32,-0.0302,-0.0315,-0.1234,-1.6675783596434535,-0.09890677034854889,2.3265793323516846,-1.7659916877746582,0.021206017583608627,2.1879072189331055,4.800351108401575,1.5575889467100978e-09,0.29298555850982666,-1.5966299215899866,0.00011266688670730218,0.04282587766647339,0.7428412437438965,0.0,-0.00784958153963089,0.7529008388519287,8.010279998416081e-05,-0.05936429649591446
361.0,317.0,-0.1059,0.1974,9.32,-0.0302,-0.0315,-0.1234,-1.6679984531798304,-0.09683167189359665,2.3301217555999756,-1.7659482955932617,0.021033409982919693,2.136016607284546,4.800359222083845,6.640245211325668e-12,0.30116796493530273,-1.596638027821676,0.00010815362475113943,0.02821315824985504,0.7427418828010559,0.0,-0.005839036777615547,0.7528485655784607,7.735007238807157e-05,-0.058823708444833755
361.0,317.0,-0.1059,0.1974,9.32,-0.0302,-0.0315,-0.1234,-1.6685530147948207,-0.09569507837295532,2.3882014751434326,-1.7657960653305054,0.02057032287120819,2.163112163543701,4.800339515298166,1.8483364287085e-15,0.3006022870540619,-1.5966461340533655,0.00010202334669884294,0.02954864874482155,0.7427893877029419,0.0,7.873354479670525e-05,0.7528725266456604,7.355702109634876e-05,-0.10430637001991272
361.0,317.0,-0.1059,0.1974,9.32,-0.0302,-0.0315,-0.1234,-1.668924947778219,-0.0956176146864891,2.3275654315948486,-1.7657564878463745,0.020738869905471802,2.169372081756592,4.800335432379999,7.879748157779131e-18,0.28997790813446045,-1.5966342131244105,9.830868657445535e-05,0.03778965771198273,0.7427457571029663,0.0,-0.009780414402484894,0.752888560295105,7.12284236215055e-05,-0.0884900689125061
361.0,317.0,-0.1059,0.1974,9.32,-0.0302,-0.0315,-0.1234,-1.669488092462057,-0.09633484482765198,2.337634563446045,-1.7656290531158447,0.019083943217992783,2.231105327606201,4.800327192037859,2.1933572417347583e-21,0.3018549382686615,-1.5966461340533655,0.00010861849295906723,0.03638465330004692,0.7427695989608765,0.0,-0.004794019274413586,0.7529008388519287,6.799945549573749e-05,-0.1043112650513649
361.0,317.0,-0.1059,0.1974,9.32,-0.0302,-0.0315,-0.1234,-1.6698876820006312,-0.0981171652674675,2.339754343032837,-1.7655088901519775,0.01788201928138733,2.1654226779937744,4.800371180265703,9.350625478239755e-24,0.2910526394844055,-1.5966337362872522,0.0001051236322382465,0.0427667498588562,0.7428056001663208,0.0,0.0030367327854037285,0.7528725266456604,6.600472261197865e-05,-0.11532959342002869
335.0,310.0,1.0008,0.2387,9.2907,-0.0342,-0.0765,-0.1185,-1.670426984826559,-0.10215617716312408,2.292576551437378,-1.7654166221618652,0.016157647594809532,2.1797854900360107,4.80036302933053,2.602780882565625e-27,0.29146239161491394,-1.5966056028949183,0.00010011251288233325,0.03209695965051651,0.7428373694419861,0.0,0.00034631561720743775,0.7528926730155945,0.00018512437236495316,-0.1594127118587494
335.0,310.0,1.0008,0.2387,9.2907,-0.0342,-0.0765,-0.1185,-1.6708632908263148,-0.10352976620197296,2.3915975093841553,-1.765410304069519,0.014952749013900757,2.157028913497925,4.800343493908205,1.1096064066338389e-29,0.3051934242248535,-1.5966580549823206,9.70288019743748e-05,0.028268495574593544,0.7427414655685425,0.0,0.0013507038820534945,0.7528926730155945,0.00019343577150721103,-0.059050314128398895
335.0,310.0,1.0008,0.2387,9.2907,-0.0342,-0.0765,-0.1185,-1.6714016399779261,-0.1002277135848999,2.36690092086792,-1.7652456760406494,0.01335149072110653,2.165224552154541,4.800395305245676,3.0886301412267767e-33,0.29376688599586487,-1.596638027821676,9.274364856537431e-05,0.031355828046798706,0.742829442024231,0.0,-0.00333101162686944,0.7529006004333496,0.00021180970361456275,-0.0913538932800293
335.0,310.0,1.0008,0.2387,9.2907,-0.0342,-0.0765,-0.1185,-1.6718012295165003,-0.09463854134082794,2.3407061100006104,-1.7652579545974731,0.012387380935251713,2.152667760848999,4.800343449204721,1.316731604194768e-35,0.30779966711997986,-1.596593205128805,9.009113273350522e-05,0.04985471069812775,0.7428531646728516,0.0,-0.00446860259398818,0.7529166340827942,0.00047431752318516374,-0.10786575078964233
335.0,310.0,1.0008,0.2387,9.2907,-0.0342,-0.0765,-0.1185,-1.6724091968932093,-0.09064578264951706,2.37984037399292,-1.7651782035827637,0.010479619726538658,2.1062660217285156,4.800342845707693,3.665170402260168e-39,0.29760631918907166,-1.5966737906085413,8.638510917080566e-05,0.027468930929899216,0.7428137063980103,0.0,-0.003749983385205269,0.7529125213623047,0.0005543161532841623,-0.10720980167388916
335.0,310.0,1.0008,0.2387,9.2907,-0.0342,-0.0765,-0.1185,-1.6727973423399867,-0.08983609825372696,2.3548660278320312,-1.7651946544647217,0.008857766166329384,2.1454880237579346,4.800391177624025,1.5625879175686035e-41,0.29760226607322693,-1.596682373677389,8.407941641053185e-05,0.03380556404590607,0.7428137063980103,0.0,0.0061484710313379765,0.7529368996620178,0.0009984323987737298,-0.07947194576263428
335.0,310.0,1.0008,0.2387,9.2907,-0.0342,-0.0765,-0.1185,-1.67327942470693,-0.09184914082288742,2.3896613121032715,-1.7651066780090332,0.006343746092170477,2.1242611408233643,4.800319070905008,4.203895392974451e-45,0.2979685366153717,-1.5966780821429651,8.084267028607428e-05,0.02552173286676407,0.7427611947059631,0.0,0.009379139170050621,0.7529528141021729,0.0017100219847634435,-0.11079356074333191
335.0,310.0,1.0008,0.2387,9.2907,-0.0342,-0.0765,-0.1185,-1.6736675701537074,-0.09321322292089462,2.365187168121338,-1.7650704383850098,0.004839745350182056,2.087414026260376,4.80038313099698,0.0,0.3044500946998596,-1.5966218153582972,7.881976489443332e-05,0.03943553566932678,0.7428301572799683,0.0,0.0038758483715355396,0.7529569268226624,0.0021263158414512873,-0.11665626615285873
335.0,310.0,1.0008,0.2387,9.2907,-0.0342,-0.0765,-0.1185,-1.673995157281393,-0.09454759210348129,2.370624542236328,-1.7651065587997437,0.003152460092678666,2.1286609172821045,4.800331349461832,0.0,0.312053918838501,-1.596661392842428,7.689571793889627e-05,0.026452653110027313,0.7428056001663208,0.0,0.004606233444064856,0.7529646754264832,0.0023371675051748753,-0.04790295287966728
335.0,310.0,1.0008,0.2387,9.2907,-0.0342,-0.0765,-0.1185,-1.6745301685728968,-0.09510590136051178,2.329453945159912,-1.7650786638259888,0.002056316239759326,2.164020538330078,4.8003671047981165,0.0,0.3090730905532837,-1.596649471913473,7.417948654619977e-05,0.03316674754023552,0.7428014874458313,0.0,0.021091485396027565,0.7529887557029724,0.0026465370319783688,-0.06902289390563965
335.0,310.0,1.0008,0.2387,9.2907,-0.0342,-0.0765,-0.1185,-1.6748739681639613,-0.09324830770492554,2.449279308319092,-1.7649866342544556,0.0020227234344929457,2.1306934356689453,4.800327192037859,0.0,0.3059006333351135,-1.5966418425189417,7.247285975608975e-05,0.043084993958473206,0.7427813410758972,0.0,-0.012159738689661026,0.7529322504997253,0.0026830623392015696,-0.05450766533613205
335.0,310.0,1.0008,0.2387,9.2907,-0.0342,-0.0765,-0.1185,-1.6755019627013148,-0.08981256932020187,2.407927989959717,-1.7650103569030762,0.0035560308024287224,2.1137073040008545,4.800387176662245,0.0,0.3115256428718567,-1.596654240285055,7.005519728409126e-05,0.03277016058564186,0.742805540561676,0.0,-0.008289547637104988,0.7529805302619934,0.003140689805150032,-0.06994758546352386
335.0,310.0,1.0008,0.2387,9.2907,-0.0342,-0.0765,-0.1185,-1.6758738956847132,-0.08846237510442734,2.3926305770874023,-1.765030860900879,0.0038703822065144777,2.122828483581543,4.800399440317907,0.0,0.307437539100647,-1.5966337362872522,1.1623337741184514e-06,0.027064412832260132,0.7427931427955627,0.0,0.008619695901870728,0.7530205249786377,0.003731349715963006,-0.029180824756622314
335.0,310.0,1.0008,0.2387,9.2907,-0.0342,-0.0765,-0.1185,-1.6763764820494593,-0.08772958815097809,2.3886454105377197,-1.764994740486145,0.0038415510207414627,2.130368232727051,4.800355168968,0.0,0.30803757905960083,-1.5966175238238733,3.2353983381305795e-10,0.034302957355976105,0.7428457140922546,0.0,0.009627152234315872,0.7530242800712585,0.004726534243673086,-0.025465771555900574
335.0,310.0,1.0008,0.2387,9.2907,-0.0342,-0.0765,-0.1185,-1.6766954861082972,-0.08869767189025879,2.353780508041382,-1.7649626731872559,0.003024824196472764,2.1156158447265625,4.800339492946424,0.0,0.29502013325691223,-1.5966499487506312,1.3793008618936953e-12,0.03291097283363342,0.7427932024002075,0.0,0.0069581326097249985,0.7531007528305054,0.00582055002450943,-0.06185310706496239
335.0,310.0,1.0008,0.2387,9.2907,-0.0342,-0.0765,-0.1185,-1.6772800884642542,-0.08974923193454742,2.3829798698425293,-1.7649544477462769,0.0020370238926261663,2.1660618782043457,4.800391185074606,0.0,0.3095608055591583,-1.5966461340533655,3.8393345933165424e-16,0.016066262498497963,0.742805540561676,0.0,0.00020024372497573495,0.7530806064605713,0.0067116329446434975,-0.0681171864271164
335.0,310.0,1.0008,0.2387,9.2907,-0.0342,-0.0765,-0.1185,-1.6776396236815394,-0.09309390932321548,2.380333662033081,-1.7649420499801636,0.0013641343684867024,2.129016637802124,4.800343516259947,0.0,0.3226824998855591,-1.5966337362872522,1.6367685410431244e-18,0.03417554870247841,0.742793083190918,0.0,-0.004279707092791796,0.753132164478302,0.007471380289644003,-0.022047031670808792
335.0,310.0,1.0008,0.2387,9.2907,-0.0342,-0.0765,-0.1185,-1.6781789265074671,-0.09823273867368698,2.3681344985961914,-1.7649502754211426,0.0008485199650749564,2.1230716705322266,4.800407494395532,0.0,0.3032711446285248,-1.5966737906085413,4.556005194933198e-22,0.028992194682359695,0.742781400680542,0.0,0.010374355129897594,0.7531848549842834,0.008250783197581768,0.005778064019978046
338.0,302.0,0.8859,0.3799,9.8028,-0.0276,-0.0631,-0.1103,-1.6785417995848597,-0.10231710970401764,2.3914926052093506,-1.7649585008621216,0.0008696661680005491,2.0994410514831543,4.800335432379999,0.0,0.30883246660232544,-1.5966537634478968,1.9422964415878562e-24,0.03715207427740097,0.7429017424583435,0.0,0.005341526586562395,0.7532005310058594,0.007868872955441475,-0.01871073618531227
338.0,302.0,0.8859,0.3799,9.8028,-0.0276,-0.0631,-0.1103,-1.6789781055846156,-0.1053466796875,2.4351537227630615,-1.7648870944976807,0.0010135089978575706,2.1536765098571777,4.800391185074606,0.0,0.2964346408843994,-1.5966461340533655,8.280314699135305e-27,0.0301606897264719,0.742809534072876,0.0,-0.0037348356563597918,0.7532244920730591,0.007961098104715347,0.0019533149898052216
338.0,302.0,0.8859,0.3799,9.8028,-0.0276,-0.0631,-0.1103,-1.6795937023558558,-0.10562022030353546,2.389740467071533,-1.7648870944976807,0.004297078121453524,2.0794739723205566,4.800323116570272,0.0,0.30437591671943665,-1.5966418425189417,2.30485590862904e-30,0.028971750289201736,0.7428054213523865,0.0,0.0006587901152670383,0.7532159686088562,0.007229721173644066,-0.027164533734321594
338.0,302.0,0.8859,0.3799,9.8028,-0.0276,-0.0631,-0.1103,-1.6800371609129847,-0.10462244600057602,2.404099941253662,-1.7648673057556152,0.006759228650480509,2.127556324005127,4.800374853401937,2.2293257643468678e-05,0.2896527647972107,-1.5966737906085413,9.825962421311286e-33,0.0292363278567791,0.742781400680542,0.0,0.0042167180217802525,0.7532923817634583,0.00695617264136672,-0.06780526041984558
338.0,302.0,0.8859,0.3799,9.8028,-0.0276,-0.0631,-0.1103,-1.680659910241598,-0.10587971657514572,2.412233591079712,-1.7647989988327026,0.009406295605003834,2.140155076980591,4.80041133889512,0.0001226762105943635,0.30050328373908997,-1.596682373677389,2.7350924579874076e-36,0.02182137407362461,0.7428657412528992,0.0,-0.0024314364418387413,0.7533688545227051,0.007124613039195538,-0.02323164790868759
338.0,302.0,0.8859,0.3799,9.8028,-0.0276,-0.0631,-0.1103,-1.6811839542784632,-0.10684098303318024,2.3926682472229004,-1.7647916078567505,0.00943664275109768,2.134695053100586,4.800387094705858,0.00012250021973159164,0.304641455411911,-1.5967066923724573,1.1660128851529729e-38,0.020886749029159546,0.7427690625190735,0.0,0.0018855365924537182,0.7534008622169495,0.00799979455769062,-0.050493329763412476
338.0,302.0,0.8859,0.3799,9.8028,-0.0276,-0.0631,-0.1103,-1.681802888909811,-0.11110103875398636,2.424539089202881,-1.7647234201431274,0.007990255020558834,2.124596357345581,4.800299036293783,0.00016779282304923981,0.3081843852996826,-1.5966580549823206,3.2454072433762763e-42,0.023465115576982498,0.742781400680542,0.0,0.011228745803236961,0.7534284591674805,0.008941120468080044,-0.01515319012105465
338.0,302.0,0.8859,0.3799,9.8028,-0.0276,-0.0631,-0.1103,-1.682282110253805,-0.11077899485826492,2.438108444213867,-1.7647430896759033,0.007123142946511507,2.1725592613220215,4.800358871906557,0.00018159134197048843,0.3102264106273651,-1.5966218153582972,1.401298464324817e-44,0.027959801256656647,0.7427694797515869,0.0,0.014688719995319843,0.7534886598587036,0.010273673571646214,-0.01991843618452549
338.0,302.0,0.8859,0.3799,9.8028,-0.0276,-0.0631,-0.1103,-1.6829692325987757,-0.11566108465194702,2.3435399532318115,-1.764703631401062,0.004976935219019651,2.1561317443847656,4.800387206464567,8.830103615764529e-05,0.30184799432754517,-1.5966861883746546,0.0,0.017406241968274117,0.742817759513855,0.0,0.019085049629211426,0.7535001635551453,0.010985828936100006,0.03889860212802887
338.0,302.0,0.8859,0.3799,9.8028,-0.0276,-0.0631,-0.1103,-1.6834293804564417,-0.11985716223716736,2.3956356048583984,-1.764642596244812,0.003723346395418048,2.138145685195923,4.800306702941217,6.0468380979727954e-05,0.31071263551712036,-1.5966537634478968,0.0,0.01688985712826252,0.7427850365638733,0.0,0.0047189658507704735,0.7535645365715027,0.010449502617120743,0.045102573931217194
338.0,302.0,0.8859,0.3799,9.8028,-0.0276,-0.0631,-0.1103,-1.6841889820494593,-0.12631893157958984,2.3582496643066406,-1.7646877765655518,0.002425256883725524,2.063778877258301,4.800399417966165,5.026584040024318e-05,0.30559346079826355,-1.5966537634478968,0.0,0.025321289896965027,0.7428137063980103,0.0,0.009847559034824371,0.7536002397537231,0.009226289577782154,-0.042695075273513794
338.0,302.0,0.8859,0.3799,9.8028,-0.0276,-0.0631,-0.1103,-1.6846515140929164,-0.1325097531080246,2.3644700050354004,-1.7646549940109253,0.002624080516397953,2.135120391845703,4.800358871906557,8.435834024567157e-05,0.3076464533805847,-1.5966699759112757,0.0,0.024254871532320976,0.7428054809570312,0.0,0.001151014817878604,0.753648579120636,0.008477871306240559,-0.024338707327842712
338.0,302.0,0.8859,0.3799,9.8028,-0.0276,-0.0631,-0.1103,-1.6851750812926234,-0.13716824352741241,2.33199143409729,-1.7645710706710815,0.004515310283750296,2.133208990097046,4.800419489830293,8.214309491449967e-05,0.2973308265209198,-1.5966580549823206,0.0,0.017079615965485573,0.742809534072876,0.0,0.002361454302445054,0.7536844611167908,0.007201590575277805,-0.041472554206848145
338.0,302.0,0.8859,0.3799,9.8028,-0.0276,-0.0631,-0.1103,-1.6860624752440394,-0.1377377212047577,2.351196765899658,-1.7645678520202637,0.008257641457021236,2.1445488929748535,4.800411323993959,0.00013510481221601367,0.30100691318511963,-1.5966461340533655,0.0,0.026861583814024925,0.7428013682365417,0.0,0.00022662151604890823,0.753736674785614,0.0060563478618860245,0.013387894257903099
338.0,302.0,0.8859,0.3799,9.8028,-0.0276,-0.0631,-0.1103,-1.6866823635497035,-0.1333278864622116,2.358591079711914,-1.76450777053833,0.011414581909775734,2.183276414871216,4.800403500884332,0.0001337533030891791,0.3026127517223358,-1.5966418425189417,0.0,0.025041837245225906,0.7427690625190735,0.0,-0.0014033496845513582,0.7537767887115479,0.005820535589009523,0.026045965030789375
338.0,302.0,0.8859,0.3799,9.8028,-0.0276,-0.0631,-0.1103,-1.6874529323973597,-0.12558472156524658,2.424546241760254,-1.7644633054733276,0.013224598951637745,2.1326370239257812,4.800399015634813,5.169464202481322e-05,0.3060668706893921,-1.5966299215899866,1.0949374882329721e-05,0.005694921128451824,0.7428739666938782,0.0,0.008474164642393589,0.7538086175918579,0.005632665008306503,-0.04343129321932793
338.0,302.0,0.8859,0.3799,9.8028,-0.0276,-0.0631,-0.1103,-1.6879879436888636,-0.12332434952259064,2.443207025527954,-1.7644321918487549,0.012165809981524944,2.1232738494873047,4.800303067057886,7.126029117898725e-07,0.3114030659198761,-1.5966375509845179,4.667890252108009e-08,0.01753092184662819,0.7427813410758972,0.0,0.00729242991656065,0.7537962794303894,0.006710543297231197,0.008433839306235313
338.0,302.0,0.8859,0.3799,9.8028,-0.0276,-0.0631,-0.1103,-1.6888882122435511,-0.13316227495670319,2.4255857467651367,-1.7643160820007324,0.008092950098216534,2.1684460639953613,4.800347666233339,1.9835563747072626e-10,0.30763357877731323,-1.5966375509845179,1.2993242766434765e-11,0.022626381367444992,0.7428173422813416,0.0,0.007773346733301878,0.7538644671440125,0.007933465763926506,0.056400712579488754
338.0,302.0,0.8859,0.3799,9.8028,-0.0276,-0.0631,-0.1103,-1.6894146404662074,-0.145711749792099,2.389401435852051,-1.7643884420394897,0.004139489959925413,2.191434383392334,4.8003111881907365,-0.0010098336497321725,0.30732887983322144,-1.5966094175921839,5.5392227805463323e-14,0.015301719307899475,0.7428178191184998,0.0,0.005066861864179373,0.7539123892784119,0.008904052898287773,0.05318387970328331
314.0,306.0,-0.35,0.5599,9.9039,-0.0319,-0.0707,-0.1081,-1.6902901134886683,-0.1602097898721695,2.3611106872558594,-1.7643169164657593,0.0020051721949130297,2.075611114501953,4.800319108157911,-0.0009054103284142911,0.30240899324417114,-1.5966580549823206,1.5418630074376185e-17,0.010066153481602669,0.7427690029144287,0.0,0.004254829604178667,0.753984808921814,0.008990336209535599,0.04402186721563339
314.0,306.0,-0.35,0.5599,9.9039,-0.0319,-0.0707,-0.1081,-1.690880914727682,-0.1639080047607422,2.3549978733062744,-1.7643283605575562,0.0018500161822885275,2.09053111076355,4.800431492715635,-0.0006798898102715611,0.2962173819541931,-1.5966537634478968,6.573204308584559e-20,0.025795143097639084,0.7428014874458313,0.0,-0.0010178182274103165,0.7539964318275452,0.0076487925834953785,0.04357811436057091
314.0,306.0,-0.35,0.5599,9.9039,-0.0319,-0.0707,-0.1081,-1.6918722591795863,-0.16184960305690765,2.3713884353637695,-1.764236330986023,0.006071409210562706,2.1439056396484375,4.800383108645239,-0.00023948497255332768,0.303470253944397,-1.596649471913473,1.8296756216440194e-23,0.016646021977066994,0.7427535057067871,0.0,0.00019841128960251808,0.7540525197982788,0.005538108292967081,0.012030049227178097
