ramyac6/ROB537/final_project/csv/bad/bad_26.csv
tof_0,tof_1,accelx,accely,accelz,gyrox,gyroy,gyroz,shoulder_lift_joint_position,shoulder_lift_joint_velocity,shoulder_lift_joint_effort,elbow_joint_position,elbow_joint_velocity,elbow_joint_effort,wrist_1_joint_position,wrist_1_joint_velocity,wrist_1_joint_effort,wrist_2_joint_position,wrist_2_joint_velocity,wrist_2_joint_effort,wrist_3_joint_position,wrist_3_joint_velocity,wrist_3_joint_effort,shoulder_pan_joint_position,shoulder_pan_joint_velocity,shoulder_pan_joint_effort
259.0,394.0,3.8339,-0.2094,8.3904,-0.0325,0.0302,-0.1245,-1.6342727146544398,0.0,2.454533815383911,-1.6815606355667114,-0.0,2.171689033508301,4.455073042506836,-0.0,0.27539223432540894,-1.42119008699526,0.0,-0.008749637752771378,0.5670827031135559,-1.3944671991339419e-05,-0.0064268880523741245,1.1681089401245117,0.0,-0.021847624331712723
259.0,394.0,3.8339,-0.2094,8.3904,-0.0325,0.0302,-0.1245,-1.6342202625670375,0.0,2.416020393371582,-1.6815685033798218,-0.0,2.172797679901123,4.455016775722168,-0.0,0.2832438349723816,-1.4211538473712366,0.0,-0.0012978320010006428,0.5670986771583557,-1.3525558642868418e-05,0.003266836516559124,1.1680608987808228,0.0,0.015716377645730972
259.0,394.0,3.8339,-0.2094,8.3904,-0.0325,0.0302,-0.1245,-1.634256502191061,0.0,2.4205639362335205,-1.6816247701644897,-0.0,2.146533489227295,4.455061121577881,-0.0,0.2927486002445221,-1.421206299458639,0.0,0.0012386124581098557,0.5671430230140686,-1.2942047760589048e-05,-0.003490275237709284,1.1680971384048462,0.0,0.018919285386800766
259.0,394.0,3.8339,-0.2094,8.3904,-0.0325,0.0302,-0.1245,-1.634280344048971,0.0,2.4236185550689697,-1.6815565824508667,-0.0,2.152212142944336,4.455084486598633,-0.0,0.28735074400901794,-1.421173397694723,0.0,-0.01603834331035614,0.5671389102935791,-1.2580228030856233e-05,-0.011481158435344696,1.1680728197097778,0.0,0.01151826698333025
259.0,394.0,3.8339,-0.2094,8.3904,-0.0325,0.0302,-0.1245,-1.6342441044249476,0.0,2.4393692016601562,-1.6815721988677979,-0.0,2.1688308715820312,4.455136938686035,-0.0,0.2830469310283661,-1.4211614767657679,0.0,-0.005883269011974335,0.567111074924469,-1.2073919606336858e-05,-0.002302017994225025,1.1681252717971802,0.0,0.0060758874751627445
259.0,394.0,3.8339,-0.2094,8.3904,-0.0325,0.0302,-0.1245,-1.6343327961363734,0.0,2.415165424346924,-1.6816247701644897,-0.0,2.146047830581665,4.45507733404126,-0.0,0.2833292782306671,-1.4211576620685022,0.0,-0.0037967469543218613,0.5671188235282898,-1.1758429536712356e-05,0.009038922376930714,1.1681171655654907,0.0,-0.0033226623199880123
259.0,394.0,3.8339,-0.2094,8.3904,-0.0325,0.0302,-0.1245,-1.6342646084227503,0.0,2.4333183765411377,-1.6816083192825317,-0.0,2.1495513916015625,4.455092592830322,-0.0,0.2831445038318634,-1.4211657683001917,0.0,-0.015939801931381226,0.5671873092651367,-1.1314949915686157e-05,0.003249947912991047,1.1681129932403564,0.0,-0.019742608070373535
259.0,394.0,3.8339,-0.2094,8.3904,-0.0325,0.0302,-0.1245,-1.634256502191061,0.0,2.4404826164245605,-1.6816046237945557,-0.0,2.1575422286987305,4.455084963435791,-0.0,0.27262696623802185,-1.4211857954608362,0.0,0.0008225326891988516,0.5671634078025818,-1.0903699148911983e-05,0.008839048445224762,1.1680970191955566,0.0,-0.010308721102774143
259.0,394.0,3.8339,-0.2094,8.3904,-0.0325,0.0302,-0.1245,-1.6342398128905238,0.0,2.457963228225708,-1.681612491607666,-0.0,2.15962290763855,4.4550487238117675,-0.0,0.281491756439209,-1.4211857954608362,0.0,-0.004608223680406809,0.5672032237052917,-1.064575099007925e-05,-0.014367042109370232,1.1680526733398438,0.0,0.026206081733107567
250.0,431.0,3.7998,-0.2435,8.601,-0.0199,0.0295,-0.1136,-1.6343008480467738,0.0,2.4278452396392822,-1.681592345237732,-0.0,2.16135835647583,4.455057306880615,-0.0,0.2788165211677551,-1.4211614767657679,0.0,0.002441867720335722,0.5671069025993347,-1.0280927199346479e-05,-0.0019031609408557415,1.168121099472046,0.0,-0.058282483369112015
250.0,431.0,3.7998,-0.2435,8.601,-0.0199,0.0295,-0.1136,-1.634256502191061,0.0,2.41831111907959,-1.681637167930603,-0.0,2.137622594833374,4.455056830043457,-0.0,0.28217893838882446,-1.4211614767657679,0.0,0.0054955678060650826,0.5671872496604919,-1.0051290701085236e-05,-0.00618796655908227,1.16814124584198,0.0,0.005575519520789385
250.0,431.0,3.7998,-0.2435,8.601,-0.0199,0.0295,-0.1136,-1.6342035732665003,0.0,2.4142229557037354,-1.6815805435180664,-0.0,2.171543598175049,4.45506922780957,-0.0,0.28525280952453613,-1.4211939016925257,0.0,-0.0010573186445981264,0.5671552419662476,-4.237696060727103e-08,-0.005236178636550903,1.1681007146835327,0.0,-0.024837741628289223
250.0,431.0,3.7998,-0.2435,8.601,-0.0199,0.0295,-0.1136,-1.6342321834959925,0.0,2.4373254776000977,-1.6815648078918457,-0.0,2.181034803390503,4.4550768572041015,-0.0,0.27520421147346497,-1.4211657683001917,0.0,0.00024664553347975016,0.5671552419662476,-1.179578223292621e-11,0.00369739206507802,1.1681452989578247,0.0,-0.0038855141028761864
250.0,431.0,3.7998,-0.2435,8.601,-0.0199,0.0295,-0.1136,-1.6343008480467738,0.0,2.4550812244415283,-1.6816129684448242,-0.0,2.1124048233032227,4.45509306966748,-0.0,0.28269657492637634,-1.4211738745318812,0.0,-0.01728925108909607,0.56710284948349,-5.028727204071069e-14,-0.0055097187869250774,1.1680970191955566,0.0,-0.061446402221918106
250.0,431.0,3.7998,-0.2435,8.601,-0.0199,0.0295,-0.1136,-1.634280344048971,0.0,2.4487080574035645,-1.6816205978393555,-0.0,2.1960344314575195,4.45509306966748,-0.0,0.2748155891895294,-1.4211977163897913,0.0,-0.0014521274715662003,0.5671105980873108,-1.399764627857339e-17,0.004852742422372103,1.1680810451507568,0.0,-0.05393204838037491
250.0,431.0,3.7998,-0.2435,8.601,-0.0199,0.0295,-0.1136,-1.634240289727682,0.0,2.4445700645446777,-1.681612491607666,-0.0,2.1253907680511475,4.455136938686035,-0.0,0.2757587134838104,-1.4211857954608362,0.0,-0.004074765369296074,0.5671266317367554,-5.967416002041935e-20,-0.0049911728128790855,1.1681089401245117,0.0,0.015925103798508644
250.0,431.0,3.7998,-0.2435,8.601,-0.0199,0.0295,-0.1136,-1.634240289727682,0.0,2.439767599105835,-1.681564450263977,-0.0,2.162374496459961,4.455073042506836,-0.0,0.2852378189563751,-1.4211695829974573,0.0,-0.005109661258757114,0.5671229362487793,-1.66105234330414e-23,-0.0004057798651047051,1.168092966079712,0.0,-0.056267526000738144
250.0,431.0,3.7998,-0.2435,8.601,-0.0199,0.0295,-0.1136,-1.6342359981932582,0.0,2.436239242553711,-1.6815564632415771,-0.0,2.1014809608459473,4.455053015346191,-0.0,0.2619228959083557,-1.4211738745318812,0.0,-0.00948245543986559,0.5670545697212219,-7.081326395959449e-26,-0.010391591116786003,1.1681089401245117,0.0,0.014694838784635067
250.0,431.0,3.7998,-0.2435,8.601,-0.0199,0.0295,-0.1136,-1.6342646084227503,0.0,2.457925319671631,-1.681600570678711,-0.0,2.1368467807769775,4.45506922780957,-0.0,0.2741427421569824,-1.421185318623678,0.0,0.003929838538169861,0.5670827031135559,-1.971112862735668e-29,-0.008974965661764145,1.1681089401245117,0.0,-0.0054406579583883286
250.0,431.0,3.7998,-0.2435,8.601,-0.0199,0.0295,-0.1136,-1.634224077264303,0.0,2.392676591873169,-1.6816092729568481,-0.0,2.1683993339538574,4.455100699062012,-0.0,0.28228652477264404,-1.4212177435504358,0.0,0.006847485899925232,0.5671712756156921,-5.4866643308431674e-33,-0.003094081301242113,1.1681047677993774,0.0,-0.02917366847395897
250.0,431.0,3.7998,-0.2435,8.601,-0.0199,0.0295,-0.1136,-1.6342603168883265,0.0,2.4319794178009033,-1.6816205978393555,-0.0,2.1640193462371826,4.455056830043457,-0.0,0.27110347151756287,-1.4211257139789026,0.0,0.0033727334812283516,0.5670990943908691,-2.339051235087738e-35,-0.013538885861635208,1.168076992034912,0.0,-0.006258442532271147
250.0,431.0,3.7998,-0.2435,8.601,-0.0199,0.0295,-0.1136,-1.634256502191061,0.0,2.4031553268432617,-1.681544303894043,-0.0,2.1914138793945312,4.455080671901367,-0.0,0.2776952385902405,-1.4211977163897913,0.0,-0.008902028203010559,0.5671147108078003,-6.510834837912361e-39,0.0007545666303485632,1.1681252717971802,0.0,-0.024139879271388054
250.0,431.0,3.7998,-0.2435,8.601,-0.0199,0.0295,-0.1136,-1.634280344048971,0.0,2.439990282058716,-1.6815565824508667,-0.0,2.179696798324585,4.4550368028828125,-0.0,0.2879665493965149,-1.4211657683001917,0.0,0.004161332733929157,0.5671793818473816,-2.7756919981345977e-41,-0.009973261505365372,1.1681129932403564,0.0,-0.002822446869686246
250.0,431.0,3.7998,-0.2435,8.601,-0.0199,0.0295,-0.1136,-1.634252210656637,0.0,2.4196972846984863,-1.6816046237945557,-0.0,2.171316623687744,4.455072565669678,-0.0,0.28334078192710876,-1.42119008699526,0.0,-0.0179994348436594,0.5671229362487793,-8.407790785948902e-45,-0.004443478770554066,1.1681212186813354,0.0,0.018086712807416916
250.0,431.0,3.7998,-0.2435,8.601,-0.0199,0.0295,-0.1136,-1.6342603168883265,0.0,2.4499309062957764,-1.6816412210464478,-0.0,2.1358509063720703,4.455080671901367,-0.0,0.2831599712371826,-1.4211977163897913,0.0,-0.014739518985152245,0.5671388506889343,-0.0,-0.004993267357349396,1.1681089401245117,0.0,-0.013028770685195923
250.0,431.0,3.7998,-0.2435,8.601,-0.0199,0.0295,-0.1136,-1.6342717609801234,0.0,2.4553632736206055,-1.6815804243087769,-0.0,2.1760177612304688,4.455088778133057,-0.0,0.2761992812156677,-1.4211700598346155,0.0,-0.005590428598225117,0.5671712756156921,-0.0,-0.00793476402759552,1.1681007146835327,0.0,-0.060467880219221115
250.0,431.0,3.7998,-0.2435,8.601,-0.0199,0.0295,-0.1136,-1.634224077264303,0.0,2.3847506046295166,-1.6816205978393555,-0.0,2.182403564453125,4.455073042506836,-0.0,0.289004385471344,-1.4211977163897913,0.0,-0.015362462028861046,0.567094624042511,-0.0,-0.012382891029119492,1.1680928468704224,0.0,0.008087052963674068
248.0,416.0,3.8399,-0.2028,8.4658,-0.029,0.0263,-0.1205,-1.6342479191222132,0.0,2.4246129989624023,-1.681600570678711,-0.0,2.1512584686279297,4.45506922780957,-0.0,0.28763431310653687,-1.4211495558368128,0.0,-0.004314246121793985,0.5671188235282898,-0.0,-0.0019136230694130063,1.168076992034912,0.0,-0.0043705664575099945
248.0,416.0,3.8399,-0.2028,8.4658,-0.029,0.0263,-0.1205,-1.6342927418150843,0.0,2.3839564323425293,-1.681552529335022,-0.0,2.1525168418884277,4.45506922780957,-0.0,0.2834506332874298,-1.4212020079242151,0.0,0.0007398737943731248,0.5671552419662476,-0.0,-0.0008238570298999548,1.1681129932403564,0.0,0.06342052668333054
248.0,416.0,3.8399,-0.2028,8.4658,-0.029,0.0263,-0.1205,-1.6342717609801234,0.0,2.4191975593566895,-1.681600570678711,-0.0,2.1691412925720215,4.455120726222656,-0.0,0.2785983383655548,-1.4211214224444788,0.0,-0.007834425196051598,0.5671552419662476,-0.0,-0.008068470284342766,1.1681212186813354,0.0,0.02914316952228546
248.0,416.0,3.8399,-0.2028,8.4658,-0.029,0.0263,-0.1205,-1.6342603168883265,0.0,2.444674253463745,-1.681612491607666,-0.0,2.143925666809082,4.455116434688232,-0.0,0.28431394696235657,-1.4211414496051233,0.0,-0.0014824091922491789,0.5671311020851135,-0.0,-0.007896073162555695,1.1681493520736694,0.0,0.022242262959480286
248.0,416.0,3.8399,-0.2028,8.4658,-0.029,0.0263,-0.1205,-1.6342479191222132,0.0,2.439840793609619,-1.6815603971481323,-0.0,2.170560359954834,4.455084486598633,-0.0,0.2815519869327545,-1.421133820210592,0.0,0.004333768505603075,0.5671593546867371,-0.0,0.005425828974694014,1.168065071105957,0.0,0.012020865455269814
248.0,416.0,3.8399,-0.2028,8.4658,-0.029,0.0263,-0.1205,-1.634280344048971,0.0,2.4618566036224365,-1.6815565824508667,-0.0,2.1553022861480713,4.455053015346191,-0.0,0.28302913904190063,-1.4211977163897913,0.0,0.0005302159697748721,0.5671552419662476,-0.0,0.0009402355644851923,1.1681089401245117,0.0,-0.01704767905175686
248.0,416.0,3.8399,-0.2028,8.4658,-0.029,0.0263,-0.1205,-1.6342441044249476,0.0,2.4083027839660645,-1.6815401315689087,-0.0,2.177542209625244,4.455044909114502,-0.0,0.2874529957771301,-1.4211776892291468,0.0,-0.006780658848583698,0.5671470165252686,-0.0,-0.007378647103905678,1.1681089401245117,0.0,-0.03796558827161789
248.0,416.0,3.8399,-0.2028,8.4658,-0.029,0.0263,-0.1205,-1.6342717609801234,0.0,2.425116539001465,-1.681600570678711,-0.0,2.171954393386841,4.455089254970215,-0.0,0.28108805418014526,-1.4211457411395472,0.0,-0.003703893395140767,0.5671306848526001,-0.0,0.00814500916749239,1.1680649518966675,0.0,-0.012236700393259525
248.0,416.0,3.8399,-0.2028,8.4658,-0.029,0.0263,-0.1205,-1.6342607937254847,0.0,2.481891632080078,-1.6816165447235107,-0.0,2.142669916152954,4.45507733404126,-0.0,0.2695050537586212,-1.4211614767657679,0.0,-0.0023722071200609207,0.567111074924469,-0.0,0.003901938907802105,1.1681170463562012,0.0,0.010342953726649284
248.0,416.0,3.8399,-0.2028,8.4658,-0.029,0.0263,-0.1205,-1.634252210656637,0.0,2.471552848815918,-1.6815928220748901,-0.0,2.149247407913208,4.4551049905964355,-0.0,0.2755431532859802,-1.4211495558368128,0.0,0.0016529804561287165,0.5671634674072266,-0.0,-0.015498526394367218,1.1680691242218018,0.0,0.014262769371271133
248.0,416.0,3.8399,-0.2028,8.4658,-0.029,0.0263,-0.1205,-1.6342278919615687,0.0,2.413573980331421,-1.6815805435180664,-0.0,2.194070339202881,4.455088778133057,-0.0,0.27128279209136963,-1.4211657683001917,0.0,0.009117519482970238,0.5671675801277161,-0.0,-0.0073041412979364395,1.168076992034912,0.0,0.0011074808426201344
248.0,416.0,3.8399,-0.2028,8.4658,-0.029,0.0263,-0.1205,-1.6342688999571742,0.0,2.428518533706665,-1.6815482378005981,-0.0,2.184061288833618,4.4550487238117675,-0.0,0.2881461977958679,-1.42119008699526,0.0,-0.004449436441063881,0.5671712160110474,-0.0,-0.0030957988929003477,1.1680728197097778,0.0,0.046265169978141785
248.0,416.0,3.8399,-0.2028,8.4658,-0.029,0.0263,-0.1205,-1.6343046627440394,0.0,2.44028377532959,-1.6816047430038452,-0.0,2.173588514328003,4.45506922780957,-0.0,0.28974097967147827,-1.4211896101581019,0.0,-0.0011628344655036926,0.5671712756156921,-0.0,-0.007568673230707645,1.1681010723114014,0.0,-0.03839685395359993
248.0,416.0,3.8399,-0.2028,8.4658,-0.029,0.0263,-0.1205,-1.63429655651235,0.0,2.41049861907959,-1.6815886497497559,-0.0,2.178086042404175,4.455056830043457,-0.0,0.2826637029647827,-1.4211819807635706,0.0,-0.0014716953737661242,0.5671270489692688,-0.0,-0.0033001569099724293,1.1681092977523804,0.0,0.009701886214315891
248.0,416.0,3.8399,-0.2028,8.4658,-0.029,0.0263,-0.1205,-1.634280344048971,0.0,2.44033145904541,-1.681572675704956,-0.0,2.134550094604492,4.455084486598633,-0.0,0.2670247256755829,-1.4211700598346155,0.0,-0.004575848579406738,0.5670544505119324,-0.0,-0.008116518147289753,1.1681129932403564,0.0,0.011554703116416931
248.0,416.0,3.8399,-0.2028,8.4658,-0.029,0.0263,-0.1205,-1.6342441044249476,0.0,2.477013111114502,-1.6816083192825317,-0.0,2.1642708778381348,4.455061121577881,-0.0,0.28379446268081665,-1.4211576620685022,0.0,-0.0035656122490763664,0.5671430230140686,-0.0,-0.01010309997946024,1.168105125427246,0.0,-0.03574686124920845
248.0,416.0,3.8399,-0.2028,8.4658,-0.029,0.0263,-0.1205,-1.6342479191222132,0.0,2.454798698425293,-1.6816166639328003,-0.0,2.1750106811523438,4.45509306966748,-0.0,0.28073713183403015,-1.4211776892291468,0.0,-0.008051388897001743,0.5671671628952026,-0.0,-0.01109902374446392,1.1681252717971802,0.0,0.047886043787002563
267.0,415.0,3.7113,-0.2387,8.5759,-0.033,0.0312,-0.1187,-1.6342646084227503,0.0,2.4612271785736084,-1.6815158128738403,-0.0,2.1895079612731934,4.455136938686035,-0.0,0.28499409556388855,-1.4211614767657679,0.0,-0.0069631547667086124,0.5671348571777344,-0.0,0.0034186411648988724,1.1680970191955566,0.0,-0.025339918211102486
267.0,415.0,3.7113,-0.2387,8.5759,-0.033,0.0312,-0.1187,-1.634280344048971,0.0,2.4440975189208984,-1.681628942489624,-0.0,2.1949403285980225,4.455120726222656,-0.0,0.2814464569091797,-1.4211414496051233,0.0,-0.004314887803047895,0.5671069025993347,-0.0,0.009466368705034256,1.168092966079712,0.0,0.030277160927653313
267.0,415.0,3.7113,-0.2387,8.5759,-0.033,0.0312,-0.1187,-1.6342398128905238,0.0,2.475555658340454,-1.6815521717071533,-0.0,2.145825147628784,4.455065413112305,-0.0,0.2797291874885559,-1.4212139288531702,0.0,-0.000936256954446435,0.5670868754386902,-0.0,-0.007765593938529491,1.1681452989578247,0.0,0.0067468732595443726
267.0,415.0,3.7113,-0.2387,8.5759,-0.033,0.0312,-0.1187,-1.6342760525145472,0.0,2.4387409687042236,-1.681572675704956,-0.0,2.16536808013916,4.455057306880615,-0.0,0.2896042466163635,-1.4211538473712366,0.0,-0.01580464094877243,0.5671389102935791,-0.0,-0.007111700251698494,1.1680887937545776,0.0,-0.0013423962518572807
267.0,415.0,3.7113,-0.2387,8.5759,-0.033,0.0312,-0.1187,-1.6342398128905238,0.0,2.407012701034546,-1.681572675704956,-0.0,2.185420513153076,4.455053015346191,-0.0,0.27810806035995483,-1.4211939016925257,0.0,-0.003771670861169696,0.5671306848526001,-0.0,-0.017147626727819443,1.1680887937545776,0.0,-0.012013878673315048
267.0,415.0,3.7113,-0.2387,8.5759,-0.033,0.0312,-0.1187,-1.634256502191061,0.0,2.406911611557007,-1.6816165447235107,-0.0,2.1412782669067383,4.455056830043457,-0.0,0.26853153109550476,-1.4211576620685022,0.0,-0.015053262934088707,0.56710284948349,-0.0,-0.0037989700213074684,1.1681252717971802,0.0,-0.006973341107368469
267.0,415.0,3.7113,-0.2387,8.5759,-0.033,0.0312,-0.1187,-1.6342398128905238,0.0,2.429776191711426,-1.6816331148147583,-0.0,2.1557059288024902,4.45509306966748,-0.0,0.28642839193344116,-1.4211819807635706,0.0,-0.009655244648456573,0.5671069622039795,-0.0,0.0018162322230637074,1.1680887937545776,0.0,-0.016009192913770676
267.0,415.0,3.7113,-0.2387,8.5759,-0.033,0.0312,-0.1187,-1.6342646084227503,0.0,2.4606945514678955,-1.681556224822998,-0.0,2.1696925163269043,4.4550487238117675,-0.0,0.27274805307388306,-1.4211819807635706,0.0,-0.012234797701239586,0.5671512484550476,-0.0,0.008214188739657402,1.1681252717971802,0.0,0.005662055686116219
267.0,415.0,3.7113,-0.2387,8.5759,-0.033,0.0312,-0.1187,-1.6342479191222132,0.0,2.4605345726013184,-1.681612491607666,-0.0,2.1521055698394775,4.455040617580078,-0.0,0.2826264500617981,-1.4212096373187464,0.0,-0.010554312728345394,0.5670868754386902,-0.0,-0.007987583056092262,1.1680970191955566,0.0,0.025690454989671707
267.0,415.0,3.7113,-0.2387,8.5759,-0.033,0.0312,-0.1187,-1.634252210656637,0.0,2.463657855987549,-1.6815845966339111,-0.0,2.196763753890991,4.455061121577881,-0.0,0.2799922227859497,-1.4211657683001917,0.0,0.014902724884450436,0.5671592950820923,-0.0,-0.003214682685211301,1.1681129932403564,0.0,-0.006686007138341665
267.0,415.0,3.7113,-0.2387,8.5759,-0.033,0.0312,-0.1187,-1.6342479191222132,0.0,2.3814313411712646,-1.6815721988677979,-0.0,2.1828300952911377,4.455044909114502,-0.0,0.2806486189365387,-1.4211495558368128,0.0,0.00158997206017375,0.5671032071113586,-0.0,-0.008031240664422512,1.1681089401245117,0.0,0.008563031442463398
267.0,415.0,3.7113,-0.2387,8.5759,-0.033,0.0312,-0.1187,-1.6342770061888636,0.0,2.4783170223236084,-1.6816290616989136,-0.0,2.1521401405334473,4.4550816255756835,-0.0,0.27657651901245117,-1.4211295286761683,0.0,-0.0022163623943924904,0.5671306848526001,-0.0,-0.003479497507214546,1.1680970191955566,0.0,-0.05116274952888489
267.0,415.0,3.7113,-0.2387,8.5759,-0.033,0.0312,-0.1187,-1.6343165836729945,0.0,2.431706428527832,-1.6815968751907349,-0.0,2.1475095748901367,4.455109282130859,-0.0,0.28635498881340027,-1.4211857954608362,0.0,-0.009488187730312347,0.5671389102935791,-0.0,-0.0004117927164770663,1.1681772470474243,0.0,-0.01756856217980385
267.0,415.0,3.7113,-0.2387,8.5759,-0.033,0.0312,-0.1187,-1.634256502191061,0.0,2.4181783199310303,-1.6815965175628662,-0.0,2.1783432960510254,4.4550487238117675,-0.0,0.2836122512817383,-1.421173397694723,0.0,-0.005838798359036446,0.5670949816703796,-0.0,-0.006418474018573761,1.168092966079712,0.0,-0.05862651392817497
267.0,415.0,3.7113,-0.2387,8.5759,-0.033,0.0312,-0.1187,-1.6342927418150843,0.0,2.4617486000061035,-1.6816331148147583,-0.0,2.150552749633789,4.455136938686035,-0.0,0.27909496426582336,-1.4212177435504358,0.0,-0.0025398521684110165,0.567115068435669,-0.0,0.007503444328904152,1.1681129932403564,0.0,-0.06205064058303833
267.0,415.0,3.7113,-0.2387,8.5759,-0.033,0.0312,-0.1187,-1.634256502191061,0.0,2.4722557067871094,-1.6815685033798218,-0.0,2.1094541549682617,4.455096884364746,-0.0,0.2759724259376526,-1.421173397694723,0.0,-0.006094383075833321,0.5671954154968262,-0.0,0.0012350683100521564,1.1681047677993774,0.0,0.01728937402367592
267.0,415.0,3.7113,-0.2387,8.5759,-0.033,0.0312,-0.1187,-1.6342479191222132,0.0,2.4513211250305176,-1.6816610097885132,-0.0,2.1593990325927734,4.455061121577881,-0.0,0.26909705996513367,-1.421185318623678,0.0,-0.0029456359334290028,0.5671029090881348,-0.0,-0.008364863693714142,1.1681170463562012,0.0,-0.03308802843093872
267.0,415.0,3.7113,-0.2387,8.5759,-0.033,0.0312,-0.1187,-1.6342278919615687,0.0,2.444958209991455,-1.6816290616989136,-0.0,2.1948952674865723,4.455084486598633,-0.0,0.28541961312294006,-1.4211457411395472,0.0,0.00027906522154808044,0.5671629905700684,-0.0,-0.00847148522734642,1.1680970191955566,0.0,-0.03119935467839241
267.0,408.0,3.8016,-0.2638,8.5232,-0.0385,0.0185,-0.1145,-1.63429655651235,0.0,2.3942346572875977,-1.6816611289978027,-0.0,2.1559910774230957,4.455096884364746,-0.0,0.27961593866348267,-1.4211819807635706,0.0,-0.01279652863740921,0.5671389102935791,-0.0,-0.0006459001451730728,1.1680887937545776,0.0,-0.024063823744654655
267.0,408.0,3.8016,-0.2638,8.5232,-0.0385,0.0185,-0.1145,-1.634252210656637,0.0,2.431918144226074,-1.6815565824508667,-0.0,2.1451125144958496,4.4550368028828125,-0.0,0.2783116102218628,-1.4211614767657679,0.0,0.0025154207833111286,0.5671511292457581,-0.0,0.007292277179658413,1.1681212186813354,0.0,-0.021261656656861305
267.0,408.0,3.8016,-0.2638,8.5232,-0.0385,0.0185,-0.1145,-1.6342688999571742,0.0,2.458611011505127,-1.6816290616989136,-0.0,2.134639024734497,4.455028696651123,-0.0,0.2784709930419922,-1.421173397694723,0.0,-0.00966623891144991,0.5670987367630005,-0.0,0.0006377364043146372,1.1681010723114014,0.0,-0.0025646379217505455
267.0,408.0,3.8016,-0.2638,8.5232,-0.0385,0.0185,-0.1145,-1.6342321834959925,0.0,2.406311511993408,-1.681592345237732,-0.0,2.1671998500823975,4.455064936275146,-0.0,0.3022018074989319,-1.4211819807635706,0.0,-0.007003936916589737,0.5670827031135559,-0.0,-0.005436709150671959,1.1680810451507568,0.0,-0.01222694106400013
267.0,408.0,3.8016,-0.2638,8.5232,-0.0385,0.0185,-0.1145,-1.6342398128905238,0.0,2.4243054389953613,-1.6816455125808716,-0.0,2.180083751678467,4.455065413112305,-0.0,0.2717880308628082,-1.4211939016925257,0.0,-0.0116194486618042,0.5670745968818665,-0.0,-0.00046611810103058815,1.1680691242218018,0.0,-0.005092273466289043
267.0,408.0,3.8016,-0.2638,8.5232,-0.0385,0.0185,-0.1145,-1.6342078648009242,0.0,2.4123101234436035,-1.681620717048645,-0.0,2.124239921569824,4.45509306966748,-0.0,0.27897560596466064,-1.4211576620685022,0.0,-0.01224482525140047,0.5671229362487793,-0.0,-0.013591479510068893,1.1681047677993774,0.0,0.05045526102185249
267.0,408.0,3.8016,-0.2638,8.5232,-0.0385,0.0185,-0.1145,-1.6342770061888636,0.0,2.408937454223633,-1.6816165447235107,-0.0,2.1784749031066895,4.45509306966748,-0.0,0.28118446469306946,-1.4212058226214808,0.0,-0.014298591762781143,0.5671029090881348,-0.0,0.001378835877403617,1.1680446863174438,0.0,-0.02564418874680996
267.0,408.0,3.8016,-0.2638,8.5232,-0.0385,0.0185,-0.1145,-1.634280344048971,0.0,2.459712028503418,-1.6816046237945557,-0.0,2.173009157180786,4.455056830043457,-0.0,0.28057897090911865,-1.4212139288531702,0.0,-0.002399299293756485,0.5671712756156921,-0.0,-0.0049063474871218204,1.1681089401245117,0.0,0.030707160010933876
267.0,408.0,3.8016,-0.2638,8.5232,-0.0385,0.0185,-0.1145,-1.6342202625670375,0.0,2.424154758453369,-1.681600570678711,-0.0,2.1885204315185547,4.455032988185547,-0.0,0.2772616147994995,-1.421173397694723,0.0,0.0016634247731417418,0.5670991539955139,-0.0,-0.0028171231970191,1.1681047677993774,0.0,-0.005498411133885384
267.0,408.0,3.8016,-0.2638,8.5232,-0.0385,0.0185,-0.1145,-1.634252210656637,0.0,2.4535696506500244,-1.681552529335022,-0.0,2.168095827102661,4.455056830043457,-0.0,0.2758105397224426,-1.4212058226214808,0.0,-0.0006108409725129604,0.5671676397323608,-0.0,-0.00034956575836986303,1.1681212186813354,0.0,-0.00219805003143847
267.0,408.0,3.8016,-0.2638,8.5232,-0.0385,0.0185,-0.1145,-1.6342884502806605,0.0,2.407367706298828,-1.6815277338027954,-0.0,2.1775689125061035,4.455080671901367,-0.0,0.28389763832092285,-1.4211614767657679,0.0,-0.0152670219540596,0.5671147108078003,-0.0,-0.007567339111119509,1.168084740638733,0.0,0.010962888598442078
267.0,408.0,3.8016,-0.2638,8.5232,-0.0385,0.0185,-0.1145,-1.6342078648009242,0.0,2.4494638442993164,-1.681600570678711,-0.0,2.1328015327453613,4.455113573665283,-0.0,0.2833437919616699,-1.4211414496051233,0.0,-0.0005386880366131663,0.5671311020851135,-0.0,-0.0030729142017662525,1.1681170463562012,0.0,-0.011468006297945976
267.0,408.0,3.8016,-0.2638,8.5232,-0.0385,0.0185,-0.1145,-1.6342841587462367,0.0,2.447347640991211,-1.6815886497497559,-0.0,2.2046279907226562,4.45507733404126,-0.0,0.2820761799812317,-1.421173397694723,0.0,-0.011788608506321907,0.567126989364624,-0.0,-0.006638592574745417,1.1680608987808228,0.0,0.0032160021364688873
267.0,408.0,3.8016,-0.2638,8.5232,-0.0385,0.0185,-0.1145,-1.6342441044249476,0.0,2.414602756500244,-1.6815845966339111,-0.0,2.1344146728515625,4.45506922780957,-0.0,0.28221452236175537,-1.4211538473712366,0.0,-0.010057441890239716,0.5671389698982239,-0.0,-0.014933135360479355,1.1681170463562012,0.0,-0.029372025281190872
267.0,408.0,3.8016,-0.2638,8.5232,-0.0385,0.0185,-0.1145,-1.634224077264303,0.0,2.4107487201690674,-1.6815603971481323,-0.0,2.1767401695251465,4.4550768572041015,-0.0,0.26864689588546753,-1.4211819807635706,0.0,0.004773230757564306,0.5671188831329346,-0.0,-0.010351745411753654,1.1681493520736694,0.0,-0.00679350458085537
267.0,408.0,3.8016,-0.2638,8.5232,-0.0385,0.0185,-0.1145,-1.6342884502806605,0.0,2.45847487449646,-1.6815400123596191,-0.0,2.1497867107391357,4.455065413112305,-0.0,0.2747630476951599,-1.4211896101581019,0.0,-0.003913793247193098,0.5671110153198242,-0.0,0.002780713140964508,1.168121099472046,0.0,0.007109376601874828
267.0,408.0,3.8016,-0.2638,8.5232,-0.0385,0.0185,-0.1145,-1.634252210656637,0.0,2.443657398223877,-1.6816128492355347,-0.0,2.1857128143310547,4.455145044917725,-0.0,0.28211545944213867,-1.421173397694723,0.0,-0.013504263013601303,0.567126989364624,-0.0,-0.008334605023264885,1.1681493520736694,0.0,-0.026267606765031815
252.0,409.0,3.6341,-0.2818,8.8104,-0.0371,0.0342,-0.1203,-1.6342688999571742,0.0,2.430670738220215,-1.6816412210464478,-0.0,2.101763963699341,4.45509306966748,-0.0,0.28869786858558655,-1.4212058226214808,0.0,-0.013738967478275299,0.5671511888504028,-0.0,-0.011693533509969711,1.1681333780288696,0.0,-0.0177009254693985
252.0,409.0,3.6341,-0.2818,8.8104,-0.0371,0.0342,-0.1203,-1.6341883144774378,0.0,2.390618085861206,-1.681600570678711,-0.0,2.1760573387145996,4.455096884364746,-0.0,0.28682488203048706,-1.4211457411395472,0.0,-0.030933741480112076,0.5671147108078003,-0.0,-0.01669645868241787,1.1681170463562012,0.0,-0.004753658547997475
252.0,409.0,3.6341,-0.2818,8.8104,-0.0371,0.0342,-0.1203,-1.6342884502806605,0.0,2.4178929328918457,-1.681564450263977,-0.0,2.1404900550842285,4.45507733404126,-0.0,0.28044620156288147,-1.4211695829974573,0.0,-0.005382077768445015,0.5672072768211365,-0.0,-0.007575003430247307,1.1681129932403564,0.0,0.009961910545825958
252.0,409.0,3.6341,-0.2818,8.8104,-0.0371,0.0342,-0.1203,-1.6342479191222132,0.0,2.430121421813965,-1.681600570678711,-0.0,2.1563704013824463,4.455065413112305,-0.0,0.2767563760280609,-1.4211738745318812,0.0,-0.00904774572700262,0.5671554207801819,-0.0,0.0004941446240991354,1.1681493520736694,0.0,0.014548351988196373
252.0,409.0,3.6341,-0.2818,8.8104,-0.0371,0.0342,-0.1203,-1.6342646084227503,0.0,2.4011287689208984,-1.6815882921218872,-0.0,2.1608591079711914,4.45509306966748,-0.0,0.283794641494751,-1.4212177435504358,0.0,-0.0054579307325184345,0.5671192407608032,-0.0,-0.011196967214345932,1.1681170463562012,0.0,0.012685557827353477
252.0,409.0,3.6341,-0.2818,8.8104,-0.0371,0.0342,-0.1203,-1.6342202625670375,0.0,2.458336353302002,-1.681572675704956,-0.0,2.1553802490234375,4.455044909114502,-0.0,0.2804000675678253,-1.4211819807635706,0.0,-0.010356751270592213,0.5670785307884216,-0.0,-0.0141306072473526,1.168076992034912,0.0,-0.06412670016288757
252.0,409.0,3.6341,-0.2818,8.8104,-0.0371,0.0342,-0.1203,-1.6342727146544398,0.0,2.490556001663208,-1.6815763711929321,-0.0,2.1112399101257324,4.4550768572041015,-0.0,0.28289878368377686,-1.4211977163897913,0.0,-0.007777307648211718,0.5671429634094238,-0.0,-0.0012228097766637802,1.1680887937545776,0.0,0.02150803431868553
252.0,409.0,3.6341,-0.2818,8.8104,-0.0371,0.0342,-0.1203,-1.634256502191061,0.0,2.403964042663574,-1.6815565824508667,-0.0,2.1609487533569336,4.45510117589917,-0.0,0.2716289162635803,-1.4211776892291468,0.0,-0.00433745002374053,0.5670868754386902,-0.0,-0.009419378824532032,1.1680887937545776,0.0,0.024342188611626625
252.0,409.0,3.6341,-0.2818,8.8104,-0.0371,0.0342,-0.1203,-1.6342278919615687,0.0,2.4345803260803223,-1.6816610097885132,-0.0,2.1403894424438477,4.455044909114502,-0.0,0.27669158577919006,-1.4211700598346155,0.0,-0.012694782577455044,0.5670909285545349,-0.0,0.006085350643843412,1.1681047677993774,0.0,-0.03601059317588806
252.0,409.0,3.6341,-0.2818,8.8104,-0.0371,0.0342,-0.1203,-1.6342317066588343,0.0,2.412215232849121,-1.68160879611969,-0.0,2.1202197074890137,4.455084486598633,-0.0,0.2707759439945221,-1.4211939016925257,0.0,-0.010322846472263336,0.5671429634094238,-0.0,0.004107734654098749,1.1681089401245117,0.0,0.010538592003285885
252.0,409.0,3.6341,-0.2818,8.8104,-0.0371,0.0342,-0.1203,-1.634280344048971,0.0,2.431349515914917,-1.6815805435180664,-0.0,2.164721727371216,4.455088778133057,-0.0,0.28900957107543945,-1.4211776892291468,0.0,-0.005484456662088633,0.5671872496604919,-0.0,-0.007734707556664944,1.1680891513824463,0.0,0.0028983745723962784
252.0,409.0,3.6341,-0.2818,8.8104,-0.0371,0.0342,-0.1203,-1.6342688999571742,0.0,2.470043182373047,-1.6815927028656006,-0.0,2.137871026992798,4.455108328456543,-0.0,0.28961390256881714,-1.4211819807635706,0.0,-0.005613606423139572,0.5671470761299133,-0.0,-0.0026459728833287954,1.168121099472046,0.0,-0.07437065243721008
252.0,409.0,3.6341,-0.2818,8.8104,-0.0371,0.0342,-0.1203,-1.6343208752074183,0.0,2.412245750427246,-1.6816046237945557,-0.0,2.13965106010437,4.45510117589917,-0.0,0.27834802865982056,-1.4211657683001917,0.0,-0.01478620059788227,0.5671110153198242,-0.0,0.00782539788633585,1.168121099472046,0.0,-0.0012212935835123062
252.0,409.0,3.6341,-0.2818,8.8104,-0.0371,0.0342,-0.1203,-1.634256502191061,0.0,2.4040136337280273,-1.6815965175628662,-0.0,2.1281895637512207,4.4550487238117675,-0.0,0.27879849076271057,-1.4211576620685022,0.0,-0.01792502962052822,0.5671753287315369,-0.0,-0.00823980662971735,1.1680850982666016,0.0,0.0030164550989866257
252.0,409.0,3.6341,-0.2818,8.8104,-0.0371,0.0342,-0.1203,-1.6342927418150843,0.0,2.465820789337158,-1.6815886497497559,-0.0,2.1496939659118652,4.45512501775708,-0.0,0.2791896462440491,-1.4211738745318812,0.0,-0.00840257853269577,0.5671511888504028,-0.0,0.0004165467689745128,1.1681170463562012,0.0,-0.017926078289747238
252.0,409.0,3.6341,-0.2818,8.8104,-0.0371,0.0342,-0.1203,-1.634308477441305,0.0,2.415558338165283,-1.68160879611969,-0.0,2.156466484069824,4.455109282130859,-0.0,0.28115490078926086,-1.4211657683001917,0.0,-0.006095216143876314,0.5671470761299133,-0.0,-0.001880706287920475,1.168076992034912,0.0,0.002350747585296631
252.0,409.0,3.6341,-0.2818,8.8104,-0.0371,0.0342,-0.1203,-1.634280344048971,0.0,2.4579739570617676,-1.681600570678711,-0.0,2.169454574584961,4.455132647151611,-0.0,0.28322914242744446,-1.4211738745318812,0.0,-0.005117945838719606,0.5670990943908691,-0.0,-0.0036492610815912485,1.1681089401245117,0.0,-0.004749763756990433
252.0,409.0,3.6341,-0.2818,8.8104,-0.0371,0.0342,-0.1203,-1.6342646084227503,0.0,2.4516096115112305,-1.6815886497497559,-0.0,2.171553134918213,4.455112619990967,-0.0,0.28626251220703125,-1.4212058226214808,0.0,-0.0001382729969918728,0.5670826435089111,-0.0,-0.007209685631096363,1.1681129932403564,0.0,-0.0025678500533103943
252.0,401.0,3.7771,-0.2363,8.6656,-0.0386,0.024,-0.1161,-1.6342398128905238,0.0,2.422847270965576,-1.6815805435180664,-0.0,2.1671977043151855,4.45512501775708,-0.0,0.2762499749660492,-1.42119008699526,0.0,-0.007594760041683912,0.5671105980873108,-0.0,0.0059956819750368595,1.168121099472046,0.0,-0.01031775213778019
252.0,401.0,3.7771,-0.2363,8.6656,-0.0386,0.024,-0.1161,-1.6342884502806605,0.0,2.4272260665893555,-1.681600570678711,-0.0,2.147094964981079,4.45506922780957,-0.0,0.29009145498275757,-1.4211977163897913,0.0,0.0028972411528229713,0.5671511888504028,-0.0,-0.0024464442394673824,1.1680768728256226,0.0,0.019978001713752747
252.0,401.0,3.7771,-0.2363,8.6656,-0.0386,0.024,-0.1161,-1.6342159710326136,0.0,2.4044601917266846,-1.6815968751907349,-0.0,2.1746764183044434,4.455080671901367,-0.0,0.2828540503978729,-1.4211538473712366,0.0,-0.010373121127486229,0.5670990943908691,-0.0,-0.00041574309580028057,1.1681089401245117,0.0,0.0395917110145092
252.0,401.0,3.7771,-0.2363,8.6656,-0.0386,0.024,-0.1161,-1.6342359981932582,0.0,2.4183197021484375,-1.6816288232803345,-0.0,2.1774325370788574,4.455084486598633,-0.0,0.28057754039764404,-1.4211977163897913,0.0,0.0017720533069223166,0.5670827031135559,-0.0,-0.003079379443079233,1.1681170463562012,0.0,-0.032969728112220764
252.0,401.0,3.7771,-0.2363,8.6656,-0.0386,0.024,-0.1161,-1.634308477441305,0.0,2.437814474105835,-1.681612491607666,-0.0,2.157113552093506,4.455084486598633,-0.0,0.2813166379928589,-1.4211657683001917,0.0,-0.015442726202309132,0.5670827627182007,-0.0,-2.6857946068048477e-05,1.1680446863174438,0.0,0.05452229455113411
252.0,401.0,3.7771,-0.2363,8.6656,-0.0386,0.024,-0.1161,-1.634280344048971,0.0,2.442990779876709,-1.6816445589065552,-0.0,2.1843762397766113,4.455084486598633,-0.0,0.28680896759033203,-1.4211896101581019,0.0,-0.009624890051782131,0.5671388506889343,-0.0,-0.017293892800807953,1.1681252717971802,0.0,0.02707449160516262
252.0,401.0,3.7771,-0.2363,8.6656,-0.0386,0.024,-0.1161,-1.634256502191061,0.0,2.4023303985595703,-1.68160879611969,-0.0,2.1390647888183594,4.455040617580078,-0.0,0.284267395734787,-1.4212096373187464,0.0,-0.011262191459536552,0.5671188235282898,-0.0,-0.01284633670002222,1.1681170463562012,0.0,-0.016333159059286118
252.0,401.0,3.7771,-0.2363,8.6656,-0.0386,0.024,-0.1161,-1.6342479191222132,0.0,2.4299428462982178,-1.6816083192825317,-0.0,2.1473960876464844,4.455084486598633,-0.0,0.2890837788581848,-1.4211819807635706,0.0,-0.008374457247555256,0.5670909881591797,-0.0,-0.010563613846898079,1.1681089401245117,0.0,0.012457448057830334
252.0,401.0,3.7771,-0.2363,8.6656,-0.0386,0.024,-0.1161,-1.6342646084227503,0.0,2.446820020675659,-1.681612491607666,-0.0,2.1600372791290283,4.455112619990967,-0.0,0.2955492436885834,-1.4212220350848597,0.0,-0.014342432841658592,0.5671348571777344,-0.0,-0.006339212879538536,1.168076992034912,0.0,0.024391163140535355
252.0,401.0,3.7771,-0.2363,8.6656,-0.0386,0.024,-0.1161,-1.6342760525145472,0.0,2.440988540649414,-1.681572675704956,-0.0,2.159888982772827,4.455084486598633,-0.0,0.28360816836357117,-1.4211977163897913,0.0,-0.011686652898788452,0.5671389102935791,-0.0,-0.009120803326368332,1.1681170463562012,0.0,-0.01751825213432312
252.0,401.0,3.7771,-0.2363,8.6656,-0.0386,0.024,-0.1161,-1.6342770061888636,0.0,2.414701461791992,-1.6815686225891113,-0.0,2.1836557388305664,4.455088778133057,-0.0,0.27907422184944153,-1.4211977163897913,0.0,-0.003952048718929291,0.5671470165252686,-0.0,-0.007964950054883957,1.1680686473846436,0.0,-0.03837519511580467
252.0,401.0,3.7771,-0.2363,8.6656,-0.0386,0.024,-0.1161,-1.6342884502806605,0.0,2.4513094425201416,-1.6816205978393555,-0.0,2.1764280796051025,4.4550816255756835,-0.0,0.2742621600627899,-1.4211495558368128,0.0,-0.009345644153654575,0.5671310424804688,-0.0,-0.0012783792335540056,1.16814124584198,0.0,-0.0035231360234320164
252.0,401.0,3.7771,-0.2363,8.6656,-0.0386,0.024,-0.1161,-1.6342760525145472,0.0,2.48726749420166,-1.6815685033798218,-0.0,2.1464943885803223,4.455061121577881,-0.0,0.27618351578712463,-1.4211896101581019,0.0,-0.01538907177746296,0.5671065449714661,-0.0,-0.012055832892656326,1.1681292057037354,0.0,-0.003909557592123747
252.0,401.0,3.7771,-0.2363,8.6656,-0.0386,0.024,-0.1161,-1.634252210656637,0.0,2.444929361343384,-1.681600570678711,-0.0,2.1765854358673096,4.45506922780957,-0.0,0.2847796678543091,-1.4211934248553675,0.0,-0.01160883903503418,0.5671470761299133,-0.0,-0.009139850735664368,1.1681129932403564,0.0,-0.004900776781141758
252.0,401.0,3.7771,-0.2363,8.6656,-0.0386,0.024,-0.1161,-1.6342646084227503,0.0,2.434630870819092,-1.681600570678711,-0.0,2.1800150871276855,4.455112619990967,-0.0,0.2826341390609741,-1.4211695829974573,0.0,-0.00029243208700791,0.5670662522315979,-0.0,-0.0036584900226444006,1.1681129932403564,0.0,-0.010043895803391933
252.0,401.0,3.7771,-0.2363,8.6656,-0.0386,0.024,-0.1161,-1.6342646084227503,0.0,2.4153597354888916,-1.6816205978393555,-0.0,2.182375907897949,4.455024405116699,-0.0,0.2828603982925415,-1.4211095015155237,0.0,-0.005307868588715792,0.5670991539955139,-0.0,-0.003190058283507824,1.1680569648742676,0.0,-0.008885007351636887
252.0,401.0,3.7771,-0.2363,8.6656,-0.0386,0.024,-0.1161,-1.634280344048971,0.0,2.486631393432617,-1.681612491607666,-0.0,2.173428535461426,4.4550768572041015,-0.0,0.28706905245780945,-1.4211576620685022,0.0,-0.008897924795746803,0.5671348571777344,-0.0,0.005692535545676947,1.168076992034912,0.0,-0.01085148099809885
252.0,401.0,3.7771,-0.2363,8.6656,-0.0386,0.024,-0.1161,-1.6342760525145472,0.0,2.4136276245117188,-1.6815927028656006,-0.0,2.155853033065796,4.455108805293701,-0.0,0.28892481327056885,-1.4211977163897913,0.0,0.0038642939180135727,0.5670868754386902,-0.0,0.011394665576517582,1.1681612730026245,0.0,-0.008063599467277527
256.0,426.0,3.7795,-0.2357,8.5555,-0.0353,0.0272,-0.1206,-1.634256502191061,0.0,2.4376590251922607,-1.6815845966339111,-0.0,2.186722993850708,4.45509306966748,-0.0,0.29040396213531494,-1.4211896101581019,0.0,-0.01811579428613186,0.5671069622039795,-0.0,-0.00645546056330204,1.1681493520736694,0.0,-0.007117000408470631
256.0,426.0,3.7795,-0.2357,8.5555,-0.0353,0.0272,-0.1206,-1.6342441044249476,0.0,2.453320264816284,-1.6815685033798218,-0.0,2.191498041152954,4.455052538509033,-0.0,0.2776329219341278,-1.4211457411395472,0.0,-0.022054797038435936,0.5670908689498901,-0.0,-0.009889173321425915,1.1681092977523804,0.0,0.020961951464414597
256.0,426.0,3.7795,-0.2357,8.5555,-0.0353,0.0272,-0.1206,-1.634252210656637,0.0,2.4144210815429688,-1.681604266166687,-0.0,2.205267906188965,4.455053015346191,-0.0,0.2912842929363251,-1.4211819807635706,0.0,0.004968012683093548,0.567115068435669,-0.0,-0.0013772211968898773,1.1681493520736694,0.0,-0.011018501594662666
256.0,426.0,3.7795,-0.2357,8.5555,-0.0353,0.0272,-0.1206,-1.6342359981932582,0.0,2.429564952850342,-1.6815805435180664,-0.0,2.181486129760742,4.455109282130859,-0.0,0.2952214479446411,-1.4211819807635706,0.0,-0.017877278849482536,0.5671229362487793,-0.0,-0.0037022745236754417,1.1681452989578247,0.0,0.005638516508042812
256.0,426.0,3.7795,-0.2357,8.5555,-0.0353,0.0272,-0.1206,-1.6342688999571742,0.0,2.4450979232788086,-1.6815965175628662,-0.0,2.1509664058685303,4.455056830043457,-0.0,0.2839493453502655,-1.4211657683001917,0.0,-0.009026875719428062,0.5670986771583557,-0.0,-0.0008391987648792565,1.1681089401245117,0.0,-0.012206639163196087
256.0,426.0,3.7795,-0.2357,8.5555,-0.0353,0.0272,-0.1206,-1.6342479191222132,0.0,2.4491145610809326,-1.6815648078918457,-0.0,2.179157257080078,4.455053015346191,-0.0,0.29009944200515747,-1.421173397694723,0.0,-0.004966565407812595,0.5671753287315369,-0.0,-0.002320909406989813,1.1681089401245117,0.0,0.038162168115377426
256.0,426.0,3.7795,-0.2357,8.5555,-0.0353,0.0272,-0.1206,-1.6342646084227503,0.0,2.433072566986084,-1.6815886497497559,-0.0,2.192443609237671,4.455056830043457,-0.0,0.2872239351272583,-1.4211819807635706,0.0,-0.007069258019328117,0.5671629905700684,-0.0,-0.00059549231082201,1.168129324913025,0.0,-0.0019748080521821976
256.0,426.0,3.7795,-0.2357,8.5555,-0.0353,0.0272,-0.1206,-1.6342884502806605,0.0,2.4529175758361816,-1.6816370487213135,-0.0,2.1535556316375732,4.455088778133057,-0.0,0.27529779076576233,-1.4212058226214808,0.0,0.0004894266021437943,0.567094624042511,-0.0,-0.006631904281675816,1.1680810451507568,0.0,0.010637156665325165
256.0,426.0,3.7795,-0.2357,8.5555,-0.0353,0.0272,-0.1206,-1.6342841587462367,0.0,2.441800117492676,-1.681572675704956,-0.0,2.1701455116271973,4.455065413112305,-0.0,0.2862943410873413,-1.4211614767657679,0.0,-0.016648516058921814,0.5671389102935791,-0.0,-0.007391742896288633,1.168129324913025,0.0,0.009862914681434631
256.0,426.0,3.7795,-0.2357,8.5555,-0.0353,0.0272,-0.1206,-1.6342770061888636,0.0,2.4383277893066406,-1.6816083192825317,-0.0,2.155113458633423,4.455080671901367,-0.0,0.2805657684803009,-1.4211495558368128,0.0,-0.004349309951066971,0.5670786499977112,-0.0,-0.0060881199315190315,1.1680487394332886,0.0,-0.05303031578660011
256.0,426.0,3.7795,-0.2357,8.5555,-0.0353,0.0272,-0.1206,-1.634252210656637,0.0,2.4597654342651367,-1.681572675704956,-0.0,2.185332775115967,4.455032511348389,-0.0,0.2712273895740509,-1.421185318623678,0.0,0.006367631256580353,0.5671790242195129,-0.0,0.0006980678299441934,1.1681089401245117,0.0,0.018330691382288933
256.0,426.0,3.7795,-0.2357,8.5555,-0.0353,0.0272,-0.1206,-1.6342197857298792,0.0,2.4341342449188232,-1.681592345237732,-0.0,2.1450061798095703,4.455040617580078,-0.0,0.28157538175582886,-1.421161953602926,0.0,-0.007537553086876869,0.5670868754386902,-0.0,0.0036669764667749405,1.1681007146835327,0.0,-0.01487776730209589
256.0,426.0,3.7795,-0.2357,8.5555,-0.0353,0.0272,-0.1206,-1.6342688999571742,0.0,2.4326536655426025,-1.6815723180770874,-0.0,2.176255702972412,4.45510117589917,-0.0,0.2769579589366913,-1.4211695829974573,0.0,-0.005330801475793123,0.5671110153198242,-0.0,-0.0016305212629958987,1.1680970191955566,0.0,-0.007031097076833248
256.0,426.0,3.7795,-0.2357,8.5555,-0.0353,0.0272,-0.1206,-1.6343008480467738,0.0,2.457143783569336,-1.6816290616989136,-0.0,2.1569366455078125,4.455080671901367,-0.0,0.28911224007606506,-1.4211776892291468,0.0,-0.01893068477511406,0.5671311020851135,-0.0,-0.012235122732818127,1.1681170463562012,0.0,0.025092512369155884
256.0,426.0,3.7795,-0.2357,8.5555,-0.0353,0.0272,-0.1206,-1.6342603168883265,0.0,2.4148645401000977,-1.6816165447235107,-0.0,2.1372225284576416,4.45506922780957,-0.0,0.282596230506897,-1.4211614767657679,0.0,-0.013998424634337425,0.5671511888504028,-0.0,0.002122618956491351,1.1680450439453125,0.0,0.028292467817664146
256.0,426.0,3.7795,-0.2357,8.5555,-0.0353,0.0272,-0.1206,-1.6342321834959925,0.0,2.45656156539917,-1.6816412210464478,-0.0,2.1419763565063477,4.45507733404126,-0.0,0.2844749987125397,-1.4211939016925257,0.0,-0.013828841038048267,0.5671069622039795,-0.0,-0.008065963163971901,1.1681129932403564,0.0,-0.04471053555607796
256.0,426.0,3.7795,-0.2357,8.5555,-0.0353,0.0272,-0.1206,-1.6342760525145472,0.0,2.4611105918884277,-1.6816773414611816,-0.0,2.138927936553955,4.455096884364746,-0.0,0.2805476486682892,-1.421133820210592,0.0,-0.0032584145665168762,0.5671872496604919,-0.0,-0.0018380077090114355,1.1681252717971802,0.0,0.02959156036376953
245.0,418.0,3.7705,-0.2614,8.6142,-0.0322,0.0217,-0.1174,-1.6342603168883265,0.0,2.4360744953155518,-1.6815886497497559,-0.0,2.1395556926727295,4.455053015346191,-0.0,0.28344476222991943,-1.4211576620685022,0.0,-0.009555153548717499,0.567126989364624,-0.0,-0.002024312037974596,1.1681047677993774,0.0,0.016923755407333374
245.0,418.0,3.7705,-0.2614,8.6142,-0.0322,0.0217,-0.1174,-1.6342688999571742,0.0,2.42741322517395,-1.6815645694732666,-0.0,2.1800320148468018,4.4550487238117675,-0.0,0.29048383235931396,-1.4211939016925257,0.0,-0.011093533597886562,0.5671470165252686,-0.0,-0.006820199079811573,1.1681333780288696,0.0,-0.051226116716861725
245.0,418.0,3.7705,-0.2614,8.6142,-0.0322,0.0217,-0.1174,-1.634224077264303,0.0,2.4416263103485107,-1.6816165447235107,-0.0,2.096571922302246,4.455061121577881,-0.0,0.27830278873443604,-1.42119008699526,0.0,-0.004262864124029875,0.567115068435669,-0.0,0.0026917881332337856,1.168133020401001,0.0,0.05133727192878723
245.0,418.0,3.7705,-0.2614,8.6142,-0.0322,0.0217,-0.1174,-1.6342884502806605,0.0,2.4466238021850586,-1.681600570678711,-0.0,2.1440649032592773,4.455080671901367,-0.0,0.2784666419029236,-1.4212139288531702,0.0,-0.015296516008675098,0.5671429634094238,-0.0,0.003793861251324415,1.1681772470474243,0.0,-0.024333178997039795
245.0,418.0,3.7705,-0.2614,8.6142,-0.0322,0.0217,-0.1174,-1.6342479191222132,0.0,2.4730730056762695,-1.6815763711929321,-0.0,2.1610772609710693,4.455108328456543,-0.0,0.2918628752231598,-1.4211457411395472,0.0,-0.0005491017363965511,0.5671675801277161,-0.0,-0.0013988667633384466,1.1681129932403564,0.0,-0.02634870633482933
245.0,418.0,3.7705,-0.2614,8.6142,-0.0322,0.0217,-0.1174,-1.6342398128905238,0.0,2.4732940196990967,-1.6816083192825317,-0.0,2.1537468433380127,4.455080671901367,-0.0,0.27831998467445374,-1.421173397694723,0.0,-0.0027475699316710234,0.5670828819274902,-0.0,-0.012730578891932964,1.168092966079712,0.0,-0.038166385143995285
245.0,418.0,3.7705,-0.2614,8.6142,-0.0322,0.0217,-0.1174,-1.6342278919615687,0.0,2.44840669631958,-1.6816205978393555,-0.0,2.186647415161133,4.455056830043457,-0.0,0.2864956259727478,-1.4211896101581019,0.0,0.005255908239632845,0.5671789646148682,-0.0,0.018006043508648872,1.1681089401245117,0.0,-0.031196285039186478
245.0,418.0,3.7705,-0.2614,8.6142,-0.0322,0.0217,-0.1174,-1.6342603168883265,0.0,2.4241390228271484,-1.6815484762191772,-0.0,2.17195987701416,4.455097361201904,-0.0,0.27951353788375854,-1.4211896101581019,0.0,-0.01494348980486393,0.5671147108078003,-0.0,0.0020054609049111605,1.168076992034912,0.0,-0.029584135860204697
245.0,418.0,3.7705,-0.2614,8.6142,-0.0322,0.0217,-0.1174,-1.6342841587462367,0.0,2.4552459716796875,-1.6815845966339111,-0.0,2.182487726211548,4.4550487238117675,-0.0,0.2737990617752075,-1.4211576620685022,0.0,0.008499851450324059,0.5670785307884216,-0.0,-0.011316156946122646,1.1680970191955566,0.0,-0.03864982724189758
245.0,418.0,3.7705,-0.2614,8.6142,-0.0322,0.0217,-0.1174,-1.6342727146544398,0.0,2.4541635513305664,-1.6815484762191772,-0.0,2.177706241607666,4.455032511348389,-0.0,0.27824878692626953,-1.4211896101581019,0.0,-0.004839347675442696,0.5671229362487793,-0.0,0.015086048282682896,1.168076992034912,0.0,0.00418191310018301
245.0,418.0,3.7705,-0.2614,8.6142,-0.0322,0.0217,-0.1174,-1.6342884502806605,0.0,2.4688291549682617,-1.681600570678711,-0.0,2.1876683235168457,4.455073519343994,-0.0,0.27816683053970337,-1.4211576620685022,0.0,-0.013935784809291363,0.5671147108078003,-0.0,0.00671765673905611,1.1680970191955566,0.0,-0.0015836191596463323
245.0,418.0,3.7705,-0.2614,8.6142,-0.0322,0.0217,-0.1174,-1.6342159710326136,0.0,2.42462158203125,-1.6815648078918457,-0.0,2.1286396980285645,4.455096884364746,-0.0,0.270638644695282,-1.4211776892291468,0.0,-0.007503800094127655,0.5671229362487793,-0.0,0.0010339777218177915,1.1681089401245117,0.0,-0.00868197251111269
245.0,418.0,3.7705,-0.2614,8.6142,-0.0322,0.0217,-0.1174,-1.6342646084227503,0.0,2.4582271575927734,-1.6815968751907349,-0.0,2.1459171772003174,4.455072565669678,-0.0,0.27159059047698975,-1.4211857954608362,0.0,0.0031585218384861946,0.5671266317367554,-0.0,-0.016013916581869125,1.168092966079712,0.0,-0.0069209816865623
245.0,418.0,3.7705,-0.2614,8.6142,-0.0322,0.0217,-0.1174,-1.6343127689757289,0.0,2.4266490936279297,-1.6815927028656006,-0.0,2.152740478515625,4.455044909114502,-0.0,0.27769750356674194,-1.4211977163897913,0.0,-0.011240217834711075,0.5670868754386902,-0.0,-0.012638670392334461,1.1681170463562012,0.0,0.03581251949071884
245.0,418.0,3.7705,-0.2614,8.6142,-0.0322,0.0217,-0.1174,-1.6342688999571742,0.0,2.4058170318603516,-1.6816165447235107,-0.0,2.1681461334228516,4.45506922780957,-0.0,0.2864779829978943,-1.4211862722979944,0.0,-0.019085146486759186,0.5671110153198242,-0.0,0.0069539789110422134,1.1680933237075806,0.0,0.016827326267957687
245.0,418.0,3.7705,-0.2614,8.6142,-0.0322,0.0217,-0.1174,-1.6342717609801234,0.0,2.439225673675537,-1.6816010475158691,-0.0,2.165036201477051,4.4550368028828125,-0.0,0.2757940888404846,-1.4211576620685022,0.0,-0.01626620627939701,0.5671671628952026,-0.0,0.0036706875544041395,1.1680891513824463,0.0,-0.03188764676451683
245.0,418.0,3.7705,-0.2614,8.6142,-0.0322,0.0217,-0.1174,-1.634256502191061,0.0,2.4428558349609375,-1.6816083192825317,-0.0,2.165928602218628,4.4550768572041015,-0.0,0.28401389718055725,-1.4211700598346155,0.0,-0.00855331402271986,0.5671069622039795,-0.0,-0.003922365605831146,1.1680970191955566,0.0,0.05320792645215988
245.0,418.0,3.7705,-0.2614,8.6142,-0.0322,0.0217,-0.1174,-1.63429655651235,0.0,2.415088176727295,-1.6816248893737793,-0.0,2.1446571350097656,4.455120726222656,-0.0,0.2932942509651184,-1.4211614767657679,0.0,-0.007863473147153854,0.5671389102935791,-0.0,-0.009977377951145172,1.168092966079712,0.0,-0.0420038178563118
256.0,390.0,3.7424,-0.1968,8.4598,-0.0405,0.0214,-0.1147,-1.634252210656637,0.0,2.430368423461914,-1.6815886497497559,-0.0,2.137967824935913,4.455061121577881,-0.0,0.2851788103580475,-1.4211939016925257,0.0,0.0013541377848014235,0.5670381784439087,-0.0,-0.006474552676081657,1.1681694984436035,0.0,0.005169110372662544
256.0,390.0,3.7424,-0.1968,8.4598,-0.0405,0.0214,-0.1147,-1.6342398128905238,0.0,2.445585250854492,-1.6815606355667114,-0.0,2.1506621837615967,4.455084963435791,-0.0,0.28422263264656067,-1.4211538473712366,0.0,-0.015782222151756287,0.5670827031135559,-0.0,-0.00679535698145628,1.1681212186813354,0.0,-0.04027782008051872
256.0,390.0,3.7424,-0.1968,8.4598,-0.0405,0.0214,-0.1147,-1.6342321834959925,0.0,2.4596922397613525,-1.681612491607666,-0.0,2.1652135848999023,4.455073042506836,-0.0,0.28094881772994995,-1.4211776892291468,0.0,-0.00648935791105032,0.5671634078025818,-0.0,-0.011856461875140667,1.1681170463562012,0.0,-0.0010875724256038666
256.0,390.0,3.7424,-0.1968,8.4598,-0.0405,0.0214,-0.1147,-1.6342841587462367,0.0,2.4428632259368896,-1.681600570678711,-0.0,2.165846586227417,4.45509306966748,-0.0,0.2875036597251892,-1.4212220350848597,0.0,-0.011347508989274502,0.56710284948349,-0.0,-0.0018737753853201866,1.1680970191955566,0.0,0.009769892320036888
256.0,390.0,3.7424,-0.1968,8.4598,-0.0405,0.0214,-0.1147,-1.6342922649779261,0.0,2.4255940914154053,-1.681572675704956,-0.0,2.1995511054992676,4.455105467433594,-0.0,0.27573585510253906,-1.4211776892291468,0.0,-0.014868887141346931,0.5671188831329346,-0.0,-0.0028103545773774385,1.1680970191955566,0.0,-0.014038578607141972
256.0,390.0,3.7424,-0.1968,8.4598,-0.0405,0.0214,-0.1147,-1.6342646084227503,0.0,2.4610178470611572,-1.6816165447235107,-0.0,2.191939115524292,4.455052538509033,-0.0,0.28302693367004395,-1.4211576620685022,0.0,-0.01463964395225048,0.5671872496604919,-0.0,-0.010001825168728828,1.1681170463562012,0.0,0.0315617173910141
256.0,390.0,3.7424,-0.1968,8.4598,-0.0405,0.0214,-0.1147,-1.634280344048971,0.0,2.46895432472229,-1.6815845966339111,-0.0,2.178373336791992,4.455064936275146,-0.0,0.27309250831604004,-1.421173397694723,0.0,-0.018032923340797424,0.5671429634094238,-0.0,-0.006409982219338417,1.1681089401245117,0.0,-0.026811633259058
256.0,390.0,3.7424,-0.1968,8.4598,-0.0405,0.0214,-0.1147,-1.6342727146544398,0.0,2.4621481895446777,-1.6815886497497559,-0.0,2.143108367919922,4.455080671901367,-0.0,0.2775377333164215,-1.421133820210592,0.0,0.0002575789112597704,0.567126989364624,-0.0,0.005095365457236767,1.1681007146835327,0.0,-0.008547608740627766
256.0,390.0,3.7424,-0.1968,8.4598,-0.0405,0.0214,-0.1147,-1.6342688999571742,0.0,2.451512575149536,-1.6815767288208008,-0.0,2.1575827598571777,4.455016775722168,-0.0,0.28964996337890625,-1.4211371580706995,0.0,-0.003124132752418518,0.567094624042511,-0.0,-0.015171611681580544,1.1680608987808228,0.0,0.016873303800821304
256.0,390.0,3.7424,-0.1968,8.4598,-0.0405,0.0214,-0.1147,-1.6342479191222132,0.0,2.445263624191284,-1.6815767288208008,-0.0,2.181352138519287,4.455056830043457,-0.0,0.28067290782928467,-1.4211700598346155,0.0,-0.021150875836610794,0.5671306848526001,-0.0,-0.00345958536490798,1.1681572198867798,0.0,0.0027678068727254868
256.0,390.0,3.7424,-0.1968,8.4598,-0.0405,0.0214,-0.1147,-1.6342688999571742,0.0,2.4595232009887695,-1.6816165447235107,-0.0,2.163456439971924,4.455028696651123,-0.0,0.2866273522377014,-1.4211657683001917,0.0,-0.00944872759282589,0.5671229362487793,-0.0,0.0004191800835542381,1.1681333780288696,0.0,-0.007457776460796595
256.0,390.0,3.7424,-0.1968,8.4598,-0.0405,0.0214,-0.1147,-1.6342398128905238,0.0,2.4534430503845215,-1.6816165447235107,-0.0,2.164626121520996,4.455088778133057,-0.0,0.29153668880462646,-1.4211700598346155,0.0,0.0004916680045425892,0.5671552419662476,-0.0,0.00456500006839633,1.1681089401245117,0.0,-0.0032825078815221786
256.0,390.0,3.7424,-0.1968,8.4598,-0.0405,0.0214,-0.1147,-1.6342603168883265,0.0,2.4083950519561768,-1.681592345237732,-0.0,2.132887363433838,4.455105467433594,-0.0,0.2754536271095276,-1.4211495558368128,0.0,-0.016769248992204666,0.567115068435669,-0.0,3.283657133579254e-05,1.1681252717971802,0.0,-0.0351068452000618
256.0,390.0,3.7424,-0.1968,8.4598,-0.0405,0.0214,-0.1147,-1.634280344048971,0.0,2.3992772102355957,-1.6815886497497559,-0.0,2.185375213623047,4.455053015346191,-0.0,0.2815926969051361,-1.4211700598346155,0.0,0.00028875540010631084,0.5671589374542236,-0.0,-0.014116529375314713,1.168092966079712,0.0,0.04772345721721649
256.0,390.0,3.7424,-0.1968,8.4598,-0.0405,0.0214,-0.1147,-1.6342321834959925,0.0,2.425960063934326,-1.681600570678711,-0.0,2.199524164199829,4.45506922780957,-0.0,0.28487420082092285,-1.4211414496051233,0.0,-0.0034217832144349813,0.5671105980873108,-0.0,-0.008565964177250862,1.1680887937545776,0.0,-0.0004536411724984646
256.0,390.0,3.7424,-0.1968,8.4598,-0.0405,0.0214,-0.1147,-1.6343165836729945,0.0,2.476949691772461,-1.6815686225891113,-0.0,2.1242547035217285,4.455028696651123,-0.0,0.27789387106895447,-1.4211495558368128,0.0,-0.008317956700921059,0.5671430230140686,-0.0,-0.002397818025201559,1.1680691242218018,0.0,-0.013325630687177181
256.0,390.0,3.7424,-0.1968,8.4598,-0.0405,0.0214,-0.1147,-1.6342159710326136,0.0,2.4907493591308594,-1.6815767288208008,-0.0,2.157644271850586,4.45510117589917,-0.0,0.279646098613739,-1.4211776892291468,0.0,-0.01475138682872057,0.5671430230140686,-0.0,-0.003642879892140627,1.1680970191955566,0.0,0.02338222786784172
261.0,403.0,3.5982,-0.2788,8.5645,-0.0357,0.0269,-0.1116,-1.634280344048971,0.0,2.4130890369415283,-1.681645393371582,-0.0,2.1533827781677246,4.455072565669678,-0.0,0.2695038616657257,-1.4211614767657679,0.0,-0.013385135680437088,0.56710284948349,-0.0,0.0035357275046408176,1.1681010723114014,0.0,-0.032854482531547546
261.0,403.0,3.5982,-0.2788,8.5645,-0.0357,0.0269,-0.1116,-1.6342479191222132,0.0,2.4121172428131104,-1.6815965175628662,-0.0,2.1593668460845947,4.455024881953857,-0.0,0.27667319774627686,-1.4211533705340784,0.0,-0.009440921247005463,0.5670827031135559,-0.0,-0.011754198931157589,1.1680810451507568,0.0,-0.03482811525464058
261.0,403.0,3.5982,-0.2788,8.5645,-0.0357,0.0269,-0.1116,-1.6342321834959925,0.0,2.4345345497131348,-1.681592345237732,-0.0,2.139613628387451,4.4550205904194335,-0.0,0.2747430205345154,-1.4211457411395472,0.0,-0.0017476272769272327,0.5671348571777344,-0.0,0.003516262164339423,1.1680970191955566,0.0,-0.022241292521357536
261.0,403.0,3.5982,-0.2788,8.5645,-0.0357,0.0269,-0.1116,-1.6342927418150843,0.0,2.4520182609558105,-1.681564450263977,-0.0,2.1824471950531006,4.455080671901367,-0.0,0.2786158621311188,-1.4211657683001917,0.0,-0.005069119855761528,0.5670745372772217,-0.0,-0.008146101608872414,1.1680970191955566,0.0,0.002321664709597826
261.0,403.0,3.5982,-0.2788,8.5645,-0.0357,0.0269,-0.1116,-1.6342688999571742,0.0,2.445952892303467,-1.681604266166687,-0.0,2.153581142425537,4.455061121577881,-0.0,0.2798798680305481,-1.421121899281637,0.0,-0.002503941999748349,0.5671266317367554,-0.0,-0.012331104837357998,1.168092966079712,0.0,-0.0038114855997264385
261.0,403.0,3.5982,-0.2788,8.5645,-0.0357,0.0269,-0.1116,-1.6342441044249476,0.0,2.4146721363067627,-1.681600570678711,-0.0,2.1666574478149414,4.455080671901367,-0.0,0.2866990268230438,-1.4211977163897913,0.0,-0.01338974665850401,0.5671389102935791,-0.0,-0.003832076210528612,1.1681129932403564,0.0,-0.03424321487545967
261.0,403.0,3.5982,-0.2788,8.5645,-0.0357,0.0269,-0.1116,-1.6342841587462367,0.0,2.4587438106536865,-1.6815686225891113,-0.0,2.1213204860687256,4.455080671901367,-0.0,0.28520795702934265,-1.4211457411395472,0.0,-0.009382533840835094,0.5670986771583557,-0.0,-0.005791330710053444,1.1681170463562012,0.0,-0.012767588719725609
261.0,403.0,3.5982,-0.2788,8.5645,-0.0357,0.0269,-0.1116,-1.6342884502806605,0.0,2.4381301403045654,-1.681572675704956,-0.0,2.1601436138153076,4.455084963435791,-0.0,0.27294662594795227,-1.4211490789996546,0.0,-0.003587559796869755,0.5671553015708923,-0.0,0.002483501797541976,1.1680887937545776,0.0,0.023428402841091156
261.0,403.0,3.5982,-0.2788,8.5645,-0.0357,0.0269,-0.1116,-1.6342688999571742,0.0,2.4616944789886475,-1.6815767288208008,-0.0,2.1649200916290283,4.455097361201904,-0.0,0.2770291864871979,-1.421173397694723,0.0,-0.021093102172017097,0.5671552419662476,-0.0,-0.00504907313734293,1.168092966079712,0.0,-0.0033445432782173157
261.0,403.0,3.5982,-0.2788,8.5645,-0.0357,0.0269,-0.1116,-1.6342688999571742,0.0,2.3936867713928223,-1.6816086769104004,-0.0,2.1680126190185547,4.455032511348389,-0.0,0.29017892479896545,-1.4211414496051233,0.0,-0.00810975767672062,0.5671470165252686,-0.0,-0.011437229812145233,1.1681334972381592,0.0,0.0012322235852479935
261.0,403.0,3.5982,-0.2788,8.5645,-0.0357,0.0269,-0.1116,-1.6342359981932582,0.0,2.469356060028076,-1.6815968751907349,-0.0,2.183703899383545,4.455076380366943,-0.0,0.28723597526550293,-1.4211819807635706,0.0,-0.005861807614564896,0.5670183897018433,-0.0,0.008672979660332203,1.1681170463562012,0.0,0.02965526655316353
261.0,403.0,3.5982,-0.2788,8.5645,-0.0357,0.0269,-0.1116,-1.6342688999571742,0.0,2.4016194343566895,-1.6815686225891113,-0.0,2.1980104446411133,4.45509306966748,-0.0,0.28684359788894653,-1.4211657683001917,0.0,-0.0140147740021348,0.567142903804779,-0.0,-0.0049871644005179405,1.1680805683135986,0.0,0.00334138423204422
261.0,403.0,3.5982,-0.2788,8.5645,-0.0357,0.0269,-0.1116,-1.6342398128905238,0.0,2.4532086849212646,-1.6815845966339111,-0.0,2.1856000423431396,4.455076380366943,-0.0,0.2776000201702118,-1.421133820210592,0.0,0.002313528908416629,0.56710284948349,-0.0,-0.010676426813006401,1.1681454181671143,0.0,0.012517524883151054
261.0,403.0,3.5982,-0.2788,8.5645,-0.0357,0.0269,-0.1116,-1.634252210656637,0.0,2.4315316677093506,-1.6816128492355347,-0.0,2.130916118621826,4.455088778133057,-0.0,0.2848486006259918,-1.4211376349078577,0.0,-0.007352915592491627,0.5671188831329346,-0.0,0.004512510262429714,1.1681171655654907,0.0,-0.006967658177018166
261.0,403.0,3.5982,-0.2788,8.5645,-0.0357,0.0269,-0.1116,-1.6342688999571742,0.0,2.4509685039520264,-1.6815686225891113,-0.0,2.1454315185546875,4.455088778133057,-0.0,0.2792963981628418,-1.4212258497821253,0.0,-0.005161444656550884,0.5671352744102478,-0.0,-0.0032853910233825445,1.168084740638733,0.0,-0.045662771910429
261.0,403.0,3.5982,-0.2788,8.5645,-0.0357,0.0269,-0.1116,-1.6342603168883265,0.0,2.4283838272094727,-1.6816083192825317,-0.0,2.1677346229553223,4.455044432277344,-0.0,0.28142496943473816,-1.4211657683001917,0.0,-0.0028397776186466217,0.5670745372772217,-0.0,-0.005922431126236916,1.1681007146835327,0.0,-0.04783283546566963
261.0,403.0,3.5982,-0.2788,8.5645,-0.0357,0.0269,-0.1116,-1.6342688999571742,0.0,2.4483115673065186,-1.6815565824508667,-0.0,2.1793041229248047,4.4550368028828125,-0.0,0.28417763113975525,-1.4211614767657679,0.0,-0.02226947620511055,0.5671225190162659,-0.0,-0.0005164287285879254,1.1681493520736694,0.0,-0.037884004414081573
261.0,403.0,3.5982,-0.2788,8.5645,-0.0357,0.0269,-0.1116,-1.6342717609801234,0.0,2.447129249572754,-1.681612491607666,-0.0,2.145202875137329,4.4550487238117675,-0.0,0.28682541847229004,-1.4211576620685022,0.0,-0.009044576436281204,0.5670909285545349,-0.0,-0.015103419311344624,1.1680728197097778,0.0,-0.007242677267640829
254.0,407.0,3.9553,-0.2381,8.5424,-0.0467,0.0173,-0.1217,-1.6342841587462367,0.0,2.4134504795074463,-1.6816051006317139,-0.0,2.1231894493103027,4.455056830043457,-0.0,0.28151610493659973,-1.4211652914630335,0.0,-0.015328404493629932,0.5670986771583557,-0.0,-0.010985252447426319,1.1681129932403564,0.0,-0.014046186581254005
254.0,407.0,3.9553,-0.2381,8.5424,-0.0467,0.0173,-0.1217,-1.6343003712096156,0.0,2.4525341987609863,-1.681552529335022,-0.0,2.1726441383361816,4.45506922780957,-0.0,0.2876092791557312,-1.4211533705340784,0.0,-0.012067809700965881,0.5671831965446472,-0.0,-0.003462430089712143,1.168092966079712,0.0,-0.017282459884881973
254.0,407.0,3.9553,-0.2381,8.5424,-0.0467,0.0173,-0.1217,-1.6342646084227503,0.0,2.47719144821167,-1.6816046237945557,-0.0,2.196038007736206,4.455052538509033,-0.0,0.29042577743530273,-1.4211819807635706,0.0,-0.008351899683475494,0.5671306848526001,-0.0,-0.004896192345768213,1.1681089401245117,0.0,-0.026024527847766876
254.0,407.0,3.9553,-0.2381,8.5424,-0.0467,0.0173,-0.1217,-1.634240289727682,0.0,2.4314334392547607,-1.6815805435180664,-0.0,2.1277780532836914,4.45506922780957,-0.0,0.27816149592399597,-1.4211457411395472,0.0,-0.005309512373059988,0.5671593546867371,-0.0,-0.0028096651658415794,1.1680850982666016,0.0,0.02619076333940029
254.0,407.0,3.9553,-0.2381,8.5424,-0.0467,0.0173,-0.1217,-1.634252210656637,0.0,2.4195687770843506,-1.681628942489624,-0.0,2.204683780670166,4.455080671901367,-0.0,0.2865445613861084,-1.4211533705340784,0.0,-0.009126055985689163,0.5670986771583557,-0.0,-0.0002507328463252634,1.168076992034912,0.0,-0.012998586520552635
254.0,407.0,3.9553,-0.2381,8.5424,-0.0467,0.0173,-0.1217,-1.6342321834959925,0.0,2.439312219619751,-1.6815606355667114,-0.0,2.1394197940826416,4.455061121577881,-0.0,0.2886958718299866,-1.4211738745318812,0.0,-0.001136326463893056,0.567094624042511,-0.0,-0.00040682850521989167,1.1681047677993774,0.0,0.009554250165820122
254.0,407.0,3.9553,-0.2381,8.5424,-0.0467,0.0173,-0.1217,-1.6342202625670375,0.0,2.4597740173339844,-1.6815886497497559,-0.0,2.1369082927703857,4.455061121577881,-0.0,0.2797112762928009,-1.4211576620685022,0.0,-0.013056274503469467,0.5671593546867371,-0.0,-0.00047352397814393044,1.1680887937545776,0.0,-0.010857800021767616
254.0,407.0,3.9553,-0.2381,8.5424,-0.0467,0.0173,-0.1217,-1.6342688999571742,0.0,2.4612233638763428,-1.6816046237945557,-0.0,2.1628341674804688,4.45509306966748,-0.0,0.2851460874080658,-1.4212058226214808,0.0,-0.006787324324250221,0.5671470165252686,-0.0,-0.007194287143647671,1.1681452989578247,0.0,-0.02798890508711338
254.0,407.0,3.9553,-0.2381,8.5424,-0.0467,0.0173,-0.1217,-1.6342321834959925,0.0,2.4397165775299072,-1.6815965175628662,-0.0,2.1960737705230713,4.455080671901367,-0.0,0.281605064868927,-1.4212058226214808,0.0,-0.020522894337773323,0.5671306848526001,-0.0,-0.011099057272076607,1.1681649684906006,0.0,0.01757773756980896
254.0,407.0,3.9553,-0.2381,8.5424,-0.0467,0.0173,-0.1217,-1.6342607937254847,0.0,2.465688943862915,-1.6815648078918457,-0.0,2.151848316192627,4.455108805293701,5.336598940530735e-10,0.2815985381603241,-1.4212301413165491,0.0,-0.016521940007805824,0.5671470165252686,-0.0,0.0027120420709252357,1.1681007146835327,0.0,0.02050831913948059
254.0,407.0,3.9553,-0.2381,8.5424,-0.0467,0.0173,-0.1217,-1.634212156335348,0.0,2.4398140907287598,-1.6816128492355347,-0.0,2.1601967811584473,4.455100699062012,2.275076177796209e-12,0.291994571685791,-1.4212382475482386,0.0,0.0038979887031018734,0.5670745372772217,-0.0,0.0017487281002104282,1.1680852174758911,0.0,-0.07144220173358917
254.0,407.0,3.9553,-0.2381,8.5424,-0.0467,0.0173,-0.1217,-1.634256502191061,0.0,2.418678045272827,-1.6815685033798218,-0.0,2.1856307983398438,4.455076380366943,6.332759773830011e-16,0.2784503102302551,-1.4211815039264124,0.0,-0.007473561447113752,0.567094624042511,-0.0,-0.0035516859497874975,1.1681089401245117,0.0,-0.0014217302668839693
254.0,407.0,3.9553,-0.2381,8.5424,-0.0467,0.0173,-0.1217,-1.6342727146544398,0.0,2.450908660888672,-1.681519865989685,-0.0,2.1612539291381836,4.455089254970215,1.7627465715219079e-19,0.27826476097106934,-1.4211652914630335,0.0,-0.011518302373588085,0.5671266913414001,-0.0,-0.00432415958493948,1.1681252717971802,0.0,0.023527154698967934
254.0,407.0,3.9553,-0.2381,8.5424,-0.0467,0.0173,-0.1217,-1.634224077264303,0.0,2.432992935180664,-1.6815606355667114,-0.0,2.1877830028533936,4.455089254970215,7.51486417336519e-22,0.27542874217033386,-1.4211934248553675,0.0,-0.011058115400373936,0.5671470165252686,-0.0,-0.009199812076985836,1.1681489944458008,0.0,-0.008179426193237305
254.0,407.0,3.9553,-0.2381,8.5424,-0.0467,0.0173,-0.1217,-1.6342445812621058,0.0,2.3846380710601807,-1.6816129684448242,-0.0,2.155165195465088,4.455080671901367,2.0917899218622166e-25,0.277798593044281,-1.4211810270892542,-0.00018208473920822144,-0.010282978415489197,0.5671306848526001,-0.0,-0.0042171902023255825,1.1681089401245117,0.0,-0.03200672194361687
254.0,407.0,3.9553,-0.2381,8.5424,-0.0467,0.0173,-0.1217,-1.6342603168883265,0.0,2.3812649250030518,-1.681572675704956,-0.0,2.178635358810425,4.455129786128662,8.917628606671357e-28,0.2898405194282532,-1.421173397694723,-0.00016916661115828902,-0.008088385686278343,0.5670786499977112,-0.0,-0.016083989292383194,1.168096661567688,0.0,-0.0047636814415454865
254.0,407.0,3.9553,-0.2381,8.5424,-0.0467,0.0173,-0.1217,-1.6342321834959925,0.0,2.4512977600097656,-1.6815524101257324,-0.0,2.146137237548828,4.455104513759277,2.482254745207679e-31,0.27035820484161377,-1.4212501684771937,-0.0001520228252047673,-0.004136661998927593,0.5671790242195129,-0.0,-0.008758691139519215,1.1681609153747559,-3.526187564162342e-09,0.019477566704154015
250.0,404.0,3.3511,-0.5186,8.5208,-0.0447,0.0376,-0.1089,-1.6342727146544398,0.0,2.441366195678711,-1.6815648078918457,-0.0,2.1649484634399414,4.4551731783100585,1.058224095648379e-33,0.28746336698532104,-1.4212301413165491,-0.00014240024029277265,-0.004160292446613312,0.5671470165252686,-0.0,-0.003986638970673084,1.16814124584198,-6.347013301218063e-13,0.024125538766384125
250.0,404.0,3.3511,-0.5186,8.5208,-0.0447,0.0376,-0.1089,-1.634256502191061,0.0,2.4448747634887695,-1.681544542312622,1.8505619259201467e-10,2.1336121559143066,4.455084963435791,2.945605826854979e-37,0.2807888388633728,-1.421213452016012,-0.0001300526928389445,-0.000362550956197083,0.567142903804779,-0.0,0.00467786006629467,1.1681731939315796,-1.5327289689210782e-18,-0.01639154925942421
250.0,404.0,3.3511,-0.5186,8.5208,-0.0447,0.0376,-0.1089,-1.6343370876707972,0.0,2.4436306953430176,-1.6815203428268433,0.002331789117306471,2.1705024242401123,4.455080671901367,8.199137444610937e-41,0.28139641880989075,-1.4212458769427698,-0.00011967587488470599,-0.01638089492917061,0.5671713352203369,-0.0,-0.005684162490069866,1.168136715888977,1.2830676041630795e-06,-0.0711124986410141
250.0,404.0,3.3511,-0.5186,8.5208,-0.0447,0.0376,-0.1089,-1.6342927418150843,0.0,2.452019691467285,-1.681516170501709,0.0024866240564733744,2.151947498321533,4.455121203059814,3.4892331761687945e-43,0.28001147508621216,-1.4212058226214808,-0.00011363146040821448,-0.004974872339516878,0.5670950412750244,-0.0,0.005833915434777737,1.1682051420211792,0.000554883386939764,-0.03735388070344925
250.0,404.0,3.3511,-0.5186,8.5208,-0.0447,0.0376,-0.1089,-1.634280344048971,-0.0010094281751662493,2.4309818744659424,-1.6815369129180908,0.0023611816577613354,2.171757459640503,4.455076380366943,0.0,0.28269991278648376,-1.4211772123919886,-0.00010562936222413555,-0.007817450910806656,0.5671105980873108,-0.0,-0.009852716699242592,1.1682449579238892,0.0028763492591679096,-0.06450814753770828
250.0,404.0,3.3511,-0.5186,8.5208,-0.0447,0.0376,-0.1089,-1.6343285046019496,-0.002544133458286524,2.422677755355835,-1.681464433670044,0.002364837797358632,2.1450304985046387,4.455097361201904,0.0,0.2696441411972046,-1.4211815039264124,-0.00010089249553857371,-0.010401814244687557,0.5671225786209106,-0.0,-0.013560065999627113,1.168260931968689,0.004290829412639141,-0.0017754663713276386
250.0,404.0,3.3511,-0.5186,8.5208,-0.0447,0.0376,-0.1089,-1.6343442402281703,-0.003970885183662176,2.418896198272705,-1.6815688610076904,0.0017852147575467825,2.1874804496765137,4.455084963435791,0.0,0.27550777792930603,-1.4212058226214808,-9.453379607293755e-05,-0.0017675785347819328,0.5671470165252686,-0.0,-0.004259919282048941,1.1682884693145752,0.007757526822388172,-0.018876153975725174
250.0,404.0,3.3511,-0.5186,8.5208,-0.0447,0.0376,-0.1089,-1.6343680820860804,-0.0040402780286967754,2.488316059112549,-1.6814520359039307,0.0011487050214782357,2.211975336074829,4.455084963435791,0.0,0.2761228680610657,-1.4212258497821253,-8.892908226698637e-05,-0.007263582199811935,0.5671552419662476,-0.0,-0.00471826596185565,1.1683244705200195,0.008648158051073551,0.06563796103000641
250.0,404.0,3.3511,-0.5186,8.5208,-0.0447,0.0376,-0.1089,-1.6344367466368617,-0.0031448372174054384,2.4044816493988037,-1.681496500968933,0.0008414465701207519,2.1496291160583496,4.455108805293701,0.0,0.26997730135917664,-1.4211934248553675,-8.554781379643828e-05,-0.008645371533930302,0.5671992301940918,-0.0,0.010434715077280998,1.1683604717254639,0.007138079963624477,0.025017820298671722
250.0,404.0,3.3511,-0.5186,8.5208,-0.0447,0.0376,-0.1089,-1.6343556843199671,-0.0020926406141370535,2.456643581390381,-1.681496500968933,0.0006006225594319403,2.1779253482818604,4.455072565669678,1.900462848425377e-05,0.2719253897666931,-1.4212258497821253,-8.093203359749168e-05,-0.0028312013018876314,0.5671872496604919,-0.0,0.009607969783246517,1.1683887243270874,0.004821248352527618,0.0005790200084447861
250.0,404.0,3.3511,-0.5186,8.5208,-0.0447,0.0376,-0.1089,-1.6344448528685511,-0.001995495520532131,2.4516048431396484,-1.681496500968933,0.0005044084973633289,2.1526074409484863,4.45512501775708,1.851792876550462e-05,0.27265316247940063,-1.421197239552633,-7.812200055923313e-05,-0.003036275040358305,0.5671147108078003,-0.0,-0.0005002269754186273,1.1683924198150635,0.0027806833386421204,0.023929938673973083
250.0,404.0,3.3511,-0.5186,8.5208,-0.0447,0.0376,-0.1089,-1.6345001659789027,-0.0041742208413779736,2.4211785793304443,-1.6815129518508911,0.00040669876034371555,2.1501407623291016,4.455084963435791,1.744247492752038e-05,0.2737874984741211,-1.4212215582477015,-7.42546035326086e-05,0.0006808112375438213,0.567094624042511,-0.0,-0.006474818103015423,1.1683763265609741,0.0013654060894623399,0.04068734124302864
250.0,404.0,3.3511,-0.5186,8.5208,-0.0447,0.0376,-0.1089,-1.6344720325865687,-0.0064440565183758736,2.4306273460388184,-1.6814560890197754,0.00011700214963639155,2.162550210952759,4.455116911525391,1.6791611415101215e-05,0.28431016206741333,-1.4211772123919886,-7.18823866918683e-05,0.0065689790062606335,0.5670905709266663,-0.0,0.0008172164671123028,1.168372392654419,0.0009519702871330082,0.0329488180577755
250.0,404.0,3.3511,-0.5186,8.5208,-0.0447,0.0376,-0.1089,-1.6345278225340785,-0.007939898408949375,2.433424472808838,-1.6814643144607544,6.564456271007657e-05,2.145606756210327,4.4551002222248535,1.590155625308398e-05,0.2839398980140686,-1.4211891333209437,-6.859517452539876e-05,-0.002972943242639303,0.5671430230140686,-0.0,-0.007273907773196697,1.1683682203292847,0.00022053347493056208,0.011337378062307835
250.0,404.0,3.3511,-0.5186,8.5208,-0.0447,0.0376,-0.1089,-1.6346284351744593,-0.008889978751540184,2.3794753551483154,-1.681524395942688,1.4453259609581437e-05,2.1526784896850586,4.455080671901367,1.5101109966053627e-05,0.2772429287433624,-1.4212382475482386,-6.55955373076722e-05,-0.004446517676115036,0.5671753287315369,-0.0,-0.013426624238491058,1.1683481931686401,8.04110532044433e-05,-0.015629347413778305
250.0,404.0,3.3511,-0.5186,8.5208,-0.0447,0.0376,-0.1089,-1.6346966228880824,-0.009086793288588524,2.4154162406921387,-1.6815006732940674,2.601535875612626e-09,2.151340961456299,4.455108328456543,1.4610791367886122e-05,0.27066856622695923,-1.4212053457843226,-6.373730866471305e-05,-0.00454260827973485,0.5670950412750244,-0.0,-0.007568220607936382,1.1683121919631958,4.145259424603864e-08,0.04103350639343262
250.0,404.0,3.3511,-0.5186,8.5208,-0.0447,0.0376,-0.1089,-1.634684225121969,-0.008568613789975643,2.4699859619140625,-1.6814923286437988,6.282403559236625e-15,2.1465327739715576,4.455097361201904,1.3932249203207903e-05,0.27325162291526794,-1.421185318623678,-6.113942072261125e-05,-0.0026594328228384256,0.5670826435089111,-0.0,-0.010775397531688213,1.1683646440505981,1.0010312620056111e-13,0.0025135730393230915
250.0,404.0,3.3511,-0.5186,8.5208,-0.0447,0.0376,-0.1089,-1.6347600422301234,-0.008165253326296806,2.4634921550750732,-1.681524395942688,1.1308104912804173e-18,2.1817750930786133,4.455088778133057,1.3513851627067197e-05,0.2746712565422058,-1.4211896101581019,-5.952202627668157e-05,-0.007798113394528627,0.5671188831329346,-0.0,-0.004869238473474979,1.1683604717254639,-0.0012310098391026258,-0.010539526119828224
259.0,400.0,4.261,-0.3135,8.537,-0.0531,0.0014,-0.1405,-1.634751935998434,-0.00576833076775074,2.4706859588623047,-1.6815202236175537,2.7307743548393832e-24,2.1407926082611084,4.455112619990967,1.2931353921885602e-05,0.2776661813259125,-1.4212177435504358,-5.725032679038122e-05,0.0034396506380289793,0.5671712756156921,-0.0,-0.004747299011796713,1.1682761907577515,-0.00158782082144171,0.004959555808454752
259.0,400.0,4.261,-0.3135,8.537,-0.0531,0.0014,-0.1405,-1.6347557506956996,-0.004258466884493828,2.423935890197754,-1.6815087795257568,6.594499233988728e-30,2.1260197162628174,4.455108805293701,1.2396980309858918e-05,0.2751273810863495,-1.4212215582477015,-5.514554140972905e-05,-0.005115145817399025,0.5671872496604919,-0.0,-0.0021096037235111,1.1682965755462646,-0.001945809810422361,-0.03931250423192978
259.0,400.0,4.261,-0.3135,8.537,-0.0531,0.0014,-0.1405,-1.6348239384093226,-0.0029677189886569977,2.4555749893188477,-1.681524395942688,1.1869866448114985e-33,2.1898717880249023,4.455096407527588,1.2064617294527125e-05,0.27922624349594116,-1.4211776892291468,-5.382634117268026e-05,0.001990660559386015,0.5670909285545349,-0.0,0.000661738682538271,1.1682884693145752,-0.001980104250833392,-0.04469494894146919
259.0,400.0,4.261,-0.3135,8.537,-0.0531,0.0014,-0.1405,-1.6348520718016566,-0.002230824204161763,2.4204323291778564,-1.681524395942688,2.8664330801919512e-39,2.160247564315796,4.45509306966748,1.15981938506593e-05,0.27489420771598816,-1.4212258497821253,-4.2923420551232994e-05,-0.0024166598450392485,0.5671470165252686,-0.0,-0.017033714801073074,1.1681928634643555,-0.002267692005261779,-0.03770539164543152
259.0,400.0,4.261,-0.3135,8.537,-0.0531,0.0014,-0.1405,-1.634820123712057,-0.0016887977253645658,2.405179023742676,-1.6815006732940674,5.156778348715327e-43,2.1957905292510986,4.455097361201904,1.1306779015285429e-05,0.27639240026474,-1.4211695829974573,-4.0636859921505675e-05,-0.006529068108648062,0.5671307444572449,-0.0,-0.0031850121449679136,1.1682446002960205,-0.002799713285639882,-0.010034270584583282
259.0,400.0,4.261,-0.3135,8.537,-0.0531,0.0014,-0.1405,-1.63488831142568,-0.001154104946181178,2.4053852558135986,-1.6815285682678223,-0.0,2.1450068950653076,4.455116911525391,1.0896116691583302e-05,0.2824365794658661,-1.421197239552633,-2.5943577384168748e-06,-0.004401909653097391,0.5671552419662476,-0.0,-0.008712581358850002,1.168260931968689,-0.003238876350224018,-0.019289756193757057
259.0,400.0,4.261,-0.3135,8.537,-0.0531,0.0014,-0.1405,-1.6348644695677699,-0.0009458030108362436,2.45888614654541,-1.6815242767333984,-0.0,2.166147232055664,4.455088778133057,1.063851777871605e-05,0.2791006863117218,-1.4211533705340784,-1.1060155458153531e-08,-0.008348587900400162,0.5671389698982239,-0.0,0.0021187253296375275,1.1682050228118896,-0.004120364785194397,-0.013096613809466362
259.0,400.0,4.261,-0.3135,8.537,-0.0531,0.0014,-0.1405,-1.6348077259459437,-0.0006529544480144978,2.4882454872131348,-1.6815087795257568,-0.0,2.1714067459106445,4.455121203059814,1.0274185115122236e-05,0.2915864884853363,-1.4212096373187464,-3.0786347863381858e-12,-0.0072290049865841866,0.5671991109848022,-0.0,-0.012083078734576702,1.1681289672851562,-0.004713037051260471,-0.021035661920905113
259.0,400.0,4.261,-0.3135,8.537,-0.0531,0.0014,-0.1405,-1.6348720989623011,-0.0005681453039869666,2.4348244667053223,-1.6815087795257568,-0.0,2.141540765762329,4.455112619990967,9.933974979503546e-06,0.2751029133796692,-1.4211657683001917,-8.56949320786484e-16,-0.018994111567735672,0.5671553015708923,-0.0,0.0006197378970682621,1.1681170463562012,-0.005402472335845232,-0.05493588373064995
259.0,400.0,4.261,-0.3135,8.537,-0.0531,0.0014,-0.1405,-1.6348077259459437,-0.00049146095989272,2.468296766281128,-1.681540846824646,-0.0,2.1920149326324463,4.455088778133057,4.235009853914562e-08,0.2805521488189697,-1.4211261908160608,-3.653309349789451e-18,-0.015696829184889793,0.5671548843383789,-0.0,-0.00189896859228611,1.1680810451507568,-0.0076829055324196815,-0.001267393585294485
259.0,400.0,4.261,-0.3135,8.537,-0.0531,0.0014,-0.1405,-1.6348520718016566,-0.00035837144241668284,2.460078716278076,-1.6815367937088013,-0.0,2.145705461502075,4.455088778133057,1.1788303840021275e-11,0.28636401891708374,-1.4211457411395472,-1.0169119343831106e-21,-0.02632654272019863,0.5671310424804688,-0.0,-0.0011509566102176905,1.168036699295044,-0.008636610582470894,0.011976977810263634
259.0,400.0,4.261,-0.3135,8.537,-0.0531,0.0014,-0.1405,-1.6348840198912562,-0.0004228955367580056,2.433565139770508,-1.6815367937088013,-0.0,2.1818573474884033,4.455088778133057,5.025538972057604e-14,0.29220348596572876,-1.4211419264422815,-1.2511910426837858e-05,-0.0204261876642704,0.5670987367630005,-0.0,0.0067470199428498745,1.1680212020874023,-0.008534847758710384,0.005380233749747276
259.0,400.0,4.261,-0.3135,8.537,-0.0531,0.0014,-0.1405,-1.6348639927306117,-0.0010118334321305156,2.415566921234131,-1.68150794506073,-0.0,2.1870925426483154,4.45506922780957,1.3988773939323147e-17,0.29220378398895264,-1.4211495558368128,2.0736326405312866e-05,-0.021979719400405884,0.5671671628952026,-0.0,-0.012008828110992908,1.167925238609314,-0.008552837185561657,0.00045853108167648315
259.0,400.0,4.261,-0.3135,8.537,-0.0531,0.0014,-0.1405,-1.6348921261229457,-0.002261035144329071,2.4542527198791504,-1.6814923286437988,-0.0,2.184760570526123,4.455116911525391,3.893826717796934e-21,0.2865374684333801,-1.4211457411395472,2.005245187319815e-05,-0.011512050405144691,0.567078709602356,-0.0,-0.00863316934555769,1.1679015159606934,-0.009367750026285648,-0.03256481513381004
259.0,400.0,4.261,-0.3135,8.537,-0.0531,0.0014,-0.1405,-1.6348759136595667,-0.002942791674286127,2.4481329917907715,-1.6815006732940674,-0.0,2.161024570465088,4.455088778133057,1.659999529540032e-23,0.28261953592300415,-1.4211376349078577,6.563344072674226e-07,-0.012947611510753632,0.5671552419662476,-0.0,-0.017760364338755608,1.1678855419158936,-0.009067675098776817,-0.02040766552090645
259.0,400.0,4.261,-0.3135,8.537,-0.0531,0.0014,-0.1405,-1.6349197826781214,-0.003453403478488326,2.4616496562957764,-1.6815327405929565,-0.0,2.1809401512145996,4.455064936275146,4.62066916697249e-27,0.28959155082702637,-1.4211700598346155,1.8269308288410002e-10,-0.020261187106370926,0.5671348571777344,-0.0,0.008510574698448181,1.1678740978240967,-0.0085211880505085,-0.039987143129110336
259.0,400.0,4.261,-0.3135,8.537,-0.0531,0.0014,-0.1405,-1.634923597375387,-0.0036376859061419964,2.429208517074585,-1.6815202236175537,-0.0,2.1936118602752686,4.455073042506836,1.9698634156842468e-29,0.2897038757801056,-1.4211495558368128,7.788492615602716e-13,-0.038673579692840576,0.5671831369400024,-0.0,-0.009698881767690182,1.167737364768982,-0.008802470751106739,-0.016014553606510162
257.0,405.0,3.8698,-0.5844,8.3731,-0.0504,0.0182,-0.1284,-1.6349479160704554,-0.0032710605300962925,2.4382638931274414,-1.681488275527954,-0.0,2.1431186199188232,4.455097361201904,5.4831878063006105e-33,0.2903618812561035,-1.4212020079242151,2.16795568220676e-16,-0.017707306891679764,0.5671429634094238,-0.0,0.003554701106622815,1.167717695236206,-0.009385868906974792,-0.005657035857439041
257.0,405.0,3.8698,-0.5844,8.3731,-0.0504,0.0182,-0.1284,-1.6349317036070765,-0.0025017522275447845,2.454916000366211,-1.6814606189727783,-0.0,2.1571311950683594,4.455064936275146,2.337568952782563e-35,0.2906751036643982,-1.4211376349078577,9.242336104262978e-19,-0.013762704096734524,0.5671307444572449,-0.0,-0.009368658065795898,1.1677417755126953,-0.008366599678993225,-0.012089082039892673
257.0,405.0,3.8698,-0.5844,8.3731,-0.0504,0.0182,-0.1284,-1.6349598369994105,-0.0018075284315273166,2.4232969284057617,-1.6814721822738647,3.7849928048672155e-05,2.1669652462005615,4.455104513759277,6.506708013934925e-39,0.28051328659057617,-1.421133820210592,2.572638232816557e-22,-0.01538768969476223,0.5671629905700684,-0.0,-0.011416738852858543,1.167601466178894,-0.008223631419241428,-0.04425863176584244
257.0,405.0,3.8698,-0.5844,8.3731,-0.0504,0.0182,-0.1284,-1.6349836788573207,-0.0015772855840623379,2.4428884983062744,-1.681524395942688,3.561461562640034e-05,2.1358633041381836,4.455076380366943,1.8104776159076637e-42,0.2991730868816376,-1.4211419264422815,7.161032778563464e-26,-0.024878527969121933,0.5671347379684448,-0.0,0.003799574449658394,1.1676342487335205,-0.0069774058647453785,-0.02099738083779812
257.0,405.0,3.8698,-0.5844,8.3731,-0.0504,0.0182,-0.1284,-1.6349760494627894,-0.0018159892642870545,2.406050205230713,-1.6814602613449097,3.425893737585284e-05,2.1744136810302734,4.455116911525391,8.407790785948902e-45,0.28631967306137085,-1.4211414496051233,3.0528606475849624e-28,-0.012910695746541023,0.5671592950820923,-0.0,0.014386779628694057,1.1676061153411865,-0.006093346048146486,0.01707420125603676
257.0,405.0,3.8698,-0.5844,8.3731,-0.0504,0.0182,-0.1284,-1.6349755726256312,-0.0025880206376314163,2.450324058532715,-1.681488275527954,3.2408570405095816e-05,2.151451587677002,4.455105467433594,0.0,0.30405643582344055,-1.4211581389056605,8.497750342355663e-32,-0.022978942841291428,0.5671306848526001,-0.0,-0.0050307633355259895,1.1675138473510742,-0.0046852221712470055,0.015763625502586365
257.0,405.0,3.8698,-0.5844,8.3731,-0.0504,0.0182,-0.1284,-1.6350399456419886,-0.0027742504607886076,2.411562442779541,-1.681496500968933,3.12820884573739e-05,2.1666202545166016,4.45506922780957,0.0,0.3013996481895447,-1.42119008699526,3.6227243565530334e-34,-0.030749162659049034,0.5671306848526001,-0.0,-0.012248372659087181,1.1675541400909424,-0.0036589214578270912,-0.0040682279504835606
257.0,405.0,3.8698,-0.5844,8.3731,-0.0504,0.0182,-0.1284,-1.635048051873678,-0.00478358892723918,2.4371933937072754,-1.6814804077148438,2.9731992981396616e-05,2.1832470893859863,4.455032511348389,0.0,0.29594990611076355,-1.4211533705340784,1.008398589365602e-37,-0.04037436097860336,0.5672154426574707,-0.0,-0.0026595767121762037,1.167582392692566,-0.0022213899064809084,0.023839622735977173
257.0,405.0,3.8698,-0.5844,8.3731,-0.0504,0.0182,-0.1284,-1.6350718937315882,-0.006147229578346014,2.4388427734375,-1.6815325021743774,2.8328237021923997e-05,2.19380784034729,4.455061121577881,0.0,0.31444138288497925,-1.4211934248553675,2.806940953889041e-41,-0.038903966546058655,0.5671708583831787,-0.0,-0.007436717860400677,1.167546272277832,-0.0011682412587106228,-0.01847292296588421
257.0,405.0,3.8698,-0.5844,8.3731,-0.0504,0.0182,-0.1284,-1.635143896142477,-0.0074539147317409515,2.4610097408294678,-1.6815202236175537,2.7463816877570935e-05,2.194246292114258,4.455084963435791,0.0,0.3069394528865814,-1.4212177435504358,1.1911036946760945e-43,-0.03224019333720207,0.5671508312225342,-0.0,0.008782273158431053,1.1675422191619873,-0.0007662310381419957,-0.01765035279095173
257.0,405.0,3.8698,-0.5844,8.3731,-0.0504,0.0182,-0.1284,-1.6351877651610316,-0.009103610180318356,2.4558401107788086,-1.6814725399017334,2.626175592013169e-05,2.1864466667175293,4.455109282130859,0.0,0.3053567111492157,-1.4211738745318812,0.0,-0.033633098006248474,0.5671589374542236,-0.0,-5.427408905234188e-05,1.1675262451171875,-0.0005069787730462849,-0.01382396463304758
257.0,405.0,3.8698,-0.5844,8.3731,-0.0504,0.0182,-0.1284,-1.6352478466429652,-0.010614417493343353,2.4081931114196777,-1.6814844608306885,3.82688594982028e-05,2.165581464767456,4.4550368028828125,0.0,0.3102529048919678,-1.421173397694723,0.0,-0.033926401287317276,0.5671629905700684,-0.0,-0.0022594421170651913,1.167546272277832,-0.0004137115611229092,-0.021236129105091095
257.0,405.0,3.8698,-0.5844,8.3731,-0.0504,0.0182,-0.1284,-1.6352955303587855,-0.011049000546336174,2.4284563064575195,-1.6815006732940674,3.6714423913508654e-05,2.1968512535095215,4.455080671901367,0.0,0.3092256188392639,-1.421173397694723,0.0,-0.040877655148506165,0.5671991109848022,-0.0,0.015617399476468563,1.1675701141357422,-0.0003242508100811392,-0.025450721383094788
257.0,405.0,3.8698,-0.5844,8.3731,-0.0504,0.0182,-0.1284,-1.6353360615172328,-0.011542530730366707,2.444180727005005,-1.6815171241760254,3.5742385080084205e-05,2.199070930480957,4.45510117589917,0.0,0.3154166340827942,-1.4211819807635706,0.0,-0.047882746905088425,0.567194938659668,-0.0,-0.004875825718045235,1.167509913444519,-0.0002834017213899642,-0.023297127336263657
257.0,405.0,3.8698,-0.5844,8.3731,-0.0504,0.0182,-0.1284,-1.6353913746275843,-0.012542195618152618,2.425168991088867,-1.6814520359039307,3.4377189876977354e-05,2.200728416442871,4.4550487238117675,0.0,0.31450778245925903,-1.421197239552633,0.0,-0.037900932133197784,0.5671386122703552,-0.0,0.002354556694626808,1.1675945520401,-0.0002383603568887338,-0.014670131728053093
257.0,405.0,3.8698,-0.5844,8.3731,-0.0504,0.0182,-0.1284,-1.6355515919127406,-0.013795746490359306,2.4563686847686768,-1.6815487146377563,3.311241016490385e-05,2.208890676498413,4.455061121577881,0.0,0.3082648515701294,-1.4212301413165491,0.0,-0.029252350330352783,0.5671948790550232,-0.0,0.0078547652810812,1.1675541400909424,-0.00020567439787555486,-0.035893455147743225
257.0,405.0,3.8698,-0.5844,8.3731,-0.0504,0.0182,-0.1284,-1.6355792484679164,-0.014653943479061127,2.4235172271728516,-1.6815409660339355,3.231970185879618e-05,2.1601269245147705,4.455040617580078,0.0,0.3065735101699829,-1.4212020079242151,0.0,-0.0402187705039978,0.5672269463539124,-0.0,0.006612935569137335,1.167549967765808,-0.0001884469820652157,-0.022068630903959274
257.0,405.0,3.8698,-0.5844,8.3731,-0.0504,0.0182,-0.1284,-1.63566317180776,-0.015126440674066544,2.4289321899414062,-1.6815202236175537,3.119933535344899e-05,2.168915033340454,4.455064936275146,0.0,0.3218553066253662,-1.4211495558368128,0.0,-0.040739137679338455,0.5671990513801575,-0.0,0.012569687329232693,1.1675622463226318,-0.0001674132508924231,-0.031128959730267525
243.0,419.0,3.7513,-0.277,8.4963,-0.0394,0.0047,-0.113,-1.6357199154295863,-0.015595728531479836,2.38612961769104,-1.6814841032028198,3.049461702175904e-05,2.2040953636169434,4.455056830043457,0.0,0.3195057809352875,-1.4212215582477015,0.0,-0.03854449838399887,0.5672153830528259,-0.0,0.020298831164836884,1.1675503253936768,-0.0001558193762321025,-0.021407661959528923
243.0,419.0,3.7513,-0.277,8.4963,-0.0394,0.0047,-0.113,-1.6357714138426722,-0.016361312940716743,2.4108171463012695,-1.6814841032028198,2.822573890171043e-07,2.1642801761627197,4.455080671901367,0.0,0.3196122646331787,-1.4211776892291468,0.0,-0.05675695836544037,0.5672028064727783,-0.0,0.016542626544833183,1.1675904989242554,-0.00014115576050244272,-0.0027619199827313423
243.0,419.0,3.7513,-0.277,8.4963,-0.0394,0.0047,-0.113,-1.635923524896139,-0.016607288271188736,2.430915594100952,-1.6814721822738647,6.816182817823147e-13,2.2119462490081787,4.45507733404126,0.0,0.3231791853904724,-1.4211819807635706,0.0,-0.05122789368033409,0.5672351717948914,0.00024084775941446424,0.022682929411530495,1.1675381660461426,-0.00010356820712331682,-0.016605893149971962
243.0,419.0,3.7513,-0.277,8.4963,-0.0394,0.0047,-0.113,-1.6360155544676722,-0.017061695456504822,2.434934616088867,-1.681480050086975,1.2268888429174316e-16,2.2275688648223877,4.4550086694904785,0.0,0.3215203881263733,-1.4211934248553675,0.0,-0.055345527827739716,0.5672109127044678,0.00025271554477512836,0.024768685922026634,1.1676146984100342,-9.761459659785032e-05,0.014369425363838673
243.0,419.0,3.7513,-0.277,8.4963,-0.0394,0.0047,-0.113,-1.636055131951803,-0.01784450374543667,2.411740303039551,-1.6814484596252441,2.9627921757965513e-22,2.1898584365844727,4.455072565669678,0.0,0.3221386671066284,-1.421246353779928,0.0,-0.058934230357408524,0.5672432780265808,0.00023956831137184054,0.02968890778720379,1.167574167251587,-9.027140913531184e-05,-0.001634855754673481
243.0,419.0,3.7513,-0.277,8.4963,-0.0394,0.0047,-0.113,-1.6361671886839808,-0.01784636452794075,2.3947627544403076,-1.6814638376235962,5.332921586423633e-26,2.1860337257385254,4.45509306966748,0.0,0.31199920177459717,-1.421173397694723,0.0,-0.05682592839002609,0.5672673583030701,0.000256549334153533,0.03154779598116875,1.1675422191619873,-8.596035331720486e-05,-0.02011335827410221
243.0,419.0,3.7513,-0.277,8.4963,-0.0394,0.0047,-0.113,-1.6362186870970667,-0.01771286502480507,2.4355032444000244,-1.6814885139465332,1.2878376389741594e-31,2.205704927444458,4.45506922780957,0.0,0.3164064288139343,-1.4211695829974573,0.0,-0.04929358512163162,0.5672109127044678,0.0002613520482555032,0.015583207830786705,1.1675541400909424,-8.021436224225909e-05,0.003532111644744873
243.0,419.0,3.7513,-0.277,8.4963,-0.0394,0.0047,-0.113,-1.6363588772215785,-0.016958238556981087,2.413750171661377,-1.681488275527954,3.1099763430582458e-37,2.1687891483306885,4.455108805293701,0.0,0.32148119807243347,-1.421185318623678,0.0,-0.04757487028837204,0.567194938659668,0.00032194939558394253,0.03774359077215195,1.167526125907898,-7.518836355302483e-05,-0.01623431220650673
243.0,419.0,3.7513,-0.277,8.4963,-0.0394,0.0047,-0.113,-1.6364709339537562,-0.017724642530083656,2.3745594024658203,-1.6814923286437988,5.597907105284779e-41,2.1915030479431152,4.45507733404126,0.0,0.32693493366241455,-1.421173397694723,0.0,-0.055047906935214996,0.5672710537910461,0.0003381577262189239,0.021075811237096786,1.167574167251587,-7.217363599920645e-05,-0.05377444252371788
243.0,419.0,3.7513,-0.277,8.4963,-0.0394,0.0047,-0.113,-1.6365553341307582,-0.018427662551403046,2.3581879138946533,-1.6814520359039307,6.705417763441801e-05,2.182203531265259,4.455084963435791,0.0,0.32257938385009766,-1.4211333433734339,0.0,-0.05666707456111908,0.5672065019607544,0.00033221274497918785,0.04289074242115021,1.1675782203674316,-6.807906174799427e-05,-0.009809867478907108
243.0,419.0,3.7513,-0.277,8.4963,-0.0394,0.0047,-0.113,-1.6365987263121546,-0.017818447202444077,2.3965511322021484,-1.6814560890197754,7.810106762917712e-05,2.1805942058563232,4.455064936275146,0.0,0.32061150670051575,-1.4211576620685022,0.0,-0.05167423188686371,0.5672106146812439,0.0003427755436860025,0.039089761674404144,1.167558193206787,-6.559806206496432e-05,-0.033460672944784164
243.0,419.0,3.7513,-0.277,8.4963,-0.0394,0.0047,-0.113,-1.636702676812643,-0.018750332295894623,2.404653310775757,-1.6814680099487305,8.31299475976266e-05,2.1836185455322266,4.455064936275146,0.0,0.31905597448349,-1.421201531087057,-8.726981468498707e-05,-0.05309819430112839,0.5671905875205994,0.0004140871751587838,0.038373757153749466,1.1675541400909424,-6.219802889972925e-05,-0.015526806935667992
243.0,419.0,3.7513,-0.277,8.4963,-0.0394,0.0047,-0.113,-1.6367784939207972,-0.019137822091579437,2.370028018951416,-1.6814804077148438,8.503384742652997e-05,2.1462349891662598,4.455105467433594,0.0,0.3134872317314148,-1.4212096373187464,-9.275539196096361e-05,-0.0629129633307457,0.5672510266304016,0.00038855482125654817,0.05161900818347931,1.1675982475280762,-6.0120652051409706e-05,0.007003810256719589
243.0,419.0,3.7513,-0.277,8.4963,-0.0394,0.0047,-0.113,-1.6369067631163539,-0.021329091861844063,2.406453847885132,-1.6814923286437988,8.172536035999656e-05,2.1990373134613037,4.455053015346191,0.0,0.3338838815689087,-1.421185318623678,-8.738955511944368e-05,-0.05761737376451492,0.5672628879547119,0.0004121567471884191,0.03714778646826744,1.167558193206787,-5.725228038500063e-05,-0.030205804854631424
243.0,419.0,3.7513,-0.277,8.4963,-0.0394,0.0047,-0.113,-1.6370827160277308,-0.023510215803980827,2.3603670597076416,-1.6814923286437988,7.866413943702355e-05,2.180884838104248,4.455116911525391,0.0,0.32340919971466064,-1.4212339560138147,-9.902101737679914e-05,-0.061826374381780624,0.5672350525856018,0.0003619062772486359,0.052447304129600525,1.1675339937210083,-5.4645224736304954e-05,-0.06472276896238327
243.0,419.0,3.7513,-0.277,8.4963,-0.0394,0.0047,-0.113,-1.6371666393675746,-0.024720555171370506,2.3700647354125977,-1.681524395942688,8.766071550780907e-05,2.1670942306518555,4.455144568080566,0.0,0.3130752146244049,-1.4211896101581019,-9.558557940181345e-05,-0.07096955180168152,0.5672228336334229,0.00038225247408263385,0.06417655199766159,1.1675782203674316,-5.303516081767157e-05,-0.02032683789730072
243.0,419.0,3.7513,-0.277,8.4963,-0.0394,0.0047,-0.113,-1.6373306713499964,-0.026647239923477173,2.3853139877319336,-1.6814606189727783,0.00017768926045391709,2.144162178039551,4.455056830043457,0.0,0.3228239119052887,-1.4212301413165491,-9.076590504264459e-05,-0.06620663404464722,0.5672670006752014,0.0003623063093982637,0.055418580770492554,1.167558193206787,-5.0790473324013874e-05,-0.028984803706407547
253.0,409.0,3.6407,-0.2339,8.5843,-0.0305,0.0044,-0.1271,-1.637402196923727,-0.027287838980555534,2.3797993659973145,-1.6815005540847778,0.00024683555238880217,2.1723883152008057,4.4551002222248535,0.0,0.32272589206695557,-1.4211295286761683,-8.781385258771479e-05,-0.05834348127245903,0.5672350525856018,0.0003227250708732754,0.04262411594390869,1.167574167251587,-4.939665814163163e-05,-0.03800616413354874
253.0,409.0,3.6407,-0.2339,8.5843,-0.0305,0.0044,-0.1271,-1.6375581226744593,-0.027638902887701988,2.363435983657837,-1.681419849395752,0.0007738987333141267,2.143937587738037,4.455072565669678,0.0,0.3152569532394409,-1.4211896101581019,-8.372903539566323e-05,-0.06314390152692795,0.5672670006752014,0.00031923651113174856,0.05453186109662056,1.167546272277832,-1.2378148312564008e-05,-0.09880565106868744
253.0,409.0,3.6407,-0.2339,8.5843,-0.0305,0.0044,-0.1271,-1.637761732141012,-0.028514374047517776,2.36297607421875,-1.6814240217208862,0.0008647232898510993,2.1977148056030273,4.4551331239887695,0.0,0.315774142742157,-1.4211695829974573,-8.000743400771171e-05,-0.06079009920358658,0.5672588348388672,0.0003153289435431361,0.05502231791615486,1.1675339937210083,-1.1887428627233021e-05,-0.010790481232106686
253.0,409.0,3.6407,-0.2339,8.5843,-0.0305,0.0044,-0.1271,-1.6378942928709925,-0.029638715088367462,2.38409423828125,-1.6814322471618652,0.0009263820829801261,2.15789794921875,4.45506922780957,0.0,0.32187995314598083,-1.4211657683001917,-7.770485535729676e-05,-0.06307803094387054,0.5672588348388672,0.0002910901966970414,0.05253143608570099,1.167546272277832,-1.1581491889955942e-05,-0.04122813045978546
253.0,409.0,3.6407,-0.2339,8.5843,-0.0305,0.0044,-0.1271,-1.63800110439443,-0.031328123062849045,2.369222640991211,-1.6814565658569336,0.0006365285371430218,2.190260410308838,4.455080671901367,0.0,0.3130854666233063,-1.4212382475482386,-7.448921678587794e-05,-0.05322486162185669,0.5672829747200012,0.000260073778918013,0.05722292512655258,1.1675822734832764,-1.115101531468099e-05,-0.04573920741677284
253.0,409.0,3.6407,-0.2339,8.5843,-0.0305,0.0044,-0.1271,-1.6381417713561,-0.03425366431474686,2.3283042907714844,-1.6814606189727783,0.000600826577283442,2.1718475818634033,4.455064459437988,0.0,0.3112267851829529,-1.4211939016925257,-7.248936162795871e-05,-0.06398018449544907,0.5673033595085144,0.00023324167705141008,0.05900205671787262,1.1675422191619873,-2.1760777599411085e-05,-0.03957454860210419
253.0,409.0,3.6407,-0.2339,8.5843,-0.0305,0.0044,-0.1271,-1.6383253536620082,-0.03643402084708214,2.3969569206237793,-1.6814767122268677,0.00046716100769117475,2.1495203971862793,4.455097361201904,0.0,0.31679585576057434,-1.4211977163897913,-6.968308298382908e-05,-0.04648324102163315,0.5672547817230225,0.00024211897107306868,0.06670887768268585,1.167546272277832,-4.1963216062868014e-05,-0.10040324926376343
253.0,409.0,3.6407,-0.2339,8.5843,-0.0305,0.0044,-0.1271,-1.6384932003416957,-0.038471098989248276,2.2867889404296875,-1.6814565658569336,0.0004648329922929406,2.129851818084717,4.455072565669678,0.0,0.31627148389816284,-1.4211896101581019,-6.792998465243727e-05,-0.0481904037296772,0.5672146677970886,0.0002222713956143707,0.058440450578927994,1.1675262451171875,-0.0003478731377981603,-0.12961675226688385
253.0,409.0,3.6407,-0.2339,8.5843,-0.0305,0.0044,-0.1271,-1.6387373409666957,-0.04130561649799347,2.2692604064941406,-1.6814208030700684,0.00036785108386538923,2.1534640789031982,4.455121203059814,0.0,0.31574156880378723,-1.4211776892291468,-6.545957148773596e-05,-0.05208250880241394,0.5672106146812439,0.00022857561998534948,0.05940034240484238,1.1675344705581665,-0.0014878872316330671,-0.137700617313385
253.0,409.0,3.6407,-0.2339,8.5843,-0.0305,0.0044,-0.1271,-1.639001031915182,-0.04531729966402054,2.278352737426758,-1.6814446449279785,0.0007032649591565132,2.1757867336273193,4.45512501775708,0.0,0.3139783442020416,-1.4211576620685022,-6.316263898042962e-05,-0.05517923831939697,0.5672588348388672,0.0002079508703900501,0.07088461518287659,1.1675102710723877,-0.002345830434933305,-0.10796670615673065
253.0,409.0,3.6407,-0.2339,8.5843,-0.0305,0.0044,-0.1271,-1.6392055950560511,-0.047819629311561584,2.2779078483581543,-1.6814404726028442,0.0009894452523440123,2.1313037872314453,4.455136461848877,0.0,0.3146287798881531,-1.421173397694723,-5.407587013905868e-05,-0.054268576204776764,0.5672993063926697,0.00019507187244016677,0.06322311609983444,1.1674864292144775,-0.003126372816041112,-0.09304653108119965
253.0,409.0,3.6407,-0.2339,8.5843,-0.0305,0.0044,-0.1271,-1.6395050487914027,-0.05210823938250542,2.2741477489471436,-1.681424856185913,0.002256332663819194,2.1433768272399902,4.455129309291504,0.0,0.32070034742355347,-1.4211576620685022,-4.972805254510604e-05,-0.05103377252817154,0.5672588348388672,0.00020062373369000852,0.056276727467775345,1.1674541234970093,-0.003719966858625412,-0.12634168565273285
253.0,409.0,3.6407,-0.2339,8.5843,-0.0305,0.0044,-0.1271,-1.6396852932372035,-0.05370418727397919,2.284019947052002,-1.6814569234848022,0.003106659045442939,2.1587250232696533,4.455084963435791,0.0,0.3207990229129791,-1.421173397694723,-2.119984827686494e-07,-0.04571231082081795,0.5672911405563354,0.0001930349098984152,0.04374387860298157,1.1674302816390991,-0.004642189014703035,-0.095211461186409
253.0,409.0,3.6407,-0.2339,8.5843,-0.0305,0.0044,-0.1271,-1.6399804554381312,-0.05349966883659363,2.2496023178100586,-1.681416630744934,0.0036007724702358246,2.1390504837036133,4.4551002222248535,9.700014516056399e-07,0.31495174765586853,-1.4211576620685022,-5.901055338819461e-11,-0.055679041892290115,0.567274808883667,0.00017867617134470493,0.0512421652674675,1.167474627494812,-0.005607827566564083,-0.12421838194131851
253.0,409.0,3.6407,-0.2339,8.5843,-0.0305,0.0044,-0.1271,-1.640332361260885,-0.052656903862953186,2.2627296447753906,-1.6813926696777344,0.004505442921072245,2.1893608570098877,4.45515696584668,2.700034640312765e-10,0.32270485162734985,-1.4211538473712366,-1.6425803520624636e-14,-0.04188946634531021,0.5672628283500671,0.0001662950962781906,0.06655959784984589,1.1673626899719238,-0.00663621723651886,-0.13685303926467896
