ramyac6/ROB537/final_project/csv/bad/bad_27.csv
tof_0,tof_1,accelx,accely,accelz,gyrox,gyroy,gyroz,shoulder_lift_joint_position,shoulder_lift_joint_velocity,shoulder_lift_joint_effort,elbow_joint_position,elbow_joint_velocity,elbow_joint_effort,wrist_1_joint_position,wrist_1_joint_velocity,wrist_1_joint_effort,wrist_2_joint_position,wrist_2_joint_velocity,wrist_2_joint_effort,wrist_3_joint_position,wrist_3_joint_velocity,wrist_3_joint_effort,shoulder_pan_joint_position,shoulder_pan_joint_velocity,shoulder_pan_joint_effort
278.0,478.0,3.8255,0.2064,8.5059,-0.0338,0.0267,-0.1151,-1.6346761188902796,0.0,2.4843597412109375,-1.685376524925232,-0.0,2.1739063262939453,4.455395861262939,0.0,0.2763662338256836,-1.4210899511920374,0.0,-0.023570500314235687,0.46653300523757935,-0.0,-0.010093946941196918,1.1828161478042603,0.0,0.0402611568570137
278.0,478.0,3.8255,0.2064,8.5059,-0.0338,0.0267,-0.1151,-1.6347204647459925,0.0,2.4261679649353027,-1.6853724718093872,-0.0,2.1661376953125,4.455371542567871,0.0,0.2789705991744995,-1.421109978352682,0.0,-0.03483913838863373,0.4665489196777344,-0.0,-0.0007529121357947588,1.1828080415725708,0.0,-0.0169331356883049
278.0,478.0,3.8255,0.2064,8.5059,-0.0338,0.0267,-0.1151,-1.6346799335875453,0.0,2.4581401348114014,-1.6854008436203003,-0.0,2.1486597061157227,4.4554359155842285,0.0,0.28411489725112915,-1.4211018721209925,0.0,-0.04634615406394005,0.46654894948005676,-0.0,-0.008544405922293663,1.182836651802063,0.0,-0.0114855682477355
278.0,478.0,3.8255,0.2064,8.5059,-0.0338,0.0267,-0.1151,-1.6346880398192347,0.0,2.399995803833008,-1.6854043006896973,-0.0,2.18894362449646,4.455380125636719,0.0,0.2680701017379761,-1.4211261908160608,0.0,-0.036336153745651245,0.46655717492103577,-0.0,-0.0003706930438056588,1.182876467704773,0.0,-0.007271252106875181
278.0,478.0,3.8255,0.2064,8.5059,-0.0338,0.0267,-0.1151,-1.6346637211241664,0.0,2.445770263671875,-1.6854207515716553,-0.0,2.186567783355713,4.455403967494629,0.0,0.2645782232284546,-1.4211300055133265,0.0,-0.035324230790138245,0.4665165841579437,-0.0,-0.015747521072626114,1.1828243732452393,0.0,0.0004921136423945427
278.0,478.0,3.8255,0.2064,8.5059,-0.0338,0.0267,-0.1151,-1.6346918545165003,0.0,2.4552674293518066,-1.6853848695755005,-0.0,2.1580324172973633,4.45538775503125,0.0,0.2712770104408264,-1.4211419264422815,0.0,-0.020348627120256424,0.4665612280368805,-0.0,-0.0005101524293422699,1.182840347290039,0.0,0.0014630163786932826
278.0,478.0,3.8255,0.2064,8.5059,-0.0338,0.0267,-0.1151,-1.6346880398192347,0.0,2.453125,-1.6854002475738525,-0.0,2.1456637382507324,4.455432100886963,0.0,0.28409048914909363,-1.421109978352682,0.0,-0.03366170823574066,0.4665325880050659,-0.0,0.00512067973613739,1.1827760934829712,0.0,-0.0018492279341444373
278.0,478.0,3.8255,0.2064,8.5059,-0.0338,0.0267,-0.1151,-1.6347042522826136,0.0,2.443708896636963,-1.6854002475738525,-0.0,2.152726173400879,4.455440207118652,0.0,0.27951639890670776,-1.421105686818258,0.0,-0.04683458432555199,0.4665367901325226,-0.0,-0.009030288085341454,1.1828285455703735,0.0,-0.031577035784721375
278.0,478.0,3.8255,0.2064,8.5059,-0.0338,0.0267,-0.1151,-1.6347118816771449,0.0,2.4448609352111816,-1.6854166984558105,-0.0,2.1241562366485596,4.455375834102295,0.0,0.2794649302959442,-1.4210975805865687,0.0,-0.02443184144794941,0.4665083885192871,-0.0,-0.014534412883222103,1.1828563213348389,0.0,-0.02538204938173294
284.0,525.0,3.7543,0.1777,8.5795,-0.0394,0.0281,-0.1171,-1.6347323856749476,0.0,2.4512832164764404,-1.6853524446487427,-0.0,2.1784861087799072,4.455395861262939,0.0,0.279123991727829,-1.4210775534259241,0.0,-0.025666052475571632,0.46647247672080994,-0.0,-0.012543302960693836,1.1828162670135498,0.0,-0.029408426955342293
284.0,525.0,3.7543,0.1777,8.5795,-0.0394,0.0281,-0.1171,-1.6346594295897425,0.0,2.433046340942383,-1.685380458831787,-0.0,2.1186141967773438,4.455428763026855,0.0,0.28772443532943726,-1.4210856596576136,0.0,-0.03407355397939682,0.46650058031082153,-0.0,-0.008037087507545948,1.1828367710113525,0.0,0.030616845935583115
284.0,525.0,3.7543,0.1777,8.5795,-0.0394,0.0281,-0.1171,-1.634712358514303,0.0,2.431121349334717,-1.6854207515716553,-0.0,2.151689052581787,4.455395861262939,0.0,0.27704763412475586,-1.421150032673971,0.0,-0.024877723306417465,0.4665244221687317,-0.0,0.0023966135922819376,1.1828244924545288,0.0,0.005341432057321072
284.0,525.0,3.7543,0.1777,8.5795,-0.0394,0.0281,-0.1171,-1.6346718273558558,0.0,2.449502468109131,-1.6854043006896973,-0.0,2.1259922981262207,4.45538775503125,0.0,0.26801055669784546,-1.4211137930499476,0.0,-0.034384239464998245,0.4665165841579437,-0.0,-0.011720571666955948,1.182812213897705,0.0,-0.010903136804699898
284.0,525.0,3.7543,0.1777,8.5795,-0.0394,0.0281,-0.1171,-1.6346961460509242,0.0,2.4364171028137207,-1.6854207515716553,-0.0,2.149961233139038,4.455399675960205,0.0,0.2721889615058899,-1.421065632496969,0.0,-0.026172108948230743,0.4665125012397766,-0.0,0.0021040181163698435,1.1827915906906128,0.0,0.012840394861996174
284.0,525.0,3.7543,0.1777,8.5795,-0.0394,0.0281,-0.1171,-1.6347204647459925,0.0,2.450995445251465,-1.6854286193847656,-0.0,2.1742076873779297,4.455408259029053,0.0,0.29123830795288086,-1.4210899511920374,0.0,-0.031247399747371674,0.46651655435562134,-0.0,-0.006819780915975571,1.182848334312439,0.0,0.010294601321220398
284.0,525.0,3.7543,0.1777,8.5795,-0.0394,0.0281,-0.1171,-1.6346637211241664,0.0,2.4027464389801025,-1.6853564977645874,-0.0,2.179691791534424,4.455395861262939,0.0,0.2697449326515198,-1.4211457411395472,0.0,-0.020933613181114197,0.4664923846721649,-0.0,0.006049939431250095,1.1828646659851074,0.0,-0.008239682763814926
284.0,525.0,3.7543,0.1777,8.5795,-0.0394,0.0281,-0.1171,-1.6346594295897425,0.0,2.442416191101074,-1.6854325532913208,-0.0,2.215623140335083,4.455424471492432,0.0,0.25886771082878113,-1.421105686818258,0.0,-0.03785669803619385,0.46657729148864746,-0.0,-0.010481138713657856,1.1828445196151733,0.0,0.04466268792748451
284.0,525.0,3.7543,0.1777,8.5795,-0.0394,0.0281,-0.1171,-1.634712358514303,0.0,2.421746015548706,-1.6853605508804321,-0.0,2.191880464553833,4.455424471492432,0.0,0.2872646450996399,-1.421150032673971,0.0,-0.026838935911655426,0.4665489196777344,-0.0,-0.01985766924917698,1.1828362941741943,0.0,-0.03208324685692787
284.0,525.0,3.7543,0.1777,8.5795,-0.0394,0.0281,-0.1171,-1.634712358514303,0.0,2.425886869430542,-1.6853764057159424,-0.0,2.2031304836273193,4.455432100886963,0.0,0.27797237038612366,-1.421161953602926,0.0,-0.032190658152103424,0.46655309200286865,-0.0,-0.005374323111027479,1.1827878952026367,0.0,0.0034356918185949326
284.0,525.0,3.7543,0.1777,8.5795,-0.0394,0.0281,-0.1171,-1.6346718273558558,0.0,2.413097381591797,-1.6853928565979004,-0.0,2.134202718734741,4.455395861262939,0.0,0.2872525751590729,-1.4211300055133265,0.0,-0.02824125811457634,0.4665648937225342,-0.0,-0.0003736821236088872,1.1827962398529053,0.0,-0.011653807014226913
284.0,525.0,3.7543,0.1777,8.5795,-0.0394,0.0281,-0.1171,-1.6346317730345667,0.0,2.478524923324585,-1.6853889226913452,-0.0,2.162982225418091,4.455420656795166,0.0,0.28660085797309875,-1.421109978352682,0.0,-0.029070917516946793,0.46655309200286865,-0.0,-0.012071672827005386,1.182803988456726,0.0,-0.01514543779194355
284.0,525.0,3.7543,0.1777,8.5795,-0.0394,0.0281,-0.1171,-1.6346355877318324,0.0,2.484097719192505,-1.685376524925232,-0.0,2.1888375282287598,4.455420656795166,0.0,0.2806246876716614,-1.4210780302630823,0.0,-0.029935143887996674,0.4665325880050659,-0.0,-0.005531726870685816,1.1828243732452393,0.0,0.03818267583847046
284.0,525.0,3.7543,0.1777,8.5795,-0.0394,0.0281,-0.1171,-1.6347204647459925,0.0,2.449887275695801,-1.6853889226913452,-0.0,2.201205253601074,4.455416365260742,0.0,0.28574731945991516,-1.4210975805865687,0.0,-0.027682363986968994,0.46656492352485657,-0.0,-0.0018308316357433796,1.1828362941741943,0.0,0.06003304570913315
284.0,525.0,3.7543,0.1777,8.5795,-0.0394,0.0281,-0.1171,-1.6347085438170375,0.0,2.441196918487549,-1.685380458831787,-0.0,2.1542906761169434,4.4553796487995605,0.0,0.28231626749038696,-1.4211018721209925,0.0,-0.03896607086062431,0.46655717492103577,-0.0,0.0016067700926214457,1.1827961206436157,0.0,0.003166529815644026
284.0,525.0,3.7543,0.1777,8.5795,-0.0394,0.0281,-0.1171,-1.6346799335875453,0.0,2.4334778785705566,-1.6854122877120972,-0.0,2.1388297080993652,4.455416365260742,0.0,0.27685701847076416,-1.421065632496969,0.0,-0.02733466401696205,0.46654486656188965,-0.0,-0.009331367909908295,1.1828527450561523,0.0,0.009162665344774723
283.0,537.0,3.7531,0.186,8.601,-0.0333,0.0249,-0.1205,-1.634684225121969,0.0,2.4761722087860107,-1.6854287385940552,-0.0,2.095618486404419,4.455412073726318,0.0,0.28154510259628296,-1.4211018721209925,0.0,-0.03767259791493416,0.466512531042099,-0.0,-0.005270508583635092,1.1827880144119263,0.0,0.019172031432390213
283.0,537.0,3.7531,0.186,8.601,-0.0333,0.0249,-0.1205,-1.6347643337645472,0.0,2.454838752746582,-1.685404896736145,-0.0,2.1551644802093506,4.4554359155842285,0.0,0.28501737117767334,-1.4211180845843714,0.0,-0.02380632981657982,0.46656492352485657,-0.0,0.00047278543934226036,1.182803988456726,0.0,0.0027771834284067154
283.0,537.0,3.7531,0.186,8.601,-0.0333,0.0249,-0.1205,-1.6346761188902796,0.0,2.4015815258026123,-1.6854445934295654,-0.0,2.1720104217529297,4.455432100886963,0.0,0.28238552808761597,-1.4210856596576136,0.0,-0.035648927092552185,0.46648460626602173,-0.0,1.300964504480362e-05,1.1828445196151733,0.0,-0.002344053704291582
283.0,537.0,3.7531,0.186,8.601,-0.0333,0.0249,-0.1205,-1.6346799335875453,0.0,2.427122116088867,-1.6854122877120972,-0.0,2.1538360118865967,4.455412073726318,0.0,0.28106096386909485,-1.4211018721209925,0.0,-0.03978785127401352,0.4665248692035675,-0.0,-0.012218113988637924,1.1828243732452393,0.0,-0.020099231973290443
283.0,537.0,3.7531,0.186,8.601,-0.0333,0.0249,-0.1205,-1.6347323856749476,0.0,2.4144794940948486,-1.6853845119476318,-0.0,2.1510136127471924,4.455412073726318,0.0,0.27376803755760193,-1.421105686818258,0.0,-0.03824442997574806,0.46656492352485657,-0.0,-0.005065693985670805,1.1827797889709473,0.0,-0.021137842908501625
283.0,537.0,3.7531,0.186,8.601,-0.0333,0.0249,-0.1205,-1.6346799335875453,0.0,2.4112260341644287,-1.6854246854782104,-0.0,2.1831090450286865,4.455416365260742,0.0,0.27847665548324585,-1.421081844960348,0.0,-0.0319073311984539,0.46656492352485657,-0.0,-0.0029367029201239347,1.1828564405441284,0.0,-0.04154665768146515
283.0,537.0,3.7531,0.186,8.601,-0.0333,0.0249,-0.1205,-1.6346799335875453,0.0,2.4495153427124023,-1.6853967905044556,-0.0,2.1021268367767334,4.455416365260742,0.0,0.28577721118927,-1.4210618177997034,0.0,-0.028703831136226654,0.4665489196777344,-0.0,0.0023509187158197165,1.182792067527771,0.0,-0.0017201172886416316
283.0,537.0,3.7531,0.186,8.601,-0.0333,0.0249,-0.1205,-1.6346436939635218,0.0,2.4692416191101074,-1.6854082345962524,-0.0,2.1497550010681152,4.455444021815918,0.0,0.261086642742157,-1.421121899281637,0.0,-0.02412315458059311,0.46654483675956726,-0.0,0.004680842161178589,1.1828080415725708,0.0,-0.008594498969614506
283.0,537.0,3.7531,0.186,8.601,-0.0333,0.0249,-0.1205,-1.6347481213011683,0.0,2.4001145362854004,-1.6853365898132324,-0.0,2.1979246139526367,4.455420656795166,0.0,0.28380072116851807,-1.421105686818258,0.0,-0.02755170688033104,0.46655309200286865,-0.0,-0.0023762898053973913,1.1828527450561523,0.0,0.08164818584918976
283.0,537.0,3.7531,0.186,8.601,-0.0333,0.0249,-0.1205,-1.634688516656393,0.0,2.42706298828125,-1.6854043006896973,-0.0,2.1469476222991943,4.455408259029053,0.0,0.2886194884777069,-1.4211018721209925,0.0,-0.025208670645952225,0.46646830439567566,-0.0,-0.0031145536340773106,1.182812213897705,0.0,-0.035604652017354965
283.0,537.0,3.7531,0.186,8.601,-0.0333,0.0249,-0.1205,-1.6346599064269007,0.0,2.489856243133545,-1.6853684186935425,-0.0,2.1827452182769775,4.455412073726318,0.0,0.2824954390525818,-1.421138111745016,0.0,-0.02319275587797165,0.4665571451187134,-0.0,-0.013089802116155624,1.1828404664993286,0.0,-0.017728354781866074
283.0,537.0,3.7531,0.186,8.601,-0.0333,0.0249,-0.1205,-1.6346961460509242,0.0,2.4130914211273193,-1.6853967905044556,-0.0,2.1568496227264404,4.455403967494629,0.0,0.282906711101532,-1.4211180845843714,0.0,-0.02615431696176529,0.4665652811527252,-0.0,-0.006133310496807098,1.1828646659851074,0.0,0.01794569380581379
283.0,537.0,3.7531,0.186,8.601,-0.0333,0.0249,-0.1205,-1.634700437585348,0.0,2.4256656169891357,-1.6853928565979004,-0.0,2.139814615249634,4.455432100886963,0.0,0.28616049885749817,-1.4211419264422815,0.0,-0.020467204973101616,0.46656906604766846,-0.0,-0.007584854029119015,1.182803988456726,0.0,-0.004019726067781448
283.0,537.0,3.7531,0.186,8.601,-0.0333,0.0249,-0.1205,-1.634655614892477,0.0,2.4470667839050293,-1.6853967905044556,-0.0,2.162989377975464,4.455472155208252,0.0,0.27427172660827637,-1.4211581389056605,0.0,-0.03765862062573433,0.46654897928237915,-0.0,0.003892011707648635,1.1828080415725708,0.0,0.019416213035583496
283.0,537.0,3.7531,0.186,8.601,-0.0333,0.0249,-0.1205,-1.634651323358053,0.0,2.399686813354492,-1.6854406595230103,-0.0,2.126948356628418,4.455444498653076,0.0,0.2732113003730774,-1.4211137930499476,0.0,-0.038064371794462204,0.46655675768852234,-0.0,-0.018172774463891983,1.1827843189239502,0.0,0.06586512178182602
283.0,537.0,3.7531,0.186,8.601,-0.0333,0.0249,-0.1205,-1.6346799335875453,0.0,2.4583263397216797,-1.6853889226913452,-0.0,2.160001516342163,4.455424471492432,0.0,0.29335445165634155,-1.4210775534259241,0.0,-0.027610288932919502,0.46655723452568054,-0.0,-0.004862860776484013,1.182812213897705,0.0,-0.016227466985583305
264.0,497.0,3.7795,0.1801,8.6058,-0.0336,0.0229,-0.1156,-1.634667535821432,0.0,2.4710795879364014,-1.685380458831787,-0.0,2.1657629013061523,4.455427809352539,0.0,0.28085020184516907,-1.4210699240313929,0.0,-0.03430945426225662,0.46656909584999084,-0.0,0.010275814682245255,1.1827962398529053,0.0,-0.0036075464449822903
264.0,497.0,3.7795,0.1801,8.6058,-0.0336,0.0229,-0.1156,-1.634639402429098,0.0,2.4290149211883545,-1.6854406595230103,-0.0,2.1112618446350098,4.455424471492432,0.0,0.2841024100780487,-1.4211137930499476,0.0,-0.04078252613544464,0.46649691462516785,-0.0,0.0012176004238426685,1.1828285455703735,0.0,0.07130468636751175
264.0,497.0,3.7795,0.1801,8.6058,-0.0336,0.0229,-0.1156,-1.6346436939635218,0.0,2.466975688934326,-1.6854329109191895,-0.0,2.141674518585205,4.4554359155842285,0.0,0.29052114486694336,-1.421093765889303,0.0,-0.032582059502601624,0.46655309200286865,-0.0,-0.00405780179426074,1.182803988456726,0.0,-0.0018799230456352234
264.0,497.0,3.7795,0.1801,8.6058,-0.0336,0.0229,-0.1156,-1.6347042522826136,0.0,2.424684524536133,-1.6853928565979004,-0.0,2.1591808795928955,4.455440207118652,0.0,0.28323110938072205,-1.4211137930499476,0.0,-0.032179951667785645,0.4665244519710541,-0.0,0.0011793209705501795,1.182836651802063,0.0,0.007089299149811268
264.0,497.0,3.7795,0.1801,8.6058,-0.0336,0.0229,-0.1156,-1.6347280941405238,0.0,2.435115337371826,-1.6854407787322998,-0.0,2.0881872177124023,4.455403967494629,0.0,0.2739173471927643,-1.4211342970477503,0.0,-0.03643215447664261,0.46656909584999084,-0.0,-0.0030023434665054083,1.1828322410583496,0.0,0.010784857906401157
264.0,497.0,3.7795,0.1801,8.6058,-0.0336,0.0229,-0.1156,-1.6347204647459925,0.0,2.480599880218506,-1.685376763343811,-0.0,2.1658637523651123,4.45536391317334,0.0,0.28630802035331726,-1.4211624304400843,0.0,-0.027383534237742424,0.4665489196777344,-0.0,-0.010854369029402733,1.1828486919403076,0.0,0.016755009070038795
264.0,497.0,3.7795,0.1801,8.6058,-0.0336,0.0229,-0.1156,-1.6347400150694789,0.0,2.481875419616699,-1.6853724718093872,-0.0,2.1624186038970947,4.455408259029053,0.0,0.2832808196544647,-1.421105686818258,0.0,-0.03818092495203018,0.4665325880050659,-0.0,0.00028047896921634674,1.1828243732452393,0.0,0.05755976587533951
264.0,497.0,3.7795,0.1801,8.6058,-0.0336,0.0229,-0.1156,-1.634700437585348,0.0,2.4527528285980225,-1.685380458831787,-0.0,2.141244411468506,4.455452604884766,0.0,0.27292460203170776,-1.421161953602926,0.0,-0.023303154855966568,0.4665489196777344,-0.0,-0.023898156359791756,1.182812213897705,0.0,-0.01567710191011429
264.0,497.0,3.7795,0.1801,8.6058,-0.0336,0.0229,-0.1156,-1.6346761188902796,0.0,2.4656715393066406,-1.6854406595230103,-0.0,2.1301205158233643,4.455440207118652,0.0,0.28836703300476074,-1.4211018721209925,0.0,-0.03656545281410217,0.46657320857048035,-0.0,0.0008224484045058489,1.1828362941741943,0.0,0.009209422394633293
264.0,497.0,3.7795,0.1801,8.6058,-0.0336,0.0229,-0.1156,-1.6346475086607875,0.0,2.4457101821899414,-1.685380458831787,-0.0,2.1254990100860596,4.455448313350342,0.0,0.28885531425476074,-1.421105686818258,0.0,-0.0348585769534111,0.46656087040901184,-0.0,0.003971566911786795,1.1828606128692627,0.0,0.00039715226739645004
264.0,497.0,3.7795,0.1801,8.6058,-0.0336,0.0229,-0.1156,-1.6347605190672816,0.0,2.4673659801483154,-1.6853845119476318,-0.0,2.1639246940612793,4.455416365260742,0.0,0.28282907605171204,-1.4211180845843714,0.0,-0.03917635977268219,0.4665367603302002,-0.0,-0.010977858677506447,1.1827962398529053,0.0,0.031287647783756256
264.0,497.0,3.7795,0.1801,8.6058,-0.0336,0.0229,-0.1156,-1.6346718273558558,0.0,2.4292078018188477,-1.6854248046875,-0.0,2.1860697269439697,4.455383940333984,0.0,0.2847933769226074,-1.4211342970477503,0.0,-0.027757840231060982,0.4665449261665344,-0.0,-0.007130365818738937,1.1828604936599731,0.0,-0.01591973938047886
264.0,497.0,3.7795,0.1801,8.6058,-0.0336,0.0229,-0.1156,-1.6346637211241664,0.0,2.4620096683502197,-1.6854406595230103,-0.0,2.164510488510132,4.455424471492432,0.0,0.2829776108264923,-1.421109978352682,0.0,-0.04191635176539421,0.4665367603302002,-0.0,0.0010648223105818033,1.1828203201293945,0.0,0.001061609131284058
264.0,497.0,3.7795,0.1801,8.6058,-0.0336,0.0229,-0.1156,-1.6346637211241664,0.0,2.4595189094543457,-1.6854445934295654,-0.0,2.2058167457580566,4.455375834102295,0.0,0.279452383518219,-1.421121899281637,0.0,-0.02832278236746788,0.4665808379650116,-0.0,-0.019274355843663216,1.1828243732452393,0.0,0.02056472934782505
264.0,497.0,3.7795,0.1801,8.6058,-0.0336,0.0229,-0.1156,-1.6346961460509242,0.0,2.4693613052368164,-1.6853888034820557,-0.0,2.1372764110565186,4.455456419582031,0.0,0.2811468541622162,-1.421161953602926,0.0,-0.02436116337776184,0.4665489196777344,-0.0,-0.0018424196168780327,1.1828203201293945,0.0,0.05048757791519165
264.0,497.0,3.7795,0.1801,8.6058,-0.0336,0.0229,-0.1156,-1.6346799335875453,0.0,2.4838480949401855,-1.6854002475738525,-0.0,2.1565728187561035,4.45538775503125,0.0,0.28305870294570923,-1.421150032673971,0.0,-0.030466828495264053,0.4665325880050659,-0.0,-0.006768357008695602,1.1828080415725708,0.0,-0.01574210822582245
270.0,530.0,3.8022,0.2177,8.5854,-0.0429,0.0266,-0.1193,-1.6346918545165003,0.0,2.4046437740325928,-1.6853644847869873,-0.0,2.190789222717285,4.455427809352539,0.0,0.2782418727874756,-1.4210737387286585,0.0,-0.019342515617609024,0.46657317876815796,-0.0,0.00750348623842001,1.182812213897705,0.0,-0.05721362307667732
270.0,530.0,3.8022,0.2177,8.5854,-0.0429,0.0266,-0.1193,-1.6346918545165003,0.0,2.415450096130371,-1.6854486465454102,-0.0,2.1936283111572266,4.4554359155842285,0.0,0.2829287350177765,-1.421121899281637,0.0,-0.027976274490356445,0.466520756483078,-0.0,-0.007684561889618635,1.1827880144119263,0.0,0.029821623116731644
270.0,530.0,3.8022,0.2177,8.5854,-0.0429,0.0266,-0.1193,-1.6346594295897425,0.0,2.4389278888702393,-1.685348391532898,-0.0,2.1931464672088623,4.455391569728516,0.0,0.27899980545043945,-1.4211581389056605,0.0,-0.03344528377056122,0.4665125012397766,-0.0,-0.00983809120953083,1.1828243732452393,0.0,-0.035936951637268066
270.0,530.0,3.8022,0.2177,8.5854,-0.0429,0.0266,-0.1193,-1.6346961460509242,0.0,2.4032225608825684,-1.6853928565979004,-0.0,2.1568453311920166,4.455427809352539,0.0,0.2872222065925598,-1.4211018721209925,0.0,-0.030815154314041138,0.46655309200286865,-0.0,-0.00018702051602303982,1.1828563213348389,0.0,0.004005783703178167
270.0,530.0,3.8022,0.2177,8.5854,-0.0429,0.0266,-0.1193,-1.6346961460509242,0.0,2.4792518615722656,-1.68545663356781,-0.0,2.181699514389038,4.455416365260742,0.0,0.2804894745349884,-1.4211261908160608,0.0,-0.023092763498425484,0.4665244221687317,-0.0,-0.016233673319220543,1.1828080415725708,0.0,0.008815614506602287
270.0,530.0,3.8022,0.2177,8.5854,-0.0429,0.0266,-0.1193,-1.6346761188902796,0.0,2.3992433547973633,-1.6853845119476318,-0.0,2.1700632572174072,4.455412073726318,0.0,0.2838515639305115,-1.4210975805865687,0.0,-0.032482460141181946,0.46655717492103577,-0.0,0.0003694628830999136,1.182812213897705,0.0,-0.029388150200247765
270.0,530.0,3.8022,0.2177,8.5854,-0.0429,0.0266,-0.1193,-1.634712358514303,0.0,2.4412851333618164,-1.6853888034820557,-0.0,2.1377546787261963,4.455416365260742,0.0,0.27723902463912964,-1.4210975805865687,0.0,-0.03126363456249237,0.46657276153564453,-0.0,-0.006712909787893295,1.1827843189239502,0.0,0.026167087256908417
270.0,530.0,3.8022,0.2177,8.5854,-0.0429,0.0266,-0.1193,-1.6347400150694789,0.0,2.4210588932037354,-1.6853967905044556,-0.0,2.163334369659424,4.455372019405029,0.0,0.2775242328643799,-1.4210775534259241,0.0,-0.031178029254078865,0.4665489196777344,-0.0,-0.0021609996911138296,1.1828563213348389,0.0,0.0050084833055734634
270.0,530.0,3.8022,0.2177,8.5854,-0.0429,0.0266,-0.1193,-1.6346918545165003,0.0,2.4388961791992188,-1.6854287385940552,-0.0,2.1409783363342285,4.455367727870605,0.0,0.2805893123149872,-1.421121899281637,0.0,-0.033488232642412186,0.46655306220054626,-0.0,0.006866421550512314,1.1828080415725708,0.0,0.028128450736403465
270.0,530.0,3.8022,0.2177,8.5854,-0.0429,0.0266,-0.1193,-1.6347362003722132,0.0,2.4754583835601807,-1.6854043006896973,-0.0,2.188101291656494,4.455395861262939,0.0,0.2820933163166046,-1.421105686818258,0.0,-0.025296561419963837,0.4665165841579437,-0.0,-0.006670384667813778,1.182812213897705,0.0,0.05095687508583069
270.0,530.0,3.8022,0.2177,8.5854,-0.0429,0.0266,-0.1193,-1.634700437585348,0.0,2.4474730491638184,-1.6853889226913452,-0.0,2.1118011474609375,4.455403967494629,0.0,0.28380274772644043,-1.4211137930499476,0.0,-0.030355077236890793,0.4665124714374542,-0.0,-0.012932376004755497,1.1828203201293945,0.0,0.011027299799025059
270.0,530.0,3.8022,0.2177,8.5854,-0.0429,0.0266,-0.1193,-1.634667535821432,0.0,2.447505474090576,-1.685376524925232,-0.0,2.1561505794525146,4.455395861262939,0.0,0.2747029662132263,-1.4211137930499476,0.0,-0.030201518908143044,0.46654486656188965,-0.0,-0.0014997324906289577,1.182836651802063,0.0,-0.0043206592090427876
270.0,530.0,3.8022,0.2177,8.5854,-0.0429,0.0266,-0.1193,-1.6346594295897425,0.0,2.4427878856658936,-1.6853724718093872,-0.0,2.140486478805542,4.455432577724121,0.0,0.28625816106796265,-1.421109978352682,0.0,-0.02751988172531128,0.4665285348892212,-0.0,0.0009791317861527205,1.1828645467758179,0.0,-0.027543779462575912
270.0,530.0,3.8022,0.2177,8.5854,-0.0429,0.0266,-0.1193,-1.6346761188902796,0.0,2.4477405548095703,-1.6854166984558105,-0.0,2.188504695892334,4.455408259029053,0.0,0.27131927013397217,-1.4211142698871058,0.0,-0.02963586524128914,0.4664928615093231,-0.0,-0.01305424701422453,1.1828645467758179,0.0,0.012137316167354584
270.0,530.0,3.8022,0.2177,8.5854,-0.0429,0.0266,-0.1193,-1.6346518001952113,0.0,2.408785343170166,-1.6854002475738525,-0.0,2.1633851528167725,4.455399675960205,0.0,0.27185600996017456,-1.4210813681231897,0.0,-0.028528131544589996,0.4665244221687317,-0.0,-0.004333994351327419,1.1828285455703735,0.0,-0.020619267597794533
270.0,530.0,3.8022,0.2177,8.5854,-0.0429,0.0266,-0.1193,-1.6346799335875453,0.0,2.419893980026245,-1.6854248046875,-0.0,2.139859914779663,4.455383940333984,0.0,0.28074371814727783,-1.421121899281637,0.0,-0.023086268454790115,0.4666096568107605,-0.0,-0.011380936950445175,1.1828243732452393,0.0,-0.0724259465932846
273.0,535.0,3.8255,0.2088,8.546,-0.0374,0.0214,-0.118,-1.634700437585348,0.0,2.4491517543792725,-1.6854207515716553,-0.0,2.1320269107818604,4.455459757442139,0.0,0.2853379249572754,-1.421109978352682,0.0,-0.03257149085402489,0.4665367603302002,-0.0,0.009254364296793938,1.182840347290039,0.0,0.010363124310970306
273.0,535.0,3.8255,0.2088,8.546,-0.0374,0.0214,-0.118,-1.6347161732115687,0.0,2.4119768142700195,-1.6854043006896973,-0.0,2.163912057876587,4.455408259029053,0.0,0.2874245047569275,-1.4211342970477503,0.0,-0.020063599571585655,0.4665931463241577,-0.0,-0.005549392197281122,1.1828080415725708,0.0,0.044668685644865036
273.0,535.0,3.8255,0.2088,8.546,-0.0374,0.0214,-0.118,-1.6347204647459925,0.0,2.424044132232666,-1.6853764057159424,-0.0,2.1833724975585938,4.455416365260742,0.0,0.27773237228393555,-1.4210694471942347,0.0,-0.022460410371422768,0.4666014611721039,-0.0,-0.0020464612171053886,1.1828445196151733,0.0,-0.015274290926754475
273.0,535.0,3.8255,0.2088,8.546,-0.0374,0.0214,-0.118,-1.6346317730345667,0.0,2.4297280311584473,-1.6854884624481201,-0.0,2.159787178039551,4.455403967494629,0.0,0.2748788595199585,-1.4210980574237269,0.0,-0.02792757749557495,0.4665244519710541,-0.0,-0.013062472455203533,1.182812213897705,0.0,-0.03755984082818031
273.0,535.0,3.8255,0.2088,8.546,-0.0374,0.0214,-0.118,-1.6346637211241664,0.0,2.4038825035095215,-1.6854248046875,-0.0,2.1685280799865723,4.455391569728516,0.0,0.2909863591194153,-1.4210856596576136,0.0,-0.028399065136909485,0.4665202796459198,-0.0,-0.0024809499736875296,1.1828645467758179,0.0,0.005038181319832802
273.0,535.0,3.8255,0.2088,8.546,-0.0374,0.0214,-0.118,-1.6346918545165003,0.0,2.469228982925415,-1.6853969097137451,-0.0,2.158827781677246,4.455444021815918,0.0,0.27809208631515503,-1.4211137930499476,0.0,-0.039068154990673065,0.466548889875412,-0.0,-0.0032394258305430412,1.1827843189239502,0.0,0.010868323966860771
273.0,535.0,3.8255,0.2088,8.546,-0.0374,0.0214,-0.118,-1.6347719631590785,0.0,2.406489372253418,-1.685376524925232,-0.0,2.168715715408325,4.4554359155842285,0.0,0.2725045084953308,-1.4211342970477503,0.0,-0.02192041277885437,0.466597318649292,-0.0,-0.0067811752669513226,1.1828482151031494,0.0,-0.0008599748834967613
273.0,535.0,3.8255,0.2088,8.546,-0.0374,0.0214,-0.118,-1.6347080669798792,0.0,2.4441046714782715,-1.685384750366211,-0.0,2.2296881675720215,4.4554359155842285,0.0,0.28217190504074097,-1.4210899511920374,0.0,-0.03236981853842735,0.46656906604766846,-0.0,-0.015912311151623726,1.1828604936599731,0.0,-0.020550068467855453
273.0,535.0,3.8255,0.2088,8.546,-0.0374,0.0214,-0.118,-1.6346718273558558,0.0,2.468677043914795,-1.6854287385940552,-0.0,2.176004648208618,4.455424471492432,0.0,0.2869602143764496,-1.421138111745016,0.0,-0.019270148128271103,0.4665248394012451,-0.0,-0.004465834237635136,1.1827880144119263,0.0,-0.014870742335915565
273.0,535.0,3.8255,0.2088,8.546,-0.0374,0.0214,-0.118,-1.6346594295897425,0.0,2.393112897872925,-1.6853724718093872,-0.0,2.1418588161468506,4.45538775503125,0.0,0.27557751536369324,-1.421109978352682,0.0,-0.03741657733917236,0.466557115316391,-0.0,-0.006147400476038456,1.1828606128692627,0.0,0.022509673610329628
273.0,535.0,3.8255,0.2088,8.546,-0.0374,0.0214,-0.118,-1.6346761188902796,0.0,2.4233312606811523,-1.6853564977645874,-0.0,2.182314395904541,4.455427809352539,0.0,0.2895487844944,-1.4211342970477503,0.0,-0.03294215351343155,0.4665489196777344,-0.0,-0.012144258245825768,1.1827878952026367,0.0,-0.0010634195059537888
273.0,535.0,3.8255,0.2088,8.546,-0.0374,0.0214,-0.118,-1.6346918545165003,0.0,2.46394681930542,-1.6853764057159424,-0.0,2.176743507385254,4.455423517818115,0.0,0.2923322916030884,-1.421138111745016,0.0,-0.027955692261457443,0.46644821763038635,-0.0,-0.00456519890576601,1.182771921157837,0.0,0.01701514795422554
273.0,535.0,3.8255,0.2088,8.546,-0.0374,0.0214,-0.118,-1.6347600422301234,0.0,2.4214704036712646,-1.6854009628295898,-0.0,2.144139051437378,4.455383940333984,0.0,0.2855355441570282,-1.421121899281637,0.0,-0.0353054516017437,0.46656495332717896,-0.0,-0.00664097024127841,1.1828285455703735,0.0,0.040345240384340286
273.0,535.0,3.8255,0.2088,8.546,-0.0374,0.0214,-0.118,-1.6347204647459925,0.0,2.4853289127349854,-1.6853969097137451,-0.0,2.135446548461914,4.455399675960205,0.0,0.27872908115386963,-1.4211018721209925,0.0,-0.021301109343767166,0.4665489196777344,-0.0,-0.004542683716863394,1.1828285455703735,0.0,0.032360926270484924
273.0,535.0,3.8255,0.2088,8.546,-0.0374,0.0214,-0.118,-1.6346799335875453,0.0,2.4565629959106445,-1.6853928565979004,-0.0,2.1757607460021973,4.455403967494629,0.0,0.29198402166366577,-1.4211457411395472,0.0,-0.017924882471561432,0.4665408432483673,-0.0,0.005564868450164795,1.1828203201293945,0.0,-0.0329529233276844
273.0,535.0,3.8255,0.2088,8.546,-0.0374,0.0214,-0.118,-1.6347242794432582,0.0,2.431967258453369,-1.6854122877120972,-0.0,2.0939078330993652,4.4554640489765625,0.0,0.28752797842025757,-1.4211538473712366,0.0,-0.029285699129104614,0.46656084060668945,-0.0,0.004838305059820414,1.1828162670135498,0.0,0.0220604557543993
273.0,502.0,3.6317,0.1286,8.8217,-0.0315,0.0166,-0.1038,-1.634684225121969,0.0,2.4127485752105713,-1.685380458831787,-0.0,2.1572093963623047,4.455440207118652,0.0,0.27720433473587036,-1.4211180845843714,0.0,-0.036053288727998734,0.4665165841579437,-0.0,0.009658676572144032,1.1828203201293945,0.0,-0.013227085582911968
273.0,502.0,3.6317,0.1286,8.8217,-0.0315,0.0166,-0.1038,-1.6346961460509242,0.0,2.438502311706543,-1.685404896736145,-0.0,2.1930127143859863,4.455427809352539,0.0,0.2820637822151184,-1.4211261908160608,0.0,-0.03377872332930565,0.4665367305278778,-0.0,-0.007665256969630718,1.1828203201293945,0.0,-0.02693028748035431
273.0,502.0,3.6317,0.1286,8.8217,-0.0315,0.0166,-0.1038,-1.6346718273558558,0.0,2.4451584815979004,-1.6853644847869873,-0.0,2.1337292194366455,4.455399675960205,0.0,0.2825440764427185,-1.4210699240313929,0.0,-0.026461824774742126,0.46659329533576965,-0.0,0.010486974380910397,1.182812213897705,0.0,-0.02702861838042736
273.0,502.0,3.6317,0.1286,8.8217,-0.0315,0.0166,-0.1038,-1.6346761188902796,0.0,2.4420225620269775,-1.6853564977645874,-0.0,2.1708340644836426,4.4554359155842285,0.0,0.27464771270751953,-1.4211261908160608,0.0,-0.047370731830596924,0.46648871898651123,-0.0,-0.0009062368189916015,1.1828564405441284,0.0,-0.024317417293787003
273.0,502.0,3.6317,0.1286,8.8217,-0.0315,0.0166,-0.1038,-1.6347042522826136,0.0,2.403188705444336,-1.6854043006896973,-0.0,2.1052279472351074,4.455391569728516,0.0,0.2781742513179779,-1.421105686818258,0.0,-0.02921793982386589,0.4665772616863251,-0.0,-0.011829431168735027,1.1828203201293945,0.0,-0.02460722252726555
273.0,502.0,3.6317,0.1286,8.8217,-0.0315,0.0166,-0.1038,-1.6346961460509242,0.0,2.437575340270996,-1.6853885650634766,-0.0,2.1907479763031006,4.455408259029053,0.0,0.2801595628261566,-1.4211300055133265,0.0,-0.028314761817455292,0.46654483675956726,-0.0,-0.0053095705807209015,1.1827998161315918,0.0,0.0031744521111249924
273.0,502.0,3.6317,0.1286,8.8217,-0.0315,0.0166,-0.1038,-1.6346799335875453,0.0,2.4273574352264404,-1.6854009628295898,-0.0,2.214003086090088,4.455383940333984,0.0,0.2834209203720093,-1.421109978352682,0.0,-0.025407690554857254,0.46654486656188965,-0.0,-0.012492130510509014,1.1827998161315918,0.0,-0.01797938533127308
273.0,502.0,3.6317,0.1286,8.8217,-0.0315,0.0166,-0.1038,-1.6346880398192347,0.0,2.426619291305542,-1.6853928565979004,-0.0,2.1752514839172363,4.455408259029053,0.0,0.2752293348312378,-1.4210379759417933,0.0,-0.028538938611745834,0.46658092737197876,-0.0,-0.009758999571204185,1.1827678680419922,0.0,0.019180553033947945
273.0,502.0,3.6317,0.1286,8.8217,-0.0315,0.0166,-0.1038,-1.634684225121969,0.0,2.497596502304077,-1.685436725616455,-0.0,2.163086414337158,4.455420656795166,0.0,0.2876049280166626,-1.4211018721209925,0.0,-0.025672590360045433,0.46655309200286865,-0.0,-0.007135421968996525,1.1828285455703735,0.0,-0.01834486424922943
273.0,502.0,3.6317,0.1286,8.8217,-0.0315,0.0166,-0.1038,-1.6347242794432582,0.0,2.4276533126831055,-1.6854122877120972,-0.0,2.1803338527679443,4.455427809352539,0.0,0.28422868251800537,-1.4211300055133265,0.0,-0.043506473302841187,0.46650058031082153,-0.0,-0.007474726065993309,1.1828243732452393,0.0,0.000447799451649189
273.0,502.0,3.6317,0.1286,8.8217,-0.0315,0.0166,-0.1038,-1.6346799335875453,0.0,2.4445455074310303,-1.685384750366211,-0.0,2.161569356918335,4.455427809352539,0.0,0.2925768494606018,-1.421138111745016,0.0,-0.027423877269029617,0.4665408432483673,-0.0,0.004225251730531454,1.182812213897705,0.0,-0.0312747061252594
273.0,502.0,3.6317,0.1286,8.8217,-0.0315,0.0166,-0.1038,-1.634728570977682,0.0,2.469280242919922,-1.6854287385940552,-0.0,2.1909501552581787,4.4553796487995605,0.0,0.286507785320282,-1.4211261908160608,0.0,-0.028344925493001938,0.46649694442749023,-0.0,0.009758341126143932,1.1828445196151733,0.0,-0.02089838683605194
273.0,502.0,3.6317,0.1286,8.8217,-0.0315,0.0166,-0.1038,-1.634684225121969,0.0,2.416073799133301,-1.6853684186935425,-0.0,2.1396565437316895,4.455403967494629,0.0,0.27434444427490234,-1.4210813681231897,0.0,-0.02647937834262848,0.4665248692035675,-0.0,-0.006787638179957867,1.182812213897705,0.0,-0.005415365565568209
273.0,502.0,3.6317,0.1286,8.8217,-0.0315,0.0166,-0.1038,-1.6346961460509242,0.0,2.413930654525757,-1.6853564977645874,-0.0,2.201063871383667,4.455432100886963,0.0,0.2844451665878296,-1.4210775534259241,0.0,-0.025468630716204643,0.46649646759033203,-0.0,-0.006645822897553444,1.1828203201293945,0.0,-0.0018833726644515991
273.0,502.0,3.6317,0.1286,8.8217,-0.0315,0.0166,-0.1038,-1.634688516656393,0.0,2.399792194366455,-1.6854406595230103,-0.0,2.1559548377990723,4.455444498653076,0.0,0.2801600396633148,-1.4210894743548792,0.0,-0.018783099949359894,0.4665285050868988,-0.0,-0.0010272897779941559,1.1827759742736816,0.0,-0.006479070987552404
273.0,502.0,3.6317,0.1286,8.8217,-0.0315,0.0166,-0.1038,-1.6346961460509242,0.0,2.432130813598633,-1.685416340827942,-0.0,2.111300468444824,4.455448313350342,0.0,0.2808503210544586,-1.4211137930499476,0.0,-0.02051631733775139,0.46655258536338806,-0.0,-0.01751214824616909,1.1828080415725708,0.0,0.0215965174138546
286.0,503.0,3.737,0.1878,8.6183,-0.0301,0.0241,-0.1252,-1.6346637211241664,0.0,2.4383625984191895,-1.68545663356781,-0.0,2.1992597579956055,4.455448313350342,0.0,0.28503865003585815,-1.4211137930499476,0.0,-0.028905317187309265,0.4665083885192871,-0.0,-8.287804666906595e-05,1.182840347290039,0.0,-0.030952204018831253
286.0,503.0,3.737,0.1878,8.6183,-0.0301,0.0241,-0.1252,-1.6346761188902796,0.0,2.473085880279541,-1.6854488849639893,-0.0,2.148987054824829,4.455448313350342,0.0,0.2777746915817261,-1.4211018721209925,0.0,-0.02351520210504532,0.4665083885192871,-0.0,0.005242628511041403,1.1828162670135498,0.0,0.00942139606922865
286.0,503.0,3.737,0.1878,8.6183,-0.0301,0.0241,-0.1252,-1.6347080669798792,0.0,2.450174331665039,-1.6853764057159424,-0.0,2.194064140319824,4.455395861262939,0.0,0.2838473320007324,-1.4210699240313929,0.0,-0.02629569172859192,0.46654483675956726,-0.0,0.004442798905074596,1.1827759742736816,0.0,0.008338093757629395
286.0,503.0,3.737,0.1878,8.6183,-0.0301,0.0241,-0.1252,-1.6346961460509242,0.0,2.4488894939422607,-1.6853928565979004,-0.0,2.2002413272857666,4.4553796487995605,0.0,0.27791786193847656,-1.4210856596576136,0.0,-0.02320050448179245,0.46648409962654114,-0.0,0.00676916167140007,1.1827962398529053,0.0,-0.016252759844064713
286.0,503.0,3.737,0.1878,8.6183,-0.0301,0.0241,-0.1252,-1.6346961460509242,0.0,2.4452733993530273,-1.6853564977645874,-0.0,2.1867270469665527,4.455427809352539,0.0,0.29228639602661133,-1.4211180845843714,0.0,-0.02791738696396351,0.4665571451187134,-0.0,0.003076422493904829,1.1828080415725708,0.0,-0.0007910844869911671
286.0,503.0,3.737,0.1878,8.6183,-0.0301,0.0241,-0.1252,-1.6346718273558558,0.0,2.451106309890747,-1.6853889226913452,-0.0,2.1097238063812256,4.455416365260742,0.0,0.2798965573310852,-1.4211180845843714,0.0,-0.03419023007154465,0.466520756483078,-0.0,0.004698953591287136,1.1828080415725708,0.0,0.05827580392360687
286.0,503.0,3.737,0.1878,8.6183,-0.0301,0.0241,-0.1252,-1.634684225121969,0.0,2.426375389099121,-1.6854207515716553,-0.0,2.155848503112793,4.455416365260742,0.0,0.27383625507354736,-1.4210618177997034,0.0,-0.033278778195381165,0.46654075384140015,-0.0,0.006646888330578804,1.1827999353408813,0.0,-0.03949423134326935
286.0,503.0,3.737,0.1878,8.6183,-0.0301,0.0241,-0.1252,-1.634712358514303,0.0,2.4373185634613037,-1.6853644847869873,-0.0,2.1757972240448,4.455399675960205,0.0,0.2748849093914032,-1.4211300055133265,0.0,-0.02811134234070778,0.4665489196777344,-0.0,-0.0180073082447052,1.1828203201293945,0.0,0.04356786981225014
286.0,503.0,3.737,0.1878,8.6183,-0.0301,0.0241,-0.1252,-1.634740491906637,0.0,2.4530248641967773,-1.685384750366211,-0.0,2.1313023567199707,4.455403967494629,0.0,0.280460387468338,-1.421121899281637,0.0,-0.03226849064230919,0.4665449261665344,-0.0,-0.002674741903319955,1.1828203201293945,0.0,0.056515879929065704
286.0,503.0,3.737,0.1878,8.6183,-0.0301,0.0241,-0.1252,-1.634712358514303,0.0,2.416700601577759,-1.6853961944580078,-0.0,2.1760966777801514,4.455399675960205,0.0,0.28434276580810547,-1.421138111745016,0.0,-0.014546411111950874,0.46656912565231323,-0.0,0.0010707173496484756,1.182836651802063,0.0,0.0022054333239793777
286.0,503.0,3.737,0.1878,8.6183,-0.0301,0.0241,-0.1252,-1.6347037754454554,0.0,2.449392318725586,-1.685376524925232,-0.0,2.188406467437744,4.455420656795166,0.0,0.2851506471633911,-1.421105686818258,0.0,-0.034309905022382736,0.4665006101131439,-0.0,0.0005933319916948676,1.1828080415725708,0.0,0.0063835084438323975
286.0,503.0,3.737,0.1878,8.6183,-0.0301,0.0241,-0.1252,-1.6347161732115687,0.0,2.4593868255615234,-1.6854166984558105,-0.0,2.134310007095337,4.455408259029053,0.0,0.27156710624694824,-1.4211061636554163,0.0,-0.02910595014691353,0.4665285348892212,-0.0,-0.006362843327224255,1.182848572731018,0.0,0.06833431124687195
286.0,503.0,3.737,0.1878,8.6183,-0.0301,0.0241,-0.1252,-1.6346518001952113,0.0,2.4605627059936523,-1.6854207515716553,-0.0,2.200087547302246,4.455427809352539,0.0,0.2820310592651367,-1.4210975805865687,0.0,-0.03099566511809826,0.4665125012397766,-0.0,0.0010465697851032019,1.1828203201293945,0.0,-0.022323859855532646
286.0,503.0,3.737,0.1878,8.6183,-0.0301,0.0241,-0.1252,-1.6347080669798792,0.0,2.440959930419922,-1.6854248046875,-0.0,2.1917152404785156,4.455427809352539,0.0,0.2806869149208069,-1.4211462179767054,0.0,-0.024098265916109085,0.46653300523757935,-0.0,-0.005324971862137318,1.1828445196151733,0.0,0.03484417498111725
286.0,503.0,3.737,0.1878,8.6183,-0.0301,0.0241,-0.1252,-1.6347161732115687,0.0,2.436645269393921,-1.6854043006896973,-0.0,2.1562771797180176,4.4554359155842285,0.0,0.29521456360816956,-1.4211018721209925,0.0,-0.029623916372656822,0.46656906604766846,-0.0,-0.01111580803990364,1.1828285455703735,0.0,0.020261716097593307
286.0,503.0,3.737,0.1878,8.6183,-0.0301,0.0241,-0.1252,-1.6346799335875453,0.0,2.439152717590332,-1.6854485273361206,-0.0,2.155839681625366,4.45538775503125,0.0,0.28320610523223877,-1.421093765889303,0.0,-0.025341292843222618,0.4665248394012451,-0.0,-0.010986186563968658,1.1827999353408813,0.0,0.0013938779011368752
275.0,523.0,3.7914,0.2321,8.604,-0.0472,0.0287,-0.1187,-1.634700437585348,0.0,2.406501293182373,-1.6854448318481445,-0.0,2.163234233856201,4.455420656795166,0.0,0.2794058322906494,-1.421105686818258,0.0,-0.04427322745323181,0.4665408432483673,-0.0,0.004783896263688803,1.1827678680419922,0.0,-0.005654890090227127
275.0,523.0,3.7914,0.2321,8.604,-0.0472,0.0287,-0.1187,-1.6347042522826136,0.0,2.428884744644165,-1.6854288578033447,-0.0,2.201585531234741,4.455399675960205,0.0,0.27995261549949646,-1.4210975805865687,0.0,-0.03792386129498482,0.4665083885192871,-0.0,-0.0019407779909670353,1.1828080415725708,0.0,-0.004545321688055992
275.0,523.0,3.7914,0.2321,8.604,-0.0472,0.0287,-0.1187,-1.6346880398192347,0.0,2.4487977027893066,-1.6854166984558105,-0.0,2.2063791751861572,4.455432100886963,0.0,0.27949774265289307,-1.4210856596576136,0.0,-0.024105913937091827,0.46654897928237915,-0.0,0.003788263536989689,1.1827678680419922,0.0,-0.004039413295686245
275.0,523.0,3.7914,0.2321,8.604,-0.0472,0.0287,-0.1187,-1.6346961460509242,0.0,2.4359047412872314,-1.6854126453399658,-0.0,2.1683688163757324,4.455408259029053,0.0,0.29917803406715393,-1.421161953602926,0.0,-0.03189176693558693,0.4665326178073883,-0.0,-0.012404948472976685,1.1827999353408813,0.0,-0.031848806887865067
275.0,523.0,3.7914,0.2321,8.604,-0.0472,0.0287,-0.1187,-1.634684225121969,0.0,2.418929100036621,-1.6853444576263428,-0.0,2.1628975868225098,4.455383940333984,0.0,0.28293102979660034,-1.4211137930499476,0.0,-0.02207374945282936,0.46654897928237915,-0.0,-0.006352807395160198,1.1828285455703735,0.0,0.007472778204828501
275.0,523.0,3.7914,0.2321,8.604,-0.0472,0.0287,-0.1187,-1.6347161732115687,0.0,2.454139232635498,-1.6853845119476318,-0.0,2.1882383823394775,4.455448313350342,0.0,0.27783167362213135,-1.4211018721209925,0.0,-0.019324515014886856,0.46655309200286865,-0.0,-0.015204913914203644,1.182868242263794,0.0,-0.014357179403305054
275.0,523.0,3.7914,0.2321,8.604,-0.0472,0.0287,-0.1187,-1.6346718273558558,0.0,2.4649460315704346,-1.68545663356781,-0.0,2.1834607124328613,4.455395861262939,0.0,0.2842538356781006,-1.4210856596576136,0.0,-0.016840748488903046,0.4665203094482422,-0.0,-0.011793196201324463,1.1828083992004395,0.0,0.04938357323408127
275.0,523.0,3.7914,0.2321,8.604,-0.0472,0.0287,-0.1187,-1.6346594295897425,0.0,2.3939194679260254,-1.685376763343811,-0.0,2.2060227394104004,4.455423517818115,0.0,0.2844986021518707,-1.421138111745016,0.0,-0.028776757419109344,0.46659329533576965,-0.0,0.0023043379187583923,1.1827843189239502,0.0,-0.02446368895471096
275.0,523.0,3.7914,0.2321,8.604,-0.0472,0.0287,-0.1187,-1.634684225121969,0.0,2.424901008605957,-1.685368299484253,-0.0,2.1531834602355957,4.455399675960205,0.0,0.28602921962738037,-1.4211095015155237,0.0,-0.01628780923783779,0.46655309200286865,-0.0,0.0071675945073366165,1.182848572731018,0.0,0.04093514382839203
275.0,523.0,3.7914,0.2321,8.604,-0.0472,0.0287,-0.1187,-1.6346475086607875,0.0,2.4294567108154297,-1.685368299484253,-0.0,2.1639456748962402,4.4554359155842285,0.0,0.27548840641975403,-1.4211137930499476,0.0,-0.026314960792660713,0.4664763808250427,-0.0,0.006181344389915466,1.1827720403671265,0.0,0.016758307814598083
275.0,523.0,3.7914,0.2321,8.604,-0.0472,0.0287,-0.1187,-1.634688516656393,0.0,2.4338488578796387,-1.6854526996612549,-0.0,2.094313621520996,4.455424471492432,0.0,0.28759458661079407,-1.421109978352682,0.0,-0.029675234109163284,0.4665449261665344,-0.0,0.0033041578717529774,1.1828203201293945,0.0,-0.008039791136980057
275.0,523.0,3.7914,0.2321,8.604,-0.0472,0.0287,-0.1187,-1.634683748284811,0.0,2.4260506629943848,-1.6854326725006104,-0.0,2.148883819580078,4.455416365260742,0.0,0.2898734211921692,-1.4211018721209925,0.0,-0.03265431523323059,0.4666174352169037,-0.0,0.009526237845420837,1.1827999353408813,0.0,0.018959103152155876
275.0,523.0,3.7914,0.2321,8.604,-0.0472,0.0287,-0.1187,-1.6346961460509242,0.0,2.4281086921691895,-1.6853764057159424,-0.0,2.166879892349243,4.455392046565674,0.0,0.2740185856819153,-1.4211261908160608,0.0,-0.03556887060403824,0.4665612578392029,-0.0,-0.004775636363774538,1.182812213897705,0.0,0.02080238237977028
275.0,523.0,3.7914,0.2321,8.604,-0.0472,0.0287,-0.1187,-1.6346961460509242,0.0,2.4378371238708496,-1.6853928565979004,-0.0,2.2227225303649902,4.455476446742676,0.0,0.2755904793739319,-1.421121899281637,0.0,-0.025486955419182777,0.46648451685905457,-0.0,0.0003023690078407526,1.182812213897705,0.0,0.01231314241886139
275.0,523.0,3.7914,0.2321,8.604,-0.0472,0.0287,-0.1187,-1.634700437585348,0.0,2.455472469329834,-1.6854329109191895,-0.0,2.1740100383758545,4.4553796487995605,0.0,0.2804846167564392,-1.421105686818258,0.0,-0.016518346965312958,0.4664964973926544,-0.0,0.018114779144525528,1.1828445196151733,0.0,-0.03995952010154724
275.0,523.0,3.7914,0.2321,8.604,-0.0472,0.0287,-0.1187,-1.6346761188902796,0.0,2.4401516914367676,-1.6853961944580078,-0.0,2.179452419281006,4.455412073726318,0.0,0.2836344242095947,-1.4211300055133265,0.0,-0.028181172907352448,0.4664965569972992,-0.0,-0.00797361321747303,1.1828724145889282,0.0,-0.02684769779443741
275.0,523.0,3.7914,0.2321,8.604,-0.0472,0.0287,-0.1187,-1.6346761188902796,0.0,2.4238572120666504,-1.6853405237197876,-0.0,2.159487247467041,4.455395861262939,0.0,0.2841194272041321,-1.4210980574237269,0.0,-0.03070252016186714,0.46655309200286865,-0.0,-0.005571305751800537,1.1828563213348389,0.0,0.004087876062840223
269.0,505.0,3.9362,0.2722,8.2756,-0.0377,0.0241,-0.117,-1.6346594295897425,0.0,2.4641833305358887,-1.6853969097137451,-0.0,2.1851463317871094,4.455416365260742,0.0,0.29770058393478394,-1.4210775534259241,0.0,-0.0317438468337059,0.4665165841579437,-0.0,-0.003227728884667158,1.1828563213348389,0.0,0.03210980072617531
269.0,505.0,3.9362,0.2722,8.2756,-0.0377,0.0241,-0.117,-1.634655614892477,0.0,2.449573278427124,-1.6854326725006104,-0.0,2.1951613426208496,4.455395861262939,0.0,0.2841201424598694,-1.4211137930499476,0.0,-0.029671568423509598,0.4665285348892212,-0.0,-0.005267542786896229,1.182812213897705,0.0,-0.0010450814152136445
269.0,505.0,3.9362,0.2722,8.2756,-0.0377,0.0241,-0.117,-1.634667535821432,0.0,2.430997610092163,-1.6853563785552979,-0.0,2.1786067485809326,4.455432100886963,0.0,0.2872168719768524,-1.4210975805865687,0.0,-0.03670453280210495,0.46651655435562134,-0.0,0.002323425142094493,1.182803988456726,0.0,-0.027591202408075333
269.0,505.0,3.9362,0.2722,8.2756,-0.0377,0.0241,-0.117,-1.6346961460509242,0.0,2.4204423427581787,-1.6854122877120972,-0.0,2.162391185760498,4.4553796487995605,0.0,0.28099727630615234,-1.421121899281637,0.0,-0.019985109567642212,0.466520756483078,-0.0,-0.006800409406423569,1.182803988456726,0.0,-0.05223466455936432
269.0,505.0,3.9362,0.2722,8.2756,-0.0377,0.0241,-0.117,-1.634684225121969,0.0,2.417137622833252,-1.685368537902832,-0.0,2.2062268257141113,4.455412073726318,0.0,0.28881537914276123,-1.4211180845843714,0.0,-0.028033621609210968,0.4665326178073883,-0.0,-0.006116247735917568,1.1828563213348389,0.0,-0.019804224371910095
269.0,505.0,3.9362,0.2722,8.2756,-0.0377,0.0241,-0.117,-1.6346880398192347,0.0,2.4516451358795166,-1.685384750366211,-0.0,2.1920270919799805,4.4553796487995605,0.0,0.2818729877471924,-1.421121899281637,0.0,-0.03973812609910965,0.46654483675956726,-0.0,0.0036964621394872665,1.182840347290039,0.0,-0.0171640794724226
269.0,505.0,3.9362,0.2722,8.2756,-0.0377,0.0241,-0.117,-1.6346718273558558,0.0,2.396949291229248,-1.6854166984558105,-0.0,2.1523900032043457,4.455428763026855,0.0,0.27925750613212585,-1.4210899511920374,0.0,-0.032850585877895355,0.46652892231941223,-0.0,-0.013867415487766266,1.182812213897705,0.0,-0.002487882971763611
269.0,505.0,3.9362,0.2722,8.2756,-0.0377,0.0241,-0.117,-1.6347161732115687,0.0,2.4216699600219727,-1.6854407787322998,-0.0,2.1539883613586426,4.455420656795166,0.0,0.28849971294403076,-1.4210975805865687,0.0,-0.02734772488474846,0.466520756483078,-0.0,-0.008010795339941978,1.1827962398529053,0.0,-0.04245845973491669
269.0,505.0,3.9362,0.2722,8.2756,-0.0377,0.0241,-0.117,-1.634667535821432,0.0,2.4844753742218018,-1.6854164600372314,-0.0,2.146752119064331,4.455408259029053,0.0,0.2797795534133911,-1.421105686818258,0.0,-0.034045979380607605,0.46654075384140015,-0.0,-0.009365593083202839,1.1828162670135498,0.0,-0.009081371128559113
269.0,505.0,3.9362,0.2722,8.2756,-0.0377,0.0241,-0.117,-1.6347323856749476,0.0,2.4029171466827393,-1.6853643655776978,-0.0,2.138829231262207,4.4554359155842285,0.0,0.28202179074287415,-1.4210618177997034,0.0,-0.025034088641405106,0.46649613976478577,-0.0,-0.015173587948083878,1.182820439338684,0.0,-0.0031383102759718895
269.0,505.0,3.9362,0.2722,8.2756,-0.0377,0.0241,-0.117,-1.6346718273558558,0.0,2.399825096130371,-1.68546462059021,-0.0,2.1241087913513184,4.4554640489765625,0.0,0.2788326144218445,-1.4211342970477503,0.0,-0.022172965109348297,0.46657276153564453,-0.0,0.006269840523600578,1.1828203201293945,0.0,-0.002976001240313053
269.0,505.0,3.9362,0.2722,8.2756,-0.0377,0.0241,-0.117,-1.6346961460509242,0.0,2.46683931350708,-1.6854166984558105,-0.0,2.2094287872314453,4.455372019405029,0.0,0.29804527759552,-1.4211018721209925,0.0,-0.03735332936048508,0.46654075384140015,-0.0,-0.001882547396235168,1.1828203201293945,0.0,-0.007449409458786249
269.0,505.0,3.9362,0.2722,8.2756,-0.0377,0.0241,-0.117,-1.6346718273558558,0.0,2.4609203338623047,-1.6854407787322998,-0.0,2.1538543701171875,4.455424471492432,0.0,0.29041850566864014,-1.4210856596576136,0.0,-0.030332066118717194,0.4665166139602661,-0.0,-0.009427784942090511,1.1828285455703735,0.0,-0.003045140765607357
269.0,505.0,3.9362,0.2722,8.2756,-0.0377,0.0241,-0.117,-1.6346475086607875,0.0,2.442296028137207,-1.685380458831787,-0.0,2.1497507095336914,4.455403967494629,0.0,0.27516117691993713,-1.421121899281637,0.0,-0.03236972913146019,0.4665285348892212,-0.0,-0.006785010453313589,1.182812213897705,0.0,0.01270495355129242
269.0,505.0,3.9362,0.2722,8.2756,-0.0377,0.0241,-0.117,-1.6347161732115687,0.0,2.482903242111206,-1.6854248046875,-0.0,2.1551268100738525,4.455412073726318,0.0,0.29162734746932983,-1.4211137930499476,0.0,-0.029512664303183556,0.4665285646915436,-0.0,-0.010453777387738228,1.182812213897705,0.0,0.006390010006725788
269.0,505.0,3.9362,0.2722,8.2756,-0.0377,0.0241,-0.117,-1.6347280941405238,0.0,2.432943105697632,-1.6853928565979004,-0.0,2.131523609161377,4.455424471492432,0.0,0.27879202365875244,-1.4211342970477503,0.0,-0.021498287096619606,0.4665367603302002,-0.0,-0.01361440122127533,1.1828285455703735,0.0,0.00818503089249134
276.0,482.0,3.7531,0.1872,8.6279,-0.0389,0.0244,-0.1144,-1.6346718273558558,0.0,2.468566417694092,-1.685384750366211,-0.0,2.093360662460327,4.455428763026855,0.0,0.28785350918769836,-1.4211342970477503,0.0,-0.023719556629657745,0.4665612578392029,-0.0,0.007329447194933891,1.1828243732452393,0.0,-0.006756424903869629
276.0,482.0,3.7531,0.1872,8.6279,-0.0389,0.0244,-0.1144,-1.6347037754454554,0.0,2.437511920928955,-1.6854407787322998,-0.0,2.2223925590515137,4.455391569728516,0.0,0.2780660092830658,-1.421109978352682,0.0,-0.021783841773867607,0.4665047526359558,-0.0,0.0017621450824663043,1.1828203201293945,0.0,0.00027885203598998487
276.0,482.0,3.7531,0.1872,8.6279,-0.0389,0.0244,-0.1144,-1.634667535821432,0.0,2.459475040435791,-1.685384750366211,-0.0,2.197983741760254,4.45536391317334,0.0,0.279144287109375,-1.421053711568014,0.0,-0.03362042456865311,0.46655717492103577,-0.0,0.002757999347522855,1.1828243732452393,0.0,-0.018557485193014145
276.0,482.0,3.7531,0.1872,8.6279,-0.0389,0.0244,-0.1144,-1.6347280941405238,0.0,2.4635772705078125,-1.6854002475738525,-0.0,2.168905258178711,4.455420656795166,0.0,0.2975095510482788,-1.4210737387286585,0.0,-0.025105390697717667,0.46657678484916687,-0.0,0.0036551866214722395,1.182848572731018,0.0,0.03455138951539993
276.0,482.0,3.7531,0.1872,8.6279,-0.0389,0.0244,-0.1144,-1.6346799335875453,0.0,2.466670513153076,-1.6854043006896973,-0.0,2.1623549461364746,4.455432100886963,0.0,0.2814444303512573,-1.421105686818258,0.0,-0.013123895972967148,0.4665367603302002,-0.0,-0.017657972872257233,1.1828445196151733,0.0,0.017687465995550156
276.0,482.0,3.7531,0.1872,8.6279,-0.0389,0.0244,-0.1144,-1.6346637211241664,0.0,2.444349765777588,-1.685408353805542,-0.0,2.1618096828460693,4.455416365260742,0.0,0.2832222878932953,-1.421150032673971,0.0,-0.03083990514278412,0.46657320857048035,-0.0,0.0010871529811993241,1.1828604936599731,0.0,0.007601868361234665
276.0,482.0,3.7531,0.1872,8.6279,-0.0389,0.0244,-0.1144,-1.6346518001952113,0.0,2.4400644302368164,-1.685368299484253,-0.0,2.1371357440948486,4.455448313350342,0.0,0.28606176376342773,-1.4210975805865687,0.0,-0.028543788939714432,0.4665166139602661,-0.0,-0.00905443262308836,1.1827999353408813,0.0,0.005096277222037315
276.0,482.0,3.7531,0.1872,8.6279,-0.0389,0.0244,-0.1144,-1.6346637211241664,0.0,2.4451911449432373,-1.6854166984558105,-0.0,2.1586875915527344,4.4554640489765625,0.0,0.2758140563964844,-1.421105686818258,0.0,-0.04830680787563324,0.46657317876815796,-0.0,-0.015190410427749157,1.182840347290039,0.0,0.009795760735869408
276.0,482.0,3.7531,0.1872,8.6279,-0.0389,0.0244,-0.1144,-1.6346594295897425,0.0,2.4209814071655273,-1.6853928565979004,-0.0,2.161595344543457,4.455427809352539,0.0,0.3034985065460205,-1.4210618177997034,0.0,-0.026500649750232697,0.46655309200286865,-0.0,-0.005420660134404898,1.1828203201293945,0.0,-0.004982794169336557
276.0,482.0,3.7531,0.1872,8.6279,-0.0389,0.0244,-0.1144,-1.634712358514303,0.0,2.4182024002075195,-1.6853644847869873,-0.0,2.1974940299987793,4.455440207118652,0.0,0.29293203353881836,-1.4211018721209925,0.0,-0.0361764058470726,0.4665325880050659,-0.0,-0.0010721026919782162,1.182812213897705,0.0,-0.013191303238272667
276.0,482.0,3.7531,0.1872,8.6279,-0.0389,0.0244,-0.1144,-1.6347080669798792,0.0,2.4613587856292725,-1.6853961944580078,-0.0,2.1984565258026123,4.455412073726318,0.0,0.27621906995773315,-1.421065632496969,0.0,-0.03138284757733345,0.4665489196777344,-0.0,-0.0014250652166083455,1.1827878952026367,0.0,0.0063874381594359875
276.0,482.0,3.7531,0.1872,8.6279,-0.0389,0.0244,-0.1144,-1.6346966228880824,0.0,2.462632656097412,-1.6853969097137451,-0.0,2.159849166870117,4.455395861262939,0.0,0.2807900607585907,-1.4211137930499476,0.0,-0.03825508803129196,0.46655309200286865,-0.0,-0.004656827077269554,1.1828080415725708,0.0,-0.015326952561736107
276.0,482.0,3.7531,0.1872,8.6279,-0.0389,0.0244,-0.1144,-1.634688516656393,0.0,2.447329521179199,-1.6854526996612549,-0.0,2.1581082344055176,4.455392046565674,0.0,0.2814972996711731,-1.4211261908160608,0.0,-0.02287650853395462,0.4665285050868988,-0.0,-0.0077671874314546585,1.1828280687332153,0.0,-0.014665700495243073
276.0,482.0,3.7531,0.1872,8.6279,-0.0389,0.0244,-0.1144,-1.634684225121969,0.0,2.481661558151245,-1.6853522062301636,-0.0,2.137467622756958,4.455408259029053,0.0,0.2881270945072174,-1.4211018721209925,0.0,-0.025926176458597183,0.46658098697662354,-0.0,-0.0022435637656599283,1.182792067527771,0.0,0.001498222816735506
276.0,482.0,3.7531,0.1872,8.6279,-0.0389,0.0244,-0.1144,-1.6346961460509242,0.0,2.4592275619506836,-1.6854043006896973,-0.0,2.1824491024017334,4.455416365260742,0.0,0.2888973653316498,-1.421109978352682,0.0,-0.05176512897014618,0.4665165841579437,-0.0,-0.008193626999855042,1.182812213897705,0.0,-0.010368804447352886
276.0,482.0,3.7531,0.1872,8.6279,-0.0389,0.0244,-0.1144,-1.6346961460509242,0.0,2.416022777557373,-1.6854166984558105,-0.0,2.1449906826019287,4.455416365260742,0.0,0.2819547653198242,-1.421121899281637,0.0,-0.02593955025076866,0.4665165841579437,-0.0,0.002711464185267687,1.1828522682189941,0.0,0.013394745998084545
267.0,489.0,3.737,0.1585,8.723,-0.0339,0.0231,-0.1173,-1.634712358514303,0.0,2.4624762535095215,-1.6854407787322998,-0.0,2.178558588027954,4.455395861262939,0.0,0.2837691307067871,-1.4211424032794397,0.0,-0.01445809006690979,0.4665408134460449,-0.0,-0.0049230242148041725,1.1828243732452393,0.0,-0.009747871197760105
267.0,489.0,3.737,0.1585,8.723,-0.0339,0.0231,-0.1173,-1.6346918545165003,0.0,2.4213531017303467,-1.6854166984558105,-0.0,2.2089056968688965,4.45538775503125,0.0,0.2790655493736267,-1.421105686818258,0.0,-0.018018528819084167,0.4665083587169647,-0.0,-0.0047237505204975605,1.1828362941741943,0.0,-0.02448187954723835
267.0,489.0,3.737,0.1585,8.723,-0.0339,0.0231,-0.1173,-1.6347161732115687,0.0,2.466101884841919,-1.6854002475738525,-0.0,2.167546272277832,4.455420656795166,0.0,0.28735706210136414,-1.4210737387286585,0.0,-0.025043312460184097,0.4665648937225342,-0.0,-0.012918714433908463,1.182840347290039,0.0,-0.01186949573457241
267.0,489.0,3.737,0.1585,8.723,-0.0339,0.0231,-0.1173,-1.634700437585348,0.0,2.4519572257995605,-1.6853888034820557,-0.0,2.2018792629241943,4.455432100886963,0.0,0.28897470235824585,-1.421105686818258,0.0,-0.02036358416080475,0.4665083885192871,-0.0,-0.005392567254602909,1.1828285455703735,0.0,-0.002034079283475876
267.0,489.0,3.737,0.1585,8.723,-0.0339,0.0231,-0.1173,-1.6347080669798792,0.0,2.4503326416015625,-1.6853481531143188,-0.0,2.1900367736816406,4.455383463496826,0.0,0.2876545488834381,-1.4210894743548792,0.0,-0.01757318153977394,0.4665285050868988,-0.0,-0.004646265413612127,1.1828080415725708,0.0,-0.048094939440488815
267.0,489.0,3.737,0.1585,8.723,-0.0339,0.0231,-0.1173,-1.634700437585348,0.0,2.4268717765808105,-1.6853888034820557,-0.0,2.154500961303711,4.455467863673828,0.0,0.2845088243484497,-1.421053711568014,0.0,-0.027099356055259705,0.466488778591156,-0.0,-0.005316214635968208,1.182812213897705,0.0,0.00557665666565299
267.0,489.0,3.737,0.1585,8.723,-0.0339,0.0231,-0.1173,-1.634712358514303,0.0,2.4524426460266113,-1.685408353805542,-0.0,2.139308214187622,4.455448313350342,0.0,0.26948103308677673,-1.4211018721209925,0.0,-0.02363690361380577,0.46656450629234314,-0.0,0.005006616003811359,1.1828080415725708,0.0,0.01627139188349247
267.0,489.0,3.737,0.1585,8.723,-0.0339,0.0231,-0.1173,-1.634700437585348,0.0,2.400303602218628,-1.6853961944580078,-0.0,2.1498842239379883,4.455392046565674,0.0,0.2921289801597595,-1.4211180845843714,0.0,-0.028096184134483337,0.4665047526359558,-0.0,0.0008254883578047156,1.1828203201293945,0.0,0.012862452305853367
267.0,489.0,3.737,0.1585,8.723,-0.0339,0.0231,-0.1173,-1.6346918545165003,0.0,2.420909881591797,-1.685380458831787,-0.0,2.117636203765869,4.455416365260742,0.0,0.28478413820266724,-1.4210894743548792,0.0,-0.02311665564775467,0.4665367603302002,-0.0,-0.0021303710527718067,1.182820439338684,0.0,-0.04337339475750923
267.0,489.0,3.737,0.1585,8.723,-0.0339,0.0231,-0.1173,-1.6346594295897425,0.0,2.4860033988952637,-1.6853723526000977,-0.0,2.1518447399139404,4.455375834102295,0.0,0.29231107234954834,-1.421105686818258,0.0,-0.042121633887290955,0.46654894948005676,-0.0,-0.002061909530311823,1.1828203201293945,0.0,-0.05081192031502724
267.0,489.0,3.737,0.1585,8.723,-0.0339,0.0231,-0.1173,-1.634667535821432,0.0,2.421717405319214,-1.6854288578033447,-0.0,2.1958184242248535,4.455395861262939,0.0,0.28473275899887085,-1.4211180845843714,0.0,-0.022992804646492004,0.4665812849998474,-0.0,-0.0035493895411491394,1.1828080415725708,0.0,0.008666043169796467
267.0,489.0,3.737,0.1585,8.723,-0.0339,0.0231,-0.1173,-1.6346961460509242,0.0,2.387268543243408,-1.6853764057159424,-0.0,2.161442756652832,4.455452604884766,0.0,0.2755986452102661,-1.421105686818258,0.0,-0.025263048708438873,0.4665772318840027,-0.0,-0.0032510007731616497,1.1828604936599731,0.0,0.01500115729868412
267.0,489.0,3.737,0.1585,8.723,-0.0339,0.0231,-0.1173,-1.634700437585348,0.0,2.4474520683288574,-1.685368299484253,-0.0,2.174771308898926,4.455395861262939,0.0,0.2873881459236145,-1.4211137930499476,0.0,-0.03326385095715523,0.46656492352485657,-0.0,0.0011888915905728936,1.1828325986862183,0.0,-0.02084498293697834
267.0,489.0,3.737,0.1585,8.723,-0.0339,0.0231,-0.1173,-1.6346961460509242,0.0,2.451287269592285,-1.6854208707809448,-0.0,2.127953052520752,4.455403967494629,0.0,0.28721269965171814,-1.4210699240313929,0.0,-0.025928091257810593,0.4665449559688568,-0.0,-0.005892922170460224,1.1828243732452393,0.0,-0.02634950913488865
267.0,489.0,3.737,0.1585,8.723,-0.0339,0.0231,-0.1173,-1.634688516656393,0.0,2.4615323543548584,-1.6853764057159424,-0.0,2.169965982437134,4.45538775503125,0.0,0.286492258310318,-1.4211342970477503,0.0,-0.028766347095370293,0.4665006101131439,-0.0,0.0023046964779496193,1.1828043460845947,0.0,-0.00999225303530693
267.0,489.0,3.737,0.1585,8.723,-0.0339,0.0231,-0.1173,-1.634684225121969,0.0,2.4636850357055664,-1.6854124069213867,-0.0,2.127216100692749,4.455420656795166,0.0,0.2877067029476166,-1.421105686818258,0.0,-0.03093109279870987,0.4665408432483673,-0.0,-0.0006310092285275459,1.1827723979949951,0.0,0.032255835831165314
281.0,527.0,3.7352,0.1795,8.677,-0.0328,0.0292,-0.1203,-1.6347037754454554,0.0,2.439974308013916,-1.6853806972503662,-0.0,2.1169333457946777,4.455396338100098,0.0,0.2945564389228821,-1.4210975805865687,0.0,-0.013848498463630676,0.46656492352485657,-0.0,-0.009549716487526894,1.182803988456726,0.0,-0.010414090007543564
281.0,527.0,3.7352,0.1795,8.677,-0.0328,0.0292,-0.1203,-1.6347323856749476,0.0,2.442077159881592,-1.6853604316711426,-0.0,2.1659374237060547,4.455383940333984,0.0,0.285836398601532,-1.421065632496969,0.0,-0.032892756164073944,0.4665972590446472,-0.0,-0.014315543696284294,1.1828162670135498,0.0,-0.020954707637429237
281.0,527.0,3.7352,0.1795,8.677,-0.0328,0.0292,-0.1203,-1.6347400150694789,0.0,2.443751335144043,-1.6854166984558105,-0.0,2.166381597518921,4.455408259029053,0.0,0.2878957986831665,-1.4210737387286585,0.0,-0.024353187531232834,0.4666055142879486,-0.0,-0.00419501680880785,1.1828404664993286,0.0,-0.014504563063383102
281.0,527.0,3.7352,0.1795,8.677,-0.0328,0.0292,-0.1203,-1.6346761188902796,0.0,2.4468185901641846,-1.6853643655776978,-0.0,2.162858486175537,4.455420656795166,0.0,0.2804509401321411,-1.421093765889303,0.0,-0.014591965824365616,0.46656084060668945,-0.0,-0.012105531990528107,1.1828362941741943,0.0,0.02899003028869629
281.0,527.0,3.7352,0.1795,8.677,-0.0328,0.0292,-0.1203,-1.634700437585348,0.0,2.429560899734497,-1.685380458831787,-0.0,2.125394821166992,4.455488844508789,0.0,0.2866910398006439,-1.421138111745016,0.0,-0.027313530445098877,0.4665125012397766,-0.0,-0.015649760141968727,1.182840347290039,0.0,-0.03745585307478905
281.0,527.0,3.7352,0.1795,8.677,-0.0328,0.0292,-0.1203,-1.634712358514303,0.0,2.4053101539611816,-1.6853928565979004,-0.0,2.151803970336914,4.455416365260742,0.0,0.27544063329696655,-1.4211462179767054,0.0,-0.03205760195851326,0.46655309200286865,-0.0,-0.003352358005940914,1.1828080415725708,0.0,-0.0034283935092389584
281.0,527.0,3.7352,0.1795,8.677,-0.0328,0.0292,-0.1203,-1.634700437585348,0.0,2.432865858078003,-1.6854009628295898,-0.0,2.1414010524749756,4.455452604884766,0.0,0.2897569239139557,-1.421105686818258,0.0,-0.028995903208851814,0.46648460626602173,-0.0,2.7389731258153915e-05,1.1828285455703735,0.0,0.01697300374507904
281.0,527.0,3.7352,0.1795,8.677,-0.0328,0.0292,-0.1203,-1.6346923313536585,0.0,2.4408187866210938,-1.6853485107421875,-0.0,2.1880266666412354,4.455367727870605,0.0,0.28367072343826294,-1.4210894743548792,0.0,-0.026818178594112396,0.46659719944000244,-0.0,0.001112618949264288,1.1828482151031494,0.0,-0.0069474768824875355
281.0,527.0,3.7352,0.1795,8.677,-0.0328,0.0292,-0.1203,-1.6346961460509242,0.0,2.426041841506958,-1.685380458831787,-0.0,2.1664905548095703,4.455408259029053,0.0,0.29023805260658264,-1.421138111745016,0.0,-0.03489990532398224,0.46655717492103577,-0.0,0.001644045114517212,1.1828526258468628,0.0,-0.009836487472057343
281.0,527.0,3.7352,0.1795,8.677,-0.0328,0.0292,-0.1203,-1.634700437585348,0.0,2.4516892433166504,-1.6853723526000977,-0.0,2.1841392517089844,4.455431624049805,0.0,0.29432153701782227,-1.421150032673971,0.0,-0.03388545289635658,0.4665408432483673,-0.0,-0.007970956154167652,1.1828285455703735,0.0,-0.0032189753837883472
281.0,527.0,3.7352,0.1795,8.677,-0.0328,0.0292,-0.1203,-1.634667535821432,0.0,2.432748794555664,-1.6854248046875,-0.0,2.171243667602539,4.455423517818115,0.0,0.28353601694107056,-1.4210975805865687,0.0,-0.03062829002737999,0.4665367603302002,-0.0,-0.011015824973583221,1.1828445196151733,0.0,0.06472687423229218
281.0,527.0,3.7352,0.1795,8.677,-0.0328,0.0292,-0.1203,-1.6347443066039027,0.0,2.4507853984832764,-1.6854208707809448,-0.0,2.1796512603759766,4.45538775503125,0.0,0.28327566385269165,-1.4211095015155237,0.0,-0.019029324874281883,0.46657317876815796,-0.0,-0.005864955950528383,1.1828522682189941,0.0,-0.00610361946746707
281.0,527.0,3.7352,0.1795,8.677,-0.0328,0.0292,-0.1203,-1.634684225121969,0.0,2.4500277042388916,-1.685408353805542,-0.0,2.1359939575195312,4.455416365260742,0.0,0.28205394744873047,-1.4210732618915003,0.0,-0.04747980087995529,0.4665165841579437,-0.0,-0.014048805460333824,1.1828080415725708,0.0,0.025317946448922157
281.0,527.0,3.7352,0.1795,8.677,-0.0328,0.0292,-0.1203,-1.634655614892477,0.0,2.4698233604431152,-1.685384750366211,-0.0,2.1809937953948975,4.455412073726318,0.0,0.29509255290031433,-1.4211137930499476,0.0,-0.018440118059515953,0.466548889875412,-0.0,-0.014515547081828117,1.182812213897705,0.0,-0.008151546120643616
281.0,527.0,3.7352,0.1795,8.677,-0.0328,0.0292,-0.1203,-1.634667535821432,0.0,2.3791580200195312,-1.6854043006896973,-0.0,2.166139602661133,4.455383940333984,0.0,0.29316446185112,-1.4211137930499476,0.0,-0.033503759652376175,0.466557115316391,-0.0,-0.008922271430492401,1.182783842086792,0.0,0.021516263484954834
281.0,527.0,3.7352,0.1795,8.677,-0.0328,0.0292,-0.1203,-1.6346799335875453,0.0,2.4434173107147217,-1.6853888034820557,-0.0,2.1651268005371094,4.455399675960205,0.0,0.2843378186225891,-1.421105686818258,0.0,-0.033416297286748886,0.46658092737197876,-0.0,0.0008847110439091921,1.182840347290039,0.0,-0.00379837560467422
276.0,493.0,3.804,0.2991,8.0853,-0.0377,0.0244,-0.1165,-1.634667535821432,0.0,2.4067816734313965,-1.685384750366211,-0.0,2.1390252113342285,4.455416365260742,0.0,0.2881902754306793,-1.4211137930499476,0.0,-0.0305279940366745,0.46654075384140015,-0.0,-0.005704567302018404,1.182803988456726,0.0,-0.007839389145374298
276.0,493.0,3.804,0.2991,8.0853,-0.0377,0.0244,-0.1165,-1.634700437585348,0.0,2.4558706283569336,-1.6854050159454346,-0.0,2.205704689025879,4.45538775503125,0.0,0.28337961435317993,-1.421121899281637,0.0,-0.025874413549900055,0.4665408432483673,-0.0,0.004747228696942329,1.1828362941741943,0.0,0.0198903139680624
276.0,493.0,3.804,0.2991,8.0853,-0.0377,0.0244,-0.1165,-1.6346761188902796,0.0,2.4864144325256348,-1.6854043006896973,-0.0,2.182312488555908,4.455408259029053,0.0,0.28919321298599243,-1.4211018721209925,0.0,-0.03293933719396591,0.4665125012397766,-0.0,-0.014004901051521301,1.1827915906906128,0.0,-0.015431826934218407
276.0,493.0,3.804,0.2991,8.0853,-0.0377,0.0244,-0.1165,-1.634688516656393,0.0,2.4854283332824707,-1.685400128364563,-0.0,2.1418919563293457,4.455465002650879,0.0,0.2742310166358948,-1.421109978352682,0.0,-0.0312759093940258,0.46656084060668945,-0.0,-0.014248043298721313,1.1828322410583496,0.0,0.02127634361386299
276.0,493.0,3.804,0.2991,8.0853,-0.0377,0.0244,-0.1165,-1.6346718273558558,0.0,2.417217254638672,-1.6853888034820557,-0.0,2.20713472366333,4.455347700709961,0.0,0.2909703254699707,-1.421065632496969,0.0,-0.03925783187150955,0.466597318649292,-0.0,0.002444423735141754,1.182803988456726,0.0,-0.011154130101203918
276.0,493.0,3.804,0.2991,8.0853,-0.0377,0.0244,-0.1165,-1.634700437585348,0.0,2.4360110759735107,-1.6854490041732788,-0.0,2.1369974613189697,4.455444498653076,0.0,0.29052653908729553,-1.4210737387286585,0.0,-0.03791428729891777,0.466548889875412,-0.0,0.0053278785198926926,1.182792067527771,0.0,-0.034404270350933075
276.0,493.0,3.804,0.2991,8.0853,-0.0377,0.0244,-0.1165,-1.634688516656393,0.0,2.4446206092834473,-1.6853525638580322,-0.0,2.133305549621582,4.4553796487995605,0.0,0.29385682940483093,-1.4210737387286585,0.0,-0.041484348475933075,0.46657729148864746,-0.0,0.0025215353816747665,1.1828523874282837,0.0,-0.03748638927936554
276.0,493.0,3.804,0.2991,8.0853,-0.0377,0.0244,-0.1165,-1.6347080669798792,0.0,2.4536681175231934,-1.6853888034820557,-0.0,2.196495771408081,4.455375834102295,0.0,0.2904021143913269,-1.4211137930499476,0.0,-0.026096105575561523,0.46656492352485657,-0.0,-0.010440846905112267,1.1828322410583496,0.0,0.025776706635951996
276.0,493.0,3.804,0.2991,8.0853,-0.0377,0.0244,-0.1165,-1.634712358514303,0.0,2.4444985389709473,-1.6853325366973877,-0.0,2.100944995880127,4.455412073726318,0.0,0.28263258934020996,-1.4210775534259241,0.0,-0.029568882659077644,0.46656492352485657,-0.0,-0.008803792297840118,1.1828322410583496,0.0,-0.01881791464984417
276.0,493.0,3.804,0.2991,8.0853,-0.0377,0.0244,-0.1165,-1.6346641979613246,0.0,2.41393780708313,-1.6854686737060547,-0.0,2.1680092811584473,4.455456419582031,0.0,0.28704237937927246,-1.4211261908160608,0.0,-0.022041739895939827,0.46650058031082153,-0.0,-0.0024072732776403427,1.182812213897705,0.0,0.00014763232320547104
276.0,493.0,3.804,0.2991,8.0853,-0.0377,0.0244,-0.1165,-1.6346637211241664,0.0,2.4225690364837646,-1.6854206323623657,-0.0,2.16579270362854,4.4553796487995605,0.0,0.2829630374908447,-1.421081844960348,0.0,-0.025907129049301147,0.4665367603302002,-0.0,0.00958332046866417,1.1828325986862183,0.0,0.01178140752017498
276.0,493.0,3.804,0.2991,8.0853,-0.0377,0.0244,-0.1165,-1.6346761188902796,0.0,2.4563066959381104,-1.6853481531143188,-0.0,2.1489808559417725,4.455444498653076,0.0,0.2837226390838623,-1.4211180845843714,0.0,-0.030515257269144058,0.46656492352485657,-0.0,0.007209639996290207,1.182840347290039,0.0,-0.0352446474134922
276.0,493.0,3.804,0.2991,8.0853,-0.0377,0.0244,-0.1165,-1.6347204647459925,0.0,2.4394168853759766,-1.685380458831787,-0.0,2.1644835472106934,4.455399675960205,0.0,0.2912185788154602,-1.4211261908160608,0.0,-0.0322408489882946,0.466488778591156,-0.0,-0.015298263169825077,1.1828203201293945,0.0,0.00898823607712984
276.0,493.0,3.804,0.2991,8.0853,-0.0377,0.0244,-0.1165,-1.6346637211241664,0.0,2.4474096298217773,-1.6853969097137451,-0.0,2.1892104148864746,4.455391569728516,0.0,0.29822883009910583,-1.4211013952838343,0.0,-0.009632798843085766,0.46656492352485657,-0.0,-0.0075154490768909454,1.1828604936599731,0.0,0.004858313128352165
276.0,493.0,3.804,0.2991,8.0853,-0.0377,0.0244,-0.1165,-1.6346961460509242,0.0,2.4541983604431152,-1.6854043006896973,-0.0,2.1498191356658936,4.4554359155842285,0.0,0.28124910593032837,-1.4211261908160608,0.0,-0.014973094686865807,0.466520756483078,-0.0,0.006133982911705971,1.1828322410583496,0.0,-0.035679690539836884
276.0,493.0,3.804,0.2991,8.0853,-0.0377,0.0244,-0.1165,-1.6346761188902796,0.0,2.426908493041992,-1.6853681802749634,-0.0,2.203869342803955,4.455383463496826,0.0,0.2854956388473511,-1.4210894743548792,0.0,-0.014659726992249489,0.4665612578392029,-0.0,0.0008424755651503801,1.182840347290039,0.0,0.012249011546373367
276.0,557.0,3.8046,0.2405,8.5412,-0.036,0.0191,-0.1232,-1.634712358514303,0.0,2.4163994789123535,-1.6854124069213867,-0.0,2.1290791034698486,4.455403967494629,0.0,0.2874051332473755,-1.4211013952838343,0.0,-0.02856433019042015,0.4665006101131439,-0.0,-0.01062823086977005,1.1828322410583496,0.0,-0.0471310019493103
276.0,557.0,3.8046,0.2405,8.5412,-0.036,0.0191,-0.1232,-1.634712358514303,0.0,2.4541873931884766,-1.6853764057159424,-0.0,2.1741843223571777,4.455444498653076,0.0,0.2918137311935425,-1.4210694471942347,0.0,-0.02774408459663391,0.4665932357311249,-0.0,-0.0006340176332741976,1.1828325986862183,0.0,-0.02702277898788452
276.0,557.0,3.8046,0.2405,8.5412,-0.036,0.0191,-0.1232,-1.6346594295897425,0.0,2.444678783416748,-1.6853400468826294,-0.0,2.1522579193115234,4.455416365260742,0.0,0.29014813899993896,-1.4211180845843714,0.0,-0.02086358331143856,0.4665285348892212,-0.0,-0.0019562579691410065,1.1827839612960815,0.0,0.030106674879789352
276.0,557.0,3.8046,0.2405,8.5412,-0.036,0.0191,-0.1232,-1.634700437585348,0.0,2.4361155033111572,-1.6853969097137451,-0.0,2.157764434814453,4.455375834102295,0.0,0.27187928557395935,-1.4210737387286585,0.0,-0.036043569445610046,0.4665285348892212,-0.0,-0.011298909783363342,1.1828445196151733,0.0,0.04942755401134491
276.0,557.0,3.8046,0.2405,8.5412,-0.036,0.0191,-0.1232,-1.6346761188902796,0.0,2.47564959526062,-1.6854166984558105,-0.0,2.1775031089782715,4.455452604884766,0.0,0.28756430745124817,-1.4211018721209925,0.0,-0.023670725524425507,0.46649283170700073,-0.0,0.004535733722150326,1.1827962398529053,0.0,-0.004603643901646137
276.0,557.0,3.8046,0.2405,8.5412,-0.036,0.0191,-0.1232,-1.6346761188902796,0.0,2.44004487991333,-1.6853969097137451,-0.0,2.178611993789673,4.455375834102295,0.0,0.28349316120147705,-1.4210894743548792,0.0,-0.024279596284031868,0.46657314896583557,-0.0,-0.001466515939682722,1.182812213897705,0.0,-0.01395377703011036
276.0,557.0,3.8046,0.2405,8.5412,-0.036,0.0191,-0.1232,-1.6346961460509242,0.0,2.4302148818969727,-1.6853805780410767,-0.0,2.16748309135437,4.45536391317334,0.0,0.2831672430038452,-1.4211261908160608,0.0,-0.02232542634010315,0.4665325880050659,-0.0,-0.005790100432932377,1.182783842086792,0.0,0.042139437049627304
276.0,557.0,3.8046,0.2405,8.5412,-0.036,0.0191,-0.1232,-1.6346799335875453,0.0,2.42747163772583,-1.685408353805542,-3.116525840596296e-05,2.1876144409179688,4.455399675960205,0.0,0.28766804933547974,-1.4211013952838343,0.0,-0.034041907638311386,0.4665084779262543,-0.0,-0.0017545247683301568,1.1828322410583496,0.0,0.028927162289619446
276.0,557.0,3.8046,0.2405,8.5412,-0.036,0.0191,-0.1232,-1.6347042522826136,0.0,2.414332866668701,-1.6853643655776978,-2.8232923796167597e-05,2.1620535850524902,4.455351992244385,0.0,0.28434744477272034,-1.4211018721209925,0.0,-0.02451348677277565,0.4665972590446472,-0.0,0.0004812491242773831,1.1828563213348389,0.0,0.04038303345441818
276.0,557.0,3.8046,0.2405,8.5412,-0.036,0.0191,-0.1232,-1.6347161732115687,0.0,2.4256505966186523,-1.6853888034820557,-2.6566131055005826e-05,2.1345090866088867,4.455444021815918,0.0,0.29491835832595825,-1.4210813681231897,0.0,-0.019106490537524223,0.46660545468330383,-0.0,0.0008952284697443247,1.1828243732452393,0.0,0.03623358905315399
276.0,557.0,3.8046,0.2405,8.5412,-0.036,0.0191,-0.1232,-1.6346966228880824,0.0,2.4457874298095703,-1.6853969097137451,-3.953307015081009e-08,2.1682236194610596,4.455432100886963,0.0,0.2898852229118347,-1.421138111745016,0.0,-0.033485375344753265,0.46656906604766846,-0.0,-0.008001347072422504,1.182812213897705,0.0,0.012912759557366371
276.0,557.0,3.8046,0.2405,8.5412,-0.036,0.0191,-0.1232,-1.6346761188902796,0.0,2.4547505378723145,-1.6854249238967896,-9.546770790352585e-14,2.187511920928955,4.45538775503125,0.0,0.28310441970825195,-1.4210737387286585,0.0,-0.02952508255839348,0.4665612578392029,-0.0,0.007088390178978443,1.1827880144119263,0.0,0.032349683344364166
276.0,557.0,3.8046,0.2405,8.5412,-0.036,0.0191,-0.1232,-1.634688516656393,0.0,2.4156601428985596,-1.6854010820388794,-2.3054327588010706e-19,2.2186598777770996,4.455448313350342,0.0,0.29912447929382324,-1.4210894743548792,0.0,-0.016467241570353508,0.466548889875412,-0.0,0.0038650908973068,1.1827839612960815,0.0,-0.027640823274850845
276.0,557.0,3.8046,0.2405,8.5412,-0.036,0.0191,-0.1232,-1.634688516656393,0.0,2.4212141036987305,-1.6853969097137451,-5.567349353780424e-25,2.160743236541748,4.455395861262939,0.0,0.27536776661872864,-1.4210932890521448,0.0,-0.02820737659931183,0.46655675768852234,-0.0,-0.008842278271913528,1.1828404664993286,0.0,0.0037034591659903526
276.0,557.0,3.8046,0.2405,8.5412,-0.036,0.0191,-0.1232,-1.6347042522826136,0.0,2.4028947353363037,-1.685433030128479,-1.3444493763800997e-30,2.1242809295654297,4.455408259029053,0.0,0.28963223099708557,-1.4211657683001917,0.0,-0.023236200213432312,0.46654483675956726,-0.0,0.007798823993653059,1.1828243732452393,0.0,0.025597140192985535
276.0,557.0,3.8046,0.2405,8.5412,-0.036,0.0191,-0.1232,-1.6346718273558558,-2.949292934317782e-07,2.4735403060913086,-1.6853969097137451,-3.2466872006039783e-36,2.152066707611084,4.45541970312085,-4.252703078577724e-08,0.2840264141559601,-1.4211538473712366,0.0,-0.033146582543849945,0.46654483675956726,-0.0,-0.0037633548490703106,1.1828362941741943,0.0,-0.004382182843983173
272.0,527.0,3.8919,0.0371,8.3013,0.0073,0.029,-0.0947,-1.634639402429098,-7.122196170501749e-13,2.411642074584961,-1.6853446960449219,-7.840264907897352e-42,2.180238962173462,4.455468340510986,-1.1837556108951208e-11,0.2890699505805969,-1.4211457411395472,0.0,-0.03268887475132942,0.4665489196777344,-0.0,0.008105417713522911,1.1828964948654175,-4.617536630835417e-10,0.026617547497153282
272.0,527.0,3.8919,0.0371,8.3013,0.0073,0.029,-0.0947,-1.6346398792662562,-1.2819700719883986e-16,2.416606903076172,-1.6853886842727661,-1.401298464324817e-45,2.143906593322754,4.455451651210449,-5.0465355635673226e-14,0.2882606089115143,-1.421133820210592,0.0,-0.022568225860595703,0.46659737825393677,-0.0,-0.00392218679189682,1.1828722953796387,0.0014024866977706552,0.006643390282988548
272.0,527.0,3.8919,0.0371,8.3013,0.0073,0.029,-0.0947,-1.6346680126585902,-3.0958067461912974e-22,2.4463002681732178,-1.6853846311569214,0.0008023491827771068,2.1656181812286377,4.455468340510986,-1.4047217558322468e-17,0.28492966294288635,-1.42116624513735,0.0,-0.020728040486574173,0.466520756483078,-0.0,-0.015392705798149109,1.182860016822815,0.00140568264760077,-0.03255580738186836
272.0,527.0,3.8919,0.0371,8.3013,0.0073,0.029,-0.0947,-1.6346403561034144,-7.476008895021777e-28,2.3961257934570312,-1.6853525638580322,0.0006473564426414669,2.162627696990967,4.455495997066162,-3.910094872441666e-21,0.2855542004108429,-1.4211738745318812,0.0,-0.03457313030958176,0.4665248692035675,-0.0,-0.006763441488146782,1.182876467704773,0.0007899434422142804,0.016593467444181442
272.0,527.0,3.8919,0.0371,8.3013,0.0073,0.029,-0.0947,-1.6346641979613246,-1.805368305031025e-33,2.4364497661590576,-1.685380458831787,0.00020433581084944308,2.1652002334594727,4.455415411586426,-1.0883891229583275e-24,0.2789231240749359,-1.42119008699526,0.0,-0.021879393607378006,0.46658506989479065,-0.0,-0.017978090792894363,1.182916522026062,0.0005488723400048912,-0.004106652922928333
272.0,527.0,3.8919,0.0371,8.3013,0.0073,0.029,-0.0947,-1.6346799335875453,-4.3597520120720503e-39,2.454291820526123,-1.6853643655776978,7.940473005874082e-05,2.199176788330078,4.45544354497876,-3.0295706175087306e-28,0.29678234457969666,-1.4211495558368128,0.0,-0.0247432179749012,0.4665124714374542,-0.0,-0.01313798874616623,1.1828796863555908,0.0005523039144463837,-0.027407772839069366
272.0,527.0,3.8919,0.0371,8.3013,0.0073,0.029,-0.0947,-1.634688516656393,-1.1210387714598537e-44,2.445523262023926,-1.6853886842727661,6.076079807826318e-05,2.1522903442382812,4.455459757442139,-8.432920653413463e-32,0.2817226052284241,-1.4211657683001917,0.0,-0.04085659980773926,0.46653246879577637,-0.0,-0.0032277358695864677,1.182956337928772,0.0005330297281034291,0.0030623998027294874
272.0,527.0,3.8919,0.0371,8.3013,0.0073,0.029,-0.0947,-1.634683748284811,0.0,2.481370449066162,-1.6853324174880981,0.00010105122055392712,2.150237560272217,4.455423517818115,-2.3473345098552634e-35,0.2869233191013336,-1.4211538473712366,0.0,-0.03200849890708923,0.46656909584999084,-0.0,-0.0004289261996746063,1.1829445362091064,0.0022118124179542065,-0.05785132199525833
272.0,527.0,3.8919,0.0371,8.3013,0.0073,0.029,-0.0947,-1.6347643337645472,0.0,2.4688079357147217,-1.6853203773498535,0.00017120003758464009,2.130819797515869,4.455451651210449,-6.533891802844362e-39,0.27887392044067383,-1.421150032673971,0.0,-0.02851247228682041,0.46656492352485657,-0.0,-0.0073031228967010975,1.1830002069473267,0.005711689591407776,0.03288017213344574
272.0,527.0,3.8919,0.0371,8.3013,0.0073,0.029,-0.0947,-1.6347118816771449,-0.000849179457873106,2.4345898628234863,-1.6853688955307007,0.00015388485917355865,2.18034029006958,4.4554640489765625,-1.8188854066936126e-42,0.2907920181751251,-1.4211695829974573,0.0,-0.032078392803668976,0.46655717492103577,-0.0,-0.007508991286158562,1.183067798614502,0.011678815819323063,0.03734508156776428
272.0,527.0,3.8919,0.0371,8.3013,0.0073,0.029,-0.0947,-1.6347805462279261,-0.0008754432201385498,2.4667441844940186,-1.6853164434432983,0.00018581189215183258,2.1651182174682617,4.4554640489765625,-8.407790785948902e-45,0.2851155996322632,-1.421150032673971,0.0,-0.017362885177135468,0.46657317876815796,-0.0,0.001556697185151279,1.1831276416778564,0.01563037931919098,0.07307496666908264
272.0,527.0,3.8919,0.0371,8.3013,0.0073,0.029,-0.0947,-1.6347724399962367,-0.0011647753417491913,2.449673652648926,-1.6852961778640747,0.0005893766065128148,2.1682300567626953,4.455487890834473,-0.0,0.29480764269828796,-1.4211419264422815,0.0,-0.03621906414628029,0.4665084481239319,-0.0,-0.011109812185168266,1.1832034587860107,0.019491534680128098,0.05937284231185913
272.0,527.0,3.8919,0.0371,8.3013,0.0073,0.029,-0.0947,-1.6347924671568812,-0.0010761156445369124,2.4583356380462646,-1.6853606700897217,0.0007111490122042596,2.1298749446868896,4.455467863673828,0.00011890581663465127,0.28579479455947876,-1.4211419264422815,0.0,-0.020937198773026466,0.4665165841579437,-0.0,0.00234974198974669,1.1833276748657227,0.021493732929229736,0.05790477991104126
272.0,527.0,3.8919,0.0371,8.3013,0.0073,0.029,-0.0947,-1.6347843609251917,-0.000977459829300642,2.4577648639678955,-1.6853410005569458,0.0006989812245592475,2.20268177986145,4.455488367671631,0.00011023197293980047,0.2922137975692749,-1.421121899281637,0.0,-0.022532617673277855,0.46655309200286865,-0.0,0.00019535154569894075,1.1834791898727417,0.021699126809835434,0.011996111832559109
272.0,527.0,3.8919,0.0371,8.3013,0.0073,0.029,-0.0947,-1.6347962818541468,-0.0011418252252042294,2.4442005157470703,-1.6852961778640747,-0.0001281460718018934,2.186884880065918,4.455472155208252,0.00010268558253301308,0.28151005506515503,-1.4211581389056605,0.0,-0.024574117735028267,0.46660545468330383,-0.0,0.0025903270579874516,1.1835743188858032,0.020451687276363373,0.03451366722583771
272.0,527.0,3.8919,0.0371,8.3013,0.0073,0.029,-0.0947,-1.6347600422301234,-0.001484252279624343,2.4381003379821777,-1.6853766441345215,-0.00033605031785555184,2.1763782501220703,4.4554640489765625,9.610620327293873e-05,0.28738608956336975,-1.4211776892291468,0.0,-0.015026233159005642,0.46656492352485657,-0.0,-0.0110743697732687,1.1836827993392944,0.017819881439208984,0.03299584984779358
272.0,527.0,3.8919,0.0371,8.3013,0.0073,0.029,-0.0947,-1.6348239384093226,-0.0022957492619752884,2.4249308109283447,-1.6853606700897217,-0.00024464918533340096,2.1442275047302246,4.455479784602783,9.031918307300657e-05,0.2965604364871979,-1.4211934248553675,0.0,-0.015860360115766525,0.466580867767334,-0.0,0.008697173558175564,1.1838222742080688,0.01555449515581131,0.04237166792154312
279.0,510.0,4.1204,-0.128,8.5944,-0.0814,-0.0034,-0.1263,-1.6348115406432093,-0.003400169312953949,2.4195878505706787,-1.6853806972503662,-0.00019234638602938503,2.204141139984131,4.455472155208252,8.518959657521918e-05,0.28536999225616455,-1.421133820210592,0.0,-0.02856927365064621,0.4665166139602661,-0.0,-0.00602331617847085,1.1838700771331787,0.012365070171654224,0.0035671722143888474
279.0,510.0,4.1204,-0.128,8.5944,-0.0814,-0.0034,-0.1263,-1.6348639927306117,-0.004387816414237022,2.4603214263916016,-1.685312271118164,-0.00015847203030716628,2.1913022994995117,4.455503626460693,8.061141852522269e-05,0.29592305421829224,-1.421121899281637,0.0,-0.02548350766301155,0.4665165841579437,-0.0,0.0006221939111128449,1.1838897466659546,0.009103389456868172,0.04425348341464996
279.0,510.0,4.1204,-0.128,8.5944,-0.0814,-0.0034,-0.1263,-1.6349126301207484,-0.005041938740760088,2.451134204864502,-1.6853411197662354,-0.00018901604926213622,2.180567741394043,4.455423994655273,7.782314060023054e-05,0.2912956178188324,-1.421150032673971,0.0,-0.026218580082058907,0.4665166139602661,-0.0,-0.0049014161340892315,1.1839700937271118,0.005971473176032305,0.016277294605970383
279.0,510.0,4.1204,-0.128,8.5944,-0.0814,-0.0034,-0.1263,-1.6349393330016078,-0.005595409777015448,2.4459996223449707,-1.685348391532898,-0.00020418711937963963,2.1443803310394287,4.455484076137207,7.398464367724955e-05,0.29021015763282776,-1.4211657683001917,0.0,-0.025202380493283272,0.4665489196777344,-0.0,0.0007480289787054062,1.1839499473571777,0.002071009948849678,0.02095184661448002
279.0,510.0,4.1204,-0.128,8.5944,-0.0814,-0.0034,-0.1263,-1.6350003681578578,-0.005480242893099785,2.4685418605804443,-1.685348391532898,-0.0002215393033111468,2.2021727561950684,4.455484076137207,7.050702697597444e-05,0.3017553389072418,-1.4211819807635706,0.0,-0.034652650356292725,0.46654483675956726,-0.0,-0.005528160370886326,1.1839622259140015,0.0009715234627947211,-0.021372171118855476
279.0,510.0,4.1204,-0.128,8.5944,-0.0814,-0.0034,-0.1263,-1.634963174859518,-0.004788745194673538,2.479745388031006,-1.6853725910186768,-0.000227086478844285,2.176417827606201,4.455439253444336,6.734165799571201e-05,0.29670923948287964,-1.4211738745318812,0.0,-0.029642827808856964,0.46656906604766846,-0.0,-0.008989866822957993,1.1839098930358887,0.00010553937318036333,0.008793776854872704
279.0,510.0,4.1204,-0.128,8.5944,-0.0814,-0.0034,-0.1263,-1.6350437603392542,-0.0033494678791612387,2.4794845581054688,-1.6853969097137451,-0.00023942897678352892,2.1329312324523926,4.45543543874707,6.444829341489822e-05,0.2925194501876831,-1.4211939016925257,0.0,-0.01840326376259327,0.466512531042099,-0.0,-0.011788418516516685,1.1838655471801758,7.203501128927314e-10,0.016722919419407845
279.0,510.0,4.1204,-0.128,8.5944,-0.0814,-0.0034,-0.1263,-1.6350718937315882,-0.0022585680708289146,2.4629170894622803,-1.6853365898132324,-0.0004184901772532612,2.188890218734741,4.455439253444336,6.179328192956746e-05,0.2819534242153168,-1.4211457411395472,0.0,-0.015637483447790146,0.46655675768852234,-0.0,-0.006330685690045357,1.1838458776474,-0.0005733926082029939,-0.01673382893204689
279.0,510.0,4.1204,-0.128,8.5944,-0.0814,-0.0034,-0.1263,-1.6350437603392542,-0.001910357503220439,2.4721169471740723,-1.6854249238967896,-0.00032889749854803085,2.151386260986328,4.455455942744873,5.9348411014070734e-05,0.298079252243042,-1.4211223761187952,0.0,-0.025349628180265427,0.46656909584999084,-0.0,-0.01548725739121437,1.183866024017334,-0.0020446893759071827,-0.014379169791936874
279.0,510.0,4.1204,-0.128,8.5944,-0.0814,-0.0034,-0.1263,-1.6350475750365199,-0.0014851484447717667,2.439483165740967,-1.685416579246521,-0.00026974090724252164,2.161342144012451,4.45544354497876,5.708967728423886e-05,0.2917378544807434,-1.4210775534259241,0.0,-0.026678647845983505,0.4665006101131439,-0.0,-0.013483520597219467,1.1838501691818237,-0.0026046368293464184,0.024437982589006424
279.0,510.0,4.1204,-0.128,8.5944,-0.0814,-0.0034,-0.1263,-1.6350475750365199,-0.0011671095853671432,2.3963449001312256,-1.6853641271591187,-0.00024086121993605047,2.116595983505249,4.455459757442139,5.567698826780543e-05,0.2981972396373749,-1.4210618177997034,0.0,-0.034770090132951736,0.4664965271949768,-0.0,-0.005034877452999353,1.1837977170944214,-0.0032976523507386446,0.004758438561111689
279.0,510.0,4.1204,-0.128,8.5944,-0.0814,-0.0034,-0.1263,-1.6350556812682093,-0.0007170599419623613,2.4786572456359863,-1.6854124069213867,-0.00020753331773448735,2.1402478218078613,4.455472155208252,5.3684354497818276e-05,0.2979224920272827,-1.421105686818258,0.0,-0.043859172612428665,0.4665571451187134,-0.0,-0.0017468358855694532,1.18375825881958,-0.003248638706281781,0.01821652054786682
279.0,510.0,4.1204,-0.128,8.5944,-0.0814,-0.0034,-0.1263,-1.6350599728026332,-0.0005968644400127232,2.4484333992004395,-1.6853805780410767,-0.00018230864952784032,2.1563267707824707,4.455480261439941,5.182944005355239e-05,0.28161007165908813,-1.4210737387286585,0.0,-0.015524409711360931,0.466548889875412,-0.0,0.0015013287775218487,1.183786392211914,-0.002587355673313141,-0.001689019612967968
279.0,510.0,4.1204,-0.128,8.5944,-0.0814,-0.0034,-0.1263,-1.6351076565184535,-0.00046550031402148306,2.4310030937194824,-1.6853928565979004,-0.0001625511795282364,2.1334972381591797,4.455491705531738,5.994808452669531e-05,0.2955463230609894,-1.4211624304400843,0.0,-0.028034832328557968,0.4665489196777344,-0.0,0.001147931907325983,1.1837983131408691,-0.0016554991016164422,-0.01278955489397049
279.0,510.0,4.1204,-0.128,8.5944,-0.0814,-0.0034,-0.1263,-1.6350676021971644,-0.00038102277903817594,2.461723804473877,-1.6854249238967896,-0.00011734264262486249,2.154250144958496,4.455459757442139,1.284317221461606e-07,0.2934793531894684,-1.4210894743548792,0.0,-0.029082076624035835,0.46654483675956726,-0.0,-0.003930691629648209,1.1837704181671143,-0.0007950032013468444,-0.012480603531002998
279.0,510.0,4.1204,-0.128,8.5944,-0.0814,-0.0034,-0.1263,-1.6350428066649378,-0.00036849413299933076,2.4585964679718018,-1.685360312461853,-0.00010687653411878273,2.1988039016723633,4.455459757442139,3.574944160145144e-11,0.29425048828125,-1.421109978352682,0.0,-0.031439900398254395,0.46663346886634827,-0.0,-0.01022123359143734,1.1837623119354248,-0.0005194044788368046,0.0075411200523376465
280.0,531.0,3.7938,-0.1035,8.5711,-0.0441,0.0142,-0.1176,-1.635099550286764,-0.0003177148464601487,2.453617572784424,-1.6853967905044556,-7.361563621088862e-05,2.1496448516845703,4.455439253444336,9.95098965115562e-15,0.29646390676498413,-1.421109978352682,0.0,-0.0314541719853878,0.46656084060668945,-0.0,-0.003119528293609619,1.1838017702102661,-0.0003857596020679921,-0.037571392953395844
280.0,531.0,3.7938,-0.1035,8.5711,-0.0441,0.0142,-0.1176,-1.6350957355894984,-0.0011471817269921303,2.447112560272217,-1.6853324174880981,-6.8037879827898e-05,2.207897186279297,4.455536051387451,6.724780541844666e-05,0.2953137457370758,-1.4210975805865687,0.0,-0.029110386967658997,0.46655717492103577,-0.0,-0.011240965686738491,1.1837742328643799,-0.0003068289370276034,0.0014294199645519257
280.0,531.0,3.7938,-0.1035,8.5711,-0.0441,0.0142,-0.1176,-1.6351319752135218,-0.0018066883785650134,2.427502393722534,-1.685328722000122,-6.325589492917061e-05,2.213914394378662,4.455547972316406,7.732768426649272e-05,0.2986157238483429,-1.4211180845843714,0.0,-0.04108892381191254,0.4665325880050659,-0.0,-0.0026187028270214796,1.1838023662567139,-0.000203778050490655,0.012148933485150337
280.0,531.0,3.7938,-0.1035,8.5711,-0.0441,0.0142,-0.1176,-1.6351319752135218,-0.0021969368681311607,2.4630298614501953,-1.685348391532898,-6.042456880095415e-05,2.1699299812316895,4.455511732692383,8.752387657295913e-05,0.29013219475746155,-1.4211018721209925,0.0,-0.036734454333782196,0.4666252136230469,-0.0,0.0015064605977386236,1.1838099956512451,-0.00018304884724784642,0.04282909259200096
280.0,531.0,3.7938,-0.1035,8.5711,-0.0441,0.0142,-0.1176,-1.6351644001402796,-0.0021796487271785736,2.4584741592407227,-1.6853846311569214,4.5990102080395445e-05,2.1781744956970215,4.455523653621338,9.644369856687263e-05,0.3000503480434418,-1.4211457411395472,0.0,-0.034308772534132004,0.46659722924232483,-0.0,0.013208175078034401,1.1838181018829346,-0.00015882078150752932,0.02844506874680519
280.0,531.0,3.7938,-0.1035,8.5711,-0.0441,0.0142,-0.1176,-1.6351834736266078,-0.002955199219286442,2.4944944381713867,-1.6853808164596558,4.3947595258941874e-05,2.201124906539917,4.455475493068359,0.0003557291638571769,0.2969166338443756,-1.421093765889303,0.0,-0.03986995294690132,0.466589093208313,-0.0,0.0037768096663057804,1.1837983131408691,-0.0001402565831085667,0.03567499667406082
280.0,531.0,3.7938,-0.1035,8.5711,-0.0441,0.0142,-0.1176,-1.6351796589293421,-0.0034537764731794596,2.4613635540008545,-1.6853688955307007,4.094828909728676e-05,2.2056941986083984,4.455571814174316,0.0003447499475441873,0.3010244071483612,-1.4211261908160608,0.0,-0.036024611443281174,0.46656858921051025,-0.0,0.002212545834481716,1.1838222742080688,-0.00012557810987345874,0.04258299246430397
280.0,531.0,3.7938,-0.1035,8.5711,-0.0441,0.0142,-0.1176,-1.6352693043150843,-0.004337418358772993,2.4483790397644043,-1.6853806972503662,3.8332236727001145e-05,2.164989471435547,4.455527945155762,0.0002896985679399222,0.29961124062538147,-1.4210737387286585,0.0,-0.05210708826780319,0.46653252840042114,-0.0,0.015015358105301857,1.1838099956512451,-0.00011368119885446504,-0.012618371285498142
280.0,531.0,3.7938,-0.1035,8.5711,-0.0441,0.0142,-0.1176,-1.6352392635741175,-0.005985061638057232,2.4431047439575195,-1.6854091882705688,3.6030367482453585e-05,2.1388113498687744,4.455523653621338,0.00028023519553244114,0.31302520632743835,-1.4211013952838343,0.0,-0.04129587858915329,0.46655258536338806,-0.0,0.01211847085505724,1.1838023662567139,-0.00010384363849880174,-0.0391053706407547
280.0,531.0,3.7938,-0.1035,8.5711,-0.0441,0.0142,-0.1176,-1.6352836094298304,-0.007004143204540014,2.4319448471069336,-1.6853406429290771,3.398930493858643e-05,2.1596126556396484,4.4555393892475585,0.0002556612598709762,0.31321558356285095,-1.4210975805865687,0.0,-0.034172311425209045,0.4665849506855011,-0.0,0.021844645962119102,1.1838140487670898,-9.557297744322568e-05,0.020392071455717087
280.0,531.0,3.7938,-0.1035,8.5711,-0.0441,0.0142,-0.1176,-1.6353150806822718,-0.007279791869223118,2.444854259490967,-1.685356616973877,3.2167110475711524e-05,2.1087393760681152,4.455516024226807,0.00025934542645700276,0.30563467741012573,-1.421093765889303,0.0,-0.04154052212834358,0.4666411578655243,-0.0,0.017850739881396294,1.1837419271469116,-8.852258906699717e-05,0.003298280294984579
280.0,531.0,3.7938,-0.1035,8.5711,-0.0441,0.0142,-0.1176,-1.6354042492308558,-0.007128567434847355,2.474963426589966,-1.6853725910186768,3.053033651667647e-05,2.1707534790039062,4.4555274683186035,0.00023496696667280048,0.29610052704811096,-1.421121899281637,0.0,-0.06116882711648941,0.46656492352485657,-0.0,0.0005612317472696304,1.1837902069091797,-8.244103082688525e-05,0.010937863029539585
280.0,531.0,3.7938,-0.1035,8.5711,-0.0441,0.0142,-0.1176,-1.6354075870909632,-0.007305643521249294,2.430643081665039,-1.6853406429290771,4.422416532179341e-05,2.1939237117767334,4.455539866084717,0.0002205694909207523,0.3068285882472992,-1.4211013952838343,0.0,-0.04532647132873535,0.4666169285774231,-0.0,0.017710894346237183,1.1837942600250244,-7.883064972702414e-05,-0.0010767490603029728
280.0,531.0,3.7938,-0.1035,8.5711,-0.0441,0.0142,-0.1176,-1.6354276142516078,-0.007113604806363583,2.4213948249816895,-1.685364842414856,4.2215433495584875e-05,2.158146858215332,4.455536051387451,0.00020200302242301404,0.29035496711730957,-1.4211342970477503,0.0,-0.04060671105980873,0.4666370749473572,-2.1349519929714234e-09,0.028288371860980988,1.1838059425354004,-7.397129229502752e-05,-0.042632654309272766
280.0,531.0,3.7938,-0.1035,8.5711,-0.0441,0.0142,-0.1176,-1.6354710064330042,-0.006562486290931702,2.4035959243774414,-1.6853365898132324,4.032400465803221e-05,2.1311779022216797,4.455523653621338,0.00018631972488947213,0.29729652404785156,-1.4211261908160608,0.0,-0.043659113347530365,0.4665968418121338,-5.94271702160365e-13,0.02337488904595375,1.1838059425354004,-6.967630906729028e-05,0.003442649729549885
280.0,531.0,3.7938,-0.1035,8.5711,-0.0441,0.0142,-0.1176,-1.6354996166624964,-0.005997763946652412,2.3765084743499756,-1.6853886842727661,3.8594800571445376e-05,2.208940267562866,4.455507917995117,0.00017289673269260675,0.3058242201805115,-1.4210975805865687,0.0,-0.055613331496715546,0.4666009247303009,-1.6541768630911295e-16,0.03622165694832802,1.1838382482528687,-6.585270602954552e-05,0.002025641966611147
277.0,542.0,3.7633,0.4504,8.5017,-0.0405,0.0348,-0.1225,-1.635543008843893,-0.004498362075537443,2.412493944168091,-1.6853446960449219,4.934376556775533e-05,2.192305088043213,4.455515547389648,0.00016127766866702586,0.3080328702926636,-1.4211180845843714,0.0,-0.055299025028944016,0.46659722924232483,-4.604462105685215e-20,0.031200360506772995,1.1838222742080688,-6.242687231861055e-05,-0.019704323261976242
277.0,542.0,3.7633,0.4504,8.5017,-0.0405,0.0348,-0.1225,-1.6355916462340296,-0.0030555324628949165,2.4076616764068604,-1.6853002309799194,5.908259845455177e-05,2.183108329772949,4.455511732692383,0.00015112210530787706,0.30047422647476196,-1.4210737387286585,0.0,-0.04816734418272972,0.4665808379650116,-1.2816688602580912e-23,0.03417593985795975,1.1838140487670898,-5.9339978179195896e-05,-0.02283346839249134
277.0,542.0,3.7633,0.4504,8.5017,-0.0405,0.0348,-0.1225,-1.635571142236227,-0.0019715612288564444,2.4354190826416016,-1.685320496559143,5.703835631720722e-05,2.1699271202087402,4.455523653621338,0.00011166494368808344,0.3056224584579468,-1.4211261908160608,0.0,-0.05153287947177887,0.4665563702583313,-3.567571828939516e-27,0.030751435086131096,1.1837742328643799,-5.6543925893493e-05,0.016404451802372932
277.0,542.0,3.7633,0.4504,8.5017,-0.0405,0.0348,-0.1225,-1.6355792484679164,-0.0015249591087922454,2.391170024871826,-1.6853327751159668,9.997829329222441e-05,2.159825325012207,4.455547972316406,0.00010389884118922055,0.31200075149536133,-1.4211342970477503,0.0,-0.06069347262382507,0.46658045053482056,-9.93046813026641e-31,0.029245253652334213,1.1837782859802246,-5.3999483498046175e-05,-0.010115601122379303
277.0,542.0,3.7633,0.4504,8.5017,-0.0405,0.0348,-0.1225,-1.6356197796263636,-0.001329808495938778,2.428896188735962,-1.6854133605957031,9.572496492182836e-05,2.1578052043914795,4.455507441157959,9.931264503393322e-05,0.29766231775283813,-1.421105686818258,0.0,-0.052094876766204834,0.46654483675956726,-4.2335138844696825e-33,0.054727330803871155,1.1837782859802246,-5.24267197761219e-05,-0.04963364452123642
277.0,542.0,3.7633,0.4504,8.5017,-0.0405,0.0348,-0.1225,-1.6355873546996058,-0.0009169402765110135,2.3938329219818115,-1.6853327751159668,8.998266275739297e-05,2.1738486289978027,4.455547972316406,9.314549970440567e-05,0.31350141763687134,-1.4211304823504847,0.0,-0.06567841023206711,0.4665890634059906,-1.1784140738817793e-36,0.041560180485248566,1.1837663650512695,-5.0232200010214e-05,-0.07439159601926804
277.0,542.0,3.7633,0.4504,8.5017,-0.0405,0.0348,-0.1225,-1.6356154880919398,-0.0008100155973806977,2.3919224739074707,-1.6853529214859009,0.00010163615661440417,2.1671714782714844,4.455543680781982,0.00010294026287738234,0.3044218420982361,-1.4211261908160608,0.0,-0.06386665999889374,0.4666288197040558,-3.280159445291532e-40,0.04103968292474747,1.1837745904922485,-4.8213980335276574e-05,-0.0032471551094204187
277.0,542.0,3.7633,0.4504,8.5017,-0.0405,0.0348,-0.1225,-1.6355954609312953,-0.000662958191242069,2.38162899017334,-1.685320496559143,9.641205542720854e-05,2.1470553874969482,4.455531283015869,9.94257497950457e-05,0.3212530016899109,-1.4211137930499476,0.0,-0.06318793445825577,0.46664923429489136,-9.10844001811131e-44,0.0498146191239357,1.18375825881958,-1.666687410306622e-07,-0.025736138224601746
277.0,542.0,3.7633,0.4504,8.5017,-0.0405,0.0348,-0.1225,-1.635599752465719,-0.0006372989155352116,2.4104361534118652,-1.6853808164596558,9.151058475254104e-05,2.1742544174194336,4.455511732692383,9.422175935469568e-05,0.30504629015922546,-1.421121899281637,0.0,-0.0501980222761631,0.46661651134490967,-0.0,0.04581288620829582,1.1837942600250244,-4.024854180408738e-13,-0.04553794860839844
277.0,542.0,3.7633,0.4504,8.5017,-0.0405,0.0348,-0.1225,-1.6356269321837367,-0.0005235691205598414,2.3825836181640625,-1.6853203773498535,0.00010158936493098736,2.1083312034606934,4.455531283015869,8.953498036134988e-05,0.307320237159729,-1.4211137930499476,0.0,-0.05725035071372986,0.4666328430175781,-0.0,0.05129432678222656,1.183750033378601,-9.719547973378243e-19,-0.020899396389722824
277.0,542.0,3.7633,0.4504,8.5017,-0.0405,0.0348,-0.1225,-1.6356116733946742,-0.0005429464508779347,2.448270082473755,-1.6853487491607666,9.69090178841725e-05,2.152740001678467,4.455539866084717,8.529231126885861e-05,0.31836193799972534,-1.421109978352682,0.0,-0.07916691899299622,0.46660876274108887,-0.0,0.06357891112565994,1.1838181018829346,-2.3471566214415154e-24,-0.03753539174795151
277.0,542.0,3.7633,0.4504,8.5017,-0.0405,0.0348,-0.1225,-1.6356312237181605,-0.0005967639735899866,2.431647777557373,-1.6852723360061646,0.00010568748257355765,2.12886643409729,4.455523653621338,8.14335944596678e-05,0.31511974334716797,-1.4211457411395472,0.0,-0.06223160773515701,0.466612845659256,-0.0,0.057603463530540466,1.1837986707687378,-5.6681066181960854e-30,-0.061760589480400085
277.0,542.0,3.7633,0.4504,8.5017,-0.0405,0.0348,-0.1225,-1.6356193027892054,-0.0006799470866099,2.425818681716919,-1.6853492259979248,0.00010139508231077343,2.139009475708008,4.455507441157959,7.790900417603552e-05,0.3182949423789978,-1.4211342970477503,0.0,-0.06661325693130493,0.46662071347236633,-0.0,0.05841215327382088,1.1837786436080933,-1.3687809500648999e-35,-0.03628545626997948
