ramyac6/ROB537/final_project/csv/bad/bad_156.csv
tof_0,tof_1,accelx,accely,accelz,gyrox,gyroy,gyroz,shoulder_lift_joint_position,shoulder_lift_joint_velocity,shoulder_lift_joint_effort,elbow_joint_position,elbow_joint_velocity,elbow_joint_effort,wrist_1_joint_position,wrist_1_joint_velocity,wrist_1_joint_effort,wrist_2_joint_position,wrist_2_joint_velocity,wrist_2_joint_effort,wrist_3_joint_position,wrist_3_joint_velocity,wrist_3_joint_effort,shoulder_pan_joint_position,shoulder_pan_joint_velocity,shoulder_pan_joint_effort
1063.0,398.0,1.1797,0.53,9.5432,-0.0441,0.0186,-0.128,-1.6803432903685511,6.317059887805954e-05,2.2007598876953125,-2.1786859035491943,6.029396172380075e-05,1.725705862045288,5.235821115761556,8.659568266011775e-05,0.2928798496723175,-1.6386273542987269,0.0,-0.006966948509216309,0.853570282459259,-0.0,-0.0024356241337955,0.5754702091217041,0.0,-0.023568514734506607
1063.0,398.0,1.1797,0.53,9.5432,-0.0441,0.0186,-0.128,-1.6803552112975062,5.902747216168791e-05,2.2126522064208984,-2.178678512573242,5.650831008097157e-05,1.7011245489120483,5.23584150055007,8.26208561193198e-05,0.295896977186203,-1.638639275227682,0.0,-0.0015434900997206569,0.8535382747650146,-0.0,0.0037802914157509804,0.5755789875984192,0.0,0.011651753447949886
1063.0,398.0,1.1797,0.53,9.5432,-0.0441,0.0186,-0.128,-1.6803356609740199,5.5394448281731457e-05,2.188720703125,-2.1786413192749023,5.316992610460147e-05,1.7125009298324585,5.235821115761556,7.899496267782524e-05,0.28823718428611755,-1.638679329548971,0.0,-0.005341585259884596,0.8534855842590332,-0.0,-0.006375809200108051,0.57554692029953,0.0,-0.002774217166006565
1063.0,398.0,1.1797,0.53,9.5432,-0.0441,0.0186,-0.128,-1.6803432903685511,6.825769378338009e-05,2.200269937515259,-2.178645372390747,4.928759517497383e-05,1.6869310140609741,5.235829281597891,7.462815119652078e-05,0.2833150029182434,-1.6387117544757288,0.0,-0.01293770782649517,0.8535022139549255,-0.0,-0.01611001044511795,0.575486421585083,0.0,-0.007271439768373966
1063.0,398.0,1.1797,0.53,9.5432,-0.0441,0.0186,-0.128,-1.6802951298155726,6.458411371568218e-05,2.1747992038726807,-2.178633451461792,4.672859358834103e-05,1.7307188510894775,5.235833334713735,7.16572831152007e-05,0.2795928716659546,-1.638623062764303,0.0,-0.0018544456688687205,0.8535263538360596,-0.0,-0.0016303531592711806,0.5755345821380615,0.0,0.014826499857008457
1063.0,398.0,1.1797,0.53,9.5432,-0.0441,0.0186,-0.128,-1.6803633175291957,6.128573295427486e-05,2.181644916534424,-2.178633213043213,4.442226418177597e-05,1.7101190090179443,5.2358693955238245,6.891390512464568e-05,0.2722574770450592,-1.6386430899249476,0.0,0.0009325991268269718,0.8535862565040588,-0.0,-0.011314420029520988,0.5754987001419067,0.0,0.007758733816444874
1063.0,398.0,1.1797,0.53,9.5432,-0.0441,0.0186,-0.128,-1.6803070507445277,5.7378627388970926e-05,2.204129934310913,-2.1786062717437744,4.167934457655065e-05,1.7587425708770752,5.235873508244314,6.556694279424846e-05,0.28654584288597107,-1.638679329548971,0.0,-0.0015935623086988926,0.8534777164459229,-0.0,-0.012168768793344498,0.5754702091217041,0.0,-0.01488144788891077
1094.0,391.0,1.0684,0.4355,9.5946,-0.0339,0.0215,-0.1196,-1.6802994213499964,5.4760253988206387e-05,2.1719679832458496,-2.178649663925171,3.983458736911416e-05,1.6952786445617676,5.235909688263693,6.326253787847236e-05,0.28783416748046875,-1.6386593023883265,0.0,-0.008257046341896057,0.8535182476043701,-0.0,-0.003088604658842087,0.5755428075790405,0.0,0.02395603060722351
1094.0,391.0,1.0684,0.4355,9.5946,-0.0339,0.0215,-0.1196,-1.6802989445128382,5.1619568694150075e-05,2.1796228885650635,-2.178722858428955,3.761483822017908e-05,1.7155531644821167,5.235873508244314,6.043074608896859e-05,0.2811458110809326,-1.6386669317828577,0.0,0.0032273961696773767,0.853570282459259,-0.0,-0.0023471794556826353,0.5754823088645935,0.0,-0.007117483299225569
1094.0,391.0,1.0684,0.4355,9.5946,-0.0339,0.0215,-0.1196,-1.6803394756712855,4.949066715198569e-05,2.1654067039489746,-2.178593873977661,3.6105848266743124e-05,1.7295799255371094,5.235857474594869,5.026091116633324e-07,0.2862522602081299,-1.638691250477926,0.0,-0.00304608466103673,0.853498101234436,-0.0,-0.00340700033120811,0.5754784345626831,0.0,0.011753284372389317
1094.0,391.0,1.0684,0.4355,9.5946,-0.0339,0.0215,-0.1196,-1.680263181725973,4.753044049721211e-05,2.2121307849884033,-2.178666353225708,3.4713244531303644e-05,1.723909854888916,5.235853421479025,1.3990307523581436e-10,0.29897478222846985,-1.6386473814593714,0.0,0.001768168993294239,0.8534978032112122,-0.0,0.001303787576034665,0.5755146741867065,0.0,0.021407954394817352
1094.0,391.0,1.0684,0.4355,9.5946,-0.0339,0.0215,-0.1196,-1.680319448510641,4.514627653406933e-05,2.1448464393615723,-2.1786136627197266,3.301543620182201e-05,1.6413497924804688,5.235893356591024,2.5426692408471105e-15,0.2898387610912323,-1.6386755148517054,0.0,0.010195470415055752,0.8535743951797485,-0.0,-0.004732792265713215,0.5754905343055725,0.0,-0.009440572001039982
1094.0,391.0,1.0684,0.4355,9.5946,-0.0339,0.0215,-0.1196,-1.6803156338133753,4.3509378883754835e-05,2.1644318103790283,-2.1786983013153076,3.184718298143707e-05,1.745147466659546,5.235821115761556,7.077613746993596e-19,0.29013314843177795,-1.6386712233172815,0.0,0.0015100257005542517,0.8535661697387695,-0.0,0.0008173896931111813,0.575570821762085,0.0,-0.04428841918706894
1094.0,391.0,1.0684,0.4355,9.5946,-0.0339,0.0215,-0.1196,-1.6802832088866175,4.150307722738944e-05,2.195162534713745,-2.1786375045776367,-1.0816937901836354e-05,1.7254173755645752,5.235825168877401,1.2863210885605416e-23,0.2944360375404358,-1.6386831442462366,0.0,0.002705270890146494,0.8535181879997253,-0.0,0.0006611295975744724,0.5755186080932617,0.0,0.01566314324736595
1094.0,391.0,1.0684,0.4355,9.5946,-0.0339,0.0215,-0.1196,-1.6802870235838832,4.011561759398319e-05,2.1993110179901123,-2.178666353225708,-1.0440501682751346e-05,1.7463617324829102,5.235829341202535,3.580522167071565e-27,0.29495489597320557,-1.6386707464801233,0.0,0.00879753939807415,0.8535464406013489,-0.0,-0.004748017527163029,0.575534999370575,0.0,-0.011031631380319595
1094.0,391.0,1.0684,0.4355,9.5946,-0.0339,0.0215,-0.1196,-1.6802951298155726,7.141104596541936e-09,2.221437931060791,-2.17864990234375,-1.0089383977174293e-05,1.7415568828582764,5.235825168877401,9.966516310226466e-31,0.2729726731777191,-1.6386750380145472,0.0,-0.00372511288151145,0.8535263538360596,-0.0,0.00164119154214859,0.5755428075790405,0.0,0.019293900579214096
1094.0,391.0,1.0684,0.4355,9.5946,-0.0339,0.0215,-0.1196,-1.6803275547423304,2.3136273496843706e-16,2.2285444736480713,-2.178629159927368,-2.0687239421501857e-10,1.740328311920166,5.235841202526846,1.811364904642809e-35,0.29945698380470276,-1.6387150923358362,0.0,-0.003392341546714306,0.8535062670707703,-0.0,0.015194249339401722,0.57555091381073,0.0,0.04024283587932587
1094.0,391.0,1.0684,0.4355,9.5946,-0.0339,0.0215,-0.1196,-1.6803156338133753,5.587138032139811e-22,2.1948461532592773,-2.1786818504333496,-4.995725148731795e-16,1.7112014293670654,5.23585723617629,5.04200079409941e-39,0.29730480909347534,-1.6386831442462366,0.0,0.002576967002823949,0.8535944223403931,-0.0,-0.0021391247864812613,0.5755427479743958,0.0,0.023346221074461937
1094.0,391.0,1.0684,0.4355,9.5946,-0.0339,0.0215,-0.1196,-1.6803189716734828,1.8101615431137346e-29,2.2475898265838623,-2.178741931915283,-1.6185516731744527e-23,1.7423796653747559,5.235857534199514,9.10844001811131e-44,0.2833651304244995,-1.6386588255511683,0.0,-0.0042966920882463455,0.8535662293434143,-0.0,0.0021357175428420305,0.575570821762085,0.0006266307318583131,0.05236862972378731
1094.0,391.0,1.0684,0.4355,9.5946,-0.0339,0.0215,-0.1196,-1.680291315118307,4.3713271432034086e-35,2.1991395950317383,-2.178689956665039,-3.908611627557595e-29,1.7034618854522705,5.235845613270559,0.0,0.28677648305892944,-1.6387189070331019,0.0,0.00186913984362036,0.8535342216491699,-0.0,0.0014741072664037347,0.5755425691604614,0.0008564485469833016,0.03163839876651764
1094.0,391.0,1.0684,0.4355,9.5946,-0.0339,0.0215,-0.1196,-1.680319448510641,1.0556261591451712e-40,2.1628811359405518,-2.178677558898926,-9.43883679787836e-35,1.722025990486145,5.235873508244314,0.0,0.2882925868034363,-1.6386788527118128,0.0,-0.005693316459655762,0.8535423278808594,-0.0,0.009981307201087475,0.575546145439148,0.0009079799638129771,0.022353533655405045
1083.0,392.0,1.1133,0.7161,9.262,-0.0368,0.0275,-0.1304,-1.680331369439596,0.0,2.1969683170318604,-2.1786818504333496,-3.057633249156751e-42,1.7225925922393799,5.23586134889678,0.0,0.2949501872062683,-1.6386826674090784,0.0,-0.005382060538977385,0.8535103797912598,-0.0,-0.01287897303700447,0.5755986571311951,0.001182800973765552,-0.01525123417377472
1083.0,392.0,1.1133,0.7161,9.262,-0.0368,0.0275,-0.1304,-1.6802994213499964,0.0,2.1768057346343994,-2.178605556488037,-0.0,1.7393361330032349,5.235877680569448,0.0,0.30104008316993713,-1.6386869589435022,0.0,0.005198697559535503,0.8535621166229248,-0.0,0.006397786550223827,0.5755462050437927,0.0010684366570785642,0.003091145306825638
1083.0,392.0,1.1133,0.7161,9.262,-0.0368,0.0275,-0.1304,-1.6802994213499964,0.0,2.1894984245300293,-2.178673505783081,-0.0,1.7278106212615967,5.235817003041067,0.0,0.2851020097732544,-1.638730827962057,0.0,0.007343577221035957,0.8536509275436401,-0.0,0.006506985053420067,0.5756027102470398,0.0009972233092412353,-0.024754822254180908
1083.0,392.0,1.1133,0.7161,9.262,-0.0368,0.0275,-0.1304,-1.680347581902975,0.0,2.210986852645874,-2.1786859035491943,-0.0,1.7221307754516602,5.235853421479025,0.0,0.288576602935791,-1.6386993567096155,0.0,0.008825401775538921,0.8535822033882141,-0.0,0.0017135310918092728,0.5755904316902161,0.0009299854282289743,0.004088980611413717
1083.0,392.0,1.1133,0.7161,9.262,-0.0368,0.0275,-0.1304,-1.68035950283193,0.0,2.21150803565979,-2.1786580085754395,-0.0,1.7156774997711182,5.235873508244314,0.0,0.30004245042800903,-1.6387112776385706,0.0,-0.00957070104777813,0.8535100221633911,-0.0,0.00020371287246234715,0.5756305456161499,0.0009222330991178751,0.042689528316259384
1083.0,392.0,1.1133,0.7161,9.262,-0.0368,0.0275,-0.1304,-1.680303236047262,0.0,2.1933484077453613,-2.1786415576934814,-0.0,1.6949872970581055,5.23584150055007,0.0,0.3040092885494232,-1.6387313047992151,0.0,0.0054303486831486225,0.8535301089286804,-0.0,0.006730188615620136,0.5756226181983948,0.0006865718169137836,-0.002612779848277569
1083.0,392.0,1.1133,0.7161,9.262,-0.0368,0.0275,-0.1304,-1.680291315118307,0.0,2.2192306518554688,-2.178666353225708,-0.0,1.7271528244018555,5.235813367157736,0.0,0.2952183485031128,-1.638663117085592,0.0,0.01044989749789238,0.8535420298576355,-0.0,0.008767410181462765,0.5756185054779053,0.0005338125047273934,0.01946549117565155
1083.0,392.0,1.1133,0.7161,9.262,-0.0368,0.0275,-0.1304,-1.6803275547423304,0.0,2.153944969177246,-2.178645610809326,-0.0,1.7283649444580078,5.235865759640493,0.0,0.3018892705440521,-1.6387313047992151,0.0,-0.010539465583860874,0.8535661697387695,-0.0,0.007614161353558302,0.575650691986084,0.00043666831334121525,0.05758140981197357
1083.0,392.0,1.1133,0.7161,9.262,-0.0368,0.0275,-0.1304,-1.6803108654417933,0.0,2.1455535888671875,-2.1786694526672363,-0.0,1.6823838949203491,5.23581742027358,0.0,0.2902138829231262,-1.6386988798724573,0.0,-0.006943283136934042,0.8535621166229248,-0.0,0.011810308322310448,0.5756109356880188,0.0003514084091875702,-0.0028675412759184837
1083.0,392.0,1.1133,0.7161,9.262,-0.0368,0.0275,-0.1304,-1.6802908382811488,7.706744686863942e-10,2.2121787071228027,-2.178645610809326,-0.0,1.7013099193572998,5.23581742027358,1.3744867999321286e-07,0.28950223326683044,-1.6386755148517054,0.0,-0.004777828697115183,0.8535423278808594,-0.0,0.01619158685207367,0.5755623579025269,0.0003065232012886554,-0.018945489078760147
1083.0,392.0,1.1133,0.7161,9.262,-0.0368,0.0275,-0.1304,-1.6803270779051722,2.4968873615109218e-17,2.1607918739318848,-2.1786415576934814,-0.0,1.7229926586151123,5.23581742027358,2.4980616533665234e-12,0.2839294672012329,-1.638663117085592,0.0,0.0022033797577023506,0.8535219430923462,-0.0,0.007825524546205997,0.5755661129951477,0.0002291787532158196,0.02658046968281269
1083.0,392.0,1.1133,0.7161,9.262,-0.0368,0.0275,-0.1304,-1.6803189716734828,6.029688621315564e-23,2.2123258113861084,-2.178677558898926,-0.0,1.728243350982666,5.235773193627157,6.953446988732241e-16,0.2797112762928009,-1.6386874357806605,0.0,-0.010889212600886822,0.8535342216491699,-0.0,0.005379108712077141,0.5756027102470398,0.0002066282759187743,-0.03860385715961456
1083.0,392.0,1.1133,0.7161,9.262,-0.0368,0.0275,-0.1304,-1.680387636224264,1.4560990937127266e-28,2.182750940322876,-2.178694009780884,-0.0,1.705047845840454,5.235866117268362,1.935516942632503e-19,0.2938678562641144,-1.6386950651751917,0.0,0.0019997756462544203,0.8535420298576355,-0.0,0.008306579664349556,0.5755945444107056,0.00018811807967722416,0.011532144621014595
1066.0,377.0,1.1833,0.4379,9.5127,-0.0269,0.0157,-0.12,-1.6803394756712855,4.717576882001768e-36,2.179574489593506,-2.178616762161255,-0.0,1.7166284322738647,5.2358014462287805,3.517706692362356e-24,0.3065214157104492,-1.638707462941305,0.0,0.009480689652264118,0.8535542488098145,-0.0,0.00985095463693142,0.5756023526191711,0.00016804620099719614,0.008778202347457409
1066.0,377.0,1.1833,0.4379,9.5127,-0.0269,0.0157,-0.12,-1.6803719005980433,1.1392556514960763e-41,2.198723316192627,-2.178649663925171,-0.0,1.7269566059112549,5.235809612065115,9.791665689612839e-28,0.292116641998291,-1.6386874357806605,0.0,0.0009691943414509296,0.853570282459259,-0.0,0.011827163398265839,0.5755986571311951,0.00017780497728381306,0.01909135840833187
1066.0,377.0,1.1833,0.4379,9.5127,-0.0269,0.0157,-0.12,-1.6803389988341273,0.0,2.198988914489746,-2.1786415576934814,-0.0,1.7506012916564941,5.23582153299407,1.779587069055203e-32,0.2931773066520691,-1.6386550108539026,0.0,0.002899827202782035,0.8535781502723694,-0.0,0.001763083040714264,0.5755945444107056,0.00016183528350666165,-0.00205986388027668
1066.0,377.0,1.1833,0.4379,9.5127,-0.0269,0.0157,-0.12,-1.6803108654417933,0.0,2.175398111343384,-2.1786415576934814,-0.0,1.7369873523712158,5.235789525299825,4.9535456782528785e-36,0.2920908033847809,-1.6387069861041468,0.0,0.002151831518858671,0.8536226749420166,-0.0,0.015232120640575886,0.5756267309188843,0.0001516117772553116,0.026744481176137924
1066.0,377.0,1.1833,0.4379,9.5127,-0.0269,0.0157,-0.12,-1.6803676090636195,0.0,2.164738178253174,-2.1786537170410156,-0.0,1.7308485507965088,5.235781359463491,1.3788384525386189e-39,0.2970421016216278,-1.6386907736407679,0.0,3.0311523005366325e-05,0.8535101413726807,-0.0,0.01634359359741211,0.5756226181983948,0.00014260337047744542,0.0554463230073452
1066.0,377.0,1.1833,0.4379,9.5127,-0.0269,0.0157,-0.12,-1.6803151569762171,0.0,2.25469708442688,-2.1786415576934814,-0.0,1.7107207775115967,5.235789525299825,-0.0001393588463542983,0.2843499481678009,-1.6386669317828577,0.0,0.002020642627030611,0.8535740375518799,-0.0,0.014317844063043594,0.5756023526191711,8.925260044634342e-05,-0.03760635107755661
1066.0,377.0,1.1833,0.4379,9.5127,-0.0269,0.0157,-0.12,-1.6803914509215296,0.0,2.1967267990112305,-2.1786415576934814,-0.0,1.7284619808197021,5.235801386624136,-0.00012752813927363604,0.27859658002853394,-1.6387270132647913,0.0,-0.0019634831696748734,0.8535776734352112,-0.0,0.01735173910856247,0.575650691986084,0.00010108785500051454,0.03584757819771767
1066.0,377.0,1.1833,0.4379,9.5127,-0.0269,0.0157,-0.12,-1.6803351841368617,0.0,2.2071220874786377,-2.178628921508789,-0.0,1.665921926498413,5.235773193627157,-0.00011454273771960288,0.28285181522369385,-1.6386750380145472,0.0,-0.003023455385118723,0.8535580635070801,-0.0,0.02284090965986252,0.5756382942199707,0.00012538682494778186,-0.013155410997569561
1066.0,377.0,1.1833,0.4379,9.5127,-0.0269,0.0157,-0.12,-1.6804114780821742,0.0,2.1576812267303467,-2.178649663925171,-0.0,1.7258737087249756,5.235817479878225,-0.00010641634435160086,0.28585755825042725,-1.6387346426593226,0.0,-0.002249992685392499,0.85359787940979,-0.0,0.026811959221959114,0.5756586194038391,0.0011560876155272126,0.05076482892036438
1066.0,377.0,1.1833,0.4379,9.5127,-0.0269,0.0157,-0.12,-1.6803513966002406,0.0,2.173509359359741,-2.178633451461792,-0.0,1.7343214750289917,5.23580955246047,-9.936669812304899e-05,0.30046501755714417,-1.6387346426593226,0.0,-0.009378192014992237,0.8536545634269714,-0.0,0.029614506289362907,0.5756020545959473,0.002230802085250616,0.042514242231845856
1066.0,377.0,1.1833,0.4379,9.5127,-0.0269,0.0157,-0.12,-1.6803513966002406,0.0,2.206448793411255,-2.178598165512085,-0.0,1.7158777713775635,5.235737013607778,-0.00010834538261406124,0.29121384024620056,-1.6387389341937464,0.0,-0.002560794586315751,0.8535819053649902,0.0003041310701519251,0.02808840572834015,0.5757028460502625,0.0029134401120245457,0.07203186303377151
1066.0,377.0,1.1833,0.4379,9.5127,-0.0269,0.0157,-0.12,-1.6803637943663539,0.0,2.1815850734710693,-2.178629159927368,-0.0,1.6959559917449951,5.235829758435049,-0.0001032756845233962,0.28916674852371216,-1.6387389341937464,0.0,0.0026107097510248423,0.853630542755127,0.000347486900864169,0.03699428588151932,0.575690507888794,0.003440505126491189,0.08502157032489777
1066.0,377.0,1.1833,0.4379,9.5127,-0.0269,0.0157,-0.12,-1.6803027592101039,0.0,2.1451802253723145,-2.178649663925171,-0.0,1.7212704420089722,5.235817837506094,-9.76720402832143e-05,0.286611407995224,-1.638726536427633,0.0,-0.005560551304370165,0.8535939455032349,0.0005025073769502342,0.038398414850234985,0.5757103562355042,0.003748855320736766,0.08443862199783325
1054.0,396.0,1.1719,0.6138,9.4247,-0.0414,0.0137,-0.1364,-1.6803552112975062,0.0,2.219106674194336,-2.1786248683929443,-0.0,1.7074778079986572,5.235809612065115,-0.00010626152652548626,0.284372478723526,-1.638726536427633,0.0,-0.025769807398319244,0.8536262512207031,0.0005757330218330026,0.05598222091794014,0.5757424831390381,0.0034699251409620047,0.06893118470907211
1054.0,396.0,1.1719,0.6138,9.4247,-0.0414,0.0137,-0.1364,-1.6803351841368617,0.0,2.123530387878418,-2.178621768951416,-0.0,1.7353646755218506,5.235813724785604,-0.00010114456381415948,0.282627671957016,-1.6387189070331019,0.0,-0.0169711671769619,0.8536262512207031,0.0007109151920303702,0.04980450123548508,0.5757301449775696,0.002614399651065469,0.0999404788017273
1054.0,396.0,1.1719,0.6138,9.4247,-0.0414,0.0137,-0.1364,-1.6803676090636195,0.0,2.1589996814727783,-2.1786577701568604,-0.0,1.6696221828460693,5.235773551255026,-0.00011998542322544381,0.28565770387649536,-1.6386950651751917,0.0,-0.016281824558973312,0.8536220788955688,0.0006212900625541806,0.05335929989814758,0.5757782459259033,0.0018634096486493945,0.052995502948760986
1054.0,396.0,1.1719,0.6138,9.4247,-0.0414,0.0137,-0.1364,-1.68035950283193,0.0,2.1695094108581543,-2.178649663925171,-0.0,1.6621769666671753,5.235785472183981,-0.00013405567733570933,0.27333182096481323,-1.6387389341937464,0.0,-0.022226206958293915,0.8535977602005005,0.0004707674088422209,0.04935599863529205,0.5757905840873718,0.0013235752703621984,0.1265197992324829
1054.0,396.0,1.1719,0.6138,9.4247,-0.0414,0.0137,-0.1364,-1.6803471050658167,0.0,2.170290470123291,-2.1785941123962402,-0.0,1.710008978843689,5.235793638020315,-0.00014570927305612713,0.27203625440597534,-1.638758961354391,0.0,-0.011176330968737602,0.8536341190338135,0.0004291884833946824,0.06519283354282379,0.575742244720459,0.000920900609344244,0.1370183676481247
1054.0,396.0,1.1719,0.6138,9.4247,-0.0414,0.0137,-0.1364,-1.680375715295309,0.0,2.1566951274871826,-2.1786701679229736,-0.0,1.6859582662582397,5.235729384213247,-0.00015182253264356405,0.27433615922927856,-1.6386507193194788,0.0,-0.007868715561926365,0.8535854816436768,0.00038032353040762246,0.05605309084057808,0.5757583975791931,0.0005811885348521173,0.07584848254919052
1054.0,396.0,1.1719,0.6138,9.4247,-0.0414,0.0137,-0.1364,-1.680375715295309,0.0,2.1459267139434814,-2.1786177158355713,-0.0,1.7634897232055664,5.235773551255026,-0.00014336076856125146,0.2813609838485718,-1.6386712233172815,0.0,-0.006999591365456581,0.8536181449890137,0.0003679687506519258,0.06009469926357269,0.5757381319999695,0.0004596809740178287,0.08611650764942169
1054.0,396.0,1.1719,0.6138,9.4247,-0.0414,0.0137,-0.1364,-1.68035950283193,0.0,2.191037893295288,-2.178666353225708,-0.0,1.7225544452667236,5.235737550049581,-0.0001327849895460531,0.27152976393699646,-1.6386988798724573,0.0,-0.00831318087875843,0.8535977602005005,0.000279021478490904,0.07745049893856049,0.5757745504379272,0.00011925008584512398,0.0627899318933487
1054.0,396.0,1.1719,0.6138,9.4247,-0.0414,0.0137,-0.1364,-1.680375715295309,0.0,2.16033935546875,-2.178610324859619,-0.0,1.7446166276931763,5.235773551255026,-0.00012582361523527652,0.2677356004714966,-1.6386588255511683,0.0,-0.003134553786367178,0.8535980582237244,0.00028227741131559014,0.05321405082941055,0.5757786631584167,9.947692160494626e-05,0.0820794478058815
1054.0,396.0,1.1719,0.6138,9.4247,-0.0414,0.0137,-0.1364,-1.6803227863707484,0.0,2.1698830127716064,-2.178598165512085,-0.0,1.6801878213882446,5.235773551255026,-0.000119555632409174,0.28832709789276123,-1.638663117085592,0.0,-0.013815640471875668,0.8536422848701477,0.0002846307179424912,0.0630611851811409,0.575742244720459,8.532771607860923e-05,0.120700404047966
1054.0,396.0,1.1719,0.6138,9.4247,-0.0414,0.0137,-0.1364,-1.6803552112975062,0.0,2.1864356994628906,-2.1786372661590576,-0.0,1.7495307922363281,5.235749470978536,-0.00011210937373107299,0.28020158410072327,-1.6387313047992151,0.0,-0.013883290812373161,0.8536179661750793,0.0002755247987806797,0.07179803401231766,0.575814962387085,7.17262300895527e-05,0.10163822770118713
1054.0,396.0,1.1719,0.6138,9.4247,-0.0414,0.0137,-0.1364,-1.6803552112975062,0.0,2.1870968341827393,-2.178598165512085,-0.0,1.726180076599121,5.235737550049581,-0.00010710619244491681,0.29006072878837585,-1.6387112776385706,0.0,-0.015517838299274445,0.8535977602005005,0.00027728042914532125,0.0725739598274231,0.5757542848587036,9.610046254238114e-05,0.07843884080648422
1054.0,396.0,1.1719,0.6138,9.4247,-0.0414,0.0137,-0.1364,-1.68035950283193,0.0,2.205900192260742,-2.1786413192749023,-0.0,1.6791032552719116,5.235765445023336,-0.0001274185488000512,0.28592824935913086,-1.6386993567096155,0.0,-0.011094840243458748,0.8536138534545898,0.00026863705716095865,0.06620561331510544,0.5757745504379272,8.412341412622482e-05,0.07554221153259277
1054.0,396.0,1.1719,0.6138,9.4247,-0.0414,0.0137,-0.1364,-1.6803957424559535,-0.00011829318827949464,2.1532750129699707,-2.1786062717437744,-0.0,1.6898305416107178,5.235765802651205,-0.00011913668276974931,0.28069639205932617,-1.6387313047992151,0.0,-0.003923387732356787,0.8536221981048584,0.0002723693905863911,0.06622539460659027,0.5757463574409485,7.693238876527175e-05,0.09481775760650635
1064.0,382.0,0.9685,0.4965,9.545,-0.0278,0.0411,-0.1069,-1.6803552112975062,-0.00011796483158832416,2.1713836193084717,-2.178609609603882,-0.0,1.6893515586853027,5.235725271492758,-0.00013206225412432104,0.2860856354236603,-1.6386993567096155,0.0,-0.015988456085324287,0.8536701798439026,0.00027156693977303803,0.08043170720338821,0.575766384601593,7.087407720973715e-05,0.07671001553535461
1064.0,382.0,0.9685,0.4965,9.545,-0.0278,0.0411,-0.1069,-1.6803637943663539,-0.00010676915553631261,2.178128242492676,-2.178677558898926,-0.0,1.7099108695983887,5.235721277981558,-0.00012061143934261054,0.26899394392967224,-1.6386950651751917,0.0,-0.00913570262491703,0.853641927242279,0.0003560330660548061,0.0718047171831131,0.5757745504379272,8.301267371280119e-05,0.031173571944236755
1064.0,382.0,0.9685,0.4965,9.545,-0.0278,0.0411,-0.1069,-1.6803513966002406,-0.00011957749666180462,2.1729190349578857,-2.1786136627197266,-0.0,1.731872797012329,5.23576574304656,-0.0001318657014053315,0.2858031988143921,-1.6387189070331019,0.0,-0.011654148809611797,0.8537060022354126,0.00040452697430737317,0.07184882462024689,0.5757663249969482,5.3900850616628304e-05,0.09275931864976883
1064.0,382.0,0.9685,0.4965,9.545,-0.0278,0.0411,-0.1069,-1.6803671322264613,-0.00010987457790179178,2.1869614124298096,-2.178645372390747,-0.0,1.7338535785675049,5.235761630326071,-0.00012168719695182517,0.270214319229126,-1.6387270132647913,0.0,-0.013771925121545792,0.8536499738693237,0.0012698050122708082,0.09042468667030334,0.5758025646209717,0.00011721781629603356,0.08313240110874176
1064.0,382.0,0.9685,0.4965,9.545,-0.0278,0.0411,-0.1069,-1.6803552112975062,-0.000103553626104258,2.1991262435913086,-2.178614377975464,-0.0,1.6807526350021362,5.235725331097402,-0.00013141687668394297,0.2668585777282715,-1.638730827962057,0.0,-0.004693533293902874,0.853734016418457,0.002490157261490822,0.09117470681667328,0.5757902264595032,0.0008825028198771179,0.09505046904087067
1064.0,382.0,0.9685,0.4965,9.545,-0.0278,0.0411,-0.1069,-1.680399557153219,-9.792036144062877e-05,2.158904552459717,-2.1786372661590576,-0.0,1.7101788520812988,5.235729384213247,-0.00012462750601116568,0.28156018257141113,-1.6387069861041468,0.0,-0.010648496448993683,0.8536979556083679,0.004561459645628929,0.08089014887809753,0.5758390426635742,0.0016270916676148772,0.1427721083164215
1064.0,382.0,0.9685,0.4965,9.545,-0.0278,0.0411,-0.1069,-1.6803833446898402,-9.129832324106246e-05,2.1495323181152344,-2.178621768951416,-0.0,1.7104885578155518,5.235757577210226,-0.00016127921117004007,0.27569395303726196,-1.638702694569723,0.0,-0.019683338701725006,0.8537291884422302,0.008741864934563637,0.09821869432926178,0.5758387446403503,0.002809615107253194,0.14103254675865173
1064.0,382.0,0.9685,0.4965,9.545,-0.0278,0.0411,-0.1069,-1.6803752384581507,-8.68911956786178e-05,2.136361837387085,-2.178593873977661,-0.0,1.6909058094024658,5.235737550049581,-0.00014917075168341398,0.2732812762260437,-1.6387150923358362,0.0,-0.014315618202090263,0.8538695573806763,0.007806078530848026,0.0886613056063652,0.5758346319198608,0.0034396133851259947,0.20779508352279663
1064.0,382.0,0.9685,0.4965,9.545,-0.0278,0.0411,-0.1069,-1.6804195843138636,-8.288987737614661e-05,2.145068645477295,-2.1786413192749023,-0.0,1.7075581550598145,5.235733437329092,-0.00020261359168216586,0.2710566818714142,-1.6387389341937464,0.0,-0.012112569063901901,0.8538689613342285,0.003563167992979288,0.09509854763746262,0.5758102536201477,0.004388702567666769,0.21260559558868408
1064.0,382.0,0.9685,0.4965,9.545,-0.0278,0.0411,-0.1069,-1.6803513966002406,-8.959206024883315e-05,2.153655767440796,-2.1786701679229736,-0.0,1.688208818435669,5.235741543560781,-0.0001397270680172369,0.2704339623451233,-1.6386869589435022,0.0,-0.020936015993356705,0.8538451194763184,0.0012646630639210343,0.07929293066263199,0.5759066343307495,0.005647703073918819,0.18679630756378174
1064.0,382.0,0.9685,0.4965,9.545,-0.0278,0.0411,-0.1069,-1.6803552112975062,-9.998914902098477e-05,2.1354520320892334,-2.178621768951416,-0.0,1.745687484741211,5.235793638020315,-0.0001133193654823117,0.2734754979610443,-1.6386945883380335,0.0,-0.016491439193487167,0.853789210319519,0.0008272512350231409,0.083292156457901,0.5759789347648621,0.006340561434626579,0.16793286800384521
1064.0,382.0,0.9685,0.4965,9.545,-0.0278,0.0411,-0.1069,-1.680411001245016,-0.0011939819669350982,2.1335248947143555,-2.1786701679229736,-0.0,1.769519329071045,5.235753524094381,-0.00017490108439233154,0.26441532373428345,-1.6387112776385706,0.0,-0.02073695883154869,0.8538535833358765,0.0005665294011123478,0.09046913683414459,0.57597815990448,0.0074131181463599205,0.1821061074733734
1064.0,382.0,0.9685,0.4965,9.545,-0.0278,0.0411,-0.1069,-1.6804634533324183,-0.0016246085288003087,2.1620724201202393,-2.178633213043213,-0.0,1.756575584411621,5.235685276776113,-0.0003898940049111843,0.25262945890426636,-1.6387231985675257,0.0,-0.025016695261001587,0.8538811802864075,0.00045827467693015933,0.08564215898513794,0.5761032104492188,0.008412537164986134,0.1581132709980011
1040.0,369.0,1.2293,0.3458,9.4265,-0.0203,0.0603,-0.1196,-1.6803986034789027,-0.0014920990215614438,2.125462532043457,-2.178609609603882,-0.0,1.7440530061721802,5.235681044846334,-0.0018024164019152522,0.2718452215194702,-1.6387112776385706,0.0,-0.018118834123015404,0.8538852334022522,0.00038477135240100324,0.09284606575965881,0.5761027932167053,0.009160052053630352,0.20583370327949524
1040.0,369.0,1.2293,0.3458,9.4265,-0.0203,0.0603,-0.1196,-1.6804715595641078,-0.0007975638727657497,2.1582555770874023,-2.1785693168640137,-0.0,1.7443864345550537,5.235705542355337,-0.0017616916447877884,0.2740398943424225,-1.6386950651751917,0.0,-0.016846032813191414,0.8538331389427185,0.00031698966631665826,0.0996873527765274,0.5761706829071045,0.008038326166570187,0.20631995797157288
1040.0,369.0,1.2293,0.3458,9.4265,-0.0203,0.0603,-0.1196,-1.6804143391051234,-0.00041646783938631415,2.1283321380615234,-2.178581714630127,-0.0,1.7205021381378174,5.235681521683492,-0.0018203274812549353,0.26826515793800354,-1.638702694569723,-4.008109044661978e-08,-0.036144234240055084,0.853825032711029,0.00027999989106319845,0.08862941712141037,0.5761987566947937,0.007119424641132355,0.26670196652412415
1040.0,369.0,1.2293,0.3458,9.4265,-0.0203,0.0603,-0.1196,-1.68043913463735,-0.00028464311617426574,2.11848521232605,-2.1785693168640137,-0.0,1.7382912635803223,5.235693383007803,-0.0015497334534302354,0.25660035014152527,-1.6386988798724573,-7.284540809102125e-13,-0.025632061064243317,0.8538689613342285,0.00018527302017901093,0.08862444758415222,0.5762469172477722,0.007852427661418915,0.2551889717578888
1040.0,369.0,1.2293,0.3458,9.4265,-0.0203,0.0603,-0.1196,-1.6804067097105921,-0.000230059667956084,2.053647756576538,-2.1786022186279297,4.2889230826403946e-05,1.7193740606307983,5.235705482750692,-0.002068171976134181,0.2745664715766907,-1.638714615498678,-2.0276786881608734e-16,-0.02776268497109413,0.853888988494873,0.0002243064809590578,0.08873867243528366,0.5763027667999268,0.009391151368618011,0.32326143980026245
1040.0,369.0,1.2293,0.3458,9.4265,-0.0203,0.0603,-0.1196,-1.6804310284056605,-5.9174522903049365e-05,2.0634889602661133,-2.178610324859619,5.607660932582803e-05,1.7236850261688232,5.235637891083517,-0.004280654713511467,0.2493407279253006,-1.6387470404254358,-5.644117629504413e-20,-0.04220888018608093,0.8539009094238281,0.0007582641555927694,0.0984078049659729,0.5763425827026367,0.010698327794671059,0.28431862592697144
1040.0,369.0,1.2293,0.3458,9.4265,-0.0203,0.0603,-0.1196,-1.680422922173971,-4.680188067140989e-05,2.042771339416504,-2.178629159927368,5.341425276128575e-05,1.8126368522644043,5.235581803112783,-0.008524996228516102,0.2561340928077698,-1.6387551466571253,-0.00028330113855190575,-0.0427316352725029,0.8538607954978943,0.0013951807050034404,0.09292636066675186,0.5764147043228149,0.0128617649897933,0.3191744387149811
1040.0,369.0,1.2293,0.3458,9.4265,-0.0203,0.0603,-0.1196,-1.6804596386351527,-4.048530536238104e-05,2.0849950313568115,-2.178581476211548,6.148296961328015e-05,1.7205877304077148,5.235566127091207,-0.007797101978212595,0.24040165543556213,-1.638730827962057,-0.00028058362659066916,-0.042563457041978836,0.8538730144500732,0.0013827901566401124,0.1096537634730339,0.5765148997306824,0.014949504286050797,0.33248376846313477
1040.0,369.0,1.2293,0.3458,9.4265,-0.0203,0.0603,-0.1196,-1.6804024181761683,-6.862247391836718e-05,2.0154004096984863,-2.1786413192749023,7.907457074907143e-06,1.7692301273345947,5.2355220196540735,-0.0033121989108622074,0.2474074810743332,-1.638730827962057,-0.000236684107221663,-0.054644808173179626,0.8538686037063599,0.0009032223606482148,0.09843332320451736,0.5767236948013306,0.017153706401586533,0.3709816336631775
1040.0,369.0,1.2293,0.3458,9.4265,-0.0203,0.0603,-0.1196,-1.680394788781637,-6.157922325655818e-05,2.034444808959961,-2.178610324859619,1.9095579284478248e-11,1.7439656257629395,5.235546099930563,-0.0008803600212559104,0.24636825919151306,-1.638742748891012,-0.00020917430811095983,-0.0475664846599102,0.8538846373558044,0.0006747132865712047,0.10029639303684235,0.5767267942428589,0.018939612433314323,0.38831883668899536
1040.0,369.0,1.2293,0.3458,9.4265,-0.0203,0.0603,-0.1196,-1.6804553471007289,-5.5847376643214375e-05,2.023900032043457,-2.1786227226257324,0.00026653235545381904,1.7255178689956665,5.235513853817739,-0.0005028386367484927,0.25478923320770264,-1.6387632528888147,-0.00018739394727163017,-0.05802120268344879,0.8538808822631836,0.0005724258371628821,0.09215439856052399,0.576839029788971,0.020192988216876984,0.38170623779296875
1040.0,369.0,1.2293,0.3458,9.4265,-0.0203,0.0603,-0.1196,-1.6804148159422816,-4.9681559175951406e-05,2.0441222190856934,-2.178610324859619,0.0008950539049692452,1.7610447406768799,5.235473739891805,-0.00032237256527878344,0.25338491797447205,-1.6387069861041468,-0.00019195830100215971,-0.055975429713726044,0.8538886904716492,0.00047966217971406877,0.09408119320869446,0.5770435929298401,0.022698191925883293,0.3680867552757263
1040.0,369.0,1.2293,0.3458,9.4265,-0.0203,0.0603,-0.1196,-1.680411001245016,-4.588237788993865e-05,2.0518157482147217,-2.178570032119751,0.0008111188653856516,1.7515342235565186,5.2355220196540735,-0.0002540595014579594,0.25008493661880493,-1.6386869589435022,-0.00017589397612027824,-0.044131241738796234,0.8539128303527832,0.0003997875319328159,0.10228417813777924,0.5771957635879517,0.02384285442531109,0.39410847425460815
1071.0,396.0,1.2006,0.8279,9.4379,-0.0322,0.0191,-0.0941,-1.6804634533324183,-4.163703488302417e-05,2.0377883911132812,-2.1785855293273926,0.0007507611298933625,1.8252332210540771,5.235469984799185,-0.0001981069945031777,0.25104498863220215,-1.6387189070331019,-0.0001582228287588805,-0.048978060483932495,0.8539206981658936,0.00025958294281736016,0.10067076981067657,0.5774242877960205,0.025637777522206306,0.4389716386795044
1071.0,396.0,1.2006,0.8279,9.4379,-0.0322,0.0191,-0.0941,-1.6804186306395472,-3.8935108022997156e-05,2.0419538021087646,-2.178610324859619,0.0006366646266542375,1.7639025449752808,5.235478150635519,-0.00017002751701511443,0.24290762841701508,-1.6387270132647913,-0.0001471362920710817,-0.05835999548435211,0.8539329171180725,0.00022117125627119094,0.09974633157253265,0.5775116682052612,0.024557262659072876,0.42218586802482605
1071.0,396.0,1.2006,0.8279,9.4379,-0.0322,0.0191,-0.0941,-1.680411001245016,-3.656254557427019e-05,2.015479564666748,-2.1785709857940674,0.0006847270997241139,1.7773574590682983,5.2355137942130945,-0.00014892179751768708,0.2545378804206848,-1.6387270132647913,-0.00013750209473073483,-0.06203779578208923,0.8539169430732727,0.00022122655354905874,0.09977412968873978,0.5777285099029541,0.025274381041526794,0.4284067153930664
1071.0,396.0,1.2006,0.8279,9.4379,-0.0322,0.0191,-0.0941,-1.6804233990111292,-5.069561302661896e-05,2.06870436668396,-2.178562641143799,0.0029440217185765505,1.8151345252990723,5.235506045609274,-0.00012777536176145077,0.2555437684059143,-1.6387432257281702,-0.00012646128016058356,-0.06885471940040588,0.8538886904716492,0.00019745659665204585,0.09760668873786926,0.5778839588165283,0.02519245445728302,0.40380990505218506
1071.0,396.0,1.2006,0.8279,9.4379,-0.0322,0.0191,-0.0941,-1.6804596386351527,-0.00010335252591175959,2.007361650466919,-2.178534746170044,0.005170339252799749,1.777361512184143,5.235554325371542,-3.093573104706593e-05,0.25173452496528625,-1.6387069861041468,-0.00011927811283385381,-0.042758017778396606,0.8539248108863831,0.00020366284297779202,0.09843116998672485,0.5780723094940186,0.024564698338508606,0.4461665153503418
1071.0,396.0,1.2006,0.8279,9.4379,-0.0322,0.0191,-0.0941,-1.6804753742613734,-0.00015682572848163545,1.9988267421722412,-2.178501605987549,0.00681682676076889,1.7874643802642822,5.2355583784873865,-5.587567648035474e-05,0.25072917342185974,-1.6387069861041468,-0.00011286728113191202,-0.07361160218715668,0.8538927435874939,0.000188912934390828,0.09941316395998001,0.5781600475311279,0.0243845097720623,0.4164295196533203
1071.0,396.0,1.2006,0.8279,9.4379,-0.0322,0.0191,-0.0941,-1.6804472408690394,-0.0015790725592523813,2.0279195308685303,-2.1784021854400635,0.00870385579764843,1.824588418006897,5.235478150635519,-0.0003665135009214282,0.23450811207294464,-1.6386907736407679,-0.00010531981388339773,-0.04908948019146919,0.853888750076294,0.00016867992235347629,0.0972536951303482,0.5783964395523071,0.025645669549703598,0.39463311433792114
1071.0,396.0,1.2006,0.8279,9.4379,-0.0322,0.0191,-0.0941,-1.6804834804930628,-0.0022127158008515835,1.9989503622055054,-2.178354501724243,0.010583139024674892,1.8069610595703125,5.235494124680319,-0.0005486814770847559,0.2399374544620514,-1.6386626402484339,-0.0001002899807645008,-0.061233777552843094,0.8538768291473389,0.00015613781579304487,0.10089163482189178,0.578556478023529,0.027253175154328346,0.4247205853462219
1071.0,396.0,1.2006,0.8279,9.4379,-0.0322,0.0191,-0.0941,-1.6804748974242152,-0.00237188208848238,1.9771246910095215,-2.1782426834106445,0.012343826703727245,1.7919747829437256,5.235466229706564,-0.0011500092223286629,0.23628315329551697,-1.6387112776385706,-9.428623161511496e-05,-0.051093947142362595,0.8538928031921387,0.00016199753736145794,0.10286982357501984,0.5787605047225952,0.031141333281993866,0.426424503326416
1071.0,396.0,1.2006,0.8279,9.4379,-0.0322,0.0191,-0.0941,-1.6805273495116175,-0.0036037021782249212,1.9248865842819214,-2.178187370300293,0.014490662142634392,1.8266246318817139,5.235466229706564,-0.0015568987000733614,0.2254314422607422,-1.6386869589435022,-9.02348110685125e-05,-0.04021183401346207,0.8539128303527832,0.00015206124226097018,0.10617998242378235,0.5788798332214355,0.03293707221746445,0.4543033838272095
1071.0,396.0,1.2006,0.8279,9.4379,-0.0322,0.0191,-0.0941,-1.6805349789061488,-0.004468785598874092,1.938597321510315,-2.178079843521118,0.01515058521181345,1.8315739631652832,5.2354702828224084,-0.0014507401501759887,0.20559507608413696,-1.6386869589435022,-8.653749682707712e-05,-0.06387121975421906,0.8539169430732727,0.00014300078328233212,0.10094627737998962,0.5791563391685486,0.03791223093867302,0.4236850440502167
1071.0,396.0,1.2006,0.8279,9.4379,-0.0322,0.0191,-0.0941,-1.6806069813170375,-0.0060855732299387455,1.9555325508117676,-2.1779439449310303,0.018635088577866554,1.8543355464935303,5.235486256867208,-0.00154957827180624,0.21810147166252136,-1.6386707464801233,-2.8667205697274767e-05,-0.04356715828180313,0.8538928031921387,0.0001324759650742635,0.10041521489620209,0.5794970989227295,0.04567580670118332,0.42349106073379517
1071.0,396.0,1.2006,0.8279,9.4379,-0.0322,0.0191,-0.0941,-1.6806112728514613,-0.00646592490375042,1.9186944961547852,-2.1778199672698975,0.020794259384274483,1.83114755153656,5.235434520035543,-0.0018876077374443412,0.22960074245929718,-1.6386950651751917,-2.735906127782073e-05,-0.04870205372571945,0.853928804397583,0.00012554596469271928,0.10263212770223618,0.5797690153121948,0.051841676235198975,0.45877957344055176
1052.0,360.0,1.0558,0.8345,9.3123,-0.0151,0.0443,-0.0597,-1.6806909046568812,-0.007990400306880474,1.8999416828155518,-2.177661180496216,0.023321107029914856,1.8498740196228027,5.235442387848654,-0.002371173584833741,0.21703465282917023,-1.6386788527118128,-2.579101965238806e-05,-0.04052387923002243,0.8539009094238281,0.00011736030864994973,0.0916578397154808,0.5802860856056213,0.0585210882127285,0.4447753429412842
1052.0,360.0,1.0558,0.8345,9.3123,-0.0151,0.0443,-0.0597,-1.6807109318175257,-0.008927542716264725,1.90973699092865,-2.177480936050415,0.025591712445020676,1.8867416381835938,5.235446798592367,-0.003226306289434433,0.2063697874546051,-1.6386831442462366,-2.472808955644723e-05,-0.05041825771331787,0.8538326621055603,0.00011188891949132085,0.09093524515628815,0.5806458592414856,0.0627463236451149,0.4458887279033661
1052.0,360.0,1.0558,0.8345,9.3123,-0.0151,0.0443,-0.0597,-1.6808754406371058,-0.010546514764428139,1.8874679803848267,-2.1773056983947754,0.027777766808867455,1.8695179224014282,5.235414492874899,-0.003839765442535281,0.21240492165088654,-1.63871938387026,-1.1926643310289364e-05,-0.03685392811894417,0.8539006114006042,0.00010690493218135089,0.09430008381605148,0.5810098052024841,0.06566739082336426,0.42836111783981323
1052.0,360.0,1.0558,0.8345,9.3123,-0.0151,0.0443,-0.0597,-1.6809107265868128,-0.013034761883318424,1.9212801456451416,-2.1771295070648193,0.030645307153463364,1.8746216297149658,5.235350179463186,-0.004852492827922106,0.2126348912715912,-1.6387231985675257,-1.1279369573458098e-05,-0.03002164512872696,0.8539567589759827,0.00010091163858305663,0.10270564258098602,0.5815988779067993,0.06857464462518692,0.4839237928390503
1052.0,360.0,1.0558,0.8345,9.3123,-0.0151,0.0443,-0.0597,-1.680990835229391,-0.012924842536449432,1.846132755279541,-2.176910877227783,0.032715942710638046,1.8851313591003418,5.2353707430656335,-0.0048341890797019005,0.22401361167430878,-1.6386826674090784,-1.0870665391848888e-05,-0.04537762701511383,0.8538607954978943,9.683988173492253e-05,0.08721214532852173,0.5820066928863525,0.06961482018232346,0.4419931471347809
1052.0,360.0,1.0558,0.8345,9.3123,-0.0151,0.0443,-0.0597,-1.6810904941954554,-0.013944445177912712,1.8569670915603638,-2.176623821258545,0.036099623888731,1.8510898351669312,5.235314595490255,-0.004286803770810366,0.2192167341709137,-1.638691250477926,-1.0369663868914358e-05,-0.02327735349535942,0.8539369702339172,9.189586853608489e-05,0.09317544102668762,0.5826036930084229,0.07444857805967331,0.4689328074455261
1052.0,360.0,1.0558,0.8345,9.3123,-0.0151,0.0443,-0.0597,-1.6811543903746546,-0.014177645556628704,1.8829638957977295,-2.176401138305664,0.040339309722185135,1.8837312459945679,5.235314893513479,-0.0043678586371243,0.20360729098320007,-1.6386426130877894,-1.0023209142673295e-05,-0.03437381982803345,0.8538608551025391,8.85069603100419e-05,0.08444949239492416,0.5830318331718445,0.07517591118812561,0.45800578594207764
1052.0,360.0,1.0558,0.8345,9.3123,-0.0151,0.0443,-0.0597,-1.681314607659811,-0.014940266497433186,1.8813680410385132,-2.1761131286621094,0.044588953256607056,1.8799690008163452,5.235202538758077,-0.004474715329706669,0.1810314953327179,-1.63869554201235,-2.142058797005575e-08,-0.041069403290748596,0.853932797908783,8.535917004337534e-05,0.07303271442651749,0.58339923620224,0.07464776188135147,0.4018900990486145
1052.0,360.0,1.0558,0.8345,9.3123,-0.0151,0.0443,-0.0597,-1.6814218960204066,-0.018744412809610367,1.808897852897644,-2.175757646560669,0.05213239789009094,1.9094393253326416,5.235190737038412,-0.00460387859493494,0.18341714143753052,-1.6386788527118128,-3.8930864825273415e-13,-0.03316061198711395,0.853836715221405,8.149458153638989e-05,0.08144402503967285,0.5840561985969543,0.07951421290636063,0.49338364601135254
1052.0,360.0,1.0558,0.8345,9.3123,-0.0151,0.0443,-0.0597,-1.6816069088377894,-0.022464340552687645,1.7871825695037842,-2.175363063812256,0.05774381011724472,1.886132001876831,5.235174762993612,-0.0050459811463952065,0.1939437985420227,-1.638707462941305,-1.0836548436177903e-16,-0.026472225785255432,0.853888750076294,1.0264893717248924e-05,0.08520887792110443,0.5845001935958862,0.08685531467199326,0.42370831966400146
1052.0,360.0,1.0558,0.8345,9.3123,-0.0151,0.0443,-0.0597,-1.681741853753561,-0.024201085790991783,1.8070392608642578,-2.1749491691589355,0.06477300077676773,1.9292340278625488,5.2351510403449915,-0.00611736997961998,0.18913114070892334,-1.6387031714068812,-1.969489371559091e-21,-0.03284673020243645,0.853900671005249,1.8655935130063028e-10,0.09125180542469025,0.5852692127227783,0.09953558444976807,0.46700823307037354
1052.0,360.0,1.0558,0.8345,9.3123,-0.0151,0.0443,-0.0597,-1.6818891964354457,-0.026010461151599884,1.7846354246139526,-2.1744697093963623,0.0710432380437851,1.934366226196289,5.235074806004324,-0.00676746666431427,0.1692219078540802,-1.6386430899249476,-5.482146459559766e-25,-0.027782119810581207,0.853840708732605,5.192947580192481e-14,0.07439211755990982,0.585861325263977,0.10789334774017334,0.42752671241760254
1052.0,360.0,1.0558,0.8345,9.3123,-0.0151,0.0443,-0.0597,-1.6820618114867152,-0.026976287364959717,1.8028838634490967,-2.174046754837036,0.0759906992316246,1.9499170780181885,5.235015260964193,-0.00785781443119049,0.1758398413658142,-1.6386635939227503,0.0006612580618821084,-0.017893534153699875,0.8539130687713623,1.445476117432122e-17,0.07115481793880463,0.5865499377250671,0.11114940047264099,0.42936527729034424
1052.0,360.0,1.0558,0.8345,9.3123,-0.0151,0.0443,-0.0597,-1.6823092899718226,-0.030114661902189255,1.7321557998657227,-2.173449754714966,0.08146625757217407,1.9406002759933472,5.234959232598104,-0.009553860872983932,0.18621903657913208,-1.638634983693258,0.0006111814291216433,-0.014832201413810253,0.8538410067558289,2.627081247309332e-22,0.08031892031431198,0.5874384045600891,0.11511604487895966,0.428587943315506
948.0,380.0,0.5372,-0.2656,9.2207,-0.0664,0.121,0.0089,-1.6825577221312464,-0.03481301665306091,1.7955594062805176,-2.1729183197021484,0.09221577644348145,1.9934556484222412,5.234907614975729,-0.011435029096901417,0.15352663397789001,-1.6386354605304163,0.0005632527754642069,-0.010783391073346138,0.8538806438446045,7.312577888837078e-26,0.07800258696079254,0.5881224274635315,0.11445797979831696,0.3911029100418091
948.0,380.0,0.5372,-0.2656,9.2207,-0.0664,0.121,0.0089,-1.6827169857420863,-0.0392472967505455,1.768874168395996,-2.1723082065582275,0.10151800513267517,1.992315411567688,5.234812009125509,-0.013491732068359852,0.18449120223522186,-1.6386874357806605,0.00045924942241981626,-0.005282193887978792,0.853888750076294,2.0354833095448888e-29,0.0668773427605629,0.5888311266899109,0.11174124479293823,0.4067973494529724
948.0,380.0,0.5372,-0.2656,9.2207,-0.0664,0.121,0.0089,-1.6831008396544398,-0.04653181508183479,1.8007750511169434,-2.1714675426483154,0.1177339255809784,2.0242233276367188,5.234707999020376,-0.015183408744633198,0.1579018235206604,-1.63869554201235,0.00039964730967767537,-0.006361574865877628,0.8538329601287842,3.6993909246331284e-34,0.06162995845079422,0.5897156000137329,0.11753223091363907,0.4000673294067383
948.0,380.0,0.5372,-0.2656,9.2207,-0.0664,0.121,0.0089,-1.6833602390685023,-0.053893353790044785,1.7991430759429932,-2.170661449432373,0.12938742339611053,2.026066780090332,5.234604286938467,-0.016086604446172714,0.16888099908828735,-1.638667408620016,0.0003357787209097296,-0.0062723420560359955,0.853864848613739,1.0297391318346203e-37,0.06653933227062225,0.5904321670532227,0.12369184195995331,0.43764621019363403
948.0,380.0,0.5372,-0.2656,9.2207,-0.0664,0.121,0.0089,-1.683880468408102,-0.06557111442089081,1.748140811920166,-2.169528007507324,0.143147811293602,2.042901039123535,5.234440731793203,-0.014409846626222134,0.16810342669487,-1.638611141835348,0.00031627071439288557,0.008748468942940235,0.8538691997528076,2.5420838937861845e-05,0.06044739484786987,0.5914247035980225,0.12866219878196716,0.3836021423339844
948.0,380.0,0.5372,-0.2656,9.2207,-0.0664,0.121,0.0089,-1.6842719517149867,-0.07475510984659195,1.7871249914169312,-2.168670892715454,0.15237005054950714,2.048611640930176,5.234364974289694,-0.013704292476177216,0.16165921092033386,-1.638594929371969,0.000233874365221709,-0.010037747211754322,0.853912889957428,7.075984242987943e-09,0.06665773689746857,0.5921608805656433,0.13271689414978027,0.4384176731109619
948.0,380.0,0.5372,-0.2656,9.2207,-0.0664,0.121,0.0089,-1.6847793064513148,-0.08390006422996521,1.7408422231674194,-2.1676979064941406,0.16041898727416992,2.0413594245910645,5.23430101850585,-0.011342383921146393,0.16911710798740387,-1.6386397520648401,0.00030148104997351766,0.0035467769484966993,0.8538569808006287,1.9696262849866475e-12,0.060507163405418396,0.5929696559906006,0.1338270753622055,0.4257742762565613
948.0,380.0,0.5372,-0.2656,9.2207,-0.0664,0.121,0.0089,-1.6855107746519984,-0.09370696544647217,1.745168924331665,-2.166389226913452,0.17999015748500824,2.065535306930542,5.2341850874717615,-0.010588185861706734,0.1799069195985794,-1.6386192480670374,0.0007522625382989645,0.016914328560233116,0.8538169860839844,3.579698216206112e-17,0.05399015173316002,0.5939896106719971,0.12399779260158539,0.388805091381073
948.0,380.0,0.5372,-0.2656,9.2207,-0.0664,0.121,0.0089,-1.6861144504942835,-0.09964564442634583,1.750565528869629,-2.165292739868164,0.19495823979377747,2.093172788619995,5.234141576081075,-0.01536419615149498,0.17086952924728394,-1.6386473814593714,0.0008217603899538517,0.0087734991684556,0.853888750076294,9.964221697781606e-21,0.056462302803993225,0.5947986245155334,0.12005025893449783,0.29827356338500977
948.0,380.0,0.5372,-0.2656,9.2207,-0.0664,0.121,0.0089,-1.6870409450926722,-0.10558078438043594,1.7692322731018066,-2.1636459827423096,0.20627786219120026,2.131798028945923,5.2339215753372095,-0.026850994676351547,0.17238304018974304,-1.6386717001544397,0.0005410140729509294,0.0033846732694655657,0.8539209961891174,1.8109482905515829e-25,0.05147859826683998,0.595755398273468,0.1254085898399353,0.3753601312637329
948.0,380.0,0.5372,-0.2656,9.2207,-0.0664,0.121,0.0089,-1.6876803837218226,-0.10976117104291916,1.8007982969284058,-2.162381887435913,0.21183478832244873,2.0958633422851562,5.233714210778036,-0.0395398810505867,0.1544887125492096,-1.6385987440692347,0.0005181005108170211,0.012103032320737839,0.8538771271705627,5.0408408649588846e-29,0.06253955513238907,0.5964635014533997,0.12649793922901154,0.4106731414794922
948.0,380.0,0.5372,-0.2656,9.2207,-0.0664,0.121,0.0089,-1.688371320764059,-0.11621575057506561,1.777723789215088,-2.1610617637634277,0.2249348759651184,2.1244664192199707,5.233462917595663,-0.059154145419597626,0.1382744312286377,-1.638583008443014,0.00042776059126481414,-0.004179998300969601,0.853825032711029,1.4031366195090977e-32,0.04000060260295868,0.59720778465271,0.12617777287960052,0.39403313398361206
948.0,380.0,0.5372,-0.2656,9.2207,-0.0664,0.121,0.0089,-1.6893507442870082,-0.1283240169286728,1.733769178390503,-2.1591787338256836,0.24066701531410217,2.163038969039917,5.232768225460806,-0.09681549668312073,0.1424998641014099,-1.6386478582965296,0.0009651705040596426,0.01013887207955122,0.8539451360702515,2.5501315984609835e-37,0.04950406402349472,0.5982804298400879,0.13025115430355072,0.378498375415802
761.0,374.0,0.8835,1.4148,9.6485,-0.0846,-0.0603,0.0133,-1.6901699505248011,-0.13832353055477142,1.8164339065551758,-2.1576833724975586,0.24421755969524384,2.0694799423217773,5.232077288418569,-0.12459513545036316,0.13294917345046997,-1.638603989277975,0.0011768252588808537,0.006574853323400021,0.8538808822631836,7.098417500883793e-41,0.053558774292469025,0.5990974307060242,0.12644314765930176,0.3512086868286133
761.0,374.0,0.8835,1.4148,9.6485,-0.0846,-0.0603,0.0133,-1.6912685833373011,-0.14709357917308807,1.6741819381713867,-2.1554982662200928,0.2680918574333191,2.197280168533325,5.231100070267477,-0.1252121478319168,0.12844805419445038,-1.6386192480670374,0.0027180856559425592,0.030055707320570946,0.8538649082183838,1.401298464324817e-45,0.056350283324718475,0.600081205368042,0.12608720362186432,0.3510996103286743
761.0,374.0,0.8835,1.4148,9.6485,-0.0846,-0.0603,0.0133,-1.6921845875182093,-0.14901414513587952,1.7585394382476807,-2.153900384902954,0.2886320948600769,2.223534107208252,5.230362343579092,-0.11982563883066177,0.135005921125412,-1.6385753790484827,0.00827407743781805,0.03191399574279785,0.8538930416107178,0.0,0.046689875423908234,0.6009143590927124,0.12752366065979004,0.3184806704521179
761.0,374.0,0.8835,1.4148,9.6485,-0.0846,-0.0603,0.0133,-1.693123003045553,-0.14439618587493896,1.8206942081451416,-2.1521432399749756,0.2926690876483917,2.180692434310913,5.229555713921346,-0.14555558562278748,0.1325971484184265,-1.6385276953326624,0.013880708254873753,0.027511565014719963,0.853877067565918,0.0,0.0494450181722641,0.6017192602157593,0.12671665847301483,0.3152598440647125
761.0,374.0,0.8835,1.4148,9.6485,-0.0846,-0.0603,0.0133,-1.6943417988219203,-0.15432687103748322,1.7929308414459229,-2.1497466564178467,0.3013409674167633,2.194774866104126,5.228234934597769,-0.17449870705604553,0.11919264495372772,-1.6384237448321741,0.0040998877957463264,0.007567143999040127,0.8538451194763184,0.0,0.051065027713775635,0.6027834415435791,0.12970414757728577,0.34409528970718384
761.0,374.0,0.8835,1.4148,9.6485,-0.0846,-0.0603,0.0133,-1.6953569851317347,-0.17596210539340973,1.7128238677978516,-2.1478970050811768,0.3150465190410614,2.1987996101379395,5.2271379111106775,-0.1797870546579361,0.1038840189576149,-1.6384723822223108,0.000480254995636642,0.010063936933875084,0.8538808822631836,0.0,0.0457581989467144,0.603539764881134,0.13504871726036072,0.3774188160896301
761.0,374.0,0.8835,1.4148,9.6485,-0.0846,-0.0603,0.0133,-1.696763654748434,-0.19354525208473206,1.7171108722686768,-2.1452879905700684,0.33061134815216064,2.259117364883423,5.2256571529205225,-0.21003998816013336,0.09919463098049164,-1.6384480635272425,0.0002215189451817423,0.021182429045438766,0.8538331985473633,0.0,0.04118232801556587,0.6045802235603333,0.1321433186531067,0.3141433596611023
761.0,374.0,0.8835,1.4148,9.6485,-0.0846,-0.0603,0.0133,-1.6978780231871546,-0.19043602049350739,1.7378000020980835,-2.1432883739471436,0.3424434959888458,2.2602920532226562,5.224328267365255,-0.23097187280654907,0.09148609638214111,-1.638484303151266,0.00016171361494343728,0.021360812708735466,0.853877067565918,0.0,0.04164521023631096,0.6053725481033325,0.13209977746009827,0.34574493765830994
761.0,374.0,0.8835,1.4148,9.6485,-0.0846,-0.0603,0.0133,-1.698984762231344,-0.18521246314048767,1.75724196434021,-2.1411778926849365,0.35479307174682617,2.254371404647827,5.222995269089498,-0.2472008764743805,0.0854211375117302,-1.6384156386004847,0.00017416547052562237,0.02776707336306572,0.8538451194763184,0.0,0.0469537079334259,0.6062697172164917,0.1337037831544876,0.33709001541137695
761.0,374.0,0.8835,1.4148,9.6485,-0.0846,-0.0603,0.0133,-1.7005993328490199,-0.1915811002254486,1.7933855056762695,-2.138181686401367,0.3775315284729004,2.2843384742736816,5.2207727310951135,-0.2779691219329834,0.06895041465759277,-1.6384394804583948,0.00014887783618178219,0.02036133036017418,0.8538728356361389,0.0,0.04687739163637161,0.6073217988014221,0.12891817092895508,0.2873031198978424
761.0,374.0,0.8835,1.4148,9.6485,-0.0846,-0.0603,0.0133,-1.701885839501852,-0.21078923344612122,1.7850923538208008,-2.135957956314087,0.3836278021335602,2.27925705909729,5.219104814320364,-0.3000308573246002,0.04697967320680618,-1.6384876410113733,-4.8955149395624176e-05,0.016713805496692657,0.8538290858268738,0.0,0.04047343134880066,0.6080898642539978,0.12877565622329712,0.2905442416667938
761.0,374.0,0.8835,1.4148,9.6485,-0.0846,-0.0603,0.0133,-1.7031604252257289,-0.22572508454322815,1.7238012552261353,-2.1336121559143066,0.3977619707584381,2.361142873764038,5.217097389488973,-0.32286062836647034,0.044968828558921814,-1.6384599844561976,-4.240301495883614e-05,0.012584010139107704,0.8539049625396729,0.0,0.042436011135578156,0.608890950679779,0.13019032776355743,0.3381004333496094
761.0,374.0,0.8835,1.4148,9.6485,-0.0846,-0.0603,0.0133,-1.7049585781493128,-0.23898477852344513,1.7619948387145996,-2.1304094791412354,0.40723246335983276,2.3151488304138184,5.214363682060995,-0.37310343980789185,0.030040595680475235,-1.6384394804583948,-1.8213911971542984e-05,0.022441783919930458,0.8538608551025391,0.0,0.05737381428480148,0.609807014465332,0.1219354122877121,0.242875874042511
546.0,374.0,0.5222,1.4572,9.5061,0.036,-0.3328,-0.0215,-1.7063776455321253,-0.24259208142757416,1.729416012763977,-2.1279332637786865,0.42198967933654785,2.34562087059021,5.212052303343572,-0.396674782037735,0.004195369314402342,-1.6384356657611292,-5.069908493027242e-09,0.01205378957092762,0.8538930416107178,0.0,0.04280048608779907,0.6105797290802002,0.11913253366947174,0.24878749251365662
546.0,374.0,0.5222,1.4572,9.5061,0.036,-0.3328,-0.0215,-1.7082668743529261,-0.2404453158378601,1.7882213592529297,-2.124462127685547,0.4337882697582245,2.3011505603790283,5.20867686250762,-0.4297582805156708,-0.005599419120699167,-1.638468090687887,-9.214308325676199e-14,0.024895580485463142,0.853825032711029,0.0,0.03747743368148804,0.6115281581878662,0.12231533974409103,0.23828886449337006
546.0,374.0,0.5222,1.4572,9.5061,0.036,-0.3328,-0.0215,-1.7097937069334925,-0.2446562498807907,1.820857286453247,-2.1217892169952393,0.45078611373901367,2.357757806777954,5.206051933556356,-0.4441055953502655,0.010226994752883911,-1.638456169758932,-2.5648364438013353e-17,0.028862766921520233,0.8538572788238525,0.0,0.03798013925552368,0.6122761964797974,0.12187466025352478,0.26516297459602356
546.0,374.0,0.5222,1.4572,9.5061,0.036,-0.3328,-0.0215,-1.7113119564452113,-0.2564714550971985,1.7863178253173828,-2.1190578937530518,0.4603134095668793,2.3148558139801025,5.203162956028738,-0.4745047688484192,-0.007195764686912298,-1.6384199301349085,-7.139316703175621e-21,0.0279525276273489,0.8538689613342285,0.0,0.04628913849592209,0.6129969358444214,0.11395785212516785,0.2384113371372223
546.0,374.0,0.5222,1.4572,9.5061,0.036,-0.3328,-0.0215,-1.7134491405882777,-0.2659163177013397,1.8493940830230713,-2.1153063774108887,0.47684115171432495,2.4243247509002686,5.199149000435629,-0.5104345083236694,-0.011541532352566719,-1.638451878224508,-1.2975355499803055e-25,0.034240759909152985,0.8538651466369629,0.0,0.04108366742730141,0.6138575077056885,0.10648997128009796,0.20864295959472656
546.0,374.0,0.5222,1.4572,9.5061,0.036,-0.3328,-0.0215,-1.7150799236693324,-0.26898425817489624,1.9182085990905762,-2.1124351024627686,0.4903232753276825,2.4879889488220215,5.195999878435888,-0.5275956988334656,0.00834278017282486,-1.6384556929217737,-3.6117376516472554e-29,0.028412658721208572,0.853833019733429,0.0,0.04134707897901535,0.6145020127296448,0.09843664616346359,0.19796104729175568
546.0,374.0,0.5222,1.4572,9.5061,0.036,-0.3328,-0.0215,-1.7173100910582484,-0.2878636419773102,1.847259759902954,-2.108480930328369,0.5042909979820251,2.4205493927001953,5.191632318287649,-0.5627470016479492,-0.002287625800818205,-1.638439957295553,-6.564153768711066e-34,0.03379003703594208,0.8538410663604736,0.0,0.03883131593465805,0.6152506470680237,0.09102409332990646,0.1850828230381012
546.0,374.0,0.5222,1.4572,9.5061,0.036,-0.3328,-0.0215,-1.7190529308714808,-0.2832392156124115,1.864243745803833,-2.1054422855377197,0.5134716033935547,2.409207582473755,5.188238638430395,-0.5815499424934387,-0.016707904636859894,-1.638439957295553,-1.8271565428533205e-37,0.037799861282110214,0.8538730144500732,0.0,0.04109351336956024,0.6157626509666443,0.08700995147228241,0.18476656079292297
546.0,374.0,0.5222,1.4572,9.5061,0.036,-0.3328,-0.0215,-1.7207499943175257,-0.2852572798728943,1.8914721012115479,-2.1022167205810547,0.5349463224411011,2.4283084869384766,5.184657233744421,-0.5972576141357422,-0.002188541227951646,-1.6384318510638636,-5.086012776266924e-41,0.02979097329080105,0.8538051247596741,0.0,0.03425285965204239,0.6162542104721069,0.08977611362934113,0.17231810092926025
546.0,374.0,0.5222,1.4572,9.5061,0.036,-0.3328,-0.0215,-1.7231656513609828,-0.29748934507369995,1.8579177856445312,-2.0979182720184326,0.546116292476654,2.414705991744995,5.17960615733222,-0.632161557674408,0.0015852097421884537,-1.6384394804583948,-1.401298464324817e-45,0.025965876877307892,0.8538410663604736,0.0,0.03456414118409157,0.6169511079788208,0.08826852589845657,0.13935726881027222
546.0,374.0,0.5222,1.4572,9.5061,0.036,-0.3328,-0.0215,-1.7249795399107875,-0.2972073554992676,1.9331250190734863,-2.094576358795166,0.5465381145477295,2.386117696762085,5.1757810590560815,-0.6455309391021729,-3.277440555393696e-05,-1.638399902974264,-0.0,0.02787918969988823,0.8538491725921631,0.0,0.02345089800655842,0.6174392104148865,0.08353399485349655,0.1489742398262024
546.0,374.0,0.5222,1.4572,9.5061,0.036,-0.3328,-0.0215,-1.727370401422018,-0.3076220154762268,1.943466067314148,-2.0900497436523438,0.5584485530853271,2.3932392597198486,5.170542347222128,-0.6646649837493896,0.011377427726984024,-1.638439957295553,-0.0,0.036114610731601715,0.8538811206817627,0.0,0.04974619671702385,0.618079662322998,0.07481972873210907,0.13683485984802246
546.0,374.0,0.5222,1.4572,9.5061,0.036,-0.3328,-0.0215,-1.7291890583434046,-0.3156123161315918,1.9970470666885376,-2.086648941040039,0.5690916180610657,2.4016594886779785,5.166561412602224,-0.6759790182113647,-0.0017099883407354355,-1.638456169758932,-0.0,0.021698448807001114,0.8538730144500732,0.0,0.03277561068534851,0.6184995174407959,0.06739011406898499,0.05902004987001419
546.0,374.0,0.5222,1.4572,9.5061,0.036,-0.3328,-0.0215,-1.7310143909850062,-0.3121636211872101,1.9802788496017456,-2.083224296569824,0.5772411823272705,2.3944249153137207,5.162538516312399,-0.6774355173110962,0.01843273639678955,-1.6384237448321741,-0.0,0.03721208497881889,0.853837251663208,0.0,0.04869180917739868,0.6188477277755737,0.05769238993525505,0.10265446454286575
475.0,343.0,2.683,1.1288,8.7847,-0.0617,-0.3322,-0.1104,-1.7334662876524867,-0.3097129166126251,1.9909789562225342,-2.0786166191101074,0.5894507169723511,2.394050121307373,5.157209265023031,-0.6751548647880554,0.005716176237910986,-1.6383879820453089,-0.0,0.024552468210458755,0.8538410663604736,0.0,0.0377550944685936,0.6193283796310425,0.04277920350432396,0.07563625276088715
475.0,343.0,2.683,1.1288,8.7847,-0.0617,-0.3322,-0.1104,-1.7353011570372523,-0.3071715235710144,2.0025265216827393,-2.075044631958008,0.5978178977966309,2.3540091514587402,5.153058844595709,-0.6710655093193054,0.009484482929110527,-1.6384795347796839,-0.0,0.027132492512464523,0.8538410663604736,0.0,0.03211813420057297,0.6194915771484375,0.033659081906080246,0.06357354670763016
475.0,343.0,2.683,1.1288,8.7847,-0.0617,-0.3322,-0.1104,-1.7372032604613246,-0.31016480922698975,2.0283610820770264,-2.07145619392395,0.609749972820282,2.404853105545044,5.149104970484533,-0.6651103496551514,0.02330458164215088,-1.6384318510638636,-0.0,0.037188686430454254,0.8538970351219177,0.0,0.031821466982364655,0.6196919679641724,0.027358243241906166,0.07471545040607452
475.0,343.0,2.683,1.1288,8.7847,-0.0617,-0.3322,-0.1104,-1.7396618328490199,-0.3131873309612274,2.0780365467071533,-2.066666841506958,0.6165993809700012,2.388380765914917,5.143877762347021,-0.6436894536018372,0.04089752584695816,-1.6384156386004847,-0.0,0.03450523689389229,0.8538172245025635,0.0,0.03370419144630432,0.6199122667312622,0.019814759492874146,0.008525675162672997
475.0,343.0,2.683,1.1288,8.7847,-0.0617,-0.3322,-0.1104,-1.7415958843626917,-0.32210609316825867,2.0673017501831055,-2.062833309173584,0.6111220717430115,2.3581202030181885,5.140014755516805,-0.635654866695404,0.03367551043629646,-1.6384480635272425,-0.0,0.03723562881350517,0.853833019733429,0.0,0.04605522379279137,0.6199520230293274,0.01358325220644474,0.02101936936378479
475.0,343.0,2.683,1.1288,8.7847,-0.0617,-0.3322,-0.1104,-1.7441750965514125,-0.3227924704551697,2.0785462856292725,-2.0578055381774902,0.6208100914955139,2.3654751777648926,5.1351690767105005,-0.6147332787513733,0.0490620955824852,-1.6384719053851526,-0.0,0.031926121562719345,0.8538651466369629,0.0,0.04132550209760666,0.6199997663497925,0.005303087644279003,0.025599556043744087
475.0,343.0,2.683,1.1288,8.7847,-0.0617,-0.3322,-0.1104,-1.7460690937437953,-0.3136962950229645,2.115176200866699,-2.0540666580200195,0.6335037350654602,2.4123237133026123,5.1316363392169855,-0.5893524289131165,0.04464586824178696,-1.638411823903219,-0.0,0.029534239321947098,0.8538811206817627,0.0,0.04688596352934837,0.6200200319290161,0.0019905278459191322,0.003057706169784069
475.0,343.0,2.683,1.1288,8.7847,-0.0617,-0.3322,-0.1104,-1.7480408153929652,-0.31642183661460876,2.1643357276916504,-2.050337791442871,0.639826238155365,2.4590353965759277,5.128200727492132,-0.5615383982658386,0.05563219636678696,-1.6384275595294397,-0.0,0.007477154489606619,0.8538689613342285,0.0,0.03208998963236809,0.6200360655784607,4.034804135244485e-07,-0.011919920332729816
475.0,343.0,2.683,1.1288,8.7847,-0.0617,-0.3322,-0.1104,-1.7505914173521937,-0.3079443573951721,2.2564001083374023,-2.0452444553375244,0.642241358757019,2.414273500442505,5.123812871962347,-0.5243638753890991,0.0754639059305191,-1.6384361425982874,4.115130286663771e-05,0.015515143051743507,0.8538291454315186,0.0,0.02726065181195736,0.6200681924819946,1.3072252698712039e-14,0.014675851911306381
475.0,343.0,2.683,1.1288,8.7847,-0.0617,-0.3322,-0.1104,-1.752516885797018,-0.3097735047340393,2.2295584678649902,-2.0413706302642822,0.6461107134819031,2.348715305328369,5.120748388558187,-0.5018587708473206,0.07264172285795212,-1.6384313742267054,3.8516333006555215e-05,0.018726637586951256,0.8538529872894287,0.0,0.0513201579451561,0.6200162768363953,3.156794897962835e-20,0.022305462509393692
475.0,343.0,2.683,1.1288,8.7847,-0.0617,-0.3322,-0.1104,-1.7551285229124964,-0.32231518626213074,2.206582546234131,-2.036163091659546,0.6529965400695801,2.3929786682128906,5.116833942919531,-0.4687748849391937,0.0907834991812706,-1.6384480635272425,3.547949745552614e-05,0.014296275563538074,0.8539287447929382,0.0,0.05549321323633194,0.6200443506240845,-0.0001572897017467767,0.011223046109080315
475.0,343.0,2.683,1.1288,8.7847,-0.0617,-0.3322,-0.1104,-1.7570387325682582,-0.31317928433418274,2.240264654159546,-2.0323753356933594,0.6480033993721008,2.359220504760742,5.114106285362997,-0.43891048431396484,0.0957406684756279,-1.6384723822223108,1.678696571616456e-05,0.016080191358923912,0.8539566397666931,-2.139090429409407e-05,0.055850230157375336,0.6200079917907715,-0.00020137036335654557,0.05039038136601448
475.0,343.0,2.683,1.1288,8.7847,-0.0617,-0.3322,-0.1104,-1.7589017353453578,-0.31544795632362366,2.219514846801758,-2.0283796787261963,0.6428420543670654,2.3617959022521973,5.111652272730627,-0.414663702249527,0.10797550529241562,-1.6384723822223108,1.586361395311542e-05,-0.0077081406489014626,0.8539009094238281,-1.0478888725629076e-05,0.059485092759132385,0.6200162768363953,-0.0002261829940835014,0.027675636112689972
474.0,332.0,3.8112,0.2058,10.5488,-0.0446,0.1975,-0.1272,-1.7613560161986292,-0.30968788266181946,2.2600457668304443,-2.023145914077759,0.645456075668335,2.402047872543335,5.10857110002593,-0.3652380108833313,0.13393273949623108,-1.6384637991534632,3.3161892787347824e-08,-0.012355882674455643,0.8539766073226929,-3.740914245042859e-10,0.07829216122627258,0.6199793219566345,-1.644273623924164e-07,0.03496804088354111
474.0,332.0,3.8112,0.2058,10.5488,-0.0446,0.1975,-0.1272,-1.7631660900511683,-0.3015245497226715,2.3309342861175537,-2.0193097591400146,0.6544587016105652,2.3884880542755127,5.10652174332694,-0.3208632469177246,0.1613856852054596,-1.6384394804583948,9.230735099896581e-12,-0.011383077129721642,0.8539326190948486,0.000891542062163353,0.06583460420370102,0.6200481057167053,-3.970727826402287e-13,0.09399055689573288
474.0,332.0,3.8112,0.2058,10.5488,-0.0446,0.1975,-0.1272,-1.765456338922018,-0.29250097274780273,2.283015251159668,-2.014176368713379,0.6498426795005798,2.403745651245117,5.104298966913976,-0.27842241525650024,0.16709887981414795,-1.6384475866900843,1.6776404698234617e-16,0.008132594637572765,0.853940486907959,0.0019373171962797642,0.08964359760284424,0.6200723648071289,0.0009911389788612723,0.13762536644935608
474.0,332.0,3.8112,0.2058,10.5488,-0.0446,0.1975,-0.1272,-1.7672506771483363,-0.29034367203712463,2.3611278533935547,-2.010244131088257,0.6461329460144043,2.3811187744140625,5.102792429714956,-0.22383825480937958,0.21624213457107544,-1.6384475866900843,4.669774477394812e-20,-0.004987069871276617,0.8539689183235168,0.0030865289736539125,0.08436143398284912,0.6200481057167053,0.001027667778544128,0.15140661597251892
474.0,332.0,3.8112,0.2058,10.5488,-0.0446,0.1975,-0.1272,-1.7689854107298792,-0.29309746623039246,2.307404041290283,-2.006429433822632,0.650600016117096,2.3410134315490723,5.101664411812582,-0.1867702156305313,0.20699170231819153,-1.63845140138735,1.2998487909076336e-23,-0.01149737648665905,0.8540127277374268,0.0035748977679759264,0.09280264377593994,0.6200439929962158,0.0016047104727476835,0.11513397097587585
474.0,332.0,3.8112,0.2058,10.5488,-0.0446,0.1975,-0.1272,-1.7712599239745082,-0.2925809621810913,2.328254222869873,-2.001201629638672,0.6485663056373596,2.3753304481506348,5.100332546025076,-0.13774679601192474,0.2422885000705719,-1.6384313742267054,2.3624109106622496e-28,-0.008778618648648262,0.8539886474609375,0.003516963217407465,0.09600979089736938,0.6200639605522156,0.002357379999011755,0.20291903614997864
474.0,332.0,3.8112,0.2058,10.5488,-0.0446,0.1975,-0.1272,-1.7730018101134242,-0.2959739863872528,2.36681866645813,-1.9971352815628052,0.6424910426139832,2.389000415802002,5.099711972265997,-0.09131328761577606,0.23829269409179688,-1.6384556929217737,6.575857633316326e-32,-0.002807693090289831,0.8540484309196472,0.0035572401247918606,0.1030217781662941,0.6200920343399048,0.001462471322156489,0.13483044505119324
474.0,332.0,3.8112,0.2058,10.5488,-0.0446,0.1975,-0.1272,-1.775360723535055,-0.29258954524993896,2.394298791885376,-1.9918774366378784,0.6480096578598022,2.3749797344207764,5.099253552943029,-0.04107678309082985,0.25731730461120605,-1.6384394804583948,1.1951297484783646e-36,-0.011689065024256706,0.8540610671043396,0.0018638974288478494,0.11213812232017517,0.6200758814811707,0.000975973904132843,0.1947830617427826
474.0,332.0,3.8112,0.2058,10.5488,-0.0446,0.1975,-0.1272,-1.7771111927428187,-0.28272926807403564,2.3701188564300537,-1.988021969795227,0.6607713103294373,2.436555862426758,5.099150407105245,-0.013475172221660614,0.29899221658706665,-1.638468090687887,3.3266825543071157e-40,-0.005872438661754131,0.8540403842926025,0.0011445932323113084,0.10111604630947113,0.6201039552688599,0.001048770733177662,0.1505829393863678
474.0,332.0,3.8112,0.2058,10.5488,-0.0446,0.1975,-0.1272,-1.7788053951659144,-0.2876672148704529,2.3942322731018066,-1.9841315746307373,0.6625577807426453,2.414400100708008,5.099098431855001,-0.00031024354393593967,0.3022785782814026,-1.6384556929217737,9.248569864543793e-44,0.0008965589222498238,0.8540687561035156,0.0008495419169776142,0.09961109608411789,0.6201242804527283,0.0011397749185562134,0.1515008956193924
474.0,332.0,3.8112,0.2058,10.5488,-0.0446,0.1975,-0.1272,-1.7812453709044398,-0.28598159551620483,2.422729015350342,-1.9788786172866821,0.6563994288444519,2.398458242416382,5.0990545628364465,-5.6385225377653114e-09,0.3054404556751251,-1.6384356657611292,0.0,-0.02209753356873989,0.854036808013916,0.0005038661765865982,0.0915989801287651,0.6201361417770386,0.001388039905577898,0.1335851550102234
474.0,332.0,3.8112,0.2058,10.5488,-0.0446,0.1975,-0.1272,-1.7829677067198695,-0.28616639971733093,2.391352415084839,-1.9749622344970703,0.6662851572036743,2.371588945388794,5.099042701512136,0.0001470169227104634,0.2950415313243866,-1.638468090687887,0.0,-0.017848195508122444,0.8540647029876709,0.0005252577248029411,0.10875674337148666,0.6201602220535278,0.003118628403171897,0.1418008804321289
474.0,332.0,3.8112,0.2058,10.5488,-0.0446,0.1975,-0.1272,-1.7847634754576625,-0.2946544587612152,2.4215259552001953,-1.9710077047348022,0.6744909286499023,2.3825764656066895,5.0990545628364465,1.962126816579257e-06,0.2856261730194092,-1.6384761969195765,0.0,-0.0014209719374775887,0.8540999889373779,0.0006338614621199667,0.1126096248626709,0.6201359629631042,0.003602342214435339,0.1663961261510849
411.0,311.0,1.3208,0.4319,10.054,-0.0199,0.3868,-0.1194,-1.787154336968893,-0.29254788160324097,2.408398151397705,-1.9655858278274536,0.6623633503913879,2.414161205291748,5.098994332342901,-0.0017852892633527517,0.2997044324874878,-1.6384723822223108,0.0,0.010646356269717216,0.8540919423103333,0.0010369938099756837,0.09689318388700485,0.6202043294906616,0.0023963013663887978,0.1359325349330902
411.0,311.0,1.3208,0.4319,10.054,-0.0199,0.3868,-0.1194,-1.7888771496214808,-0.28678885102272034,2.4604456424713135,-1.9615501165390015,0.6620840430259705,2.4218993186950684,5.099002468376913,-0.0011359902564436197,0.27503257989883423,-1.6384795347796839,-4.2292413127142936e-05,-0.015530520118772984,0.8541238307952881,0.001517687109299004,0.10779484361410141,0.6201838850975037,0.0036038148682564497,0.16634806990623474
411.0,311.0,1.3208,0.4319,10.054,-0.0199,0.3868,-0.1194,-1.7911316357054652,-0.29250168800354004,2.392568588256836,-1.9562926292419434,0.6709049344062805,2.462035894393921,5.098990189820089,-0.00018692997400648892,0.2829012870788574,-1.6384723822223108,-5.797705671284348e-05,-0.014902107417583466,0.8541156053543091,0.0017611139919608831,0.12577760219573975,0.6202683448791504,0.008541010320186615,0.21316441893577576
411.0,311.0,1.3208,0.4319,10.054,-0.0199,0.3868,-0.1194,-1.7928139171996058,-0.28483322262763977,2.4163267612457275,-1.952332854270935,0.6706787943840027,2.4719951152801514,5.098974990635671,-0.0004141959943808615,0.29132187366485596,-1.6384394804583948,-5.4469470342155546e-05,-0.00404277304187417,0.8541478514671326,0.0017104665748775005,0.11841361969709396,0.6203284859657288,0.011056660674512386,0.24641576409339905
411.0,311.0,1.3208,0.4319,10.054,-0.0199,0.3868,-0.1194,-1.7945524654784144,-0.2798049747943878,2.463806390762329,-1.9483811855316162,0.6619336009025574,2.3868067264556885,5.098923194199362,-0.008804974146187305,0.26976948976516724,-1.6384637991534632,-5.136097388458438e-05,-0.016099680215120316,0.8541078567504883,0.0018275370821356773,0.13218578696250916,0.6203964948654175,0.012853508815169334,0.22744014859199524
411.0,311.0,1.3208,0.4319,10.054,-0.0199,0.3868,-0.1194,-1.7967764339842738,-0.27959510684013367,2.42499041557312,-1.9429830312728882,0.6658082008361816,2.407522678375244,5.09883143284873,-0.0160785224288702,0.26264825463294983,-1.6384761969195765,-4.7729179641464725e-05,-0.02097899653017521,0.8541682958602905,0.0024039053823798895,0.11659508943557739,0.6204642057418823,0.017913414165377617,0.29177743196487427
411.0,311.0,1.3208,0.4319,10.054,-0.0199,0.3868,-0.1194,-1.7984630070128382,-0.2785904109477997,2.471350908279419,-1.9389796257019043,0.6673258543014526,2.3618788719177246,5.098707902222433,-0.022678064182400703,0.26586174964904785,-1.6384637991534632,-4.532545426627621e-05,-0.01365186832845211,0.8541639447212219,0.002780990209430456,0.12375745177268982,0.6206571459770203,0.0233824010938406,0.27014172077178955
411.0,311.0,1.3208,0.4319,10.054,-0.0199,0.3868,-0.1194,-1.8006860218443812,-0.28326496481895447,2.4713449478149414,-1.9336652755737305,0.6553962826728821,2.3794291019439697,5.098404633789816,-0.04284293204545975,0.25928616523742676,-1.6384876410113733,-4.2473380744922906e-05,-0.014700258150696754,0.8542277216911316,0.003920671995729208,0.119606614112854,0.6208409070968628,0.029519181698560715,0.32081112265586853
411.0,311.0,1.3208,0.4319,10.054,-0.0199,0.3868,-0.1194,-1.8023439846434535,-0.28158071637153625,2.4812541007995605,-1.9296538829803467,0.6524171829223633,2.4280478954315186,5.098105567484655,-0.05251776799559593,0.2512797713279724,-1.638468090687887,-4.0559290937380865e-05,-0.014938182197511196,0.8542842864990234,0.004765994381159544,0.13545037806034088,0.6210491061210632,0.03543064743280411,0.3279932737350464
411.0,311.0,1.3208,0.4319,10.054,-0.0199,0.3868,-0.1194,-1.8039986095824183,-0.2821091413497925,2.421617031097412,-1.9257144927978516,0.6581030488014221,2.4482574462890625,5.097838121443548,-0.04859985038638115,0.2463059425354004,-1.6384804884540003,-3.881025259033777e-05,-0.01131221279501915,0.854263961315155,0.004938929807394743,0.1450156569480896,0.6212206482887268,0.0432514064013958,0.2906840443611145
411.0,311.0,1.3208,0.4319,10.054,-0.0199,0.3868,-0.1194,-1.806265493432516,-0.274686336517334,2.449953317642212,-1.9205236434936523,0.662117600440979,2.409026861190796,5.097423392325201,-0.03548722341656685,0.22745013236999512,-1.6384437719928187,2.4992521503008902e-05,-0.01330787967890501,0.8542916774749756,0.005501810926944017,0.13525541126728058,0.621633768081665,0.050899017602205276,0.3491378426551819
411.0,311.0,1.3208,0.4319,10.054,-0.0199,0.3868,-0.1194,-1.8078676662840785,-0.2669088542461395,2.5101845264434814,-1.916612982749939,0.6533907055854797,2.434929609298706,5.09722791889266,-0.029130510985851288,0.24598263204097748,-1.63845140138735,1.4238724865833774e-08,-0.012666274793446064,0.8543595671653748,0.005626588594168425,0.14508619904518127,0.621989905834198,0.05633742734789848,0.38139182329177856
411.0,311.0,1.3208,0.4319,10.054,-0.0199,0.3868,-0.1194,-1.8101517162718714,-0.27834466099739075,2.531503438949585,-1.9114313125610352,0.6530691981315613,2.461322784423828,5.097105252533712,-0.01857791095972061,0.25089380145072937,-1.6384556929217737,2.5878176554763876e-13,-0.0015104544581845403,0.8543870449066162,0.005448261275887489,0.13585308194160461,0.6224982738494873,0.07113400101661682,0.3690699338912964
411.0,311.0,1.3208,0.4319,10.054,-0.0199,0.3868,-0.1194,-1.8119384251036585,-0.28571146726608276,2.456401824951172,-1.9075055122375488,0.649868905544281,2.438040256500244,5.096965390234747,-0.0113562336191535,0.2646966874599457,-1.6384356657611292,7.203285312225308e-17,-0.011286843568086624,0.8544670343399048,0.005254726391285658,0.13007144629955292,0.6229064464569092,0.08132605999708176,0.4530686140060425
373.0,315.0,0.7394,1.8347,9.3272,0.0652,0.3801,-0.0739,-1.813608308831686,-0.28569331765174866,2.529160499572754,-1.9036275148391724,0.6425107717514038,2.4334349632263184,5.0969740627105615,-0.008696651086211205,0.2568928897380829,-1.6384599844561976,2.0050607632279637e-20,-0.012853111140429974,0.8544631004333496,0.004526269156485796,0.14747513830661774,0.6233950257301331,0.08609756827354431,0.42797738313674927
373.0,315.0,0.7394,1.8347,9.3272,0.0652,0.3801,-0.0739,-1.816007753411764,-0.2975948452949524,2.451338768005371,-1.8984286785125732,0.6364856362342834,2.429093599319458,5.096937942295828,-0.002934233983978629,0.2557991147041321,-1.6384275595294397,3.644099317799644e-25,-0.001732393866404891,0.8544948101043701,0.003724057460203767,0.1497815102338791,0.6241114735603333,0.09116384387016296,0.4665641784667969
373.0,315.0,0.7394,1.8347,9.3272,0.0652,0.3801,-0.0739,-1.8177787266173304,-0.2941863238811493,2.505603075027466,-1.8945565223693848,0.637965202331543,2.450700044631958,5.09693797209815,-0.0011564608430489898,0.2411951720714569,-1.638468090687887,1.0143484219980048e-28,-0.003590807318687439,0.8545225262641907,0.002788991667330265,0.13735871016979218,0.6247076988220215,0.0899820402264595,0.4220493733882904
373.0,315.0,0.7394,1.8347,9.3272,0.0652,0.3801,-0.0739,-1.8200894794859828,-0.28244122862815857,2.476433038711548,-1.88959538936615,0.6415805816650391,2.5127832889556885,5.0969219384487054,-0.0006657071644440293,0.25260844826698303,-1.6384957472430628,1.843528157736578e-33,0.006446584593504667,0.8545146584510803,0.0028800314757972956,0.1505337804555893,0.625444233417511,0.08776762336492538,0.38202694058418274
373.0,315.0,0.7394,1.8347,9.3272,0.0652,0.3801,-0.0739,-1.8218447170653285,-0.28953978419303894,2.508333444595337,-1.8858201503753662,0.6298341155052185,2.449611186981201,5.0968297002609155,-0.0004951007431373,0.24639791250228882,-1.6384637991534632,5.1315276230114565e-37,0.004085973836481571,0.8544588088989258,0.0028904795181006193,0.16342657804489136,0.6259400844573975,0.09147562831640244,0.4034009575843811
373.0,315.0,0.7394,1.8347,9.3272,0.0652,0.3801,-0.0739,-1.8235794506468714,-0.29345670342445374,2.4790992736816406,-1.8820924758911133,0.6244724988937378,2.44645094871521,5.096873956709661,-0.001192240510135889,0.24664975702762604,-1.6384194532977503,1.4283855636402158e-40,-0.0006204759702086449,0.8544902801513672,0.002656463999301195,0.13734789192676544,0.6265084743499756,0.10082720965147018,0.4252379238605499
373.0,315.0,0.7394,1.8347,9.3272,0.0652,0.3801,-0.0739,-1.8258949718871058,-0.29493844509124756,2.522073745727539,-1.8771300315856934,0.6237883567810059,2.4577786922454834,5.096833812981405,-0.0006853268132545054,0.2482915073633194,-1.6384556929217737,2.802596928649634e-45,-0.0015097273280844092,0.8545782566070557,0.0020135287195444107,0.15295648574829102,0.6273171901702881,0.11233721673488617,0.4539952278137207
373.0,315.0,0.7394,1.8347,9.3272,0.0652,0.3801,-0.0739,-1.827660699883932,-0.29524388909339905,2.5476205348968506,-1.8733669519424438,0.6154084801673889,2.477872371673584,5.09687020161704,-0.0005287069361656904,0.2600102722644806,-1.6383755842791956,0.0,-0.00029638223350048065,0.8545304536819458,0.001690555363893509,0.15206171572208405,0.6280378103256226,0.11456867307424545,0.4240519404411316
373.0,315.0,0.7394,1.8347,9.3272,0.0652,0.3801,-0.0739,-1.8293434582152308,-0.29274338483810425,2.5587291717529297,-1.8696362972259521,0.6070306897163391,2.502922296524048,5.096866148501196,-0.0004035230085719377,0.2616576850414276,-1.6384237448321741,0.0,0.008517002686858177,0.8545863032341003,0.0012273592874407768,0.1493660807609558,0.6287263035774231,0.11540621519088745,0.44922181963920593
373.0,315.0,0.7394,1.8347,9.3272,0.0652,0.3801,-0.0739,-1.8316098652281703,-0.2892165184020996,2.5783708095550537,-1.8647007942199707,0.6099454760551453,2.486748695373535,5.096894043474951,-0.0002857274666894227,0.2670680582523346,-1.6384242216693323,0.0,-0.01109805703163147,0.8545381426811218,0.0007208578172139823,0.14453311264514923,0.6296827793121338,0.12448195368051529,0.4378148317337036
373.0,315.0,0.7394,1.8347,9.3272,0.0652,0.3801,-0.0739,-1.833365102807516,-0.28911906480789185,2.6094470024108887,-1.861025333404541,0.6114714741706848,2.510819911956787,5.096841978817739,-0.0002399916120339185,0.27080750465393066,-1.6384599844561976,0.0,0.005741356406360865,0.8546387553215027,0.0006003242451697588,0.14463487267494202,0.6304954290390015,0.12533214688301086,0.4585578441619873
373.0,315.0,0.7394,1.8347,9.3272,0.0652,0.3801,-0.0739,-1.8356238804259242,-0.29288142919540405,2.6319432258605957,-1.856218695640564,0.6018408536911011,2.507368326187134,5.096846031933584,-0.0002741505450103432,0.266898512840271,-1.638439957295553,0.0,0.017584212124347687,0.8545020818710327,0.00046471768291667104,0.13713890314102173,0.6314880847930908,0.12820085883140564,0.44740164279937744
373.0,315.0,0.7394,1.8347,9.3272,0.0652,0.3801,-0.0739,-1.8374377689757289,-0.29359251260757446,2.6397323608398438,-1.852615475654602,0.6030160784721375,2.5212912559509277,5.096850114851751,-0.00024463620502501726,0.2699800133705139,-1.6384361425982874,0.0,0.01565486751496792,0.8545783758163452,0.00041145208524540067,0.13360165059566498,0.632264256477356,0.13293299078941345,0.40554124116897583
303.0,422.0,0.5192,0.7723,9.7466,0.024,0.3322,-0.0015,-1.839168211022848,-0.29023295640945435,2.7224416732788086,-1.84902822971344,0.6049355268478394,2.4918875694274902,5.096894013672628,-8.718522440176457e-05,0.25358816981315613,-1.6383956114398401,0.0,0.02769874595105648,0.8545424342155457,0.0003512243856675923,0.14589817821979523,0.6330687999725342,0.13285578787326813,0.3475976884365082
303.0,422.0,0.5192,0.7723,9.7466,0.024,0.3322,-0.0015,-1.8415590725340785,-0.2963773310184479,2.670304298400879,-1.8442339897155762,0.5988374948501587,2.499641180038452,5.096846121340551,-0.00010881734488066286,0.264658659696579,-1.6384318510638636,0.0,0.02246466465294361,0.8545782566070557,0.0002938689722213894,0.13108624517917633,0.6341373920440674,0.13159188628196716,0.4268527925014496
303.0,422.0,0.5192,0.7723,9.7466,0.024,0.3322,-0.0015,-1.843365331689352,-0.2977873980998993,2.6721630096435547,-1.8405561447143555,0.5915648341178894,2.5309360027313232,5.096850114851751,-9.759343083715066e-05,0.2696545422077179,-1.6384275595294397,0.0,0.023923706263303757,0.8545902371406555,0.0002618066791910678,0.13721883296966553,0.6349979043006897,0.1328216940164566,0.37324947118759155
303.0,422.0,0.5192,0.7723,9.7466,0.024,0.3322,-0.0015,-1.8457962475218714,-0.2977330684661865,2.6973202228546143,-1.8357250690460205,0.5957420468330383,2.487314462661743,5.096853899746694,0.0001226422900799662,0.264801025390625,-1.638451878224508,7.819067104719579e-05,0.017601393163204193,0.854498565196991,0.00022855876886751503,0.12779036164283752,0.6360985636711121,0.1379118263721466,0.3178097605705261
303.0,422.0,0.5192,0.7723,9.7466,0.024,0.3322,-0.0015,-1.8476320705809535,-0.3060712218284607,2.703023910522461,-1.8322186470031738,0.5988730788230896,2.524196147918701,5.096857952862539,5.407196658779867e-05,0.2789088189601898,-1.6384199301349085,7.43185737519525e-05,0.027199529111385345,0.8546022176742554,0.00020868319552391768,0.1379755139350891,0.6369510293006897,0.1443067342042923,0.4132930040359497
303.0,422.0,0.5192,0.7723,9.7466,0.024,0.3322,-0.0015,-1.8494869671263636,-0.2979632318019867,2.7141761779785156,-1.8286426067352295,0.5950718522071838,2.49588680267334,5.096854138165273,4.578792868414894e-05,0.2711900472640991,-1.6383956114398401,7.081015792209655e-05,0.018107280135154724,0.8546146750450134,0.00019198858353774995,0.13261361420154572,0.6377915740013123,0.14327099919319153,0.39754828810691833
303.0,422.0,0.5192,0.7723,9.7466,0.024,0.3322,-0.0015,-1.8518406353392542,-0.2919844388961792,2.7165005207061768,-1.8238824605941772,0.5880276560783386,2.5295095443725586,5.09687020161704,3.804387597483583e-05,0.2871132493019104,-1.638411823903219,7.988208380993456e-05,0.02793837897479534,0.8545783758163452,0.0001734835241222754,0.1335688978433609,0.6390007138252258,0.1353355050086975,0.3662702441215515
303.0,422.0,0.5192,0.7723,9.7466,0.024,0.3322,-0.0015,-1.8536955318846644,-0.29979217052459717,2.744818687438965,-1.8203928470611572,0.5886790156364441,2.477195978164673,5.096826064377584,2.0728100125211313e-08,0.2731666564941406,-1.6383960882769983,7.65412041801028e-05,0.021261323243379593,0.8545783162117004,0.00016178813530132174,0.12658841907978058,0.6398055553436279,0.1380307972431183,0.347411572933197
303.0,422.0,0.5192,0.7723,9.7466,0.024,0.3322,-0.0015,-1.856013914147848,-0.2964548170566559,2.7723276615142822,-1.8157082796096802,0.5898441076278687,2.587362766265869,5.09678994396285,3.767229854890336e-13,0.27603429555892944,-1.638428036366598,7.243440632009879e-05,0.02255142480134964,0.8545822501182556,0.00014844506222289056,0.14605668187141418,0.6408342719078064,0.13488824665546417,0.36306965351104736
303.0,422.0,0.5192,0.7723,9.7466,0.024,0.3322,-0.0015,-1.8577286205687464,-0.3002108633518219,2.702455997467041,-1.8122122287750244,0.5753877758979797,2.517777919769287,5.096818136959829,1.0486223550127405e-16,0.2848052680492401,-1.6384037176715296,6.963229679968208e-05,0.03040017932653427,0.8545622825622559,0.000139798125019297,0.11916115134954453,0.6416791677474976,0.13629528880119324,0.30678945779800415
303.0,422.0,0.5192,0.7723,9.7466,0.024,0.3322,-0.0015,-1.8595324955382289,-0.29634615778923035,2.7863006591796875,-1.8087257146835327,0.5684943795204163,2.5308291912078857,5.096854138165273,-0.001060135429725051,0.278986394405365,-1.6384199301349085,7.802220352459699e-05,0.023283831775188446,0.8545822501182556,0.00013210313045419753,0.13676416873931885,0.6424793601036072,0.14031115174293518,0.36692166328430176
303.0,422.0,0.5192,0.7723,9.7466,0.024,0.3322,-0.0015,-1.8618351421751917,-0.2905276417732239,2.7713358402252197,-1.8041218519210815,0.5758613348007202,2.4557809829711914,5.096850204258718,-0.0004138554504606873,0.27298402786254883,-1.6383879820453089,0.0001152234835899435,0.03721536695957184,0.8545225262641907,0.00010769139043986797,0.12495836615562439,0.6435930132865906,0.13571102917194366,0.3456272482872009
303.0,422.0,0.5192,0.7723,9.7466,0.024,0.3322,-0.0015,-1.8635217152037562,-0.2862647473812103,2.8328590393066406,-1.8006726503372192,0.5774544477462769,2.4884588718414307,5.096826094179907,-9.571834380039945e-05,0.2765212059020996,-1.6384080092059534,0.00015967506624292582,0.033376824110746384,0.8545265793800354,0.00010243409633403644,0.12302165478467941,0.6444254517555237,0.12998215854167938,0.31205442547798157
303.0,422.0,0.5192,0.7723,9.7466,0.024,0.3322,-0.0015,-1.865819593469137,-0.28444796800613403,2.7856435775756836,-1.7961487770080566,0.5712871551513672,2.5351459980010986,5.096814083843984,-6.685171683784574e-05,0.278020441532135,-1.6384003798114222,0.0001670309284236282,0.04900096356868744,0.8545305728912354,9.617882460588589e-05,0.11500820517539978,0.6454378962516785,0.12428049743175507,0.30825045704841614
264.0,866.0,0.0461,-1.1294,9.6981,-0.0741,0.3487,0.0012,-1.8675385914244593,-0.28882715106010437,2.8500328063964844,-1.7927504777908325,0.5668511986732483,2.481048583984375,5.096814113646307,-5.4663098126184195e-05,0.2822515368461609,-1.6383956114398401,0.00015508057549595833,0.04295976832509041,0.8545346856117249,9.196673636324704e-05,0.10651591420173645,0.6461583971977234,0.12256965786218643,0.26051899790763855
264.0,866.0,0.0461,-1.1294,9.6981,-0.0741,0.3487,0.0012,-1.8692857227721156,-0.2857270836830139,2.887103796005249,-1.7893375158309937,0.5693478584289551,2.4539363384246826,5.096822279482641,-4.6235141780925915e-05,0.2797853350639343,-1.6383560339557093,0.00014441527309827507,0.02538195252418518,0.8545384407043457,8.810817962512374e-05,0.1195380836725235,0.6469232439994812,0.12585605680942535,0.3102979362010956
264.0,866.0,0.0461,-1.1294,9.6981,-0.0741,0.3487,0.0012,-1.8715607128539027,-0.2867419421672821,2.90085506439209,-1.7848893404006958,0.5726608633995056,2.4823920726776123,5.09681003072814,-3.8352125557139516e-05,0.28418582677841187,-1.6383956114398401,0.0001322851749137044,0.027165856212377548,0.8545981645584106,8.344041998498142e-05,0.12135623395442963,0.6478837728500366,0.13582202792167664,0.31086766719818115
264.0,866.0,0.0461,-1.1294,9.6981,-0.0741,0.3487,0.0012,-1.873326917687887,-0.2907368242740631,2.86993408203125,-1.7814379930496216,0.5612877607345581,2.517116069793701,5.096758353501119,-6.785147706978023e-05,0.28159475326538086,-1.6383760611163538,0.00014214488328434527,0.0315425805747509,0.8545901775360107,8.025173156056553e-05,0.1375822126865387,0.6487372517585754,0.13383276760578156,0.28676265478134155
264.0,866.0,0.0461,-1.1294,9.6981,-0.0741,0.3487,0.0012,-1.8751145801939906,-0.28646865487098694,2.936072826385498,-1.778019905090332,0.5606446862220764,2.5160274505615234,5.096818196564474,-6.10836359555833e-05,0.2897438406944275,-1.6383798758136194,0.0001342670148005709,0.033257611095905304,0.8545700311660767,8.274114952655509e-05,0.1337159276008606,0.6494735479354858,0.12961232662200928,0.305778443813324
264.0,866.0,0.0461,-1.1294,9.6981,-0.0741,0.3487,0.0012,-1.877444406548971,-0.29066407680511475,2.8745040893554688,-1.7735196352005005,0.5641021132469177,2.528440475463867,5.096814143448629,-5.023781704949215e-05,0.28114640712738037,-1.6384361425982874,0.00016544903337489814,0.03744305670261383,0.8545703291893005,8.420752419624478e-05,0.12514829635620117,0.650510311126709,0.12044451385736465,0.32256564497947693
264.0,866.0,0.0461,-1.1294,9.6981,-0.0741,0.3487,0.0012,-1.8793288669981898,-0.3005025386810303,2.8611226081848145,-1.7701596021652222,0.5610710382461548,2.560964584350586,5.096762496023931,-7.392431871267036e-05,0.2907606363296509,-1.6383798758136194,0.00014933980128262192,0.03448357805609703,0.8545820116996765,8.13532606116496e-05,0.139175683259964,0.6512590050697327,0.11626255512237549,0.27800798416137695
264.0,866.0,0.0461,-1.1294,9.6981,-0.0741,0.3487,0.0012,-1.8816176853575648,-0.29110896587371826,2.8587942123413086,-1.7656679153442383,0.5590953230857849,2.509836435317993,5.096822279482641,-5.4387550335377455e-05,0.27948233485221863,-1.638439957295553,0.0001318373833782971,0.03720049932599068,0.8545820116996765,5.95708770561032e-05,0.12407749891281128,0.6521879434585571,0.11964694410562515,0.30851128697395325
264.0,866.0,0.0461,-1.1294,9.6981,-0.0741,0.3487,0.0012,-1.8833776913084925,-0.2906697988510132,2.9476099014282227,-1.762412190437317,0.5565999746322632,2.5001602172851562,5.09680591800765,-4.969019937561825e-05,0.2808641195297241,-1.638439957295553,0.00012118537415517494,0.031370677053928375,0.8545782566070557,1.970386847460759e-06,0.12871278822422028,0.6528684496879578,0.1262921243906021,0.3408016562461853
264.0,866.0,0.0461,-1.1294,9.6981,-0.0741,0.3487,0.0012,-1.8850962124266566,-0.29082998633384705,2.9254984855651855,-1.7590560913085938,0.5541130900382996,2.5429673194885254,5.096822249680319,-8.009967859834433e-05,0.2929762303829193,-1.6383960882769983,0.00011212604294996709,0.0237785242497921,0.854602575302124,5.484644405306938e-10,0.13538944721221924,0.6536009907722473,0.1288701295852661,0.387661337852478
264.0,866.0,0.0461,-1.1294,9.6981,-0.0741,0.3487,0.0012,-1.887378831902975,-0.28514260053634644,2.959878921508789,-1.7547639608383179,0.5540859699249268,2.5173654556274414,5.096794116287985,-8.328517287736759e-05,0.29868990182876587,-1.6383798758136194,0.00012230944412294775,0.035912156105041504,0.8545782566070557,9.96807091756995e-15,0.14433687925338745,0.6546017527580261,0.1262741982936859,0.3374842405319214
264.0,866.0,0.0461,-1.1294,9.6981,-0.0741,0.3487,0.0012,-1.8890253506102503,-0.2854991555213928,2.9709324836730957,-1.7514643669128418,0.5458811521530151,2.514167308807373,5.096826451807775,-0.00020887218124698848,0.2725919783115387,-1.638388458882467,0.00013301488070283085,0.04673207551240921,0.8546022176742554,2.7746489450190325e-18,0.12995943427085876,0.6553865671157837,0.12414656579494476,0.3219080865383148
264.0,866.0,0.0461,-1.1294,9.6981,-0.0741,0.3487,0.0012,-1.8913165531554164,-0.2847341299057007,2.961028575897217,-1.7470062971115112,0.5351122617721558,2.5140414237976074,5.096782165556707,-0.001052309526130557,0.2844867706298828,-1.6384242216693323,0.00017234952247235924,0.04471059888601303,0.8545265197753906,5.042787341282438e-23,0.1417204588651657,0.6563513278961182,0.11330689489841461,0.27684485912323
251.0,896.0,0.2734,-0.3733,9.5713,-0.0822,0.2981,0.0092,-1.8929792843260707,-0.28557077050209045,2.9653100967407227,-1.7437770366668701,0.5363905429840088,2.5590996742248535,5.096794116287985,-0.0005688026431016624,0.277383029460907,-1.6384161154376429,0.0001873593428172171,0.0493619441986084,0.8545782566070557,1.4036784487812646e-26,0.12513700127601624,0.657080352306366,0.1105182021856308,0.29282569885253906
251.0,896.0,0.2734,-0.3733,9.5713,-0.0822,0.2981,0.0092,-1.8946382007994593,-0.28274449706077576,2.9465994834899902,-1.7405644655227661,0.5310659408569336,2.5142457485198975,5.096822279482641,-0.0005596320843324065,0.28404611349105835,-1.6384041945086878,0.0001701463625067845,0.04898804798722267,0.8545504808425903,3.907190501907225e-30,0.1308782547712326,0.6577044129371643,0.11308429390192032,0.28808531165122986
251.0,896.0,0.2734,-0.3733,9.5713,-0.0822,0.2981,0.0092,-1.8968125782408656,-0.2751423716545105,3.0111653804779053,-1.736299991607666,0.5287060737609863,2.539649486541748,5.096838283329763,-0.00041598398820497096,0.2889438569545746,-1.6384361425982874,0.0001511009904788807,0.04075824096798897,0.8545860052108765,7.101126361034529e-35,0.12899112701416016,0.6585329174995422,0.11668331921100616,0.2896803915500641
251.0,896.0,0.2734,-0.3733,9.5713,-0.0822,0.2981,0.0092,-1.8985120258727015,-0.27360615134239197,2.999753475189209,-1.7331637144088745,0.5307356715202332,2.557689905166626,5.096822279482641,-0.00017363994265906513,0.2756512463092804,-1.6383917967425745,0.00016257830429822206,0.026365742087364197,0.8545584082603455,1.9766243900183392e-38,0.1284758597612381,0.6592740416526794,0.11405234783887863,0.24642318487167358
251.0,896.0,0.2734,-0.3733,9.5713,-0.0822,0.2981,0.0092,-1.90065397838735,-0.2635825574398041,3.0612101554870605,-1.7289414405822754,0.5293136239051819,2.5638113021850586,5.09683050492362,-0.00018250540597364306,0.2878461182117462,-1.6383922735797327,0.00014740938786417246,0.04932699725031853,0.8545901775360107,3.587324068671532e-43,0.12592251598834991,0.6601661443710327,0.11387311667203903,0.2768521308898926
251.0,896.0,0.2734,-0.3733,9.5713,-0.0822,0.2981,0.0092,-1.9023167095580042,-0.2687380909919739,3.0746009349823,-1.7258061170578003,0.5251484513282776,2.565974235534668,5.0967502174671075,-0.0002757032052613795,0.28082072734832764,-1.6384156386004847,0.00013774032413493842,0.036580298095941544,0.8546226620674133,0.0,0.12989220023155212,0.6609073877334595,0.11500680446624756,0.33431023359298706
251.0,896.0,0.2734,-0.3733,9.5713,-0.0822,0.2981,0.0092,-1.904015680352682,-0.2825489640235901,3.019810438156128,-1.7226712703704834,0.5287221670150757,2.605989694595337,5.096770542650976,-0.0003343112475704402,0.2718801498413086,-1.6383398214923304,0.00012926189810968935,0.046349719166755676,0.8546542525291443,0.00011918696691282094,0.1356476992368698,0.6616041660308838,0.11558600515127182,0.3136240839958191
251.0,896.0,0.2734,-0.3733,9.5713,-0.0822,0.2981,0.0092,-1.9062820873656214,-0.2791005074977875,3.023353099822998,-1.7184685468673706,0.5191761255264282,2.579190731048584,5.096766489535131,-0.0017694885609671474,0.2745567560195923,-1.6383917967425745,0.00011945755977649242,0.03872637450695038,0.8545821309089661,0.0011897147633135319,0.14555203914642334,0.6624845266342163,0.11229784786701202,0.29451388120651245
251.0,896.0,0.2734,-0.3733,9.5713,-0.0822,0.2981,0.0092,-1.908025404016012,-0.2814369201660156,3.07242751121521,-1.715320348739624,0.5177200436592102,2.566777229309082,5.096802192717352,-0.001141900196671486,0.278305321931839,-1.6384041945086878,0.00011302789062028751,0.0358877032995224,0.8547266721725464,0.0018781331600621343,0.14980190992355347,0.6631371378898621,0.11199942976236343,0.27981501817703247
251.0,896.0,0.2734,-0.3733,9.5713,-0.0822,0.2981,0.0092,-1.9103437862791957,-0.2889151871204376,3.057705879211426,-1.7111600637435913,0.5206365585327148,2.533815383911133,5.0967624364192865,-0.0006980648031458259,0.275019109249115,-1.6383679548846644,0.0001054595923051238,0.02422909438610077,0.8546302914619446,0.0015815739752724767,0.14324022829532623,0.6640827059745789,0.10665653645992279,0.25106966495513916
251.0,896.0,0.2734,-0.3733,9.5713,-0.0822,0.2981,0.0092,-1.9120460949339808,-0.2776101231575012,3.085986375808716,-1.7080354690551758,0.5198411345481873,2.5821034908294678,5.096758383303442,-0.00036507155164144933,0.27221521735191345,-1.6383798758136194,0.00010041685891337693,0.03183102235198021,0.8546264171600342,0.0010065895039588213,0.1497781127691269,0.6646945476531982,0.1030450388789177,0.29035648703575134
251.0,896.0,0.2734,-0.3733,9.5713,-0.0822,0.2981,0.0092,-1.9137288532652796,-0.27365636825561523,3.0692973136901855,-1.705032467842102,0.5202357769012451,2.5851540565490723,5.0967821953590295,-0.00025326767354272306,0.2767043709754944,-1.6384080092059534,9.583422070136294e-05,0.03997571021318436,0.8546343445777893,0.0006553017301484942,0.1543792337179184,0.6653311252593994,0.10137922316789627,0.2989509105682373
251.0,896.0,0.2734,-0.3733,9.5713,-0.0822,0.2981,0.0092,-1.9159914455809535,-0.2811962068080902,3.0578813552856445,-1.700916051864624,0.5116294622421265,2.543771505355835,5.096726316004553,-0.00036405512946657836,0.2775949239730835,-1.6383641401873987,9.033740207087249e-05,0.033379778265953064,0.8545985221862793,0.00044094413169659674,0.14987751841545105,0.6661684513092041,0.10023074597120285,0.2716742753982544
241.0,650.0,0.1878,0.8183,9.5073,0.0006,0.2796,-0.0388,-1.9176508388915003,-0.28120094537734985,3.12626314163208,-1.6978561878204346,0.5071380138397217,2.5880024433135986,5.096710371762075,-0.0025707148015499115,0.2805052697658539,-1.6383441130267542,8.661166066303849e-05,0.03768447786569595,0.8545103669166565,0.0003541290352586657,0.13337267935276031,0.6667203903198242,0.09942085295915604,0.28690922260284424
241.0,650.0,0.1878,0.8183,9.5073,0.0006,0.2796,-0.0388,-1.919304986993307,-0.2808625102043152,3.0989720821380615,-1.6947472095489502,0.5053547024726868,2.5626230239868164,5.096690344601431,-0.0016097243642434478,0.27522966265678406,-1.6383841673480433,9.505718480795622e-05,0.03155050799250603,0.8546144366264343,0.00034518708707764745,0.14714711904525757,0.6673245429992676,0.09806181490421295,0.26606735587120056
241.0,650.0,0.1878,0.8183,9.5073,0.0006,0.2796,-0.0388,-1.9214755497374476,-0.2752162516117096,3.112467050552368,-1.6907352209091187,0.5065319538116455,2.556218385696411,5.09673039892272,-0.0007949269493110478,0.2811576724052429,-1.6383960882769983,9.029520879266784e-05,0.023444022983312607,0.8545986413955688,0.00028312866925261915,0.13704997301101685,0.6681250929832458,0.09856629371643066,0.26973140239715576
