ramyac6/ROB537/final_project/csv/bad/bad_66.csv
tof_0,tof_1,accelx,accely,accelz,gyrox,gyroy,gyroz,shoulder_lift_joint_position,shoulder_lift_joint_velocity,shoulder_lift_joint_effort,elbow_joint_position,elbow_joint_velocity,elbow_joint_effort,wrist_1_joint_position,wrist_1_joint_velocity,wrist_1_joint_effort,wrist_2_joint_position,wrist_2_joint_velocity,wrist_2_joint_effort,wrist_3_joint_position,wrist_3_joint_velocity,wrist_3_joint_effort,shoulder_pan_joint_position,shoulder_pan_joint_velocity,shoulder_pan_joint_effort
315.0,558.0,-3.4792,-1.7246,9.2064,-0.0391,0.0276,-0.1242,-2.2847758732237757,0.0,4.734426021575928,-1.3497940301895142,-0.0,1.8548595905303955,5.511923539429464,-0.0,0.20485344529151917,-1.6386831442462366,0.0,0.0009144963114522398,-0.1034768263446253,0.0,0.0072166286408901215,1.2646090984344482,0.0,-0.013459502719342709
315.0,558.0,-3.4792,-1.7246,9.2064,-0.0391,0.0276,-0.1242,-2.2847072086729945,0.0,4.713689804077148,-1.3498338460922241,-0.0,1.886067271232605,5.511899578362264,-0.0,0.19724255800247192,-1.6387031714068812,0.0,0.019306644797325134,-0.10348874727358037,0.0,0.0013875633012503386,1.2646132707595825,0.0,-0.02764802798628807
315.0,558.0,-3.4792,-1.7246,9.2064,-0.0391,0.0276,-0.1242,-2.2847520313658656,0.0,4.723512172698975,-1.3498222827911377,-0.0,1.8774224519729614,5.511919307499685,-0.0,0.188567653298378,-1.6387112776385706,0.0,0.01624126546084881,-0.10347301164735967,0.0,0.0020521972328424454,1.2646454572677612,0.0,0.021701151505112648
315.0,558.0,-3.4792,-1.7246,9.2064,-0.0391,0.0276,-0.1242,-2.2847310505309046,0.0,4.677567958831787,-1.3498303890228271,-0.0,1.921068787574768,5.511931824475088,-0.0,0.2039617896080017,-1.6386831442462366,0.0,0.0065893931314349174,-0.10348016420473272,0.0,0.004333306569606066,1.2645448446273804,0.0,-0.027917243540287018
315.0,558.0,-3.4792,-1.7246,9.2064,-0.0391,0.0276,-0.1242,-2.28471102337026,0.0,4.711814880371094,-1.3498656749725342,-0.0,1.9182796478271484,5.5119032738502405,-0.0,0.1870107650756836,-1.6386993567096155,0.0,0.009458150714635849,-0.10348016420473272,0.0,-0.0028254855424165726,1.2645771503448486,0.0,0.017829153686761856
315.0,558.0,-3.4792,-1.7246,9.2064,-0.0391,0.0276,-0.1242,-2.284715314904684,0.0,4.694724082946777,-1.3498338460922241,-0.0,1.9168472290039062,5.511858570366659,-0.0,0.1981300264596939,-1.6386788527118128,0.0,0.009469592943787575,-0.10348016420473272,0.0,0.01656193472445011,1.2646090984344482,0.0,-0.03945213928818703
315.0,558.0,-3.4792,-1.7246,9.2064,-0.0391,0.0276,-0.1242,-2.284715314904684,0.0,4.771374702453613,-1.3498303890228271,-0.0,1.9353983402252197,5.511955964356222,-0.0,0.18669186532497406,-1.6387069861041468,0.0,0.0008280158508569002,-0.10345298448671514,0.0,0.010534842498600483,1.264573097229004,0.0,-0.02498577907681465
315.0,558.0,-3.4792,-1.7246,9.2064,-0.0391,0.0276,-0.1242,-2.2847758732237757,0.0,4.713088035583496,-1.3498735427856445,-0.0,1.8951575756072998,5.511943566590109,-0.0,0.19582955539226532,-1.6386788527118128,0.0,0.006585124880075455,-0.10349685350526983,0.0,0.0005748223047703505,1.264601230621338,0.0,-0.001324259676039219
311.0,564.0,-3.3817,-1.6798,9.0168,-0.0338,0.0226,-0.1075,-2.284743448297018,0.0,4.724891662597656,-1.3497940301895142,-0.0,1.8787755966186523,5.511931824475088,-0.0,0.2074757218360901,-1.6386907736407679,0.0,-0.00783003494143486,-0.10352498689760381,0.0,0.010201460681855679,1.2645931243896484,0.0,-0.03889245539903641
311.0,564.0,-3.3817,-1.6798,9.0168,-0.0338,0.0226,-0.1075,-2.284743448297018,0.0,4.729546546936035,-1.3498263359069824,-0.0,1.9087554216384888,5.5119109628494165,-0.0,0.19245532155036926,-1.6386993567096155,0.0,0.0012254214379936457,-0.10351306596864873,0.0,-0.0006165243685245514,1.2646090984344482,0.0,0.005893339402973652
311.0,564.0,-3.3817,-1.6798,9.0168,-0.0338,0.0226,-0.1075,-2.2847072086729945,0.0,4.707438945770264,-1.3498303890228271,-0.0,1.878370761871338,5.511931586056509,-0.0,0.20470651984214783,-1.6386225859271448,0.0,0.012846820056438446,-0.10343724886049444,0.0,0.0002816743217408657,1.2646013498306274,0.0,0.0003963792696595192
311.0,564.0,-3.3817,-1.6798,9.0168,-0.0338,0.0226,-0.1075,-2.2847353420653285,0.0,4.768417835235596,-1.349818468093872,-0.0,1.8786933422088623,5.511927592545309,-0.0,0.1842239797115326,-1.6386950651751917,0.0,0.0020438663195818663,-0.10347301164735967,0.0,-0.0038566933944821358,1.2645448446273804,0.0,-0.0013514310121536255
311.0,564.0,-3.3817,-1.6798,9.0168,-0.0338,0.0226,-0.1075,-2.2847353420653285,0.0,4.723766326904297,-1.3497899770736694,-0.0,1.9159328937530518,5.511935877590933,-0.0,0.21493878960609436,-1.6386831442462366,0.0,0.007797946687787771,-0.10342866579164678,0.0,0.007682877592742443,1.2645771503448486,0.0,-0.04632961004972458
311.0,564.0,-3.3817,-1.6798,9.0168,-0.0338,0.0226,-0.1075,-2.2847520313658656,0.0,4.694667816162109,-1.3498059511184692,-0.0,1.9278098344802856,5.51192336061553,-0.0,0.2052881419658661,-1.6387346426593226,0.0,0.009118391200900078,-0.10345727602113897,0.0,-0.007484241388738155,1.2645971775054932,0.0,-0.03075656294822693
311.0,564.0,-3.3817,-1.6798,9.0168,-0.0338,0.0226,-0.1075,-2.284727235833639,0.0,4.725441932678223,-1.3497899770736694,-0.0,1.9361510276794434,5.511899220734396,-0.0,0.21304374933242798,-1.6386907736407679,0.0,0.0007461122586391866,-0.10354930559267217,0.0,-0.004691986367106438,1.2645448446273804,0.0,-0.016574090346693993
311.0,564.0,-3.3817,-1.6798,9.0168,-0.0338,0.0226,-0.1075,-2.2847234211363734,0.0,4.672146797180176,-1.3498339653015137,-0.0,1.9170153141021729,5.511875021248617,-0.0,0.19917437434196472,-1.638707462941305,0.0,0.013164233416318893,-0.10346490541567022,0.0,0.004435435868799686,1.264601230621338,0.0,-0.024764643982052803
311.0,564.0,-3.3817,-1.6798,9.0168,-0.0338,0.0226,-0.1075,-2.2847353420653285,0.0,4.720491409301758,-1.349873661994934,-0.0,1.9130955934524536,5.511887299805441,-0.0,0.19350579380989075,-1.6386907736407679,0.0,0.010259440168738365,-0.10350114503969365,0.0,-0.0033954549580812454,1.2646092176437378,0.0,-0.01000303030014038
311.0,564.0,-3.3817,-1.6798,9.0168,-0.0338,0.0226,-0.1075,-2.284727235833639,0.0,4.715343475341797,-1.3498064279556274,-0.0,1.9055449962615967,5.5119032738502405,-0.0,0.1990719437599182,-1.6386707464801233,0.0,-0.007616083137691021,-0.10348111787904912,0.0,0.00239131529815495,1.2646090984344482,0.0,0.005794961005449295
311.0,564.0,-3.3817,-1.6798,9.0168,-0.0338,0.0226,-0.1075,-2.2847916088499964,0.0,4.727555274963379,-1.3498536348342896,-0.0,1.934246301651001,5.51189552524642,-0.0,0.1963886022567749,-1.6386669317828577,0.0,0.007790395990014076,-0.10341245332826787,0.0,0.011436915025115013,1.264641523361206,0.0,0.011240417137742043
311.0,564.0,-3.3817,-1.6798,9.0168,-0.0338,0.0226,-0.1075,-2.2847477398314417,0.0,4.771186828613281,-1.3498497009277344,-0.0,1.8620579242706299,5.511887299805441,-0.0,0.18446511030197144,-1.6386907736407679,0.0,-0.0013702220749109983,-0.10347301164735967,0.0,0.005933868233114481,1.2646090984344482,0.0,0.005191341042518616
311.0,564.0,-3.3817,-1.6798,9.0168,-0.0338,0.0226,-0.1075,-2.284755369225973,0.0,4.736823081970215,-1.3498058319091797,-0.0,1.903564691543579,5.511887299805441,-0.0,0.2064846158027649,-1.6386550108539026,0.0,0.00384170887991786,-0.10347301164735967,0.0,-0.0031812521629035473,1.2645890712738037,0.0,0.031661875545978546
311.0,564.0,-3.3817,-1.6798,9.0168,-0.0338,0.0226,-0.1075,-2.2847310505309046,0.0,4.720921993255615,-1.349818468093872,-0.0,1.8921550512313843,5.511915194779196,-0.0,0.19023069739341736,-1.6386993567096155,0.0,0.011297287419438362,-0.10349685350526983,0.0,0.008044397458434105,1.264601230621338,0.0,-0.03246515989303589
311.0,564.0,-3.3817,-1.6798,9.0168,-0.0338,0.0226,-0.1075,-2.2847353420653285,0.0,4.701103210449219,-1.3498417139053345,-0.0,1.8563237190246582,5.51191525438384,-0.0,0.21517598628997803,-1.6386907736407679,0.0,-0.002460082061588764,-0.10344058672060186,0.0,0.011364854872226715,1.2645890712738037,0.0,0.02903820388019085
311.0,564.0,-3.3817,-1.6798,9.0168,-0.0338,0.0226,-0.1075,-2.284743448297018,0.0,4.717751502990723,-1.3497941493988037,-0.0,1.8637534379959106,5.511951911240377,-0.0,0.20444482564926147,-1.6386750380145472,0.0,0.005432894919067621,-0.10350495973695928,0.0,0.0007928038248792291,1.2645246982574463,0.0,0.01722327060997486
318.0,564.0,-3.4397,-1.6822,9.0491,-0.0307,0.0267,-0.1124,-2.2847477398314417,0.0,4.724242210388184,-1.3498263359069824,-0.0,1.8904542922973633,5.51191924789504,-0.0,0.21451783180236816,-1.6386950651751917,0.0,0.01340592559427023,-0.10344106355776006,0.0,0.009643222205340862,1.264601230621338,0.0,-0.058316271752119064
318.0,564.0,-3.4397,-1.6822,9.0491,-0.0307,0.0267,-0.1124,-2.284783979455465,0.0,4.744541645050049,-1.349881649017334,-0.0,1.8990581035614014,5.511919426708975,-0.0,0.19594594836235046,-1.6387112776385706,0.0,-0.008576864376664162,-0.10340911546816045,0.0,0.004654653370380402,1.2646414041519165,0.0,-0.038980577141046524
318.0,564.0,-3.4397,-1.6822,9.0491,-0.0307,0.0267,-0.1124,-2.284800191918844,0.0,4.703637599945068,-1.3498183488845825,-0.0,1.9164526462554932,5.5119109628494165,-0.0,0.19280236959457397,-1.6386993567096155,0.0,0.01247011311352253,-0.10353690782655889,0.0,0.016706733033061028,1.264601230621338,0.0,0.028370970860123634
318.0,564.0,-3.4397,-1.6822,9.0491,-0.0307,0.0267,-0.1124,-2.284776350060934,0.0,4.731011390686035,-1.3497940301895142,-0.0,1.9229414463043213,5.5119032738502405,-0.0,0.2107151746749878,-1.6386669317828577,0.0,0.007470876444131136,-0.10345679918398076,0.0,0.008082645013928413,1.264621376991272,0.0,-0.048680588603019714
318.0,564.0,-3.4397,-1.6822,9.0491,-0.0307,0.0267,-0.1124,-2.284722944299215,0.0,4.716675758361816,-1.3498263359069824,-0.0,1.8985888957977295,5.511935877590933,-0.0,0.20829099416732788,-1.6386707464801233,0.0,-0.006851838901638985,-0.10345298448671514,0.0,0.006071832962334156,1.2645894289016724,0.0,0.023645460605621338
318.0,564.0,-3.4397,-1.6822,9.0491,-0.0307,0.0267,-0.1124,-2.2847477398314417,0.0,4.6816205978393555,-1.3498224020004272,-0.0,1.854886770248413,5.511931884079733,-0.0,0.20290237665176392,-1.6386750380145472,0.0,0.01763784885406494,-0.10342055955995733,0.0,0.001910862047225237,1.2646172046661377,0.0,-0.026644118130207062
318.0,564.0,-3.4397,-1.6822,9.0491,-0.0307,0.0267,-0.1124,-2.284755369225973,0.0,4.714128494262695,-1.3498417139053345,-0.0,1.8557790517807007,5.5119109628494165,-0.0,0.1970255821943283,-1.6387112776385706,0.0,0.0017320625483989716,-0.10348445573915654,0.0,-0.005840791389346123,1.264613151550293,0.0,0.0072645749896764755
318.0,564.0,-3.4397,-1.6822,9.0491,-0.0307,0.0267,-0.1124,-2.2847186527647914,0.0,4.736760139465332,-1.3498297929763794,-0.0,1.8882339000701904,5.511956023960867,-0.0,0.2076282501220703,-1.638702694569723,0.0,0.0011303320061415434,-0.10348016420473272,0.0,0.010515518486499786,1.2646008729934692,0.0,-0.04229127615690231
318.0,564.0,-3.4397,-1.6822,9.0491,-0.0307,0.0267,-0.1124,-2.2847191296019496,0.0,4.724599361419678,-1.3498263359069824,-0.0,1.9225692749023438,5.511935877590933,-0.0,0.20194882154464722,-1.6387031714068812,0.0,0.015053867362439632,-0.10345298448671514,0.0,0.00017635375843383372,1.264601230621338,0.0,0.015919003635644913
318.0,564.0,-3.4397,-1.6822,9.0491,-0.0307,0.0267,-0.1124,-2.28477205852651,0.0,4.719325065612793,-1.3498377799987793,-0.0,1.859070897102356,5.511919426708975,-0.0,0.21027138829231262,-1.6386788527118128,0.0,0.005580517929047346,-0.10342866579164678,0.0,-0.0019119796343147755,1.2646008729934692,0.0,-0.001882263459265232
318.0,564.0,-3.4397,-1.6822,9.0491,-0.0307,0.0267,-0.1124,-2.2847520313658656,0.0,4.753540992736816,-1.349841833114624,-0.0,1.8465707302093506,5.511894929199972,-0.0,0.19348758459091187,-1.6387069861041468,0.0,0.0018088903743773699,-0.10344869295229131,0.0,0.007648334838449955,1.264585256576538,0.0,0.0013950420543551445
318.0,564.0,-3.4397,-1.6822,9.0491,-0.0307,0.0267,-0.1124,-2.2847310505309046,0.0,4.734953880310059,-1.3497980833053589,-0.0,1.8670196533203125,5.511915194779196,-0.0,0.2001018077135086,-1.6387313047992151,0.0,-0.005446568131446838,-0.10350114503969365,0.0,0.005131714977324009,1.264601230621338,0.0,-0.0022948668338358402
318.0,564.0,-3.4397,-1.6822,9.0491,-0.0307,0.0267,-0.1124,-2.2847520313658656,0.0,4.756256580352783,-1.3498575687408447,-0.0,1.8778812885284424,5.511887240200796,-0.0,0.1985047161579132,-1.6387351194964808,0.0,-0.009094945155084133,-0.10347634950746709,0.0,-0.003003906924277544,1.264585256576538,0.0,-0.06684691458940506
318.0,564.0,-3.4397,-1.6822,9.0491,-0.0307,0.0267,-0.1124,-2.284788270989889,0.0,4.707745552062988,-1.3498696088790894,-0.0,1.8578860759735107,5.511854994087972,-0.0,0.1915295124053955,-1.6386707464801233,0.0,-0.002845147391781211,-0.103492561970846,0.0,0.008585331030189991,1.2645890712738037,0.0,0.010164394974708557
318.0,564.0,-3.4397,-1.6822,9.0491,-0.0307,0.0267,-0.1124,-2.2847191296019496,0.0,4.728912830352783,-1.3498344421386719,-0.0,1.933039665222168,5.511850821762838,-0.0,0.18597795069217682,-1.6386874357806605,0.0,0.002936786971986294,-0.10342485109438115,0.0,-0.005360590759664774,1.264613151550293,0.0,-0.0024760053493082523
318.0,564.0,-3.4397,-1.6822,9.0491,-0.0307,0.0267,-0.1124,-2.284727235833639,0.0,4.710504531860352,-1.3498857021331787,-0.0,1.9037237167358398,5.511883187084951,-0.0,0.20199280977249146,-1.6387231985675257,0.0,-0.003822357626631856,-0.10351306596864873,0.0,0.005903402343392372,1.2645890712738037,0.0,0.02428405173122883
310.0,579.0,-3.4301,-1.6493,9.0156,-0.037,0.0231,-0.1151,-2.284755846063131,0.0,4.6875152587890625,-1.3498103618621826,-0.0,1.919166922569275,5.511890876084127,-0.0,0.20426559448242188,-1.6387112776385706,0.0,0.0025136168114840984,-0.10344058672060186,0.0,-0.0014132155338302255,1.2646054029464722,0.0,-0.00035332702100276947
310.0,579.0,-3.4301,-1.6493,9.0156,-0.037,0.0231,-0.1151,-2.284755846063131,0.0,4.697166919708252,-1.3498263359069824,-0.0,1.9117331504821777,5.51191924789504,-0.0,0.19257080554962158,-1.6386950651751917,0.0,-0.004843089729547501,-0.10348874727358037,0.0,-0.00341823254711926,1.2645570039749146,0.0,-0.030741142109036446
310.0,579.0,-3.4301,-1.6493,9.0156,-0.037,0.0231,-0.1151,-2.2847310505309046,0.0,4.714442729949951,-1.3498263359069824,-0.0,1.9070351123809814,5.511919307499685,-0.0,0.2147645652294159,-1.6386669317828577,0.0,0.0011699164751917124,-0.10347301164735967,0.0,0.006625590845942497,1.2645812034606934,0.0,0.02376812882721424
310.0,579.0,-3.4301,-1.6493,9.0156,-0.037,0.0231,-0.1151,-2.2847353420653285,0.0,4.721407890319824,-1.3498536348342896,-0.0,1.9105465412139893,5.511944162636556,-0.0,0.2055639922618866,-1.6386669317828577,0.0,-0.003953685984015465,-0.10350925127138311,0.0,-0.01024619396775961,1.264540672302246,0.0,-0.023619668558239937
310.0,579.0,-3.4301,-1.6493,9.0156,-0.037,0.0231,-0.1151,-2.284722944299215,0.0,4.713845252990723,-1.3498575687408447,-0.0,1.9258217811584473,5.511935937195577,-0.0,0.21083593368530273,-1.6386907736407679,0.0,0.017527621239423752,-0.10349637666811162,0.0,0.007816116325557232,1.2645528316497803,0.0,-0.012911654077470303
310.0,579.0,-3.4301,-1.6493,9.0156,-0.037,0.0231,-0.1151,-2.284759660760397,0.0,4.679755210876465,-1.3498058319091797,-0.0,1.9133268594741821,5.511956023960867,-0.0,0.2036655843257904,-1.6386788527118128,0.0,0.006722345482558012,-0.10343724886049444,0.0,0.003763705724850297,1.2646050453186035,0.0,0.016018565744161606
310.0,579.0,-3.4301,-1.6493,9.0156,-0.037,0.0231,-0.1151,-2.28477205852651,0.0,4.71422004699707,-1.3498417139053345,-0.0,1.927954912185669,5.5119032738502405,-0.0,0.20133505761623383,-1.6386950651751917,0.0,-0.002321336418390274,-0.10351306596864873,0.0,0.003727411385625601,1.2645971775054932,0.0,0.03920954093337059
310.0,579.0,-3.4301,-1.6493,9.0156,-0.037,0.0231,-0.1151,-2.284727235833639,0.0,4.690332889556885,-1.3497860431671143,-0.0,1.9001712799072266,5.511894929199972,-0.0,0.1957317441701889,-1.6386788527118128,0.0,0.0037073278799653053,-0.1034768263446253,0.0,0.014018600806593895,1.264613151550293,0.0,-0.01611962728202343
310.0,579.0,-3.4301,-1.6493,9.0156,-0.037,0.0231,-0.1151,-2.2847477398314417,0.0,4.727376937866211,-1.3498178720474243,-0.0,1.9345431327819824,5.511866855412283,-0.0,0.2009768784046173,-1.6386907736407679,0.0,-0.006658486090600491,-0.10345679918398076,0.0,0.014551220461726189,1.2646013498306274,0.0,-0.04109529033303261
310.0,579.0,-3.4301,-1.6493,9.0156,-0.037,0.0231,-0.1151,-2.2847353420653285,0.0,4.726049900054932,-1.3498344421386719,-0.0,1.8875713348388672,5.51192336061553,-0.0,0.2156669944524765,-1.6386430899249476,0.0,-0.005016292445361614,-0.10353690782655889,0.0,-0.0014585963217541575,1.2645931243896484,0.0,-0.000388074666261673
310.0,579.0,-3.4301,-1.6493,9.0156,-0.037,0.0231,-0.1151,-2.2847677669920863,0.0,4.721441268920898,-1.3498144149780273,-0.0,1.8578017950057983,5.511943626194753,-0.0,0.2154366374015808,-1.6386993567096155,0.0,0.008197152055799961,-0.10351688066591436,0.0,-0.011205529794096947,1.2646050453186035,0.0,0.03065081685781479
310.0,579.0,-3.4301,-1.6493,9.0156,-0.037,0.0231,-0.1151,-2.284759660760397,0.0,4.704827308654785,-1.3498456478118896,-0.0,1.860260248184204,5.511931824475088,-0.0,0.1974078267812729,-1.6387189070331019,0.0,-0.001726949354633689,-0.10346872011293584,0.0,0.0170590840280056,1.2645771503448486,0.0,-0.04647403210401535
310.0,579.0,-3.4301,-1.6493,9.0156,-0.037,0.0231,-0.1151,-2.284743448297018,0.0,4.732290267944336,-1.349849820137024,-0.0,1.8736743927001953,5.511891352921285,-0.0,0.1990557312965393,-1.6386874357806605,0.0,0.0004577622748911381,-0.10346872011293584,0.0,0.0029866851400583982,1.2646090984344482,0.0,-0.020350459963083267
310.0,579.0,-3.4301,-1.6493,9.0156,-0.037,0.0231,-0.1151,-2.2847677669920863,0.0,4.753076076507568,-1.3498536348342896,-0.0,1.855557918548584,5.51192336061553,-0.0,0.20632967352867126,-1.6386907736407679,0.0,0.005182519555091858,-0.10346872011293584,0.0,-0.005518707446753979,1.264641523361206,0.0,-0.020803237333893776
310.0,579.0,-3.4301,-1.6493,9.0156,-0.037,0.0231,-0.1151,-2.2847310505309046,0.0,4.699846267700195,-1.349818468093872,-0.0,1.9104785919189453,5.511894929199972,-0.0,0.20506557822227478,-1.6387313047992151,0.0,-0.005506434477865696,-0.10346872011293584,0.0,0.0027518600691109896,1.2646090984344482,0.0,0.006167068146169186
310.0,579.0,-3.4301,-1.6493,9.0156,-0.037,0.0231,-0.1151,-2.2847191296019496,0.0,4.7008466720581055,-1.3498576879501343,-0.0,1.8978090286254883,5.51190738657073,-0.0,0.20611529052257538,-1.6387150923358362,0.0,0.007831186056137085,-0.10348016420473272,0.0,0.007601113524287939,1.2646335363388062,0.0,0.030744468793272972
305.0,582.0,-3.4008,-1.6618,9.0371,-0.046,0.0221,-0.1167,-2.2847677669920863,0.0,4.72711706161499,-1.3498575687408447,-0.0,1.920750617980957,5.511919307499685,-0.0,0.18862301111221313,-1.6386826674090784,0.0,0.015445060096681118,-0.10350925127138311,0.0,-0.004861635621637106,1.2646214962005615,0.0,0.06163197383284569
305.0,582.0,-3.4008,-1.6618,9.0371,-0.046,0.0221,-0.1167,-2.284715314904684,0.0,4.699028491973877,-1.3498224020004272,-0.0,1.9357800483703613,5.511944103031912,-0.0,0.20243088901042938,-1.6386669317828577,0.0,0.008303344249725342,-0.10350114503969365,0.0,0.005936181638389826,1.2645971775054932,0.0,0.0515870526432991
305.0,582.0,-3.4008,-1.6618,9.0371,-0.046,0.0221,-0.1167,-2.2847191296019496,0.0,4.711646556854248,-1.3498224020004272,-0.0,1.8816940784454346,5.511903214245596,-0.0,0.1988903284072876,-1.6387432257281702,0.0,-0.009368376806378365,-0.1034768263446253,0.0,-0.010390645824372768,1.2645890712738037,0.0,0.01967671327292919
305.0,582.0,-3.4008,-1.6618,9.0371,-0.046,0.0221,-0.1167,-2.2847796879210414,0.0,4.68094539642334,-1.3498735427856445,-0.0,1.8986033201217651,5.511862623482504,-0.0,0.20226037502288818,-1.63871938387026,0.0,-0.008909691125154495,-0.10348111787904912,0.0,-0.015495807863771915,1.2645931243896484,0.0,-0.021001266315579414
305.0,582.0,-3.4008,-1.6618,9.0371,-0.046,0.0221,-0.1167,-2.284722944299215,0.0,4.684609413146973,-1.3498575687408447,-0.0,1.9148237705230713,5.511931824475088,-0.0,0.200938418507576,-1.638663117085592,0.0,-0.002177451504394412,-0.10345727602113897,0.0,-0.0036121089942753315,1.2645734548568726,0.0,-0.05158795416355133
305.0,582.0,-3.4008,-1.6618,9.0371,-0.046,0.0221,-0.1167,-2.2847396335997523,0.0,4.706475257873535,-1.3498616218566895,-0.0,1.9015228748321533,5.511887299805441,-0.0,0.1977701038122177,-1.6386907736407679,0.0,-0.0009519447339698672,-0.10348016420473272,0.0,0.005698814056813717,1.2645447254180908,0.0,0.004861481487751007
305.0,582.0,-3.4008,-1.6618,9.0371,-0.046,0.0221,-0.1167,-2.2847639522948207,0.0,4.7407379150390625,-1.349818468093872,-0.0,1.907384991645813,5.511899161129751,-0.0,0.1972416639328003,-1.6386869589435022,0.0,0.002823667600750923,-0.10347301164735967,0.0,0.008939838036894798,1.2645812034606934,0.0,0.025312993675470352
305.0,582.0,-3.4008,-1.6618,9.0371,-0.046,0.0221,-0.1167,-2.2847796879210414,0.0,4.715791702270508,-1.3498536348342896,-0.0,1.8712780475616455,5.511874902039327,-0.0,0.19210003316402435,-1.6387150923358362,0.0,0.004484177101403475,-0.10350495973695928,0.0,0.0018063178285956383,1.2646050453186035,0.0,-0.003352254629135132
305.0,582.0,-3.4008,-1.6618,9.0371,-0.046,0.0221,-0.1167,-2.2847758732237757,0.0,4.729320526123047,-1.3498616218566895,-0.0,1.8581607341766357,5.511883187084951,-0.0,0.19830285012722015,-1.6386669317828577,0.0,0.004161715507507324,-0.10350114503969365,0.0,0.002734542591497302,1.2645611763000488,0.0,0.00316262268461287
305.0,582.0,-3.4008,-1.6618,9.0371,-0.046,0.0221,-0.1167,-2.2847639522948207,0.0,4.728213787078857,-1.3498222827911377,-0.0,1.8970402479171753,5.511887299805441,-0.0,0.20712588727474213,-1.6387112776385706,0.0,0.0004220314440317452,-0.10350925127138311,0.0,0.011863482184708118,1.2645529508590698,0.0,-0.03194879740476608
305.0,582.0,-3.4008,-1.6618,9.0371,-0.046,0.0221,-0.1167,-2.284783979455465,0.0,4.702175140380859,-1.3498377799987793,-0.0,1.8726856708526611,5.511907326966085,-0.0,0.20095552504062653,-1.6387432257281702,0.0,0.006696910597383976,-0.10343724886049444,0.0,0.004394645802676678,1.2646455764770508,0.0,-0.04176615551114082
305.0,582.0,-3.4008,-1.6618,9.0371,-0.046,0.0221,-0.1167,-2.2847353420653285,0.0,4.671823501586914,-1.3497980833053589,-0.0,1.9167373180389404,5.511899220734396,-0.0,0.20393043756484985,-1.6386469046222132,0.0,-0.0017167669720947742,-0.10345298448671514,0.0,0.011243108659982681,1.2645890712738037,0.0,0.010504469275474548
305.0,582.0,-3.4008,-1.6618,9.0371,-0.046,0.0221,-0.1167,-2.2847353420653285,0.0,4.722395896911621,-1.3498338460922241,-0.0,1.8503670692443848,5.511906850128927,-0.0,0.19698743522167206,-1.6386669317828577,0.0,0.005105148069560528,-0.103492561970846,0.0,0.007955530658364296,1.2645931243896484,0.0,0.0001051522558555007
305.0,582.0,-3.4008,-1.6618,9.0371,-0.046,0.0221,-0.1167,-2.2847353420653285,0.0,4.712486743927002,-1.3498777151107788,-0.0,1.8627264499664307,5.51192336061553,-0.0,0.19536739587783813,-1.6387150923358362,0.0,0.011875394731760025,-0.10349685350526983,0.0,-0.002610477851703763,1.2646173238754272,0.0,0.0009893733076751232
305.0,582.0,-3.4008,-1.6618,9.0371,-0.046,0.0221,-0.1167,-2.2847353420653285,0.0,4.717672348022461,-1.3498616218566895,-0.0,1.8753013610839844,5.51192336061553,-0.0,0.20385348796844482,-1.6386907736407679,0.0,2.0906329154968262e-05,-0.10352498689760381,0.0,0.0023880728986114264,1.2645652294158936,0.0,0.0067509934306144714
305.0,582.0,-3.4008,-1.6618,9.0371,-0.046,0.0221,-0.1167,-2.284799715081686,0.0,4.704509735107422,-1.3498058319091797,-0.0,1.915003776550293,5.5118992803390405,-0.0,0.20556029677391052,-1.6387112776385706,0.0,-0.0055215004831552505,-0.10349685350526983,0.0,0.01258581317961216,1.264601230621338,0.0,0.023770608007907867
325.0,562.0,-3.4726,-1.6929,9.0479,-0.0319,0.022,-0.1159,-2.2847477398314417,0.0,4.690803527832031,-1.3498263359069824,-0.0,1.8929824829101562,5.511907326966085,-0.0,0.20283761620521545,-1.6387069861041468,0.0,0.002438930794596672,-0.10354882875551397,0.0,0.01497964933514595,1.2645971775054932,0.0,-0.02239791490137577
325.0,562.0,-3.4726,-1.6929,9.0479,-0.0319,0.022,-0.1159,-2.2847310505309046,0.0,4.70864725112915,-1.3498263359069824,-0.0,1.8748047351837158,5.511875080853262,-0.0,0.190044105052948,-1.6386874357806605,0.0,-0.0017630364745855331,-0.10344869295229131,0.0,0.0049896384589374065,1.2645971775054932,0.0,-0.017974652349948883
325.0,562.0,-3.4726,-1.6929,9.0479,-0.0319,0.022,-0.1159,-2.2847396335997523,0.0,4.736797332763672,-1.3498142957687378,-0.0,1.8892560005187988,5.5119032738502405,-0.0,0.20395229756832123,-1.638702694569723,0.0,-0.0010839449241757393,-0.10348874727358037,0.0,-0.0003493442200124264,1.264573097229004,0.0,-0.036023300141096115
325.0,562.0,-3.4726,-1.6929,9.0479,-0.0319,0.022,-0.1159,-2.284703393975729,0.0,4.750175476074219,-1.349841594696045,-0.0,1.9401304721832275,5.511935937195577,-0.0,0.20396336913108826,-1.6386788527118128,0.0,-0.000975662493146956,-0.10346872011293584,0.0,0.003137235064059496,1.2646050453186035,0.0,0.006276021245867014
325.0,562.0,-3.4726,-1.6929,9.0479,-0.0319,0.022,-0.1159,-2.2847396335997523,0.0,4.744067668914795,-1.3498696088790894,-0.0,1.8900586366653442,5.511883306294241,-0.0,0.1946353018283844,-1.6386907736407679,0.0,0.00015949096996337175,-0.10347301164735967,0.0,0.0028343803714960814,1.2645890712738037,0.0,0.0009961901232600212
325.0,562.0,-3.4726,-1.6929,9.0479,-0.0319,0.022,-0.1159,-2.2847677669920863,0.0,4.691749095916748,-1.3497779369354248,-0.0,1.9038493633270264,5.511894988804617,-0.0,0.20780088007450104,-1.638663117085592,0.0,-0.010201935656368732,-0.1035531202899378,0.0,-0.0031706378795206547,1.2646090984344482,0.0,0.07419461756944656
325.0,562.0,-3.4726,-1.6929,9.0479,-0.0319,0.022,-0.1159,-2.2847353420653285,0.0,4.6956024169921875,-1.3498142957687378,-0.0,1.9217734336853027,5.511915194779196,-0.0,0.20066796243190765,-1.6386750380145472,0.0,0.004901867359876633,-0.10346872011293584,0.0,-0.0061750211752951145,1.264548897743225,0.0,-0.05317731201648712
325.0,562.0,-3.4726,-1.6929,9.0479,-0.0319,0.022,-0.1159,-2.2847072086729945,0.0,4.737435340881348,-1.3498536348342896,-0.0,1.8991615772247314,5.511903333454885,-0.0,0.20271018147468567,-1.6386950651751917,0.0,0.0010964612010866404,-0.1035087744342249,0.0,0.005925450939685106,1.2645889520645142,0.0,0.002861285349354148
325.0,562.0,-3.4726,-1.6929,9.0479,-0.0319,0.022,-0.1159,-2.2847920856871546,0.0,4.740226745605469,-1.3497660160064697,-0.0,1.9329147338867188,5.511907326966085,-0.0,0.194807767868042,-1.6387031714068812,0.0,0.003366987220942974,-0.10349685350526983,0.0,0.01072227954864502,1.2645971775054932,0.0,0.019686857238411903
325.0,562.0,-3.4726,-1.6929,9.0479,-0.0319,0.022,-0.1159,-2.284727235833639,0.0,4.700151443481445,-1.3497939109802246,-0.0,1.8980913162231445,5.511891293316641,-0.0,0.2055496871471405,-1.6386712233172815,0.0,0.01198995765298605,-0.10352117220033819,0.0,-0.004723432939499617,1.2645890712738037,0.0,0.0003901282325387001
325.0,562.0,-3.4726,-1.6929,9.0479,-0.0319,0.022,-0.1159,-2.2847310505309046,0.0,4.698915004730225,-1.3498303890228271,-0.0,1.9297361373901367,5.51190738657073,-0.0,0.2002716362476349,-1.6386993567096155,0.0,6.36318582110107e-05,-0.10346490541567022,0.0,0.0014580754796043038,1.2645771503448486,0.0,0.01693996787071228
325.0,562.0,-3.4726,-1.6929,9.0479,-0.0319,0.022,-0.1159,-2.284771581689352,0.0,4.656733512878418,-1.3498737812042236,-0.0,1.9092878103256226,5.511935877590933,-0.0,0.2028699517250061,-1.6387231985675257,0.0,0.010941240936517715,-0.10343677202333623,0.0,0.008564343675971031,1.2646173238754272,0.0,0.002039622515439987
325.0,562.0,-3.4726,-1.6929,9.0479,-0.0319,0.022,-0.1159,-2.284703393975729,0.0,4.7421135902404785,-1.3498344421386719,-0.0,1.8979387283325195,5.511906850128927,-0.0,0.20454585552215576,-1.6386950651751917,0.0,-0.005451459903270006,-0.103492561970846,0.0,-0.002240180503576994,1.2645692825317383,0.0,-0.002354036085307598
325.0,562.0,-3.4726,-1.6929,9.0479,-0.0319,0.022,-0.1159,-2.2847191296019496,0.0,4.717761039733887,-1.349741816520691,-0.0,1.932861328125,5.5119109628494165,-0.0,0.20562228560447693,-1.6386831442462366,0.0,0.005182285327464342,-0.10350448289980108,0.0,0.0022571648005396128,1.2645971775054932,0.0,0.013778738677501678
325.0,562.0,-3.4726,-1.6929,9.0479,-0.0319,0.022,-0.1159,-2.2847677669920863,0.0,4.734126091003418,-1.3498058319091797,-0.0,1.9232616424560547,5.511960136681356,-0.0,0.20266364514827728,-1.6386950651751917,0.0,-0.009346477687358856,-0.10351306596864873,0.0,0.001998983323574066,1.2646013498306274,0.0,-0.00809604674577713
325.0,562.0,-3.4726,-1.6929,9.0479,-0.0319,0.022,-0.1159,-2.2847353420653285,0.0,4.7367963790893555,-1.349838376045227,-0.0,1.9170143604278564,5.511927592545309,-0.0,0.19936364889144897,-1.6386993567096155,0.0,0.0013032937422394753,-0.103492561970846,0.0,0.003878141986206174,1.26456880569458,0.0,0.03887949138879776
320.0,516.0,-3.3978,-1.6678,9.079,-0.0382,0.0266,-0.1194,-2.2847520313658656,0.0,4.726332664489746,-1.3498222827911377,-0.0,1.8434867858886719,5.511899637966909,-0.0,0.20022815465927124,-1.6387112776385706,0.0,-0.011215838603675365,-0.10348111787904912,0.0,0.0013787196949124336,1.2645894289016724,0.0,-0.009559295140206814
320.0,516.0,-3.3978,-1.6678,9.079,-0.0382,0.0266,-0.1194,-2.284783979455465,0.0,4.734557151794434,-1.3498303890228271,-0.0,1.8707574605941772,5.511944222241201,-0.0,0.2050842046737671,-1.6386707464801233,0.0,-0.0021366490982472897,-0.10342866579164678,0.0,0.0030548926442861557,1.2646377086639404,0.0,-0.02291005849838257
320.0,516.0,-3.3978,-1.6678,9.079,-0.0382,0.0266,-0.1194,-2.284755846063131,0.0,4.715847015380859,-1.3498576879501343,-0.0,1.8791643381118774,5.511883187084951,-0.0,0.20722302794456482,-1.6387150923358362,0.0,0.002026776084676385,-0.10347301164735967,0.0,-0.0039123669266700745,1.2645931243896484,0.0,-0.022282009944319725
320.0,516.0,-3.3978,-1.6678,9.079,-0.0382,0.0266,-0.1194,-2.284715314904684,0.0,4.727381229400635,-1.3498536348342896,-0.0,1.9592032432556152,5.51191525438384,-0.0,0.20548884570598602,-1.6386831442462366,0.0,0.007816994562745094,-0.10344869295229131,0.0,0.015187576413154602,1.2646496295928955,0.0,0.05851122736930847
320.0,516.0,-3.3978,-1.6678,9.079,-0.0382,0.0266,-0.1194,-2.2847234211363734,0.0,4.740297794342041,-1.3498303890228271,-0.0,1.9151668548583984,5.511887240200796,-0.0,0.20611754059791565,-1.6386950651751917,0.0,0.00022706988966092467,-0.10350495973695928,0.0,0.0015130655374377966,1.264585256576538,0.0,0.035388216376304626
320.0,516.0,-3.3978,-1.6678,9.079,-0.0382,0.0266,-0.1194,-2.2847639522948207,0.0,4.705907821655273,-1.349821925163269,-0.0,1.9163661003112793,5.5119032738502405,-0.0,0.19703048467636108,-1.6386669317828577,0.0,0.0013280995190143585,-0.1034768263446253,0.0,-0.0015308375004678965,1.264577031135559,0.0,-0.016571301966905594
320.0,516.0,-3.3978,-1.6678,9.079,-0.0382,0.0266,-0.1194,-2.2847396335997523,0.0,4.721490383148193,-1.3498377799987793,-0.0,1.8904894590377808,5.51190738657073,-0.0,0.21174165606498718,-1.6387069861041468,0.0,0.010985269211232662,-0.10346872011293584,0.0,0.00019669916946440935,1.264565110206604,0.0,0.022248487919569016
320.0,516.0,-3.3978,-1.6678,9.079,-0.0382,0.0266,-0.1194,-2.2847353420653285,0.0,4.718910217285156,-1.3498497009277344,-0.0,1.9277827739715576,5.511919307499685,-0.0,0.18867799639701843,-1.6386907736407679,0.0,-0.004493390209972858,-0.10348445573915654,0.0,0.005820829886943102,1.2645570039749146,0.0,0.030072061344981194
320.0,516.0,-3.3978,-1.6678,9.079,-0.0382,0.0266,-0.1194,-2.2847677669920863,0.0,4.668272972106934,-1.3498696088790894,-0.0,1.9051539897918701,5.511887240200796,-0.0,0.19862136244773865,-1.6386993567096155,0.0,0.011316563002765179,-0.10343677202333623,0.0,0.0031463310588151217,1.2645570039749146,0.0,-0.035104840993881226
320.0,516.0,-3.3978,-1.6678,9.079,-0.0382,0.0266,-0.1194,-2.2847520313658656,0.0,4.690335750579834,-1.3498142957687378,-0.0,1.925302505493164,5.5119032738502405,-0.0,0.20458871126174927,-1.6387150923358362,0.0,0.012747758068144321,-0.103492561970846,0.0,0.00584403146058321,1.2645729780197144,0.0,0.027043279260396957
320.0,516.0,-3.3978,-1.6678,9.079,-0.0382,0.0266,-0.1194,-2.2847396335997523,0.0,4.746793746948242,-1.3497660160064697,-0.0,1.8743195533752441,5.511899220734396,-0.0,0.2065153867006302,-1.6387313047992151,0.0,0.009718326851725578,-0.10345679918398076,0.0,0.020355839282274246,1.2646090984344482,0.0,0.006284754257649183
320.0,516.0,-3.3978,-1.6678,9.079,-0.0382,0.0266,-0.1194,-2.284755369225973,0.0,4.720462799072266,-1.3498377799987793,-0.0,1.922865629196167,5.5119560835655115,-0.0,0.20172670483589172,-1.638663117085592,0.0,-0.005881232209503651,-0.10348111787904912,0.0,0.01214116346091032,1.2645812034606934,0.0,-0.006308802403509617
320.0,516.0,-3.3978,-1.6678,9.079,-0.0382,0.0266,-0.1194,-2.2847310505309046,0.0,4.738799095153809,-1.3498103618621826,-0.0,1.9336968660354614,5.51192336061553,-0.0,0.19069743156433105,-1.6386874357806605,0.0,0.0007490362040698528,-0.10351306596864873,0.0,-0.0030983886681497097,1.264548897743225,0.0,0.02431311085820198
320.0,516.0,-3.3978,-1.6678,9.079,-0.0382,0.0266,-0.1194,-2.284759660760397,0.0,4.757363319396973,-1.3498142957687378,-0.0,1.9250802993774414,5.511919307499685,-0.0,0.1942920982837677,-1.6387150923358362,0.0,-0.004723089747130871,-0.10351306596864873,0.0,0.017047762870788574,1.2645931243896484,0.0,0.027300259098410606
320.0,516.0,-3.3978,-1.6678,9.079,-0.0382,0.0266,-0.1194,-2.2847639522948207,0.0,4.713568210601807,-1.3498497009277344,-0.0,1.8995451927185059,5.511894929199972,-0.0,0.1928112506866455,-1.6387031714068812,0.0,-0.0081655103713274,-0.10350114503969365,0.0,-0.006438447628170252,1.2646496295928955,0.0,0.037861790508031845
320.0,516.0,-3.3978,-1.6678,9.079,-0.0382,0.0266,-0.1194,-2.2847072086729945,0.0,4.713959217071533,-1.3498257398605347,-0.0,1.8812780380249023,5.511915194779196,-0.0,0.20273542404174805,-1.6387031714068812,0.0,0.006576180458068848,-0.10345298448671514,0.0,-0.001434092759154737,1.264613151550293,0.0,0.03214190900325775
323.0,522.0,-3.4062,-1.6798,8.948,-0.0472,0.0202,-0.1153,-2.2847639522948207,0.0,4.7653656005859375,-1.3498263359069824,-0.0,1.917097806930542,5.511894929199972,-0.0,0.19988766312599182,-1.6386750380145472,0.0,-0.006228639744222164,-0.10351306596864873,0.0,0.01381165161728859,1.2645487785339355,0.0,-0.027598612010478973
323.0,522.0,-3.4062,-1.6798,8.948,-0.0472,0.0202,-0.1153,-2.2847353420653285,0.0,4.693727493286133,-1.3498142957687378,-0.0,1.8613200187683105,5.5118669150169275,-0.0,0.19806715846061707,-1.6386712233172815,0.0,0.004050090909004211,-0.10350495973695928,0.0,0.014205955900251865,1.2645890712738037,0.0,0.013447487726807594
323.0,522.0,-3.4062,-1.6798,8.948,-0.0472,0.0202,-0.1153,-2.2847477398314417,0.0,4.68841028213501,-1.3498259782791138,-0.0,1.8710129261016846,5.511883187084951,-0.0,0.19808681309223175,-1.638707462941305,0.0,0.0023146311286836863,-0.10353690782655889,0.0,-0.000414947047829628,1.2645610570907593,0.0,-0.0044521763920784
323.0,522.0,-3.4062,-1.6798,8.948,-0.0472,0.0202,-0.1153,-2.2847353420653285,0.0,4.7461090087890625,-1.3498303890228271,-0.0,1.9026761054992676,5.511883187084951,-0.0,0.2057337760925293,-1.6387069861041468,0.0,0.0015517333522439003,-0.10346061388124639,0.0,0.00035026983823627234,1.2645652294158936,0.0,-0.03297905996441841
323.0,522.0,-3.4062,-1.6798,8.948,-0.0472,0.0202,-0.1153,-2.284743448297018,0.0,4.6796159744262695,-1.3498222827911377,-0.0,1.9200785160064697,5.5119109628494165,-0.0,0.21249078214168549,-1.6386788527118128,0.0,0.0011317147873342037,-0.10346872011293584,0.0,0.019123796373605728,1.2646050453186035,0.0,0.02699369192123413
323.0,522.0,-3.4062,-1.6798,8.948,-0.0472,0.0202,-0.1153,-2.2847353420653285,0.0,4.7029571533203125,-1.3497899770736694,-0.0,1.9152438640594482,5.511887299805441,-0.0,0.20195934176445007,-1.6387112776385706,0.0,-0.001332864398136735,-0.1034324804889124,0.0,-0.0019248072057962418,1.264601230621338,0.0,-0.02687094733119011
323.0,522.0,-3.4062,-1.6798,8.948,-0.0472,0.0202,-0.1153,-2.2847677669920863,0.0,4.743607044219971,-1.3498142957687378,-0.0,1.9071588516235352,5.511943626194753,-0.0,0.2107166349887848,-1.6386712233172815,0.0,0.015545429661870003,-0.10344487825502569,0.0,-0.000918328296393156,1.264621376991272,0.0,0.00468378234654665
323.0,522.0,-3.4062,-1.6798,8.948,-0.0472,0.0202,-0.1153,-2.2846790752806605,0.0,4.737611293792725,-1.349841833114624,-0.0,1.8720957040786743,5.511927532940664,-0.0,0.20047855377197266,-1.6386869589435022,0.0,-0.0041961027309298515,-0.10348445573915654,0.0,0.014915375038981438,1.2645689249038696,0.0,-0.01029839925467968
323.0,522.0,-3.4062,-1.6798,8.948,-0.0472,0.0202,-0.1153,-2.2847310505309046,0.0,4.711261749267578,-1.3498656749725342,-0.0,1.9096598625183105,5.511907326966085,-0.0,0.19476690888404846,-1.6386993567096155,0.0,0.004157776478677988,-0.10343677202333623,0.0,-0.016540799289941788,1.2646173238754272,0.0,-0.04459002614021301
323.0,522.0,-3.4062,-1.6798,8.948,-0.0472,0.0202,-0.1153,-2.284755369225973,0.0,4.707097053527832,-1.3497780561447144,-0.0,1.914416790008545,5.511870968132772,-0.0,0.20547273755073547,-1.6386869589435022,0.0,-0.003949737176299095,-0.10347301164735967,0.0,-0.0023327157832682133,1.2645692825317383,0.0,0.006846824660897255
323.0,522.0,-3.4062,-1.6798,8.948,-0.0472,0.0202,-0.1153,-2.2847477398314417,0.0,4.727855682373047,-1.3498344421386719,-0.0,1.8733495473861694,5.511870908528127,-0.0,0.19969871640205383,-1.6386430899249476,0.0,0.0028055207803845406,-0.10342055955995733,0.0,0.004438471980392933,1.2645692825317383,0.0,0.03496161475777626
323.0,522.0,-3.4062,-1.6798,8.948,-0.0472,0.0202,-0.1153,-2.284743448297018,0.0,4.752522945404053,-1.3498098850250244,-0.0,1.8727684020996094,5.5119032738502405,-0.0,0.21614450216293335,-1.638691250477926,0.0,0.003819727571681142,-0.10348874727358037,0.0,-0.0034682084806263447,1.2645734548568726,0.0,-0.0016652625054121017
323.0,522.0,-3.4062,-1.6798,8.948,-0.0472,0.0202,-0.1153,-2.284715314904684,0.0,4.710765838623047,-1.3498536348342896,-0.0,1.892491102218628,5.511919307499685,-0.0,0.20691625773906708,-1.6386993567096155,0.0,0.009622926823794842,-0.103492561970846,0.0,-0.0011199632426723838,1.2645771503448486,0.0,0.009512911550700665
323.0,522.0,-3.4062,-1.6798,8.948,-0.0472,0.0202,-0.1153,-2.2847310505309046,0.0,4.718966960906982,-1.3497540950775146,-0.0,1.8490209579467773,5.5119114992912195,-0.0,0.20700466632843018,-1.6386750380145472,0.0,0.0015430784551426768,-0.10348016420473272,0.0,0.008885103277862072,1.2645931243896484,0.0,0.01427222229540348
323.0,522.0,-3.4062,-1.6798,8.948,-0.0472,0.0202,-0.1153,-2.2847353420653285,0.0,4.697466850280762,-1.3498536348342896,-0.0,1.8930554389953613,5.511915612011709,-0.0,0.21316266059875488,-1.6386788527118128,0.0,-0.007522298023104668,-0.10348874727358037,0.0,-0.0042091254144907,1.264613151550293,0.0,-0.003136708866804838
323.0,522.0,-3.4062,-1.6798,8.948,-0.0472,0.0202,-0.1153,-2.2847920856871546,0.0,4.723776340484619,-1.3498183488845825,-0.0,1.8857088088989258,5.511883187084951,-0.0,0.18847787380218506,-1.6386788527118128,0.0,-0.00555396918207407,-0.10347301164735967,0.0,-0.0022024856880307198,1.264565110206604,0.0,-0.04412561282515526
314.0,580.0,-3.4642,-1.681,9.0497,-0.0322,0.0218,-0.1101,-2.2847520313658656,0.0,4.713380813598633,-1.3498018980026245,-0.0,1.9051012992858887,5.5119478581245325,-0.0,0.2032550424337387,-1.6386993567096155,0.0,0.011135398410260677,-0.10344058672060186,0.0,-0.0027272398583590984,1.264564871788025,0.0,0.004478663671761751
314.0,580.0,-3.4642,-1.681,9.0497,-0.0322,0.0218,-0.1101,-2.284755369225973,0.0,4.743207931518555,-1.349841833114624,-0.0,1.8670066595077515,5.511935937195577,-0.0,0.20736731588840485,-1.6386750380145472,0.0,0.004598685540258884,-0.10347301164735967,0.0,0.013341492973268032,1.264613151550293,0.0,-0.02628026157617569
314.0,580.0,-3.4642,-1.681,9.0497,-0.0322,0.0218,-0.1101,-2.284722944299215,0.0,4.711734771728516,-1.3498058319091797,-0.0,1.8688342571258545,5.511963891773977,-0.0,0.1940825879573822,-1.638663117085592,0.0,-0.002755991881713271,-0.10345298448671514,0.0,0.009968998841941357,1.2645848989486694,0.0,-0.035738881677389145
314.0,580.0,-3.4642,-1.681,9.0497,-0.0322,0.0218,-0.1101,-2.2847353420653285,0.0,4.720187187194824,-1.349873661994934,-0.0,1.874481201171875,5.511890876084127,-0.0,0.21122834086418152,-1.638667408620016,0.0,-0.001998888561502099,-0.10343295732607061,0.0,-0.003645858261734247,1.2645931243896484,0.0,-0.02821444906294346
314.0,580.0,-3.4642,-1.681,9.0497,-0.0322,0.0218,-0.1101,-2.2847396335997523,0.0,4.7268476486206055,-1.3498303890228271,-0.0,1.8902779817581177,5.511894929199972,-0.0,0.20630580186843872,-1.6386712233172815,0.0,0.013189341872930527,-0.10345727602113897,0.0,0.0004016774473711848,1.2646335363388062,0.0,0.0065488009713590145
314.0,580.0,-3.4642,-1.681,9.0497,-0.0322,0.0218,-0.1101,-2.28477205852651,0.0,4.7134690284729,-1.3497899770736694,-0.0,1.9033915996551514,5.511870908528127,-0.0,0.21009071171283722,-1.6386588255511683,0.0,0.010873599909245968,-0.10344869295229131,0.0,0.0001416332379449159,1.2646377086639404,0.0,0.07050652801990509
314.0,580.0,-3.4642,-1.681,9.0497,-0.0322,0.0218,-0.1101,-2.2847477398314417,0.0,4.700190544128418,-1.3497661352157593,-0.0,1.9463911056518555,5.511887299805441,-0.0,0.2028411626815796,-1.63871938387026,0.0,-0.011668160557746887,-0.10347301164735967,0.0,0.017151255160570145,1.2646373510360718,0.0,0.006056212820112705
314.0,580.0,-3.4642,-1.681,9.0497,-0.0322,0.0218,-0.1101,-2.2847677669920863,0.0,4.7299909591674805,-1.349861741065979,-0.0,1.909691333770752,5.5118669150169275,-0.0,0.20551110804080963,-1.6386907736407679,0.0,-0.0007720128633081913,-0.10346872011293584,0.0,0.007400392554700375,1.2645812034606934,0.0,-0.0046748206950724125
314.0,580.0,-3.4642,-1.681,9.0497,-0.0322,0.0218,-0.1101,-2.2847072086729945,0.0,4.677351951599121,-1.3498018980026245,-0.0,1.9077067375183105,5.511907326966085,-0.0,0.2086375504732132,-1.6386907736407679,0.0,-0.0018323238473385572,-0.10346490541567022,0.0,0.0038125221617519855,1.2645771503448486,0.0,0.022674433887004852
314.0,580.0,-3.4642,-1.681,9.0497,-0.0322,0.0218,-0.1101,-2.2846952877440394,0.0,4.727046489715576,-1.3498576879501343,-0.0,1.910426378250122,5.51199226358489,-0.0,0.21175631880760193,-1.6387313047992151,0.0,0.0027819527313113213,-0.10351688066591436,0.0,0.0007566879503428936,1.2645894289016724,0.0,-0.013895890675485134
314.0,580.0,-3.4642,-1.681,9.0497,-0.0322,0.0218,-0.1101,-2.2847677669920863,0.0,4.721574783325195,-1.349841833114624,-0.0,1.9204463958740234,5.511955964356222,-0.0,0.21333125233650208,-1.63871938387026,0.0,-0.003396226093173027,-0.10347301164735967,0.0,0.00738941878080368,1.2645848989486694,0.0,-0.006383481435477734
314.0,580.0,-3.4642,-1.681,9.0497,-0.0322,0.0218,-0.1101,-2.284771581689352,0.0,4.715505599975586,-1.3498263359069824,-0.0,1.9001214504241943,5.511935877590933,-0.0,0.1980983465909958,-1.6386869589435022,0.0,0.009416021406650543,-0.10349685350526983,0.0,0.016999229788780212,1.264621376991272,0.0,0.013852715492248535
314.0,580.0,-3.4642,-1.681,9.0497,-0.0322,0.0218,-0.1101,-2.2847115002074183,0.0,4.738386154174805,-1.3497978448867798,-0.0,1.891463041305542,5.511915194779196,-0.0,0.1965998262166977,-1.6386993567096155,0.0,-0.00579585786908865,-0.10341245332826787,0.0,0.003868146799504757,1.2645611763000488,0.0,-0.022244768217206
314.0,580.0,-3.4642,-1.681,9.0497,-0.0322,0.0218,-0.1101,-2.2847396335997523,0.0,4.749929904937744,-1.3498303890228271,-0.0,1.9172422885894775,5.511939453869619,-0.0,0.199496328830719,-1.6386550108539026,0.0,0.0005870946333743632,-0.10342055955995733,0.0,0.007639704737812281,1.2646054029464722,0.0,-0.0378868505358696
314.0,580.0,-3.4642,-1.681,9.0497,-0.0322,0.0218,-0.1101,-2.28477205852651,0.0,4.735182762145996,-1.3498576879501343,-0.0,1.8850908279418945,5.511870968132772,-0.0,0.2102484405040741,-1.6386788527118128,0.0,0.00116047915071249,-0.10346490541567022,0.0,-0.008071757853031158,1.2645971775054932,0.0,0.0011101826094090939
322.0,550.0,-3.4175,-1.6624,9.0084,-0.0289,0.0238,-0.1109,-2.2847520313658656,0.0,4.719602108001709,-1.34978187084198,-0.0,1.866166353225708,5.511911558895864,-0.0,0.20360976457595825,-1.6386588255511683,0.0,-0.004996792413294315,-0.10345727602113897,0.0,0.01691249944269657,1.2645931243896484,0.0,-0.005618681199848652
322.0,550.0,-3.4175,-1.6624,9.0084,-0.0289,0.0238,-0.1109,-2.2847353420653285,0.0,4.721424579620361,-1.3498384952545166,-0.0,1.8598475456237793,5.511894988804617,-0.0,0.2106916606426239,-1.6386788527118128,0.0,0.0014754047151654959,-0.1034768263446253,0.0,0.015183061361312866,1.264601230621338,0.0,-0.036989741027355194
322.0,550.0,-3.4175,-1.6624,9.0084,-0.0289,0.0238,-0.1109,-2.284727712670797,0.0,4.7607526779174805,-1.349861741065979,-0.0,1.8849003314971924,5.511907326966085,-0.0,0.20488795638084412,-1.6387112776385706,0.0,0.002508062869310379,-0.10346872011293584,0.0,-8.721230551600456e-05,1.2645890712738037,0.0,0.034396518021821976
322.0,550.0,-3.4175,-1.6624,9.0084,-0.0289,0.0238,-0.1109,-2.2847191296019496,0.0,4.711702346801758,-1.3498263359069824,-0.0,1.9231568574905396,5.511915194779196,-0.0,0.196991965174675,-1.6387394110309046,0.0,-0.005452338140457869,-0.10352498689760381,0.0,0.004572313744574785,1.2645729780197144,0.0,0.012674791738390923
322.0,550.0,-3.4175,-1.6624,9.0084,-0.0289,0.0238,-0.1109,-2.2847353420653285,0.0,4.728042125701904,-1.3498377799987793,-0.0,1.89237380027771,5.511894988804617,-0.0,0.20337975025177002,-1.6386788527118128,0.0,0.013619844801723957,-0.10346872011293584,0.0,0.0030649190302938223,1.2646008729934692,0.0,-0.03248070552945137
322.0,550.0,-3.4175,-1.6624,9.0084,-0.0289,0.0238,-0.1109,-2.2847677669920863,0.0,4.765920162200928,-1.3497939109802246,-0.0,1.8939158916473389,5.51192336061553,-0.0,0.21661388874053955,-1.6386588255511683,0.0,0.007901768200099468,-0.1034162680255335,0.0,0.0060477969236671925,1.2645771503448486,0.0,-0.019471898674964905
322.0,550.0,-3.4175,-1.6624,9.0084,-0.0289,0.0238,-0.1109,-2.284759660760397,0.0,4.71599817276001,-1.3498263359069824,-0.0,1.8830559253692627,5.511894929199972,-0.0,0.20776107907295227,-1.6386988798724573,0.0,-0.0041397856548428535,-0.10345727602113897,0.0,-0.00259083928540349,1.2645529508590698,0.0,-0.044599443674087524
322.0,550.0,-3.4175,-1.6624,9.0084,-0.0289,0.0238,-0.1109,-2.284727235833639,0.0,4.698946475982666,-1.3498497009277344,-0.0,1.938385248184204,5.51192336061553,-0.0,0.2089880406856537,-1.6386669317828577,0.0,0.012373288162052631,-0.10349685350526983,0.0,-0.005743830464780331,1.264585256576538,0.0,-0.012944100424647331
322.0,550.0,-3.4175,-1.6624,9.0084,-0.0289,0.0238,-0.1109,-2.2847515545287074,0.0,4.746966361999512,-1.3498303890228271,-0.0,1.940244436264038,5.511931824475088,-0.0,0.20863693952560425,-1.6386950651751917,0.0,0.005091764032840729,-0.10342485109438115,0.0,-0.001012078020721674,1.2645570039749146,0.0,0.014251592569053173
322.0,550.0,-3.4175,-1.6624,9.0084,-0.0289,0.0238,-0.1109,-2.284727235833639,0.0,4.6981940269470215,-1.3498297929763794,-0.0,1.911353349685669,5.511894929199972,-0.0,0.19629132747650146,-1.6387112776385706,0.0,-0.0011972717475146055,-0.10353309312929326,0.0,0.00552492868155241,1.2646335363388062,0.0,-0.04041922837495804
322.0,550.0,-3.4175,-1.6624,9.0084,-0.0289,0.0238,-0.1109,-2.2847520313658656,0.0,4.74422025680542,-1.3498018980026245,-0.0,1.9238210916519165,5.511875021248617,-0.0,0.19901074469089508,-1.6386950651751917,0.0,-0.003022835124284029,-0.10344869295229131,0.0,0.0012833550572395325,1.2645894289016724,0.0,-0.017874911427497864
322.0,550.0,-3.4175,-1.6624,9.0084,-0.0289,0.0238,-0.1109,-2.2847639522948207,0.0,4.754368782043457,-1.349802017211914,-0.0,1.924499750137329,5.511935877590933,-0.0,0.21452006697654724,-1.6386907736407679,0.0,0.002973602619022131,-0.10344058672060186,0.0,6.755156209692359e-05,1.2646090984344482,0.0,0.012536698952317238
322.0,550.0,-3.4175,-1.6624,9.0084,-0.0289,0.0238,-0.1109,-2.2847520313658656,0.0,4.73170280456543,-1.349806308746338,-0.0,1.9136936664581299,5.511870908528127,-0.0,0.21372713148593903,-1.6387432257281702,0.0,-0.00015981821343302727,-0.10347301164735967,0.0,0.008761654607951641,1.264573097229004,0.0,0.01729794777929783
322.0,550.0,-3.4175,-1.6624,9.0084,-0.0289,0.0238,-0.1109,-2.284755369225973,0.0,4.684811592102051,-1.3498303890228271,-0.0,1.9275684356689453,5.511919307499685,-0.0,0.21639135479927063,-1.6386593023883265,0.0,-0.0028276487719267607,-0.10350495973695928,0.0,0.006503676995635033,1.2645570039749146,0.0,0.00938378181308508
322.0,550.0,-3.4175,-1.6624,9.0084,-0.0289,0.0238,-0.1109,-2.284755369225973,0.0,4.712891101837158,-1.3498142957687378,-0.0,1.9164210557937622,5.5119109628494165,-0.0,0.19545848667621613,-1.6387031714068812,0.0,-0.005263819359242916,-0.1034768263446253,0.0,0.005600351840257645,1.264613151550293,0.0,-0.013525841757655144
322.0,550.0,-3.4175,-1.6624,9.0084,-0.0289,0.0238,-0.1109,-2.284727235833639,0.0,4.761630058288574,-1.3498058319091797,-0.0,1.902247667312622,5.51189141252593,-0.0,0.19679011404514313,-1.6387069861041468,0.0,0.011041324585676193,-0.10351306596864873,0.0,-0.00019718072144314647,1.2645771503448486,0.0,-0.06542348861694336
328.0,555.0,-3.3996,-1.6678,8.918,-0.037,0.0258,-0.1184,-2.2847191296019496,0.0,4.725218296051025,-1.349869728088379,-0.0,1.856152892112732,5.5119109628494165,-0.0,0.21469660103321075,-1.63871938387026,0.0,-0.005448450800031424,-0.10346490541567022,0.0,0.007549883797764778,1.264621376991272,0.0,-0.005614875815808773
328.0,555.0,-3.3996,-1.6678,8.918,-0.037,0.0258,-0.1184,-2.284755846063131,0.0,4.733409881591797,-1.349890112876892,-0.0,1.8679341077804565,5.511875021248617,-0.0,0.19195181131362915,-1.6387112776385706,0.0,0.00045576729462482035,-0.10350495973695928,0.0,0.008155301213264465,1.2646008729934692,0.0,0.00740890484303236
328.0,555.0,-3.3996,-1.6678,8.918,-0.037,0.0258,-0.1184,-2.284727235833639,0.0,4.683554172515869,-1.3497658967971802,-0.0,1.8694630861282349,5.511887240200796,-0.0,0.2151009440422058,-1.6386707464801233,0.0,0.0015020869905129075,-0.10348016420473272,0.0,0.00032951333560049534,1.2645971775054932,0.0,0.02680290676653385
328.0,555.0,-3.3996,-1.6678,8.918,-0.037,0.0258,-0.1184,-2.2848082981505335,0.0,4.713149070739746,-1.3498222827911377,-0.0,1.910765528678894,5.511875021248617,-0.0,0.19645728170871735,-1.6386869589435022,0.0,-0.013638006523251534,-0.10347301164735967,0.0,-0.009940817952156067,1.2645529508590698,0.0,0.016032231971621513
328.0,555.0,-3.3996,-1.6678,8.918,-0.037,0.0258,-0.1184,-2.284715314904684,0.0,4.693240642547607,-1.3498456478118896,-0.0,1.9320272207260132,5.511944222241201,-0.0,0.19340592622756958,-1.638663117085592,0.0,-0.0009778020903468132,-0.103492561970846,0.0,-0.0007770350202918053,1.2646090984344482,0.0,0.0048848483711481094
328.0,555.0,-3.3996,-1.6678,8.918,-0.037,0.0258,-0.1184,-2.2847477398314417,0.0,4.7266058921813965,-1.3498576879501343,-0.0,1.9508206844329834,5.511940049916067,-0.0,0.20591187477111816,-1.6387270132647913,0.0,0.006073197349905968,-0.10347301164735967,0.0,-0.005733818747103214,1.2645812034606934,0.0,0.03392447158694267
328.0,555.0,-3.3996,-1.6678,8.918,-0.037,0.0258,-0.1184,-2.28477205852651,0.0,4.724181175231934,-1.3498257398605347,-0.0,1.9151467084884644,5.5119032738502405,-0.0,0.2062283754348755,-1.6386831442462366,0.0,-0.0026797358877956867,-0.10346872011293584,0.0,-0.007416034583002329,1.2645366191864014,0.0,0.03842625766992569
328.0,555.0,-3.3996,-1.6678,8.918,-0.037,0.0258,-0.1184,-2.2847353420653285,0.0,4.734807968139648,-1.3497979640960693,-0.0,1.906146764755249,5.51191924789504,-0.0,0.20047464966773987,-1.6387556234942835,0.0,-0.0028221257962286472,-0.10346872011293584,0.0,-0.0006649203132838011,1.2645692825317383,0.0,-0.02891997992992401
328.0,555.0,-3.3996,-1.6678,8.918,-0.037,0.0258,-0.1184,-2.284715314904684,0.0,4.6812424659729,-1.3498657941818237,-0.0,1.8854403495788574,5.511951970845022,-0.0,0.18916192650794983,-1.6386907736407679,0.0,0.008168411441147327,-0.10346824327577764,0.0,0.01733950898051262,1.2646090984344482,0.0,0.0056098271161317825
328.0,555.0,-3.3996,-1.6678,8.918,-0.037,0.0258,-0.1184,-2.2847353420653285,0.0,4.713234901428223,-1.349790096282959,-0.0,1.896317958831787,5.511939990311422,-0.0,0.22364351153373718,-1.6387031714068812,0.0,0.003715839236974716,-0.10350114503969365,0.0,0.008255898021161556,1.2646172046661377,0.0,0.0047807954251766205
328.0,555.0,-3.3996,-1.6678,8.918,-0.037,0.0258,-0.1184,-2.2847353420653285,0.0,4.694613456726074,-1.3498263359069824,-0.0,1.8719656467437744,5.511911558895864,-0.0,0.20621788501739502,-1.6386750380145472,0.0,-0.010892248712480068,-0.10352117220033819,0.0,0.004455944523215294,1.2645971775054932,0.0,0.009421437978744507
328.0,555.0,-3.3996,-1.6678,8.918,-0.037,0.0258,-0.1184,-2.2847353420653285,0.0,4.73773717880249,-1.349841833114624,-0.0,1.8835517168045044,5.5119032738502405,-0.0,0.21551337838172913,-1.6386831442462366,0.0,0.001971334218978882,-0.10348016420473272,0.0,0.0028728318866342306,1.2646050453186035,0.0,0.008529405109584332
328.0,555.0,-3.3996,-1.6678,8.918,-0.037,0.0258,-0.1184,-2.284743448297018,0.0,4.740279197692871,-1.3498263359069824,-0.0,1.9014302492141724,5.511919307499685,-0.0,0.1883237659931183,-1.6386750380145472,0.0,-0.002569213043898344,-0.10343295732607061,0.0,-0.0027709167916327715,1.2645771503448486,0.0,-0.01645505055785179
328.0,555.0,-3.3996,-1.6678,8.918,-0.037,0.0258,-0.1184,-2.2847677669920863,0.0,4.69710636138916,-1.349873661994934,-0.0,1.9221864938735962,5.511931824475088,-0.0,0.20272088050842285,-1.6386750380145472,0.0,0.001600166317075491,-0.10351306596864873,0.0,0.014955448918044567,1.2645407915115356,0.0,0.022069944068789482
328.0,555.0,-3.3996,-1.6678,8.918,-0.037,0.0258,-0.1184,-2.2847396335997523,0.0,4.714333534240723,-1.3498576879501343,-0.0,1.8953337669372559,5.511874902039327,-0.0,0.2008390724658966,-1.638707462941305,0.0,-0.007305345498025417,-0.10348874727358037,0.0,0.0037346959579735994,1.264613151550293,0.0,0.001968798227608204
328.0,555.0,-3.3996,-1.6678,8.918,-0.037,0.0258,-0.1184,-2.284699102441305,0.0,4.712302207946777,-1.3498179912567139,-0.0,1.9250600337982178,5.511878895550527,-0.0,0.20832669734954834,-1.638663117085592,0.0,0.005221889354288578,-0.10353690782655889,0.0,0.011622282676398754,1.2645771503448486,0.0,-0.009702922776341438
323.0,599.0,-3.4098,-1.6475,8.9539,-0.0339,0.0298,-0.113,-2.2847310505309046,0.0,4.725919723510742,-1.3498536348342896,-0.0,1.9252283573150635,5.511883246689596,-0.0,0.19708432257175446,-1.6387470404254358,0.0,-0.0037031841930001974,-0.10343724886049444,0.0,0.0050905486568808556,1.2645771503448486,0.0,-0.002064301399514079
323.0,599.0,-3.4098,-1.6475,8.9539,-0.0339,0.0298,-0.113,-2.284743448297018,0.0,4.72288703918457,-1.3498941659927368,-0.0,1.9373619556427002,5.511931824475088,-0.0,0.20001962780952454,-1.6387112776385706,0.0,-0.0023727291263639927,-0.10342485109438115,0.0,0.001368997385725379,1.264613151550293,0.0,-0.011111374013125896
323.0,599.0,-3.4098,-1.6475,8.9539,-0.0339,0.0298,-0.113,-2.284760137597555,0.0,4.7032904624938965,-1.3498497009277344,-0.0,1.9182169437408447,5.511878895550527,-0.0,0.21655400097370148,-1.638707462941305,0.0,0.007607991341501474,-0.10348111787904912,0.0,0.0031684916466474533,1.2645931243896484,0.0,-0.046618204563856125
323.0,599.0,-3.4098,-1.6475,8.9539,-0.0339,0.0298,-0.113,-2.2847477398314417,0.0,4.718630313873291,-1.349861741065979,-0.0,1.9088338613510132,5.511883187084951,-0.0,0.2019439935684204,-1.6386750380145472,0.0,0.003704892238602042,-0.10350495973695928,0.0,0.009679919108748436,1.264613151550293,0.0,0.02191353030502796
323.0,599.0,-3.4098,-1.6475,8.9539,-0.0339,0.0298,-0.113,-2.28471102337026,0.0,4.742195129394531,-1.349790096282959,-0.0,1.94093918800354,5.511875021248617,-0.0,0.1999645233154297,-1.6387189070331019,0.0,-0.014050381258130074,-0.10342055955995733,0.0,0.02466394007205963,1.264613151550293,0.0,0.04879036545753479
323.0,599.0,-3.4098,-1.6475,8.9539,-0.0339,0.0298,-0.113,-2.2847477398314417,0.0,4.737256050109863,-1.3498097658157349,-0.0,1.9201487302780151,5.5119109628494165,-0.0,0.19763705134391785,-1.6386788527118128,0.0,0.004731217864900827,-0.10349685350526983,0.0,0.003153247060254216,1.2645611763000488,0.0,-0.003933681640774012
323.0,599.0,-3.4098,-1.6475,8.9539,-0.0339,0.0298,-0.113,-2.284743448297018,0.0,4.698094844818115,-1.3498263359069824,-0.0,1.9220404624938965,5.51192336061553,-0.0,0.19993463158607483,-1.6386950651751917,0.0,-0.008081997744739056,-0.10348016420473272,0.0,0.001793932169675827,1.2645890712738037,0.0,-0.029919125139713287
323.0,599.0,-3.4098,-1.6475,8.9539,-0.0339,0.0298,-0.113,-2.284727712670797,0.0,4.732174873352051,-1.3498263359069824,-0.0,1.8684089183807373,5.511915194779196,-0.0,0.20357437431812286,-1.6386993567096155,0.0,-0.005220470018684864,-0.1035087744342249,0.0,0.0010975978802889585,1.264548897743225,0.0,0.03434734791517258
323.0,599.0,-3.4098,-1.6475,8.9539,-0.0339,0.0298,-0.113,-2.2847234211363734,0.0,4.692504405975342,-1.349873661994934,-0.0,1.8573696613311768,5.511935937195577,-0.0,0.20195738971233368,-1.6386788527118128,0.0,0.0018649767152965069,-0.10347301164735967,0.0,-0.002076199743896723,1.264573097229004,0.0,0.04061973839998245
323.0,599.0,-3.4098,-1.6475,8.9539,-0.0339,0.0298,-0.113,-2.2847677669920863,0.0,4.730077266693115,-1.34982168674469,-0.0,1.9162135124206543,5.5119032738502405,-0.0,0.2071237415075302,-1.6387112776385706,0.0,0.004118731245398521,-0.10351306596864873,0.0,-0.008928420953452587,1.264585256576538,0.0,0.0057197981514036655
323.0,599.0,-3.4098,-1.6475,8.9539,-0.0339,0.0298,-0.113,-2.28471102337026,0.0,4.756253242492676,-1.349841833114624,-0.0,1.8989579677581787,5.5119032738502405,-0.0,0.20822513103485107,-1.6386788527118128,0.0,0.00024881953140720725,-0.10352927843202764,0.0,0.007958982139825821,1.2645890712738037,0.0,0.014036876149475574
323.0,599.0,-3.4098,-1.6475,8.9539,-0.0339,0.0298,-0.113,-2.2847353420653285,0.0,4.713722229003906,-1.349873661994934,-0.0,1.9514777660369873,5.511927532940664,-0.0,0.21788892149925232,-1.6387150923358362,0.0,-0.01119553204625845,-0.10351306596864873,0.0,0.0031122262589633465,1.2645771503448486,0.0,-0.0005751587450504303
323.0,599.0,-3.4098,-1.6475,8.9539,-0.0339,0.0298,-0.113,-2.2847916088499964,0.0,4.76322603225708,-1.3498263359069824,-0.0,1.9706388711929321,5.5119032738502405,-0.0,0.21126922965049744,-1.6386993567096155,0.0,-0.004672550596296787,-0.10348874727358037,0.0,0.005553760100156069,1.264573097229004,0.0,-0.018566550686955452
323.0,599.0,-3.4098,-1.6475,8.9539,-0.0339,0.0298,-0.113,-2.284727235833639,0.0,4.7367048263549805,-1.3498141765594482,-0.0,1.9293076992034912,5.511935937195577,-0.0,0.21207667887210846,-1.6386907736407679,0.0,-0.0017748752143234015,-0.10346490541567022,0.0,0.006417437922209501,1.264621376991272,0.0,-0.022922946140170097
323.0,599.0,-3.4098,-1.6475,8.9539,-0.0339,0.0298,-0.113,-2.2847396335997523,0.0,4.715167045593262,-1.349841594696045,-0.0,1.8999518156051636,5.5119032738502405,-0.0,0.19582104682922363,-1.638663117085592,0.0,0.00615411764010787,-0.103492561970846,0.0,0.008881726302206516,1.2645971775054932,0.0,0.011540384963154793
323.0,599.0,-3.4098,-1.6475,8.9539,-0.0339,0.0298,-0.113,-2.2847234211363734,0.0,4.723285675048828,-1.3498263359069824,-0.0,1.904933214187622,5.511862623482504,-0.0,0.21161188185214996,-1.6386387983905237,0.0,0.007289044093340635,-0.10346490541567022,0.0,0.0034848004579544067,1.2646008729934692,0.0,0.012669067829847336
314.0,563.0,-3.3996,-1.6732,8.9988,-0.0396,0.0258,-0.1194,-2.284755369225973,0.0,4.716171741485596,-1.3497817516326904,-0.0,1.9066832065582275,5.511963832169332,-0.0,0.19341233372688293,-1.6387069861041468,0.0,-0.007712173275649548,-0.10344869295229131,0.0,0.00492424052208662,1.2645890712738037,0.0,0.014588313177227974
314.0,563.0,-3.3996,-1.6732,8.9988,-0.0396,0.0258,-0.1194,-2.2847353420653285,0.0,4.725025177001953,-1.3498139381408691,-0.0,1.857672929763794,5.511847185879507,-0.0,0.22368156909942627,-1.6387513319598597,0.0,-0.007466757204383612,-0.10350925127138311,0.0,-0.0017704821657389402,1.264613151550293,0.0,-0.02082131989300251
314.0,563.0,-3.3996,-1.6732,8.9988,-0.0396,0.0258,-0.1194,-2.284743448297018,0.0,4.710508823394775,-1.3498656749725342,-0.0,1.9202094078063965,5.511887299805441,-0.0,0.20720934867858887,-1.6386869589435022,0.0,-0.003826351370662451,-0.10346490541567022,0.0,0.004060935229063034,1.2645890712738037,0.0,0.04961633309721947
314.0,563.0,-3.3996,-1.6732,8.9988,-0.0396,0.0258,-0.1194,-2.2847520313658656,0.0,4.72604513168335,-1.349898338317871,-0.0,1.8762521743774414,5.511878955155172,-0.0,0.1980801224708557,-1.638663117085592,0.0,-0.006812689825892448,-0.10347301164735967,0.0,0.006838079541921616,1.2646294832229614,0.0,-0.003466893918812275
314.0,563.0,-3.3996,-1.6732,8.9988,-0.0396,0.0258,-0.1194,-2.284759660760397,0.0,4.728404998779297,-1.3498222827911377,-0.0,1.8956749439239502,5.511899220734396,-0.0,0.19275358319282532,-1.6386550108539026,0.0,0.010424377396702766,-0.10350114503969365,0.0,0.009159035980701447,1.264601230621338,0.0,0.04626896232366562
314.0,563.0,-3.3996,-1.6732,8.9988,-0.0396,0.0258,-0.1194,-2.2847234211363734,0.0,4.664063453674316,-1.3498778343200684,-0.0,1.8883426189422607,5.5119109628494165,-0.0,0.21206817030906677,-1.6386788527118128,0.0,0.00796157494187355,-0.10352498689760381,0.0,0.009967111051082611,1.2646050453186035,0.0,-0.004120589233934879
314.0,563.0,-3.3996,-1.6732,8.9988,-0.0396,0.0258,-0.1194,-2.284788270989889,0.0,4.6855621337890625,-1.349873661994934,-0.0,1.9269227981567383,5.51191924789504,-0.0,0.20251217484474182,-1.6387069861041468,0.0,0.007192736025899649,-0.10353261629213506,0.0,0.013254096731543541,1.2646054029464722,0.0,-0.013500980101525784
314.0,563.0,-3.3996,-1.6732,8.9988,-0.0396,0.0258,-0.1194,-2.284703393975729,0.0,4.773850917816162,-1.3498098850250244,-0.0,1.9239623546600342,5.511944162636556,-0.0,0.20741397142410278,-1.6386707464801233,0.0,-0.011157525703310966,-0.10348445573915654,0.0,-0.002473968779668212,1.2645689249038696,0.0,-0.07017410546541214
314.0,563.0,-3.3996,-1.6732,8.9988,-0.0396,0.0258,-0.1194,-2.284771581689352,0.0,4.7310051918029785,-1.3498259782791138,-0.0,1.9353573322296143,5.511883187084951,-0.0,0.19996750354766846,-1.6387236754046839,0.0,0.001040556700900197,-0.1035087744342249,0.0,0.01111199613660574,1.2645611763000488,0.0,-0.05199890583753586
314.0,563.0,-3.3996,-1.6732,8.9988,-0.0396,0.0258,-0.1194,-2.2847677669920863,0.0,4.711540699005127,-1.3498458862304688,-0.0,1.9258525371551514,5.511866736202993,-0.0,0.1934024691581726,-1.6386750380145472,0.0,-0.010169906541705132,-0.10348445573915654,0.0,-0.0014434638433158398,1.2646173238754272,0.0,0.0312773734331131
314.0,563.0,-3.3996,-1.6732,8.9988,-0.0396,0.0258,-0.1194,-2.2847353420653285,0.0,4.711145401000977,-1.3498263359069824,-0.0,1.9064055681228638,5.511899220734396,-0.0,0.21058440208435059,-1.6386669317828577,0.0,0.002893985714763403,-0.10348445573915654,0.0,-0.0065196817740798,1.2646090984344482,0.0,0.029302213340997696
314.0,563.0,-3.3996,-1.6732,8.9988,-0.0396,0.0258,-0.1194,-2.2847234211363734,0.0,4.729572772979736,-1.3498183488845825,-0.0,1.875253438949585,5.5119032738502405,-0.0,0.205404132604599,-1.6386907736407679,0.0,-0.000456453301012516,-0.10341293016542608,0.0,0.002598986029624939,1.2645890712738037,0.0,0.04711877927184105
314.0,563.0,-3.3996,-1.6732,8.9988,-0.0396,0.0258,-0.1194,-2.2847758732237757,0.0,4.760242938995361,-1.3498303890228271,-0.0,1.9482536315917969,5.511883187084951,-0.0,0.2195846140384674,-1.6386950651751917,0.0,0.0032998360693454742,-0.10350495973695928,0.0,0.007468393538147211,1.2646173238754272,0.0,-0.0042952317744493484
314.0,563.0,-3.3996,-1.6732,8.9988,-0.0396,0.0258,-0.1194,-2.2847067318358363,0.0,4.696593761444092,-1.3498616218566895,-0.0,1.920148253440857,5.51189552524642,-0.0,0.20299187302589417,-1.6386788527118128,0.0,-0.01268270518630743,-0.10348445573915654,0.0,-0.0062194643542170525,1.2646336555480957,0.0,0.019890662282705307
314.0,563.0,-3.3996,-1.6732,8.9988,-0.0396,0.0258,-0.1194,-2.2847396335997523,0.0,4.7047319412231445,-1.3498657941818237,-0.0,1.9113328456878662,5.511923420220175,7.484477038133264e-09,0.20505988597869873,-1.6386750380145472,0.0,-0.006053767632693052,-0.10342055955995733,0.0,0.00667325546965003,1.2646254301071167,0.0,-0.02521936036646366
314.0,563.0,-3.3996,-1.6732,8.9988,-0.0396,0.0258,-0.1194,-2.284703393975729,0.0,4.772634029388428,-1.3498344421386719,-0.0,1.9468467235565186,5.511935937195577,2.0833313373047613e-12,0.19916802644729614,-1.6386993567096155,0.0,-0.001196699682623148,-0.10343677202333623,0.0,0.0023090268950909376,1.2646173238754272,0.0,-0.05236407369375229
333.0,562.0,-3.399,-1.6152,9.0652,-0.0397,0.0301,-0.1104,-2.284743448297018,0.0,4.700569152832031,-1.3498456478118896,-0.0,1.9196797609329224,5.511870789318838,5.799030549479684e-16,0.2119220793247223,-1.6386588255511683,0.0,0.011540325358510017,-0.10352927843202764,0.0,-0.002433712361380458,1.2645812034606934,0.0,-0.03919076547026634
333.0,562.0,-3.399,-1.6152,9.0652,-0.0397,0.0301,-0.1104,-2.284771581689352,0.0,4.725228309631348,-1.349802017211914,-0.0,1.8921005725860596,5.5119109628494165,2.472217444204079e-18,0.21147119998931885,-1.6386669317828577,0.0,-0.0013769695069640875,-0.10343295732607061,0.0,0.0036492582876235247,1.2645971775054932,0.0,0.023237677291035652
333.0,562.0,-3.399,-1.6152,9.0652,-0.0397,0.0301,-0.1104,-2.284715314904684,0.0,4.681737899780273,-1.3497939109802246,-0.0,1.9043681621551514,5.511927532940664,6.205835961736739e-05,0.20322656631469727,-1.6386788527118128,0.0,0.012959362007677555,-0.10348874727358037,0.0,0.002341889077797532,1.2645971775054932,0.0,-0.005482701119035482
333.0,562.0,-3.399,-1.6152,9.0652,-0.0397,0.0301,-0.1104,-2.28477205852651,0.0,4.710806846618652,-1.349841833114624,-0.0,1.9256770610809326,5.51192336061553,5.7907745940610766e-05,0.20637072622776031,-1.6387112776385706,0.0,0.003336661495268345,-0.10350114503969365,0.0,0.0031612683087587357,1.2646254301071167,0.0,-0.007341376505792141
333.0,562.0,-3.399,-1.6152,9.0652,-0.0397,0.0301,-0.1104,-2.2847396335997523,0.0,4.7110090255737305,-1.3499096632003784,-0.0,1.9434125423431396,5.511870968132772,4.853692735196091e-05,0.20133048295974731,-1.638663117085592,0.0,-0.004633389413356781,-0.10345298448671514,0.0,-0.0019377536373212934,1.2645808458328247,0.0,-0.0017040036618709564
333.0,562.0,-3.399,-1.6152,9.0652,-0.0397,0.0301,-0.1104,-2.2847677669920863,0.0,4.69062614440918,-1.349841833114624,-0.0,1.9160350561141968,5.511919307499685,4.1775867430260405e-05,0.1976107805967331,-1.6386311689959925,0.0,0.008900846354663372,-0.10352117220033819,0.0,0.0007934896275401115,1.2646090984344482,0.0,-0.03640765696763992
333.0,562.0,-3.399,-1.6152,9.0652,-0.0397,0.0301,-0.1104,-2.2847353420653285,0.0,4.751855850219727,-1.3497898578643799,-0.0,1.932440996170044,5.5119109628494165,3.6668439861387014e-05,0.20865410566329956,-1.6387112776385706,0.0,-0.0031971994321793318,-0.10346872011293584,0.0,0.01406974345445633,1.264557123184204,0.0,-0.05170754715800285
333.0,562.0,-3.399,-1.6152,9.0652,-0.0397,0.0301,-0.1104,-2.2847477398314417,0.0,4.67098331451416,-1.3498222827911377,-0.0,1.9347529411315918,5.511910903244772,3.267407009843737e-05,0.19435429573059082,-1.6386950651751917,0.0,-0.001246762229129672,-0.10343677202333623,0.0,0.003194063901901245,1.2646050453186035,0.0,0.03476310521364212
333.0,562.0,-3.399,-1.6152,9.0652,-0.0397,0.0301,-0.1104,-2.2847796879210414,0.0,4.737898826599121,-1.3498222827911377,-0.0,1.9272009134292603,5.511931824475088,2.9464534236467443e-05,0.20740672945976257,-1.6386950651751917,0.0,0.005639048293232918,-0.10346490541567022,0.0,0.004064060747623444,1.2646090984344482,0.0,0.03276073932647705
333.0,562.0,-3.399,-1.6152,9.0652,-0.0397,0.0301,-0.1104,-2.2847310505309046,0.0,4.755463600158691,-1.3498536348342896,-0.0,1.9455971717834473,5.51192336061553,1.3663726349477656e-05,0.2080707550048828,-1.6386707464801233,0.0,0.0027945947367697954,-0.10351735750307256,0.0,0.01049197930842638,1.2645689249038696,0.0,-0.02456282451748848
333.0,562.0,-3.399,-1.6152,9.0652,-0.0397,0.0301,-0.1104,-2.284755369225973,0.0,4.709428787231445,-1.349769949913025,-0.0,1.8625813722610474,5.511883187084951,3.803348747055679e-09,0.20297297835350037,-1.6386831442462366,0.0,0.005841406062245369,-0.10344106355776006,0.0,-0.0038973840419203043,1.2646737098693848,0.0,0.0023797356989234686
333.0,562.0,-3.399,-1.6152,9.0652,-0.0397,0.0301,-0.1104,-2.2847796879210414,0.0,4.739773750305176,-1.3497939109802246,-0.0,1.9183995723724365,5.511951911240377,1.0586760417971575e-12,0.20871257781982422,-1.6386669317828577,0.0,-0.011311808601021767,-0.10348016420473272,0.0,0.0056960307992994785,1.264573097229004,0.0,-0.022545434534549713
333.0,562.0,-3.399,-1.6152,9.0652,-0.0397,0.0301,-0.1104,-2.2847677669920863,0.0,4.697935104370117,-1.3498377799987793,-0.0,1.912468433380127,5.511894988804617,2.946863622397969e-16,0.21479415893554688,-1.6387150923358362,0.0,0.0037821829319000244,-0.10351306596864873,0.0,0.010451028123497963,1.2646454572677612,3.993531200174871e-11,-0.04943237081170082
333.0,562.0,-3.399,-1.6152,9.0652,-0.0397,0.0301,-0.1104,-2.2847916088499964,0.0,4.724571228027344,-1.3498098850250244,-0.0,1.8977324962615967,5.511919307499685,8.202702940169714e-20,0.21122735738754272,-1.6386788527118128,0.0,0.009235751815140247,-0.10348445573915654,0.0,0.008079302497208118,1.2645766735076904,9.643906855853637e-17,0.002812662860378623
333.0,562.0,-3.399,-1.6152,9.0652,-0.0397,0.0301,-0.1104,-2.2847758732237757,0.0,4.7236247062683105,-1.3498220443725586,-0.0,1.9026938676834106,5.51192336061553,3.496940875665499e-22,0.20169711112976074,-1.6386907736407679,0.0,-0.0012157647870481014,-0.10346109071840459,0.0,0.0067036766558885574,1.264641284942627,0.00038797175511717796,-0.051091309636831284
333.0,562.0,-3.399,-1.6152,9.0652,-0.0397,0.0301,-0.1104,-2.284759660760397,0.0,4.727942943572998,-1.3498260974884033,-3.776573220815038e-10,1.856006145477295,5.51192336061553,9.733863794194115e-26,0.20988327264785767,-1.6387270132647913,0.0,-0.002370581030845642,-0.1034768263446253,0.0,0.0006506466306746006,1.2646249532699585,0.0014530151383951306,0.002555693034082651
332.0,580.0,-3.6736,-2.2122,9.2722,-0.0509,0.0199,-0.1422,-2.284771581689352,0.0,4.707637786865234,-1.3498179912567139,0.0008404685650020838,1.9122647047042847,5.511935937195577,2.7094569264419564e-29,0.20312651991844177,-1.6386831442462366,0.0,-0.015043512918055058,-0.10340482393373662,0.0,0.009650901891291142,1.2646896839141846,0.0021686155814677477,-0.004393384791910648
332.0,580.0,-3.6736,-2.2122,9.2722,-0.0509,0.0199,-0.1422,-2.284727235833639,0.0,4.6967573165893555,-1.3497939109802246,0.0008201093296520412,1.9255480766296387,5.511943566590109,7.541872572539946e-33,0.2139892727136612,-1.6386669317828577,0.0,-0.007439341861754656,-0.10348874727358037,0.0,0.011354945600032806,1.2647137641906738,0.003772860625758767,0.008258134126663208
332.0,580.0,-3.6736,-2.2122,9.2722,-0.0509,0.0199,-0.1422,-2.2847477398314417,0.0,4.779183864593506,-1.3498101234436035,0.0008071890915744007,1.8659695386886597,5.511927592545309,0.00026550772599875927,0.20504379272460938,-1.6386788527118128,0.0,-0.003869043430313468,-0.10348874727358037,0.0,0.008239895105361938,1.2647169828414917,0.006473995745182037,0.021699821576476097
332.0,580.0,-3.6736,-2.2122,9.2722,-0.0509,0.0199,-0.1422,-2.2847959003844203,0.0,4.721503257751465,-1.3497263193130493,0.0007640514522790909,1.8575217723846436,5.51192336061553,0.00023168565530795604,0.20189699530601501,-1.6387112776385706,0.0,-0.0031789743807166815,-0.1034768263446253,0.0,0.0042373016476631165,1.264761209487915,0.007207008078694344,0.026448067277669907
332.0,580.0,-3.6736,-2.2122,9.2722,-0.0509,0.0199,-0.1422,-2.2847639522948207,0.0,4.7001848220825195,-1.3497496843338013,0.0007105711847543716,1.877826452255249,5.511943626194753,0.0002006824070122093,0.2145262062549591,-1.6387432257281702,0.0,-0.008532034233212471,-0.10354501405824834,0.0,-0.003797053825110197,1.2647972106933594,0.007065646816045046,-0.013825580477714539
332.0,580.0,-3.6736,-2.2122,9.2722,-0.0509,0.0199,-0.1422,-2.284743448297018,0.0,4.749458312988281,-1.3497344255447388,0.0005317600443959236,1.900428295135498,5.5119555471237085,0.00021176866721361876,0.2094748467206955,-1.6387346426593226,0.0,-0.00959840975701809,-0.10343295732607061,0.0,0.003898548660799861,1.264845371246338,0.0060333264991641045,-0.019093405455350876
332.0,580.0,-3.6736,-2.2122,9.2722,-0.0509,0.0199,-0.1422,-2.2847477398314417,0.0,4.709551811218262,-1.349830150604248,0.0004104590625502169,1.911659836769104,5.51192723491744,0.00024499138817191124,0.21175813674926758,-1.638702694569723,0.0,-0.009786974638700485,-0.10345298448671514,0.0,0.010116219520568848,1.264857292175293,0.005609423853456974,-0.019900470972061157
332.0,580.0,-3.6736,-2.2122,9.2722,-0.0509,0.0199,-0.1422,-2.2847677669920863,0.0,4.720085144042969,-1.3497662544250488,0.00033422678825445473,1.8871393203735352,5.511991965561666,0.00022911505948286504,0.21157702803611755,-1.638775650654928,0.0,0.0017530263867229223,-0.10346109071840459,0.0,-0.00038663321174681187,1.2649134397506714,0.00480862520635128,-0.035874463617801666
332.0,580.0,-3.6736,-2.2122,9.2722,-0.0509,0.0199,-0.1422,-2.284743448297018,8.927636372391135e-05,4.68885612487793,-1.3497703075408936,0.0003269312437623739,1.9065747261047363,5.511983799725332,0.00020914882770739496,0.21500800549983978,-1.6387389341937464,0.0,-0.011912485584616661,-0.10351688066591436,0.0,0.004815917462110519,1.2649211883544922,0.003598365467041731,-0.005936635658144951
332.0,580.0,-3.6736,-2.2122,9.2722,-0.0509,0.0199,-0.1422,-2.284670969048971,0.0001736667036311701,4.7308735847473145,-1.3497822284698486,0.0002843292895704508,1.8762506246566772,5.5119555471237085,0.0002389029395999387,0.2134440839290619,-1.6387432257281702,0.0,0.005664419382810593,-0.10351735750307256,0.0,0.000797375978436321,1.2648732662200928,0.0013042741920799017,0.054816387593746185
332.0,580.0,-3.6736,-2.2122,9.2722,-0.0509,0.0199,-0.1422,-2.28468718151235,0.00018822250422090292,4.766483783721924,-1.349745750427246,0.0002607886563055217,1.9408297538757324,5.5119478581245325,0.00022406433708965778,0.19996781647205353,-1.6387632528888147,0.0,-0.003097357228398323,-0.10350114503969365,0.0,0.010902401059865952,1.264860987663269,-0.0008295940351672471,0.04510153457522392
332.0,580.0,-3.6736,-2.2122,9.2722,-0.0509,0.0199,-0.1422,-2.2847396335997523,0.00017453814507462084,4.687334060668945,-1.349730372428894,8.017897926038131e-05,1.91127610206604,5.511960196286001,0.00016608274017926306,0.1997237354516983,-1.6387184301959437,0.0,-0.013405892066657543,-0.10345727602113897,0.0,-0.0032703299075365067,1.2648372650146484,-0.004903147928416729,-0.019354060292243958
332.0,580.0,-3.6736,-2.2122,9.2722,-0.0509,0.0199,-0.1422,-2.2847310505309046,0.00014239977463148534,4.691217422485352,-1.3497902154922485,6.90524248057045e-05,1.9030985832214355,5.511850821762838,0.000105015751614701,0.20817667245864868,-1.6387108008014124,0.0,-0.005795573815703392,-0.10348445573915654,0.0,-0.0036857835948467255,1.2647370100021362,-0.007537130266427994,0.02206709422171116
332.0,580.0,-3.6736,-2.2122,9.2722,-0.0509,0.0199,-0.1422,-2.284703393975729,0.0001333283435087651,4.748363494873047,-1.349790096282959,3.6511876260192366e-06,1.8911261558532715,5.511875021248617,-0.00016116525512188673,0.2054208666086197,-1.638742748891012,0.0,0.01086709275841713,-0.10357314745058233,0.0,0.0018599753966555,1.2646608352661133,-0.007959455251693726,0.04689756780862808
332.0,580.0,-3.6736,-2.2122,9.2722,-0.0509,0.0199,-0.1422,-2.2847639522948207,0.00010387536894995719,4.779959678649902,-1.3497700691223145,8.817186564202828e-12,1.884670615196228,5.511847185879507,-0.0002730914857238531,0.2132384479045868,-1.6387832800494593,1.0842096109797694e-09,-0.005129281897097826,-0.10352880159486944,0.0,-0.000468273414298892,1.2646732330322266,-0.0065940204076468945,-0.00492580933496356
332.0,580.0,-3.6736,-2.2122,9.2722,-0.0509,0.0199,-0.1422,-2.284727235833639,0.00013280769053380936,4.748811721801758,-1.3497458696365356,2.1292469382617286e-17,1.8949649333953857,5.511847185879507,-0.0007204824942164123,0.21592798829078674,-1.6387751738177698,3.0179371913845177e-13,0.02146265283226967,-0.10346490541567022,0.0,0.001217901473864913,1.2646454572677612,-0.0035611765924841166,-0.006024426780641079
317.0,581.0,-3.5127,-1.4674,9.0335,-0.0293,0.0363,-0.1324,-2.284727712670797,0.00014974734222050756,4.722843170166016,-1.349745750427246,5.141881208297043e-23,1.8799126148223877,5.511879193573751,-0.00053197774104774,0.20468074083328247,-1.6387227217303675,8.400539251645169e-17,0.003102549584582448,-0.10350495973695928,0.0,0.008568652905523777,1.2645968198776245,-0.002084356499835849,0.05365370586514473
317.0,581.0,-3.5127,-1.4674,9.0335,-0.0293,0.0363,-0.1324,-2.2847072086729945,0.00015407262253575027,4.727668285369873,-1.3497860431671143,1.2417038500798104e-28,1.8858400583267212,5.511835264950552,-0.0005379703361541033,0.22319933772087097,-1.6387551466571253,2.338320846033068e-20,0.016009856015443802,-0.10349685350526983,0.0,0.010444137267768383,1.2646172046661377,-0.0018239407800137997,0.04585333913564682
317.0,581.0,-3.5127,-1.4674,9.0335,-0.0293,0.0363,-0.1324,-2.2846833668150843,0.00018392378115095198,4.7807793617248535,-1.3497941493988037,2.9985687691013136e-34,1.9223582744598389,5.511879610806265,-0.0004588211886584759,0.2120194137096405,-1.6387751738177698,6.508801793265826e-24,0.010544661432504654,-0.10348874727358037,0.0,0.007201113738119602,1.264573097229004,-0.0020352930296212435,0.01671578921377659
317.0,581.0,-3.5127,-1.4674,9.0335,-0.0293,0.0363,-0.1324,-2.284703870812887,0.00020361518545541912,4.737853527069092,-1.3497941493988037,7.241195801413849e-40,1.933287501335144,5.511823045998373,-0.00044149780296720564,0.22402194142341614,-1.6387470404254358,1.8117488765183053e-27,0.01949448697268963,-0.10346872011293584,0.0,-0.0024086451157927513,1.2645208835601807,-0.0026602281723171473,0.026460671797394753
317.0,581.0,-3.5127,-1.4674,9.0335,-0.0293,0.0363,-0.1324,-2.2847310505309046,0.00017312912677880377,4.722077369689941,-1.3497458696365356,1.401298464324817e-45,1.893625020980835,5.511815297394552,-0.00041733705438673496,0.22213442623615265,-1.6387065092669886,5.0430696586717725e-31,0.014358891174197197,-0.10349685350526983,0.0,-0.000980973127298057,1.2645492553710938,-0.003561856225132942,0.046797946095466614
317.0,581.0,-3.5127,-1.4674,9.0335,-0.0293,0.0363,-0.1324,-2.2847115002074183,6.7515553382691e-05,4.733037948608398,-1.3497660160064697,-0.0,1.8869237899780273,5.511831271439352,-0.00041378839523531497,0.2317238301038742,-1.6387470404254358,1.4037572162414845e-34,0.00973561592400074,-0.10343677202333623,0.0,0.015421655960381031,1.264545202255249,-0.004005767405033112,-0.008940492756664753
317.0,581.0,-3.5127,-1.4674,9.0335,-0.0293,0.0363,-0.1324,-2.2847353420653285,1.1252447862375448e-08,4.718695640563965,-1.3498342037200928,-0.0,1.9054439067840576,5.511819350510397,-0.0003891396918334067,0.22304695844650269,-1.638730827962057,3.907411186229842e-38,0.015231366269290447,-0.103492561970846,0.0,0.0064073530957102776,1.2645173072814941,-0.0036044069565832615,-0.007229704409837723
317.0,581.0,-3.5127,-1.4674,9.0335,-0.0293,0.0363,-0.1324,-2.2847396335997523,2.025400680505385e-12,4.738288879394531,-1.3497823476791382,-0.0,1.8955045938491821,5.51186768987731,-0.00034010972012765706,0.2211361527442932,-1.638726536427633,1.6657935494661263e-40,0.004589288495481014,-0.10348445573915654,0.0,0.008443741127848625,1.2644609212875366,-0.0032155101653188467,0.019894765689969063
317.0,581.0,-3.5127,-1.4674,9.0335,-0.0293,0.0363,-0.1324,-2.2847396335997523,4.891104072775027e-18,4.748528957366943,-1.349790096282959,-0.0,1.9087262153625488,5.511807429581442,-0.00028603896498680115,0.21477092802524567,-1.638742748891012,4.624284932271896e-44,0.007735789753496647,-0.10346061388124639,0.0,-0.011686164885759354,1.264477252960205,-0.0027840696275234222,-0.010959097184240818
317.0,581.0,-3.5127,-1.4674,9.0335,-0.0293,0.0363,-0.1324,-2.2847758732237757,1.1811441573335966e-23,4.7075042724609375,-1.3498425483703613,-0.0,1.914585828781128,5.511835384159841,-0.00024680656497366726,0.22078090906143188,-1.6387189070331019,0.0,0.009417155757546425,-0.10348445573915654,0.0,0.007733476813882589,1.264436960220337,-0.00288716540671885,0.039559636265039444
317.0,581.0,-3.5127,-1.4674,9.0335,-0.0293,0.0363,-0.1324,-2.2847520313658656,2.8523239143493707e-29,4.745849609375,-1.3497703075408936,-0.0,1.9647912979125977,5.511859822064199,-0.00021704072423744947,0.21286922693252563,-1.638742748891012,0.0,0.012860635295510292,-0.10349685350526983,0.0,0.007452676072716713,1.2644695043563843,-0.0028754365630447865,-0.004608985502272844
317.0,581.0,-3.5127,-1.4674,9.0335,-0.0293,0.0363,-0.1324,-2.284743448297018,6.888027257946569e-35,4.716063976287842,-1.3497620820999146,-0.0,1.925325870513916,5.51185171583251,-0.00019368293578736484,0.2151380479335785,-1.6387227217303675,0.0,0.02056536078453064,-0.10346490541567022,0.0,-0.0030926375184208155,1.2644011974334717,-0.0028147785924375057,-0.002743315417319536
317.0,581.0,-3.5127,-1.4674,9.0335,-0.0293,0.0363,-0.1324,-2.284727235833639,1.6633833161074876e-40,4.681268692016602,-1.3497941493988037,-0.0,1.8795063495635986,5.511879610806265,-0.00017486455908510834,0.21903081238269806,-1.6387508551227015,0.0,0.01569225825369358,-0.10345298448671514,0.0,-0.00556383328512311,1.2643488645553589,-0.0026326701045036316,0.028399942442774773
317.0,581.0,-3.5127,-1.4674,9.0335,-0.0293,0.0363,-0.1324,-2.2847234211363734,0.0,4.745766639709473,-1.3497142791748047,-0.0,1.9169566631317139,5.511823284416952,-0.00015938001160975546,0.22518613934516907,-1.638726536427633,0.0,0.006694452837109566,-0.10346538225282842,0.0,0.007474195212125778,1.2643934488296509,-0.002629051683470607,0.0067612165585160255
317.0,581.0,-3.5127,-1.4674,9.0335,-0.0293,0.0363,-0.1324,-2.2847067318358363,0.0,4.738922595977783,-1.3497984409332275,-0.0,1.9069358110427856,5.5118435499961755,-0.0001464148226659745,0.2202775478363037,-1.6387389341937464,0.0,-0.004296619910746813,-0.103492561970846,0.0,-0.00036254688166081905,1.2643733024597168,-0.0025388249196112156,0.026913519948720932
317.0,581.0,-3.5127,-1.4674,9.0335,-0.0293,0.0363,-0.1324,-2.2847844562926234,0.0,4.719533443450928,-1.3497225046157837,0.0008851779857650399,1.9270293712615967,5.511827277928152,-0.00013540044892579317,0.21595120429992676,-1.6387594381915491,0.0,0.013840182684361935,-0.10348874727358037,0.0,0.002831151941791177,1.264369249343872,-0.0024710912257432938,-0.0166143998503685
323.0,571.0,-3.3422,-1.5338,8.9964,-0.0252,0.0241,-0.1139,-2.284755369225973,0.0,4.72808837890625,-1.349718451499939,0.0007147183641791344,1.8727524280548096,5.51177470663146,-0.0001468214177293703,0.2328987419605255,-1.638730827962057,0.0,0.0032144621945917606,-0.10344916978944951,0.0,-0.006769163534045219,1.264357328414917,-0.0021461891010403633,0.008048184216022491
323.0,571.0,-3.3422,-1.5338,8.9964,-0.0252,0.0241,-0.1139,-2.2847639522948207,0.0,4.717825889587402,-1.3497700691223145,0.0005506707821041346,1.9291810989379883,5.511783110886373,-0.00015625897503923625,0.22538064420223236,-1.6387794653521937,0.0,0.009499465115368366,-0.10348111787904912,0.0,0.008558794856071472,1.264320969581604,-0.0015697251074016094,0.0011016563512384892
323.0,571.0,-3.3422,-1.5338,8.9964,-0.0252,0.0241,-0.1139,-2.284715314904684,0.0,4.724433898925781,-1.3497344255447388,0.0004478829796425998,1.9031305313110352,5.511774766236105,-0.00011210129014216363,0.23156234622001648,-1.638742748891012,0.0,0.001802316983230412,-0.10345298448671514,0.0,0.011442134156823158,1.2643451690673828,-0.0009300768724642694,0.00965161807835102
323.0,571.0,-3.3422,-1.5338,8.9964,-0.0252,0.0241,-0.1139,-2.284759660760397,0.0,4.761497974395752,-1.3497384786605835,0.0003372405481059104,1.934328317642212,5.511803316860952,-0.00010567903518676758,0.22905653715133667,-1.6387508551227015,0.0,-0.0026086517609655857,-0.10340911546816045,0.0,0.006633126176893711,1.2643615007400513,-0.0006915598642081022,0.019360611215233803
323.0,571.0,-3.3422,-1.5338,8.9964,-0.0252,0.0241,-0.1139,-2.2847477398314417,0.0,4.752834320068359,-1.3497264385223389,0.00032192253274843097,1.9395151138305664,5.51181577423171,-0.00011837475904030725,0.2331373393535614,-1.6387384573565882,0.0,-0.003980767447501421,-0.10347301164735967,7.417841629830946e-07,0.014425303786993027,1.264357328414917,-0.0006624986999668181,0.028201691806316376
323.0,571.0,-3.3422,-1.5338,8.9964,-0.0252,0.0241,-0.1139,-2.2847310505309046,0.0,4.771646499633789,-1.3497384786605835,0.0003648450365290046,1.952364206314087,5.51175873258666,-0.00014695103163830936,0.22706109285354614,-1.638742748891012,0.0,5.352054722607136e-05,-0.10341293016542608,2.0647832055242787e-10,0.007126164622604847,1.2643132209777832,-0.0005325652309693396,0.02707964926958084
323.0,571.0,-3.3422,-1.5338,8.9964,-0.0252,0.0241,-0.1139,-2.2847191296019496,0.0,4.737477779388428,-1.3497424125671387,0.0006214265013113618,1.9530954360961914,5.511815476208486,-0.000369136716471985,0.22689232230186462,-1.638742748891012,0.0,-0.01080973818898201,-0.10344487825502569,5.747399762058916e-14,0.020176362246274948,1.2643177509307861,-0.0012443300802260637,0.038944587111473083
323.0,571.0,-3.3422,-1.5338,8.9964,-0.0252,0.0241,-0.1139,-2.2847520313658656,0.0,4.7365946769714355,-1.3497384786605835,0.0011775156017392874,1.9640541076660156,5.5117870447929285,-0.00029775951406918466,0.22090524435043335,-1.6387227217303675,0.0,-7.966987323015928e-05,-0.10343677202333623,1.5998098217610407e-17,0.019618872553110123,1.2643053531646729,-0.0014990541385486722,0.018433788791298866
323.0,571.0,-3.3422,-1.5338,8.9964,-0.0252,0.0241,-0.1139,-2.2847639522948207,0.0,4.759165287017822,-1.349702000617981,0.0013788436772301793,1.9464269876480103,5.511807489186086,-0.00029807459213770926,0.22555580735206604,-1.6387751738177698,0.0,-0.009106343612074852,-0.1034935156451624,0.00044047238770872355,0.017961014062166214,1.2643053531646729,-0.000874377554282546,0.03437609225511551
323.0,571.0,-3.3422,-1.5338,8.9964,-0.0252,0.0241,-0.1139,-2.2847959003844203,0.0,4.706425189971924,-1.34967839717865,0.0012066045310348272,1.956456184387207,5.511787104397573,-0.0002926530141849071,0.21872486174106598,-1.638742748891012,0.0,-0.006493984721601009,-0.10340863863100225,0.0004722842131741345,0.021122047677636147,1.2643013000488281,-0.0005521123530343175,-0.04858832806348801
323.0,571.0,-3.3422,-1.5338,8.9964,-0.0252,0.0241,-0.1139,-2.284759660760397,0.0,4.738763809204102,-1.3496904373168945,0.0010536323534324765,2.015522003173828,5.511755275517263,-0.00029358017491176724,0.2229842096567154,-1.6387794653521937,0.0,0.00066330935806036,-0.10344487825502569,0.0006198138580657542,0.01652725785970688,1.2642972469329834,-0.00040350647759623826,-0.026896124705672264
323.0,571.0,-3.3422,-1.5338,8.9964,-0.0252,0.0241,-0.1139,-2.2847353420653285,0.0,4.772482395172119,-1.3497109413146973,0.00098835164681077,1.9968481063842773,5.511755335121908,-0.0003088683297391981,0.2155928909778595,-1.6387384573565882,0.0,-0.0017267136136069894,-0.1034172216998499,0.0005426094867289066,0.033460937440395355,1.264281153678894,-0.0003179504710715264,-0.01569552533328533
323.0,571.0,-3.3422,-1.5338,8.9964,-0.0252,0.0241,-0.1139,-2.284727235833639,0.0,4.783082485198975,-1.349670171737671,0.0009190503624267876,1.9583275318145752,5.511794972210684,-0.0008225480560213327,0.21052247285842896,-1.6387670675860804,0.0,-0.003194150049239397,-0.1034615675555628,0.000549536373000592,0.030122753232717514,1.2642972469329834,-0.0002120291319442913,0.0343269407749176
323.0,571.0,-3.3422,-1.5338,8.9964,-0.0252,0.0241,-0.1139,-2.284727235833639,0.0,4.77742338180542,-1.3497427701950073,0.0010037992615252733,1.9997327327728271,5.511710989266195,-0.0011119048576802015,0.20963984727859497,-1.638758961354391,0.0,-0.008925745263695717,-0.10343772569765264,0.0006038185092620552,0.018976714462041855,1.2643132209777832,-0.00013418494199868292,0.013588978908956051
323.0,571.0,-3.3422,-1.5338,8.9964,-0.0252,0.0241,-0.1139,-2.284815927545065,0.0,4.71921443939209,-1.3496581315994263,0.0013900741469115019,2.056730031967163,5.511703479080953,-0.001237842720001936,0.22080355882644653,-1.6388033072101038,0.0,0.002059678314253688,-0.1034014860736292,0.0007299704011529684,0.019143633544445038,1.2643495798110962,-0.00011660886957542971,-0.00036206573713570833
325.0,571.0,-3.5246,-1.6911,8.9785,-0.0458,0.0339,-0.1222,-2.2847758732237757,0.0,4.724882125854492,-1.3496544361114502,0.0016657586675137281,2.030367851257324,5.511723267823019,-0.001182017382234335,0.21060967445373535,-1.638787094746725,0.0,-0.0002799410140141845,-0.1033852736102503,0.0006935163983143866,0.03453116491436958,1.264309048652649,0.00011663829354802147,0.0244002565741539
325.0,571.0,-3.5246,-1.6911,8.9785,-0.0458,0.0339,-0.1222,-2.2847639522948207,0.0,4.744809627532959,-1.34967041015625,0.0017756482120603323,2.0241711139678955,5.5116909621055505,-0.001368440338410437,0.20389264822006226,-1.6387832800494593,0.0,0.0026319031603634357,-0.10336476961244756,0.0007663114229217172,0.03448403626680374,1.264320969581604,0.00017824681708589196,0.06574796885251999
325.0,571.0,-3.5246,-1.6911,8.9785,-0.0458,0.0339,-0.1222,-2.284755369225973,0.0,4.706230640411377,-1.3496346473693848,0.0019560111686587334,2.030388832092285,5.5117273209388635,-0.0021685303654521704,0.20674395561218262,-1.638742748891012,0.0,-0.0033170259557664394,-0.1034014860736292,0.0007749036303721368,0.03799629211425781,1.264329195022583,0.0007358557777479291,0.09948700666427612
325.0,571.0,-3.5246,-1.6911,8.9785,-0.0458,0.0339,-0.1222,-2.284767290154928,0.0,4.745161056518555,-1.3496108055114746,0.0022581827361136675,2.0482771396636963,5.511642980366506,-0.004769482184201479,0.20424717664718628,-1.6387832800494593,0.0,-0.004909099079668522,-0.10338145891298467,0.0010270783677697182,0.03341887891292572,1.2643771171569824,0.0006966132787056267,0.09303222596645355
325.0,571.0,-3.5246,-1.6911,8.9785,-0.0458,0.0339,-0.1222,-2.2847677669920863,0.0,4.765727996826172,-1.3496108055114746,0.002924018306657672,2.033177614212036,5.511635172158041,-0.010260251350700855,0.19293636083602905,-1.6388233343707483,0.0,-0.01279495470225811,-0.1034014860736292,0.001848716870881617,0.05516792833805084,1.2643532752990723,0.0006520738825201988,0.058581963181495667
325.0,571.0,-3.5246,-1.6911,8.9785,-0.0458,0.0339,-0.1222,-2.2847353420653285,0.0,4.76898193359375,-1.3496074676513672,0.0039208983071148396,2.0623550415039062,5.511546957283773,-0.0128317940980196,0.19386020302772522,-1.6387713591205042,0.0,-0.010866506956517696,-0.10326511064638311,0.00366069539450109,0.0338883101940155,1.2643934488296509,0.000561200431548059,0.045592300593853
325.0,571.0,-3.5246,-1.6911,8.9785,-0.0458,0.0339,-0.1222,-2.2847472629942835,0.0,4.774964809417725,-1.349578857421875,0.004882474429905415,2.095576286315918,5.511491048126974,-0.007879922166466713,0.19546742737293243,-1.6387832800494593,0.0,-0.0002564266324043274,-0.10326081911195928,0.010980067774653435,0.05416024848818779,1.2643811702728271,0.0004429145192261785,0.043034717440605164
325.0,571.0,-3.5246,-1.6911,8.9785,-0.0458,0.0339,-0.1222,-2.284787794152731,0.0,4.8001532554626465,-1.349498987197876,0.00623584259301424,2.097402334213257,5.5114789483840845,-0.0026550479233264923,0.2005481719970703,-1.63879901567568,0.0,-0.005308937281370163,-0.10323745409120733,0.011786571703851223,0.05731520056724548,1.2643290758132935,0.0003657570341601968,0.06657250970602036
325.0,571.0,-3.5246,-1.6911,8.9785,-0.0458,0.0339,-0.1222,-2.284727235833639,0.0,4.732169151306152,-1.3494672775268555,0.007152150385081768,2.1108784675598145,5.511423456459799,-0.00024396221851930022,0.18708908557891846,-1.638742748891012,0.0,-0.018154999241232872,-0.10318166414369756,0.004994621500372887,0.05709177628159523,1.2643771171569824,0.00035599537659436464,0.0695841982960701
325.0,571.0,-3.5246,-1.6911,8.9785,-0.0458,0.0339,-0.1222,-2.2847796879210414,0.0,4.797041893005371,-1.3494155406951904,0.007920590229332447,2.0767035484313965,5.511495160847463,-0.00022247032029554248,0.18963578343391418,-1.6387508551227015,0.0,-0.00320565328001976,-0.10320550600160772,0.0009913236135616899,0.042952608317136765,1.2643651962280273,0.0002760671195574105,0.04038105905056
325.0,571.0,-3.5246,-1.6911,8.9785,-0.0458,0.0339,-0.1222,-2.284767290154928,0.0,4.742171287536621,-1.3493589162826538,0.008976112119853497,2.083646297454834,5.511471020966329,-0.00016455793229397386,0.19642049074172974,-1.6388028303729456,0.0,-0.006626917980611324,-0.103217903767721,0.000534309889189899,0.054523661732673645,1.2644097805023193,0.00022031166008673608,0.0759992003440857
325.0,571.0,-3.5246,-1.6911,8.9785,-0.0458,0.0339,-0.1222,-2.28477205852651,0.0,4.742504119873047,-1.3493518829345703,0.008787469007074833,2.0541634559631348,5.511439251690664,-0.00019304845773149282,0.18580244481563568,-1.638758961354391,0.0,-0.003115633735433221,-0.10327035585512334,0.0003694149781949818,0.057541489601135254,1.2643771171569824,0.00019209519086871296,0.09431613236665726
325.0,571.0,-3.5246,-1.6911,8.9785,-0.0458,0.0339,-0.1222,-2.284779211083883,0.0,4.75794792175293,-1.3492802381515503,0.008645763620734215,2.128706455230713,5.511475014477529,-0.00015355602954514325,0.17300260066986084,-1.6387832800494593,0.0,-0.0044820886105299,-0.10317784944643194,0.00028238145750947297,0.049370501190423965,1.2643729448318481,0.00017028662841767073,0.06260738521814346
325.0,571.0,-3.5246,-1.6911,8.9785,-0.0458,0.0339,-0.1222,-2.284832616845602,-9.308206472269376e-08,4.753191947937012,-1.3492558002471924,0.00819209311157465,2.0982658863067627,5.511439311295309,-0.00027145040803588927,0.17538711428642273,-1.6387551466571253,0.0,-0.004462872166186571,-0.1031578222857874,0.00024406448937952518,0.052794672548770905,1.2643729448318481,0.0001583051634952426,0.095497265458107
325.0,571.0,-3.5246,-1.6911,8.9785,-0.0458,0.0339,-0.1222,-2.284722944299215,-2.2478225606813867e-13,4.708839416503906,-1.3492047786712646,0.008319531567394733,2.0874745845794678,5.51143096664504,-0.0025734547525644302,0.18978317081928253,-1.6387670675860804,0.0,-0.005180042702704668,-0.10319406190981084,9.308428707299754e-05,0.055004481226205826,1.2643409967422485,0.00011455961066531017,0.07735127210617065
325.0,571.0,-3.5246,-1.6911,8.9785,-0.0458,0.0339,-0.1222,-2.284722944299215,-5.428226979296282e-19,4.733761310577393,-1.349116325378418,0.009130066260695457,2.1122379302978516,5.511310207634725,-0.005062870681285858,0.19076082110404968,-1.6387789885150355,0.0,-0.007854379713535309,-0.10317784944643194,4.5561322622234e-05,0.06335180252790451,1.2643811702728271,7.855230796849355e-05,0.11188073456287384
309.0,523.0,-3.5169,-1.998,9.143,-0.0609,0.0444,-0.1251,-2.284755369225973,-1.3108529272189236e-24,4.727915287017822,-1.3490484952926636,0.009301215410232544,2.082310438156128,5.511327016144552,-0.006732416804879904,0.17833784222602844,-1.6387670675860804,0.0,-0.008345539681613445,-0.1031258741961878,3.954444400733337e-05,0.04571762681007385,1.2644134759902954,-6.991908594500273e-05,0.05191165953874588
309.0,523.0,-3.5169,-1.998,9.143,-0.0609,0.0444,-0.1251,-2.2847396335997523,-3.165555881566657e-30,4.756173133850098,-1.3490934371948242,0.010645673610270023,2.0684621334075928,5.5112671730811975,-0.007887866348028183,0.16846954822540283,-1.638714615498678,-4.25710495619569e-05,-0.014503720216453075,-0.10316640535463506,6.97146388120018e-05,0.05476381629705429,1.2643729448318481,-7.749353244435042e-05,0.057704247534275055
309.0,523.0,-3.5169,-1.998,9.143,-0.0609,0.0444,-0.1251,-2.2847916088499964,-7.644445532305915e-36,4.72970724105835,-1.3489575386047363,0.012797771021723747,2.0859599113464355,5.511271106987753,-0.00782469566911459,0.15719999372959137,-1.6387184301959437,-4.0891118260333315e-05,-0.022434238344430923,-0.10314971605409795,9.279961523134261e-05,0.055051855742931366,1.2643775939941406,-0.00010294296953361481,0.10946424305438995
309.0,523.0,-3.5169,-1.998,9.143,-0.0609,0.0444,-0.1251,-2.284743448297018,-1.846070596901514e-41,4.714280128479004,-1.3488855361938477,0.015034970827400684,2.1010560989379883,5.5111750839050195,-0.008359435014426708,0.16480019688606262,-1.6387627760516565,-3.911401654477231e-05,-0.017731783911585808,-0.1031416098224085,0.0002799193898681551,0.06893479824066162,1.2642929553985596,-0.00011954074579989538,0.08973917365074158
309.0,523.0,-3.5169,-1.998,9.143,-0.0609,0.0444,-0.1251,-2.2847677669920863,-0.0,4.714082717895508,-1.3487191200256348,0.018593689426779747,2.1022145748138428,5.5110986707504175,-0.007220594212412834,0.16100816428661346,-1.6387632528888147,-3.748493691091426e-05,-0.025990521535277367,-0.10317832628359014,0.00037847983185201883,0.05946016684174538,1.2643332481384277,-0.00011170382640557364,0.060333672910928726
309.0,523.0,-3.5169,-1.998,9.143,-0.0609,0.0444,-0.1251,-2.2847796879210414,0.0,4.770731449127197,-1.3486688137054443,0.022456467151641846,2.105623722076416,5.5111029026801965,-0.00748030049726367,0.15550535917282104,-1.6387303511248987,6.22012885287404e-05,-0.01641765609383583,-0.10319453874696904,0.0007197632803581655,0.06414373964071274,1.264329195022583,-0.0001281251315958798,0.044606804847717285
309.0,523.0,-3.5169,-1.998,9.143,-0.0609,0.0444,-0.1251,-2.2847639522948207,0.0,4.747589588165283,-1.3484879732131958,0.026502300053834915,2.1473357677459717,5.5110952136810205,-0.00785497110337019,0.15835018455982208,-1.638726536427633,5.2142131607979536e-05,-0.016409771516919136,-0.10314971605409795,0.0007109212456271052,0.07986375689506531,1.2643373012542725,-0.00033716915640980005,0.09062081575393677
309.0,523.0,-3.5169,-1.998,9.143,-0.0609,0.0444,-0.1251,-2.2848040066161097,0.0,4.692513942718506,-1.348323941230774,0.03057881072163582,2.1487505435943604,5.511066782265463,-0.006782109383493662,0.15523892641067505,-1.6387627760516565,4.441908095031977e-05,-0.02151593193411827,-0.1031578222857874,0.0007220835541374981,0.06813012808561325,1.2643053531646729,-0.0010255571687594056,0.09989667683839798
309.0,523.0,-3.5169,-1.998,9.143,-0.0609,0.0444,-0.1251,-2.2847758732237757,0.0,4.754332065582275,-1.3481601476669312,0.034587159752845764,2.121096134185791,5.510967063694753,-0.006949172355234623,0.15529900789260864,-1.638730827962057,3.868910425808281e-05,-0.02084708958864212,-0.10313398042787725,0.0006812435458414257,0.05872919410467148,1.2643332481384277,-0.001301995594985783,0.06757102161645889
309.0,523.0,-3.5169,-1.998,9.143,-0.0609,0.0444,-0.1251,-2.284787794152731,0.0,4.729336738586426,-1.3479232788085938,0.03942378982901573,2.1766412258148193,5.51091085651473,-0.008016987703740597,0.15741102397441864,-1.6387551466571253,3.42688181262929e-05,-0.02991609461605549,-0.10310537019838506,0.0005378613714128733,0.07438048720359802,1.2642242908477783,-0.0013990451116114855,0.11487728357315063
309.0,523.0,-3.5169,-1.998,9.143,-0.0609,0.0444,-0.1251,-2.284812112847799,0.0,4.743015289306641,-1.3477181196212769,0.04183051735162735,2.207881450653076,5.510870921402731,-0.009594480507075787,0.15527057647705078,-1.6387384573565882,3.1843414035392925e-05,-0.033359725028276443,-0.10311395326723272,0.000451157393399626,0.07679969072341919,1.2642812728881836,-0.0015421173302456737,0.07174872606992722
309.0,523.0,-3.5169,-1.998,9.143,-0.0609,0.0444,-0.1251,-2.284727235833639,0.0,4.7693071365356445,-1.3474819660186768,0.04530542716383934,2.1941933631896973,5.510790991574087,-0.014043614268302917,0.14525416493415833,-1.6387994925128382,2.8787466362700798e-05,-0.042092032730579376,-0.10310584703554326,0.00041130182216875255,0.07491792738437653,1.264305830001831,-0.001579166972078383,0.07549992203712463
