ramyac6/ROB537/final_project/csv/bad/bad_151.csv
tof_0,tof_1,accelx,accely,accelz,gyrox,gyroy,gyroz,shoulder_lift_joint_position,shoulder_lift_joint_velocity,shoulder_lift_joint_effort,elbow_joint_position,elbow_joint_velocity,elbow_joint_effort,wrist_1_joint_position,wrist_1_joint_velocity,wrist_1_joint_effort,wrist_2_joint_position,wrist_2_joint_velocity,wrist_2_joint_effort,wrist_3_joint_position,wrist_3_joint_velocity,wrist_3_joint_effort,shoulder_pan_joint_position,shoulder_pan_joint_velocity,shoulder_pan_joint_effort
371.0,341.0,-1.3346,0.283,9.4074,-0.0307,0.0244,-0.1179,-1.7337876758971156,0.0,2.655351161956787,-1.906296968460083,-0.0,1.9739004373550415,5.228607582836904,0.0,0.275763601064682,-1.5971415678607386,0.0,-0.006369294598698616,0.7882951498031616,0.0,0.014498657546937466,0.8456096053123474,0.0,0.01140197180211544
371.0,341.0,-1.3346,0.283,9.4074,-0.0307,0.0244,-0.1179,-1.7337953052916468,0.0,2.608665943145752,-1.906305193901062,-0.0,1.9767343997955322,5.22857557514266,0.0,0.2698032855987549,-1.5971220175372522,0.0,-0.005328877829015255,0.788267195224762,0.0,0.010484416969120502,0.8456299304962158,0.0,-0.005424772389233112
371.0,341.0,-1.3346,0.283,9.4074,-0.0307,0.0244,-0.1179,-1.733739515344137,0.0,2.6368274688720703,-1.906288743019104,-0.0,1.941530466079712,5.22857545593337,0.0,0.2809668481349945,-1.5971382300006312,0.0,-0.007591108791530132,0.7882992029190063,0.0,-0.007520629558712244,0.8456499576568604,0.0,-0.01689344458281994
371.0,341.0,-1.3346,0.283,9.4074,-0.0307,0.0244,-0.1179,-1.7338038883604945,0.0,2.6224703788757324,-1.9063053131103516,-0.0,1.976967692375183,5.228591668396749,0.0,0.2737753689289093,-1.5971015135394495,0.0,-0.014492368325591087,0.7883033752441406,0.0,0.01467793621122837,0.8456096053123474,0.0,-0.01703193597495556
371.0,341.0,-1.3346,0.283,9.4074,-0.0307,0.0244,-0.1179,-1.7337919674315394,0.0,2.6129417419433594,-1.9062525033950806,-0.0,1.9443860054016113,5.228619444161215,0.0,0.2709430456161499,-1.5971859137164515,0.0,-0.0038416776806116104,0.7883438467979431,0.0,0.0045988596975803375,0.8456096053123474,0.0,-0.03538818284869194
371.0,341.0,-1.3346,0.283,9.4074,-0.0307,0.0244,-0.1179,-1.7337271175780238,0.0,2.6639811992645264,-1.9062772989273071,-0.0,1.9355459213256836,5.22861938455657,0.0,0.2637462019920349,-1.5971577803241175,0.0,-0.020289910957217216,0.788239061832428,0.0,0.007496681995689869,0.8456094264984131,0.0,-0.015263158828020096
371.0,341.0,-1.3346,0.283,9.4074,-0.0307,0.0244,-0.1179,-1.733755727807516,0.0,2.688371181488037,-1.9063775539398193,-0.0,1.96696138381958,5.228591668396749,0.0,0.2557397484779358,-1.5970895926104944,0.0,-0.015009021386504173,0.7883673906326294,0.0,0.006172633729875088,0.8456175327301025,0.0,0.022445999085903168
371.0,341.0,-1.3346,0.283,9.4074,-0.0307,0.0244,-0.1179,-1.7337352238097132,0.0,2.6280627250671387,-1.906288743019104,-0.0,1.904289960861206,5.228631663113394,0.0,0.27406400442123413,-1.597137753163473,0.0,-0.02210049517452717,0.7882832288742065,0.0,0.008975089527666569,0.8456339240074158,0.0,-0.02216695062816143
363.0,346.0,-1.3513,0.2626,9.4846,-0.0371,0.0154,-0.1164,-1.7337714634337367,0.0,2.6781821250915527,-1.906313419342041,-0.0,1.946241855621338,5.228607582836904,0.0,0.2702154517173767,-1.597126309071676,0.0,0.00023342669010162354,0.7882431149482727,0.0,0.0008890058379620314,0.845686137676239,0.0,-0.010046358220279217
363.0,346.0,-1.3513,0.2626,9.4846,-0.0371,0.0154,-0.1164,-1.7337514362730921,0.0,2.631438732147217,-1.9062608480453491,-0.0,1.9558422565460205,5.228567409306326,0.0,0.26351839303970337,-1.5971220175372522,0.0,-0.02350805327296257,0.7883315086364746,0.0,-0.004830523394048214,0.8456177711486816,0.0,-0.01789844036102295
363.0,346.0,-1.3513,0.2626,9.4846,-0.0371,0.0154,-0.1164,-1.733743806878561,0.0,2.6916885375976562,-1.9063329696655273,-0.0,1.9108531475067139,5.228611457138815,0.0,0.2757936120033264,-1.5971501509295862,0.0,0.007097586058080196,0.7883278727531433,0.0,0.006407954730093479,0.8456339836120605,0.0,-0.016195952892303467
363.0,346.0,-1.3513,0.2626,9.4846,-0.0371,0.0154,-0.1164,-1.7337471447386683,0.0,2.63079833984375,-1.9062929153442383,-0.0,1.9320290088653564,5.228555488377371,0.0,0.26398736238479614,-1.5971577803241175,0.0,-0.0053694238886237144,0.7883478999137878,0.0,0.007005827501416206,0.8455936312675476,0.0,-3.377348184585571e-05
363.0,346.0,-1.3513,0.2626,9.4846,-0.0371,0.0154,-0.1164,-1.733739515344137,0.0,2.6497411727905273,-1.9063053131103516,-0.0,1.9563663005828857,5.228579687863149,0.0,0.2817361652851105,-1.5971177260028284,0.0,-0.0001751151867210865,0.7882914543151855,0.0,0.0059028612449765205,0.845629870891571,0.0,0.008494438603520393
363.0,346.0,-1.3513,0.2626,9.4846,-0.0371,0.0154,-0.1164,-1.7337109051146449,0.0,2.6731584072113037,-1.906313419342041,-0.0,1.9518600702285767,5.228591668396749,0.0,0.2814510464668274,-1.5971420446978968,0.0,-0.005568027496337891,0.7882832288742065,0.0,-0.0004221810959279537,0.8456013798713684,0.0,-0.04395972192287445
363.0,346.0,-1.3513,0.2626,9.4846,-0.0371,0.0154,-0.1164,-1.7337190113463343,0.0,2.6572439670562744,-1.9063174724578857,-0.0,1.9952757358551025,5.22864721992568,0.0,0.2686711251735687,-1.5971015135394495,0.0,-0.011016139760613441,0.7883238196372986,0.0,0.006810254417359829,0.8456580638885498,0.0,0.027115575969219208
363.0,346.0,-1.3513,0.2626,9.4846,-0.0371,0.0154,-0.1164,-1.7338038883604945,0.0,2.679755687713623,-1.9062803983688354,-0.0,1.9417476654052734,5.228571402817526,0.0,0.2679152488708496,-1.5971739927874964,0.0,0.005849173292517662,0.78831946849823,0.0,-0.003278707852587104,0.8456017971038818,0.0,-0.021768227219581604
363.0,346.0,-1.3513,0.2626,9.4846,-0.0371,0.0154,-0.1164,-1.7337190113463343,0.0,2.6563596725463867,-1.9063208103179932,-0.0,1.9680571556091309,5.228591668396749,0.0,0.26677319407463074,-1.5971220175372522,0.0,0.01024104654788971,0.7883155345916748,0.0,-0.0038506886921823025,0.8456375002861023,0.0,-0.009662139229476452
363.0,346.0,-1.3513,0.2626,9.4846,-0.0371,0.0154,-0.1164,-1.7337471447386683,0.0,2.606440305709839,-1.9063485860824585,-0.0,1.9389914274215698,5.2285717008407495,0.0,0.27066901326179504,-1.5971339384662073,0.0,-0.01131112314760685,0.7883439064025879,0.0,-0.009522507898509502,0.8455895185470581,0.0,-0.022645745426416397
363.0,346.0,-1.3513,0.2626,9.4846,-0.0371,0.0154,-0.1164,-1.7337833843626917,0.0,2.6920740604400635,-1.9063092470169067,-0.0,1.9390188455581665,5.2285876152809045,0.0,0.26374855637550354,-1.5971501509295862,0.0,-0.007082189898937941,0.7882951498031616,0.0,0.0025355208199471235,0.8455853462219238,0.0,0.009760847315192223
363.0,346.0,-1.3513,0.2626,9.4846,-0.0371,0.0154,-0.1164,-1.7337433300414027,0.0,2.691305160522461,-1.9063208103179932,-0.0,1.9375338554382324,5.228563415795126,0.0,0.26875483989715576,-1.5971701780902308,0.0,-0.015554238110780716,0.7882791757583618,0.0,0.002239156048744917,0.8456380367279053,0.0,-0.02435487136244774
363.0,346.0,-1.3513,0.2626,9.4846,-0.0371,0.0154,-0.1164,-1.7337471447386683,0.0,2.661633014678955,-1.906305193901062,-0.0,1.937016487121582,5.228623497277059,0.0,0.2808178663253784,-1.5971420446978968,0.0,0.0015221997164189816,0.7883391976356506,0.0,-0.019056765362620354,0.845629870891571,0.0,0.03171372041106224
363.0,346.0,-1.3513,0.2626,9.4846,-0.0371,0.0154,-0.1164,-1.733755727807516,0.0,2.649641990661621,-1.906356930732727,-0.0,1.9766041040420532,5.22861938455657,0.0,0.2707664966583252,-1.5971501509295862,0.0,-0.005240066908299923,0.7882832288742065,0.0,0.0036481558345258236,0.8456217050552368,0.0,0.020225413143634796
363.0,346.0,-1.3513,0.2626,9.4846,-0.0371,0.0154,-0.1164,-1.7337190113463343,0.0,2.612281084060669,-1.9063011407852173,-0.0,1.957066535949707,5.228607582836904,0.0,0.27445822954177856,-1.5971339384662073,0.0,-0.01694761961698532,0.7883074283599854,0.0,0.001863864017650485,0.8456580638885498,0.0,-0.027419473975896835
375.0,340.0,-1.3442,0.2662,9.8399,-0.0425,0.0189,-0.1119,-1.7337433300414027,0.0,2.6501049995422363,-1.9063093662261963,-0.0,1.9166330099105835,5.228607582836904,0.0,0.26711148023605347,-1.597137753163473,0.0,-0.005785119254142046,0.7883315682411194,0.0,-0.005355415400117636,0.845629870891571,0.0,-0.012744752690196037
375.0,340.0,-1.3442,0.2662,9.8399,-0.0425,0.0189,-0.1119,-1.7337271175780238,0.0,2.6875674724578857,-1.906296968460083,-0.0,1.9598827362060547,5.228583621769705,0.0,0.26408857107162476,-1.5971701780902308,0.0,-0.014038950204849243,0.7882831692695618,0.0,0.00043205590918660164,0.8456257581710815,0.0,7.828464731574059e-05
375.0,340.0,-1.3442,0.2662,9.8399,-0.0425,0.0189,-0.1119,-1.733767648736471,0.0,2.5995638370513916,-1.9063011407852173,-0.0,1.949863314628601,5.228619444161215,0.0,0.2814200222492218,-1.5971177260028284,0.0,-0.004947754088789225,0.7883155345916748,0.0,-0.007209192030131817,0.8456257581710815,0.0,-0.0088487034663558
375.0,340.0,-1.3442,0.2662,9.8399,-0.0425,0.0189,-0.1119,-1.7337471447386683,0.0,2.645561695098877,-1.9063528776168823,-0.0,1.9592140913009644,5.228555488377371,0.0,0.27380335330963135,-1.5971415678607386,0.0,-0.013123415410518646,0.7883033752441406,0.0,0.012716281227767467,0.8456175327301025,0.0,-0.02659389190375805
375.0,340.0,-1.3442,0.2662,9.8399,-0.0425,0.0189,-0.1119,-1.7337595425047816,0.0,2.667781352996826,-1.9063208103179932,-0.0,1.9777188301086426,5.228611457138815,0.0,0.27301400899887085,-1.5971382300006312,0.0,-0.01311015710234642,0.7883115410804749,0.0,0.0032992842607200146,0.8456417322158813,0.0,0.012001322582364082
375.0,340.0,-1.3442,0.2662,9.8399,-0.0425,0.0189,-0.1119,-1.7337995968260707,0.0,2.6900601387023926,-1.906313419342041,-0.0,1.943202257156372,5.228635597019949,0.0,0.27214697003364563,-1.5971420446978968,0.0,-0.006170857697725296,0.7882874011993408,0.0,-0.004181226249784231,0.8456339240074158,0.0,-0.006687472574412823
375.0,340.0,-1.3442,0.2662,9.8399,-0.0425,0.0189,-0.1119,-1.7337147198119105,0.0,2.6359455585479736,-1.9062649011611938,-0.0,1.9522740840911865,5.228583621769705,0.0,0.2772926688194275,-1.5971582571612757,0.0,-0.004864820744842291,0.788239061832428,0.0,-0.0067143067717552185,0.8456257581710815,0.0,-0.011664260178804398
375.0,340.0,-1.3442,0.2662,9.8399,-0.0425,0.0189,-0.1119,-1.7337471447386683,0.0,2.6659207344055176,-1.9063166379928589,-0.0,1.9552292823791504,5.22860352972106,0.0,0.2713678479194641,-1.5971339384662073,0.0,-0.01679718866944313,0.7883155345916748,0.0,0.008740910328924656,0.8456177711486816,0.0,-0.01963856816291809
375.0,340.0,-1.3442,0.2662,9.8399,-0.0425,0.0189,-0.1119,-1.7338158092894496,0.0,2.605653762817383,-1.9063411951065063,-0.0,1.973695993423462,5.22859953620986,0.0,0.25945666432380676,-1.5971382300006312,0.0,-0.01325945183634758,0.7882951498031616,0.0,0.008428354747593403,0.8455977439880371,0.0,-0.007642642594873905
375.0,340.0,-1.3442,0.2662,9.8399,-0.0425,0.0189,-0.1119,-1.7337352238097132,0.0,2.6345324516296387,-1.9063289165496826,-0.0,1.9310131072998047,5.228623497277059,0.0,0.2704428434371948,-1.5971053282367151,0.0,-0.01921571046113968,0.7883033752441406,0.0,0.0009378036484122276,0.8456662893295288,0.0,-0.03189065679907799
375.0,340.0,-1.3442,0.2662,9.8399,-0.0425,0.0189,-0.1119,-1.7337271175780238,0.0,2.6322805881500244,-1.906324863433838,-0.0,1.949533224105835,5.2286356566245935,0.0,0.2796402871608734,-1.5971983114825647,0.0,-0.01512869168072939,0.7882754802703857,0.0,0.007641568314284086,0.8456017971038818,0.0,-0.03887411579489708
375.0,340.0,-1.3442,0.2662,9.8399,-0.0425,0.0189,-0.1119,-1.733767648736471,0.0,2.627906322479248,-1.9062525033950806,-0.0,1.956646203994751,5.2285876152809045,0.0,0.27365854382514954,-1.5971296469317835,0.0,-0.014279322698712349,0.7883074879646301,0.0,0.004661269020289183,0.8456055521965027,0.0,0.01909290999174118
375.0,340.0,-1.3442,0.2662,9.8399,-0.0425,0.0189,-0.1119,-1.733739515344137,0.0,2.6272120475769043,-1.906313419342041,-0.0,1.9481439590454102,5.2286356566245935,0.0,0.2793792188167572,-1.5971382300006312,0.0,-0.0013361767632886767,0.788239061832428,0.0,-0.001425770577043295,0.8456417322158813,0.0,0.0017197895795106888
375.0,340.0,-1.3442,0.2662,9.8399,-0.0425,0.0189,-0.1119,-1.733767648736471,0.0,2.6414027214050293,-1.9063608646392822,-0.0,1.9300401210784912,5.22860352972106,0.0,0.26933804154396057,-1.597109619771139,0.0,-0.005888639949262142,0.7882914543151855,0.0,0.0069287801161408424,0.8456096053123474,0.0,-0.024971766397356987
375.0,340.0,-1.3442,0.2662,9.8399,-0.0425,0.0189,-0.1119,-1.7337514362730921,0.0,2.6525750160217285,-1.9062845706939697,-0.0,1.9754630327224731,5.22857545593337,0.0,0.2721571922302246,-1.5971534887896937,0.0,-0.008492816239595413,0.7883309721946716,0.0,-0.005859374068677425,0.8456458449363708,0.0,0.021036742255091667
363.0,343.0,-1.4716,0.2716,9.4684,-0.0382,0.022,-0.1168,-1.7337352238097132,0.0,2.6263599395751953,-1.9062649011611938,-0.0,1.95966374874115,5.228559541493215,0.0,0.2682821452617645,-1.5971177260028284,0.0,-0.005994140170514584,0.7883278727531433,0.0,-0.0007144203409552574,0.845613420009613,0.0,0.033994320780038834
363.0,343.0,-1.4716,0.2716,9.4684,-0.0382,0.022,-0.1168,-1.733755727807516,0.0,2.610337257385254,-1.9063053131103516,-0.0,1.9463757276535034,5.228575515538015,0.0,0.27715063095092773,-1.5971458593951624,0.0,-0.003434386570006609,0.7883235216140747,0.0,-0.004078259691596031,0.8456175327301025,0.0,-0.00909555982798338
363.0,343.0,-1.4716,0.2716,9.4684,-0.0382,0.022,-0.1168,-1.7337271175780238,0.0,2.5996146202087402,-1.906324863433838,-0.0,1.9588565826416016,5.228567409306326,0.0,0.2718297839164734,-1.5971501509295862,0.0,-0.01576620154082775,0.7882914543151855,0.0,0.006504483055323362,0.8456540107727051,0.0,-0.010772403329610825
363.0,343.0,-1.4716,0.2716,9.4684,-0.0382,0.022,-0.1168,-1.7338038883604945,0.0,2.632516384124756,-1.9063329696655273,-0.0,1.959008812904358,5.228567409306326,0.0,0.26419365406036377,-1.5971177260028284,0.0,-0.00776019599288702,0.7882791757583618,0.0,-0.004968923516571522,0.8455895781517029,0.0,-0.04838142544031143
363.0,343.0,-1.4716,0.2716,9.4684,-0.0382,0.022,-0.1168,-1.733739515344137,0.0,2.652834892272949,-1.9062803983688354,-0.0,1.959749698638916,5.2286356566245935,0.0,0.2839747369289398,-1.597165886555807,0.0,-0.012895612046122551,0.7883356809616089,0.0,-0.0063743251375854015,0.8456257581710815,0.0,-0.0046006194315850735
363.0,343.0,-1.4716,0.2716,9.4684,-0.0382,0.022,-0.1168,-1.7336985073485316,0.0,2.5979042053222656,-1.906324863433838,-0.0,1.945896863937378,5.228595661907949,0.0,0.27267640829086304,-1.5971501509295862,0.0,-0.00863396842032671,0.7883114814758301,0.0,-0.002667787251994014,0.8456581830978394,0.0,-0.020666752010583878
363.0,343.0,-1.4716,0.2716,9.4684,-0.0382,0.022,-0.1168,-1.7337070904173792,0.0,2.627620220184326,-1.9062844514846802,-0.0,1.9676388502120972,5.22857944944457,0.0,0.2800457179546356,-1.5971177260028284,0.0,0.00032288304646499455,0.7883278131484985,0.0,-0.004473445005714893,0.8456257581710815,0.0,-0.033675678074359894
363.0,343.0,-1.4716,0.2716,9.4684,-0.0382,0.022,-0.1168,-1.7337228260436,0.0,2.6710469722747803,-1.9062763452529907,-0.0,1.9768030643463135,5.228563415795126,0.0,0.2685299217700958,-1.5971258322345179,0.0,-0.018300529569387436,0.7883397340774536,0.0,0.0023645786568522453,0.8456217646598816,0.0,-0.005570864304900169
363.0,343.0,-1.4716,0.2716,9.4684,-0.0382,0.022,-0.1168,-1.7337833843626917,0.0,2.6534523963928223,-1.9063568115234375,-0.0,1.9688708782196045,5.228591668396749,0.0,0.2687590718269348,-1.597165886555807,0.0,-7.259706035256386e-05,0.7883151769638062,0.0,-0.006745706312358379,0.8456417322158813,0.0,-0.00693682162091136
363.0,343.0,-1.4716,0.2716,9.4684,-0.0382,0.022,-0.1168,-1.7337514362730921,0.0,2.673767566680908,-1.906313419342041,-0.0,1.9997895956039429,5.22860352972106,0.0,0.2665378749370575,-1.5971577803241175,0.0,-0.004919296596199274,0.7882911562919617,0.0,0.009119641967117786,0.8455854058265686,0.0,-0.02265612781047821
363.0,343.0,-1.4716,0.2716,9.4684,-0.0382,0.022,-0.1168,-1.7337471447386683,0.0,2.6484837532043457,-1.9063609838485718,-0.0,1.964659333229065,5.228583621769705,0.0,0.26568126678466797,-1.5971458593951624,0.0,-0.0048530870117247105,0.7883356809616089,0.0,-0.0016246021259576082,0.8456417322158813,0.0,0.00621383311226964
363.0,343.0,-1.4716,0.2716,9.4684,-0.0382,0.022,-0.1168,-1.7338000736632289,0.0,2.641254425048828,-1.9062844514846802,-0.0,1.9871997833251953,5.228579628258505,0.0,0.27881789207458496,-1.5971539656268519,0.0,0.0024419594556093216,0.7883033752441406,0.0,0.010176938027143478,0.8456257581710815,0.0,0.015074750408530235
363.0,343.0,-1.4716,0.2716,9.4684,-0.0382,0.022,-0.1168,-1.7337190113463343,0.0,2.655771493911743,-1.9063403606414795,-0.0,1.9374315738677979,5.228571402817526,0.0,0.275665819644928,-1.5971382300006312,0.0,-0.017642131075263023,0.7883034348487854,0.0,0.001764838583767414,0.8456257581710815,0.0,0.03078794851899147
363.0,343.0,-1.4716,0.2716,9.4684,-0.0382,0.022,-0.1168,-1.7337914905943812,0.0,2.629703998565674,-1.906296968460083,-0.0,1.940223217010498,5.22859554269866,0.0,0.27355310320854187,-1.5971820990191858,0.0,-0.003190570045262575,0.7883155345916748,0.0,0.0008915677899494767,0.8456376791000366,0.0,-0.023868916556239128
363.0,343.0,-1.4716,0.2716,9.4684,-0.0382,0.022,-0.1168,-1.7337752781310023,0.0,2.639340877532959,-1.9062608480453491,-0.0,1.9404702186584473,5.228555488377371,0.0,0.26764044165611267,-1.5971296469317835,0.0,0.0027894913218915462,0.7882713675498962,0.0,-0.001765827531926334,0.8456096053123474,0.0,-0.05227721855044365
360.0,334.0,-1.398,0.2566,9.5515,-0.0312,0.0205,-0.1122,-1.733739515344137,0.0,2.638669013977051,-1.9063208103179932,-0.0,1.9713598489761353,5.2286115167434595,0.0,0.2775675356388092,-1.5971382300006312,0.0,0.0033343140967190266,0.7882750630378723,0.0,-0.005389344412833452,0.8455895781517029,0.0,-0.0013274028897285461
360.0,334.0,-1.398,0.2566,9.5515,-0.0312,0.0205,-0.1122,-1.7337271175780238,0.0,2.6340904235839844,-1.9063290357589722,-0.0,1.9337024688720703,5.228607463627615,0.0,0.26775258779525757,-1.5971258322345179,0.0,-0.006833162624388933,0.7883155345916748,0.0,0.0044545978307724,0.8455734252929688,0.0,0.005494945216923952
360.0,334.0,-1.398,0.2566,9.5515,-0.0312,0.0205,-0.1122,-1.7337876758971156,0.0,2.652501344680786,-1.90632164478302,-0.0,1.965010404586792,5.228579687863149,0.0,0.2682797908782959,-1.5971258322345179,0.0,-0.0016261476557701826,0.7883033752441406,0.0,0.0058022765442729,0.8455895185470581,0.0,0.02758890762925148
360.0,334.0,-1.398,0.2566,9.5515,-0.0312,0.0205,-0.1122,-1.7337633572020472,0.0,2.630021572113037,-1.9063329696655273,-0.0,1.9568402767181396,5.228595721512594,0.0,0.27219444513320923,-1.5971177260028284,0.0,-0.008782321587204933,0.7883554697036743,0.0,3.5010743886232376e-06,0.8455693125724792,0.0,0.03005879744887352
360.0,334.0,-1.398,0.2566,9.5515,-0.0312,0.0205,-0.1122,-1.733755727807516,0.0,2.6665401458740234,-1.906296968460083,-0.0,1.956709861755371,5.22857557514266,0.0,0.28305256366729736,-1.5971420446978968,0.0,-0.0012907447526231408,0.7883114814758301,0.0,0.0008784709498286247,0.8456540107727051,0.0,-0.0031746020540595055
360.0,334.0,-1.398,0.2566,9.5515,-0.0312,0.0205,-0.1122,-1.7337633572020472,0.0,2.661320447921753,-1.9063526391983032,-0.0,1.9583334922790527,5.22859953620986,0.0,0.2614210844039917,-1.5971339384662073,0.0,-0.004407996777445078,0.7883356809616089,0.0,0.002889704192057252,0.8456621766090393,0.0,0.003053058870136738
360.0,334.0,-1.398,0.2566,9.5515,-0.0312,0.0205,-0.1122,-1.7337919674315394,0.0,2.670170783996582,-1.906324863433838,-0.0,1.9928438663482666,5.228643286019125,0.0,0.2659338414669037,-1.5971296469317835,0.0,-0.009827252477407455,0.7882713675498962,0.0,-0.003938212990760803,0.845573365688324,0.0,0.024734530597925186
360.0,334.0,-1.398,0.2566,9.5515,-0.0312,0.0205,-0.1122,-1.7337633572020472,0.0,2.626224994659424,-1.9062803983688354,-0.0,1.9172444343566895,5.228627490788259,0.0,0.2704806923866272,-1.5971258322345179,0.0,-0.014118541963398457,0.7882631421089172,0.0,-0.011010650545358658,0.8455654382705688,0.0,-0.027920126914978027
360.0,334.0,-1.398,0.2566,9.5515,-0.0312,0.0205,-0.1122,-1.7338034115233363,0.0,2.664337635040283,-1.9062771797180176,-0.0,1.9638811349868774,5.22857557514266,0.0,0.27957355976104736,-1.5971501509295862,0.0,0.00011254986748099327,0.7882751226425171,0.0,0.003527162130922079,0.8456335067749023,0.0,-0.018643872812390327
360.0,334.0,-1.398,0.2566,9.5515,-0.0312,0.0205,-0.1122,-1.7337833843626917,0.0,2.659223794937134,-1.9063609838485718,-0.0,1.965813398361206,5.22857557514266,0.0,0.2681760787963867,-1.5971620718585413,0.0,-0.009882238693535328,0.7883197069168091,0.0,0.011850954964756966,0.8456217050552368,0.0,0.025730237364768982
360.0,334.0,-1.398,0.2566,9.5515,-0.0312,0.0205,-0.1122,-1.7337752781310023,0.0,2.627622127532959,-1.9062803983688354,-0.0,1.9304351806640625,5.22859953620986,0.0,0.2711612582206726,-1.5971382300006312,0.0,-0.004135458264499903,0.7883471846580505,0.0,0.008216680958867073,0.845666229724884,0.0,0.02486976981163025
360.0,334.0,-1.398,0.2566,9.5515,-0.0312,0.0205,-0.1122,-1.7337433300414027,0.0,2.665771245956421,-1.9063093662261963,-0.0,1.970534086227417,5.228639709740438,0.0,0.26811325550079346,-1.5971220175372522,0.0,-0.001817869022488594,0.7882996201515198,0.0,-0.002508204896003008,0.8456458449363708,0.0,0.004726939834654331
360.0,334.0,-1.398,0.2566,9.5515,-0.0312,0.0205,-0.1122,-1.7337471447386683,0.0,2.615603446960449,-1.906313419342041,-0.0,1.9465928077697754,5.22860352972106,0.0,0.26057466864585876,-1.5971582571612757,0.0,-0.0157504603266716,0.788279116153717,0.0,0.0034213275648653507,0.8456339240074158,0.0,0.05952095612883568
360.0,334.0,-1.398,0.2566,9.5515,-0.0312,0.0205,-0.1122,-1.7337514362730921,0.0,2.634168863296509,-1.9063208103179932,-0.0,1.9176158905029297,5.22857545593337,0.0,0.2816060781478882,-1.5971220175372522,0.0,-0.008797519840300083,0.788279116153717,0.0,-0.0006861815927550197,0.8456096053123474,0.0,0.01062730047851801
360.0,334.0,-1.398,0.2566,9.5515,-0.0312,0.0205,-0.1122,-1.7337633572020472,0.0,2.6581921577453613,-1.9063010215759277,-0.0,1.9371823072433472,5.228619444161215,0.0,0.26256316900253296,-1.5971654097186487,0.0,-0.022270943969488144,0.7882992029190063,0.0,-0.0022422487381845713,0.8456096053123474,0.0,-0.0358985997736454
375.0,347.0,-1.1683,0.3284,9.1669,-0.033,0.0223,-0.1116,-1.733767648736471,0.0,2.6330785751342773,-1.906268835067749,-0.0,1.9660855531692505,5.228623497277059,0.0,0.2706661820411682,-1.5971339384662073,0.0,0.0035358748864382505,0.78831547498703,0.0,-0.002710280939936638,0.8456417322158813,0.0,-0.03269166499376297
375.0,347.0,-1.1683,0.3284,9.1669,-0.033,0.0223,-0.1116,-1.7337352238097132,0.0,2.623049736022949,-1.9063289165496826,-0.0,1.9796106815338135,5.228631663113394,0.0,0.2752847969532013,-1.5971501509295862,0.0,0.00036221626214683056,0.7883513569831848,0.0,-0.0032768906094133854,0.8456175923347473,0.0,0.03416306525468826
375.0,347.0,-1.1683,0.3284,9.1669,-0.033,0.0223,-0.1116,-1.7337228260436,0.0,2.6345114707946777,-1.9062926769256592,-0.0,1.9642221927642822,5.22859554269866,0.0,0.27825337648391724,-1.5971577803241175,0.0,-0.012114400044083595,0.788303792476654,0.0,0.008150987327098846,0.8456376791000366,0.0,0.001662692055106163
375.0,347.0,-1.1683,0.3284,9.1669,-0.033,0.0223,-0.1116,-1.7338034115233363,0.0,2.629028797149658,-1.9062886238098145,-0.0,1.9354908466339111,5.228615450650015,0.0,0.27460977435112,-1.5971382300006312,0.0,-0.00978780072182417,0.7883074879646301,0.0,0.008692451752722263,0.8456257581710815,0.0,-0.021495254710316658
375.0,347.0,-1.1683,0.3284,9.1669,-0.033,0.0223,-0.1116,-1.733767648736471,0.0,2.6167895793914795,-1.90632164478302,-0.0,1.9527289867401123,5.228591668396749,0.0,0.2671950161457062,-1.5971339384662073,0.0,-0.007769698742777109,0.7882795929908752,0.0,-0.0024338664952665567,0.845629870891571,0.0,0.0024314881302416325
375.0,347.0,-1.1683,0.3284,9.1669,-0.033,0.0223,-0.1116,-1.733767648736471,0.0,2.6662254333496094,-1.9062844514846802,-0.0,1.9795926809310913,5.228615450650015,0.0,0.2577919661998749,-1.5971458593951624,0.0,-0.021407701075077057,0.7882874011993408,0.0,-0.003702729707583785,0.8456218838691711,0.0,-0.007513190153986216
375.0,347.0,-1.1683,0.3284,9.1669,-0.033,0.0223,-0.1116,-1.733767648736471,0.0,2.5761990547180176,-1.9062646627426147,-0.0,1.967531442642212,5.228591489582815,0.0,0.2676883339881897,-1.5971820990191858,0.0,0.006411856971681118,0.7882636189460754,0.0,0.003956270404160023,0.8456217050552368,0.0,-5.81108033657074e-05
375.0,347.0,-1.1683,0.3284,9.1669,-0.033,0.0223,-0.1116,-1.73380770305776,0.0,2.672696590423584,-1.9063411951065063,-0.0,1.9076354503631592,5.228627490788259,0.0,0.27203723788261414,-1.5971177260028284,0.0,0.0007749435026198626,0.7883114218711853,0.0,0.00908120907843113,0.8456500172615051,0.0,-0.008085833862423897
375.0,347.0,-1.1683,0.3284,9.1669,-0.033,0.0223,-0.1116,-1.733743806878561,0.0,2.660280227661133,-1.906305193901062,-0.0,1.9636712074279785,5.228615450650015,0.0,0.27033963799476624,-1.5971339384662073,0.0,-0.01813698187470436,0.7883115410804749,0.0,-0.0027042883448302746,0.8456540107727051,0.0,-0.023559972643852234
375.0,347.0,-1.1683,0.3284,9.1669,-0.033,0.0223,-0.1116,-1.7337995968260707,0.0,2.6204729080200195,-1.9062844514846802,-0.0,1.9103294610977173,5.228563415795126,0.0,0.26571711897850037,-1.5971501509295862,0.0,-0.011206558905541897,0.7882992029190063,0.0,-0.009704492054879665,0.8456013798713684,0.0,-0.001699371263384819
375.0,347.0,-1.1683,0.3284,9.1669,-0.033,0.0223,-0.1116,-1.73380770305776,0.0,2.7069146633148193,-1.906296730041504,-0.0,1.9723340272903442,5.22857557514266,0.0,0.2735547721385956,-1.597177807484762,0.0,-0.007694936357438564,0.7882795333862305,0.0,0.002208699006587267,0.8456096053123474,0.0,-0.03933681920170784
375.0,347.0,-1.1683,0.3284,9.1669,-0.033,0.0223,-0.1116,-1.7337876758971156,0.0,2.6304473876953125,-1.9062762260437012,-0.0,1.9284110069274902,5.22860352972106,0.0,0.28439125418663025,-1.5971296469317835,0.0,-0.001783182262443006,0.7883155345916748,0.0,-0.01201529148966074,0.8455977439880371,0.0,-0.0312950573861599
375.0,347.0,-1.1683,0.3284,9.1669,-0.033,0.0223,-0.1116,-1.7337147198119105,0.0,2.640933036804199,-1.906341314315796,-0.0,1.9662322998046875,5.228579628258505,0.0,0.2707974314689636,-1.5971382300006312,0.0,-0.005169212818145752,0.7882795333862305,0.0,-0.0035944031551480293,0.8456417322158813,0.0,0.002194910077378154
375.0,347.0,-1.1683,0.3284,9.1669,-0.033,0.0223,-0.1116,-1.7337147198119105,0.0,2.627964496612549,-1.906305193901062,-0.0,1.9363656044006348,5.228571641236105,0.0,0.2649669647216797,-1.5971501509295862,0.0,-0.005828797817230225,0.7882795333862305,0.0,-0.0028214063495397568,0.8455812931060791,0.0,-0.0036148340441286564
375.0,347.0,-1.1683,0.3284,9.1669,-0.033,0.0223,-0.1116,-1.7337433300414027,0.0,2.698491096496582,-1.9063093662261963,-0.0,1.9635341167449951,5.228595721512594,0.0,0.2741393744945526,-1.5971539656268519,0.0,-0.00486129242926836,0.7882471084594727,0.0,-0.0010329639771953225,0.8456055521965027,0.0,-0.039280109107494354
375.0,350.0,-1.3585,0.2806,9.5276,-0.0409,0.0229,-0.1174,-1.7337190113463343,0.0,2.6304709911346436,-1.9062844514846802,-0.0,1.9898781776428223,5.228583621769705,0.0,0.261505663394928,-1.5971339384662073,0.0,-0.010046654380857944,0.7882835865020752,0.0,0.005573086440563202,0.845629870891571,0.0,0.03862873837351799
375.0,350.0,-1.3585,0.2806,9.5276,-0.0409,0.0229,-0.1174,-1.7337876758971156,0.0,2.5999505519866943,-1.9062803983688354,-0.0,1.936999797821045,5.2285876152809045,0.0,0.27456918358802795,-1.5971701780902308,0.0,-0.012874936684966087,0.788359522819519,0.0,0.0031864247284829617,0.8456137180328369,0.0,0.04313439503312111
375.0,350.0,-1.3585,0.2806,9.5276,-0.0409,0.0229,-0.1174,-1.7337833843626917,0.0,2.6802730560302734,-1.90622878074646,-0.0,1.9624207019805908,5.228615450650015,0.0,0.2612062692642212,-1.5971420446978968,0.0,-0.00871992763131857,0.788267195224762,0.0,-0.004183913581073284,0.8456458449363708,0.0,0.008082197047770023
375.0,350.0,-1.3585,0.2806,9.5276,-0.0409,0.0229,-0.1174,-1.7337228260436,0.0,2.630593776702881,-1.9062607288360596,-0.0,1.9442379474639893,5.22857944944457,0.0,0.2693413197994232,-1.5971501509295862,0.0,0.007026348263025284,0.7883155345916748,0.0,0.006421173922717571,0.8455895185470581,0.0,0.0006169582484290004
375.0,350.0,-1.3585,0.2806,9.5276,-0.0409,0.0229,-0.1174,-1.7337314091124476,0.0,2.651132106781006,-1.9062647819519043,-0.0,1.9697518348693848,5.228591668396749,0.0,0.26747480034828186,-1.5971501509295862,0.0,-0.004535671789199114,0.7882550954818726,0.0,0.011194413527846336,0.845629870891571,0.0,-0.010906458832323551
375.0,350.0,-1.3585,0.2806,9.5276,-0.0409,0.0229,-0.1174,-1.7337514362730921,0.0,2.632228374481201,-1.9063174724578857,-0.0,1.9459607601165771,5.228615450650015,0.0,0.275414377450943,-1.5971978346454065,0.0,-0.0034003285691142082,0.7883438467979431,0.0,-0.0022487835958600044,0.8456580638885498,0.0,0.05943000689148903
375.0,350.0,-1.3585,0.2806,9.5276,-0.0409,0.0229,-0.1174,-1.733767648736471,0.0,2.632495403289795,-1.90632164478302,-0.0,1.944260835647583,5.22859554269866,0.0,0.26569864153862,-1.5971139113055628,0.0,-0.004838740453124046,0.788267195224762,0.0,-0.0094296894967556,0.8456339240074158,0.0,0.023912619799375534
375.0,350.0,-1.3585,0.2806,9.5276,-0.0409,0.0229,-0.1174,-1.7337433300414027,0.0,2.629492998123169,-1.9063010215759277,-0.0,1.9603030681610107,5.228563415795126,0.0,0.2736378312110901,-1.5971620718585413,0.0,-0.004417687654495239,0.7882955074310303,0.0,-0.0018510327208787203,0.8456177711486816,0.0,-0.0174961406737566
375.0,350.0,-1.3585,0.2806,9.5276,-0.0409,0.0229,-0.1174,-1.7337514362730921,0.0,2.664522171020508,-1.906341314315796,-0.0,1.9379682540893555,5.228579628258505,0.0,0.2771207392215729,-1.5971339384662073,0.0,0.005905830767005682,0.7882512807846069,0.0,-0.0016425617504864931,0.8455936312675476,0.0,0.055809617042541504
375.0,350.0,-1.3585,0.2806,9.5276,-0.0409,0.0229,-0.1174,-1.7337714634337367,0.0,2.6400413513183594,-1.9062927961349487,-0.0,1.91978120803833,5.22859554269866,0.0,0.2665221095085144,-1.5971339384662073,0.0,-0.010923327878117561,0.7883431315422058,0.0,0.020061196759343147,0.8456580638885498,0.0,-0.0711023360490799
375.0,350.0,-1.3585,0.2806,9.5276,-0.0409,0.0229,-0.1174,-1.7337833843626917,0.0,2.6768383979797363,-1.906252384185791,-0.0,1.9573423862457275,5.228535580426016,0.0,0.2702600359916687,-1.5971539656268519,0.0,-0.014585593715310097,0.7882832288742065,0.0,0.0037597755435854197,0.8456175923347473,0.0,-0.00781329907476902
375.0,350.0,-1.3585,0.2806,9.5276,-0.0409,0.0229,-0.1174,-1.7337876758971156,0.0,2.657320499420166,-1.90632164478302,-0.0,1.9359233379364014,5.22857557514266,0.0,0.2741019129753113,-1.5971859137164515,0.0,-0.004585840739309788,0.7882594466209412,0.0,0.0001729696523398161,0.8456137180328369,0.0,0.011872389353811741
375.0,350.0,-1.3585,0.2806,9.5276,-0.0409,0.0229,-0.1174,-1.733767648736471,0.0,2.6292061805725098,-1.9063371419906616,-0.0,1.9525465965270996,5.22860352972106,0.0,0.28434398770332336,-1.5971739927874964,0.0,-0.0038168858736753464,0.788331925868988,0.0,0.003408941440284252,0.8456458449363708,0.0,0.037022676318883896
375.0,350.0,-1.3585,0.2806,9.5276,-0.0409,0.0229,-0.1174,-1.7337514362730921,0.0,2.6489992141723633,-1.9063010215759277,-0.0,1.9314639568328857,5.228615450650015,0.0,0.2661290466785431,-1.5971339384662073,0.0,-0.005060916766524315,0.78828364610672,0.0,0.012618050910532475,0.8456257581710815,0.0,-0.025397250428795815
375.0,350.0,-1.3585,0.2806,9.5276,-0.0409,0.0229,-0.1174,-1.7337714634337367,0.0,2.609041213989258,-1.9063093662261963,-0.0,1.926262378692627,5.228547501354971,0.0,0.2668333649635315,-1.597121540700094,0.0,-0.011900794692337513,0.7882832884788513,0.0,0.0011897870572283864,0.8456177711486816,0.0,0.012053361162543297
376.0,338.0,-1.416,0.2219,9.6209,-0.0302,0.0254,-0.1237,-1.7337433300414027,0.0,2.654754638671875,-1.9063175916671753,-0.0,1.9784502983093262,5.2285876152809045,0.0,0.2837045192718506,-1.5971339384662073,0.0,0.004176011774688959,0.7882751226425171,0.0,-0.002952414331957698,0.8456013202667236,0.0,-0.024437500163912773
376.0,338.0,-1.416,0.2219,9.6209,-0.0302,0.0254,-0.1237,-1.733755727807516,0.0,2.617260456085205,-1.906313419342041,-0.0,1.9342639446258545,5.228595661907949,0.0,0.2691294252872467,-1.5971501509295862,0.0,-0.015407034195959568,0.7883278727531433,0.0,-0.001669765217229724,0.8456376791000366,0.0,0.0014259051531553268
376.0,338.0,-1.416,0.2219,9.6209,-0.0302,0.0254,-0.1237,-1.733739515344137,0.0,2.708110809326172,-1.9063297510147095,-0.0,1.9847257137298584,5.22857557514266,0.0,0.2635621428489685,-1.5971701780902308,0.0,-0.00029344228096306324,0.788267195224762,0.0,-0.004906830377876759,0.8456459045410156,0.0,0.012701007537543774
376.0,338.0,-1.416,0.2219,9.6209,-0.0302,0.0254,-0.1237,-1.7337433300414027,0.0,2.666046142578125,-1.906296968460083,-0.0,1.9517261981964111,5.228547501354971,0.0,0.2745376527309418,-1.5971620718585413,0.0,-0.0020235483534634113,0.7882755398750305,0.0,-0.005496615078300238,0.8456339240074158,0.0,0.054854556918144226
376.0,338.0,-1.416,0.2219,9.6209,-0.0302,0.0254,-0.1237,-1.7337190113463343,0.0,2.597139835357666,-1.9063608646392822,-0.0,1.901076316833496,5.228611457138815,0.0,0.27117931842803955,-1.5971296469317835,0.0,0.0092501575127244,0.7883237600326538,0.0,-0.009456949308514595,0.8456217050552368,0.0,-0.00244077667593956
376.0,338.0,-1.416,0.2219,9.6209,-0.0302,0.0254,-0.1237,-1.7337471447386683,0.0,2.6590914726257324,-1.9063093662261963,-0.0,1.923374891281128,5.22857557514266,0.0,0.27273324131965637,-1.5971177260028284,0.0,0.003519719233736396,0.7883196473121643,0.0,0.014483888633549213,0.8456177711486816,0.0,0.00952538289129734
376.0,338.0,-1.416,0.2219,9.6209,-0.0302,0.0254,-0.1237,-1.7337027988829554,0.0,2.660428762435913,-1.9063256978988647,-0.0,1.9423757791519165,5.22859554269866,0.0,0.26348572969436646,-1.5971820990191858,0.0,-0.001196899451315403,0.7883033752441406,0.0,0.016120819374918938,0.845629870891571,0.0,-0.04860047250986099
376.0,338.0,-1.416,0.2219,9.6209,-0.0302,0.0254,-0.1237,-1.7337595425047816,0.0,2.6704373359680176,-1.9063256978988647,-0.0,1.973860263824463,5.22860352972106,0.0,0.2696027159690857,-1.5971539656268519,0.0,-0.003667272627353668,0.7882996797561646,0.0,0.010273288935422897,0.8456217050552368,0.0,-0.022898489609360695
376.0,338.0,-1.416,0.2219,9.6209,-0.0302,0.0254,-0.1237,-1.7337800465025843,0.0,2.684326648712158,-1.906305193901062,-0.0,1.974731683731079,5.228623616486349,0.0,0.2687475085258484,-1.5971458593951624,0.0,-0.010721584782004356,0.7882992625236511,0.0,-0.0028315233066678047,0.8455936312675476,0.0,0.00611867755651474
376.0,338.0,-1.416,0.2219,9.6209,-0.0302,0.0254,-0.1237,-1.7337833843626917,0.0,2.6312761306762695,-1.906305193901062,-0.0,1.9365172386169434,5.2286356566245935,0.0,0.27585017681121826,-1.5971258322345179,0.0,-0.010917922481894493,0.7882992029190063,0.0,0.0031143405940383673,0.8456621766090393,0.0,-0.017270581796765327
376.0,338.0,-1.416,0.2219,9.6209,-0.0302,0.0254,-0.1237,-1.7337233028807582,0.0,2.6436142921447754,-1.9063256978988647,-0.0,1.9601798057556152,5.2285876152809045,0.0,0.2665414810180664,-1.5971501509295862,0.0,-0.0005447625298984349,0.7883268594741821,0.0,0.0034670638851821423,0.845670223236084,0.0,0.018093612045049667
376.0,338.0,-1.416,0.2219,9.6209,-0.0302,0.0254,-0.1237,-1.7337352238097132,0.0,2.704972982406616,-1.9063329696655273,-0.0,1.9166241884231567,5.228547501354971,0.0,0.2803879380226135,-1.5971339384662073,0.0,-0.004549243487417698,0.7883197069168091,0.0,0.013456456363201141,0.8456017971038818,0.0,0.012898694723844528
376.0,338.0,-1.416,0.2219,9.6209,-0.0302,0.0254,-0.1237,-1.7337833843626917,0.0,2.65499210357666,-1.906272292137146,-0.0,1.9535255432128906,5.2285876152809045,0.0,0.2674146592617035,-1.5971415678607386,0.0,-0.006138715893030167,0.7883155345916748,0.0,0.0016691475175321102,0.8456417322158813,0.0,-0.021568361669778824
376.0,338.0,-1.416,0.2219,9.6209,-0.0302,0.0254,-0.1237,-1.733767648736471,0.0,2.7047367095947266,-1.9063329696655273,-0.0,1.931652307510376,5.22857956865386,0.0,0.2864859402179718,-1.597165886555807,0.0,-0.01022676844149828,0.7882955074310303,0.0,0.0007426334195770323,0.8456137180328369,0.0,0.019900072365999222
371.0,341.0,-1.3424,0.2387,9.4899,-0.0336,0.0224,-0.1228,-1.733755727807516,0.0,2.6553802490234375,-1.9062763452529907,-0.0,1.9385359287261963,5.22859554269866,0.0,0.2632521688938141,-1.5971296469317835,0.0,-8.243834599852562e-05,0.7882951498031616,0.0,0.0011839275248348713,0.8455936312675476,0.0,0.012571867555379868
371.0,341.0,-1.3424,0.2387,9.4899,-0.0336,0.0224,-0.1228,-1.733743806878561,0.0,2.6467466354370117,-1.9063289165496826,-0.0,1.9495468139648438,5.228619503765859,0.0,0.27146053314208984,-1.5971501509295862,0.0,-0.011575475335121155,0.7882512807846069,0.0,0.0054232338443398476,0.8456257581710815,0.0,-0.0016020545735955238
371.0,341.0,-1.3424,0.2387,9.4899,-0.0336,0.0224,-0.1228,-1.7337190113463343,0.0,2.6373486518859863,-1.906296968460083,-0.0,1.9495882987976074,5.228571402817526,0.0,0.2666645050048828,-1.5971859137164515,0.0,-0.00714481808245182,0.7883513569831848,0.0,0.0010836778674274683,0.8456376791000366,0.0,-0.02217649482190609
371.0,341.0,-1.3424,0.2387,9.4899,-0.0336,0.0224,-0.1228,-1.7337914905943812,0.0,2.6346030235290527,-1.9062886238098145,-0.0,1.9675302505493164,5.228563356190481,0.0,0.26308169960975647,-1.5971382300006312,0.0,-0.00048073288053274155,0.788279116153717,0.0,-0.010205205529928207,0.8455936312675476,0.0,0.013872386887669563
371.0,341.0,-1.3424,0.2387,9.4899,-0.0336,0.0224,-0.1228,-1.7337109051146449,0.0,2.6304235458374023,-1.9063528776168823,-0.0,1.9088788032531738,5.22859953620986,0.0,0.27646780014038086,-1.597109619771139,0.0,-0.004105327185243368,0.7882835865020752,0.0,-0.004625176079571247,0.845629870891571,0.0,0.016129206866025925
371.0,341.0,-1.3424,0.2387,9.4899,-0.0336,0.0224,-0.1228,-1.7338034115233363,0.0,2.632129669189453,-1.9063093662261963,-0.0,1.9525654315948486,5.228571402817526,0.0,0.2787812352180481,-1.5971139113055628,0.0,-0.017903342843055725,0.7883438467979431,0.0,-0.005454286001622677,0.8456217050552368,0.0,-0.01005651243031025
371.0,341.0,-1.3424,0.2387,9.4899,-0.0336,0.0224,-0.1228,-1.7337228260436,0.0,2.6571381092071533,-1.9062844514846802,-0.0,1.9475975036621094,5.228591668396749,0.0,0.28102004528045654,-1.5971296469317835,0.0,-0.017168506979942322,0.7882955074310303,0.0,-0.0023723687045276165,0.8455897569656372,0.0,-0.05095234140753746
371.0,341.0,-1.3424,0.2387,9.4899,-0.0336,0.0224,-0.1228,-1.7337190113463343,0.0,2.6513943672180176,-1.9062803983688354,-0.0,1.943582534790039,5.228619503765859,0.0,0.2684776186943054,-1.597109619771139,0.0,-0.010729982517659664,0.7882992029190063,0.0,0.009776905179023743,0.8456096053123474,0.0,0.0024767606519162655
371.0,341.0,-1.3424,0.2387,9.4899,-0.0336,0.0224,-0.1228,-1.7337352238097132,0.0,2.687196731567383,-1.9063133001327515,-0.0,1.9633259773254395,5.228567647724905,0.0,0.2746516168117523,-1.5971458593951624,0.0,-0.0063810572028160095,0.7882951498031616,0.0,0.0023907190188765526,0.8456458449363708,0.0,0.03237030282616615
371.0,341.0,-1.3424,0.2387,9.4899,-0.0336,0.0224,-0.1228,-1.7337514362730921,0.0,2.6362102031707764,-1.9063093662261963,-0.0,1.9475088119506836,5.228567349701681,0.0,0.28331446647644043,-1.5971534887896937,0.0,-0.0019534872844815254,0.7882754802703857,0.0,-0.0030757817439734936,0.8455977439880371,0.0,0.0012988923117518425
371.0,341.0,-1.3424,0.2387,9.4899,-0.0336,0.0224,-0.1228,-1.7337433300414027,0.0,2.6784520149230957,-1.9062844514846802,-0.0,1.918811559677124,5.22858356216506,0.0,0.265132337808609,-1.5971458593951624,0.0,-0.008948206901550293,0.7883074879646301,0.0,-0.0089286919683218,0.8456137180328369,0.0,-0.017450083047151566
371.0,341.0,-1.3424,0.2387,9.4899,-0.0336,0.0224,-0.1228,-1.7337833843626917,0.0,2.6573190689086914,-1.9062689542770386,-0.0,1.9461085796356201,5.228627729206838,0.0,0.2654918432235718,-1.5971382300006312,0.0,-0.000646855216473341,0.7883155345916748,0.0,0.006483002565801144,0.845629870891571,0.0,-0.03590250760316849
371.0,341.0,-1.3424,0.2387,9.4899,-0.0336,0.0224,-0.1228,-1.7337352238097132,0.0,2.6136393547058105,-1.9063289165496826,-0.0,1.9062178134918213,5.228627550392904,0.0,0.27065032720565796,-1.5971296469317835,0.0,-0.012237717397511005,0.7883074283599854,0.0,-0.007834665477275848,0.8456217050552368,0.0,-0.03839028999209404
371.0,341.0,-1.3424,0.2387,9.4899,-0.0336,0.0224,-0.1228,-1.7337714634337367,0.0,2.6088943481445312,-1.906288743019104,-0.0,1.9345872402191162,5.2286473391349695,0.0,0.271884948015213,-1.5971382300006312,0.0,-0.006608586758375168,0.7883155941963196,0.0,-0.008980057202279568,0.8456137180328369,0.0,0.010443329811096191
371.0,341.0,-1.3424,0.2387,9.4899,-0.0336,0.0224,-0.1228,-1.733767648736471,0.0,2.6675751209259033,-1.906305193901062,-0.0,1.9656833410263062,5.228619444161215,0.0,0.2673068642616272,-1.5971382300006312,0.0,0.0003330926410853863,0.7883356213569641,0.0,0.0029986798763275146,0.8456217050552368,0.0,-0.01563028246164322
380.0,341.0,-1.4501,0.2261,9.7107,-0.0338,0.0206,-0.1176,-1.7337147198119105,0.0,2.628730297088623,-1.906296730041504,-0.0,1.9658429622650146,5.228607642441549,0.0,0.2696700394153595,-1.5971177260028284,0.0,-0.007483404129743576,0.7882832884788513,0.0,0.0011641010642051697,0.8456257581710815,0.0,0.02154112420976162
380.0,341.0,-1.4501,0.2261,9.7107,-0.0338,0.0206,-0.1176,-1.733743806878561,0.0,2.599364757537842,-1.9063329696655273,-0.0,1.9416061639785767,5.228607642441549,0.0,0.2780590057373047,-1.5971015135394495,0.0,-0.01621171645820141,0.7882432341575623,0.0,0.0026103572454303503,0.8455976843833923,0.0,0.052959613502025604
380.0,341.0,-1.4501,0.2261,9.7107,-0.0338,0.0206,-0.1176,-1.7337271175780238,0.0,2.6376657485961914,-1.906296968460083,-0.0,1.9412906169891357,5.228631782322683,0.0,0.26830828189849854,-1.5971382300006312,0.0,0.0023634887766093016,0.7882513403892517,0.0,-0.007112809922546148,0.8456096053123474,0.0,0.012988589704036713
380.0,341.0,-1.4501,0.2261,9.7107,-0.0338,0.0206,-0.1176,-1.733739515344137,0.0,2.6401801109313965,-1.9062649011611938,-0.0,1.912623643875122,5.22859953620986,0.0,0.26627853512763977,-1.5971339384662073,0.0,0.001875416375696659,0.7882791757583618,0.0,-0.008340396918356419,0.8456177711486816,0.0,0.018659042194485664
380.0,341.0,-1.4501,0.2261,9.7107,-0.0338,0.0206,-0.1176,-1.733767648736471,0.0,2.6491103172302246,-1.9062803983688354,-0.0,1.9469733238220215,5.228663313179769,0.0,0.27452921867370605,-1.597109619771139,0.0,-0.007429409772157669,0.7883155345916748,0.0,0.011371172964572906,0.8455936312675476,0.0,-0.037100184708833694
380.0,341.0,-1.4501,0.2261,9.7107,-0.0338,0.0206,-0.1176,-1.7337514362730921,0.0,2.6233956813812256,-1.906296968460083,-0.0,1.9173811674118042,5.228579687863149,0.0,0.27208244800567627,-1.5971177260028284,0.0,-0.010439155623316765,0.7883478403091431,0.0,0.0018306269776076078,0.8456458449363708,0.0,0.01594722643494606
380.0,341.0,-1.4501,0.2261,9.7107,-0.0338,0.0206,-0.1176,-1.7337514362730921,0.0,2.695934772491455,-1.9062929153442383,-0.0,1.9298813343048096,5.228615450650015,0.0,0.2709711790084839,-1.5971501509295862,0.0,-0.004006333649158478,0.7882713675498962,0.0,0.002422203542664647,0.8456257581710815,0.0,-0.04010424390435219
380.0,341.0,-1.4501,0.2261,9.7107,-0.0338,0.0206,-0.1176,-1.7337514362730921,0.0,2.671931266784668,-1.9063053131103516,-0.0,1.8922276496887207,5.22854762056426,0.0,0.2679799199104309,-1.5971220175372522,0.0,-0.00539803272113204,0.7882754802703857,0.0,0.0013097075279802084,0.8456217050552368,0.0,0.03533608466386795
380.0,341.0,-1.4501,0.2261,9.7107,-0.0338,0.0206,-0.1176,-1.7337109051146449,0.0,2.6674399375915527,-1.9062649011611938,-0.0,1.9942708015441895,5.22859554269866,0.0,0.26516926288604736,-1.5971420446978968,0.0,-0.0020059957168996334,0.7882832288742065,0.0,-0.012153522111475468,0.8455977439880371,0.0,0.019993141293525696
380.0,341.0,-1.4501,0.2261,9.7107,-0.0338,0.0206,-0.1176,-1.733739515344137,0.0,2.637641429901123,-1.9063371419906616,-0.0,1.9409817457199097,5.228619444161215,0.0,0.27777040004730225,-1.5971015135394495,0.0,-0.018717581406235695,0.788323700428009,0.0,-0.001873197965323925,0.8456257581710815,0.0,0.048874907195568085
380.0,341.0,-1.4501,0.2261,9.7107,-0.0338,0.0206,-0.1176,-1.733743806878561,0.0,2.630800724029541,-1.9063256978988647,-0.0,1.9723403453826904,5.228619444161215,0.0,0.2781195342540741,-1.5971420446978968,0.0,-0.007691313046962023,0.7882751226425171,0.0,0.0001873495348263532,0.8456339240074158,0.0,-0.018773237243294716
380.0,341.0,-1.4501,0.2261,9.7107,-0.0338,0.0206,-0.1176,-1.7337352238097132,0.0,2.657886028289795,-1.9063289165496826,-0.0,1.943345069885254,5.22860352972106,0.0,0.2759542465209961,-1.597137753163473,0.0,-0.0027271150611341,0.7883439064025879,0.0,-0.008068404160439968,0.8456017971038818,0.0,0.054056305438280106
380.0,341.0,-1.4501,0.2261,9.7107,-0.0338,0.0206,-0.1176,-1.7337633572020472,0.0,2.6623711585998535,-1.9062844514846802,-0.0,1.9863454103469849,5.228607642441549,0.0,0.25960537791252136,-1.597121540700094,0.0,-0.01186041347682476,0.7882911562919617,0.0,0.0036162887699902058,0.8456621766090393,0.0,0.010961828753352165
380.0,341.0,-1.4501,0.2261,9.7107,-0.0338,0.0206,-0.1176,-1.7337795696654261,0.0,2.6223716735839844,-1.9063208103179932,-0.0,2.0236968994140625,5.228559303074636,0.0,0.2706753611564636,-1.597137753163473,0.0,-0.01365213468670845,0.7882754802703857,0.0,-0.008319361135363579,0.8456257581710815,0.0,0.023662829771637917
380.0,341.0,-1.4501,0.2261,9.7107,-0.0338,0.0206,-0.1176,-1.7337314091124476,0.0,2.6428661346435547,-1.906296968460083,-0.0,1.9436808824539185,5.228555428772726,0.0,0.2640684247016907,-1.5971258322345179,0.0,-0.00549600925296545,0.7883155345916748,0.0,0.002715755719691515,0.8456055521965027,0.0,-0.022869177162647247
378.0,325.0,-1.3406,0.2429,9.4199,-0.0368,0.0412,-0.1294,-1.733767648736471,0.0,2.6686573028564453,-1.9063444137573242,-0.0,1.971163272857666,5.228583621769705,0.0,0.2551755905151367,-1.597137753163473,0.0,-0.018341856077313423,0.7883074283599854,0.0,-0.001957642612978816,0.845629870891571,0.0,0.030772410333156586
378.0,325.0,-1.3406,0.2429,9.4199,-0.0368,0.0412,-0.1294,-1.7337390385069789,0.0,2.6546034812927246,-1.9062731266021729,-0.0,1.9293750524520874,5.22858356216506,0.0,0.28022369742393494,-1.5970929304706019,0.0,0.00044686486944556236,0.7882631421089172,0.0,-0.001572714652866125,0.8456417322158813,0.0,-0.017160112038254738
378.0,325.0,-1.3406,0.2429,9.4199,-0.0368,0.0412,-0.1294,-1.7337514362730921,0.0,2.6274685859680176,-1.9063411951065063,-0.0,1.9151370525360107,5.2285876152809045,0.0,0.2690640091896057,-1.5971458593951624,0.0,-0.006536443717777729,0.7882751226425171,0.0,0.009266713634133339,0.845629870891571,0.0,-0.03383057564496994
378.0,325.0,-1.3406,0.2429,9.4199,-0.0368,0.0412,-0.1294,-1.733767648736471,0.0,2.692506790161133,-1.906296968460083,-0.0,1.9772030115127563,5.228611457138815,0.0,0.2822279930114746,-1.5971258322345179,0.0,0.0009516971185803413,0.7882348895072937,0.0,-0.012257883325219154,0.8456257581710815,0.0,0.023000191897153854
378.0,325.0,-1.3406,0.2429,9.4199,-0.0368,0.0412,-0.1294,-1.7337795696654261,0.0,2.6417555809020996,-1.906288743019104,-0.0,1.955628514289856,5.22857158163146,0.0,0.2738339900970459,-1.5971339384662073,0.0,-0.010834459215402603,0.7883033752441406,0.0,-0.01056849304586649,0.8456540703773499,0.0,-0.004918268881738186
378.0,325.0,-1.3406,0.2429,9.4199,-0.0368,0.0412,-0.1294,-1.7337147198119105,0.0,2.656789779663086,-1.9063093662261963,-0.0,1.993445634841919,5.22860352972106,0.0,0.26990219950675964,-1.5971501509295862,0.0,0.004297015257179737,0.7882754802703857,0.0,-0.005773996934294701,0.8456335663795471,0.0,-0.0024731382727622986
378.0,325.0,-1.3406,0.2429,9.4199,-0.0368,0.0412,-0.1294,-1.733739515344137,0.0,2.639944076538086,-1.90632164478302,-0.0,1.9575512409210205,5.22860352972106,0.0,0.28102001547813416,-1.5971382300006312,0.0,-0.00921450275927782,0.7883397340774536,0.0,-0.0036804727278649807,0.8456100821495056,0.0,-0.003822231199592352
378.0,325.0,-1.3406,0.2429,9.4199,-0.0368,0.0412,-0.1294,-1.7337514362730921,0.0,2.6743454933166504,-1.906288743019104,-0.0,1.952702522277832,5.22857545593337,0.0,0.2788578271865845,-1.5971501509295862,0.0,-0.008304533548653126,0.7882149815559387,0.0,0.002174507360905409,0.8456417322158813,0.0,0.010536598972976208
378.0,325.0,-1.3406,0.2429,9.4199,-0.0368,0.0412,-0.1294,-1.7337271175780238,0.0,2.5876097679138184,-1.906272292137146,-0.0,1.951097846031189,5.228551375656881,0.0,0.2749786078929901,-1.5970972220050257,0.0,-0.007994736544787884,0.7882791757583618,0.0,0.0019283852307125926,0.8456257581710815,0.0,0.03930758684873581
378.0,325.0,-1.3406,0.2429,9.4199,-0.0368,0.0412,-0.1294,-1.733779092828268,0.0,2.626769542694092,-1.906296968460083,-0.0,1.9604334831237793,5.22860352972106,0.0,0.280286967754364,-1.597165886555807,0.0,-0.013021924532949924,0.7882992029190063,0.0,-0.0012994364369660616,0.8456059098243713,0.0,0.040237024426460266
378.0,325.0,-1.3406,0.2429,9.4199,-0.0368,0.0412,-0.1294,-1.7337433300414027,0.0,2.6491377353668213,-1.9062888622283936,-0.0,1.9320093393325806,5.228607344418325,0.0,0.267023503780365,-1.5971258322345179,0.0,0.000580230844207108,0.788275420665741,0.0,-0.003979909233748913,0.8456096053123474,0.0,0.0018483973108232021
378.0,325.0,-1.3406,0.2429,9.4199,-0.0368,0.0412,-0.1294,-1.733767648736471,0.0,2.6617941856384277,-1.9063010215759277,-0.0,1.9346144199371338,5.228603589325704,0.0,0.2748069763183594,-1.5971339384662073,0.0,-0.005556396674364805,0.7882512807846069,0.0,-0.012073474004864693,0.8456539511680603,0.0,0.009504327550530434
378.0,325.0,-1.3406,0.2429,9.4199,-0.0368,0.0412,-0.1294,-1.7337590656676234,0.0,2.604606866836548,-1.9063609838485718,-0.0,1.881772756576538,5.228635716229238,0.0,0.26945579051971436,-1.5971620718585413,0.0,-0.01810266077518463,0.7883278131484985,0.0,-0.004654542077332735,0.8456782698631287,0.0,0.010591572150588036
378.0,325.0,-1.3406,0.2429,9.4199,-0.0368,0.0412,-0.1294,-1.7337271175780238,0.0,2.6473450660705566,-1.9063010215759277,-0.0,1.9598228931427002,5.228567349701681,0.0,0.2660558223724365,-1.5971739927874964,0.0,0.0024010962806642056,0.7882432341575623,0.0,-0.004036997444927692,0.8456339240074158,0.0,0.024174997583031654
378.0,325.0,-1.3406,0.2429,9.4199,-0.0368,0.0412,-0.1294,-1.7337471447386683,0.0,2.645017147064209,-1.906341314315796,-0.0,1.9593050479888916,5.22859554269866,0.0,0.26420465111732483,-1.5971697012530726,0.0,-0.01515787560492754,0.788263201713562,0.0,-0.0008089911425486207,0.8456459045410156,0.0,-0.023223713040351868
370.0,331.0,-1.4004,0.2195,9.5641,-0.0339,0.0276,-0.1194,-1.7337514362730921,0.0,2.642159938812256,-1.9062929153442383,-0.0,1.946520209312439,5.228611457138815,0.0,0.2571290135383606,-1.5971654097186487,0.0,0.0015902365557849407,0.788295567035675,0.0,0.006042986176908016,0.8456376791000366,0.0,0.01692400686442852
370.0,331.0,-1.4004,0.2195,9.5641,-0.0339,0.0276,-0.1194,-1.7337104282774867,0.0,2.6769449710845947,-1.9063092470169067,-0.0,1.9746637344360352,5.2285876152809045,0.0,0.27721258997917175,-1.5971501509295862,0.0,-0.01778787188231945,0.7882631421089172,0.0,-0.007993866689503193,0.8456540107727051,0.0,0.011933703906834126
370.0,331.0,-1.4004,0.2195,9.5641,-0.0339,0.0276,-0.1194,-1.7337352238097132,0.0,2.6555986404418945,-1.9062803983688354,-0.0,1.93479585647583,5.22857956865386,0.0,0.2760997712612152,-1.5971816221820276,0.0,0.0011219352018088102,0.7882835865020752,0.0,0.0014902455732226372,0.8456498384475708,0.0,-0.029886458069086075
370.0,331.0,-1.4004,0.2195,9.5641,-0.0339,0.0276,-0.1194,-1.7337514362730921,0.0,2.692600727081299,-1.9063527584075928,-0.0,1.9554758071899414,5.22854762056426,0.0,0.2750159502029419,-1.5972064177142542,0.0,-0.013783195987343788,0.7882874011993408,0.0,0.009730299934744835,0.8456456661224365,0.0,0.040379635989665985
370.0,331.0,-1.4004,0.2195,9.5641,-0.0339,0.0276,-0.1194,-1.7337995968260707,0.0,2.6578311920166016,-1.9062886238098145,-0.0,1.9704804420471191,5.228575515538015,0.0,0.2696833610534668,-1.5971739927874964,0.0,-0.0037215992342680693,0.7883278727531433,0.0,5.59268519282341e-05,0.8456417918205261,0.0,-0.015497041866183281
370.0,331.0,-1.4004,0.2195,9.5641,-0.0339,0.0276,-0.1194,-1.733755727807516,0.0,2.6269607543945312,-1.9063093662261963,-0.0,1.9360558986663818,5.228579628258505,0.0,0.26840925216674805,-1.5971697012530726,0.0,-0.014336850494146347,0.7882955074310303,0.0,0.008452782407402992,0.8456537127494812,0.0,-0.005786004476249218
370.0,331.0,-1.4004,0.2195,9.5641,-0.0339,0.0276,-0.1194,-1.7337514362730921,0.0,2.62453031539917,-1.90632164478302,-0.0,1.9368658065795898,5.228595483094015,0.0,0.2694171667098999,-1.5971534887896937,0.0,-0.0028218014631420374,0.7882431149482727,0.0,0.00031305511947721243,0.8456498384475708,0.0002833247999660671,-0.007058002520352602
370.0,331.0,-1.4004,0.2195,9.5641,-0.0339,0.0276,-0.1194,-1.7337514362730921,0.0,2.660048484802246,-1.9062442779541016,-0.0,1.9242169857025146,5.228563356190481,0.0,0.27472802996635437,-1.5971453825580042,0.0,-0.019287947565317154,0.7883278727531433,0.0,-0.006614036858081818,0.8456618785858154,0.0002728013787418604,0.018044691532850266
370.0,331.0,-1.4004,0.2195,9.5641,-0.0339,0.0276,-0.1194,-1.7337590656676234,0.0,2.6181588172912598,-1.9063403606414795,-0.0,1.9285850524902344,5.228607582836904,0.0,0.2716366648674011,-1.5971534887896937,0.0,-0.0011156636755913496,0.7882914543151855,0.0,-0.0061461906880140305,0.8456376791000366,0.0002493430220056325,-0.0061957454308867455
370.0,331.0,-1.4004,0.2195,9.5641,-0.0339,0.0276,-0.1194,-1.7337433300414027,0.0,2.6416478157043457,-1.9063256978988647,-0.0,1.9724985361099243,5.228591668396749,0.0,0.2619379758834839,-1.597165886555807,0.0,-0.011405447497963905,0.7883194088935852,0.0,0.0028588580898940563,0.845710039138794,0.00021900361753068864,-0.02917821705341339
370.0,331.0,-1.4004,0.2195,9.5641,-0.0339,0.0276,-0.1194,-1.7337228260436,0.0,2.6194427013397217,-1.90632164478302,-0.0,1.946057915687561,5.228571402817526,0.0,0.2766430377960205,-1.597121540700094,0.0,-0.010364601388573647,0.7883318662643433,0.0,-0.003173278644680977,0.8456457257270813,0.0001952470192918554,0.016964906826615334
370.0,331.0,-1.4004,0.2195,9.5641,-0.0339,0.0276,-0.1194,-1.733767648736471,0.0,2.6746623516082764,-1.906280517578125,-0.0,1.9442896842956543,5.22857545593337,0.0,0.2710956633090973,-1.597189728413717,0.0,-0.014434692449867725,0.7883278727531433,0.0,-0.00712123978883028,0.8456737995147705,0.00017614055832382292,0.0004589837044477463
370.0,331.0,-1.4004,0.2195,9.5641,-0.0339,0.0276,-0.1194,-1.7337514362730921,0.0,2.6528491973876953,-1.9062763452529907,-0.0,1.9087356328964233,5.22857944944457,0.0,0.28649482131004333,-1.597189728413717,0.0,-0.014354624785482883,0.7882914543151855,0.0,-3.6904122680425644e-05,0.8456659913063049,0.00016044019139371812,0.004533933475613594
370.0,331.0,-1.4004,0.2195,9.5641,-0.0339,0.0276,-0.1194,-1.7337914905943812,0.0,2.6880860328674316,-1.9063166379928589,-0.0,1.9108757972717285,5.228539514332571,0.0,0.26544487476348877,-1.5971697012530726,0.0,2.6924535632133484e-06,0.7883155345916748,0.0,0.011180286295711994,0.845573365688324,0.0001473094744142145,0.02517026849091053
370.0,331.0,-1.4004,0.2195,9.5641,-0.0339,0.0276,-0.1194,-1.7337023220457972,0.0,2.6371145248413086,-1.90632164478302,-0.0,1.9403340816497803,5.228535461216726,0.0,0.28594785928726196,-1.5971177260028284,0.0,-0.003793322015553713,0.7882755398750305,0.0,-0.004950891248881817,0.8456940054893494,0.00013616576325148344,-0.006369774229824543
362.0,353.0,-1.4094,0.2752,9.6114,-0.0441,0.0226,-0.1135,-1.733767648736471,0.0,2.6558313369750977,-1.9062929153442383,-0.0,1.9602603912353516,5.228559541493215,0.0,0.2660386860370636,-1.597149674092428,0.0,-0.010415365919470787,0.7882553935050964,0.0,-0.002374557312577963,0.8456940054893494,0.00012658958439715207,0.007580505684018135
362.0,353.0,-1.4094,0.2752,9.6114,-0.0441,0.0226,-0.1135,-1.7337752781310023,0.0,2.6284008026123047,-1.906324863433838,-0.0,1.920005440711975,5.228559481888571,0.0,0.2814274728298187,-1.597137753163473,0.0,-0.003893055720254779,0.7883356213569641,0.0,0.01628234051167965,0.8456902503967285,0.00011827185517176986,-0.021818529814481735
362.0,353.0,-1.4094,0.2752,9.6114,-0.0441,0.0226,-0.1135,-1.7337876758971156,0.0,2.6635279655456543,-1.9063371419906616,-0.0,1.9211153984069824,5.228515374451437,0.0,0.27537286281585693,-1.5971620718585413,0.0,-0.010522057302296162,0.7882952094078064,0.0,-0.0110377361997962,0.8456819653511047,0.00011097978131147102,-0.019892361015081406
362.0,353.0,-1.4094,0.2752,9.6114,-0.0441,0.0226,-0.1135,-1.733835836450094,0.0,2.6430723667144775,-1.9063611030578613,-0.0,1.9276775121688843,5.2285194275672815,0.0,0.27614253759384155,-1.5971501509295862,0.0,-0.008628769777715206,0.7882912158966064,0.0,0.003376938635483384,0.8456580638885498,0.00010453478171257302,-0.011078210547566414
362.0,353.0,-1.4094,0.2752,9.6114,-0.0441,0.0226,-0.1135,-1.73380770305776,0.0,2.6524858474731445,-1.9063445329666138,-0.0,1.9441560506820679,5.2285435674484155,0.0,0.26873624324798584,-1.5971577803241175,0.0,-0.013668641448020935,0.7883075475692749,0.0,0.011077557690441608,0.845686137676239,9.879708522930741e-05,0.026036549359560013
362.0,353.0,-1.4094,0.2752,9.6114,-0.0441,0.0226,-0.1135,-1.7337428532042445,0.0,2.6389803886413574,-1.906280279159546,-0.0,1.9437415599822998,5.228567528515615,0.0,0.26052552461624146,-1.5971501509295862,0.0,-0.02456536702811718,0.7882751822471619,0.0,-0.009545725770294666,0.8456498384475708,9.365667210659012e-05,0.035891350358724594
362.0,353.0,-1.4094,0.2752,9.6114,-0.0441,0.0226,-0.1135,-1.7337709865965785,0.0,2.631866931915283,-1.9063363075256348,-0.0,1.9682021141052246,5.22854362705306,0.0,0.27930375933647156,-1.597189728413717,0.0,0.0022830073721706867,0.788287341594696,0.0,-0.0037919008173048496,0.8456498384475708,8.902457193471491e-05,0.010720067657530308
362.0,353.0,-1.4094,0.2752,9.6114,-0.0441,0.0226,-0.1135,-1.7337752781310023,0.0,2.674804210662842,-1.9063011407852173,3.6440008788218847e-09,1.9233087301254272,5.2285276530082605,0.0,0.2856065630912781,-1.597109619771139,0.0,-0.000136158661916852,0.7883278727531433,0.0,-0.012347144074738026,0.845686137676239,8.482914563501254e-05,-0.024375267326831818
362.0,353.0,-1.4094,0.2752,9.6114,-0.0441,0.0226,-0.1135,-1.7337671718993128,0.0,2.6725268363952637,-1.9062888622283936,8.799832065288504e-15,1.9571791887283325,5.228567528515615,0.0,0.270209401845932,-1.597149674092428,0.0,-0.004238370805978775,0.7883155345916748,0.0,-0.009433059953153133,0.8456498384475708,8.101132698357105e-05,-0.006383709609508514
362.0,353.0,-1.4094,0.2752,9.6114,-0.0441,0.0226,-0.1135,-1.7337871990599574,0.0,2.6678366661071777,-1.906356930732727,2.1250559126584248e-20,1.9669170379638672,5.2285234210784814,0.0,0.27513831853866577,-1.5971058050738733,0.0,-0.004476731643080711,0.788247287273407,0.0,0.0012338290689513087,0.8456742167472839,7.752236706437543e-05,-0.05395741015672684
362.0,353.0,-1.4094,0.2752,9.6114,-0.0441,0.0226,-0.1135,-1.733823915521139,0.0,2.649470329284668,-1.906324863433838,5.1317602066995286e-26,1.9462125301361084,5.228507566242971,0.0,0.2667871415615082,-1.5971577803241175,0.0,-0.011071770451962948,0.7883274555206299,0.0,0.003474429715424776,0.8456778526306152,7.432157144648954e-05,-0.0046412330120801926
362.0,353.0,-1.4094,0.2752,9.6114,-0.0441,0.0226,-0.1135,-1.7337833843626917,0.0,2.6484060287475586,-1.90632164478302,1.239259864728688e-31,1.9622710943222046,5.2285234210784814,0.0,0.2717683017253876,-1.597121540700094,0.0,-0.005548317916691303,0.7882795333862305,0.0,0.005777198821306229,0.8456659913063049,7.137456850614399e-05,-0.016368502750992775
362.0,353.0,-1.4094,0.2752,9.6114,-0.0441,0.0226,-0.1135,-1.7337995968260707,0.0,2.691983699798584,-1.9062968492507935,2.9926670344808637e-37,1.919054388999939,5.22855972030715,0.0,0.28014278411865234,-1.5971415678607386,0.0,-0.017044615000486374,0.7883115410804749,0.0,-0.0005184172187000513,0.8456618785858154,6.865235627628863e-05,-0.006518084555864334
362.0,353.0,-1.4094,0.2752,9.6114,-0.0441,0.0226,-0.1135,-1.7338038883604945,0.0,2.644062042236328,-1.9063692092895508,7.230700075916056e-43,1.9534465074539185,5.228531706124105,0.0,0.27138665318489075,-1.5971859137164515,0.0,-0.00856383703649044,0.7883350849151611,0.0,-0.007774728816002607,0.8456540107727051,6.613021105295047e-05,0.012058798223733902
362.0,353.0,-1.4094,0.2752,9.6114,-0.0441,0.0226,-0.1135,-1.7338038883604945,0.0,2.6414029598236084,-1.9062927961349487,-0.0,1.9386268854141235,5.2285234210784814,0.0,0.2729913294315338,-1.5971134344684046,0.0,-0.0058032451197505,0.7883315086364746,0.0,-0.0036918395198881626,0.8456457257270813,6.378682155627757e-05,0.01008107140660286
374.0,340.0,-1.2209,0.2764,9.3613,-0.0388,0.0244,-0.1187,-1.733779092828268,0.0,2.6731975078582764,-1.906296968460083,-0.0,1.9058865308761597,5.2286038277442834,9.305487047583938e-09,0.2666001319885254,-1.5971534887896937,0.0,-0.004688522778451443,0.7883197069168091,0.0,-0.0023260710295289755,0.845669686794281,6.160371412988752e-05,0.0002504570293240249
374.0,340.0,-1.2209,0.2764,9.3613,-0.0388,0.0244,-0.1187,-1.7337709865965785,0.0,2.6500468254089355,-1.9063093662261963,-0.0,1.966310739517212,5.228539693146505,2.590216886463881e-12,0.2748391926288605,-1.597149674092428,0.0,-0.00920994020998478,0.7882911562919617,0.0,0.006617477163672447,0.8456578254699707,6.9492518377956e-05,0.008966062217950821
374.0,340.0,-1.2209,0.2764,9.3613,-0.0388,0.0244,-0.1187,-1.733750959435934,0.0,2.666330575942993,-1.9063289165496826,-0.0,1.9587748050689697,5.228535699635305,7.209962975874326e-16,0.2693978250026703,-1.597194019948141,0.0,-0.007227786350995302,0.7883074879646301,0.0,0.013215942308306694,0.8456618785858154,1.678162470097888e-10,-0.05463670939207077
374.0,340.0,-1.2209,0.2764,9.3613,-0.0388,0.0244,-0.1187,-1.7338038883604945,0.0,2.6654982566833496,-1.9063403606414795,-0.0,1.953120231628418,5.228555667191305,2.0069200778368754e-19,0.2745293974876404,-1.5971697012530726,0.0,-0.004330731928348541,0.7882832288742065,0.0,0.001933400984853506,0.8456578254699707,4.052564549875972e-16,0.009534797631204128
374.0,340.0,-1.2209,0.2764,9.3613,-0.0388,0.0244,-0.1187,-1.7337833843626917,0.0,2.6668570041656494,-1.9062681198120117,-0.0,1.9309537410736084,5.228555846005239,5.586336170806872e-23,0.27324333786964417,-1.597149674092428,0.0,-0.012092573568224907,0.7883274555206299,0.0,-0.003083050949499011,0.8456899523735046,5.277910895529203e-05,0.020287858322262764
374.0,340.0,-1.2209,0.2764,9.3613,-0.0388,0.0244,-0.1187,-1.7338196239867152,0.0,2.6565961837768555,-1.906305193901062,-0.0,1.9484249353408813,5.228511619358816,1.554977348170788e-26,0.2753455638885498,-1.5971697012530726,0.0,-0.00357197318226099,0.7882713675498962,0.0,0.004184433724731207,0.8456536531448364,6.816152017563581e-05,0.04004682973027229
374.0,340.0,-1.2209,0.2764,9.3613,-0.0388,0.0244,-0.1187,-1.7338315449156703,-6.619832856813446e-05,2.646766424179077,-1.9063010215759277,-0.0,1.9750032424926758,5.22855972030715,4.328336461648643e-30,0.282914400100708,-1.5971534887896937,0.0,-0.010208375751972198,0.7883075475692749,0.0,0.0033066202886402607,0.8456858396530151,0.00046248402213677764,-0.02104402333498001
374.0,340.0,-1.2209,0.2764,9.3613,-0.0388,0.0244,-0.1187,-1.733823915521139,-6.340082472888753e-05,2.6323647499084473,-1.906313419342041,-0.0,1.9600927829742432,5.228555846005239,1.2048085167024068e-33,0.253173291683197,-1.5971697012530726,0.0,-0.002269191900268197,0.7883551120758057,0.0,0.010394921526312828,0.8456858396530151,0.0005575392860919237,0.043460775166749954
374.0,340.0,-1.2209,0.2764,9.3613,-0.0388,0.0244,-0.1187,-1.733779092828268,-7.298913988051936e-05,2.648275852203369,-1.9063174724578857,-0.0,1.972870945930481,5.228499698429861,3.3536282906334334e-37,0.2772040367126465,-1.5971697012530726,0.0,-0.0017602246953174472,0.7883513569831848,0.0,0.0007722952286712825,0.8456899523735046,0.0004966192063875496,-0.007205621805042028
374.0,340.0,-1.2209,0.2764,9.3613,-0.0388,0.0244,-0.1187,-1.7337995968260707,-7.785065827192739e-05,2.6544060707092285,-1.9063092470169067,-0.0,1.9714393615722656,5.228515612870016,9.334889849946201e-41,0.27918821573257446,-1.597189728413717,0.0,-0.002480516443029046,0.7883274555206299,0.0,-0.007846944034099579,0.8457099199295044,0.00045896440860815346,-0.04331183433532715
374.0,340.0,-1.2209,0.2764,9.3613,-0.0388,0.0244,-0.1187,-1.733774801293844,-7.877282041590661e-05,2.6227822303771973,-1.9062927961349487,-1.4127338545222301e-05,1.9550092220306396,5.228527533798971,-0.00016470839909743518,0.2591232657432556,-1.597161595021383,0.0,-0.0099613256752491,0.7883471846580505,0.0,0.0009764672140590847,0.8456454277038574,0.0004446617094799876,-0.013799116015434265
374.0,340.0,-1.2209,0.2764,9.3613,-0.0388,0.0244,-0.1187,-1.733819147149557,-8.685547800268978e-05,2.6706409454345703,-1.9063289165496826,-1.535820229037199e-05,1.9631032943725586,5.228475498944082,-0.00018294619803782552,0.27611228823661804,-1.597177807484762,0.0,-0.0018086741911247373,0.7883074879646301,0.0,0.0011471102479845285,0.8456817865371704,0.00046860691509209573,-0.003991810604929924
374.0,340.0,-1.2209,0.2764,9.3613,-0.0388,0.0244,-0.1187,-1.7338396511473597,-0.0002596210688352585,2.6583099365234375,-1.9063010215759277,-1.4610313883167692e-05,1.9743707180023193,5.228491771012106,-0.00019235024228692055,0.2730403244495392,-1.5971735159503382,0.0,-0.010324079543352127,0.7883594632148743,0.0,-0.0013043468352407217,0.8457099199295044,0.00039702202775515616,-0.032251689583063126
374.0,340.0,-1.2209,0.2764,9.3613,-0.0388,0.0244,-0.1187,-1.7338234386839808,-0.00026627330225892365,2.6362359523773193,-1.9063735008239746,-1.393178081343649e-05,1.9776618480682373,5.228503632336416,-0.00017846678383648396,0.27323073148727417,-1.5971453825580042,0.0,0.0005591735243797302,0.7882670164108276,0.0,0.006103598978370428,0.8457099199295044,0.00034260147367604077,0.02780510112643242
374.0,340.0,-1.2209,0.2764,9.3613,-0.0388,0.0244,-0.1187,-1.7338596783080042,-0.00028060682234354317,2.663605213165283,-1.9063445329666138,-1.3513417798094451e-05,1.9282236099243164,5.228467452317037,-0.0003297380462754518,0.25564607977867126,-1.5971654097186487,0.0,-0.016564227640628815,0.7883391380310059,7.207557928268216e-08,0.0027836496010422707,0.8456537127494812,0.0003253707545809448,-0.009049647487699986
367.0,353.0,-1.2066,0.2782,9.1131,-0.0492,0.0331,-0.1287,-1.7338720760741175,-0.0004094446776434779,2.651806592941284,-1.9062803983688354,-1.2931004675920121e-05,1.9408599138259888,5.228471505432882,-0.00032499292865395546,0.2817302346229553,-1.5971773306476038,0.0,0.009675278328359127,0.7883554697036743,2.0062502006923388e-11,0.014235534705221653,0.8457099199295044,0.0003558412136044353,-0.02108702063560486
367.0,353.0,-1.2066,0.2782,9.1131,-0.0492,0.0331,-0.1287,-1.733819147149557,-0.0003859603311866522,2.6392533779144287,-1.906313419342041,-1.2396640158840455e-05,1.9764695167541504,5.228487658291616,-0.0003195913159288466,0.271426796913147,-1.5971534887896937,0.0,-0.011863372288644314,0.7883632183074951,5.58447043355571e-15,0.005822932813316584,0.8456854224205017,0.0003642124938778579,-0.02497599832713604
367.0,353.0,-1.2066,0.2782,9.1131,-0.0492,0.0331,-0.1287,-1.7338677845396937,-0.0003706803545355797,2.6353883743286133,-1.906296968460083,-1.1904715393029619e-05,1.938549518585205,5.228459584503927,-0.0002785843680612743,0.27519357204437256,-1.5971983114825647,0.0,-0.013648261316120625,0.7883714437484741,1.5544579696370806e-18,0.0025441136676818132,0.8457580804824829,0.0005601496086455882,0.011890113353729248
367.0,353.0,-1.2066,0.2782,9.1131,-0.0492,0.0331,-0.1287,-1.7338153324522914,-0.0003151268174406141,2.6645889282226562,-1.9063445329666138,-1.145035548688611e-05,1.9443247318267822,5.2284796116645715,-0.00027869900804944336,0.2553666830062866,-1.597194019948141,0.0,-0.0045151300728321075,0.7883874773979187,4.326890705540215e-22,0.009061410091817379,0.8457539677619934,0.0007211880292743444,0.014582758769392967
367.0,353.0,-1.2066,0.2782,9.1131,-0.0492,0.0331,-0.1287,-1.7338515720763148,-0.0002740052586887032,2.608259439468384,-1.9063174724578857,-1.1029391316697001e-05,1.956937313079834,5.228455769806661,-0.0002670454268809408,0.2678927779197693,-1.5971816221820276,5.51266254866789e-10,-0.013016197830438614,0.7883194088935852,1.2044059595168567e-25,0.0018510017544031143,0.8457099199295044,0.0008094516815617681,0.043119192123413086
367.0,353.0,-1.2066,0.2782,9.1131,-0.0492,0.0331,-0.1287,-1.7338677845396937,-0.00024237856268882751,2.620821952819824,-1.9063093662261963,-1.06382867670618e-05,1.8878059387207031,5.228487658291616,-0.00027333656908012927,0.2634601294994354,-1.5971859137164515,1.5344699794660188e-13,-0.006344477646052837,0.7883391380310059,3.3525077820592873e-29,0.0035634730011224747,0.8457016944885254,0.0019674059003591537,0.06277234852313995
367.0,353.0,-1.2066,0.2782,9.1131,-0.0492,0.0331,-0.1287,-1.7339002094664515,-0.00024833768839016557,2.635058879852295,-1.9063289165496826,-1.0274005035171285e-05,1.9361344575881958,5.228487658291616,-0.0003060990711674094,0.24883240461349487,-1.5971453825580042,4.27125330290821e-17,-0.014542089775204659,0.7883267998695374,9.331830146631691e-33,0.010468320921063423,0.8457499146461487,0.0024037272669374943,0.04489069804549217
367.0,353.0,-1.2066,0.2782,9.1131,-0.0492,0.0331,-0.1287,-1.733835359612936,-0.00023067041183821857,2.633415699005127,-1.9063166379928589,-9.933781257132068e-06,1.9498422145843506,5.228455769806661,-0.00045026911539025605,0.26451075077056885,-1.5971983114825647,1.188919053664041e-20,-0.01896657794713974,0.7882993221282959,2.597549072208438e-36,0.010313763283193111,0.8457657098770142,0.002510683611035347,0.054331377148628235
367.0,353.0,-1.2066,0.2782,9.1131,-0.0492,0.0331,-0.1287,-1.7339159450926722,-0.00026145216543227434,2.621126651763916,-1.9063125848770142,-2.3988916755812717e-11,1.9327318668365479,5.228447723179617,-0.00048596339183859527,0.2553554177284241,-1.5971816221820276,3.3094000817296955e-24,-0.0161660835146904,0.7883315086364746,7.230377777269261e-40,0.008950267918407917,0.8457455635070801,0.0020563805010169744,0.07017090171575546
367.0,353.0,-1.2066,0.2782,9.1131,-0.0492,0.0331,-0.1287,-1.733819147149557,-0.000495660409796983,2.6552398204803467,-1.9062639474868774,-5.793040967751412e-17,1.990700602531433,5.228431689530172,-0.0004558212240226567,0.25894370675086975,-1.5971773306476038,9.211836553870868e-28,-0.023823648691177368,0.7883034348487854,2.0178697886277366e-43,0.018425706773996353,0.8458020687103271,0.0017196228727698326,0.0826808512210846
367.0,353.0,-1.2066,0.2782,9.1131,-0.0492,0.0331,-0.1287,-1.7338997326292933,-0.0005044618737883866,2.644920587539673,-1.9063485860824585,-1.3989510356250518e-22,2.0578105449676514,5.228427576809683,-0.0005132759106345475,0.2588866353034973,-1.597189728413717,2.564149085640766e-31,-0.017883818596601486,0.7883387207984924,0.0,0.013458283618092537,0.8458099961280823,0.0013522643130272627,0.07613055408000946
367.0,353.0,-1.2066,0.2782,9.1131,-0.0492,0.0331,-0.1287,-1.733875413934225,-0.0004888442344963551,2.60313081741333,-1.906305193901062,-3.378301641433844e-28,1.9524314403533936,5.228431689530172,-0.0004137418291065842,0.25473377108573914,-1.5971534887896937,7.137403103932488e-35,-0.03711289167404175,0.7883074879646301,0.0,0.00583601463586092,0.8457938432693481,0.000984121928922832,0.10230626910924911
367.0,353.0,-1.2066,0.2782,9.1131,-0.0492,0.0331,-0.1287,-1.733936449090475,-0.0007305642939172685,2.5684866905212402,-1.9063174724578857,-8.158199872710418e-34,1.9603772163391113,5.228443848877706,-0.0003363779978826642,0.25405198335647583,-1.5971577803241175,1.9867220066224174e-38,-0.02143075130879879,0.7883234620094299,0.0,0.008476329036056995,0.8457897305488586,0.0007750243530608714,0.07913228124380112
367.0,353.0,-1.2066,0.2782,9.1131,-0.0492,0.0331,-0.1287,-1.7339517078795375,-0.0033726629335433245,2.585110664367676,-1.9063445329666138,-1.970109333068154e-39,1.972057819366455,5.228427576809683,-0.0003301881079096347,0.24724584817886353,-1.597161595021383,5.529523740225728e-42,-0.028607208281755447,0.7883070707321167,0.00010227532038697973,0.009231308475136757,0.8457938432693481,0.0005733041907660663,0.09615477174520493
367.0,353.0,-1.2066,0.2782,9.1131,-0.0492,0.0331,-0.1287,-1.7340041599669398,-0.006760119926184416,2.531860589981079,-1.9062886238098145,-4.203895392974451e-45,1.9430162906646729,5.228471684246816,-0.0002856411738321185,0.2447022795677185,-1.597177807484762,1.401298464324817e-45,-0.03258296847343445,0.7883714437484741,9.886917541734874e-05,0.013151844963431358,0.8458012938499451,0.0009248879505321383,0.13611069321632385
381.0,353.0,-1.3807,0.4181,9.5791,-0.0379,0.0165,-0.1103,-1.7340113125243128,-0.011188799515366554,2.5475101470947266,-1.906348705291748,-0.0,1.978837251663208,5.228471743851461,-0.0002514340740162879,0.2524453103542328,-1.5971859137164515,0.0,-0.02902195230126381,0.7883591055870056,9.275594493374228e-05,0.017088625580072403,0.8458498120307922,0.001769334776327014,0.10144549608230591
381.0,353.0,-1.3807,0.4181,9.5791,-0.0379,0.0165,-0.1103,-1.734140535394186,-0.012647652067244053,2.5644147396087646,-1.9063372611999512,-0.0,1.936642050743103,5.228471743851461,-0.00022454472491517663,0.24983105063438416,-1.5971773306476038,0.0,-0.020053844898939133,0.7883591055870056,8.735403389437124e-05,0.023052390664815903,0.8458659648895264,0.0026341010816395283,0.1350262314081192
381.0,353.0,-1.3807,0.4181,9.5791,-0.0379,0.0165,-0.1103,-1.734147687951559,-0.013450320810079575,2.577383518218994,-1.9062927961349487,-0.0,1.9366533756256104,5.228451776295461,-0.00020285183563828468,0.24319952726364136,-1.597194019948141,0.0,-0.030270271003246307,0.7883874773979187,8.254673593910411e-05,0.013694653287529945,0.8458659648895264,0.00400808360427618,0.19095353782176971
381.0,353.0,-1.3807,0.4181,9.5791,-0.0379,0.0165,-0.1103,-1.734328409234518,-0.01430596224963665,2.5294508934020996,-1.9063166379928589,-0.0,1.9236071109771729,5.228455769806661,-0.0001849814725574106,0.25509005784988403,-1.5971415678607386,0.0,-0.015188043937087059,0.7883952260017395,7.824098429409787e-05,0.017138183116912842,0.8459060192108154,0.005634794011712074,0.129999041557312
381.0,353.0,-1.3807,0.4181,9.5791,-0.0379,0.0165,-0.1103,-1.734380384484762,-0.016537807881832123,2.603294849395752,-1.906313419342041,-0.0,1.9550037384033203,5.228447961598196,-0.0001934620668180287,0.24240685999393463,-1.5971697012530726,0.0,-0.02578635886311531,0.7883714437484741,7.4362127634231e-05,0.013072187080979347,0.8459463119506836,0.006547106429934502,0.14936670660972595
381.0,353.0,-1.3807,0.4181,9.5791,-0.0379,0.0165,-0.1103,-1.7344843349852503,-0.01673852652311325,2.5272767543792725,-1.9063371419906616,-0.0,1.9806747436523438,5.228447901993551,-0.00016095751198008657,0.24827614426612854,-1.5971978346454065,0.0,-0.028959739953279495,0.7883028984069824,7.08497827872634e-05,0.017664622515439987,0.8459901213645935,0.007441036868840456,0.1504845917224884
381.0,353.0,-1.3807,0.4181,9.5791,-0.0379,0.0165,-0.1103,-1.7345925770201625,-0.015800505876541138,2.5440235137939453,-1.90632164478302,-0.0,1.9617884159088135,5.228416073113241,-0.0002000631793634966,0.23498183488845825,-1.597177807484762,0.0,-0.028156133368611336,0.7883591651916504,6.76541676511988e-05,0.02054176665842533,0.8460142016410828,0.008269998244941235,0.19841784238815308
381.0,353.0,-1.3807,0.4181,9.5791,-0.0379,0.0165,-0.1103,-1.7346240482726039,-0.014655550010502338,2.566147804260254,-1.9062731266021729,0.00022796742268837988,1.9027743339538574,5.228467869549551,-0.0005618272698484361,0.24912980198860168,-1.5971296469317835,0.0,-0.022484734654426575,0.7883751392364502,7.767394708935171e-05,0.00963550340384245,0.8460903167724609,0.009369926527142525,0.16623926162719727
381.0,353.0,-1.3807,0.4181,9.5791,-0.0379,0.0165,-0.1103,-1.734765192071432,-0.013177012093365192,2.5178425312042236,-1.9062647819519043,0.0003324170829728246,2.0024254322052,5.228424000530996,-0.0005505295121110976,0.23161442577838898,-1.5971339384662073,0.0,-0.018873155117034912,0.7883955240249634,7.446761446772143e-05,0.020210105925798416,0.8461264371871948,0.009687776677310467,0.1317932903766632
381.0,353.0,-1.3807,0.4181,9.5791,-0.0379,0.0165,-0.1103,-1.7348247967162074,-0.012884970754384995,2.5010759830474854,-1.9062771797180176,0.0006795561057515442,1.9795564413070679,5.228388118534841,-0.0005342044169083238,0.23266267776489258,-1.5971258322345179,0.0,-0.025815483182668686,0.7883714437484741,7.150920282583684e-05,0.01683853194117546,0.8461781740188599,0.009836754761636257,0.1454855501651764
381.0,353.0,-1.3807,0.4181,9.5791,-0.0379,0.0165,-0.1103,-1.7348605595030726,-0.013023915700614452,2.530468225479126,-1.9063010215759277,0.0005619323346763849,2.0142159461975098,5.228424060135641,-0.0006430220673792064,0.22287476062774658,-1.5971415678607386,0.0,-0.02097295969724655,0.7883632183074951,6.877686973894015e-05,0.014565751887857914,0.8462547063827515,0.009283879771828651,0.10545909404754639
381.0,353.0,-1.3807,0.4181,9.5791,-0.0379,0.0165,-0.1103,-1.7349406681456507,-0.014181637205183506,2.5383644104003906,-1.9062771797180176,0.0004988593282178044,1.9572073221206665,5.228396165161886,-0.0009685260592959821,0.23108962178230286,-1.5971339384662073,0.0,-0.017521794885396957,0.7883510589599609,6.624568777624518e-05,0.026534579694271088,0.8462944030761719,0.008742126636207104,0.08252942562103271
381.0,353.0,-1.3807,0.4181,9.5791,-0.0379,0.0165,-0.1103,-1.7350732288756312,-0.015227291733026505,2.491854429244995,-1.9062731266021729,0.0004940186627209187,1.985514760017395,5.22840433099822,-0.0007532479939982295,0.20709137618541718,-1.5971339384662073,0.0,-0.01831626147031784,0.7883632183074951,6.389414920704439e-05,0.014219505712389946,0.8463788032531738,0.008656171150505543,0.08465112745761871
381.0,353.0,-1.3807,0.4181,9.5791,-0.0379,0.0165,-0.1103,-1.7351933918394984,-0.017796363681554794,2.4761695861816406,-1.9062926769256592,0.0015334832714870572,2.0052661895751953,5.228343951493063,-0.0006884644972160459,0.21647444367408752,-1.5971301237689417,0.0,-0.0030947788618505,0.7883710861206055,6.170386041048914e-05,0.007178868632763624,0.8463538885116577,0.007927519269287586,0.09097215533256531
381.0,353.0,-1.3807,0.4181,9.5791,-0.0379,0.0165,-0.1103,-1.7352572880186976,-0.019126681610941887,2.463623285293579,-1.906233549118042,0.004267142154276371,2.000959634780884,5.228360104351797,-0.0008903482230380177,0.21157753467559814,-1.59706956544985,2.3174330635811202e-05,-0.010615657083690166,0.7883632183074951,5.9658770624082536e-05,0.019195737317204475,0.8464261889457703,0.006782215554267168,0.05289473384618759
383.0,340.0,-1.3113,0.2764,9.5689,-0.0377,0.0186,-0.1098,-1.7353936634459437,-0.020227421075105667,2.402510166168213,-1.9061808586120605,0.00858172494918108,2.0152993202209473,5.228384005814352,-0.0013464587973430753,0.19738976657390594,-1.5971220175372522,2.235909596493002e-05,-0.00711706280708313,0.7883468866348267,1.6606239938710132e-08,0.014711739495396614,0.8464300036430359,0.0050920299254357815,0.0940752848982811
383.0,340.0,-1.3113,0.2764,9.5689,-0.0377,0.0186,-0.1098,-1.7354690037169398,-0.02130015753209591,2.4078686237335205,-1.9060930013656616,0.011403698474168777,2.045201063156128,5.228296088963308,-0.002223157323896885,0.20004180073738098,-1.597081486378805,3.228667992516421e-05,-0.006514905020594597,0.7883673906326294,4.622407057813804e-12,0.017176833003759384,0.8464422821998596,0.0034787366166710854,0.01804223284125328
383.0,340.0,-1.3113,0.2764,9.5689,-0.0377,0.0186,-0.1098,-1.735633989373678,-0.023471001535654068,2.4070146083831787,-1.9060173034667969,0.013254210352897644,2.012474298477173,5.228336083679952,-0.004903259687125683,0.20666663348674774,-1.5970776716815394,4.1593550122343004e-05,0.025805532932281494,0.7883911728858948,1.2866640109447268e-15,0.020786819979548454,0.8464664220809937,0.001874958979897201,0.009127577766776085
383.0,340.0,-1.3113,0.2764,9.5689,-0.0377,0.0186,-0.1098,-1.7357989750304164,-0.023649349808692932,2.4262008666992188,-1.9059725999832153,0.01657571829855442,2.0319697856903076,5.228228020458975,-0.009655183181166649,0.1781160831451416,-1.597053352986471,5.027420411352068e-05,0.029032517224550247,0.7883151769638062,3.5814767269014046e-19,0.003476297715678811,0.8465266227722168,0.00132732221391052,-0.04448699951171875
383.0,340.0,-1.3113,0.2764,9.5689,-0.0377,0.0186,-0.1098,-1.735894342462057,-0.024027587845921516,2.3801093101501465,-1.9058328866958618,0.018986424431204796,2.0241453647613525,5.2281643626983545,-0.013126500882208347,0.19282983243465424,-1.5971344153033655,0.0003096504369750619,0.029108062386512756,0.7884234189987183,9.969172260656637e-23,0.019208543002605438,0.8464785218238831,0.0008574504172429442,-0.0536973662674427
383.0,340.0,-1.3113,0.2764,9.5689,-0.0377,0.0186,-0.1098,-1.7360264263548792,-0.024643709883093834,2.386345148086548,-1.905729055404663,0.02079659141600132,2.082974672317505,5.228060471802511,-0.01436537317931652,0.17625552415847778,-1.5970900694476526,0.00031391449738293886,0.039056695997714996,0.7883551120758057,2.7749556684757405e-26,0.01301512774080038,0.8465105891227722,0.0004949021968059242,-0.01840454526245594
383.0,340.0,-1.3113,0.2764,9.5689,-0.0377,0.0186,-0.1098,-1.7361661396422328,-0.024123728275299072,2.3697774410247803,-1.9055529832839966,0.021993363276124,2.0357284545898438,5.227992999344625,-0.015161705203354359,0.17081837356090546,-1.5970857779132288,0.0005284415674395859,0.04976426810026169,0.7883551120758057,7.724191811004672e-30,0.005083911586552858,0.8465147614479065,0.0003611190477386117,-0.0473499670624733
383.0,340.0,-1.3113,0.2764,9.5689,-0.0377,0.0186,-0.1098,-1.7363025150694789,-0.0249446090310812,2.356938362121582,-1.90537691116333,0.0248479675501585,2.0434796810150146,5.227828967362203,-0.016449088230729103,0.15577241778373718,-1.5970781485186976,0.0005971479113213718,0.037283435463905334,0.7883833646774292,2.150057227825698e-33,0.013740874826908112,0.8464784622192383,0.00023282927577383816,-0.05201473459601402
383.0,340.0,-1.3113,0.2764,9.5689,-0.0377,0.0186,-0.1098,-1.736467023889059,-0.025743326172232628,2.3512558937072754,-1.9052526950836182,0.026996787637472153,2.0558550357818604,5.227725732117452,-0.01935475692152977,0.15952220559120178,-1.59706956544985,0.0008722552447579801,0.05655393376946449,0.7883632183074951,5.984764581265826e-37,0.01468295231461525,0.8464944362640381,0.00014624622417613864,-0.07047350704669952
383.0,340.0,-1.3113,0.2764,9.5689,-0.0377,0.0186,-0.1098,-1.7365910015501917,-0.027119489386677742,2.316653251647949,-1.905008316040039,0.02919583022594452,2.045135498046875,5.22754596450881,-0.02371097356081009,0.16137506067752838,-1.5970137755023401,0.0018083786126226187,0.05110258609056473,0.7883350253105164,1.6658776273739858e-40,0.011141528375446796,0.8465105891227722,0.00012579956091940403,-0.10537394881248474
383.0,340.0,-1.3113,0.2764,9.5689,-0.0377,0.0186,-0.1098,-1.7368031940855921,-0.02777695469558239,2.331242561340332,-1.9048569202423096,0.03235988691449165,2.066908597946167,5.227414595871725,-0.028684137389063835,0.1608862578868866,-1.5970261732684534,0.003200134029611945,0.059321433305740356,0.7883714437484741,4.624284932271896e-44,0.011711407452821732,0.8464784622192383,-0.00017325633962173015,-0.11585288494825363
383.0,340.0,-1.3113,0.2764,9.5689,-0.0377,0.0186,-0.1098,-1.7368866405882777,-0.028038520365953445,2.3286895751953125,-1.904657006263733,0.03258832171559334,2.1261017322540283,5.227222728520193,-0.03732350468635559,0.13768959045410156,-1.5969694296466272,0.006646824534982443,0.06610888242721558,0.7883632183074951,0.0,0.00913279876112938,0.8464340567588806,-0.0008815254550427198,-0.16228722035884857
383.0,340.0,-1.3113,0.2764,9.5689,-0.0377,0.0186,-0.1098,-1.7370311222472132,-0.026366040110588074,2.318864107131958,-1.9044859409332275,0.03320771083235741,2.1275620460510254,5.226971375733175,-0.05082772672176361,0.1394340991973877,-1.596921745930807,0.024227963760495186,0.07492195814847946,0.7883951663970947,0.0,0.018564794212579727,0.8464663624763489,-0.0010388807859271765,-0.23951789736747742
383.0,340.0,-1.3113,0.2764,9.5689,-0.0377,0.0186,-0.1098,-1.7372523746886195,-0.024107644334435463,2.2958555221557617,-1.9042859077453613,0.03390601649880409,2.1199045181274414,5.226592409401693,-0.07216205447912216,0.1288585662841797,-1.5967777411090296,0.02559518814086914,0.08183540403842926,0.7883350849151611,0.0,0.006206554360687733,0.8464464545249939,-0.0015332454349845648,-0.22487446665763855
383.0,340.0,-1.3113,0.2764,9.5689,-0.0377,0.0186,-0.1098,-1.7374121151366175,-0.023779727518558502,2.2941529750823975,-1.9040653705596924,0.03309079259634018,2.101210355758667,5.2260413048561,-0.10243789851665497,0.09659108519554138,-1.5966737906085413,0.011936605907976627,0.07897056639194489,0.7883715033531189,0.0,0.014809168875217438,0.8464261889457703,-0.0020297940354794264,-0.17579957842826843
376.0,338.0,-1.4997,0.4331,9.7065,-0.0305,0.0092,-0.1306,-1.7374922237791957,-0.022920720279216766,2.3281779289245605,-1.9038448333740234,0.03318101167678833,2.096910238265991,5.225351500302114,-0.13871149718761444,0.08364352583885193,-1.5966861883746546,-0.0007914601010270417,0.07957227528095245,0.7884278297424316,0.0,0.008549420163035393,0.84641432762146,-0.002933408133685589,-0.2205287367105484
376.0,338.0,-1.4997,0.4331,9.7065,-0.0305,0.0092,-0.1306,-1.7376400432982386,-0.022918524220585823,2.3696420192718506,-1.9036686420440674,0.0327460840344429,2.1047682762145996,5.224345254689016,-0.16143353283405304,0.07540813088417053,-1.5967062155352991,-0.0023213650565594435,0.059342604130506516,0.7883155345916748,0.0,-0.005971208214759827,0.846342146396637,-0.004598461557179689,-0.2687758803367615
376.0,338.0,-1.4997,0.4331,9.7065,-0.0305,0.0092,-0.1306,-1.7377845249571742,-0.021801628172397614,2.2896032333374023,-1.9034571647644043,0.0322524756193161,2.0883588790893555,5.223415720253744,-0.17706292867660522,0.08261574804782867,-1.5966900030719202,-0.0007018395117484033,0.08969815075397491,0.7883551120758057,0.0,-0.0008882615366019309,0.8463259935379028,-0.005638451315462589,-0.3132736086845398
376.0,338.0,-1.4997,0.4331,9.7065,-0.0305,0.0092,-0.1306,-1.7379209003844203,-0.02125617116689682,2.3330554962158203,-1.9032738208770752,0.03388093411922455,2.105257034301758,5.222264158516683,-0.22240297496318817,0.05750567838549614,-1.5966656843768519,-0.00012877682456746697,0.0788600891828537,0.7883234620094299,2.7377695914765354e-06,0.005385726690292358,0.8463102579116821,-0.006456531118601561,-0.22227472066879272
376.0,338.0,-1.4997,0.4331,9.7065,-0.0305,0.0092,-0.1306,-1.7380043468871058,-0.018860086798667908,2.3589906692504883,-1.9030779600143433,0.03472255915403366,2.082136869430542,5.220805752068319,-0.24346886575222015,0.05870790779590607,-1.5967019240008753,-1.2334431630733889e-05,0.09312618523836136,0.7883714437484741,7.620683528664074e-10,-0.0018988887313753366,0.8462382555007935,-0.006704326719045639,-0.2524304986000061
376.0,338.0,-1.4997,0.4331,9.7065,-0.0305,0.0092,-0.1306,-1.7381049595274867,-0.016535894945263863,2.358511209487915,-1.9028054475784302,0.038006238639354706,2.074106216430664,5.219293522625723,-0.2641390562057495,0.0416230708360672,-1.5966375509845179,-3.433334283542422e-09,0.09467673301696777,0.7882950901985168,2.121245345175493e-13,0.004587532952427864,0.846213698387146,-0.0071586305275559425,-0.27863770723342896
376.0,338.0,-1.4997,0.4331,9.7065,-0.0305,0.0092,-0.1306,-1.7381483517088832,-0.014092263765633106,2.395153760910034,-1.9026623964309692,0.038955748081207275,2.089104652404785,5.217549729138174,-0.2953188717365265,0.019798293709754944,-1.5966737906085413,-9.556812806399417e-13,0.08452034741640091,0.7883267998695374,5.904564104913771e-17,0.00878859218209982,0.8461781740188599,-0.00782189704477787,-0.2116415649652481
376.0,338.0,-1.4997,0.4331,9.7065,-0.0305,0.0092,-0.1306,-1.738321443597311,-0.012002857401967049,2.399643659591675,-1.9023940563201904,0.04110448807477951,2.0899100303649902,5.21573035696105,-0.3249191343784332,0.023201119154691696,-1.5966861883746546,-2.6601739393945225e-16,0.09409275650978088,0.7883673906326294,1.6435571477068618e-20,0.00027091483934782445,0.8461825847625732,-0.007580596022307873,-0.2422989010810852
376.0,338.0,-1.4997,0.4331,9.7065,-0.0305,0.0092,-0.1306,-1.7383572063841761,-0.009933232329785824,2.3846209049224854,-1.9020969867706299,0.04522262141108513,2.055201530456543,5.213527428894796,-0.363725483417511,0.014519686810672283,-1.5966575781451624,-7.404692076436545e-20,0.09365291148424149,0.7882993221282959,4.574901395507463e-24,0.01295989379286766,0.8461346626281738,-0.00670728599652648,-0.29442065954208374
376.0,338.0,-1.4997,0.4331,9.7065,-0.0305,0.0092,-0.1306,-1.738368650475973,-0.00720274867489934,2.3472447395324707,-1.9018181562423706,0.05085638910531998,2.0999107360839844,5.211261021881857,-0.4008009433746338,-0.006719261407852173,-1.5966413656817835,-2.0611234669313382e-23,0.08121921122074127,0.7883551716804504,1.2734406718543843e-27,-0.010753397829830647,0.8460784554481506,-0.0067749712616205215,-0.25043749809265137
376.0,338.0,-1.4997,0.4331,9.7065,-0.0305,0.0092,-0.1306,-1.7384411297240199,-0.0046140579506754875,2.347473382949829,-1.901457667350769,0.056894659996032715,2.082240343093872,5.2086791572864435,-0.4308303892612457,-0.04915648326277733,-1.5966580549823206,-5.737213185535391e-27,0.09956712275743484,0.7882992029190063,3.5446684202718236e-31,-0.0021394272334873676,0.8460584282875061,-0.005767349619418383,-0.30472856760025024
376.0,338.0,-1.4997,0.4331,9.7065,-0.0305,0.0092,-0.1306,-1.7384449444212855,-0.002193271415308118,2.417236804962158,-1.9010496139526367,0.0638308972120285,2.130539894104004,5.2060099122817896,-0.4590573310852051,-0.023647833615541458,-1.5966575781451624,-1.596974150959339e-30,0.08323708176612854,0.7883673906326294,9.866713871718418e-35,0.0021645433735102415,0.8460261225700378,-0.005404134746640921,-0.28306451439857483
376.0,338.0,-1.4997,0.4331,9.7065,-0.0305,0.0092,-0.1306,-1.738493104974264,-0.0014257547445595264,2.430788278579712,-1.9006373882293701,0.07029972225427628,2.137122392654419,5.203016507416525,-0.4990323483943939,-0.05305086076259613,-1.5966456572162073,-4.4452361209226195e-34,0.09097892045974731,0.7883673906326294,2.74643624931581e-38,0.011661170050501823,0.8459780812263489,-0.004219821188598871,-0.3145783543586731
376.0,338.0,-1.4997,0.4331,9.7065,-0.0305,0.0092,-0.1306,-1.7384168110289515,-0.0007023593061603606,2.388779640197754,-1.9001535177230835,0.07819996774196625,2.102809190750122,5.199840831547537,-0.5455304980278015,-0.048022475093603134,-1.5966575781451624,-1.2373478892453392e-37,0.08326876163482666,0.7883194088935852,7.645484421356202e-42,0.007199129089713097,0.8459135293960571,-0.0036964192986488342,-0.24962767958641052
376.0,338.0,-1.4997,0.4331,9.7065,-0.0305,0.0092,-0.1306,-1.7384287319579066,-0.0005738777108490467,2.4246246814727783,-1.8996819257736206,0.08554324507713318,2.176285743713379,5.196433651238241,-0.5767073631286621,-0.04139205813407898,-1.596694294606344,-3.444251495463968e-41,0.07431023567914963,0.7883551716804504,2.802596928649634e-45,0.010047893039882183,0.8459702134132385,-0.00301923556253314,-0.2384214997291565
360.0,332.0,-2.528,0.0048,9.9595,-0.0336,-0.3099,-0.1323,-1.7384206257262171,-0.0004350990056991577,2.4443840980529785,-1.8991132974624634,0.09175794571638107,2.1433205604553223,5.192874091654577,-0.6119949221611023,-0.05555075407028198,-1.596661392842428,-9.80908925027372e-45,0.08214348554611206,0.7883227467536926,0.0,-0.0012554177083075047,0.8459222316741943,-0.0027253704611212015,-0.29353898763656616
360.0,332.0,-2.528,0.0048,9.9595,-0.0336,-0.3099,-0.1323,-1.7384168110289515,-0.0003503839543554932,2.4273643493652344,-1.8985061645507812,0.09808913618326187,2.1351914405822754,5.189155447274008,-0.6390442252159119,-0.04609822481870651,-1.5966780821429651,-0.0,0.08872824162244797,0.7883591055870056,0.0,-0.003109330777078867,0.8459060192108154,-0.0023935125209391117,-0.25905752182006836
360.0,332.0,-2.528,0.0048,9.9595,-0.0336,-0.3099,-0.1323,-1.7384325466551722,-0.0002932846255134791,2.4177286624908447,-1.8979538679122925,0.1039896085858345,2.081280469894409,5.185160505562582,-0.6648969054222107,-0.03531912714242935,-1.5966413656817835,-0.0,0.07589397579431534,0.7882788181304932,0.0,0.006055016536265612,0.8458336591720581,-0.0021248538978397846,-0.27980417013168335
360.0,332.0,-2.528,0.0048,9.9595,-0.0336,-0.3099,-0.1323,-1.738420148889059,-0.0002521896967664361,2.445180654525757,-1.8971812725067139,0.11560528725385666,2.17270827293396,5.181046712189474,-0.6964386105537415,-0.06369645893573761,-1.5966780821429651,-0.0,0.08691629022359848,0.788411557674408,0.0,-0.010020527057349682,0.84589022397995,-0.001745113404467702,-0.23682409524917603
360.0,332.0,-2.528,0.0048,9.9595,-0.0336,-0.3099,-0.1323,-1.7384654484190882,-0.0002211968821939081,2.4636664390563965,-1.8965418338775635,0.12188450992107391,2.1720008850097656,5.176791089564123,-0.7234327793121338,-0.027925852686166763,-1.5966900030719202,-0.0,0.07122518867254257,0.7883471846580505,0.0,-0.008850226178765297,0.8458659648895264,-0.0015842891298234463,-0.257938414812088
360.0,332.0,-2.528,0.0048,9.9595,-0.0336,-0.3099,-0.1323,-1.7383886776366175,-0.00019698859250638634,2.494581460952759,-1.895774245262146,0.1312805712223053,2.149472713470459,5.172368782549658,-0.7497793436050415,-0.039568573236465454,-1.5966737906085413,-0.0,0.08100684732198715,0.7883471846580505,0.0,0.019033167511224747,0.8458418846130371,-0.001514551928266883,-0.21531710028648376
360.0,332.0,-2.528,0.0048,9.9595,-0.0336,-0.3099,-0.1323,-1.738436838189596,-0.00017755638691596687,2.461364984512329,-1.894910216331482,0.14287787675857544,2.2369532585144043,5.1676852879817865,-0.7658216953277588,-0.03102327510714531,-1.596661392842428,-0.0,0.06526470184326172,0.7883632183074951,0.0,-0.0075307306833565235,0.845829963684082,-0.0010197125375270844,-0.22925624251365662
360.0,332.0,-2.528,0.0048,9.9595,-0.0336,-0.3099,-0.1323,-1.7384325466551722,-0.00016161386156454682,2.4869511127471924,-1.8940906524658203,0.14700068533420563,2.2004189491271973,5.163061785488882,-0.7811540365219116,-0.032062798738479614,-1.5966656843768519,-0.0,0.0473918616771698,0.7883356809616089,0.0,0.0027624638751149178,0.8458217978477478,-0.0009693925967440009,-0.2984437644481659
360.0,332.0,-2.528,0.0048,9.9595,-0.0336,-0.3099,-0.1323,-1.7384125194945277,-0.00014829861174803227,2.471557378768921,-1.8932232856750488,0.15182924270629883,2.211531162261963,5.15840499380187,-0.798374593257904,-0.033315230160951614,-1.5966456572162073,-0.0,0.06957578659057617,0.7883227467536926,0.0,0.003779279999434948,0.8458259105682373,-0.0007764382171444595,-0.22580449283123016
360.0,332.0,-2.528,0.0048,9.9595,-0.0336,-0.3099,-0.1323,-1.738436838189596,-0.00011417675705160946,2.471160411834717,-1.8922227621078491,0.16284695267677307,2.1388959884643555,5.153608786850729,-0.7949684858322144,-0.019233498722314835,-1.5966575781451624,-0.0,0.05776122212409973,0.7883468866348267,0.0,0.0028894897550344467,0.8458095788955688,-0.0006327602313831449,-0.19737854599952698
360.0,332.0,-2.528,0.0048,9.9595,-0.0336,-0.3099,-0.1323,-1.7383929691710414,-8.487980085192248e-05,2.511049747467041,-1.8912479877471924,0.17597375810146332,2.210895538330078,5.1488162753875635,-0.8068249225616455,-0.025379111990332603,-1.5966981093036097,-0.0,0.059015825390815735,0.7883315086364746,0.0,0.0031032650731503963,0.8458700776100159,-0.00048620483721606433,-0.2088918685913086
360.0,332.0,-2.528,0.0048,9.9595,-0.0336,-0.3099,-0.1323,-1.7384449444212855,-7.927237311378121e-05,2.5413408279418945,-1.8900866508483887,0.18290936946868896,2.1862738132476807,5.144023763924398,-0.8037547469139099,-0.014771020971238613,-1.596649471913473,-0.0,0.050278015434741974,0.7883753776550293,0.0,0.0030452380888164043,0.8458095788955688,-0.00045117802801541984,-0.13036693632602692
360.0,332.0,-2.528,0.0048,9.9595,-0.0336,-0.3099,-0.1323,-1.7384325466551722,-2.0176503312541172e-05,2.567917585372925,-1.8889873027801514,0.1898684799671173,2.2073259353637695,5.139193671732702,-0.8055198788642883,-0.02106677182018757,-1.5966857115374964,-0.0,0.029071148484945297,0.7883234620094299,0.0,-0.009504705667495728,0.8458783030509949,-0.0003797736135311425,-0.1605173647403717
360.0,332.0,-2.528,0.0048,9.9595,-0.0336,-0.3099,-0.1323,-1.7384325466551722,-1.8828675820259377e-05,2.5339534282684326,-1.887847900390625,0.19527852535247803,2.218965768814087,5.134403246432104,-0.8004834055900574,-0.012441454455256462,-1.5966780821429651,-0.0,0.04216616600751877,0.7883033752441406,0.0,-0.004514618776738644,0.8458218574523926,-0.00028690259205177426,-0.17055454850196838
360.0,332.0,-2.528,0.0048,9.9595,-0.0336,-0.3099,-0.1323,-1.7384735546507777,-1.7716733054840006e-05,2.5642504692077637,-1.886628270149231,0.20388957858085632,2.280306339263916,5.129646736174383,-0.7919396162033081,-0.0051115695387125015,-1.5966737906085413,-0.0,0.04166536033153534,0.7883194088935852,0.0,-0.0021307191345840693,0.8458013534545898,-8.723042265046388e-05,-0.16096559166908264
347.0,344.0,-0.8411,0.0335,10.1151,-0.036,-0.6313,-0.1151,-1.7384330234923304,-1.6728805348975584e-05,2.5471248626708984,-1.885435938835144,0.2147994041442871,2.2140486240386963,5.124927300005712,-0.7872395515441895,0.0029435092583298683,-1.596694294606344,-0.0,0.0458904467523098,0.7882951498031616,0.0,-0.006580496672540903,0.8458054661750793,-0.00011339215416228399,-0.1150476261973381
347.0,344.0,-0.8411,0.0335,10.1151,-0.036,-0.6313,-0.1151,-1.7384005985655726,-1.584525489306543e-05,2.5787951946258545,-1.884120225906372,0.22448569536209106,2.2678170204162598,5.120055424958029,-0.7788760662078857,0.0071767764165997505,-1.5966900030719202,-0.0,0.02575566992163658,0.7882915139198303,0.0,0.003597301198169589,0.8458501100540161,0.00011957898095715791,-0.15435807406902313
347.0,344.0,-0.8411,0.0335,10.1151,-0.036,-0.6313,-0.1151,-1.7384535274901332,-1.5050343790790066e-05,2.5320534706115723,-1.882796049118042,0.2240324467420578,2.241302013397217,5.115490811854162,-0.7747352719306946,0.005251593422144651,-1.596677605305807,-0.0,0.038345057517290115,0.78835129737854,0.0,0.0014418628998100758,0.8458377718925476,8.606821211287752e-05,-0.1744464784860611
347.0,344.0,-0.8411,0.0335,10.1151,-0.036,-0.6313,-0.1151,-1.7384168110289515,-1.4331376405607443e-05,2.578138828277588,-1.8814122676849365,0.2378890961408615,2.2374069690704346,5.110799360066213,-0.7668464779853821,0.008327135816216469,-1.5966737906085413,-0.0,0.036657318472862244,0.7882710695266724,0.0,0.0019505064701661468,0.8458741903305054,0.00013371038949117064,-0.13043394684791565
347.0,344.0,-0.8411,0.0335,10.1151,-0.036,-0.6313,-0.1151,-1.7384692631163539,-1.3677970855496824e-05,2.573002338409424,-1.8800082206726074,0.25431832671165466,2.312251091003418,5.106206643372335,-0.7573063969612122,0.016261110082268715,-1.5966900030719202,-0.0,0.039238180965185165,0.7883471846580505,0.0,-0.0065945470705628395,0.8458095788955688,0.00010936614853562787,-0.12264956533908844
347.0,344.0,-0.8411,0.0335,10.1151,-0.036,-0.6313,-0.1151,-1.7384973965086878,-2.5641753381933086e-05,2.5755455493927,-1.878549337387085,0.25566989183425903,2.306334972381592,5.101848768978872,-0.7515764832496643,0.0036919654812663794,-1.596621338521139,-0.0001208033791044727,0.028433602303266525,0.7882871031761169,0.0,0.009512926451861858,0.8458741903305054,4.647704554372467e-05,-0.0950782299041748
347.0,344.0,-0.8411,0.0335,10.1151,-0.036,-0.6313,-0.1151,-1.7384411297240199,-0.00012113418779335916,2.606632709503174,-1.8768938779830933,0.2584574222564697,2.309412717819214,5.097395586758413,-0.7520280480384827,0.005331229418516159,-1.5966900030719202,-0.00011335912859067321,0.04520460218191147,0.7883673906326294,0.0,-0.004506991244852543,0.8458341360092163,4.007270035799593e-05,-0.12125494331121445
