ramyac6/ROB537/final_project/csv/bad/bad_48.csv
tof_0,tof_1,accelx,accely,accelz,gyrox,gyroy,gyroz,shoulder_lift_joint_position,shoulder_lift_joint_velocity,shoulder_lift_joint_effort,elbow_joint_position,elbow_joint_velocity,elbow_joint_effort,wrist_1_joint_position,wrist_1_joint_velocity,wrist_1_joint_effort,wrist_2_joint_position,wrist_2_joint_velocity,wrist_2_joint_effort,wrist_3_joint_position,wrist_3_joint_velocity,wrist_3_joint_effort,shoulder_pan_joint_position,shoulder_pan_joint_velocity,shoulder_pan_joint_effort
284.0,255.0,-0.5079,0.7615,9.5414,-0.0371,0.0211,-0.1093,-1.825827261010641,0.0,3.1021580696105957,-1.7292484045028687,-0.0,2.0273892879486084,5.069510686188497,0.0,0.2763381004333496,-1.621138874684469,-0.0,-0.007872154004871845,0.46609774231910706,-0.0,-0.0020584133453667164,1.1584621667861938,0.0,-0.025442101061344147
284.0,255.0,-0.5079,0.7615,9.5414,-0.0371,0.0211,-0.1093,-1.8258029423155726,0.0,3.1033480167388916,-1.729183316230774,-0.0,2.025787591934204,5.069474327355184,0.0,0.25975531339645386,-1.6211431662188929,-0.0,-0.01093236356973648,0.46602922677993774,-0.0,-0.0028044222854077816,1.1584426164627075,0.0,0.006379830185323954
284.0,255.0,-0.5079,0.7615,9.5414,-0.0371,0.0211,-0.1093,-1.8257791004576625,0.0,3.1397616863250732,-1.7292276620864868,-0.0,1.9939069747924805,5.069554555207052,0.0,0.2796146273612976,-1.6211469809161585,-0.0,-0.010866916738450527,0.4660493731498718,-0.0,0.011287029832601547,1.1584384441375732,0.0,0.014588841237127781
284.0,255.0,-0.5079,0.7615,9.5414,-0.0371,0.0211,-0.1093,-1.825787206689352,0.0,3.1064867973327637,-1.7292112112045288,-0.0,2.053925037384033,5.0695708868797205,0.0,0.27594995498657227,-1.6211469809161585,-0.0,0.007383379619568586,0.46603748202323914,-0.0,-0.005860772915184498,1.1584506034851074,0.0,-0.03122667223215103
284.0,255.0,-0.5079,0.7615,9.5414,-0.0371,0.0211,-0.1093,-1.825827261010641,0.0,3.089977264404297,-1.7292360067367554,-0.0,2.0393593311309814,5.069550502091207,0.0,0.27450063824653625,-1.6211231390582483,-0.0,-0.02229856140911579,0.46601712703704834,-0.0,-0.005345774348825216,1.1584426164627075,0.0,0.007573658600449562
284.0,255.0,-0.5079,0.7615,9.5414,-0.0371,0.0211,-0.1093,-1.8258115253844203,0.0,3.1052732467651367,-1.729186773300171,-0.0,2.0069990158081055,5.069538581162252,0.0,0.2783874571323395,-1.6211069265948694,-0.0,0.002407399471849203,0.46606162190437317,-0.0,-0.005603651516139507,1.1584105491638184,0.0,-0.03538599982857704
284.0,255.0,-0.5079,0.7615,9.5414,-0.0371,0.0211,-0.1093,-1.8257910213866175,0.0,3.104477882385254,-1.729130744934082,-0.0,2.0009522438049316,5.069566803961553,0.0,0.27945882081985474,-1.6211398283587855,-0.0,-0.011531148105859756,0.46603745222091675,-0.0,-0.008111448958516121,1.158482551574707,0.0,-0.0027158265002071857
284.0,255.0,-0.5079,0.7615,9.5414,-0.0371,0.0211,-0.1093,-1.8257791004576625,0.0,3.1409988403320312,-1.7292276620864868,-0.0,2.0196895599365234,5.069522607117452,0.0,0.27563488483428955,-1.6211150328265589,-0.0,-0.0027044364251196384,0.46608543395996094,-0.0,0.004237128887325525,1.1584784984588623,0.0,-0.015422198921442032
284.0,255.0,-0.5079,0.7615,9.5414,-0.0371,0.0211,-0.1093,-1.8258234463133753,0.0,3.106161594390869,-1.7292442321777344,-0.0,2.0111379623413086,5.069462406426229,0.0,0.28659045696258545,-1.6211193243609827,-0.0,-0.003605009987950325,0.466077595949173,-0.0,-0.00868428684771061,1.1584621667861938,0.0,0.02421458810567856
284.0,255.0,-0.5079,0.7615,9.5414,-0.0371,0.0211,-0.1093,-1.825754304925436,0.0,3.1278998851776123,-1.729183316230774,-0.0,2.1027679443359375,5.069550859719076,0.0,0.2670101523399353,-1.62109882036318,-0.0,-0.00896107405424118,0.4660854637622833,-0.0,-0.006453800015151501,1.1584588289260864,0.0,0.01629731059074402
289.0,258.0,-0.5354,0.7543,9.6275,-0.0388,0.0162,-0.1148,-1.8258034191527308,0.0,3.110100746154785,-1.729248285293579,-0.0,2.01434063911438,5.069542276650228,0.0,0.2696302533149719,-1.6211231390582483,-0.0,-0.008785692974925041,0.46606165170669556,-0.0,-0.004075181670486927,1.1584582328796387,0.0,-0.017644742503762245
289.0,258.0,-0.5354,0.7543,9.6275,-0.0388,0.0162,-0.1148,-1.8258434734740199,0.0,3.123725414276123,-1.7291874885559082,-0.0,2.0232019424438477,5.069530713349142,0.0,0.2844359576702118,-1.6210950056659144,-0.0,0.002255735220387578,0.466077595949173,-0.0,0.0061376821249723434,1.158430576324463,0.0,0.017170270904898643
289.0,258.0,-0.5354,0.7543,9.6275,-0.0388,0.0162,-0.1148,-1.8258148632445277,0.0,3.1126832962036133,-1.729198932647705,-0.0,2.0328962802886963,5.0695708868797205,0.0,0.26466163992881775,-1.621138874684469,-0.0,-0.010941600427031517,0.4660775661468506,-0.0,0.013066226616501808,1.1584784984588623,0.0,0.06638175994157791
289.0,258.0,-0.5354,0.7543,9.6275,-0.0388,0.0162,-0.1148,-1.8258234463133753,0.0,3.1196534633636475,-1.7292195558547974,-0.0,2.0815036296844482,5.069550502091207,0.0,0.2681981325149536,-1.621086899434225,-0.0,-0.004272380843758583,0.4659932851791382,-0.0,-0.008243270218372345,1.1584582328796387,0.0,0.007562156766653061
289.0,258.0,-0.5354,0.7543,9.6275,-0.0388,0.0162,-0.1148,-1.8257585964598597,0.0,3.1099801063537598,-1.729186773300171,-0.0,2.014474391937256,5.069522607117452,0.0,0.2812054753303528,-1.6211231390582483,-0.0,-0.01318303868174553,0.46608951687812805,-0.0,-0.0002644581254571676,1.1584506034851074,0.0,0.02841700240969658
289.0,258.0,-0.5354,0.7543,9.6275,-0.0388,0.0162,-0.1148,-1.825872083703512,0.0,3.1038527488708496,-1.7291908264160156,-0.0,2.0058720111846924,5.069554555207052,0.0,0.2729172706604004,-1.6211069265948694,-0.0,0.000818381377030164,0.466025173664093,-0.0,0.009555681608617306,1.1584064960479736,0.0,-0.03610622510313988
289.0,258.0,-0.5354,0.7543,9.6275,-0.0388,0.0162,-0.1148,-1.825770994225973,0.0,3.097618818283081,-1.7291791439056396,-0.0,2.0262961387634277,5.069594996958532,0.0,0.2736775875091553,-1.6211431662188929,-0.0,0.006646560505032539,0.466077983379364,-0.0,0.015368775464594364,1.1584582328796387,0.0,-0.0034797328989952803
289.0,258.0,-0.5354,0.7543,9.6275,-0.0388,0.0162,-0.1148,-1.8257953129210414,0.0,3.092189311981201,-1.7291710376739502,-0.0,2.0474908351898193,5.069558638125219,0.0,0.2745034992694855,-1.6211274305926722,-0.0,-0.005114516708999872,0.46601298451423645,-0.0,-0.0033606975339353085,1.158414602279663,0.0,-0.023024683818221092
289.0,258.0,-0.5354,0.7543,9.6275,-0.0388,0.0162,-0.1148,-1.8258029423155726,0.0,3.0875725746154785,-1.7292031049728394,-0.0,1.966085433959961,5.069554555207052,0.0,0.26873016357421875,-1.6211593786822718,-0.0,-0.0015398729592561722,0.4660252332687378,-0.0,0.005383655428886414,1.1584663391113281,0.0,0.037359483540058136
289.0,258.0,-0.5354,0.7543,9.6275,-0.0388,0.0162,-0.1148,-1.825799127618307,0.0,3.122075319290161,-1.7291752099990845,-0.0,2.015594005584717,5.069538581162252,0.0,0.28261733055114746,-1.6210749785052698,-0.0,-0.011418377049267292,0.46607351303100586,-0.0,-0.008778736926615238,1.1584426164627075,0.0,0.003008355386555195
289.0,258.0,-0.5354,0.7543,9.6275,-0.0388,0.0162,-0.1148,-1.8258072338499964,0.0,3.128986358642578,-1.7292031049728394,-0.0,2.004762887954712,5.069554555207052,0.0,0.2795379161834717,-1.621138874684469,-0.0,-0.01756543107330799,0.466077595949173,-0.0,-0.007179218344390392,1.1584745645523071,0.0,0.015126372687518597
289.0,258.0,-0.5354,0.7543,9.6275,-0.0388,0.0162,-0.1148,-1.825787206689352,0.0,3.132291793823242,-1.7291998863220215,-0.0,2.002608060836792,5.06950660327033,0.0,0.2801021933555603,-1.621131722127096,-0.0,-0.012038283050060272,0.46608543395996094,-0.0,0.011535018682479858,1.158490777015686,0.0,0.0169481560587883
289.0,258.0,-0.5354,0.7543,9.6275,-0.0388,0.0162,-0.1148,-1.825787206689352,0.0,3.170300006866455,-1.7292473316192627,-0.0,2.024813652038574,5.069522607117452,0.0,0.28622689843177795,-1.6211469809161585,-0.0,-0.012860510498285294,0.4660615921020508,-0.0,-0.0032240119762718678,1.1584224700927734,0.0,0.031637683510780334
289.0,258.0,-0.5354,0.7543,9.6275,-0.0388,0.0162,-0.1148,-1.8257791004576625,0.0,3.1030001640319824,-1.7292277812957764,-0.0,1.9618221521377563,5.069518524199285,0.0,0.27210554480552673,-1.621155087147848,-0.0,-0.0024073526728898287,0.4660371243953705,-0.0,-0.0089782839640975,1.1584384441375732,0.0,0.03351476043462753
289.0,258.0,-0.5354,0.7543,9.6275,-0.0388,0.0162,-0.1148,-1.825770994225973,0.0,3.1290125846862793,-1.7291710376739502,-0.0,2.04691743850708,5.069522607117452,0.0,0.26959991455078125,-1.621138874684469,-0.0,-0.01350254938006401,0.46598920226097107,-0.0,-0.0056145526468753815,1.1584064960479736,0.0,0.034223780035972595
289.0,258.0,-0.5354,0.7543,9.6275,-0.0388,0.0162,-0.1148,-1.8258191547789515,0.0,3.0847020149230957,-1.7291151285171509,-0.0,2.0449671745300293,5.0695708868797205,0.0,0.2745133638381958,-1.6211231390582483,-0.0,-0.008203304372727871,0.46604156494140625,-0.0,-0.011961703188717365,1.1584384441375732,0.0,0.010332740843296051
289.0,258.0,-0.5354,0.7543,9.6275,-0.0388,0.0162,-0.1148,-1.8257953129210414,0.0,3.1279454231262207,-1.729183316230774,-0.0,1.9904859066009521,5.0695345280464075,0.0,0.2729140520095825,-1.6211231390582483,-0.0,-0.013240952044725418,0.4660334587097168,-0.0,0.008548442274332047,1.1584465503692627,0.0,0.03669074922800064
289.0,258.0,-0.5354,0.7543,9.6275,-0.0388,0.0162,-0.1148,-1.8257791004576625,0.0,3.0965676307678223,-1.7291752099990845,-0.0,2.0526909828186035,5.069530355721273,0.0,0.27415207028388977,-1.621155087147848,-0.0,-0.010891017504036427,0.4660976827144623,-0.0,0.001958720153197646,1.1585065126419067,0.0,0.020080771297216415
289.0,258.0,-0.5354,0.7543,9.6275,-0.0388,0.0162,-0.1148,-1.8258434734740199,0.0,3.112107276916504,-1.729198932647705,-0.0,2.024895668029785,5.069554555207052,0.0,0.26975715160369873,-1.621110741292135,-0.0,0.0075051551684737206,0.46605753898620605,-0.0,-0.020197926089167595,1.1584588289260864,0.0,0.021962227299809456
292.0,259.0,-0.518,0.7501,9.5731,-0.035,0.0244,-0.1194,-1.825787206689352,0.0,3.1404833793640137,-1.7292237281799316,-0.0,2.0313150882720947,5.0695345280464075,0.0,0.2679166793823242,-1.6211150328265589,-0.0,-0.025414496660232544,0.46604976058006287,-0.0,-0.0032560518011450768,1.158490777015686,0.0,-0.013764914125204086
292.0,259.0,-0.518,0.7501,9.5731,-0.035,0.0244,-0.1194,-1.8258034191527308,0.0,3.147059917449951,-1.7291513681411743,-0.0,1.9782785177230835,5.069554555207052,0.0,0.27735066413879395,-1.6211345831500452,-0.0,-0.0028305493760854006,0.4660612940788269,-0.0,0.002710179891437292,1.1584621667861938,0.0,0.009198560379445553
292.0,259.0,-0.518,0.7501,9.5731,-0.035,0.0244,-0.1194,-1.8257791004576625,0.0,3.137641191482544,-1.7291430234909058,-0.0,2.002701997756958,5.069554555207052,0.0,0.2671484053134918,-1.621155087147848,-0.0,-0.010244958102703094,0.46602925658226013,-0.0,-0.002461192198097706,1.1584465503692627,0.0,0.015878718346357346
292.0,259.0,-0.518,0.7501,9.5731,-0.035,0.0244,-0.1194,-1.8258072338499964,0.0,3.0986485481262207,-1.7292195558547974,-0.0,1.9754517078399658,5.069526660233297,0.0,0.2758947014808655,-1.6211274305926722,-0.0,0.0062116170302033424,0.46610987186431885,-0.0,-0.00684158643707633,1.1584343910217285,0.0,-0.0037964105140417814
292.0,259.0,-0.518,0.7501,9.5731,-0.035,0.0244,-0.1194,-1.825787206689352,0.0,3.150242328643799,-1.7291710376739502,-0.0,2.0606837272644043,5.069542634278097,0.0,0.2816517651081085,-1.621138874684469,-0.0,0.003106155898422003,0.46608951687812805,-0.0,-0.0049822572618722916,1.1584540605545044,0.0,-0.008976653218269348
292.0,259.0,-0.518,0.7501,9.5731,-0.035,0.0244,-0.1194,-1.8258115253844203,0.0,3.1466174125671387,-1.7292556762695312,-0.0,1.9905011653900146,5.069550502091207,0.0,0.27546975016593933,-1.6211431662188929,-0.0,-0.023523742333054543,0.4660772383213043,-0.0,-0.010315529070794582,1.1584863662719727,0.0,-0.03131667152047157
292.0,259.0,-0.518,0.7501,9.5731,-0.035,0.0244,-0.1194,-1.8257953129210414,0.0,3.100825548171997,-1.729183316230774,-0.0,2.0451889038085938,5.069542634278097,0.0,0.2789127826690674,-1.62109882036318,-0.0,-0.007989262230694294,0.4660654067993164,-0.0,0.016543375328183174,1.1584343910217285,0.0,-0.006543681025505066
292.0,259.0,-0.518,0.7501,9.5731,-0.035,0.0244,-0.1194,-1.825742860833639,0.0,3.1296043395996094,-1.7291265726089478,-0.0,2.0431160926818848,5.069526660233297,0.0,0.28323715925216675,-1.6210830847369593,-0.0,-0.00240123039111495,0.4660375118255615,-0.0,0.0050899554044008255,1.1584346294403076,0.0,-0.0076704747043550014
292.0,259.0,-0.518,0.7501,9.5731,-0.035,0.0244,-0.1194,-1.825770994225973,0.0,3.077366352081299,-1.7292113304138184,-0.0,2.0959925651550293,5.069510686188497,0.0,0.26339808106422424,-1.6211150328265589,-0.0,-0.017676297575235367,0.4660049378871918,-0.0,-0.0014623291790485382,1.1584384441375732,0.0,-0.006633223965764046
292.0,259.0,-0.518,0.7501,9.5731,-0.035,0.0244,-0.1194,-1.825770994225973,0.0,3.1075806617736816,-1.7291626930236816,-0.0,1.9928948879241943,5.069538581162252,0.0,0.26688069105148315,-1.6211231390582483,-0.0,-0.011816518381237984,0.4660935401916504,-0.0,-0.004333601798862219,1.1584663391113281,0.0,-0.02895767241716385
292.0,259.0,-0.518,0.7501,9.5731,-0.035,0.0244,-0.1194,-1.8258034191527308,0.0,3.1232857704162598,-1.7291792631149292,-0.0,2.009119749069214,5.069526660233297,0.0,0.2761322259902954,-1.6210711638080042,-0.0,-0.008780274540185928,0.4660494327545166,-0.0,0.006089442875236273,1.1584384441375732,0.0,-0.007917476817965508
292.0,259.0,-0.518,0.7501,9.5731,-0.035,0.0244,-0.1194,-1.8258315525450648,0.0,3.167755603790283,-1.729166865348816,-0.0,2.008880615234375,5.069538581162252,0.0,0.27802708745002747,-1.6211274305926722,-0.0,-0.01079328078776598,0.46601295471191406,-0.0,-0.004240109585225582,1.1584343910217285,0.0,-0.014166111126542091
292.0,259.0,-0.518,0.7501,9.5731,-0.035,0.0244,-0.1194,-1.8258234463133753,0.0,3.1190311908721924,-1.729183316230774,-0.0,2.022879123687744,5.069522607117452,0.0,0.2801956832408905,-1.6211512724505823,-0.0,0.009580749087035656,0.4660252630710602,-0.0,0.003599332645535469,1.1584540605545044,0.0,-0.020469488576054573
292.0,259.0,-0.518,0.7501,9.5731,-0.035,0.0244,-0.1194,-1.8257953129210414,0.0,3.1377902030944824,-1.729183316230774,-0.0,1.9794447422027588,5.069546359568395,0.0,0.2718154191970825,-1.6210907141314905,-0.0,0.0026411074213683605,0.4660935401916504,-0.0,0.0029836054891347885,1.1584703922271729,0.0,-0.044471416622400284
292.0,259.0,-0.518,0.7501,9.5731,-0.035,0.0244,-0.1194,-1.8258639774718226,0.0,3.0914740562438965,-1.7291948795318604,-0.0,1.9932196140289307,5.069522607117452,0.0,0.2882583737373352,-1.6211069265948694,-0.0,-0.011138271540403366,0.4660452902317047,-0.0,-0.0029972470365464687,1.1583783626556396,0.0,-0.007663155905902386
292.0,259.0,-0.518,0.7501,9.5731,-0.035,0.0244,-0.1194,-1.8258315525450648,0.0,3.0962209701538086,-1.7291948795318604,-0.0,2.0102221965789795,5.0695345280464075,0.0,0.27774569392204285,-1.6210830847369593,-0.0,-0.012414408847689629,0.46605753898620605,-0.0,-0.0009535609278827906,1.1584863662719727,0.0,0.013641678728163242
292.0,259.0,-0.518,0.7501,9.5731,-0.035,0.0244,-0.1194,-1.8258434734740199,0.0,3.1212942600250244,-1.7292113304138184,-0.0,2.0345585346221924,5.069566803961553,0.0,0.28081369400024414,-1.6211512724505823,-0.0,0.0031950417906045914,0.46599331498146057,-0.0,-0.0016389013035222888,1.1584506034851074,0.0,0.01292792521417141
292.0,259.0,-0.518,0.7501,9.5731,-0.035,0.0244,-0.1194,-1.8258191547789515,0.0,3.0882585048675537,-1.729198932647705,-0.0,2.0149049758911133,5.069514411478796,0.0,0.2791438102722168,-1.6211469809161585,-0.0,0.0006310073076747358,0.46604156494140625,-0.0,-0.002724716207012534,1.1584023237228394,0.0,-0.02357245236635208
292.0,259.0,-0.518,0.7501,9.5731,-0.035,0.0244,-0.1194,-1.8258115253844203,0.0,3.1507582664489746,-1.7292442321777344,-0.0,2.0068979263305664,5.069510686188497,0.0,0.27038076519966125,-1.6211636702166956,-0.0,-0.011281020939350128,0.46605348587036133,-0.0,-0.0003711623139679432,1.1584465503692627,0.0,0.012088391929864883
295.0,267.0,-0.5521,0.7334,9.6371,-0.0377,0.02,-0.1101,-1.8257953129210414,0.0,3.139474391937256,-1.7291628122329712,-0.0,1.9965777397155762,5.069494384318151,0.0,0.28293973207473755,-1.621131722127096,-0.0,-0.005725105758756399,0.4660615921020508,-0.0,-0.014111229218542576,1.1584621667861938,0.0,-0.02662946842610836
295.0,267.0,-0.5521,0.7334,9.6371,-0.0377,0.02,-0.1101,-1.8257910213866175,0.0,3.1018929481506348,-1.7291908264160156,-0.0,2.017404079437256,5.069554555207052,0.0,0.2803218364715576,-1.621110741292135,-0.0,-0.00819703470915556,0.4660775661468506,-0.0,-0.0020688259974122047,1.1584265232086182,0.0,-0.014694314450025558
295.0,267.0,-0.5521,0.7334,9.6371,-0.0377,0.02,-0.1101,-1.8257910213866175,0.0,3.110300302505493,-1.7291908264160156,-0.0,2.0189690589904785,5.069542634278097,0.0,0.2842889428138733,-1.6211193243609827,-0.0,-0.005786103196442127,0.46607351303100586,-0.0,0.0026059134397655725,1.1584745645523071,0.0,-0.010920052416622639
295.0,267.0,-0.5521,0.7334,9.6371,-0.0377,0.02,-0.1101,-1.8258029423155726,0.0,3.1221604347229004,-1.7291432619094849,-0.0,2.050276756286621,5.0695708868797205,0.0,0.2761051058769226,-1.6211398283587855,-0.0,-0.0007742736488580704,0.4660171568393707,-0.0,0.0004990154411643744,1.1584622859954834,0.0,-0.001844107173383236
295.0,267.0,-0.5521,0.7334,9.6371,-0.0377,0.02,-0.1101,-1.8258029423155726,0.0,3.1068077087402344,-1.7291628122329712,-0.0,2.058411121368408,5.06951858380393,0.0,0.2895354628562927,-1.62109882036318,-0.0,-0.004781818483024836,0.4660813808441162,-0.0,0.006776017602533102,1.1584426164627075,0.0,-0.002056657336652279
295.0,267.0,-0.5521,0.7334,9.6371,-0.0377,0.02,-0.1101,-1.8257667026915492,0.0,3.1012001037597656,-1.729163646697998,-0.0,2.024174690246582,5.069586890726843,0.0,0.2594667375087738,-1.6211231390582483,-0.0,-0.0023047837894409895,0.4660615921020508,-0.0,-0.006528384983539581,1.158414602279663,0.0,0.053928159177303314
295.0,267.0,-0.5521,0.7334,9.6371,-0.0377,0.02,-0.1101,-1.8257910213866175,0.0,3.097304344177246,-1.7292319536209106,-0.0,2.0128026008605957,5.0695910332496545,0.0,0.27929097414016724,-1.6211512724505823,-0.0,-0.019784048199653625,0.46605753898620605,-0.0,0.010293534956872463,1.1584621667861938,0.0,-0.007431117817759514
295.0,267.0,-0.5521,0.7334,9.6371,-0.0377,0.02,-0.1101,-1.8257953129210414,0.0,3.080871343612671,-1.729186773300171,-0.0,2.006781816482544,5.069550859719076,0.0,0.27428796887397766,-1.6210830847369593,-0.0,-0.007132160011678934,0.4660455882549286,-0.0,0.0006135061848908663,1.1584105491638184,0.0,-0.00021381862461566925
295.0,267.0,-0.5521,0.7334,9.6371,-0.0377,0.02,-0.1101,-1.8258353672423304,0.0,3.1155519485473633,-1.7292319536209106,-0.0,2.003993511199951,5.069546717196264,0.0,0.2859981954097748,-1.6211231390582483,-0.0,0.004693953320384026,0.46612998843193054,-0.0,-0.0005616701673716307,1.1584621667861938,0.0,-0.04444095492362976
295.0,267.0,-0.5521,0.7334,9.6371,-0.0377,0.02,-0.1101,-1.8258434734740199,0.0,3.075712203979492,-1.729183316230774,-0.0,2.0020298957824707,5.069538581162252,0.0,0.2721504271030426,-1.6211469809161585,-0.0,-0.018375232815742493,0.466077595949173,-0.0,-0.006179461255669594,1.1584465503692627,0.0,-0.0518769770860672
295.0,267.0,-0.5521,0.7334,9.6371,-0.0377,0.02,-0.1101,-1.8257752857603968,0.0,3.1303536891937256,-1.7291595935821533,-0.0,1.998286247253418,5.069538581162252,0.0,0.2738403379917145,-1.6211231390582483,-0.0,-0.01425132155418396,0.4660537838935852,-0.0,-0.00211164029315114,1.1584500074386597,0.0,0.040010735392570496
295.0,267.0,-0.5521,0.7334,9.6371,-0.0377,0.02,-0.1101,-1.8258191547789515,0.0,3.0959486961364746,-1.7291628122329712,-0.0,2.013812303543091,5.069522547512808,0.0,0.27198249101638794,-1.6211431662188929,-0.0,-0.005142756272107363,0.46605348587036133,-0.0,0.0038411139976233244,1.1584465503692627,0.0,-0.015517630614340305
295.0,267.0,-0.5521,0.7334,9.6371,-0.0377,0.02,-0.1101,-1.8257953129210414,0.0,3.120004177093506,-1.729215383529663,-0.0,1.9840278625488281,5.069530743151464,0.0,0.2702712416648865,-1.6211555639850062,-0.0,-0.013074401766061783,0.4660935401916504,-0.0,0.009418942965567112,1.1584745645523071,0.0,0.020619018003344536
295.0,267.0,-0.5521,0.7334,9.6371,-0.0377,0.02,-0.1101,-1.8258072338499964,0.0,3.096989631652832,-1.7292113304138184,-0.0,2.002897262573242,5.069538581162252,0.0,0.2868648171424866,-1.6211193243609827,-0.0,-0.0038936231285333633,0.4660814106464386,-0.0,0.0038571422919631004,1.1584582328796387,0.0,0.017887072637677193
295.0,267.0,-0.5521,0.7334,9.6371,-0.0377,0.02,-0.1101,-1.8258434734740199,0.0,3.09584903717041,-1.72914719581604,-0.0,2.014603853225708,5.06955053189353,0.0,0.2794009745121002,-1.6211593786822718,-0.0,0.0008199753938242793,0.46604564785957336,-0.0,-0.00902669969946146,1.1584745645523071,0.0,0.017625411972403526
295.0,267.0,-0.5521,0.7334,9.6371,-0.0377,0.02,-0.1101,-1.8258115253844203,0.0,3.0937259197235107,-1.7291710376739502,-0.0,1.9767693281173706,5.069542664080419,0.0,0.27115878462791443,-1.6211274305926722,-0.0,-0.015659993514418602,0.46602925658226013,-0.0,0.0013528070412576199,1.1584426164627075,0.0,-0.018227992579340935
295.0,267.0,-0.5521,0.7334,9.6371,-0.0377,0.02,-0.1101,-1.8257791004576625,0.0,3.1555967330932617,-1.729235291481018,-0.0,1.9957482814788818,5.06953855135993,0.0,0.289050430059433,-1.62109882036318,-0.0,-0.00735834613442421,0.46610987186431885,-0.0,-0.0050320103764534,1.158445954322815,0.0,0.023307980969548225
295.0,267.0,-0.5521,0.7334,9.6371,-0.0377,0.02,-0.1101,-1.8257667026915492,0.0,3.110914707183838,-1.729166865348816,-0.0,2.0020864009857178,5.069506543665685,0.0,0.27297765016555786,-1.6211026350604456,-0.0,-0.002018823754042387,0.46604156494140625,-0.0,0.0024584427010267973,1.1584223508834839,0.0,0.007063546683639288
295.0,267.0,-0.5521,0.7334,9.6371,-0.0377,0.02,-0.1101,-1.8258353672423304,0.0,3.090822219848633,-1.7291346788406372,-0.0,2.0097403526306152,5.069534498244085,0.0,0.27346986532211304,-1.6210950056659144,-0.0,-0.006397551856935024,0.46606123447418213,-0.0,-0.005889437161386013,1.1584465503692627,0.0,0.05571042746305466
285.0,261.0,-0.5456,0.7322,9.6598,-0.037,0.0205,-0.1159,-1.8257791004576625,0.0,3.1195895671844482,-1.729191541671753,-0.0,2.0151827335357666,5.0695586679275415,0.0,0.28493598103523254,-1.62109882036318,-0.0,-0.012797357514500618,0.46607351303100586,-0.0,-0.00776559067890048,1.1584465503692627,0.0,-0.029472865164279938
285.0,261.0,-0.5456,0.7322,9.6598,-0.037,0.0205,-0.1159,-1.825811048547262,0.0,3.130908489227295,-1.729215383529663,-0.0,2.0437142848968506,5.06958698013381,0.0,0.2772569954395294,-1.6211469809161585,-0.0,-0.00748600997030735,0.46606573462486267,-0.0,0.004348491318523884,1.1584506034851074,0.0,8.349772542715073e-05
285.0,261.0,-0.5456,0.7322,9.6598,-0.037,0.0205,-0.1159,-1.8258477650084437,0.0,3.0742437839508057,-1.729207158088684,-0.0,2.003772258758545,5.069570916682043,0.0,0.28798699378967285,-1.621155087147848,-0.0,-0.000569924246519804,0.4660935401916504,-0.0,0.0014149171765893698,1.1584465503692627,0.0,0.02402462437748909
285.0,261.0,-0.5456,0.7322,9.6598,-0.037,0.0205,-0.1159,-1.825787206689352,0.0,3.118788719177246,-1.729183316230774,-0.0,2.0186312198638916,5.06952257731513,0.0,0.2821049690246582,-1.6211074034320276,-0.0,-0.00539524108171463,0.4660092890262604,-0.0,-0.0017766717355698347,1.1584265232086182,0.0,-0.020903192460536957
285.0,261.0,-0.5456,0.7322,9.6598,-0.037,0.0205,-0.1159,-1.825799127618307,0.0,3.118014335632324,-1.729167103767395,-0.0,1.9928970336914062,5.069534498244085,0.0,0.2723328173160553,-1.6211231390582483,-0.0,-0.0018732398748397827,0.46605753898620605,-0.0,0.0031138539779931307,1.1584826707839966,0.0,-0.02254098281264305
285.0,261.0,-0.5456,0.7322,9.6598,-0.037,0.0205,-0.1159,-1.8257910213866175,0.0,3.1199073791503906,-1.7292319536209106,-0.0,2.045978546142578,5.069526660233297,0.0,0.27533650398254395,-1.6211469809161585,-0.0,-0.0004960473161190748,0.46608948707580566,-0.0,-0.003128309966996312,1.1584105491638184,0.0,-0.02017209678888321
285.0,261.0,-0.5456,0.7322,9.6598,-0.037,0.0205,-0.1159,-1.8258029423155726,0.0,3.116060495376587,-1.7292356491088867,-0.0,2.0329151153564453,5.06952257731513,0.0,0.28178146481513977,-1.6211150328265589,-0.0,-0.011387050151824951,0.4660252630710602,-0.0,0.0017484670970588923,1.1584703922271729,0.0,-0.027346357703208923
285.0,261.0,-0.5456,0.7322,9.6598,-0.037,0.0205,-0.1159,-1.8258315525450648,0.0,3.1091368198394775,-1.7291592359542847,-0.0,2.0512566566467285,5.069538581162252,0.0,0.28586503863334656,-1.6211274305926722,-0.0,-0.01450748648494482,0.4660615921020508,-0.0,0.0048266504891216755,1.158430576324463,0.0,0.024459224194288254
285.0,261.0,-0.5456,0.7322,9.6598,-0.037,0.0205,-0.1159,-1.825827261010641,0.0,3.092395305633545,-1.729166865348816,-0.0,2.022843360900879,5.069546746998586,0.0,0.2723279595375061,-1.6211231390582483,-0.0,-0.004244362469762564,0.46604979038238525,-0.0,-0.021871358156204224,1.1584465503692627,0.0,0.016382096335291862
285.0,261.0,-0.5456,0.7322,9.6598,-0.037,0.0205,-0.1159,-1.8258191547789515,0.0,3.1240692138671875,-1.7291834354400635,-0.0,2.029697895050049,5.069526660233297,0.0,0.28093329071998596,-1.6211426893817347,-0.0,-0.008128398098051548,0.4660211503505707,-0.0,-0.0042687635868787766,1.1584465503692627,0.0,0.0008675474673509598
285.0,261.0,-0.5456,0.7322,9.6598,-0.037,0.0205,-0.1159,-1.825782915154928,0.0,3.104567527770996,-1.72919499874115,-0.0,1.9970669746398926,5.06952257731513,0.0,0.26235267519950867,-1.621110741292135,-0.0,-0.00811790768057108,0.4660334587097168,-0.0,-0.002633666153997183,1.1584744453430176,0.0,-0.004398442339152098
285.0,261.0,-0.5456,0.7322,9.6598,-0.037,0.0205,-0.1159,-1.8257910213866175,0.0,3.061861515045166,-1.729206919670105,-0.0,2.0104873180389404,5.069566833763876,0.0,0.27017223834991455,-1.6211274305926722,-0.0,-0.008206171914935112,0.4660854637622833,-0.0,0.0068493615835905075,1.1584744453430176,0.0,-0.016705073416233063
285.0,261.0,-0.5456,0.7322,9.6598,-0.037,0.0205,-0.1159,-1.825827261010641,0.0,3.1060380935668945,-1.7291910648345947,-0.0,1.9987680912017822,5.069478350668707,0.0,0.2831321358680725,-1.621110741292135,-0.0,0.004995632451027632,0.4660411477088928,-0.0,0.002459293697029352,1.1584384441375732,0.0,0.0013953745365142822
285.0,261.0,-0.5456,0.7322,9.6598,-0.037,0.0205,-0.1159,-1.8258072338499964,0.0,3.1607441902160645,-1.729171872138977,-0.0,2.043081283569336,5.069510656386175,0.0,0.2792406380176544,-1.6211069265948694,-0.0,0.0002145250327885151,0.4660775661468506,-0.0,0.0035232077352702618,1.158430576324463,0.0,-0.026037126779556274
285.0,261.0,-0.5456,0.7322,9.6598,-0.037,0.0205,-0.1159,-1.8258029423155726,0.0,3.119062900543213,-1.7292197942733765,-0.0,2.0063905715942383,5.069566833763876,0.0,0.27562952041625977,-1.6211193243609827,-0.0,-0.010679662227630615,0.46604159474372864,-0.0,6.324832793325186e-05,1.1584346294403076,0.0,0.0312938466668129
285.0,261.0,-0.5456,0.7322,9.6598,-0.037,0.0205,-0.1159,-1.8258148632445277,0.0,3.0927531719207764,-1.7291628122329712,-0.0,2.0871782302856445,5.069518524199285,0.0,0.27193567156791687,-1.6211355368243616,-0.0,-0.015330069698393345,0.46609774231910706,-0.0,-0.011110112071037292,1.1584745645523071,0.0,-0.020332427695393562
285.0,261.0,-0.5456,0.7322,9.6598,-0.037,0.0205,-0.1159,-1.8257910213866175,0.0,3.0793261528015137,-1.7291756868362427,-0.0,1.9793769121170044,5.069514351874151,0.0,0.2812986373901367,-1.6210950056659144,-0.0,-0.0037875445559620857,0.4660935699939728,-0.0,-0.0010207097511738539,1.158430576324463,0.0,0.005533868446946144
285.0,261.0,-0.5456,0.7322,9.6598,-0.037,0.0205,-0.1159,-1.825827261010641,0.0,3.1152195930480957,-1.729198932647705,-0.0,2.044487476348877,5.069510656386175,0.0,0.27569594979286194,-1.621138874684469,-0.0,-0.008432768285274506,0.46604976058006287,-0.0,0.00032593717332929373,1.1584506034851074,0.0,-0.02928507886826992
288.0,262.0,-0.5312,0.7603,9.6006,-0.0264,0.0192,-0.119,-1.8258029423155726,0.0,3.1124515533447266,-1.7291829586029053,-0.0,2.023198127746582,5.069534885674276,0.0,0.2806874215602875,-1.62109882036318,-0.0,-0.021728385239839554,0.46607762575149536,-0.0,-0.0008827578276395798,1.1584265232086182,0.0,0.04202704876661301
288.0,262.0,-0.5312,0.7603,9.6006,-0.0264,0.0192,-0.119,-1.8258029423155726,0.0,3.0976319313049316,-1.7291874885559082,-0.0,2.062586784362793,5.069542664080419,0.0,0.2632010281085968,-1.6210950056659144,-0.0,-0.013914070092141628,0.46606576442718506,-0.0,-0.002058647107332945,1.1584426164627075,0.0,0.014532318338751793
288.0,262.0,-0.5312,0.7603,9.6006,-0.0264,0.0192,-0.119,-1.8257791004576625,0.0,3.120058059692383,-1.7292356491088867,-0.0,1.9876172542572021,5.0695586679275415,0.0,0.2780928611755371,-1.621138874684469,-0.0,0.0029593827202916145,0.46605348587036133,-0.0,-0.010200121439993382,1.1584506034851074,0.0,-0.025552768260240555
288.0,262.0,-0.5312,0.7603,9.6006,-0.0264,0.0192,-0.119,-1.8258034191527308,0.0,3.0895471572875977,-1.7292152643203735,-0.0,2.035531997680664,5.069510656386175,0.0,0.27548855543136597,-1.621138874684469,-0.0,-0.018379727378487587,0.46600106358528137,-0.0,0.00047411443665623665,1.1584703922271729,0.0,-0.01651620678603649
288.0,262.0,-0.5312,0.7603,9.6006,-0.0264,0.0192,-0.119,-1.8258072338499964,0.0,3.124014377593994,-1.7291592359542847,-0.0,1.996926188468933,5.0695708868797205,0.0,0.2660081684589386,-1.6210830847369593,-0.0,-0.006470528431236744,0.46607762575149536,-0.0,0.0059081693179905415,1.1584186553955078,0.0,-0.027443505823612213
288.0,262.0,-0.5312,0.7603,9.6006,-0.0264,0.0192,-0.119,-1.8257910213866175,0.0,3.1405372619628906,-1.729167103767395,-0.0,2.047699213027954,5.069542664080419,0.0,0.28274214267730713,-1.6210907141314905,-0.0,-0.016477491706609726,0.46604153513908386,-0.0,0.004836619831621647,1.1584582328796387,0.0,-0.018994474783539772
288.0,262.0,-0.5312,0.7603,9.6006,-0.0264,0.0192,-0.119,-1.8258029423155726,0.0,3.1033172607421875,-1.7291755676269531,-0.0,2.0064010620117188,5.069538581162252,0.0,0.28953734040260315,-1.621138874684469,-0.0,-0.010643473826348782,0.46606945991516113,-0.0,-0.0026252218522131443,1.158482551574707,0.0,0.00605092803016305
288.0,262.0,-0.5312,0.7603,9.6006,-0.0264,0.0192,-0.119,-1.8258067570128382,0.0,3.1314444541931152,-1.729198932647705,-0.0,2.040053367614746,5.069579052716055,0.0,0.27168503403663635,-1.6211074034320276,-0.0,-0.001581829972565174,0.46604153513908386,-0.0,-0.012972465716302395,1.1584588289260864,0.0,-0.03496966511011124
288.0,262.0,-0.5312,0.7603,9.6006,-0.0264,0.0192,-0.119,-1.8258034191527308,0.0,3.1047027111053467,-1.7292029857635498,-0.0,1.9893035888671875,5.069546329766073,0.0,0.27590411901474,-1.621138874684469,-0.0,0.0035963691771030426,0.466033399105072,-0.0,0.004421706311404705,1.1584465503692627,0.0,0.019188156351447105
288.0,262.0,-0.5312,0.7603,9.6006,-0.0264,0.0192,-0.119,-1.825827261010641,0.0,3.1327710151672363,-1.729167103767395,-0.0,2.045649766921997,5.069542664080419,0.0,0.28723037242889404,-1.6211031118976038,-0.0,-0.012325255200266838,0.466033399105072,-0.0,-0.007385433651506901,1.1584268808364868,0.0,-0.013292164541780949
288.0,262.0,-0.5312,0.7603,9.6006,-0.0264,0.0192,-0.119,-1.8257953129210414,0.0,3.146059036254883,-1.729171633720398,-0.0,2.006903648376465,5.069494354515829,0.0,0.2792257070541382,-1.6211431662188929,-0.0,-0.00919280294328928,0.466045618057251,-0.0,0.003127430798485875,1.1584223508834839,0.0,-0.04275383800268173
288.0,262.0,-0.5312,0.7603,9.6006,-0.0264,0.0192,-0.119,-1.8257910213866175,0.0,3.1044962406158447,-1.72919499874115,-0.0,2.0638906955718994,5.069530355721273,0.0,0.28432416915893555,-1.6211512724505823,-0.0,0.0006954146083444357,0.46609359979629517,-0.0,0.002450138796120882,1.1584582328796387,0.0,-0.05668076127767563
288.0,262.0,-0.5312,0.7603,9.6006,-0.0264,0.0192,-0.119,-1.8258234463133753,0.0,3.1137804985046387,-1.729167103767395,-0.0,1.9529036283493042,5.06952257731513,0.0,0.2718665599822998,-1.6211231390582483,-0.0,-0.02235988900065422,0.46605756878852844,-0.0,-0.00398951955139637,1.1584945917129517,0.0,-0.04165464639663696
288.0,262.0,-0.5312,0.7603,9.6006,-0.0264,0.0192,-0.119,-1.8258029423155726,0.0,3.141116142272949,-1.729195475578308,-0.0,2.042341470718384,5.069546746998586,0.0,0.26867249608039856,-1.6211150328265589,-0.0,-0.016456982120871544,0.4660252332687378,-0.0,0.004232193809002638,1.1584465503692627,0.0,-0.010470859706401825
288.0,262.0,-0.5312,0.7603,9.6006,-0.0264,0.0192,-0.119,-1.8258191547789515,0.0,3.1295690536499023,-1.7292237281799316,-0.0,1.961362361907959,5.069490271597662,0.0,0.27414852380752563,-1.6211274305926722,-0.0,-0.0016332047525793314,0.46599316596984863,-0.0,-0.01172610092908144,1.1584982872009277,0.0,0.025571197271347046
288.0,262.0,-0.5312,0.7603,9.6006,-0.0264,0.0192,-0.119,-1.8258029423155726,0.0,3.1111462116241455,-1.7292152643203735,-0.0,2.0157036781311035,5.069562721043386,0.0,0.2702498137950897,-1.621131722127096,-0.0,-0.0027030096389353275,0.46607762575149536,-0.0,0.004244206473231316,1.1584745645523071,0.0,0.044923100620508194
288.0,262.0,-0.5312,0.7603,9.6006,-0.0264,0.0192,-0.119,-1.8257953129210414,0.0,3.118105411529541,-1.7291557788848877,-0.0,2.008939743041992,5.0695708868797205,0.0,0.2591305673122406,-1.621131722127096,-0.0,-0.0021073813550174236,0.4660252332687378,-0.0,-0.005486948415637016,1.1584383249282837,0.0,-0.008120088838040829
288.0,262.0,-0.5312,0.7603,9.6006,-0.0264,0.0192,-0.119,-1.8257953129210414,0.0,3.107412576675415,-1.7292193174362183,-0.0,2.063896656036377,5.069534498244085,0.0,0.2836730182170868,-1.6211431662188929,-0.0,-0.010264961048960686,0.4660775363445282,-0.0,-0.0015958321746438742,1.158442497253418,0.0,0.016457537189126015
288.0,262.0,-0.5312,0.7603,9.6006,-0.0264,0.0192,-0.119,-1.8257833919920863,0.0,3.1618576049804688,-1.72919499874115,-0.0,1.9935777187347412,5.069562721043386,0.0,0.28456544876098633,-1.6211193243609827,-0.0,-0.012278787791728973,0.4660415053367615,-0.0,0.000427990045864135,1.1584506034851074,0.0,0.007764553651213646
285.0,260.0,-0.4756,0.7783,9.463,-0.0377,0.0208,-0.1173,-1.8257910213866175,0.0,3.0653915405273438,-1.729167103767395,-0.0,2.027527093887329,5.069490271597662,0.0,0.2788688540458679,-1.621138874684469,-0.0,-0.0019707391038537025,0.4660170376300812,-0.0,-0.0007700667483732104,1.1584384441375732,0.0,0.019879426807165146
285.0,260.0,-0.4756,0.7783,9.463,-0.0377,0.0208,-0.1173,-1.8257752857603968,0.0,3.1330394744873047,-1.729246973991394,-0.0,2.006639242172241,5.069526660233297,0.0,0.27420324087142944,-1.6211231390582483,-0.0,-0.015114987269043922,0.4660252332687378,-0.0,-0.003300048876553774,1.1584428548812866,0.0,-0.003027636557817459
285.0,260.0,-0.4756,0.7783,9.463,-0.0377,0.0208,-0.1173,-1.8257910213866175,0.0,3.1227521896362305,-1.729254961013794,-0.0,2.014998435974121,5.069554585009374,0.0,0.2827949523925781,-1.621086899434225,-0.0,0.0061231921426951885,0.4660654366016388,-0.0,0.0014188109198585153,1.1584465503692627,0.0,-0.023182500153779984
285.0,260.0,-0.4756,0.7783,9.463,-0.0377,0.0208,-0.1173,-1.8258029423155726,0.0,3.0880184173583984,-1.729198932647705,-0.0,2.0031397342681885,5.069538581162252,0.0,0.28787803649902344,-1.6211274305926722,-0.0,-0.005690143443644047,0.4661017656326294,-0.0,0.0003488247748464346,1.1584223508834839,0.0,-0.05648199841380119
285.0,260.0,-0.4756,0.7783,9.463,-0.0377,0.0208,-0.1173,-1.82578768352651,0.0,3.108015537261963,-1.7292073965072632,-0.0,2.0283141136169434,5.0695586679275415,0.0,0.2661336660385132,-1.6211274305926722,-0.0,-0.0015564900822937489,0.46606945991516113,-0.0,0.0041391197592020035,1.1584465503692627,0.0,0.03284502029418945
285.0,260.0,-0.4756,0.7783,9.463,-0.0377,0.0208,-0.1173,-1.8257791004576625,0.0,3.088390350341797,-1.729231595993042,-0.0,2.0266263484954834,5.069486188679495,0.0,0.270474910736084,-1.6211674849139612,-0.0,-0.017547152936458588,0.46608951687812805,-0.0,-0.00989560130983591,1.1584265232086182,0.0,-0.0028332017827779055
285.0,260.0,-0.4756,0.7783,9.463,-0.0377,0.0208,-0.1173,-1.8257585964598597,0.0,3.1245827674865723,-1.7292029857635498,-0.0,2.00850248336792,5.069518494396963,0.0,0.27088916301727295,-1.6210907141314905,-0.0,0.0024335994385182858,0.46605384349823,-0.0,0.008978545665740967,1.1584465503692627,0.0,-0.021835489198565483
285.0,260.0,-0.4756,0.7783,9.463,-0.0377,0.0208,-0.1173,-1.8258191547789515,0.0,3.0961344242095947,-1.7291711568832397,-0.0,1.9830379486083984,5.069579052716055,0.0,0.28585612773895264,-1.6210950056659144,-0.0,-0.004780289251357317,0.4661058485507965,-0.0,0.00040395185351371765,1.1584223508834839,0.0,0.0010814599227160215
285.0,260.0,-0.4756,0.7783,9.463,-0.0377,0.0208,-0.1173,-1.8258758984007777,0.0,3.0890846252441406,-1.7292152643203735,-0.0,2.0323169231414795,5.069538581162252,0.0,0.256594181060791,-1.621131722127096,-0.0,-0.01388082467019558,0.4660292863845825,-0.0,0.00814862735569477,1.1584144830703735,0.0,0.007743917405605316
285.0,260.0,-0.4756,0.7783,9.463,-0.0377,0.0208,-0.1173,-1.8258191547789515,0.0,3.126962661743164,-1.7291557788848877,-0.0,2.053914785385132,5.069586890726843,0.0,0.2852739691734314,-1.6210950056659144,-0.0,-0.004211755935102701,0.46604523062705994,-0.0,0.0025543903466314077,1.1584540605545044,0.0,-0.037179455161094666
285.0,260.0,-0.4756,0.7783,9.463,-0.0377,0.0208,-0.1173,-1.825860162774557,0.0,3.0946836471557617,-1.7291914224624634,-0.0,1.9621334075927734,5.069526660233297,0.0,0.26857826113700867,-1.6211193243609827,-0.0,0.003071581944823265,0.46608954668045044,-0.0,0.010171568021178246,1.1584465503692627,0.0,0.008666649460792542
285.0,260.0,-0.4756,0.7783,9.463,-0.0377,0.0208,-0.1173,-1.825815340081686,0.0,3.083343982696533,-1.729239583015442,-0.0,2.0289502143859863,5.069550889521398,0.0,0.28132015466690063,-1.621070686970846,-0.0,-0.00973483920097351,0.466045618057251,-0.0,-0.010794487781822681,1.158442497253418,0.0,0.019137661904096603
285.0,260.0,-0.4756,0.7783,9.463,-0.0377,0.0208,-0.1173,-1.8258115253844203,0.0,3.0862364768981934,-1.7291834354400635,-0.0,2.0282843112945557,5.069534498244085,0.0,0.258262574672699,-1.6211231390582483,-0.0,0.0008859491208568215,0.46603745222091675,-0.0,-0.0027585260104388,1.1584826707839966,0.0,-0.058085277676582336
285.0,260.0,-0.4756,0.7783,9.463,-0.0377,0.0208,-0.1173,-1.825827261010641,0.0,3.117257595062256,-1.7292029857635498,-0.0,1.988487958908081,5.069538581162252,0.0,0.2875657379627228,-1.6211069265948694,-0.0,-0.00530613586306572,0.4661017656326294,-0.0,-0.0006166066159494221,1.1584622859954834,0.0,0.012954597361385822
285.0,260.0,-0.4756,0.7783,9.463,-0.0377,0.0208,-0.1173,-1.8258029423155726,0.0,3.123061180114746,-1.729171633720398,-0.0,2.0424957275390625,5.069542664080419,0.0,0.2850111126899719,-1.6211956183062952,-0.0,-0.0005970369093120098,0.46604153513908386,-0.0,-0.00398288806900382,1.1584703922271729,0.0,-0.007431583479046822
285.0,260.0,-0.4756,0.7783,9.463,-0.0377,0.0208,-0.1173,-1.8257910213866175,0.0,3.089808464050293,-1.7292232513427734,-0.0,2.034759759902954,5.069546329766073,0.0,0.28558623790740967,-1.6211274305926722,-0.0,-0.0005525143351405859,0.466045618057251,-0.0,-0.007175028789788485,1.1584304571151733,0.0,-0.0012425954919308424
285.0,260.0,-0.4756,0.7783,9.463,-0.0377,0.0208,-0.1173,-1.8258234463133753,0.0,3.1338534355163574,-1.7291631698608398,-0.0,2.0347518920898438,5.069518911629476,0.0,0.28314831852912903,-1.6211193243609827,-0.0,-0.011457335203886032,0.46606945991516113,-0.0,-0.009296164847910404,1.1584465503692627,0.0,0.003392111277207732
285.0,260.0,-0.4756,0.7783,9.463,-0.0377,0.0208,-0.1173,-1.8258191547789515,0.0,3.1064271926879883,-1.729206919670105,-0.0,2.026383399963379,5.069538581162252,0.0,0.2757491171360016,-1.6211512724505823,-0.0,-0.009882921352982521,0.4660654366016388,-0.0,-0.013802855275571346,1.158414602279663,0.0,0.010239984840154648
285.0,260.0,-0.4756,0.7783,9.463,-0.0377,0.0208,-0.1173,-1.8258115253844203,0.0,3.080911874771118,-1.7291992902755737,-0.0,2.0006308555603027,5.069518494396963,0.0,0.27300789952278137,-1.621086899434225,-0.0,-0.009151890873908997,0.46607762575149536,-0.0,-0.008840782567858696,1.1584465503692627,0.0,-0.013289104215800762
293.0,262.0,-0.5725,0.7448,9.5581,-0.0368,0.017,-0.1197,-1.8257671795287074,0.0,3.1104514598846436,-1.7292193174362183,-0.0,1.9850152730941772,5.06952257731513,0.0,0.2635679841041565,-1.621070686970846,-0.0,0.005555044859647751,0.46609777212142944,-0.0,0.004131990484893322,1.1584265232086182,0.0,-0.0426650196313858
293.0,262.0,-0.5725,0.7448,9.5581,-0.0368,0.017,-0.1197,-1.8258191547789515,0.0,3.114384651184082,-1.729198932647705,-0.0,2.0476534366607666,5.069538581162252,0.0,0.27781957387924194,-1.621155087147848,-0.0,0.0036817449145019054,0.46609359979629517,-0.0,-0.002765147015452385,1.1584465503692627,0.0,-0.01705855503678322
293.0,262.0,-0.5725,0.7448,9.5581,-0.0368,0.017,-0.1197,-1.8257791004576625,0.0,3.1442813873291016,-1.729231595993042,-0.0,2.0542054176330566,5.069554555207052,0.0,0.2927455008029938,-1.6211069265948694,-0.0,-0.0038253203965723515,0.46604976058006287,-0.0,-0.005255470983684063,1.1584105491638184,0.0,-0.022094110026955605
293.0,262.0,-0.5725,0.7448,9.5581,-0.0368,0.017,-0.1197,-1.825787206689352,0.0,3.118408203125,-1.7291914224624634,-0.0,2.0229198932647705,5.0695586679275415,0.0,0.28413355350494385,-1.621155087147848,-0.0,0.006740865297615528,0.4660493731498718,-0.0,-0.013902817852795124,1.1584265232086182,0.0,-0.019183197990059853
293.0,262.0,-0.5725,0.7448,9.5581,-0.0368,0.017,-0.1197,-1.8258034191527308,0.0,3.1368353366851807,-1.729198932647705,-0.0,2.0416417121887207,5.069534498244085,0.0,0.26025667786598206,-1.6211193243609827,-0.0,-0.006069274619221687,0.4660293161869049,-0.0,-0.012836415320634842,1.1584506034851074,0.0,0.00790313258767128
293.0,262.0,-0.5725,0.7448,9.5581,-0.0368,0.017,-0.1197,-1.8258234463133753,0.0,3.0863771438598633,-1.729239583015442,-0.0,1.977371335029602,5.069514739304342,0.0,0.28479233384132385,-1.621131722127096,-0.0,-0.014305769465863705,0.46609359979629517,-0.0,0.0013251685304567218,1.1584465503692627,0.0,-0.0020941859111189842
293.0,262.0,-0.5725,0.7448,9.5581,-0.0368,0.017,-0.1197,-1.8258515797057093,0.0,3.1058740615844727,-1.729167103767395,-0.0,2.0689706802368164,5.069542664080419,0.0,0.2805275619029999,-1.6211307684527796,-0.0,-0.006793537642806768,0.4660814106464386,-0.0,-0.010706116445362568,1.1584465503692627,0.0,-0.01871388964354992
293.0,262.0,-0.5725,0.7448,9.5581,-0.0368,0.017,-0.1197,-1.825815340081686,0.0,3.1324892044067383,-1.7291834354400635,-0.0,1.998763084411621,5.069542664080419,0.0,0.26441383361816406,-1.6211231390582483,-0.0,-0.005329410545527935,0.46610990166664124,-0.0,2.7756643248721957e-05,1.1584663391113281,0.0,0.03243903070688248
293.0,262.0,-0.5725,0.7448,9.5581,-0.0368,0.017,-0.1197,-1.8257953129210414,0.0,3.1191344261169434,-1.729231595993042,-0.0,2.067507028579712,5.069534498244085,0.0,0.2533947229385376,-1.6211469809161585,-0.0,-0.00905466265976429,0.4660128951072693,-0.0,0.013147342018783092,1.158410668373108,0.0,-0.0014370456337928772
293.0,262.0,-0.5725,0.7448,9.5581,-0.0368,0.017,-0.1197,-1.825827261010641,0.0,3.1217079162597656,-1.72917902469635,-0.0,2.0322420597076416,5.0695586679275415,0.0,0.2871594727039337,-1.6211355368243616,-0.0,-0.003931409679353237,0.46607765555381775,-0.0,-6.514880806207657e-05,1.1584500074386597,0.0,-0.03767051920294762
293.0,262.0,-0.5725,0.7448,9.5581,-0.0368,0.017,-0.1197,-1.8258558712401332,0.0,3.0899853706359863,-1.7292356491088867,-0.0,2.022047519683838,5.069526660233297,0.0,0.2772061824798584,-1.6211512724505823,-0.0,2.5313114747405052e-05,0.46609359979629517,-0.0,0.010371442884206772,1.1584506034851074,0.0,0.008991075679659843
293.0,262.0,-0.5725,0.7448,9.5581,-0.0368,0.017,-0.1197,-1.8258115253844203,0.0,3.063581943511963,-1.7291631698608398,-0.0,1.988714575767517,5.069546746998586,0.0,0.2656829059123993,-1.6211512724505823,-0.0,-0.008563399314880371,0.46607762575149536,-0.0,-0.006107596680521965,1.158430576324463,0.0,0.013301997445523739
293.0,262.0,-0.5725,0.7448,9.5581,-0.0368,0.017,-0.1197,-1.8258234463133753,0.0,3.0756773948669434,-1.7291597127914429,-0.0,2.0484132766723633,5.069510656386175,0.0,0.27852362394332886,-1.6211069265948694,-0.0,-0.007745995186269283,0.46607354283332825,-0.0,-0.01579088717699051,1.1584582328796387,0.0,-0.051295794546604156
293.0,262.0,-0.5725,0.7448,9.5581,-0.0368,0.017,-0.1197,-1.8257910213866175,0.0,3.125314950942993,-1.7292029857635498,-0.0,2.0400233268737793,5.069574939995565,0.0,0.2821269631385803,-1.6210787932025355,-0.0,-0.018417682498693466,0.4660698473453522,-0.0,0.008810441009700298,1.158442497253418,0.0,0.03751622140407562
293.0,262.0,-0.5725,0.7448,9.5581,-0.0368,0.017,-0.1197,-1.8258358440794886,0.0,3.130791664123535,-1.7291874885559082,-0.0,2.0276987552642822,5.069546746998586,0.0,0.26343581080436707,-1.6211274305926722,-0.0,-0.007263828068971634,0.46602514386177063,-0.0,0.006388779729604721,1.1584663391113281,0.0,0.00790756568312645
293.0,262.0,-0.5725,0.7448,9.5581,-0.0368,0.017,-0.1197,-1.8258353672423304,0.0,3.0894596576690674,-1.7291795015335083,-0.0,2.0074660778045654,5.069502520352163,0.0,0.2800569534301758,-1.621110741292135,-0.0,0.006676463410258293,0.466045618057251,-0.0,0.004433458670973778,1.1584582328796387,0.0,-0.012404151260852814
293.0,262.0,-0.5725,0.7448,9.5581,-0.0368,0.017,-0.1197,-1.8257791004576625,0.0,3.147249698638916,-1.7292029857635498,-0.0,2.0637521743774414,5.0695586679275415,0.0,0.2936781644821167,-1.6211431662188929,-0.0,-0.0008020130917429924,0.4661259353160858,-0.0,0.001629076898097992,1.1584465503692627,0.0,0.0012152011040598154
293.0,262.0,-0.5725,0.7448,9.5581,-0.0368,0.017,-0.1197,-1.8257910213866175,0.0,3.1144580841064453,-1.729198932647705,-0.0,2.0319929122924805,5.069542664080419,0.0,0.27721107006073,-1.6210787932025355,-0.0,-0.0009834415977820754,0.46607354283332825,-0.0,8.601928129792213e-05,1.1584428548812866,0.0,0.018471375107765198
293.0,262.0,-0.5725,0.7448,9.5581,-0.0368,0.017,-0.1197,-1.825787206689352,0.0,3.1017181873321533,-1.7291711568832397,-0.0,2.073146343231201,5.069498348027029,0.0,0.26816752552986145,-1.6211231390582483,-0.0,-0.011242732405662537,0.46605384349823,-0.0,-0.005661351140588522,1.158430576324463,0.0,-0.04145057499408722
288.0,258.0,-0.5157,0.7699,9.5946,-0.0276,0.0252,-0.1162,-1.825770994225973,0.0,3.119047164916992,-1.7291795015335083,-0.0,2.0181100368499756,5.069550502091207,0.0,0.2746729254722595,-1.6211193243609827,-0.0,-0.005870837718248367,0.46606945991516113,-0.0,-0.003166138892993331,1.1584346294403076,0.0,-0.006603104993700981
288.0,258.0,-0.5157,0.7699,9.5946,-0.0276,0.0252,-0.1162,-1.8257953129210414,0.0,3.1104581356048584,-1.7291914224624634,-0.0,2.0421009063720703,5.069514739304342,0.0,0.2768348157405853,-1.621138874684469,-0.0,-0.01642557978630066,0.46605345606803894,-0.0,-0.001432398334145546,1.158406376838684,0.0,-0.009981140494346619
288.0,258.0,-0.5157,0.7699,9.5946,-0.0276,0.0252,-0.1162,-1.8258234463133753,0.0,3.126560688018799,-1.7292232513427734,-0.0,1.999919056892395,5.0695586679275415,0.0,0.2688368558883667,-1.6211069265948694,-0.0,-0.0055673979222774506,0.466033399105072,-0.0,-0.005322177894413471,1.1584383249282837,0.0,-0.005035736598074436
288.0,258.0,-0.5157,0.7699,9.5946,-0.0276,0.0252,-0.1162,-1.8257910213866175,0.0,3.088609218597412,-1.729167103767395,-0.0,2.0387439727783203,5.069534498244085,0.0,0.2786763906478882,-1.6211274305926722,-0.0,-0.005552308633923531,0.4660051465034485,-0.0,-0.0004203094285912812,1.158434271812439,0.0,0.03346734121441841
288.0,258.0,-0.5157,0.7699,9.5946,-0.0276,0.0252,-0.1162,-1.8258353672423304,0.0,3.0769762992858887,-1.729246973991394,-0.0,1.9810067415237427,5.069562780648031,0.0,0.2852800786495209,-1.6211150328265589,-0.0,-0.010292114689946175,0.46607354283332825,-0.0,-0.0035693012177944183,1.1584384441375732,0.0,0.004091782495379448
288.0,258.0,-0.5157,0.7699,9.5946,-0.0276,0.0252,-0.1162,-1.8257910213866175,0.0,3.1143012046813965,-1.7292311191558838,-0.0,2.029613971710205,5.06952257731513,0.0,0.2650344967842102,-1.621138874684469,-0.0,-0.01077626645565033,0.46605753898620605,-0.0,0.009019898250699043,1.1584745645523071,0.0,0.0024475222453475
288.0,258.0,-0.5157,0.7699,9.5946,-0.0276,0.0252,-0.1162,-1.8257953129210414,0.0,3.141453266143799,-1.7291756868362427,-0.0,2.037602663040161,5.069490271597662,0.0,0.27957963943481445,-1.6211074034320276,-0.0,-0.010597221553325653,0.4660615921020508,-0.0,0.002783719217404723,1.1584784984588623,0.0,0.029153142124414444
288.0,258.0,-0.5157,0.7699,9.5946,-0.0276,0.0252,-0.1162,-1.825827261010641,0.0,3.1294312477111816,-1.7292029857635498,-0.0,2.0407419204711914,5.069526243000784,0.0,0.2855343520641327,-1.621138874684469,-0.0,-0.005895258858799934,0.46607762575149536,-0.0,-0.006874710321426392,1.1584426164627075,0.0,-0.032934486865997314
288.0,258.0,-0.5157,0.7699,9.5946,-0.0276,0.0252,-0.1162,-1.8257910213866175,0.0,3.1189374923706055,-1.7291711568832397,-0.0,2.001415252685547,5.069518494396963,0.0,0.2832672595977783,-1.6211512724505823,-0.0,-0.0013493886217474937,0.46608585119247437,-0.0,-0.01091071031987667,1.1584663391113281,0.0,-0.009277541190385818
288.0,258.0,-0.5157,0.7699,9.5946,-0.0276,0.0252,-0.1162,-1.8258234463133753,0.0,3.050525665283203,-1.729203462600708,-0.0,2.051067352294922,5.069498348027029,0.0,0.2669251561164856,-1.6211555639850062,-0.0,-0.011597794480621815,0.4660452604293823,-0.0,-0.005219057202339172,1.158414602279663,0.0,0.006331202574074268
288.0,258.0,-0.5157,0.7699,9.5946,-0.0276,0.0252,-0.1162,-1.825742860833639,0.0,3.0925984382629395,-1.729198932647705,-0.0,2.0438179969787598,5.069514351874151,0.0,0.2818063199520111,-1.6211274305926722,-0.0,-0.0011374354362487793,0.46605348587036133,-0.0,-0.007358155213296413,1.1584383249282837,0.0,-0.009691959246993065
288.0,258.0,-0.5157,0.7699,9.5946,-0.0276,0.0252,-0.1162,-1.8257910213866175,0.0,3.1000399589538574,-1.7292391061782837,-0.0,1.9860975742340088,5.0694903312023065,0.0,0.28502634167671204,-1.6211431662188929,-0.0,-0.0006285170093178749,0.4660455882549286,-0.0,-0.01199117861688137,1.1584465503692627,0.0,-0.02641918882727623
288.0,258.0,-0.5157,0.7699,9.5946,-0.0276,0.0252,-0.1162,-1.8257833919920863,0.0,3.0678868293762207,-1.7292029857635498,-0.0,2.0057899951934814,5.069583254843511,0.0,0.26482075452804565,-1.6211231390582483,-0.0,-0.018824664875864983,0.4661217927932739,-0.0,-0.009746222756803036,1.1584500074386597,0.0,0.008157440461218357
288.0,258.0,-0.5157,0.7699,9.5946,-0.0276,0.0252,-0.1162,-1.8257953129210414,0.0,3.100250720977783,-1.7291914224624634,-0.0,2.0104827880859375,5.069522547512808,0.0,0.27060139179229736,-1.6211469809161585,-0.0,-0.008072028867900372,0.4660694897174835,-0.0,-0.0028569211717694998,1.1584343910217285,0.0,-0.01672244630753994
288.0,258.0,-0.5157,0.7699,9.5946,-0.0276,0.0252,-0.1162,-1.8258072338499964,0.0,3.1119186878204346,-1.7292152643203735,-0.0,1.9803192615509033,5.069554585009374,0.0,0.2723759412765503,-1.6210787932025355,-0.0,-0.010745197534561157,0.4660574793815613,-0.0,0.0025008695665746927,1.1584265232086182,0.0,0.03399290144443512
288.0,258.0,-0.5157,0.7699,9.5946,-0.0276,0.0252,-0.1162,-1.8258115253844203,0.0,3.092545747756958,-1.7291593551635742,-0.0,2.0049808025360107,5.069510686188497,0.0,0.28471142053604126,-1.6211193243609827,-0.0,-0.0002875147620216012,0.4660133123397827,-0.0,-0.00483575789257884,1.1584622859954834,0.0,-0.01693054474890232
288.0,258.0,-0.5157,0.7699,9.5946,-0.0276,0.0252,-0.1162,-1.8258639774718226,0.0,3.1109189987182617,-1.7292276620864868,-0.0,2.0169317722320557,5.069538610964575,0.0,0.2713099718093872,-1.6211836973773401,-0.0,-0.002289949916303158,0.46606945991516113,-0.0,0.00656519178301096,1.1584465503692627,0.0,0.008704016916453838
288.0,258.0,-0.5157,0.7699,9.5946,-0.0276,0.0252,-0.1162,-1.8258353672423304,0.0,3.0947725772857666,-1.7291834354400635,-0.0,2.0241475105285645,5.069534498244085,0.0,0.27621328830718994,-1.621138874684469,-0.0,0.0005560959689319134,0.4660210907459259,-0.0,0.00468435836955905,1.1584826707839966,0.0,-0.035558827221393585
288.0,258.0,-0.5157,0.7699,9.5946,-0.0276,0.0252,-0.1162,-1.8258234463133753,0.0,3.1490912437438965,-1.7291874885559082,-0.0,2.0338387489318848,5.069514351874151,0.0,0.2683025896549225,-1.6211274305926722,-0.0,0.002942368621006608,0.4661058485507965,-0.0,0.010720081627368927,1.1584465503692627,0.0,-0.01395771000534296
290.0,255.0,-0.5222,0.7537,9.5515,-0.0344,0.0252,-0.126,-1.8258558712401332,0.0,3.1446104049682617,-1.7292237281799316,-0.0,1.949955940246582,5.069554585009374,0.0,0.2765568196773529,-1.6211069265948694,-0.0,-0.00913273636251688,0.46607354283332825,-0.0,0.002101386897265911,1.158482551574707,0.0,0.03212225064635277
290.0,255.0,-0.5222,0.7537,9.5515,-0.0344,0.0252,-0.126,-1.8258191547789515,0.0,3.1608047485351562,-1.7292147874832153,-0.0,2.1039233207702637,5.069530355721273,0.0,0.2716829180717468,-1.6211069265948694,-0.0,-0.003655240871012211,0.46605345606803894,-0.0,-0.004746908787637949,1.1584863662719727,0.0,0.014100098982453346
290.0,255.0,-0.5222,0.7537,9.5515,-0.0344,0.0252,-0.126,-1.825787206689352,0.0,3.1196186542510986,-1.729206919670105,-0.0,2.0433247089385986,5.069570857077398,0.0,0.2767355740070343,-1.6211274305926722,-0.0,-0.004506157711148262,0.4660493731498718,-0.0,-0.014898024499416351,1.1584621667861938,0.0,-0.005595254711806774
290.0,255.0,-0.5222,0.7537,9.5515,-0.0344,0.0252,-0.126,-1.8257948360838832,0.0,3.1520538330078125,-1.729206919670105,-0.0,2.0419368743896484,5.069579052716055,0.0,0.27154144644737244,-1.6210830847369593,-0.0,0.008885516785085201,0.46607354283332825,-0.0,0.006663857959210873,1.158445954322815,0.0,0.02138444036245346
290.0,255.0,-0.5222,0.7537,9.5515,-0.0344,0.0252,-0.126,-1.825839181939596,0.0,3.1118717193603516,-1.7291834354400635,-0.0,1.9449101686477661,5.069546746998586,0.0,0.28139984607696533,-1.6210749785052698,-0.0,-0.004930227063596249,0.466065376996994,-0.0,-0.0012333570048213005,1.1584621667861938,0.0,-0.036880772560834885
290.0,255.0,-0.5222,0.7537,9.5515,-0.0344,0.0252,-0.126,-1.8257791004576625,0.0,3.143181800842285,-1.729135274887085,-0.0,1.9916794300079346,5.069602894573965,0.0,0.2729383707046509,-1.6211231390582483,-0.0,-0.002548595890402794,0.46612146496772766,-0.0,-0.008450182154774666,1.1584622859954834,0.0,-0.013561295345425606
290.0,255.0,-0.5222,0.7537,9.5515,-0.0344,0.0252,-0.126,-1.825770994225973,0.0,3.1142659187316895,-1.7292108535766602,-0.0,1.9883952140808105,5.069530743151464,0.0,0.2839926779270172,-1.6211274305926722,-0.0,-0.01054188422858715,0.46605753898620605,-0.0,0.0004124774131923914,1.1584662199020386,0.0,-0.007212113123387098
290.0,255.0,-0.5222,0.7537,9.5515,-0.0344,0.0252,-0.126,-1.825787206689352,0.0,3.093219518661499,-1.7291871309280396,-0.0,2.0495150089263916,5.069498348027029,0.0,0.2798508405685425,-1.621138874684469,-0.0,0.0014475922798737884,0.46607720851898193,-0.0,-0.0030443286523222923,1.1584302186965942,0.0,-0.02380204200744629
290.0,255.0,-0.5222,0.7537,9.5515,-0.0344,0.0252,-0.126,-1.8258191547789515,0.0,3.113257884979248,-1.729171633720398,-0.0,2.0060877799987793,5.06952257731513,8.588441069434793e-09,0.2714329659938812,-1.6211555639850062,-0.0,-0.0018581605982035398,0.46612223982810974,-0.0,-0.005687747150659561,1.1584582328796387,0.0,-0.012462863698601723
290.0,255.0,-0.5222,0.7537,9.5515,-0.0344,0.0252,-0.126,-1.8257910213866175,0.0,3.1259427070617676,-1.7292113304138184,-0.0,2.0536985397338867,5.069486188679495,3.661387512621239e-11,0.27125874161720276,-1.6210749785052698,-0.0,-0.002629081252962351,0.46607354283332825,-0.0,0.006656091194599867,1.1584582328796387,0.0,0.03958676755428314
290.0,255.0,-0.5222,0.7537,9.5515,-0.0344,0.0252,-0.126,-1.8257953129210414,0.0,3.1385393142700195,-1.7291834354400635,-0.0,2.0322623252868652,5.06959097364501,1.0191605453449201e-14,0.27812570333480835,-1.6211555639850062,-0.0,-0.0028200550004839897,0.46608948707580566,-0.0,0.001351045910269022,1.1584465503692627,0.0,0.008297516033053398
290.0,255.0,-0.5222,0.7537,9.5515,-0.0344,0.0252,-0.126,-1.825782915154928,0.0,3.1100707054138184,-1.7291834354400635,-0.0,2.022493362426758,5.0695708868797205,4.344841606306643e-17,0.2812211215496063,-1.6211555639850062,-0.0,-0.00307344738394022,0.466033399105072,-0.0,0.008205453865230083,1.1584986448287964,0.0,0.012518146075308323
290.0,255.0,-0.5222,0.7537,9.5515,-0.0344,0.0252,-0.126,-1.8258353672423304,0.0,3.0939536094665527,-1.7291557788848877,-0.0,1.9973204135894775,5.069506573468008,1.8522742679230827e-19,0.2787952423095703,-1.6211913267718714,-0.0,-0.008048564195632935,0.4660574793815613,-0.0,0.004698313307017088,1.1584621667861938,0.0,0.018771091476082802
290.0,255.0,-0.5222,0.7537,9.5515,-0.0344,0.0252,-0.126,-1.8257953129210414,0.0,3.095925807952881,-1.729231595993042,-0.0,1.9989105463027954,5.069546329766073,5.155873707489491e-23,0.27701535820961,-1.621138874684469,-0.0,-0.019480587914586067,0.46604523062705994,-0.0,0.007115240208804607,1.1584506034851074,0.0,0.02913725934922695
290.0,255.0,-0.5222,0.7537,9.5515,-0.0344,0.0252,-0.126,-1.8257953129210414,0.0,3.084190845489502,-1.72919499874115,-0.0,2.043196439743042,5.06952257731513,2.1980297642728564e-25,0.26677384972572327,-1.6211555639850062,-0.0,-0.013799324631690979,0.46605345606803894,-0.0,0.004552766215056181,1.1584622859954834,0.0,0.019986523315310478
290.0,255.0,-0.5222,0.7537,9.5515,-0.0344,0.0252,-0.126,-1.825787206689352,0.0,3.0914788246154785,-1.7292276620864868,-0.0,1.998929738998413,5.069518494396963,9.370545699833015e-28,0.2690279185771942,-1.621138874684469,-0.0,-0.004562496207654476,0.46609362959861755,-0.0,0.0035191234201192856,1.158445954322815,0.0,-0.009920706041157246
290.0,255.0,-0.5222,0.7537,9.5515,-0.0344,0.0252,-0.126,-1.8257953129210414,0.0,3.138310432434082,-1.729206919670105,-0.0,2.0512797832489014,5.069506573468008,2.6083255739378886e-31,0.2692262530326843,-1.621138874684469,-0.0,-0.007213405333459377,0.46605750918388367,-0.0,-0.001637056702747941,1.1584540605545044,0.0,-0.00923587940633297
290.0,255.0,-0.5222,0.7537,9.5515,-0.0344,0.0252,-0.126,-1.8258315525450648,0.0,3.108227252960205,-1.7291755676269531,-0.0,2.0133016109466553,5.069490271597662,1.1119701769263703e-33,0.2863256633281708,-1.6211875120746058,-0.0,-0.006039209198206663,0.46613019704818726,-0.0,0.00030715251341462135,1.1584582328796387,0.0,-0.018916070461273193
290.0,255.0,-0.5222,0.7537,9.5515,-0.0344,0.0252,-0.126,-1.825827261010641,0.0,3.1123242378234863,-1.7291319370269775,-0.0,2.0497372150421143,5.069546746998586,3.0952093477373137e-37,0.2712571322917938,-1.621138874684469,-0.0,-0.00302546052262187,0.4660694897174835,-0.0,-0.00943736918270588,1.1584426164627075,0.0,0.035145778208971024
288.0,264.0,-0.5982,0.7753,9.6096,-0.037,0.0249,-0.1182,-1.825787206689352,0.0,3.1004014015197754,-1.7292028665542603,-0.0,1.9935919046401978,5.069526660233297,1.319536902826857e-39,0.2872546315193176,-1.621138874684469,-0.0,-0.00960112176835537,0.466065376996994,-0.0,-0.0025820820592343807,1.158482313156128,0.0,0.019885757938027382
288.0,264.0,-0.5982,0.7753,9.6096,-0.037,0.0249,-0.1182,-1.8258072338499964,0.0,3.121577262878418,-1.7291512489318848,-0.0,2.072702169418335,5.0695586679275415,5.624812035799816e-42,0.2752434015274048,-1.6211226622210901,-0.0,-0.008918818086385727,0.46601706743240356,-0.0,-0.00022674273350276053,1.1585065126419067,0.0,0.007099646143615246
288.0,264.0,-0.5982,0.7753,9.6096,-0.037,0.0249,-0.1182,-1.8258639774718226,0.0,3.104290008544922,-1.72917902469635,1.7244393413218262e-10,2.02272367477417,5.069486188679495,1.401298464324817e-45,0.26808375120162964,-1.6212032477008265,-0.0,-0.0003693864564411342,0.466045618057251,-0.0,-0.004921249113976955,1.1585023403167725,0.0,-0.024529941380023956
288.0,264.0,-0.5982,0.7753,9.6096,-0.037,0.0249,-0.1182,-1.8258315525450648,0.0,3.0865025520324707,-1.7291074991226196,0.003379309782758355,2.0423498153686523,5.069502579956808,0.0,0.2877406179904938,-1.621195141469137,-0.0,-0.013329953886568546,0.466033399105072,-0.0,-0.007861114107072353,1.1584582328796387,0.0,-0.06032487377524376
288.0,264.0,-0.5982,0.7753,9.6096,-0.037,0.0249,-0.1182,-1.825770994225973,0.0,3.100738763809204,-1.7290960550308228,0.010659529827535152,2.0006766319274902,5.069506573468008,0.0,0.28729087114334106,-1.6211307684527796,-0.0,0.00457227835431695,0.46604153513908386,-0.0,-0.00010315608233213425,1.1584343910217285,0.0,0.030527504161000252
288.0,264.0,-0.5982,0.7753,9.6096,-0.037,0.0249,-0.1182,-1.8257953129210414,0.0,3.116319417953491,-1.7290356159210205,0.01595456898212433,2.028282403945923,5.069546329766073,0.0,0.2607072591781616,-1.621183220540182,-0.0,-0.011392660439014435,0.46605345606803894,-0.0,0.009967050515115261,1.1583900451660156,0.0,-0.01674778386950493
288.0,264.0,-0.5982,0.7753,9.6096,-0.037,0.0249,-0.1182,-1.8258072338499964,0.0,3.0759944915771484,-1.7289083003997803,0.017092566937208176,2.044755458831787,5.069566803961553,0.0,0.2803501784801483,-1.6211593786822718,-0.0,-0.013312390074133873,0.46603745222091675,-0.0,0.007899172604084015,1.1584588289260864,0.0,-0.035506200045347214
288.0,264.0,-0.5982,0.7753,9.6096,-0.037,0.0249,-0.1182,-1.8258635006346644,0.0,3.1155316829681396,-1.7288522720336914,0.013978812843561172,2.0201597213745117,5.069510656386175,6.361181021929951e-07,0.28796306252479553,-1.6211193243609827,-0.0,-0.014792327769100666,0.46607762575149536,-0.0,-0.0031680595129728317,1.158414602279663,0.0,-0.043631602078676224
288.0,264.0,-0.5982,0.7753,9.6096,-0.037,0.0249,-0.1182,-1.8258716068663539,-3.4784598028636537e-06,3.1250228881835938,-1.7288085222244263,0.010306471958756447,2.040853261947632,5.069530743151464,2.711870950022899e-09,0.26915767788887024,-1.6211231390582483,-0.0,0.003701859852299094,0.4660772383213043,-0.0,0.0010442067869007587,1.1584745645523071,0.0,0.018741659820079803
288.0,264.0,-0.5982,0.7753,9.6096,-0.037,0.0249,-0.1182,-1.8258592091002406,-0.00022787936904933304,3.106637477874756,-1.728808045387268,0.008187888190150261,2.0512237548828125,5.069482433586874,1.1561130525139518e-11,0.27415111660957336,-1.6211069265948694,-0.0,-0.011874044314026833,0.4660579264163971,-0.0,-0.0020833208691328764,1.1584582328796387,0.0,-0.034950144588947296
288.0,264.0,-0.5982,0.7753,9.6096,-0.037,0.0249,-0.1182,-1.8258749447264613,-0.0009073602268472314,3.102609634399414,-1.7287167310714722,0.004051889292895794,2.089951515197754,5.069506662874975,3.2180829368340857e-15,0.29193854331970215,-1.621131722127096,-0.0,-0.006670097354799509,0.46605753898620605,-0.0,-0.003095228224992752,1.158490538597107,0.0,-0.018899066373705864
288.0,264.0,-0.5982,0.7753,9.6096,-0.037,0.0249,-0.1182,-1.825855394402975,-0.000646598928142339,3.0824153423309326,-1.7287399768829346,0.0022111216094344854,2.0230934619903564,5.06949474194602,1.3719191641789052e-17,0.26441866159439087,-1.6211431662188929,-0.0,-0.011098001152276993,0.4660412073135376,-0.0,-0.00112009490840137,1.1584622859954834,0.0,-0.038011521100997925
288.0,264.0,-0.5982,0.7753,9.6096,-0.037,0.0249,-0.1182,-1.82586731533193,-0.00036272857687436044,3.0820813179016113,-1.7287360429763794,1.0107436537509784e-05,2.0371928215026855,5.069490271597662,3.8187879460858065e-21,0.27655965089797974,-1.6211512724505823,-0.0,-0.0080864941701293,0.4660452604293823,-0.0,-0.01178716216236353,1.1584663391113281,0.0,0.04302540048956871
288.0,264.0,-0.5982,0.7753,9.6096,-0.037,0.0249,-0.1182,-1.8258797130980433,-0.0003009366919286549,3.0926194190979004,-1.7287440299987793,1.8193027084834057e-09,1.9937922954559326,5.069534885674276,1.6280093265671475e-23,0.2810049057006836,-1.6211069265948694,-0.0,0.010074757970869541,0.4660654067993164,-0.0,-0.010275932028889656,1.158494472503662,0.0,-0.02313053421676159
288.0,264.0,-0.5982,0.7753,9.6096,-0.037,0.0249,-0.1182,-1.8258596859373988,-0.00019347690977156162,3.1045539379119873,-1.7287564277648926,3.274680873688318e-13,2.0176072120666504,5.069502579956808,6.9404592575951e-26,0.27287057042121887,-1.6211555639850062,-0.0,0.004669486079365015,0.4661141037940979,-0.0,-0.000615412718616426,1.1584622859954834,0.0,0.020886508747935295
288.0,264.0,-0.5982,0.7753,9.6096,-0.037,0.0249,-0.1182,-1.8258477650084437,-0.00015916218399070203,3.0978517532348633,-1.728724718093872,0.002460234798491001,2.035052537918091,5.069482433586874,1.9319018318476053e-29,0.2761819660663605,-1.6210950056659144,-0.0,-0.006698089651763439,0.466045618057251,-0.0,0.002749829087406397,1.1584465503692627,0.0,0.020122241228818893
288.0,264.0,-0.5982,0.7753,9.6096,-0.037,0.0249,-0.1182,-1.8258635006346644,-0.0001878848997876048,3.092367649078369,-1.7287604808807373,0.00167702732142061,2.016984224319458,5.069490659027853,8.236001252016538e-32,0.2812843918800354,-1.621138874684469,-0.0,-0.007857183925807476,0.46605753898620605,-0.0,0.007024090271443129,1.1584186553955078,0.0,0.03839702159166336
288.0,264.0,-0.5982,0.7753,9.6096,-0.037,0.0249,-0.1182,-1.825879236260885,-4.830307443626225e-05,3.108952045440674,-1.7287718057632446,1.005577087198617e-05,1.9867806434631348,5.06949474194602,2.2925212025367017e-35,0.2806718349456787,-1.6210950056659144,-1.0660369298420846e-07,-0.006000204011797905,0.4660493731498718,-0.0,0.00041329622035846114,1.1583982706069946,-0.000884976820088923,-0.015955377370119095
288.0,264.0,-0.5982,0.7753,9.6096,-0.037,0.0249,-0.1182,-1.825879236260885,-0.0001243397855432704,3.1350135803222656,-1.7287678718566895,1.8100030363399355e-09,2.007061004638672,5.069478738098898,9.773376318131323e-38,0.27006497979164124,-1.6210954825030726,-4.5446826857364897e-10,-0.015470102429389954,0.4660894572734833,-0.0,-0.008705733343958855,1.1584506034851074,-0.0009081834577955306,0.007893089205026627
294.0,259.0,-1.0175,2.4574,9.1932,0.0041,0.0351,-0.1562,-1.8259273968138636,-0.0009938773000612855,3.077380895614624,-1.7287485599517822,-0.0019621935207396746,2.0026681423187256,5.069446730404653,-7.359729352174327e-05,0.2663179934024811,-1.6211312452899378,-1.9374692822315964e-12,-0.0033488369081169367,0.46611782908439636,-0.0,-0.004363886080682278,1.158430576324463,-0.0007083327509462833,-0.031984470784664154
294.0,259.0,-1.0175,2.4574,9.1932,0.0041,0.0351,-0.1562,-1.8259717426695765,-0.003226501401513815,3.129265785217285,-1.7287967205047607,-0.0013214773498475552,2.037198305130005,5.069390582829275,-0.0007793608237989247,0.2860395908355713,-1.6211355368243616,-5.39301695291636e-16,0.00040818285197019577,0.46604153513908386,-0.0,-0.0029097518417984247,1.158430576324463,-0.000602085841819644,0.028175001963973045
294.0,259.0,-1.0175,2.4574,9.1932,0.0041,0.0351,-0.1562,-1.8259350262083949,-0.004039356019347906,3.1049203872680664,-1.7287802696228027,-0.0010639241663739085,1.990804672241211,5.069398748665609,-0.0010690876515582204,0.2744155526161194,-1.6211231390582483,-2.2991274194855203e-18,-0.0035820945631712675,0.46610182523727417,-0.0,0.00475251954048872,1.1584023237228394,-0.0005181297310627997,0.016236327588558197
294.0,259.0,-1.0175,2.4574,9.1932,0.0041,0.0351,-0.1562,-1.825979848901266,-0.004188900347799063,3.126330852508545,-1.7287366390228271,-0.0008211136446334422,2.052858352661133,5.069431054383077,-0.0009128655074164271,0.27109190821647644,-1.6211345831500452,-9.801538535747154e-21,0.0038542260881513357,0.46604153513908386,-0.0,-0.007843730971217155,1.1583863496780396,-0.00045681552728638053,0.027613051235675812
294.0,259.0,-1.0175,2.4574,9.1932,0.0041,0.0351,-0.1562,-1.8259874782957972,-0.003563712816685438,3.097595453262329,-1.7288284301757812,-0.0005363764357753098,2.002793312072754,5.069415050535955,-0.0007273099035955966,0.27287977933883667,-1.621131722127096,-2.728293978938142e-24,-0.007178380154073238,0.46606945991516113,-0.0,-0.008240774273872375,1.1584110260009766,-0.0009874380193650723,0.04271513968706131
294.0,259.0,-1.0175,2.4574,9.1932,0.0041,0.0351,-0.1562,-1.8259874782957972,-0.0025766855105757713,3.111328125,-1.7287280559539795,-0.00019163092656526715,2.041626214981079,5.069382744818487,-0.0006051178206689656,0.2766464948654175,-1.6211069265948694,-1.1631144683249415e-26,-0.005864938721060753,0.46608954668045044,-0.0,-0.012756110168993473,1.1583826541900635,-0.0017189770005643368,0.03339457884430885
294.0,259.0,-1.0175,2.4574,9.1932,0.0041,0.0351,-0.1562,-1.8259793720641078,-0.00135763268917799,3.088438034057617,-1.7287598848342896,-6.158847099868581e-05,2.0529003143310547,5.069423305779257,-0.0003988200915046036,0.27157047390937805,-1.621155087147848,-3.2375724959500104e-30,0.001032539177685976,0.46605753898620605,-0.0,-0.0026145880110561848,1.15835440158844,-0.00321805477142334,-0.005997835658490658
294.0,259.0,-1.0175,2.4574,9.1932,0.0041,0.0351,-0.1562,-1.8259755573668421,-0.000985453138127923,3.103182315826416,-1.7287520170211792,-0.00010182165715377778,2.024010181427002,5.069386797934332,-0.0003669383586384356,0.2856212258338928,-1.6211031118976038,-1.3802278509163037e-32,0.00020053773187100887,0.466057151556015,-0.0,0.0032395366579294205,1.1584030389785767,-0.00358369923196733,-0.01669076271355152
294.0,259.0,-1.0175,2.4574,9.1932,0.0041,0.0351,-0.1562,-1.8259874782957972,-0.0007735322578810155,3.1064229011535645,-1.728859543800354,-9.665549441706389e-05,2.0610134601593018,5.069386797934332,-0.00037755968514829874,0.2856355309486389,-1.6210749785052698,-5.884128105667339e-35,-0.014235545881092548,0.4660854637622833,-0.0,0.007337801158428192,1.158331036567688,-0.0037105788942426443,0.046606604009866714
294.0,259.0,-1.0175,2.4574,9.1932,0.0041,0.0351,-0.1562,-1.8260036907591761,-0.0005849245935678482,3.1058480739593506,-1.7287524938583374,-8.324526424985379e-05,2.0061817169189453,5.069395053177633,-0.00034133248846046627,0.2818143665790558,-1.6211031118976038,-1.6378687539287542e-38,0.002447691047564149,0.46609777212142944,-0.0,-0.0008963008876889944,1.1583670377731323,-0.003225458087399602,-0.015312634408473969
294.0,259.0,-1.0175,2.4574,9.1932,0.0041,0.0351,-0.1562,-1.8259631596007289,-0.0005031517939642072,3.1172618865966797,-1.7287598848342896,-7.619680400239304e-05,2.0559377670288086,5.0693991360958,-0.0003079588641412556,0.28550660610198975,-1.6211312452899378,-6.982530117884131e-41,-0.007937921211123466,0.4660494327545166,-0.0,-0.008626516908407211,1.1583105325698853,-0.0023634335957467556,0.002604079432785511
294.0,259.0,-1.0175,2.4574,9.1932,0.0041,0.0351,-0.1562,-1.8259951076903285,-0.00028187420684844255,3.108104705810547,-1.728776216506958,-6.761033728253096e-05,2.006167411804199,5.069374996214666,-0.00030624642386101186,0.2741136848926544,-1.6210954825030726,-1.961817850054744e-44,-0.009743408299982548,0.46604156494140625,-0.0,0.005860903300344944,1.1583510637283325,-0.0012990048853680491,-0.048788994550704956
294.0,259.0,-1.0175,2.4574,9.1932,0.0041,0.0351,-0.1562,-1.8259874782957972,-0.00030053171212784946,3.117168426513672,-1.728784203529358,-6.288599979598075e-05,2.0483551025390625,5.069427358895101,-0.0002828101860359311,0.2800348997116089,-1.6210954825030726,-0.0,0.005108901299536228,0.4660694897174835,-0.0,-0.008838959038257599,1.1583547592163086,-0.0009193291771225631,-0.017879635095596313
294.0,259.0,-1.0175,2.4574,9.1932,0.0041,0.0351,-0.1562,-1.8260399303831996,-0.0003450576332397759,3.152806043624878,-1.7288323640823364,-5.8778736274689436e-05,2.050309419631958,5.069406974106588,-0.00026221078587695956,0.2611737549304962,-1.6210711638080042,-0.0,-0.005697102751582861,0.46606582403182983,-0.0,0.007755691651254892,1.158322811126709,-0.0007114916224963963,0.01961466297507286
294.0,259.0,-1.0175,2.4574,9.1932,0.0041,0.0351,-0.1562,-1.8260070286192835,-0.0005048223538324237,3.1729423999786377,-1.7287921905517578,-2.9914201149949804e-05,2.017369031906128,5.069435614138403,-0.0002363815438002348,0.28263166546821594,-1.6211074034320276,-0.0,-0.01632561907172203,0.4660935699939728,-0.0,-0.002820060821250081,1.15831458568573,-0.00022062748030293733,-0.020690537989139557
294.0,259.0,-1.0175,2.4574,9.1932,0.0041,0.0351,-0.1562,-1.826036115685934,-0.0004955164040438831,3.1285407543182373,-1.728788137435913,-8.659562809043564e-06,2.0666654109954834,5.069419133454122,-0.00022181577514857054,0.28652942180633545,-1.6210630575763147,-0.0,-0.015166468918323517,0.4660494029521942,-0.0,-0.0021708256099373102,1.1583064794540405,-0.00014811003347858787,0.026249047368764877
294.0,259.0,-1.0175,2.4574,9.1932,0.0041,0.0351,-0.1562,-1.826036115685934,-0.0004884304944425821,3.123504161834717,-1.7287485599517822,-1.5586908430620383e-09,2.053866386413574,5.069359051972189,-0.00018871571228373796,0.2645111680030823,-1.6210592428790491,-0.0,-0.010116222314536572,0.466033399105072,-0.0,-0.0027704972308129072,1.1583666801452637,-0.00012716931814793497,0.03644728660583496
294.0,259.0,-1.0175,2.4574,9.1932,0.0041,0.0351,-0.1562,-1.8260113201537074,-0.00045294425217434764,3.125444173812866,-1.7287639379501343,-3.764056022436974e-15,2.0331289768218994,5.069382744818487,-0.00016738336125854403,0.27150776982307434,-1.6210630575763147,-0.0,-0.0189412459731102,0.4660615921020508,-0.0,0.009512314572930336,1.1583306789398193,-0.00010492622823221609,-0.050929952412843704
286.0,260.0,-0.6939,0.9416,9.6383,-0.0082,0.0275,-0.1147,-1.8260156116881312,-0.0004023196524940431,3.1278388500213623,-1.728776216506958,-6.77516756372277e-19,1.9913184642791748,5.069403278618612,-0.00015579212049487978,0.28053462505340576,-1.6210954825030726,-0.0,-0.009679242968559265,0.4660615921020508,-0.0,-0.01131177693605423,1.1583428382873535,-5.2572642744053155e-05,-0.01560276560485363
286.0,260.0,-0.6939,0.9416,9.6383,-0.0082,0.0275,-0.1147,-1.8259669742979945,-0.00040544476360082626,3.064682960510254,-1.7287399768829346,-1.6361233526230245e-24,2.0088322162628174,5.069383132248678,-0.00014113211364019662,0.2864321172237396,-1.6210749785052698,-0.0,-0.001231432193890214,0.46610987186431885,-0.0,0.004739545285701752,1.1583466529846191,-1.6574311985095846e-06,-0.0013399783056229353
286.0,260.0,-0.6939,0.9416,9.6383,-0.0082,0.0275,-0.1147,-1.8260237179198207,-0.00045230938121676445,3.1098337173461914,-1.7287325859069824,-2.9449640335693133e-28,2.0011613368988037,5.069406974106588,-0.00013280149141792208,0.2643917500972748,-1.6210792700396937,-0.0,-0.006158146075904369,0.46609771251678467,-0.0,0.0036881614942103624,1.1583187580108643,-2.983317481941583e-10,0.03997389227151871
286.0,260.0,-0.6939,0.9416,9.6383,-0.0082,0.0275,-0.1147,-1.8260237179198207,-0.0007942528463900089,3.1326522827148438,-1.7288199663162231,-5.300830649326863e-32,2.0237507820129395,5.069431441813268,-0.00012539945601020008,0.2726437449455261,-1.6210792700396937,-0.0,0.000756741501390934,0.466033399105072,-0.0,-0.0007429622346535325,1.1583466529846191,-5.369865996632771e-14,0.049263421446084976
286.0,260.0,-0.6939,0.9416,9.6383,-0.0082,0.0275,-0.1147,-1.8260399303831996,-0.0014836849877610803,3.0679683685302734,-1.7287558317184448,0.00037420718581415713,2.0484509468078613,5.069427358895101,-0.00011572437506401911,0.2722706198692322,-1.621075455342428,-0.0,-0.002155977999791503,0.466065376996994,-0.0,0.0026647106278687716,1.158334732055664,-1.296759672565959e-19,-0.0026567927561700344
286.0,260.0,-0.6939,0.9416,9.6383,-0.0082,0.0275,-0.1147,-1.826071401635641,-0.001964778173714876,3.1264123916625977,-1.7287360429763794,0.00032087633735500276,2.015425682067871,5.069406974106588,-0.00011006300337612629,0.2716735005378723,-1.621087376271383,-0.0,0.004111997317522764,0.46606162190437317,-0.0,-0.014437810517847538,1.158422827720642,-2.334121562729734e-23,-0.007627758663147688
286.0,260.0,-0.6939,0.9416,9.6383,-0.0082,0.0275,-0.1147,-1.826055189172262,-0.002404184313490987,3.119309425354004,-1.728764295578003,0.0002643224142957479,2.038059711456299,5.069406974106588,-0.00010253885557176545,0.2763812243938446,-1.6210911909686487,-0.0,-0.005535903386771679,0.4660211503505707,-0.0,0.011515767313539982,1.158362627029419,-5.636628797887845e-29,-0.036173246800899506
286.0,260.0,-0.6939,0.9416,9.6383,-0.0082,0.0275,-0.1147,-1.8260919056334437,-0.0025071692653000355,3.108405113220215,-1.7287524938583374,0.00028382783057168126,2.013197183609009,5.069423305779257,-9.806939488044009e-05,0.274020791053772,-1.621103588734762,-0.0,-0.002337587997317314,0.46605753898620605,-0.0,0.002040242776274681,1.1583507061004639,-1.0145732149565473e-32,-0.0044316742569208145
286.0,260.0,-0.6939,0.9416,9.6383,-0.0082,0.0275,-0.1147,-1.8260547123351039,-0.0030219785403460264,3.120452404022217,-1.7287399768829346,0.00029943246045149863,2.0961947441101074,5.069374966412344,-9.397340181749314e-05,0.27359747886657715,-1.621087376271383,-0.0,0.002648185472935438,0.46607762575149536,-0.0,0.004876763094216585,1.1583830118179321,-1.8261960144131583e-36,-0.021674737334251404
286.0,260.0,-0.6939,0.9416,9.6383,-0.0082,0.0275,-0.1147,-1.826088090936178,-0.0029645641334354877,3.09062123298645,-1.7286930084228516,0.00031231771572493017,2.006765842437744,5.069438892393865,-8.84329347172752e-05,0.27214515209198,-1.621103588734762,-0.0,-0.00715008145198226,0.4660455882549286,-0.0,0.011676110327243805,1.1583747863769531,-4.4098862672301993e-42,-0.015504487790167332
286.0,260.0,-0.6939,0.9416,9.6383,-0.0082,0.0275,-0.1147,-1.826083322564596,-0.0032821926288306713,3.077113628387451,-1.7287287712097168,0.0003168674884364009,2.040294885635376,5.069439279824056,-8.508862083544955e-05,0.27388039231300354,-1.6210554281817835,-0.0,0.0100023802369833,0.46605342626571655,-0.0,0.0036029741168022156,1.1583826541900635,0.00032142692361958325,-0.05740155279636383
286.0,260.0,-0.6939,0.9416,9.6383,-0.0082,0.0275,-0.1147,-1.8261481724181117,-0.0038171333726495504,3.102252721786499,-1.7287404537200928,0.0003303026023786515,2.064277410507202,5.069439279824056,-8.052097837207839e-05,0.26930177211761475,-1.6210954825030726,-0.0,0.0001339120790362358,0.4659932255744934,-0.0,0.0011711783008649945,1.1583666801452637,0.000216110231122002,-0.08875410258769989
286.0,260.0,-0.6939,0.9416,9.6383,-0.0082,0.0275,-0.1147,-1.8261271915831507,-0.0039734304882586,3.1409687995910645,-1.7287201881408691,0.0003416677354834974,2.005296230316162,5.069410967617788,-7.773889956297353e-05,0.2708432972431183,-1.6210430304156702,-0.0,0.011415461078286171,0.4660493731498718,-0.0,0.002949352376163006,1.158402681350708,0.00019293921650387347,-0.12132908403873444
286.0,260.0,-0.6939,0.9416,9.6383,-0.0082,0.0275,-0.1147,-1.8261434040465296,-0.004074143711477518,3.1226587295532227,-1.7287404537200928,0.0004891092539764941,2.020653009414673,5.069406974106588,-7.514265598729253e-05,0.2586246132850647,-1.6210954825030726,-0.0,0.00646551325917244,0.46607762575149536,-0.0,0.008043171837925911,1.1583707332611084,0.00017425861733499914,-0.08040004968643188
286.0,260.0,-0.6939,0.9416,9.6383,-0.0082,0.0275,-0.1147,-1.8262320957579554,-0.004424360115081072,3.127131700515747,-1.7286922931671143,0.00044459046330302954,2.004317283630371,5.069447475462713,-7.15579153620638e-05,0.2700309157371521,-1.6210992972003382,-0.0,0.011135636828839779,0.46612176299095154,-0.0,0.008183540776371956,1.158398985862732,0.00011465357238193974,-0.030169080942869186
286.0,260.0,-0.6939,0.9416,9.6383,-0.0082,0.0275,-0.1147,-1.8262483082213343,-0.0039908550679683685,3.0638539791107178,-1.728728175163269,0.0005012957262806594,2.0253400802612305,5.069379049330511,-6.935224519111216e-05,0.2749265432357788,-1.621087376271383,-0.0,0.009473280049860477,0.46604564785957336,-0.0,0.0038418821059167385,1.158390760421753,0.00010522524826228619,-0.05033520609140396
286.0,260.0,-0.6939,0.9416,9.6383,-0.0082,0.0275,-0.1147,-1.8262115917601527,-0.0037262120749801397,3.071197032928467,-1.728728175163269,0.0006646083784289658,2.0392870903015137,5.069411057024755,-6.727854633936659e-05,0.2658817172050476,-1.6210716406451624,-0.0,0.010347416624426842,0.4661099314689636,-0.0,3.7553763831965625e-06,1.158390760421753,9.761618275661021e-05,-0.0019804416224360466
286.0,260.0,-0.6939,0.9416,9.6383,-0.0082,0.0275,-0.1147,-1.8262154064574183,-0.0033189477398991585,3.0882372856140137,-1.728704810142517,0.001426006550900638,2.0069198608398438,5.069411027222433,-6.439071876229718e-05,0.2749539315700531,-1.621087376271383,-0.0,0.0032533155754208565,0.46607762575149536,-0.0,0.006383803207427263,1.158402681350708,8.806426922092214e-05,-0.049502696841955185
286.0,260.0,-0.6939,0.9416,9.6383,-0.0082,0.0275,-0.1147,-1.8262196979918421,-0.0030528022907674313,3.089552164077759,-1.728661060333252,0.0015327921137213707,2.030574083328247,5.069390970259466,-6.259983638301492e-05,0.2674001455307007,-1.6210954825030726,-0.0,0.01120444294065237,0.4660092890262604,-0.0,-0.0036574469413608313,1.1584067344665527,8.267130033345893e-05,-0.030137376859784126
293.0,264.0,-0.4445,0.7789,9.5175,-0.0521,0.0194,-0.1159,-1.826280256310934,-0.0028787264600396156,3.08616304397583,-1.7287206649780273,0.0014336237218230963,2.013315200805664,5.0694351373012445,-6.0091231716796756e-05,0.27175334095954895,-1.6210911909686487,-0.0,0.014178578741848469,0.46606162190437317,-0.0,0.006671422626823187,1.1583945751190186,7.571606693090871e-05,-0.07663249969482422
293.0,264.0,-0.4445,0.7789,9.5175,-0.0521,0.0194,-0.1159,-1.826336523095602,-0.0024526668712496758,3.1413516998291016,-1.728696346282959,0.0016659917309880257,2.0133578777313232,5.069382685213842,-5.85287380090449e-05,0.25962549448013306,-1.6210749785052698,-0.0,0.02887679636478424,0.4660935401916504,-0.0,0.00272688502445817,1.158390760421753,7.169500895543024e-05,-0.07838498055934906
293.0,264.0,-0.4445,0.7789,9.5175,-0.0521,0.0194,-0.1159,-1.8263403377928675,-0.0019304888555780053,3.087059259414673,-1.728664517402649,0.001988728065043688,2.0326805114746094,5.069423335581579,-5.70465563214384e-05,0.27444636821746826,-1.6210749785052698,-0.0,0.01280902698636055,0.4660813808441162,-0.0,-0.015296149998903275,1.1583747863769531,6.807955651311204e-05,-0.04680069163441658
293.0,264.0,-0.4445,0.7789,9.5175,-0.0521,0.0194,-0.1159,-1.8262878857054652,-0.0015734024345874786,3.1407861709594727,-1.7286651134490967,0.002290771109983325,2.005096197128296,5.0694351373012445,-5.495650475495495e-05,0.2708868086338043,-1.6210554281817835,-0.0,4.6566128730773926e-05,0.4661095142364502,-0.0,-0.0028668981976807117,1.1583584547042847,6.329179450403899e-05,-0.04564284533262253
293.0,264.0,-0.4445,0.7789,9.5175,-0.0521,0.0194,-0.1159,-1.8262797794737757,-0.001243425882421434,3.0883073806762695,-1.7286441326141357,0.002231624210253358,2.048194646835327,5.069423305779257,-5.364612297853455e-05,0.2684851288795471,-1.6210954825030726,-0.0,0.0022904796060174704,0.4661058187484741,-0.0,0.004771837033331394,1.1583584547042847,6.04574779572431e-05,-0.053522318601608276
293.0,264.0,-0.4445,0.7789,9.5175,-0.0521,0.0194,-0.1159,-1.826304098168844,-0.0010434716241434216,3.1052770614624023,-1.7285929918289185,0.0023135333321988583,1.967102289199829,5.069439279824056,-5.179429717827588e-05,0.2719331681728363,-1.6210673491107386,-0.0,0.0061462437734007835,0.46599698066711426,-0.0,0.005674802232533693,1.1583466529846191,5.6651853810762987e-05,-0.029603399336338043
293.0,264.0,-0.4445,0.7789,9.5175,-0.0521,0.0194,-0.1159,-1.8263198337950648,-0.0008174683898687363,3.0499086380004883,-1.728581190109253,0.002721980679780245,2.041280746459961,5.069447505265035,-5.062887066742405e-05,0.26935893297195435,-1.6210911909686487,-0.0,0.003490016795694828,0.4660615921020508,-0.0,-0.007237869314849377,1.158402681350708,5.4370251746149734e-05,-0.014696008525788784
293.0,264.0,-0.4445,0.7789,9.5175,-0.0521,0.0194,-0.1159,-1.8263198337950648,-0.0007106905686669052,3.1156320571899414,-1.7285528182983398,0.003247477812692523,2.008324146270752,5.069447505265035,-2.509784280846361e-05,0.2751806974411011,-1.6211231390582483,-0.0,0.007470146752893925,0.466045618057251,-0.0,0.00659202691167593,1.158410906791687,5.226538996794261e-05,0.030759518966078758
293.0,264.0,-0.4445,0.7789,9.5175,-0.0521,0.0194,-0.1159,-1.8263527355589808,-0.0007807272486388683,3.0767693519592285,-1.7285652160644531,0.00301972939632833,2.0272305011749268,5.069410967617788,-6.9860757179185384e-09,0.28128451108932495,-1.6210954825030726,-0.0,4.847830132348463e-05,0.466057151556015,-0.0,-0.0016370222438126802,1.1583584547042847,4.9396818212699145e-05,-0.04148314148187637
293.0,264.0,-0.4445,0.7789,9.5175,-0.0521,0.0194,-0.1159,-1.8263284168639125,-0.0008516861125826836,3.1120829582214355,-1.7286293506622314,0.0025771844666451216,2.022827625274658,5.069390970259466,-2.978273530573894e-11,0.2729641795158386,-1.6210830847369593,-0.0,-0.0048249252140522,0.4660615921020508,-0.0,0.004175345879048109,1.15831458568573,4.76531422464177e-05,-0.05630844831466675
293.0,264.0,-0.4445,0.7789,9.5175,-0.0521,0.0194,-0.1159,-1.8263236484923304,-0.0012272230815142393,3.097524642944336,-1.7286486625671387,0.002439704956486821,2.0370898246765137,5.069402801781454,-1.2696844985983502e-13,0.2777778208255768,-1.6210396925555628,-0.0,-0.007842570543289185,0.46601298451423645,-0.0,0.003331288928166032,1.1583424806594849,4.6028442739043385e-05,-0.013097560964524746
293.0,264.0,-0.4445,0.7789,9.5175,-0.0521,0.0194,-0.1159,-1.826303621331686,-0.0013375770067796111,3.14605975151062,-1.7285443544387817,0.0025164885446429253,2.0476865768432617,5.069378691702642,-3.534213539555291e-17,0.28607678413391113,-1.6211031118976038,-0.0,-0.004429197404533625,0.46605345606803894,-0.0,-0.0022452312987297773,1.1583830118179321,4.3789004848804325e-05,-0.02928459644317627
293.0,264.0,-0.4445,0.7789,9.5175,-0.0521,0.0194,-0.1159,-1.826376577416891,-0.0015466250479221344,3.1279959678649902,-1.7285330295562744,0.002676577540114522,2.019458293914795,5.069439309626379,-1.5066908742015575e-19,0.27574846148490906,-1.6210911909686487,-0.0,-0.004224130418151617,0.4660411477088928,-0.0,-0.0023965227883309126,1.1583867073059082,4.2413314076839015e-05,-0.0026853885501623154
293.0,264.0,-0.4445,0.7789,9.5175,-0.0521,0.0194,-0.1159,-1.8263522587218226,-0.0019719607662409544,3.1452670097351074,-1.728529453277588,0.002355564385652542,2.0278453826904297,5.069383132248678,-4.1939291465982993e-23,0.2700343132019043,-1.6210630575763147,-0.0,-0.003374415682628751,0.4660854637622833,-0.0,-0.0002714546280913055,1.158398985862732,4.050454299431294e-05,0.000294277910143137
293.0,264.0,-0.4445,0.7789,9.5175,-0.0521,0.0194,-0.1159,-1.82641663173818,-0.0027294938918203115,3.1060404777526855,-1.728473424911499,0.0017929967725649476,2.0339407920837402,5.06936668136672,-1.7879378342438682e-25,0.279371976852417,-1.621086899434225,-0.0,0.0015580207109451294,0.4661017656326294,-0.0,-0.0011081132106482983,1.1583666801452637,3.932467006961815e-05,-0.016346484422683716
293.0,264.0,-0.4445,0.7789,9.5175,-0.0521,0.0194,-0.1159,-1.8263799152769984,-0.002855765400454402,3.104400396347046,-1.7285046577453613,0.0015846679452806711,2.0748653411865234,5.0694351373012445,-7.622259681656169e-28,0.281309574842453,-1.6210830847369593,-0.0,-0.004412233829498291,0.4661377966403961,-0.0,-0.00803943071514368,1.158398985862732,3.821161590167321e-05,-0.0514339953660965
293.0,264.0,-0.4445,0.7789,9.5175,-0.0521,0.0194,-0.1159,-1.8263961277403773,-0.0034355567768216133,3.090869903564453,-1.7285568714141846,0.001167350448668003,2.0747220516204834,5.069374966412344,-2.1216840782341907e-31,0.2736133337020874,-1.621047321950094,-0.0,-0.01076521072536707,0.4660935401916504,-0.0,-0.01168631762266159,1.1583507061004639,4.88544610561803e-05,-0.022337811067700386
293.0,264.0,-0.4445,0.7789,9.5175,-0.0521,0.0194,-0.1159,-1.8265086613097132,-0.004243125207722187,3.090137004852295,-1.728529453277588,0.0009710463928058743,2.0199551582336426,5.069407361536779,-9.045070871142486e-34,0.28117942810058594,-1.6210992972003382,-0.0,0.0045561776496469975,0.4661095440387726,-0.0,0.002077284501865506,1.1583949327468872,4.758187787956558e-05,-0.018143940716981888
293.0,264.0,-0.4445,0.7789,9.5175,-0.0521,0.0194,-0.1159,-1.8264967403807582,-0.005395013373345137,3.1221046447753906,-1.7285209894180298,0.0006989309331402183,2.0360231399536133,5.069391357689657,-2.5177286453951993e-37,0.26796644926071167,-1.6210511366473597,-0.0,-0.00273983390070498,0.4660854637622833,-0.0,-0.0022740422282367945,1.158390760421753,4.576719584292732e-05,-0.018262580037117004
292.0,254.0,-0.6497,0.6658,9.4146,-0.0257,0.0203,-0.121,-1.8264838657774867,-0.0064788805320858955,3.10235595703125,-1.7285805940628052,0.0005891369073651731,1.9986721277236938,5.069367128401556,-1.0733469795250228e-39,0.271781325340271,-1.621063534413473,-0.0,0.005492127500474453,0.46600106358528137,-0.0,0.0006197147886268795,1.1583666801452637,1.695952050795313e-05,-0.03400814160704613
292.0,254.0,-0.6497,0.6658,9.4146,-0.0257,0.0203,-0.121,-1.8265162907042445,-0.007720207329839468,3.0756642818450928,-1.7285335063934326,0.00039481380372308195,2.0690572261810303,5.069343405752935,-2.4961846634141693e-07,0.2752840220928192,-1.6210792700396937,-0.0,-0.00886478740721941,0.46608954668045044,-0.0,0.013499321416020393,1.1583503484725952,1.2925162081955932e-05,-0.0884745717048645
292.0,254.0,-0.6497,0.6658,9.4146,-0.0257,0.0203,-0.121,-1.8265930614867152,-0.00924160610884428,3.0728564262390137,-1.7284773588180542,0.0003125155926682055,1.9962000846862793,5.069350796728887,-6.948222552871641e-11,0.2813599109649658,-1.621115509663717,-0.0,0.0020622103475034237,0.4660854637622833,-0.0,-0.010320506989955902,1.1583945751190186,1.2390695701469667e-05,-0.011783761903643608
292.0,254.0,-0.6497,0.6658,9.4146,-0.0257,0.0203,-0.121,-1.8266126118102015,-0.010365540161728859,3.067075252532959,-1.7284892797470093,0.00032924339757300913,2.047299861907959,5.069367158203878,-0.0005896782386116683,0.2813662886619568,-1.6210554281817835,-0.0,-0.006834303494542837,0.466033399105072,-0.0,0.003697342472150922,1.158402681350708,1.205866465170402e-05,-0.06884336471557617
292.0,254.0,-0.6497,0.6658,9.4146,-0.0257,0.0203,-0.121,-1.826656003991598,-0.011103833094239235,3.080436944961548,-1.7285125255584717,0.00032551438198424876,2.0277554988861084,5.06935145237998,-0.0007184700225479901,0.2710586488246918,-1.6210835615741175,-0.0,-0.002777667250484228,0.4661017954349518,-0.0,0.0022910863626748323,1.1584067344665527,1.1743981303879991e-05,-0.10304053127765656
292.0,254.0,-0.6497,0.6658,9.4146,-0.0257,0.0203,-0.121,-1.8267690143980921,-0.011481126770377159,3.0920815467834473,-1.7285170555114746,0.0003314563655294478,2.041213035583496,5.069282996445455,-0.0010439101606607437,0.2775513529777527,-1.621047321950094,-0.0,-0.006016267463564873,0.46609771251678467,-0.0,0.0087286327034235,1.1583986282348633,1.1301569429633673e-05,-0.07540232688188553
292.0,254.0,-0.6497,0.6658,9.4146,-0.0257,0.0203,-0.121,-1.8268052540221156,-0.011819525621831417,3.024982213973999,-1.7284817695617676,0.0003162707726005465,2.0636799335479736,5.069319087057867,-0.0011839421931654215,0.2755352556705475,-1.6210716406451624,-0.0,-0.003172117518261075,0.46606165170669556,-0.0,-0.0009775401558727026,1.158414602279663,1.102469195757294e-05,-0.07304414361715317
292.0,254.0,-0.6497,0.6658,9.4146,-0.0257,0.0203,-0.121,-1.8268729648985804,-0.01262050773948431,3.067871332168579,-1.728524923324585,0.00026481651002541184,2.03359317779541,5.069339620857992,-0.0012232291046530008,0.28357216715812683,-1.6210592428790491,-0.0,0.0011074966751039028,0.46608543395996094,-0.0,0.012285002507269382,1.1583789587020874,1.2390318033794756e-06,-0.09921786189079285
292.0,254.0,-0.6497,0.6658,9.4146,-0.0257,0.0203,-0.121,-1.8269411526122035,-0.013118540868163109,3.0581326484680176,-1.728572130203247,0.00023692744434811175,2.0747036933898926,5.069363760739126,-0.0011771984864026308,0.27772921323776245,-1.6210992972003382,-0.0,0.003807535395026207,0.46610578894615173,-0.0,0.007337853312492371,1.1583666801452637,2.230213375087331e-10,-0.125897616147995
292.0,254.0,-0.6497,0.6658,9.4146,-0.0257,0.0203,-0.121,-1.8270212612547816,-0.014582853764295578,3.0320029258728027,-1.728524923324585,0.00021435355301946402,1.9932904243469238,5.069295364409246,-0.0011649809312075377,0.27784785628318787,-1.6210311094867151,-0.0,0.022974997758865356,0.466041624546051,-0.0,0.0018958041910082102,1.1583826541900635,4.0143052998462686e-14,-0.07882751524448395
292.0,254.0,-0.6497,0.6658,9.4146,-0.0257,0.0203,-0.121,-1.827068944970602,-0.015954962000250816,3.0654964447021484,-1.7284659147262573,0.00018754997290670872,2.0319786071777344,5.069275307446279,-0.0011656418209895492,0.2801612615585327,-1.6210511366473597,-0.0,0.01106795109808445,0.46604123711586,-0.0,0.0048084622249007225,1.1584068536758423,9.694074687920731e-20,-0.12724953889846802
292.0,254.0,-0.6497,0.6658,9.4146,-0.0257,0.0203,-0.121,-1.827170034448141,-0.01590288244187832,3.0384621620178223,-1.728541374206543,0.00017311891133431345,2.030646324157715,5.069299447327413,-0.0012623741058632731,0.26165884733200073,-1.6210272947894495,-0.0,0.029944751411676407,0.4660694897174835,-0.0,0.007463091518729925,1.1583384275436401,1.744899106742633e-23,-0.2057611048221588
292.0,254.0,-0.6497,0.6658,9.4146,-0.0257,0.0203,-0.121,-1.8272415600218714,-0.016691172495484352,3.043698787689209,-1.7285209894180298,0.00018624079530127347,2.0677270889282227,5.069299447327413,-0.0020134744700044394,0.26338931918144226,-1.6210477987872522,-0.0,0.01075243391096592,0.46606162190437317,-0.0,0.0088149169459939,1.1583502292633057,4.2137261762174814e-29,-0.18814384937286377
292.0,254.0,-0.6497,0.6658,9.4146,-0.0257,0.0203,-0.121,-1.8272773228087367,-0.016190191730856895,2.992306709289551,-1.7284932136535645,0.00017422829114366323,2.0341227054595947,5.06929578164176,-0.0025453721173107624,0.2626029849052429,-1.6210234800921839,-0.0,0.02414879947900772,0.46612969040870667,-0.0,0.0041186194866895676,1.158362627029419,7.58455844583815e-33,-0.22413259744644165
292.0,254.0,-0.6497,0.6658,9.4146,-0.0257,0.0203,-0.121,-1.8273774586119593,-0.016134466975927353,3.0270652770996094,-1.7284932136535645,0.0001898437476484105,2.0373880863189697,5.06927119472579,-0.0036897717509418726,0.2661133408546448,-1.6210559050189417,-0.0,0.04407151788473129,0.4661095440387726,-0.0,0.006866712588816881,1.15835440158844,1.3651934825032656e-36,-0.17637178301811218
292.0,254.0,-0.6497,0.6658,9.4146,-0.0257,0.0203,-0.121,-1.827494283715719,-0.016610613092780113,3.018324851989746,-1.7284927368164062,0.00019991550652775913,2.0688891410827637,5.06929578164176,-0.005282128229737282,0.26634669303894043,-1.6210435072528284,-0.0,0.01990911364555359,0.4661619961261749,-0.0,0.0074140941724181175,1.1583584547042847,-0.0004898926126770675,-0.20661349594593048
292.0,254.0,-0.6497,0.6658,9.4146,-0.0257,0.0203,-0.121,-1.8274814091124476,-0.016041837632656097,3.0489277839660645,-1.7284892797470093,0.00018950361118186265,2.0111522674560547,5.0691833076770685,-0.0055085597559809685,0.26774412393569946,-1.62101918855776,-0.0,0.02467908337712288,0.4661218822002411,-0.0,-0.0064141820184886456,1.1583424806594849,-0.000489407975692302,-0.24467068910598755
292.0,254.0,-0.6497,0.6658,9.4146,-0.0257,0.0203,-0.121,-1.8276096783080042,-0.01593143120408058,2.9668526649475098,-1.7284971475601196,0.00017198776185978204,2.017397165298462,5.0692235110099695,-0.004380809608846903,0.25760072469711304,-1.621007267628805,-0.0,0.028642941266298294,0.4661217927932739,-0.0,-0.007739530876278877,1.1583830118179321,-0.0004880356427747756,-0.22536006569862366
292.0,254.0,-0.6497,0.6658,9.4146,-0.0257,0.0203,-0.121,-1.8276621303954066,-0.016946421936154366,3.012437343597412,-1.7284817695617676,0.00015408123726956546,2.106518507003784,5.069167452841558,-0.001879155170172453,0.2679062783718109,-1.621075455342428,-0.0,0.037908297032117844,0.46610546112060547,-0.0,0.0031306943856179714,1.1583830118179321,-0.0007774573750793934,-0.22552098333835602
282.0,254.0,-0.6485,0.9398,9.5533,-0.0258,0.0058,-0.1261,-1.827794691125387,-0.017673075199127197,3.000232696533203,-1.7285374402999878,0.00014420590014196932,2.076091766357422,5.0691997585590265,-0.0004642598796635866,0.2676081955432892,-1.6210477987872522,-0.0,0.02787783369421959,0.46606123447418213,-0.0,-0.013395345769822598,1.1583991050720215,-0.001084405928850174,-0.2649722695350647
282.0,254.0,-0.6485,0.9398,9.5533,-0.0258,0.0058,-0.1261,-1.8278824291624964,-0.018032444640994072,3.0007331371307373,-1.7285085916519165,0.00015680919750593603,2.027850389480591,5.069263744145193,-0.0002509048208594322,0.27040383219718933,-1.6210516134845179,-0.0,0.034466348588466644,0.4661095440387726,-0.0,-0.008120923303067684,1.158334732055664,-0.0014230102533474565,-0.29803043603897095
282.0,254.0,-0.6485,0.9398,9.5533,-0.0258,0.0058,-0.1261,-1.82794251064443,-0.018416881561279297,3.008457660675049,-1.7284817695617676,0.00017366380780003965,2.089197874069214,5.0691915331180475,-0.00019609645823948085,0.2602068781852722,-1.6210115591632288,-0.0,0.030308831483125687,0.466065376996994,-0.0,0.012111300602555275,1.158362627029419,-0.0015048383502289653,-0.2822033166885376
282.0,254.0,-0.6485,0.9398,9.5533,-0.0258,0.0058,-0.1261,-1.827998777429098,-0.01912607252597809,3.021749258041382,-1.7284613847732544,0.0004160615208093077,2.040928602218628,5.069211679487982,-0.00016097193292807788,0.2743067741394043,-1.6210477987872522,0.00011235896090511233,0.037998829036951065,0.4660813808441162,-0.0,-0.003557128133252263,1.1583510637283325,-0.0015565423527732491,-0.2911875247955322
282.0,254.0,-0.6485,0.9398,9.5533,-0.0258,0.0058,-0.1261,-1.8281432590880335,-0.01982058398425579,3.003922462463379,-1.7284778356552124,0.0017844900721684098,2.100782632827759,5.069239842682638,-0.00012689686263911426,0.2594756782054901,-1.6210516134845179,0.00013247982133179903,0.054420143365859985,0.46606123447418213,-0.0,-0.005450264550745487,1.1582987308502197,-0.0020197329577058554,-0.29898715019226074
282.0,254.0,-0.6485,0.9398,9.5533,-0.0258,0.0058,-0.1261,-1.8281828365721644,-0.019564060494303703,3.0098624229431152,-1.7284252643585205,0.0026427768170833588,2.086803674697876,5.069235849171438,-0.00011120753333671018,0.2644750475883484,-1.6210597197162073,0.0001251209178008139,0.049468256533145905,0.4661377966403961,-0.0,0.009640408679842949,1.1583064794540405,-0.00216460763476789,-0.3605993390083313
282.0,254.0,-0.6485,0.9398,9.5533,-0.0258,0.0058,-0.1261,-1.82835116008901,-0.01950962096452713,2.9872875213623047,-1.7284648418426514,0.004016114864498377,2.0858142375946045,5.069231766253271,-9.381242853123695e-05,0.2620684802532196,-1.6210554281817835,0.00011548688780749217,0.040647171437740326,0.4661017656326294,-0.0,-0.003686229232698679,1.1583269834518433,-0.0024801348336040974,-0.30709564685821533
282.0,254.0,-0.6485,0.9398,9.5533,-0.0258,0.0058,-0.1261,-1.8283630810179652,-0.01964743621647358,2.982182502746582,-1.7284331321716309,0.004833145532757044,2.0015408992767334,5.069279747992315,-4.816447471966967e-05,0.2809973955154419,-1.6210272947894495,0.00010984822438331321,0.042212046682834625,0.4660813808441162,-0.0,0.005931479390710592,1.158274531364441,-0.0023555797524750233,-0.36702004075050354
282.0,254.0,-0.6485,0.9398,9.5533,-0.0258,0.0058,-0.1261,-1.8284231624998988,-0.01947208307683468,2.985581398010254,-1.728369116783142,0.00562217878177762,2.108950614929199,5.069259691029348,-3.883685712935403e-05,0.2502255439758301,-1.6210153738604944,0.00010473487782292068,0.04350664094090462,0.466065376996994,-0.0,-0.0006658714264631271,1.1582708358764648,-0.002538949018344283,-0.3454904854297638
282.0,254.0,-0.6485,0.9398,9.5533,-0.0258,0.0058,-0.1261,-1.8285757503905238,-0.019360454753041267,3.0181727409362793,-1.7283849716186523,0.006766094826161861,2.1224193572998047,5.069259691029348,-3.436562838032842e-05,0.2760850489139557,-1.621075455342428,9.78989846771583e-05,0.04249747097492218,0.46606123447418213,-0.0,-0.0004845280200242996,1.158319115638733,-0.0029180708806961775,-0.3136385977268219
282.0,254.0,-0.6485,0.9398,9.5533,-0.0258,0.0058,-0.1261,-1.82859530071401,-0.01894763484597206,3.011739730834961,-1.728341817855835,0.0072969477623701096,2.046940326690674,5.069251525193014,-3.192707663401961e-05,0.27119362354278564,-1.6210315863238733,7.630377513123676e-05,0.04196254163980484,0.4660210609436035,-3.212063575119828e-07,0.005045441444963217,1.1582388877868652,-0.00312986271455884,-0.332109659910202
