ramyac6/ROB537/final_project/csv/bad/bad_105.csv
tof_0,tof_1,accelx,accely,accelz,gyrox,gyroy,gyroz,shoulder_lift_joint_position,shoulder_lift_joint_velocity,shoulder_lift_joint_effort,elbow_joint_position,elbow_joint_velocity,elbow_joint_effort,wrist_1_joint_position,wrist_1_joint_velocity,wrist_1_joint_effort,wrist_2_joint_position,wrist_2_joint_velocity,wrist_2_joint_effort,wrist_3_joint_position,wrist_3_joint_velocity,wrist_3_joint_effort,shoulder_pan_joint_position,shoulder_pan_joint_velocity,shoulder_pan_joint_effort
327.0,290.0,6.0215,1.7067,6.8447,-0.0307,0.0182,-0.1126,-1.6436134777464808,0.0,2.384472370147705,-1.1182700395584106,-0.0,2.097904920578003,3.5714518266865234,0.0,0.26217877864837646,-1.6798322836505335,0.0,0.00530024990439415,0.6776508688926697,0.0,-0.010347668081521988,0.7983100414276123,0.0,0.030705222859978676
327.0,290.0,6.0215,1.7067,6.8447,-0.0307,0.0182,-0.1126,-1.6435934505858363,0.0,2.372519016265869,-1.1182461977005005,-0.0,1.9929020404815674,3.571411295528076,0.0,0.28525301814079285,-1.6798399130450647,0.0,-0.0023927048314362764,0.6776266098022461,0.0,-0.004512493964284658,0.7983059883117676,0.0,0.0005039423704147339
327.0,290.0,6.0215,1.7067,6.8447,-0.0307,0.0182,-0.1126,-1.6436015568175257,0.0,2.3788561820983887,-1.1182174682617188,-0.0,2.0867557525634766,3.57143942892041,0.0,0.2621590793132782,-1.6798079649554651,0.0,0.011517520993947983,0.6776430606842041,0.0,-0.008116445504128933,0.7982898354530334,0.0,0.021039826795458794
327.0,290.0,6.0215,1.7067,6.8447,-0.0307,0.0182,-0.1126,-1.643609186212057,0.0,2.3889987468719482,-1.118229627609253,-0.0,2.018604040145874,3.5714475351520996,0.0,0.2741054892539978,-1.6798160711871546,0.0,0.005072879604995251,0.6776631474494934,0.0,-0.006554222200065851,0.7982777953147888,0.0,-0.02984924241900444
327.0,290.0,6.0215,1.7067,6.8447,-0.0307,0.0182,-0.1126,-1.6435572109618128,0.0,2.3419106006622314,-1.1182658672332764,-0.0,2.078526258468628,3.571403666133545,0.0,0.27302300930023193,-1.6798160711871546,0.0,0.01008026022464037,0.6776631474494934,0.0,-0.0030070592183619738,0.7983664274215698,0.0,0.029992010444402695
327.0,290.0,6.0215,1.7067,6.8447,-0.0307,0.0182,-0.1126,-1.6435767612852992,0.0,2.3785793781280518,-1.1182584762573242,-0.0,2.03073787689209,3.5713793474384765,0.0,0.274723082780838,-1.6798279921161097,0.0,-0.0003664434188976884,0.6776106357574463,0.0,-0.011129332706332207,0.7982980012893677,0.0,-0.04013145714998245
327.0,290.0,6.0215,1.7067,6.8447,-0.0307,0.0182,-0.1126,-1.6435896358885707,0.0,2.3567187786102295,-1.1182255744934082,-0.0,2.0734634399414062,3.5714351373859863,0.0,0.27729448676109314,-1.6798160711871546,0.0,0.0016142231179401278,0.6777193546295166,0.0,-0.009126761928200722,0.7983100414276123,0.0,0.003361988812685013
327.0,290.0,6.0215,1.7067,6.8447,-0.0307,0.0182,-0.1126,-1.6436053715147914,0.0,2.3721821308135986,-1.1182576417922974,-0.0,2.0103039741516113,3.5714642244526367,0.0,0.26963168382644653,-1.6798198858844202,0.0,0.005933381617069244,0.677703320980072,0.0,-0.0008749992121011019,0.7983059883117676,0.0,0.033869486302137375
326.0,305.0,5.9438,1.6828,6.9577,-0.0307,0.0203,-0.1171,-1.6436416111388148,0.0,2.355222702026367,-1.118246078491211,-0.0,2.1279709339141846,3.5714518266865234,0.0,0.28073328733444214,-1.6798723379718226,0.0,0.010905742645263672,0.6776873469352722,0.0,-0.009376891888678074,0.7982695698738098,1.269097271716646e-09,0.010046025738120079
326.0,305.0,5.9438,1.6828,6.9577,-0.0307,0.0203,-0.1171,-1.6436215839781703,0.0,2.371854782104492,-1.1182420253753662,-0.0,2.0261952877044678,3.571403666133545,0.0,0.28069883584976196,-1.6798399130450647,0.0,0.00024607416708022356,0.677638590335846,0.0,-0.005572596564888954,0.7983141541481018,3.0647206337118798e-15,-0.014155533164739609
326.0,305.0,5.9438,1.6828,6.9577,-0.0307,0.0203,-0.1171,-1.6435896358885707,0.0,2.3364787101745605,-1.1181654930114746,-0.0,2.1123273372650146,3.571371241206787,0.0,0.2769543528556824,-1.679864231740133,0.0,0.00414264714345336,0.67766273021698,0.0,-0.007608503103256226,0.7983059883117676,7.400939229083225e-21,-0.0380094051361084
326.0,305.0,5.9438,1.6828,6.9577,-0.0307,0.0203,-0.1171,-1.6436335049071253,0.0,2.4087181091308594,-1.118246078491211,-0.0,2.0352585315704346,3.5715080934711914,0.0,0.2780008018016815,-1.6798442045794886,0.0,0.009595135226845741,0.6776914000511169,0.0,-0.009392032399773598,0.7983059883117676,1.7872397231576267e-26,-0.03272087872028351
326.0,305.0,5.9438,1.6828,6.9577,-0.0307,0.0203,-0.1171,-1.6436053715147914,0.0,2.3600399494171143,-1.1182255744934082,-0.0,2.036731243133545,3.5714637476154785,0.0,0.2680714428424835,-1.6798079649554651,0.0,-0.010563652031123638,0.6776508688926697,0.0,0.003951818682253361,0.7983100414276123,4.3159732703435305e-32,-0.010894997045397758
326.0,305.0,5.9438,1.6828,6.9577,-0.0307,0.0203,-0.1171,-1.6436454258360804,0.0,2.329249143600464,-1.118261694908142,-0.0,2.0896501541137695,3.5714475351520996,0.0,0.26885828375816345,-1.6798237005816858,0.0,-0.006654280237853527,0.677719235420227,0.0,-0.0034882898908108473,0.7982973456382751,2.394565626673284e-06,0.009505579248070717
326.0,305.0,5.9438,1.6828,6.9577,-0.0307,0.0203,-0.1171,-1.6436134777464808,0.0,2.3938682079315186,-1.1182255744934082,-0.0,2.0589563846588135,3.571459932918213,0.0,0.26728713512420654,-1.6798322836505335,0.0,0.005773902405053377,0.6776873469352722,0.0,-0.0066762156784534454,0.7982980012893677,-5.449365289678099e-06,0.027977343648672104
326.0,305.0,5.9438,1.6828,6.9577,-0.0307,0.0203,-0.1171,-1.6435896358885707,0.0,2.349205493927002,-1.1181975603103638,-0.0,2.0619332790374756,3.5714518266865234,0.0,0.2854421138763428,-1.6798279921161097,0.0,0.0033455784432590008,0.6776431202888489,0.0,-0.0050499835051596165,0.7983219623565674,-1.3159575859567063e-11,-0.0030553496908396482
326.0,305.0,5.9438,1.6828,6.9577,-0.0307,0.0203,-0.1171,-1.6436010799803675,0.0,2.3543179035186768,-1.1182461977005005,-0.0,2.0222222805023193,3.571371241206787,0.0,0.28864094614982605,-1.6798160711871546,0.0,0.001506246393546462,0.6776508688926697,0.0,-0.006887194234877825,0.7982737421989441,-3.177882329640923e-17,-0.005167008843272924
326.0,305.0,5.9438,1.6828,6.9577,-0.0307,0.0203,-0.1171,-1.6436053715147914,0.0,2.372408866882324,-1.1181975603103638,-0.0,2.0537688732147217,3.5714475351520996,0.0,0.2795373201370239,-1.6798599402057093,0.0,-0.0016137592028826475,0.6776430606842041,0.0,0.0013512496370822191,0.7983341813087463,-7.674211804300427e-23,-0.03547407686710358
326.0,305.0,5.9438,1.6828,6.9577,-0.0307,0.0203,-0.1171,-1.6435891590514125,0.0,2.3688836097717285,-1.1182339191436768,-0.0,2.0414106845855713,3.5714475351520996,0.0,0.2768576145172119,-1.6798203627215784,0.0,0.01843530312180519,0.6776914000511169,0.0,0.0036674626171588898,0.7983100414276123,-1.8532318667764509e-28,-0.03313453495502472
326.0,305.0,5.9438,1.6828,6.9577,-0.0307,0.0203,-0.1171,-1.6436010799803675,0.0,2.392383575439453,-1.1182337999343872,-0.0,2.0413990020751953,3.5714475351520996,0.0,0.26829734444618225,-1.6798237005816858,0.0,0.00221027759835124,0.6776710152626038,0.0,0.0012165624648332596,0.7983100414276123,-4.475337041498324e-34,0.0381796769797802
326.0,305.0,5.9438,1.6828,6.9577,-0.0307,0.0203,-0.1171,-1.643597265283102,0.0,2.3846449851989746,-1.1181693077087402,-0.0,2.008509635925293,3.5714680391499023,0.0,0.27978017926216125,-1.6798442045794886,0.0,0.014666683971881866,0.6776590347290039,0.0,0.008686576038599014,0.7982617020606995,-1.0807416315212649e-39,-0.043578099459409714
326.0,305.0,5.9438,1.6828,6.9577,-0.0307,0.0203,-0.1171,-1.643609186212057,0.0,2.3096227645874023,-1.1182100772857666,-0.0,2.0839128494262695,3.5714475351520996,0.0,0.273061603307724,-1.6798279921161097,0.0,0.000997549737803638,0.6776270270347595,0.0,-0.009067609906196594,0.7983219623565674,-2.802596928649634e-45,-0.03176431357860565
326.0,305.0,5.9438,1.6828,6.9577,-0.0307,0.0203,-0.1171,-1.6435657940306605,0.0,2.4107542037963867,-1.1182494163513184,-0.0,2.001309394836426,3.571411295528076,0.0,0.2769653797149658,-1.6798036734210413,0.0,-0.003657301887869835,0.6776549816131592,0.0,-0.011650897562503815,0.7983100414276123,0.0,-0.02693561092019081
326.0,296.0,5.933,1.6732,6.9428,-0.0374,0.0221,-0.1113,-1.643609186212057,0.0,2.3502564430236816,-1.1182379722595215,-0.0,2.073180913925171,3.5714518266865234,0.0,0.2758004665374756,-1.6798279921161097,0.0,0.0020875928457826376,0.6776509284973145,0.0,-0.004086353816092014,0.7983141541481018,0.0,-0.01154475286602974
326.0,296.0,5.933,1.6732,6.9428,-0.0374,0.0221,-0.1113,-1.6436215839781703,0.0,2.400906562805176,-1.1182100772857666,-0.0,2.0493640899658203,3.571427507991455,0.0,0.27100127935409546,-1.6798079649554651,0.0,-0.004808411002159119,0.6776066422462463,0.0,-0.017044413834810257,0.7982898354530334,0.0,0.024861209094524384
326.0,296.0,5.933,1.6732,6.9428,-0.0374,0.0221,-0.1113,-1.6436292133727015,0.0,2.3521599769592285,-1.1182018518447876,-0.0,2.02213454246521,3.5714680391499023,0.0,0.28223633766174316,-1.6798237005816858,0.0,0.009690646082162857,0.6776631474494934,0.0,-0.014778761193156242,0.7982858419418335,0.0,-0.003315294161438942
326.0,296.0,5.933,1.6732,6.9428,-0.0374,0.0221,-0.1113,-1.6435853443541468,0.0,2.3697304725646973,-1.1182183027267456,-0.0,2.0342116355895996,3.5714356142231445,0.0,0.2725299894809723,-1.6798279921161097,0.0,0.010608206503093243,0.6776749491691589,0.0,-0.0036812745966017246,0.7983301281929016,0.0,0.031019046902656555
326.0,296.0,5.933,1.6732,6.9428,-0.0374,0.0221,-0.1113,-1.6435934505858363,0.0,2.3625235557556152,-1.118201732635498,-0.0,1.9911987781524658,3.571431799525879,0.0,0.27437645196914673,-1.6798237005816858,0.0,0.0022975807078182697,0.677614688873291,0.0,0.0012883740710094571,0.7983100414276123,0.0,-0.016062472015619278
326.0,296.0,5.933,1.6732,6.9428,-0.0374,0.0221,-0.1113,-1.6435729465880335,0.0,2.342268705368042,-1.1182183027267456,-0.0,2.0688037872314453,3.5714074808308105,0.0,0.271261990070343,-1.6797879377948206,0.0,-0.002312042284756899,0.6776067018508911,0.0,-0.0096248434856534,0.7982857823371887,0.0,-0.008081265725195408
326.0,296.0,5.933,1.6732,6.9428,-0.0374,0.0221,-0.1113,-1.6436053715147914,0.0,2.350222110748291,-1.118193507194519,-0.0,2.0170159339904785,3.5714031892963867,0.0,0.27799689769744873,-1.6798198858844202,0.0,0.007192607037723064,0.6776108145713806,0.0,-0.004954296629875898,0.798358142375946,0.0,-0.033529557287693024
326.0,296.0,5.933,1.6732,6.9428,-0.0374,0.0221,-0.1113,-1.6436215839781703,0.0,2.3220062255859375,-1.1182215213775635,-0.0,2.066129684448242,3.5714031892963867,0.0,0.28140485286712646,-1.6798279921161097,0.0,0.006360921077430248,0.6775820851325989,0.0,-0.008609035983681679,0.7983499765396118,0.0,0.010328737087547779
326.0,296.0,5.933,1.6732,6.9428,-0.0374,0.0221,-0.1113,-1.6435891590514125,0.0,2.358098030090332,-1.1181775331497192,-0.0,2.0140857696533203,3.571471853847168,0.0,0.28069043159484863,-1.6797917524920862,0.0,-0.0008572001243010163,0.6776751279830933,0.0,-0.009366428479552269,0.7983018755912781,0.0,-0.01640591025352478
326.0,296.0,5.933,1.6732,6.9428,-0.0374,0.0221,-0.1113,-1.6435853443541468,0.0,2.3553977012634277,-1.118193507194519,-0.0,2.1029629707336426,3.571488066310547,0.0,0.2697313725948334,-1.6798117796527308,0.0,-0.0067972750402987,0.677679181098938,0.0,-0.01483694277703762,0.7983061671257019,0.0,0.04882056266069412
326.0,296.0,5.933,1.6732,6.9428,-0.0374,0.0221,-0.1113,-1.6436130009093226,0.0,2.4017231464385986,-1.1181894540786743,-0.0,2.045928478240967,3.571456118220947,0.0,0.27656644582748413,-1.67979604402651,0.0,0.00012229022104293108,0.6776955127716064,0.0,-0.0036155583802610636,0.7982777953147888,0.0,-0.017817029729485512
326.0,296.0,5.933,1.6732,6.9428,-0.0374,0.0221,-0.1113,-1.6436296902098597,0.0,2.390501022338867,-1.118269920349121,-0.0,2.075951337814331,3.57143942892041,0.0,0.270693838596344,-1.6798360983477991,0.0,0.006393264979124069,0.6776065230369568,0.0,0.004559443797916174,0.7983018755912781,0.0,-0.004465941339731216
326.0,296.0,5.933,1.6732,6.9428,-0.0374,0.0221,-0.1113,-1.6436015568175257,0.0,2.359531879425049,-1.1182339191436768,-0.0,2.0758981704711914,3.571443720454834,0.0,0.2798052728176117,-1.6798279921161097,0.0,-0.0016334247775375843,0.6776466965675354,0.0,-0.021620433777570724,0.7983021140098572,0.0,-0.004604296758770943
326.0,296.0,5.933,1.6732,6.9428,-0.0374,0.0221,-0.1113,-1.6436053715147914,0.0,2.3484575748443604,-1.1182575225830078,-0.0,2.1151535511016846,3.5714155870625,0.0,0.28135377168655396,-1.6798442045794886,0.0,-0.0030319218058139086,0.6776914000511169,0.0,-0.013930941931903362,0.7983100414276123,0.0,0.022524142637848854
326.0,296.0,5.933,1.6732,6.9428,-0.0374,0.0221,-0.1113,-1.6436053715147914,0.0,2.3769989013671875,-1.1182255744934082,-0.0,2.0644545555114746,3.57143942892041,0.0,0.26689413189888,-1.6798160711871546,0.0,0.012835348024964333,0.6776590943336487,0.0,0.0025114286690950394,0.7983219623565674,0.0,0.00355656910687685
319.0,307.0,6.1232,1.7527,6.5839,-0.0341,0.0247,-0.1168,-1.6435853443541468,0.0,2.3984642028808594,-1.1182215213775635,-0.0,2.051102876663208,3.5714475351520996,0.0,0.2794681489467621,-1.6797917524920862,0.0,-0.008463587611913681,0.6776466965675354,0.0,-0.0031749564222991467,0.7982818484306335,0.0,-0.0033036163076758385
319.0,307.0,6.1232,1.7527,6.5839,-0.0341,0.0247,-0.1168,-1.6436096630492152,0.0,2.3640475273132324,-1.1182657480239868,-0.0,2.0365591049194336,3.5714518266865234,0.0,0.2810593843460083,-1.6797879377948206,0.0,0.0034639155492186546,0.6776389479637146,0.0,-0.011573556810617447,0.798334002494812,0.0,0.01849340833723545
319.0,307.0,6.1232,1.7527,6.5839,-0.0341,0.0247,-0.1168,-1.6436010799803675,0.0,2.3459877967834473,-1.1182503700256348,-0.0,2.046889305114746,3.57143942892041,0.0,0.27517983317375183,-1.6798117796527308,0.0,-0.0035789217799901962,0.677638590335846,0.0,-0.013575641438364983,0.7983580827713013,0.0,0.019173894077539444
319.0,307.0,6.1232,1.7527,6.5839,-0.0341,0.0247,-0.1168,-1.6435934505858363,0.0,2.411632776260376,-1.118173360824585,-0.0,2.0817131996154785,3.571423216457031,0.0,0.2675824463367462,-1.6798399130450647,0.0,-0.01937207020819187,0.6776833534240723,0.0,-0.0011520383413881063,0.798281729221344,0.0,0.0156723540276289
319.0,307.0,6.1232,1.7527,6.5839,-0.0341,0.0247,-0.1168,-1.6436177692809046,0.0,2.3346588611602783,-1.118193507194519,-0.0,2.0159835815429688,3.5714313226887207,0.0,0.2704377770423889,-1.6798237005816858,0.0,0.005164436064660549,0.677666962146759,0.0,-0.0035266606137156487,0.7982696890830994,0.0,0.03131105750799179
319.0,307.0,6.1232,1.7527,6.5839,-0.0341,0.0247,-0.1168,-1.6436015568175257,0.0,2.3089795112609863,-1.1182337999343872,-0.0,2.0675547122955322,3.5714351373859863,0.0,0.26518547534942627,-1.67979604402651,0.0,0.00667093601077795,0.6776590943336487,0.0,-0.004254556261003017,0.7983499765396118,0.0,0.007724473252892494
319.0,307.0,6.1232,1.7527,6.5839,-0.0341,0.0247,-0.1168,-1.64359774212026,0.0,2.332000732421875,-1.1182183027267456,-0.0,2.043752908706665,3.5714475351520996,0.0,0.2722252607345581,-1.6798561255084437,0.0,0.0007060011848807335,0.6776590943336487,0.0,-0.0030847545713186264,0.7983301281929016,0.0,-0.022464660927653313
319.0,307.0,6.1232,1.7527,6.5839,-0.0341,0.0247,-0.1168,-1.6435686550536097,0.0,2.3602848052978516,-1.1182615756988525,-0.0,2.02675199508667,3.5714074808308105,0.0,0.26664653420448303,-1.6798680464373987,0.0,0.005329763516783714,0.677679181098938,0.0,-0.01885063946247101,0.7983018755912781,0.0,0.02179020643234253
319.0,307.0,6.1232,1.7527,6.5839,-0.0341,0.0247,-0.1168,-1.6436215839781703,0.0,2.352324962615967,-1.1182215213775635,-0.0,2.0106916427612305,3.571456118220947,0.0,0.2755155861377716,-1.6798279921161097,0.0,0.014637771993875504,0.6776266098022461,0.0,-0.013125560246407986,0.798334002494812,0.0,0.021594036370515823
319.0,307.0,6.1232,1.7527,6.5839,-0.0341,0.0247,-0.1168,-1.6436454258360804,0.0,2.3504252433776855,-1.1181654930114746,-0.0,2.1025452613830566,3.57143942892041,0.0,0.29055023193359375,-1.6798160711871546,0.0,-0.008487563580274582,0.6776467561721802,0.0,-0.006933902390301228,0.7983137965202332,0.0,-0.008053559809923172
319.0,307.0,6.1232,1.7527,6.5839,-0.0341,0.0247,-0.1168,-1.6435686550536097,0.0,2.3479485511779785,-1.1182420253753662,-0.0,2.027446985244751,3.5714680391499023,0.0,0.27790313959121704,-1.6798117796527308,0.0,-0.008063491433858871,0.6776832342147827,0.0,0.00032643810845911503,0.7983178496360779,0.0,-0.04956461861729622
319.0,307.0,6.1232,1.7527,6.5839,-0.0341,0.0247,-0.1168,-1.6435934505858363,0.0,2.3664464950561523,-1.118189811706543,-0.0,2.08193039894104,3.571471853847168,0.0,0.27568352222442627,-1.6798079649554651,0.0,-0.002078465884551406,0.6776224970817566,0.0,-0.008651630952954292,0.7983021140098572,0.0,-0.03096412494778633
319.0,307.0,6.1232,1.7527,6.5839,-0.0341,0.0247,-0.1168,-1.6435934505858363,0.0,2.3663668632507324,-1.1182100772857666,-0.0,2.0468862056732178,3.5714680391499023,0.0,0.2646555006504059,-1.6797879377948206,0.0,0.010466540232300758,0.6776384711265564,0.0,-0.004032802768051624,0.7983061671257019,0.0,-0.030624311417341232
319.0,307.0,6.1232,1.7527,6.5839,-0.0341,0.0247,-0.1168,-1.6436053715147914,0.0,2.3683407306671143,-1.118229627609253,-0.0,2.067903757095337,3.5714475351520996,0.0,0.2787128984928131,-1.6798680464373987,0.0,-0.0019107984844595194,0.6776508688926697,0.0,-0.0171088557690382,0.7982980012893677,0.0,0.038662102073431015
319.0,307.0,6.1232,1.7527,6.5839,-0.0341,0.0247,-0.1168,-1.6435934505858363,0.0,2.3213753700256348,-1.118201732635498,-0.0,2.048140048980713,3.571431799525879,0.0,0.26462221145629883,-1.6798041502581995,0.0,0.011546863242983818,0.6776832342147827,0.0,-0.005421753507107496,0.7983100414276123,0.0,-0.027121778577566147
319.0,307.0,6.1232,1.7527,6.5839,-0.0341,0.0247,-0.1168,-1.6436010799803675,0.0,2.376826763153076,-1.1182379722595215,-0.0,2.0655064582824707,3.57143942892041,0.0,0.2779552936553955,-1.6797879377948206,0.0,0.010793210007250309,0.6776710152626038,0.0,-0.009617244824767113,0.7982898950576782,0.0,0.038346320390701294
325.0,288.0,6.0652,1.7139,6.6586,-0.0434,0.025,-0.1214,-1.6435853443541468,0.0,2.394469738006592,-1.1182420253753662,-0.0,2.007115364074707,3.57143942892041,0.0,0.28570038080215454,-1.6798117796527308,0.0,0.004464735742658377,0.677670955657959,0.0,-0.007783412002027035,0.7982777953147888,0.0,-0.028955411165952682
325.0,288.0,6.0652,1.7139,6.6586,-0.0434,0.025,-0.1214,-1.6436411343016566,0.0,2.341224193572998,-1.118213176727295,-0.0,2.0239601135253906,3.5714475351520996,0.0,0.2704697847366333,-1.6798117796527308,0.0,0.0073531330563127995,0.6776996850967407,0.0,0.0012034078827127814,0.7982898354530334,0.0,0.030002102255821228
325.0,288.0,6.0652,1.7139,6.6586,-0.0434,0.025,-0.1214,-1.643597265283102,0.0,2.3802688121795654,-1.118261694908142,-0.0,2.0684523582458496,3.571456118220947,0.0,0.2672881484031677,-1.679835621510641,0.0,-0.007114983629435301,0.6776955127716064,0.0,0.003160879947245121,0.7983182072639465,0.0,0.009266485460102558
325.0,288.0,6.0652,1.7139,6.6586,-0.0434,0.025,-0.1214,-1.6436134777464808,0.0,2.4173264503479004,-1.1182141304016113,-0.0,2.008052110671997,3.5713507372089843,0.0,0.2682790160179138,-1.6798079649554651,0.0,0.004907785914838314,0.6776832342147827,0.0,-0.013075166381895542,0.7983341813087463,0.0,-0.016511771827936172
325.0,288.0,6.0652,1.7139,6.6586,-0.0434,0.025,-0.1214,-1.6436134777464808,0.0,2.3656747341156006,-1.1182461977005005,-0.0,2.0393874645233154,3.571459932918213,0.0,0.26666489243507385,-1.679784123097555,0.0,-0.008411739021539688,0.6776426434516907,0.0,-0.007580897770822048,0.7983100414276123,0.0,0.016995208337903023
325.0,288.0,6.0652,1.7139,6.6586,-0.0434,0.025,-0.1214,-1.643564840356344,0.0,2.3756632804870605,-1.118173360824585,-0.0,2.0444133281707764,3.571459932918213,0.0,0.27225568890571594,-1.6798203627215784,0.0,0.011391479521989822,0.67766273021698,0.0,-0.012966740876436234,0.7983061075210571,0.0,-0.0014114961959421635
325.0,288.0,6.0652,1.7139,6.6586,-0.0434,0.025,-0.1214,-1.643609186212057,0.0,2.3546249866485596,-1.1182864904403687,-0.0,2.066490411758423,3.5714761453815917,0.0,0.28259405493736267,-1.6798198858844202,0.0,0.01010679081082344,0.6776955127716064,0.0,-0.005876042880117893,0.7982979416847229,0.0,0.014520121738314629
325.0,288.0,6.0652,1.7139,6.6586,-0.0434,0.025,-0.1214,-1.643609186212057,0.0,2.386388063430786,-1.118282437324524,-0.0,1.986748456954956,3.5714155870625,0.0,0.26877492666244507,-1.6798279921161097,0.0,-0.004907968454062939,0.6776426434516907,0.0,0.0017142030410468578,0.7983222603797913,0.0,0.007749738171696663
325.0,288.0,6.0652,1.7139,6.6586,-0.0434,0.025,-0.1214,-1.6436053715147914,0.0,2.39162015914917,-1.118261694908142,-0.0,2.072760581970215,3.5714194017597656,0.0,0.2736774682998657,-1.6798237005816858,0.0,-0.001925301505252719,0.6776270270347595,0.0,-0.00706564262509346,0.7982416749000549,0.0,0.002757159061729908
325.0,288.0,6.0652,1.7139,6.6586,-0.0434,0.025,-0.1214,-1.6435653171935023,0.0,2.3720736503601074,-1.1182339191436768,-0.0,2.017808437347412,3.5714804369160156,0.0,0.28055670857429504,-1.6797879377948206,0.0,0.0032710768282413483,0.6776025295257568,0.0,-0.0008725794032216072,0.798293948173523,0.0,-0.013002734631299973
325.0,288.0,6.0652,1.7139,6.6586,-0.0434,0.025,-0.1214,-1.6436296902098597,0.0,2.382366180419922,-1.118193507194519,-0.0,2.0760135650634766,3.5714351373859863,0.0,0.284298837184906,-1.6798561255084437,0.0,0.014664096757769585,0.677679181098938,0.0,-0.01776622235774994,0.7983182072639465,0.0,-0.03492584452033043
325.0,288.0,6.0652,1.7139,6.6586,-0.0434,0.025,-0.1214,-1.643609186212057,0.0,2.3974921703338623,-1.1181975603103638,-0.0,1.9974851608276367,3.5713788706013183,0.0,0.28289592266082764,-1.6798480192767542,0.0,0.009895251132547855,0.6776586771011353,0.0,-0.017021160572767258,0.7983060479164124,0.0,0.02220739983022213
325.0,288.0,6.0652,1.7139,6.6586,-0.0434,0.025,-0.1214,-1.6435896358885707,0.0,2.386561870574951,-1.1182337999343872,-0.0,2.0609540939331055,3.571484251613281,0.0,0.27171850204467773,-1.6797593275653284,0.0,-0.0063838595524430275,0.6776266098022461,0.0,0.004000314511358738,0.7983019351959229,0.0,0.006620220839977264
325.0,288.0,6.0652,1.7139,6.6586,-0.0434,0.025,-0.1214,-1.6435934505858363,0.0,2.3180599212646484,-1.1182100772857666,-0.0,2.0654215812683105,3.5714155870625,0.0,0.2773852050304413,-1.6798599402057093,0.0,0.0033331275917589664,0.6776549816131592,0.0,-0.005470549687743187,0.7983061671257019,0.0,0.015109220519661903
325.0,288.0,6.0652,1.7139,6.6586,-0.0434,0.025,-0.1214,-1.6435815296568812,0.0,2.3954617977142334,-1.1181734800338745,-0.0,2.0550880432128906,3.5714761453815917,0.0,0.2765004336833954,-1.6798842589007776,0.0,0.002155859721824527,0.6776508688926697,0.0,-0.010491088032722473,0.7983138561248779,0.0,0.02004462294280529
314.0,291.0,5.9438,1.6552,7.0014,-0.0414,0.0208,-0.1145,-1.6436215839781703,0.0,2.343173027038574,-1.1182420253753662,-0.0,2.0689549446105957,3.5714074808308105,0.0,0.27272987365722656,-1.6798237005816858,0.0,0.018591564148664474,0.6776590347290039,6.068305302697752e-10,-0.00410271342843771,0.798314094543457,0.0,-0.04189460724592209
314.0,291.0,5.9438,1.6552,7.0014,-0.0414,0.0208,-0.1145,-1.6436215839781703,0.0,2.3651366233825684,-1.118193507194519,-0.0,2.0632078647613525,3.5714031892963867,0.0,0.26481571793556213,-1.6798279921161097,0.0,-0.001035012654028833,0.67766273021698,1.6891350785534082e-13,0.0030959041323512793,0.7983421087265015,0.0,0.04033061861991882
314.0,291.0,5.9438,1.6552,7.0014,-0.0414,0.0208,-0.1145,-1.6435896358885707,0.0,2.3809118270874023,-1.118213176727295,-0.0,2.05145263671875,3.571431799525879,0.0,0.26865988969802856,-1.6798442045794886,0.0,-0.003302643308416009,0.6776914000511169,4.701770040623274e-17,-0.007868803106248379,0.7982696890830994,0.0,0.03887312859296799
314.0,291.0,5.9438,1.6552,7.0014,-0.0414,0.0208,-0.1145,-1.6435934505858363,0.0,2.3363358974456787,-1.1182576417922974,-0.0,2.0286128520965576,3.57143942892041,0.0,0.27145200967788696,-1.679824177418844,0.0,0.02339157462120056,0.6776832342147827,1.3087547446443868e-20,-0.010419420897960663,0.7983300685882568,0.0,-0.01177346520125866
314.0,291.0,5.9438,1.6552,7.0014,-0.0414,0.0208,-0.1145,-1.643637319604391,0.0,2.3464791774749756,-1.1182215213775635,-0.0,2.074936866760254,3.5714351373859863,0.0,0.2771707773208618,-1.6798842589007776,0.0,-2.5707297027111053e-05,0.6776997447013855,3.642966365628327e-24,0.009468639269471169,0.7982980012893677,0.0,0.04133462533354759
314.0,291.0,5.9438,1.6552,7.0014,-0.0414,0.0208,-0.1145,-1.6436296902098597,0.0,2.3512539863586426,-1.1182174682617188,-0.0,2.0257632732391357,3.5713912683674316,0.0,0.258227676153183,-1.6798160711871546,0.0,-0.005022554658353329,0.677666962146759,1.0140331231919843e-27,-0.010936135426163673,0.7983260154724121,0.0,-0.028526632115244865
314.0,291.0,5.9438,1.6552,7.0014,-0.0414,0.0208,-0.1145,-1.643625398675436,0.0,2.3416521549224854,-1.118282437324524,-0.0,2.126312255859375,3.571459932918213,0.0,0.27247947454452515,-1.6798237005816858,0.0,0.004706047475337982,0.6776384711265564,2.8225984457876978e-31,-0.012009206227958202,0.7982737421989441,0.0,-0.016537193208932877
314.0,291.0,5.9438,1.6552,7.0014,-0.0414,0.0208,-0.1145,-1.6436134777464808,0.0,2.3772873878479004,-1.1182265281677246,-0.0,2.06052303314209,3.57143942892041,0.0,0.27494436502456665,-1.6798322836505335,0.0,0.0012301041278988123,0.6776790618896484,7.856807368551281e-35,-0.005891887936741114,0.798277735710144,0.0,-0.014981454238295555
314.0,291.0,5.9438,1.6552,7.0014,-0.0414,0.0208,-0.1145,-1.6435657940306605,0.0,2.347799777984619,-1.118253469467163,-0.0,2.0701353549957275,3.5714351373859863,0.0,0.27787041664123535,-1.6798198858844202,0.0,0.013900769874453545,0.6776148080825806,2.1869710604205946e-38,-0.00917723961174488,0.7983100414276123,0.0,0.019228480756282806
314.0,291.0,5.9438,1.6552,7.0014,-0.0414,0.0208,-0.1145,-1.64359774212026,0.0,2.4060325622558594,-1.1182141304016113,-0.0,2.009181022644043,3.5714637476154785,0.0,0.2641613781452179,-1.6798480192767542,0.0,0.007372394669800997,0.677614688873291,6.087240529027005e-42,-0.005109468009322882,0.7983502745628357,0.0,0.021772058680653572
314.0,291.0,5.9438,1.6552,7.0014,-0.0414,0.0208,-0.1145,-1.6436172924437464,0.0,2.376453399658203,-1.118193507194519,-0.0,2.0970425605773926,3.5714074808308105,0.0,0.2790325880050659,-1.6798322836505335,0.0,0.009983137249946594,0.6776307225227356,1.401298464324817e-45,-0.005145851522684097,0.7983020544052124,0.0,-0.010284175164997578
314.0,291.0,5.9438,1.6552,7.0014,-0.0414,0.0208,-0.1145,-1.643609186212057,0.0,2.348557949066162,-1.1182503700256348,-0.0,2.02970027923584,3.57143942892041,0.0,0.27651095390319824,-1.6797998587237757,0.0,-0.0015334475319832563,0.6776549816131592,0.0,-0.00021598255261778831,0.7983300685882568,0.0,0.0011135645909234881
314.0,291.0,5.9438,1.6552,7.0014,-0.0414,0.0208,-0.1145,-1.6436573467650355,0.0,2.370861530303955,-1.1182059049606323,-0.0,2.0476202964782715,3.5714194017597656,0.0,0.27789899706840515,-1.6798237005816858,0.0,0.004562968388199806,0.6776873469352722,0.0,-0.006089149974286556,0.7983421087265015,0.0,0.010912938043475151
314.0,291.0,5.9438,1.6552,7.0014,-0.0414,0.0208,-0.1145,-1.6435891590514125,0.0,2.387232780456543,-1.1182503700256348,-0.0,2.0653865337371826,3.5714356142231445,0.0,0.27979612350463867,-1.6797998587237757,0.0,0.015218004584312439,0.6775861978530884,0.0,-0.0034574270248413086,0.798293948173523,0.0,-0.017328472808003426
314.0,291.0,5.9438,1.6552,7.0014,-0.0414,0.0208,-0.1145,-1.643609186212057,0.0,2.339954137802124,-1.1182337999343872,-0.0,2.0752506256103516,3.5714194017597656,0.0,0.27471357583999634,-1.6798237005816858,0.0,0.007889112457633018,0.6776188611984253,0.0,-0.006568153388798237,0.7983020544052124,0.0,0.013144422322511673
328.0,299.0,6.0138,1.6881,6.8662,-0.0367,0.0254,-0.1176,-1.6435448131956996,0.0,2.353318214416504,-1.1182223558425903,-0.0,2.071018934249878,3.571422739619873,0.0,0.2730555832386017,-1.6798518339740198,0.0,-0.005313863977789879,0.6776669025421143,0.0,-0.006470255553722382,0.7983100414276123,0.0,-0.020654695108532906
328.0,299.0,6.0138,1.6881,6.8662,-0.0367,0.0254,-0.1176,-1.6436172924437464,0.0,2.366950750350952,-1.1182503700256348,-0.0,2.0256426334381104,3.571455641383789,0.0,0.2747461497783661,-1.6798561255084437,0.0,0.00018272316083312035,0.6776348948478699,0.0,0.0005078751710243523,0.7983260154724121,0.0,-0.024403145536780357
328.0,299.0,6.0138,1.6881,6.8662,-0.0367,0.0254,-0.1176,-1.643609186212057,0.0,2.369626522064209,-1.1181857585906982,-0.0,2.0927653312683105,3.5714351373859863,0.0,0.2828338146209717,-1.6798322836505335,0.0,-0.0036661424674093723,0.6776105761528015,0.0,-0.006340730935335159,0.798293948173523,0.0,-0.006440844386816025
328.0,299.0,6.0138,1.6881,6.8662,-0.0367,0.0254,-0.1176,-1.6435533962645472,0.0,2.35644793510437,-1.1182098388671875,-0.0,2.0502407550811768,3.5714761453815917,0.0,0.2822549045085907,-1.6798322836505335,0.0,-0.00866516400128603,0.6776549220085144,0.0,-0.0015398478135466576,0.7983341813087463,0.0,0.0022459300234913826
328.0,299.0,6.0138,1.6881,6.8662,-0.0367,0.0254,-0.1176,-1.6436015568175257,0.0,2.4201345443725586,-1.118229627609253,-0.0,2.0391929149627686,3.5714475351520996,0.0,0.2685704231262207,-1.6798442045794886,0.0,0.012986971065402031,0.6777233481407166,0.0,-0.00903062243014574,0.7983019351959229,0.0,0.012198783457279205
328.0,299.0,6.0138,1.6881,6.8662,-0.0367,0.0254,-0.1176,-1.6436215839781703,0.0,2.3371450901031494,-1.1182100772857666,-0.0,2.053035259246826,3.5714031892963867,0.0,0.26987576484680176,-1.6798036734210413,0.0,-0.002466444158926606,0.67766273021698,0.0,-0.009927407838404179,0.7982857823371887,0.0,0.043080683797597885
328.0,299.0,6.0138,1.6881,6.8662,-0.0367,0.0254,-0.1176,-1.6435767612852992,0.0,2.3607091903686523,-1.1182141304016113,-0.0,1.9969432353973389,3.5714194017597656,0.0,0.2718460261821747,-1.6798599402057093,0.0,0.010161938145756721,0.6775500178337097,0.0,-0.003098188666626811,0.7983100414276123,0.0,0.005669941194355488
328.0,299.0,6.0138,1.6881,6.8662,-0.0367,0.0254,-0.1176,-1.6435896358885707,0.0,2.375293254852295,-1.118229627609253,-0.0,2.015385866165161,3.571488066310547,0.0,0.2807217836380005,-1.6798237005816858,0.0,-0.005810997448861599,0.6776508688926697,0.0,-0.006839070003479719,0.7983059883117676,0.0,-0.01606820523738861
328.0,299.0,6.0138,1.6881,6.8662,-0.0367,0.0254,-0.1176,-1.6435853443541468,0.0,2.392993927001953,-1.118274211883545,-0.0,2.0226354598999023,3.5714194017597656,0.0,0.27356666326522827,-1.6798117796527308,0.0,-0.007505043409764767,0.6776955723762512,0.0,-0.013384702615439892,0.7982857823371887,0.0,0.03402663767337799
328.0,299.0,6.0138,1.6881,6.8662,-0.0367,0.0254,-0.1176,-1.6436296902098597,0.0,2.379836320877075,-1.1182297468185425,-0.0,2.0192863941192627,3.5714356142231445,0.0,0.2749151885509491,-1.6798322836505335,0.0,0.012248599901795387,0.6776832342147827,0.0,-0.013126526027917862,0.798293948173523,0.0,0.03045017644762993
328.0,299.0,6.0138,1.6881,6.8662,-0.0367,0.0254,-0.1176,-1.6435853443541468,0.0,2.369446277618408,-1.1182255744934082,-0.0,2.0843546390533447,3.5714356142231445,0.0,0.2752828598022461,-1.6798561255084437,0.0,0.00628962367773056,0.6776224374771118,0.0,-0.01063595898449421,0.7983459234237671,0.0,-0.017714237794280052
328.0,299.0,6.0138,1.6881,6.8662,-0.0367,0.0254,-0.1176,-1.6435767612852992,0.0,2.3965702056884766,-1.1182141304016113,-0.0,2.0688271522521973,3.571387453670166,0.0,0.2764814496040344,-1.6797917524920862,0.0,-0.007149025797843933,0.6776390075683594,0.0,-0.007706253323704004,0.798293948173523,0.0,-0.018894793465733528
328.0,299.0,6.0138,1.6881,6.8662,-0.0367,0.0254,-0.1176,-1.6435533962645472,0.0,2.3328704833984375,-1.1181975603103638,-0.0,2.0474109649658203,3.571471853847168,0.0,0.2779909372329712,-1.6798399130450647,0.0,-0.008511671796441078,0.6776390075683594,0.0,-0.01845545694231987,0.7983580827713013,0.0,-0.01102755032479763
328.0,299.0,6.0138,1.6881,6.8662,-0.0367,0.0254,-0.1176,-1.64359774212026,0.0,2.382844924926758,-1.1181894540786743,-0.0,2.043682813644409,3.571399374599121,0.0,0.26965948939323425,-1.6798203627215784,0.0,0.002269567223265767,0.6776183247566223,0.0,-0.012491194531321526,0.798334002494812,0.0,0.026047496125102043
328.0,299.0,6.0138,1.6881,6.8662,-0.0367,0.0254,-0.1176,-1.6435853443541468,0.0,2.3530640602111816,-1.1181693077087402,-0.0,2.054506778717041,3.5714313226887207,0.0,0.2745228111743927,-1.679812256489889,0.0,-0.002712287474423647,0.6777074933052063,0.0,-0.00817806925624609,0.7983019351959229,0.0,0.06537012755870819
332.0,294.0,6.0568,1.6977,6.8411,-0.0391,0.0269,-0.1205,-1.6436249218382777,0.0,2.3329312801361084,-1.1182141304016113,-0.0,2.029409408569336,3.57143942892041,0.0,0.2752673923969269,-1.6798160711871546,0.0,-0.0015480357687920332,0.67766273021698,0.0,-0.01027111429721117,0.7983020544052124,0.0,0.0051036193035542965
332.0,294.0,6.0568,1.6977,6.8411,-0.0391,0.0269,-0.1205,-1.6436416111388148,0.0,2.393618583679199,-1.1182141304016113,-0.0,2.0404248237609863,3.571471853847168,0.0,0.27969831228256226,-1.6798237005816858,0.0,-0.002547099720686674,0.6776710152626038,0.0,-0.007714903447777033,0.7983019351959229,0.0,0.021228529512882233
332.0,294.0,6.0568,1.6977,6.8411,-0.0391,0.0269,-0.1205,-1.6435934505858363,0.0,2.3550970554351807,-1.1182183027267456,-0.0,2.0629613399505615,3.5714680391499023,0.0,0.27317020297050476,-1.679840389882223,0.0,0.0013926647370681167,0.677614688873291,0.0,-0.026466835290193558,0.7982898950576782,0.0,0.03273458033800125
332.0,294.0,6.0568,1.6977,6.8411,-0.0391,0.0269,-0.1205,-1.6435896358885707,0.0,2.364961624145508,-1.1182141304016113,-0.0,1.9838887453079224,3.57143942892041,0.0,0.2742672264575958,-1.6798041502581995,0.0,-0.005373038351535797,0.6776909828186035,0.0,-0.008144743740558624,0.7982858419418335,0.0,0.0037018433213233948
332.0,294.0,6.0568,1.6977,6.8411,-0.0391,0.0269,-0.1205,-1.6436215839781703,0.0,2.3613901138305664,-1.1181737184524536,-0.0,2.0376603603363037,3.571427507991455,0.0,0.274200975894928,-1.679852310811178,0.0,-0.000820266199298203,0.6776586174964905,0.0,-0.013132430613040924,0.798314094543457,0.0,0.02498270757496357
332.0,294.0,6.0568,1.6977,6.8411,-0.0391,0.0269,-0.1205,-1.6436296902098597,0.0,2.3304758071899414,-1.1182544231414795,-0.0,2.006265878677368,3.5714637476154785,0.0,0.26895418763160706,-1.679812256489889,0.0,-0.006841303780674934,0.6777234077453613,0.0,-0.0031726560555398464,0.7982576489448547,0.0,-0.019711684435606003
332.0,294.0,6.0568,1.6977,6.8411,-0.0391,0.0269,-0.1205,-1.643609186212057,0.0,2.3336963653564453,-1.118274211883545,-0.0,2.0302863121032715,3.571456118220947,0.0,0.2630366384983063,-1.6797998587237757,0.0,-0.004543670453131199,0.6776549816131592,0.0,-0.013297563418745995,0.798293948173523,0.0,-0.0035681668668985367
332.0,294.0,6.0568,1.6977,6.8411,-0.0391,0.0269,-0.1205,-1.643609186212057,0.0,2.346754312515259,-1.1182174682617188,-0.0,2.1322216987609863,3.5714680391499023,0.0,0.2748034596443176,-1.679824177418844,0.0,-0.015085665509104729,0.6775983572006226,0.0,-0.016163859516382217,0.7982980012893677,0.0,-0.05044490844011307
332.0,294.0,6.0568,1.6977,6.8411,-0.0391,0.0269,-0.1205,-1.6435891590514125,0.0,2.37438702583313,-1.118229627609253,-0.0,2.0718533992767334,3.571471853847168,0.0,0.2724086046218872,-1.6798322836505335,0.0,-0.002885041292756796,0.6776710152626038,0.0,-0.00036838953383266926,0.7983020544052124,0.0,0.004952729679644108
332.0,294.0,6.0568,1.6977,6.8411,-0.0391,0.0269,-0.1205,-1.6435767612852992,0.0,2.359381914138794,-1.118201732635498,-0.0,2.0948588848114014,3.5714680391499023,0.0,0.2719317674636841,-1.6798203627215784,0.0,0.004048800561577082,0.677703320980072,0.0,-0.007206677459180355,0.7982898950576782,0.0,0.009630361571907997
332.0,294.0,6.0568,1.6977,6.8411,-0.0391,0.0269,-0.1205,-1.6435448131956996,0.0,2.3944780826568604,-1.1182060241699219,-0.0,2.0348057746887207,3.5714518266865234,0.0,0.26657986640930176,-1.6798399130450647,0.0,0.01600473001599312,0.6776590943336487,0.0,-0.007369115483015776,0.7983020544052124,0.0,0.047133494168519974
332.0,294.0,6.0568,1.6977,6.8411,-0.0391,0.0269,-0.1205,-1.6435767612852992,0.0,2.360330581665039,-1.1181820631027222,-0.0,2.0762248039245605,3.571479483241699,0.0,0.2861318588256836,-1.6798160711871546,0.0,-0.0034738625399768353,0.677703320980072,0.0,-0.0030731891747564077,0.7983020544052124,0.0,0.05101022869348526
332.0,294.0,6.0568,1.6977,6.8411,-0.0391,0.0269,-0.1205,-1.64357390026235,0.0,2.3122739791870117,-1.1181613206863403,-0.0,2.022351026535034,3.571455641383789,0.0,0.2727445662021637,-1.6797760168658655,0.0,0.007120151538401842,0.677670955657959,0.0,-0.009539997205138206,0.7982738614082336,0.0,0.039202965795993805
332.0,294.0,6.0568,1.6977,6.8411,-0.0391,0.0269,-0.1205,-1.6435891590514125,0.00035714535624720156,2.3662548065185547,-1.1182141304016113,-0.0,2.0840673446655273,3.5714470583149414,0.0,0.2795640528202057,-1.6798360983477991,0.0,0.004486546851694584,0.6776750683784485,0.0,-0.013898687437176704,0.798289954662323,0.0,0.021537814289331436
332.0,294.0,6.0568,1.6977,6.8411,-0.0391,0.0269,-0.1205,-1.643613954583639,0.0010907826945185661,2.3418726921081543,-1.1181738376617432,-0.0,2.026374101638794,3.5715200144001464,0.0,0.27510181069374084,-1.6798599402057093,0.0,0.010108187794685364,0.6776669025421143,0.0,-0.007122374139726162,0.798326313495636,0.0,0.013779294677078724
312.0,302.0,5.9492,1.6875,6.8584,-0.0113,0.0147,-0.1158,-1.6435452900328578,0.0010134524200111628,2.342905044555664,-1.1182420253753662,-0.0,2.030241012573242,3.5714875894733886,0.0002521807327866554,0.2729494869709015,-1.6798155943499964,0.0,0.007930001243948936,0.6776508688926697,0.0,-0.011154567822813988,0.7982778549194336,0.0,0.013256940990686417
312.0,302.0,5.9492,1.6875,6.8584,-0.0113,0.0147,-0.1158,-1.6435495815672816,0.0006771241314709187,2.377958059310913,-1.118148922920227,-0.0,2.0399649143218994,3.5714875894733886,0.000289565505227074,0.27034324407577515,-1.6798318068133753,0.0,0.011257179081439972,0.6776467561721802,0.0,0.0019760937429964542,0.7983299493789673,0.0,-0.028073254972696304
312.0,302.0,5.9492,1.6875,6.8584,-0.0113,0.0147,-0.1158,-1.643585821191305,0.0004658426041714847,2.355309009552002,-1.118209958076477,-0.0,2.020371913909912,3.5715243059345703,0.00025193148758262396,0.2733613848686218,-1.6798880735980433,0.0,0.0029340963810682297,0.6776992678642273,0.0,0.006520748138427734,0.7983499765396118,0.0,-0.01653556153178215
312.0,302.0,5.9492,1.6875,6.8584,-0.0113,0.0147,-0.1158,-1.6435371838011683,0.00042645656503736973,2.3930599689483643,-1.1181532144546509,-0.0,2.073369264602661,3.571443720454834,0.0002578032435849309,0.28996542096138,-1.6798518339740198,0.0,0.006554975640028715,0.6775983572006226,0.0,-0.004296537023037672,0.798337459564209,0.0011110017076134682,0.005576529074460268
312.0,302.0,5.9492,1.6875,6.8584,-0.0113,0.0147,-0.1158,-1.6435166798033656,0.0004022491630166769,2.402914047241211,-1.1181448698043823,-0.0,2.0622055530548096,3.5714799600788574,0.00022962874209042639,0.273550420999527,-1.679915730153219,0.0,3.758864477276802e-05,0.6776389479637146,0.0,0.007922462187707424,0.7983989715576172,0.002313094912096858,-0.0396779328584671
312.0,302.0,5.9492,1.6875,6.8584,-0.0113,0.0147,-0.1158,-1.6435095272459925,0.0003858002892229706,2.3369317054748535,-1.1182057857513428,-0.0,2.068593740463257,3.571467562312744,0.00020699210290331393,0.26886677742004395,-1.6798437277423304,0.0,0.00030151777900755405,0.6777316331863403,0.0,-0.00280399271287024,0.7983862161636353,0.0027059728745371103,0.051255837082862854
312.0,302.0,5.9492,1.6875,6.8584,-0.0113,0.0147,-0.1158,-1.6434971294798792,0.0003209900460205972,2.3719990253448486,-1.118201732635498,-0.0,2.033993721008301,3.5715200144001464,0.00021532661048695445,0.271165668964386,-1.6798518339740198,0.0,-0.005072114057838917,0.6775942444801331,0.0,-0.005567713174968958,0.7983620166778564,0.0030446669552475214,0.043880440294742584
312.0,302.0,5.9492,1.6875,6.8584,-0.0113,0.0147,-0.1158,-1.6434971294798792,0.0003339156974107027,2.3974382877349854,-1.1181614398956299,-0.0,2.0391921997070312,3.5714914041706542,0.00019760396389756352,0.2818208336830139,-1.6798198858844202,0.0,0.005276895128190517,0.6776025891304016,0.0,-0.0044865235686302185,0.7984427213668823,0.0027076490223407745,0.031104225665330887
312.0,302.0,5.9492,1.6875,6.8584,-0.0113,0.0147,-0.1158,-1.6435376606383265,0.0004660008125938475,2.3861422538757324,-1.118140697479248,-0.0,2.0555148124694824,3.5715243059345703,0.00018257075862493366,0.26923930644989014,-1.6798518339740198,0.0,-0.010806126520037651,0.6776425838470459,0.0,-0.002152408938854933,0.7984461188316345,0.001843901351094246,0.03460061922669411
312.0,302.0,5.9492,1.6875,6.8584,-0.0113,0.0147,-0.1158,-1.6435052357115687,0.00047805721987970173,2.3641252517700195,-1.1181738376617432,-0.0,2.05916166305542,3.571479483241699,0.00016966373368632048,0.2877350449562073,-1.6798198858844202,0.0,0.0016589839942753315,0.6776508688926697,0.0,-0.009058562107384205,0.7984468936920166,0.0009667705162428319,0.004451850429177284
312.0,302.0,5.9492,1.6875,6.8584,-0.0113,0.0147,-0.1158,-1.6434933147826136,0.00044094905024394393,2.375016689300537,-1.118193507194519,-0.0,2.0275840759277344,3.5714189249226074,0.00015846113092266023,0.2684296667575836,-1.6798160711871546,0.0,-0.006885044276714325,0.6776229739189148,0.0,-0.0038701496087014675,0.7984303832054138,1.41747386805946e-05,0.009178872220218182
312.0,302.0,5.9492,1.6875,6.8584,-0.0113,0.0147,-0.1158,-1.6435214481749476,0.00041645404417067766,2.311725378036499,-1.1181894540786743,-0.0,2.027289867401123,3.5714518266865234,0.00013007638335693628,0.26796799898147583,-1.6798041502581995,0.0,0.012315432541072369,0.6776913404464722,0.0,-0.0011160466820001602,0.7983661890029907,3.423032690630379e-11,0.0001965109258890152
312.0,302.0,5.9492,1.6875,6.8584,-0.0113,0.0147,-0.1158,-1.6435982189574183,0.0003548920212779194,2.414750576019287,-1.1182141304016113,-0.0,2.054532527923584,3.5714475351520996,0.0001224795269081369,0.2693765461444855,-1.6797998587237757,0.0,-0.009712262079119682,0.6776509284973145,0.0,-0.016610069200396538,0.7983255982398987,-0.001903991331346333,0.0004992848262190819
312.0,302.0,5.9492,1.6875,6.8584,-0.0113,0.0147,-0.1158,-1.6434890232481898,0.00030917106778360903,2.359853506088257,-1.1182183027267456,-0.0,2.1057395935058594,3.5714313226887207,4.546084164758213e-05,0.27271217107772827,-1.6797922293292444,0.0,0.009454166516661644,0.6776353120803833,0.0,-0.009030100889503956,0.7983019351959229,-0.0026654445100575686,-0.030074013397097588
312.0,302.0,5.9492,1.6875,6.8584,-0.0113,0.0147,-0.1158,-1.6435214481749476,0.00023965722357388586,2.361233949661255,-1.1182223558425903,-0.0,2.0910873413085938,3.5714680391499023,1.0750615729193669e-05,0.2817007601261139,-1.6797884146319788,0.0,-0.0054808203130960464,0.6776872873306274,0.0,-0.01771627366542816,0.7982373237609863,-0.003850021632388234,0.01825094223022461
326.0,303.0,6.1884,1.4722,6.6574,-0.0302,0.0012,-0.1145,-1.6435572109618128,1.7671528667051462e-06,2.317668914794922,-1.1182018518447876,-0.0,2.0696682929992676,3.571431799525879,2.992474046337179e-09,0.27126914262771606,-1.6798003355609339,0.0,-0.0026243494357913733,0.6776673197746277,0.0,-0.00605075852945447,0.7982499599456787,-0.004756747279316187,-0.006302220281213522
326.0,303.0,6.1884,1.4722,6.6574,-0.0302,0.0012,-0.1145,-1.6435495815672816,4.267466154755928e-12,2.3861751556396484,-1.1182576417922974,-0.0,2.087191343307495,3.571403666133545,8.32966128797713e-13,0.275268018245697,-1.6797803084002894,0.0,0.016679411754012108,0.6776790618896484,0.0,-0.005825396161526442,0.7982380390167236,-0.003915940877050161,-0.0038488158024847507
326.0,303.0,6.1884,1.4722,6.6574,-0.0302,0.0012,-0.1145,-1.64357390026235,-0.001123603549785912,2.3624000549316406,-1.118265986442566,-0.0,2.0282633304595947,3.57139174520459,-0.0015609710244461894,0.2787752151489258,-1.6797316710101526,0.0,-0.001393582671880722,0.6776219010353088,0.0,-0.011883876286447048,0.7982099056243896,-0.002266884548589587,-0.04361207038164139
326.0,303.0,6.1884,1.4722,6.6574,-0.0302,0.0012,-0.1145,-1.6435767612852992,-0.0009599857730790973,2.368760824203491,-1.1182215213775635,-2.7793381377705373e-05,2.0582566261291504,3.5713793474384765,-0.0018563716439530253,0.2577177882194519,-1.6797803084002894,0.0,0.004948180168867111,0.6776872873306274,0.0,0.0005277860909700394,0.798197865486145,-0.0014366480754688382,0.019087057560682297
326.0,303.0,6.1884,1.4722,6.6574,-0.0302,0.0012,-0.1145,-1.6435848675169886,-0.0007703672163188457,2.385509729385376,-1.118261694908142,-2.660101199580822e-05,2.0258536338806152,3.571319265956543,-0.001345041673630476,0.27637970447540283,-1.6797564665423792,0.0,0.011332869529724121,0.6776508688926697,0.0,-0.007704236079007387,0.7982099056243896,-0.0007376745925284922,-0.009027930907905102
326.0,303.0,6.1884,1.4722,6.6574,-0.0302,0.0012,-0.1145,-1.6435934505858363,-0.0007094503380358219,2.336932420730591,-1.1182420253753662,-5.07698641740717e-05,2.0081911087036133,3.5712954240986328,-0.0010974765755236149,0.2655470669269562,-1.679727856312887,0.0,0.0045690108090639114,0.6776349544525146,0.0,0.0005552787333726883,0.7981696724891663,-0.0005887593142688274,-0.02061421237885952
326.0,303.0,6.1884,1.4722,6.6574,-0.0302,0.0012,-0.1145,-1.6435896358885707,-0.00062108866404742,2.3425142765045166,-1.1182938814163208,-0.0004114129114896059,2.086756706237793,3.5712830263325195,-0.0015458718407899141,0.2678818106651306,-1.6797359625445765,0.0,0.0020219520665705204,0.6776992082595825,0.0,-0.008965237997472286,0.7982181310653687,-0.0005661353352479637,-0.06447742879390717
326.0,303.0,6.1884,1.4722,6.6574,-0.0302,0.0012,-0.1145,-1.6435853443541468,-0.0006261073867790401,2.340116262435913,-1.1182618141174316,-0.00033241891651414335,2.022090435028076,3.571291132564209,-0.002939441939815879,0.2827732264995575,-1.6797688643084925,0.0,-0.0019319956190884113,0.6776352524757385,0.0,0.005352627020329237,0.7981778383255005,-0.00046079058665782213,0.03078264743089676
326.0,303.0,6.1884,1.4722,6.6574,-0.0302,0.0012,-0.1145,-1.6436335049071253,-0.0009123383206315339,2.3321497440338135,-1.1182856559753418,-0.0003265242849010974,2.0645737648010254,3.5712715822407226,-0.004242914728820324,0.2764173448085785,-1.679727856312887,0.0,-0.002357729244977236,0.6776827573776245,0.0,-0.00754539854824543,0.7982059717178345,-0.00042298875632695854,0.0120954979211092
326.0,303.0,6.1884,1.4722,6.6574,-0.0302,0.0012,-0.1145,-1.6436249218382777,-0.0009124710340984166,2.315962791442871,-1.1182781457901,-0.0002763826632872224,1.9997143745422363,3.5712639528461914,-0.006246974691748619,0.25978755950927734,-1.6797402540790003,3.858649142784998e-05,-0.006890316493809223,0.6776626110076904,0.0,-0.011335795745253563,0.7982139587402344,-0.0004369060043245554,-0.0669257715344429
326.0,303.0,6.1884,1.4722,6.6574,-0.0302,0.0012,-0.1145,-1.6436292133727015,-0.0008134461240842938,2.3063254356384277,-1.1182339191436768,-0.00023959115787874907,2.0213429927825928,3.5712196069904785,-0.007723614573478699,0.25532153248786926,-1.6797564665423792,0.00012788375897798687,-0.0010638824896886945,0.6776229739189148,0.0,-0.008632129989564419,0.7981778383255005,-0.0005167007329873741,-0.08474932610988617
326.0,303.0,6.1884,1.4722,6.6574,-0.0302,0.0012,-0.1145,-1.6436249218382777,-0.0006881346926093102,2.3112058639526367,-1.1182339191436768,-0.00021144469792488962,1.9531781673431396,3.57111565648999,-0.010413717478513718,0.266440749168396,-1.6797040144549769,0.0001588918676134199,0.010378608480095863,0.67766273021698,0.0,-0.009094960987567902,0.7981574535369873,-0.000543587957508862,-0.0893077701330185
326.0,303.0,6.1884,1.4722,6.6574,-0.0302,0.0012,-0.1145,-1.643621107141012,-0.0005808221758343279,2.2245569229125977,-1.1182938814163208,-0.00018921674927696586,2.0290536880493164,3.571087046260498,-0.013717212714254856,0.2577129006385803,-1.6796358267413538,0.00016371961100958288,0.032821521162986755,0.67766273021698,0.0,-0.004566465970128775,0.7981536984443665,-0.0008240140159614384,-0.10578984767198563
326.0,303.0,6.1884,1.4722,6.6574,-0.0302,0.0012,-0.1145,-1.6436249218382777,-0.000519945693667978,2.202077627182007,-1.1182328462600708,-0.00017121821292676032,1.9464426040649414,3.5709754663654785,-0.017157914116978645,0.23673728108406067,-1.6796725432025355,0.0003767151210922748,0.01942548342049122,0.6776832342147827,0.0,-0.0038212412036955357,0.7981859445571899,-0.0010711861541494727,-0.11622543632984161
326.0,303.0,6.1884,1.4722,6.6574,-0.0302,0.0012,-0.1145,-1.6436454258360804,-0.0003823099541477859,2.2482380867004395,-1.1182339191436768,-0.00015634579176548868,1.9606096744537354,3.570847197169922,-0.02024567872285843,0.2373562604188919,-1.6796920935260218,0.00042428585584275424,0.032470330595970154,0.67766273021698,0.0,0.002524176612496376,0.7981899976730347,-0.0013158926740288734,-0.07771232724189758
321.0,286.0,5.9426,2.217,6.6467,-0.025,-0.0315,-0.121,-1.6436535320677699,-0.0004187735903542489,2.1701183319091797,-1.118253469467163,-0.00016782156308181584,1.994131088256836,3.5707074838825683,-0.022690434008836746,0.24062427878379822,-1.6796444098102015,0.0005988050252199173,0.030737195163965225,0.6776827573776245,0.0,-0.0032607242465019226,0.7981617450714111,-0.0012691107112914324,-0.09227800369262695
321.0,286.0,5.9426,2.217,6.6467,-0.025,-0.0315,-0.121,-1.6436649761595667,-0.0010840512113645673,2.1747775077819824,-1.1182535886764526,-0.00017730197578202933,1.9464316368103027,3.5706121164509277,-0.022424494847655296,0.2251371443271637,-1.6796205679522913,0.0006863759481348097,0.04379613697528839,0.6777069568634033,0.0,0.005901405122131109,0.7981617450714111,-0.0012805480509996414,-0.13550323247909546
321.0,286.0,5.9426,2.217,6.6467,-0.025,-0.0315,-0.121,-1.643644472161764,-0.003623740514740348,2.1165390014648438,-1.11832594871521,-0.00015910157526377589,1.9421403408050537,3.570427580470703,-0.0198964886367321,0.23080061376094818,-1.6796124617206019,0.0013452006969600916,0.06486189365386963,0.6777069568634033,0.0,0.01752282679080963,0.7981093525886536,-0.0016267872415482998,-0.1640913486480713
321.0,286.0,5.9426,2.217,6.6467,-0.025,-0.0315,-0.121,-1.6436969242491664,-0.006717056967318058,2.0625686645507812,-1.118306279182434,-0.0008076039375737309,1.897218942642212,3.57027976095166,-0.015505996532738209,0.22661042213439941,-1.6796167532550257,0.002183774020522833,0.05207405239343643,0.6777589321136475,0.0,0.0029372761491686106,0.7980931997299194,-0.002974132774397731,-0.1458320915699005
321.0,286.0,5.9426,2.217,6.6467,-0.025,-0.0315,-0.121,-1.6437775097289027,-0.010125702247023582,2.0491299629211426,-1.1183502674102783,-0.0012091314420104027,1.88003671169281,3.5702077585407714,-0.010990861803293228,0.22679051756858826,-1.6796329657184046,0.0017886096611618996,0.07304368168115616,0.6776946783065796,0.0,0.015060271136462688,0.7981383204460144,-0.004195045679807663,-0.15015116333961487
321.0,286.0,5.9426,2.217,6.6467,-0.025,-0.0315,-0.121,-1.6438452206053675,-0.011718075722455978,2.0087456703186035,-1.1183342933654785,-0.0014790842542424798,1.864092230796814,3.5701395708271484,-0.00799084547907114,0.2223568558692932,-1.67961293855776,0.002154748886823654,0.07601992040872574,0.6776909828186035,0.0,0.027593566104769707,0.7980903387069702,-0.005890090949833393,-0.2282879650592804
321.0,286.0,5.9426,2.217,6.6467,-0.025,-0.0315,-0.121,-1.6439053020873011,-0.013977634720504284,1.96290922164917,-1.1183218955993652,-0.0019249506294727325,1.8659262657165527,3.5700437265583496,-0.0076567125506699085,0.2077905833721161,-1.67958909669985,0.005245476495474577,0.07505064457654953,0.6776987314224243,0.0,0.03919600695371628,0.7980338335037231,-0.008754479698836803,-0.2538902759552002
321.0,286.0,5.9426,2.217,6.6467,-0.025,-0.0315,-0.121,-1.6440493069090785,-0.0170458871871233,1.9407014846801758,-1.1183415651321411,-0.005132959224283695,1.7895243167877197,3.569995566005371,-0.007853114046156406,0.21710482239723206,-1.6795409361468714,0.011370167136192322,0.09169112145900726,0.6776621341705322,0.00010809841478476301,0.023942306637763977,0.7979369759559631,-0.011515992693603039,-0.3197702467441559
321.0,286.0,5.9426,2.217,6.6467,-0.025,-0.0315,-0.121,-1.6441370449461878,-0.018989138305187225,1.8455860614776611,-1.1183934211730957,-0.011090762913227081,1.79354727268219,3.5699798303791503,-0.008922234177589417,0.1973734200000763,-1.6793611685382288,0.013144860044121742,0.10431899130344391,0.6776986122131348,0.00018716126214712858,0.030192382633686066,0.7978487014770508,-0.014469417743384838,-0.2828863263130188
321.0,286.0,5.9426,2.217,6.6467,-0.025,-0.0315,-0.121,-1.6442495785155238,-0.02211116813123226,1.843449592590332,-1.1185016632080078,-0.012702752836048603,1.7943419218063354,3.5698672968098144,-0.00987115316092968,0.18978819251060486,-1.6793296972857874,0.010758955031633377,0.11582622677087784,0.6777712106704712,0.00016641893307678401,0.0324343666434288,0.7977448105812073,-0.017741167917847633,-0.39599451422691345
321.0,286.0,5.9426,2.217,6.6467,-0.025,-0.0315,-0.121,-1.644364973107809,-0.025104418396949768,1.8035166263580322,-1.1185855865478516,-0.01282528880983591,1.71174156665802,3.5697833734699707,-0.013506078161299229,0.18662577867507935,-1.6792619864093226,0.006592519115656614,0.1177583634853363,0.6777715086936951,0.00014979721163399518,0.03486424684524536,0.7975924611091614,-0.022097814828157425,-0.3971366286277771
321.0,286.0,5.9426,2.217,6.6467,-0.025,-0.0315,-0.121,-1.6444593868651332,-0.02685028500854969,1.7625484466552734,-1.118669867515564,-0.012167349457740784,1.7150821685791016,3.5697237688251953,-0.01768955960869789,0.17061299085617065,-1.6792505423175257,0.0033499733544886112,0.11939489841461182,0.6777473092079163,0.00015636638272553682,0.026976453140378,0.7975174188613892,-0.026221901178359985,-0.47950130701065063
321.0,286.0,5.9426,2.217,6.6467,-0.025,-0.0315,-0.121,-1.64469637493276,-0.028732893988490105,1.7131457328796387,-1.1187011003494263,-0.010006713680922985,1.633467674255371,3.569579764003418,-0.022264981642365456,0.16189080476760864,-1.6792104879962366,0.001748309237882495,0.14179278910160065,0.6777071356773376,0.000149826766573824,0.01753772422671318,0.7973085045814514,-0.030441882088780403,-0.42479780316352844
321.0,286.0,5.9426,2.217,6.6467,-0.025,-0.0315,-0.121,-1.6449171505370082,-0.0322766937315464,1.6590847969055176,-1.1187611818313599,-0.01086313184350729,1.6494617462158203,3.569540186519287,-0.024728255346417427,0.1611972451210022,-1.6792262236224573,0.0014509372413158417,0.13589195907115936,0.6777071356773376,0.00013831468822900206,0.03427617996931076,0.7970999479293823,-0.03553050011396408,-0.5438241958618164
321.0,286.0,5.9426,2.217,6.6467,-0.025,-0.0315,-0.121,-1.6450969181456507,-0.03687742352485657,1.6520161628723145,-1.1188414096832275,-0.009497244842350483,1.6500346660614014,3.569275065059326,-0.02518206462264061,0.1513727307319641,-1.6792548338519495,0.0023784604854881763,0.1339479386806488,0.6777346730232239,0.0001470363640692085,0.02217341586947441,0.7968922853469849,-0.04156598821282387,-0.535059928894043
321.0,286.0,5.9426,2.217,6.6467,-0.025,-0.0315,-0.121,-1.6453377209105433,-0.04068196937441826,1.658420443534851,-1.118873119354248,-0.008787059225142002,1.6279771327972412,3.5691115099140625,-0.026149164885282516,0.15485413372516632,-1.6792305151568812,0.002859925851225853,0.13650041818618774,0.6777142882347107,0.00013986976409796625,0.03670765832066536,0.7966402173042297,-0.04892527684569359,-0.5911121368408203
317.0,281.0,5.6034,2.059,6.7388,-0.0421,-0.0528,-0.1582,-1.6455322704710902,-0.04269014671444893,1.5602078437805176,-1.118937373161316,-0.008808199316263199,1.6036500930786133,3.5689875322529296,-0.025698406621813774,0.1425434648990631,-1.6792028586017054,0.002164131263270974,0.14999672770500183,0.677665650844574,0.00014035007916390896,0.03768761456012726,0.7963157296180725,-0.05894983559846878,-0.5368519425392151
317.0,281.0,5.6034,2.059,6.7388,-0.0421,-0.0528,-0.1582,-1.6458326778807582,-0.04431791603565216,1.571395754814148,-1.1189895868301392,-0.007418997585773468,1.661842942237854,3.5688277918049316,-0.022895829752087593,0.1426999270915985,-1.6792267004596155,0.0016028385143727064,0.1556609570980072,0.6777185797691345,0.0001410581753589213,0.05015283077955246,0.7958865165710449,-0.0680348128080368,-0.6034092307090759
317.0,281.0,5.6034,2.059,6.7388,-0.0421,-0.0528,-0.1582,-1.6460963688292445,-0.04682144895195961,1.6058588027954102,-1.1190779209136963,-0.006775476969778538,1.6316323280334473,3.5687238413044433,-0.020883683115243912,0.1366642415523529,-1.6791628042804163,0.0011760712368413806,0.1432400345802307,0.6777718663215637,0.00013323003076948225,0.04529471695423126,0.7954578399658203,-0.07892655581235886,-0.578777015209198
317.0,281.0,5.6034,2.059,6.7388,-0.0421,-0.0528,-0.1582,-1.6463920078673304,-0.05188063904643059,1.6224979162216187,-1.1190327405929565,-0.005631312262266874,1.6021063327789307,3.5686279970356445,-0.019548285752534866,0.15876255929470062,-1.6791065374957483,0.0009317952790297568,0.14312927424907684,0.677754819393158,0.0001244394079549238,0.03510037064552307,0.7949976921081543,-0.08640822023153305,-0.6392426490783691
317.0,281.0,5.6034,2.059,6.7388,-0.0421,-0.0528,-0.1582,-1.6467153034605921,-0.059553202241659164,1.604382872581482,-1.1190203428268433,-0.0051360526122152805,1.6271315813064575,3.5684797006794433,-0.019057104364037514,0.1476435363292694,-1.6791709105121058,0.0007265636813826859,0.15398338437080383,0.6776453256607056,0.00011490831093396991,0.02101907506585121,0.7944290041923523,-0.0923607125878334,-0.6126425862312317
317.0,281.0,5.6034,2.059,6.7388,-0.0421,-0.0528,-0.1582,-1.6470924816527308,-0.0652063637971878,1.571521520614624,-1.119117021560669,-0.004265851806849241,1.5899453163146973,3.5683676439472656,-0.021087409928441048,0.14834363758563995,-1.679138485585348,0.0006359855178743601,0.15118438005447388,0.6777465343475342,0.00012527068611234426,0.03252597153186798,0.793844997882843,-0.09956212341785431,-0.6223031282424927
317.0,281.0,5.6034,2.059,6.7388,-0.0421,-0.0528,-0.1582,-1.6475120983519496,-0.07260463386774063,1.5179057121276855,-1.1191047430038452,-0.0026842679362744093,1.6105234622955322,3.5682522493549804,-0.0259491428732872,0.15929779410362244,-1.6791752020465296,0.0007490803254768252,0.16101905703544617,0.6777756810188293,0.00011956875823670998,0.036697354167699814,0.7932127118110657,-0.10942675173282623,-0.6217355728149414
317.0,281.0,5.6034,2.059,6.7388,-0.0421,-0.0528,-0.1582,-1.6479598484435023,-0.07739856094121933,1.553983211517334,-1.1191248893737793,-0.0014766271924600005,1.6781529188156128,3.5680362421223144,-0.034678880125284195,0.14284777641296387,-1.6791752020465296,0.0012066381750628352,0.15204644203186035,0.6777714490890503,0.0001121215391322039,0.044373445212841034,0.7924752235412598,-0.11729907244443893,-0.6913454532623291
317.0,281.0,5.6034,2.059,6.7388,-0.0421,-0.0528,-0.1582,-1.648419042626852,-0.08329617977142334,1.5790162086486816,-1.1191372871398926,-0.0009137122542597353,1.671237826347351,3.5677596765705566,-0.05349878594279289,0.1525089144706726,-1.6791227499591272,0.0013057177420705557,0.1586643010377884,0.677767276763916,0.00010554683103691787,0.05083795636892319,0.7917301654815674,-0.11862894892692566,-0.687192440032959
317.0,281.0,5.6034,2.059,6.7388,-0.0421,-0.0528,-0.1582,-1.6489182911314906,-0.08522441238164902,1.5406322479248047,-1.1191129684448242,-0.0006616571336053312,1.6077933311462402,3.567359610194824,-0.0803159773349762,0.13697503507137299,-1.6791389624225062,0.0016474879812449217,0.15680386126041412,0.6777470111846924,9.970051905838773e-05,0.03916243463754654,0.7909818887710571,-0.12346915155649185,-0.6554645299911499
317.0,281.0,5.6034,2.059,6.7388,-0.0421,-0.0528,-0.1582,-1.6494623623290003,-0.08858552575111389,1.5693628787994385,-1.1191569566726685,-0.0005186293856240809,1.6536387205123901,3.56679551183667,-0.10777243971824646,0.12182353436946869,-1.6790745894061487,0.0027572233229875565,0.16958972811698914,0.677750825881958,0.00010968130663968623,0.046541474759578705,0.7901970744132996,-0.1307307928800583,-0.7022672891616821
317.0,281.0,5.6034,2.059,6.7388,-0.0421,-0.0528,-0.1582,-1.6500021419920863,-0.08952461928129196,1.5766433477401733,-1.1190441846847534,-0.000426455371780321,1.6700353622436523,3.566035433406494,-0.13022074103355408,0.11680455505847931,-1.679086987172262,0.0032081063836812973,0.16916003823280334,0.6777871251106262,0.00010471665882505476,0.03864682465791702,0.7894369959831238,-0.13606680929660797,-0.65106201171875
317.0,281.0,5.6034,2.059,6.7388,-0.0421,-0.0528,-0.1582,-1.6506215534605921,-0.08865483105182648,1.6022922992706299,-1.1190886497497559,-0.00024382059928029776,1.6041615009307861,3.5652314859577636,-0.13746659457683563,0.10532324761152267,-1.6790831724749964,0.0023148381151258945,0.17270244657993317,0.6777220368385315,9.974310523830354e-05,0.048965394496917725,0.7885798215866089,-0.14092107117176056,-0.6786618232727051
317.0,281.0,5.6034,2.059,6.7388,-0.0421,-0.0528,-0.1582,-1.651128431359762,-0.08728639781475067,1.627542495727539,-1.119177222251892,-0.0009026488987728953,1.6945143938064575,3.5643436151691894,-0.15741288661956787,0.11106441915035248,-1.6790674368487757,0.002074478194117546,0.14733164012432098,0.6777059435844421,0.00010792151442728937,0.03624724969267845,0.7877153158187866,-0.147536039352417,-0.6774687767028809
317.0,281.0,5.6034,2.059,6.7388,-0.0421,-0.0528,-0.1582,-1.65175261119985,-0.0942283570766449,1.5795941352844238,-1.1192054748535156,-0.0028981210198253393,1.6081441640853882,3.563210650081299,-0.19977225363254547,0.06689796596765518,-1.6790393034564417,0.001710372045636177,0.1566835343837738,0.6777426600456238,0.00010410272079752758,0.044090092182159424,0.7868428230285645,-0.15262919664382935,-0.7084637880325317
315.0,285.0,5.4538,2.1296,5.991,-0.0696,-0.3848,-0.1915,-1.6523238621153773,-0.10383281856775284,1.5705420970916748,-1.1192009449005127,-0.0028722858987748623,1.6205776929855347,3.561950846309326,-0.2139628380537033,0.0797167420387268,-1.6790593306170862,0.0012819722760468721,0.17046226561069489,0.677767276763916,0.00011557393008843064,0.04798717796802521,0.7858616709709167,-0.1530608981847763,-0.687749981880188
315.0,285.0,5.4538,2.1296,5.991,-0.0696,-0.3848,-0.1915,-1.6529385052123011,-0.11213415861129761,1.5771952867507935,-1.1192129850387573,-0.003045920981094241,1.662656307220459,3.560642881984375,-0.2219599336385727,0.06872346997261047,-1.6790350119220179,0.0008546814788132906,0.15742357075214386,0.6777589321136475,0.00010948952694889158,0.04816555976867676,0.7849612236022949,-0.15892885625362396,-0.6695789098739624
315.0,285.0,5.4538,2.1296,5.991,-0.0696,-0.3848,-0.1915,-1.6536146603026332,-0.12009161710739136,1.5746430158615112,-1.1191569566726685,-0.002628847025334835,1.6213159561157227,3.559307261104248,-0.24272672832012177,0.06361694633960724,-1.679058853779928,0.0006299926317296922,0.15250198543071747,0.6778068542480469,0.00012244372919667512,0.048415496945381165,0.7839943170547485,-0.15652015805244446,-0.6782281398773193
315.0,285.0,5.4538,2.1296,5.991,-0.0696,-0.3848,-0.1915,-1.654341836968893,-0.12227340787649155,1.5897870063781738,-1.1191809177398682,-0.00057451386237517,1.7025914192199707,3.5579277712055664,-0.24162814021110535,0.057703129947185516,-1.6790393034564417,0.0004989132285118103,0.17037798464298248,0.6778197884559631,0.00013373645197134465,0.05159784108400345,0.7830275893211365,-0.15857470035552979,-0.7354220747947693
315.0,285.0,5.4538,2.1296,5.991,-0.0696,-0.3848,-0.1915,-1.6550528011717738,-0.11718696355819702,1.572399616241455,-1.119205117225647,-0.0002645094646140933,1.6567914485931396,3.556403322810791,-0.2703092694282532,0.05642802268266678,-1.6790912787066858,0.0004130109155084938,0.16160057485103607,0.6777910590171814,0.00014340390043798834,0.06543828547000885,0.7820565104484558,-0.16126349568367004,-0.6871026754379272
315.0,285.0,5.4538,2.1296,5.991,-0.0696,-0.3848,-0.1915,-1.6557876072325648,-0.11004076153039932,1.5962028503417969,-1.1191812753677368,-0.0001835346920415759,1.710521936416626,3.55471055089917,-0.2735615074634552,0.06035347282886505,-1.6790793577777308,0.000352352624759078,0.15524569153785706,0.6777134537696838,0.00013588649744633585,0.053713709115982056,0.7811504602432251,-0.16482366621494293,-0.6900894045829773
315.0,285.0,5.4538,2.1296,5.991,-0.0696,-0.3848,-0.1915,-1.6565309963622035,-0.10489445179700851,1.6679153442382812,-1.1191809177398682,-0.0002097723336191848,1.654279112815857,3.5529915529438476,-0.2878442704677582,0.04430647939443588,-1.6790550390826624,0.0003072332183364779,0.16443710029125214,0.677778959274292,0.0002884886635001749,0.06561704725027084,0.780173659324646,-0.17134667932987213,-0.6414769887924194
315.0,285.0,5.4538,2.1296,5.991,-0.0696,-0.3848,-0.1915,-1.6572262249388636,-0.11107105016708374,1.6346166133880615,-1.1192373037338257,-0.00033132312819361687,1.6711537837982178,3.5512325006672363,-0.29076212644577026,0.049767136573791504,-1.679058853779928,0.0002723611250985414,0.16935725510120392,0.6777987480163574,0.0002820562513079494,0.05710555985569954,0.7791683673858643,-0.1695324331521988,-0.6152195930480957
315.0,285.0,5.4538,2.1296,5.991,-0.0696,-0.3848,-0.1915,-1.657973428765768,-0.12769800424575806,1.643859624862671,-1.1191843748092651,-0.0046423631720244884,1.6604924201965332,3.5494677263447265,-0.3128073215484619,0.04213765263557434,-1.6790631453143519,0.00024459895212203264,0.15384402871131897,0.6778151988983154,0.0002571208169683814,0.06652689725160599,0.7781698703765869,-0.16270101070404053,-0.664534330368042
315.0,285.0,5.4538,2.1296,5.991,-0.0696,-0.3848,-0.1915,-1.658781190911764,-0.14309677481651306,1.6649067401885986,-1.1192688941955566,-0.005494784098118544,1.7075217962265015,3.5474559503742675,-0.31280362606048584,0.03170935437083244,-1.6790793577777308,0.00022197383805178106,0.15521106123924255,0.6778029203414917,0.0002617191930767149,0.07971091568470001,0.777191162109375,-0.15659086406230927,-0.6471129655838013
315.0,285.0,5.4538,2.1296,5.991,-0.0696,-0.3848,-0.1915,-1.6595798931517542,-0.1495487242937088,1.686850666999817,-1.1192853450775146,-0.003112945705652237,1.7233552932739258,3.545572443599365,-0.3287149667739868,0.03729487210512161,-1.6790831724749964,0.000203180214157328,0.13850371539592743,0.6778194308280945,0.0003297271323390305,0.05654062330722809,0.7762120366096497,-0.15420110523700714,-0.5920672416687012
315.0,285.0,5.4538,2.1296,5.991,-0.0696,-0.3848,-0.1915,-1.6604320011534632,-0.1464841365814209,1.6861088275909424,-1.1192207336425781,-1.527739550510887e-05,1.7036054134368896,3.54358880102124,-0.3349273204803467,0.040576182305812836,-1.679070774708883,0.00018732072203420103,0.12961730360984802,0.6777868270874023,0.00034710756153799593,0.07461794465780258,0.7752979397773743,-0.16245809197425842,-0.6558963060379028
315.0,285.0,5.4538,2.1296,5.991,-0.0696,-0.3848,-0.1915,-1.6612755260863246,-0.12880000472068787,1.7788153886795044,-1.1192574501037598,-3.6893110094693427e-11,1.735876441001892,3.5415407854267578,-0.3502041697502136,0.0231783464550972,-1.679070774708883,0.0001534914190415293,0.1442393809556961,0.677823543548584,0.00034312307252548635,0.0703968033194542,0.7743145823478699,-0.17334486544132233,-0.6809133291244507
315.0,285.0,5.4538,2.1296,5.991,-0.0696,-0.3848,-0.1915,-1.6620613537230433,-0.11271703988313675,1.7700674533843994,-1.1192772388458252,-8.909253343131811e-17,1.7486144304275513,3.5394932466694335,-0.3446041941642761,0.029708512127399445,-1.679086987172262,0.0001417739113094285,0.13212169706821442,0.6778509616851807,0.0004746771592181176,0.06111132726073265,0.7733120918273926,-0.1706211417913437,-0.5806691646575928
315.0,285.0,5.4538,2.1296,5.991,-0.0696,-0.3848,-0.1915,-1.662776609460348,-0.11262544244527817,1.8211956024169922,-1.119349479675293,-0.00029710453236475587,1.7839428186416626,3.5373174387165527,-0.33736488223075867,0.03611112758517265,-1.6790669600116175,4.06951985496562e-05,0.1349536031484604,0.6778228282928467,0.0005049990140832961,0.056079089641571045,0.7723265290260315,-0.1618790179491043,-0.5584678649902344
302.0,281.0,8.6794,2.3222,4.27,-0.0211,-0.6168,-0.1503,-1.663544317285055,-0.12648482620716095,1.8205314874649048,-1.119361162185669,-0.005954444874078035,1.7789969444274902,3.5352536874958496,-0.35660356283187866,0.016667865216732025,-1.6791308561908167,3.739595922525041e-05,0.13046588003635406,0.6778312921524048,0.0008180796285159886,0.07243062555789948,0.77145916223526,-0.1471697986125946,-0.5245343446731567
302.0,281.0,8.6794,2.3222,4.27,-0.0211,-0.6168,-0.1503,-1.66430725673818,-0.1444319784641266,1.825360894203186,-1.119417428970337,-0.007509749848395586,1.7258892059326172,3.5330540376850585,-0.35594117641448975,0.03605741634964943,-1.679155174885885,1.7678914446150884e-05,0.14557893574237823,0.677827000617981,0.0022762289736419916,0.07200829684734344,0.7705739736557007,-0.1364917904138565,-0.48295849561691284
302.0,281.0,8.6794,2.3222,4.27,-0.0211,-0.6168,-0.1503,-1.6651307545103968,-0.15133348107337952,1.8586959838867188,-1.119328260421753,-0.004730666987597942,1.8158127069473267,3.5308901506611328,-0.36422714591026306,0.039016708731651306,-1.679115120564596,1.6625412172288634e-05,0.13876137137413025,0.6778590679168701,0.01052072737365961,0.07672387361526489,0.7698103189468384,-0.1367356926202774,-0.5345175266265869
302.0,281.0,8.6794,2.3222,4.27,-0.0211,-0.6168,-0.1503,-1.6659251652159632,-0.14423954486846924,1.8921726942062378,-1.1193610429763794,-0.0008047103765420616,1.752958059310913,3.5287386614033203,-0.3689028322696686,0.04389964044094086,-1.6790626684771937,1.5752431863802485e-05,0.11691734194755554,0.6780162453651428,0.024476448073983192,0.09871929883956909,0.7689386010169983,-0.14229761064052582,-0.5031020045280457
302.0,281.0,8.6794,2.3222,4.27,-0.0211,-0.6168,-0.1503,-1.6666957340636195,-0.1271204650402069,1.944981336593628,-1.1193807125091553,0.0008611668017692864,1.824880599975586,3.52663962423291,-0.35563924908638,0.05059526860713959,-1.6791065374957483,8.636082071689088e-09,0.13272438943386078,0.6780955195426941,0.01828385330736637,0.0750793069601059,0.7680779099464417,-0.1473974883556366,-0.5208688974380493
302.0,281.0,8.6794,2.3222,4.27,-0.0211,-0.6168,-0.1503,-1.66746248821401,-0.11314080655574799,1.9314370155334473,-1.1193692684173584,0.0008049146854318678,1.8422472476959229,3.524575873012207,-0.35993796586990356,0.03959624469280243,-1.6791227499591272,2.403885033738784e-12,0.11893144994974136,0.6781793832778931,0.007972986437380314,0.0827631875872612,0.7671754360198975,-0.14467351138591766,-0.4701381027698517
302.0,281.0,8.6794,2.3222,4.27,-0.0211,-0.6168,-0.1503,-1.668166299859518,-0.1073395311832428,1.985144019126892,-1.1193969249725342,0.0005005726125091314,1.857862114906311,3.5224081712910156,-0.3526868224143982,0.052520886063575745,-1.6791108290301722,6.691302467655652e-16,0.11523091048002243,0.6781752109527588,0.000852858298458159,0.06722326576709747,0.766406774520874,-0.13102467358112335,-0.4267193078994751
302.0,281.0,8.6794,2.3222,4.27,-0.0211,-0.6168,-0.1503,-1.668929239312643,-0.11355142295360565,2.0151259899139404,-1.119385004043579,-0.0005181680899113417,1.8713428974151611,3.5201913553425292,-0.3494355082511902,0.0686425194144249,-1.6791027227984827,1.8625484973658449e-19,0.09426285326480865,0.6781505942344666,3.0811798978902516e-07,0.07657727599143982,0.7657083868980408,-0.11552366614341736,-0.34944701194763184
302.0,281.0,8.6794,2.3222,4.27,-0.0211,-0.6168,-0.1503,-1.66965975383901,-0.12560734152793884,2.083707094192505,-1.1194326877593994,-0.0039474861696362495,1.8387439250946045,3.5181442934223632,-0.3486921191215515,0.07085124403238297,-1.6791227499591272,5.1844724396586496e-23,0.10316246747970581,0.6781790852546692,8.576577642527283e-11,0.08737517148256302,0.7650269865989685,-0.10425280779600143,-0.38096609711647034
302.0,281.0,8.6794,2.3222,4.27,-0.0211,-0.6168,-0.1503,-1.670363565484518,-0.13602498173713684,2.022946357727051,-1.1194286346435547,-0.004222590010613203,1.8854243755340576,3.516092463130615,-0.3312585651874542,0.07872919738292694,-1.6791065374957483,1.4431168718104486e-26,0.11101846396923065,0.678170919418335,2.3873218736613668e-14,0.08271639049053192,0.7643992900848389,-0.1019221842288971,-0.3623209595680237
302.0,281.0,8.6794,2.3222,4.27,-0.0211,-0.6168,-0.1503,-1.6711231670775355,-0.1364699900150299,2.124819040298462,-1.1194450855255127,-0.0014151408104225993,1.8930203914642334,3.514113112086914,-0.3413207530975342,0.05591445416212082,-1.6790984312640589,4.0169688848954896e-30,0.11723904311656952,0.6782310009002686,6.645198877926907e-18,0.08109070360660553,0.7637169361114502,-0.09967263042926788,-0.3395816385746002
302.0,281.0,8.6794,2.3222,4.27,-0.0211,-0.6168,-0.1503,-1.6718946895995082,-0.12457148730754852,2.1012935638427734,-1.1194605827331543,-0.0005297113093547523,1.9372875690460205,3.5121218401142578,-0.3314798176288605,0.0690784603357315,-1.6791108290301722,1.1181379406838371e-33,0.10980077087879181,0.6781628131866455,1.84971539600726e-21,0.08594827353954315,0.7631815671920776,-0.10090376436710358,-0.35847270488739014
302.0,281.0,8.6794,2.3222,4.27,-0.0211,-0.6168,-0.1503,-1.6726380787291468,-0.1145607978105545,2.0276176929473877,-1.119480848312378,-0.00010295956599293277,1.920067310333252,3.510169668788574,-0.32358214259147644,0.0802135095000267,-1.679127041493551,3.1123780565222213e-37,0.10205245763063431,0.6782469153404236,5.148751654300407e-25,0.08990177512168884,0.7625129222869873,-0.10110004246234894,-0.328716516494751
302.0,281.0,8.6794,2.3222,4.27,-0.0211,-0.6168,-0.1503,-1.6733418903746546,-0.113773874938488,2.1054129600524902,-1.1194770336151123,-7.654706132598221e-05,1.877447247505188,3.5083109575458984,-0.3191903829574585,0.08194300532341003,-1.6790908018695276,8.663387625841749e-41,0.10324843227863312,0.6781419515609741,1.4331736662490916e-28,0.07963564991950989,0.7619580030441284,-0.095546655356884,-0.3630899488925934
302.0,281.0,8.6794,2.3222,4.27,-0.0211,-0.6168,-0.1503,-1.6740290127196253,-0.11407914757728577,2.1146578788757324,-1.1194688081741333,-6.09826784057077e-05,1.935394048690796,3.506401224727295,-0.3004235625267029,0.08800671994686127,-1.6791389624225062,2.382207389352189e-44,0.09393061697483063,0.6781426072120667,3.9892916353065086e-32,0.08166683465242386,0.7614941000938416,-0.08312000334262848,-0.2954135537147522
289.0,305.0,8.6542,2.4257,4.8359,0.0371,-0.4965,-0.148,-1.6747476063170375,-0.12047555297613144,2.077609062194824,-1.1194729804992676,-0.00010110955918207765,1.8730309009552002,3.5046631532856445,-0.294671893119812,0.09349709749221802,-1.6791985670672815,0.0,0.08935437351465225,0.6782066822052002,1.1104339957945282e-35,0.08245342969894409,0.7609899044036865,-0.06826888024806976,-0.2644743323326111
289.0,305.0,8.6542,2.4257,4.8359,0.0371,-0.4965,-0.148,-1.6754471264281214,-0.1221928521990776,2.1662096977233887,-1.1194202899932861,-0.00012988803791813552,1.9245984554290771,3.502844973201416,-0.28311964869499207,0.10655280947685242,-1.679122273121969,0.0,0.12167932093143463,0.6781988143920898,3.090933705862966e-39,0.09948700666427612,0.7605656385421753,-0.058054689317941666,-0.25080814957618713
289.0,305.0,8.6542,2.4257,4.8359,0.0371,-0.4965,-0.148,-1.6760813198485316,-0.12025685608386993,2.1388676166534424,-1.1194770336151123,-0.00010684236622182652,1.9450381994247437,3.501166506404541,-0.2880575656890869,0.10325336456298828,-1.6791546980487269,0.0,0.09453161060810089,0.6781420111656189,8.603972570954377e-43,0.10751686990261078,0.7602423429489136,-0.0498088039457798,-0.28722071647644043
289.0,305.0,8.6542,2.4257,4.8359,0.0371,-0.4965,-0.148,-1.6767732105650843,-0.11078053712844849,2.1654233932495117,-1.1195013523101807,-4.542165333987214e-05,1.936492919921875,3.4993960100361328,-0.2703642249107361,0.10701753199100494,-1.6791957060443323,0.0,0.09609183669090271,0.6782429218292236,0.0,0.09003262966871262,0.7599177956581116,-0.04552304744720459,-0.23643431067466736
289.0,305.0,8.6542,2.4257,4.8359,0.0371,-0.4965,-0.148,-1.6774007282652796,-0.10471992939710617,2.1466763019561768,-1.1194605827331543,-7.411698607029393e-05,1.9111647605895996,3.4978925424763183,-0.25315746665000916,0.13440784811973572,-1.6791227499591272,0.0,0.09562673419713974,0.6782146692276001,0.0005923678982071579,0.09012598544359207,0.7596669793128967,-0.04268995299935341,-0.1896471381187439
289.0,305.0,8.6542,2.4257,4.8359,0.0371,-0.4965,-0.148,-1.6780759296812953,-0.1038186177611351,2.1691441535949707,-1.119509220123291,-6.963777559576556e-05,1.933281421661377,3.4964000421711425,-0.23356029391288757,0.11988560855388641,-1.6791227499591272,0.0,0.10984591394662857,0.6782224178314209,0.0010486508253961802,0.0900869369506836,0.7593947052955627,-0.0401114746928215,-0.20135271549224854
289.0,305.0,8.6542,2.4257,4.8359,0.0371,-0.4965,-0.148,-1.6786462269225062,-0.10937923192977905,2.184088706970215,-1.119489073753357,-6.239560025278479e-05,1.948836326599121,3.4951998430439453,-0.20795300602912903,0.15251126885414124,-1.6790984312640589,0.0,0.1102672815322876,0.6782793402671814,0.001733502489514649,0.09468775987625122,0.75923091173172,-0.033897820860147476,-0.20443123579025269
289.0,305.0,8.6542,2.4257,4.8359,0.0371,-0.4965,-0.148,-1.6793910465636195,-0.11497466266155243,2.1850643157958984,-1.119472861289978,-5.65181253477931e-05,1.9145004749298096,3.4938904482075195,-0.20647774636745453,0.13185806572437286,-1.6791065374957483,0.0,0.10290465503931046,0.6782462000846863,0.002397326985374093,0.09551674127578735,0.7590630054473877,-0.026707708835601807,-0.23403260111808777
289.0,305.0,8.6542,2.4257,4.8359,0.0371,-0.4965,-0.148,-1.6800056896605433,-0.11324558407068253,2.1504433155059814,-1.1194770336151123,-2.5827926947386004e-05,1.9792635440826416,3.4928251939960937,-0.17890208959579468,0.16250845789909363,-1.679098908101217,0.0,0.10112909972667694,0.6782667636871338,0.0034603672102093697,0.09373360127210617,0.7589070200920105,-0.01914200931787491,-0.21449458599090576
289.0,305.0,8.6542,2.4257,4.8359,0.0371,-0.4965,-0.148,-1.680657526055807,-0.10954684019088745,2.170060873031616,-1.1194450855255127,-2.377915552642662e-05,1.900014042854309,3.491870566005371,-0.14592885971069336,0.17920613288879395,-1.6791389624225062,0.0,0.11653569340705872,0.6783146858215332,0.005271988455206156,0.10910889506340027,0.7588231563568115,-0.012254773639142513,-0.12245161831378937
289.0,305.0,8.6542,2.4257,4.8359,0.0371,-0.4965,-0.148,-1.6813284359373988,-0.10123015940189362,2.224707841873169,-1.119505524635315,-2.203275653300807e-05,1.959183692932129,3.4911152559467773,-0.12788590788841248,0.18623840808868408,-1.6791308561908167,0.0,0.10388296097517014,0.6783992648124695,0.005930475890636444,0.11641865968704224,0.758714497089386,-0.007879922166466713,-0.14227384328842163
289.0,305.0,8.6542,2.4257,4.8359,0.0371,-0.4965,-0.148,-1.6819349728026332,-0.09438826143741608,2.243335247039795,-1.1194605827331543,-2.0525329091469757e-05,1.9732049703598022,3.4903790193745117,-0.10841397941112518,0.19785378873348236,-1.6791108290301722,0.0,0.10802590847015381,0.6784436106681824,0.005419666413217783,0.12279599905014038,0.758691132068634,-0.003619906958192587,-0.1325312852859497
289.0,305.0,8.6542,2.4257,4.8359,0.0371,-0.4965,-0.148,-1.6825710735716761,-0.0934848040342331,2.2198872566223145,-1.1194522380828857,-3.815850868704729e-05,1.9744071960449219,3.489738627071045,-0.0756097212433815,0.21857836842536926,-1.6790788809405726,0.0,0.1257627010345459,0.678394615650177,0.005060937255620956,0.11501283943653107,0.7587592601776123,-0.0009656719630584121,-0.11497300863265991
289.0,305.0,8.6542,2.4257,4.8359,0.0371,-0.4965,-0.148,-1.6832105122008265,-0.10237326472997665,2.2479615211486816,-1.1194766759872437,-7.010337867541239e-05,1.9748778343200684,3.4893929201313476,-0.03539528697729111,0.20870241522789001,-1.6791308561908167,0.0,0.1143585592508316,0.6784552335739136,0.004080400802195072,0.10331466794013977,0.7587635517120361,0.0007815146236680448,-0.15878891944885254
289.0,305.0,8.6542,2.4257,4.8359,0.0371,-0.4965,-0.148,-1.6838537655272425,-0.11351212114095688,2.2741494178771973,-1.119456171989441,-0.0018250292632728815,1.9331797361373901,3.489405794734619,-0.0030080059077590704,0.244065523147583,-1.679127041493551,0.0,0.12318453937768936,0.6784177422523499,0.0035732167307287455,0.12537966668605804,0.7587872743606567,0.0017479383386671543,-0.12768615782260895
292.0,296.0,4.8054,1.6367,5.9163,-0.0307,0.1164,-0.1407,-1.6845489941039027,-0.12480128556489944,2.191263437271118,-1.119472622871399,-0.0017585461027920246,1.951688289642334,3.4894015032001953,0.022184504196047783,0.2590892016887665,-1.6790788809405726,-2.4269938876386732e-05,0.13493689894676208,0.6784663796424866,0.0030410566832870245,0.11696814000606537,0.7587791681289673,0.0011101218406111002,-0.21583202481269836
292.0,296.0,4.8054,1.6367,5.9163,-0.0307,0.1164,-0.1407,-1.6852122745909632,-0.13217699527740479,2.212096691131592,-1.1194932460784912,-7.045392703730613e-05,1.9387187957763672,3.489645166988037,0.028805438429117203,0.26048165559768677,-1.6790388266192835,-2.3053888071444817e-05,0.11483156681060791,0.6785149574279785,0.0028559567872434855,0.11761173605918884,0.7587389349937439,0.0006824963493272662,-0.1697218120098114
292.0,296.0,4.8054,1.6367,5.9163,-0.0307,0.1164,-0.1407,-1.6859952412047328,-0.12828074395656586,2.129195213317871,-1.1195132732391357,-1.7013794539888494e-10,1.9432461261749268,3.4897758203693847,0.026381686329841614,0.2577058672904968,-1.679103199635641,-1.1103603355877567e-05,0.12135777622461319,0.6785391569137573,0.0029271463863551617,0.1272561401128769,0.7587991952896118,0.0003890377120114863,-0.19811856746673584
292.0,296.0,4.8054,1.6367,5.9163,-0.0307,0.1164,-0.1407,-1.686798711816305,-0.1163957417011261,2.164332866668701,-1.1194286346435547,-4.108631513539306e-16,1.8941872119903564,3.489943190211914,0.01940861903131008,0.25731194019317627,-1.6790946165667933,-5.426982625067467e-06,0.12884913384914398,0.6786118149757385,0.0035715503618121147,0.13130693137645721,0.7588073015213013,0.00011043647100450471,-0.22606629133224487
292.0,296.0,4.8054,1.6367,5.9163,-0.0307,0.1164,-0.1407,-1.6875139675536097,-0.10337962955236435,2.2370147705078125,-1.1194125413894653,-9.921862820666467e-22,1.9202330112457275,3.4900266367145996,0.010118537582457066,0.243721604347229,-1.679103199635641,-1.5106207396087257e-09,0.13963952660560608,0.6785830855369568,0.004201705567538738,0.1314271092414856,0.7588073015213013,6.796051457058638e-05,-0.1771339476108551
292.0,296.0,4.8054,1.6367,5.9163,-0.0307,0.1164,-0.1407,-1.6882373295226039,-0.10330839455127716,2.240410327911377,-1.1195329427719116,0.00010095660400111228,1.9378600120544434,3.4900504785725097,0.0024870894849300385,0.25221559405326843,-1.6790793577777308,-4.204868332864653e-13,0.13631686568260193,0.6785499453544617,0.005024303682148457,0.12281062453985214,0.7587911486625671,0.00016594310000073165,-0.165470153093338
292.0,296.0,4.8054,1.6367,5.9163,-0.0307,0.1164,-0.1407,-1.6889125309386195,-0.11661083251237869,2.2541935443878174,-1.1195329427719116,6.785176864809728e-10,1.9110779762268066,3.489974184627197,-0.0030618079472333193,0.23484936356544495,-1.679075066243307,-1.170440582078935e-16,0.14270362257957458,0.6786187887191772,0.006254052277654409,0.1329917162656784,0.7588073015213013,0.0005724645452573895,-0.17920023202896118
292.0,296.0,4.8054,1.6367,5.9163,-0.0307,0.1164,-0.1407,-1.6896878681578578,-0.1326632797718048,2.20363450050354,-1.119520664215088,-0.0025923780631273985,1.9211421012878418,3.4899584490009765,-0.0024859195109456778,0.24837729334831238,-1.679058853779928,-3.257963933639472e-20,0.13500449061393738,0.678646445274353,0.007860911078751087,0.13019965589046478,0.7587991952896118,0.0005077661480754614,-0.18479390442371368
292.0,296.0,4.8054,1.6367,5.9163,-0.0307,0.1164,-0.1407,-1.6904140911498011,-0.14449454843997955,2.1685240268707275,-1.1195124387741089,-0.0016202069818973541,1.8885530233383179,3.490039034480713,-0.0002898840175475925,0.25928008556365967,-1.6790550390826624,-9.068662136025704e-24,0.1567038744688034,0.678763210773468,0.010134282521903515,0.13854196667671204,0.7587670683860779,2.0059840153408004e-06,-0.2088187038898468
292.0,296.0,4.8054,1.6367,5.9163,-0.0307,0.1164,-0.1407,-1.6912218532957972,-0.14676439762115479,2.1268794536590576,-1.1194565296173096,-0.00047643037396483123,1.9240870475769043,3.4899985033222656,-0.0001259304553968832,0.24124687910079956,-1.6790631453143519,0.000593179021961987,0.15029576420783997,0.6787739396095276,0.012320837005972862,0.14228084683418274,0.7587593793869019,-0.0026074296329170465,-0.23043012619018555
292.0,296.0,4.8054,1.6367,5.9163,-0.0307,0.1164,-0.1407,-1.6920691929259242,-0.13599812984466553,2.189356565475464,-1.1194565296173096,0.0003056213026866317,1.9331567287445068,3.4900380808063964,-2.4549910904170247e-07,0.2396535575389862,-1.6790393034564417,0.000803138071205467,0.15608255565166473,0.6788547039031982,0.017232252284884453,0.13488346338272095,0.7586991786956787,-0.0036523945163935423,-0.27439528703689575
292.0,296.0,4.8054,1.6367,5.9163,-0.0307,0.1164,-0.1407,-1.6928192577757777,-0.11335689574480057,2.174311399459839,-1.1194565296173096,0.0002505602897144854,1.876086950302124,3.490034266109131,-6.833558024998965e-11,0.2527086138725281,-1.6790393034564417,0.0010635831858962774,0.16446802020072937,0.6789701581001282,0.024858521297574043,0.1328096091747284,0.7587072849273682,-0.002991548040881753,-0.2647401690483093
292.0,296.0,4.8054,1.6367,5.9163,-0.0307,0.1164,-0.1407,-1.6936918697752894,-0.10254824906587601,2.167891263961792,-1.119480848312378,7.321851444430649e-05,1.9330649375915527,3.490022822017334,-1.902146483671787e-14,0.23949530720710754,-1.6790474096881312,0.0009493082179687917,0.16442789137363434,0.6791669130325317,0.03578502684831619,0.14615951478481293,0.7587072849273682,-0.001548021100461483,-0.23836976289749146
292.0,296.0,4.8054,1.6367,5.9163,-0.0307,0.1164,-0.1407,-1.6943260631956996,-0.10828161984682083,2.205599784851074,-1.1195610761642456,-0.0019128056010231376,1.9281383752822876,3.489937945003174,0.00018503976752981544,0.23806214332580566,-1.6790230909930628,0.000879694358445704,0.1597760021686554,0.6794796586036682,0.0565066821873188,0.13003218173980713,0.7587751746177673,-0.0005727714160457253,-0.26243796944618225
292.0,296.0,4.8054,1.6367,5.9163,-0.0307,0.1164,-0.1407,-1.6950742206969203,-0.13032518327236176,2.1455674171447754,-1.1195844411849976,-0.0073518468998372555,1.8503413200378418,3.490002318019531,2.0985260562156327e-05,0.2442292869091034,-1.6790593306170862,0.0009095733985304832,0.16906043887138367,0.6799001693725586,0.08397487550973892,0.15258385241031647,0.7587111592292786,0.00023283250629901886,-0.273929238319397
282.0,311.0,7.0959,1.2479,4.5302,-0.0014,-0.1132,0.0221,-1.6958328686156214,-0.15090414881706238,2.1238584518432617,-1.1196563243865967,-0.009709789417684078,1.8707611560821533,3.4900147157856445,5.8413247572275395e-09,0.24391761422157288,-1.6790111700641077,0.0011651102686300874,0.18201175332069397,0.6804919242858887,0.10466140508651733,0.15626469254493713,0.7586911916732788,1.0432499038870446e-05,-0.27506890892982483
282.0,311.0,7.0959,1.2479,4.5302,-0.0014,-0.1132,0.0221,-1.6966315708556117,-0.15889112651348114,2.149123191833496,-1.1195963621139526,-0.006675726268440485,1.8612971305847168,3.4899703699299316,1.625954037208499e-12,0.22513779997825623,-1.678983513508932,0.0014758316101506352,0.16620010137557983,0.6810749769210815,0.09269215911626816,0.15921109914779663,0.758675217628479,2.5193253733180043e-11,-0.26714491844177246
282.0,311.0,7.0959,1.2479,4.5302,-0.0014,-0.1132,0.0221,-1.697519441644186,-0.14613935351371765,2.0840837955474854,-1.1197009086608887,-0.0019588300492614508,1.9123914241790771,3.4899822908588867,4.525902442669436e-16,0.2282603234052658,-1.6789467970477503,0.0015741430688649416,0.17248764634132385,0.6815181374549866,0.0689595639705658,0.15641258656978607,0.7586793303489685,-0.0016585771227255464,-0.30948567390441895
282.0,311.0,7.0959,1.2479,4.5302,-0.0014,-0.1132,0.0221,-1.698334356347555,-0.1283046454191208,2.1574692726135254,-1.1196211576461792,-1.5952278431541345e-07,1.8550314903259277,3.4900423723408203,1.2598017597849725e-19,0.22296923398971558,-1.679023567830221,0.0013138990616425872,0.1818016618490219,0.6818342804908752,0.03926884010434151,0.1323726773262024,0.7586875557899475,-0.0015349178574979305,-0.26542142033576965
282.0,311.0,7.0959,1.2479,4.5302,-0.0014,-0.1132,0.0221,-1.6991650066771449,-0.11995351314544678,2.174283504486084,-1.1196367740631104,-3.852287954776712e-13,1.8476462364196777,3.490029974574707,0.0004035798483528197,0.2271420955657959,-1.6789992491351526,0.0009610956767573953,0.1662115752696991,0.6819292902946472,0.01739327237010002,0.1261485368013382,0.7587593197822571,-0.0005776803009212017,-0.3139328062534332
282.0,311.0,7.0959,1.2479,4.5302,-0.0014,-0.1132,0.0221,-1.6999803982176722,-0.12378226965665817,2.164215564727783,-1.1196606159210205,-0.00012392930511850864,1.9062345027923584,3.490022822017334,0.0009619640186429024,0.24226832389831543,-1.6790035406695765,0.0007195781217887998,0.16224680840969086,0.682025134563446,0.0036390298046171665,0.11199142783880234,0.7587635517120361,0.0006480168085545301,-0.2418358027935028
282.0,311.0,7.0959,1.2479,4.5302,-0.0014,-0.1132,0.0221,-1.700815816918844,-0.13718144595623016,2.1673591136932373,-1.119744896888733,-0.0021189777180552483,1.893582820892334,3.4900662141987304,0.00043278749217279255,0.24244007468223572,-1.6789959112750452,0.0005534625961445272,0.16090534627437592,0.6819935441017151,1.3846811270923354e-06,0.12375533580780029,0.7587351202964783,0.001715523307211697,-0.27160555124282837
282.0,311.0,7.0959,1.2479,4.5302,-0.0014,-0.1132,0.0221,-1.7016869984068812,-0.15308085083961487,2.1557984352111816,-1.1197330951690674,-0.0050542294047772884,1.896216630935669,3.4899985033222656,0.00030985259218141437,0.22518515586853027,-1.6790154615985315,0.0003691238525789231,0.16680702567100525,0.6820048689842224,3.854311314555048e-10,0.12034827470779419,0.7587430477142334,0.0011830100556835532,-0.276218980550766
282.0,311.0,7.0959,1.2479,4.5302,-0.0014,-0.1132,0.0221,-1.7025462589659632,-0.16127926111221313,2.1607141494750977,-1.1197413206100464,-0.004558524116873741,1.9254584312438965,3.490002318019531,0.00018897840345744044,0.23553287982940674,-1.6790078322040003,0.00027758561191149056,0.1691698133945465,0.68198561668396,1.0728616210492134e-13,0.11900024116039276,0.7586911916732788,0.0001494490134064108,-0.26563650369644165
282.0,311.0,7.0959,1.2479,4.5302,-0.0014,-0.1132,0.0221,-1.7034489117064417,-0.15771736204624176,2.156834125518799,-1.11974036693573,-0.0019712483044713736,1.8613591194152832,3.490034266109131,0.00015321244427468628,0.24087482690811157,-1.6790192762957972,0.000280837673926726,0.18707065284252167,0.6820375323295593,2.9863496514210045e-17,0.12874938547611237,0.7587111592292786,3.6090180843828534e-10,-0.2566259801387787
282.0,311.0,7.0959,1.2479,4.5302,-0.0014,-0.1132,0.0221,-1.7043639622130335,-0.15113188326358795,2.2111704349517822,-1.1197774410247803,-0.0003489578375592828,1.9478281736373901,3.49001853048291,0.00013091647997498512,0.23605048656463623,-1.6789997259723108,0.00032338351593352854,0.18577876687049866,0.6820576190948486,8.31261424094527e-21,0.12509354948997498,0.7587312459945679,-0.0010284952586516738,-0.2827834486961365
282.0,311.0,7.0959,1.2479,4.5302,-0.0014,-0.1132,0.0221,-1.7052465877928675,-0.1476065218448639,2.182417392730713,-1.1197326183319092,-0.0002199739683419466,1.8874590396881104,3.490046663875244,0.00015229327254928648,0.22804827988147736,-1.678979221974508,0.0004885351518169045,0.17538326978683472,0.682041347026825,2.313846772503332e-24,0.138478621840477,0.7587072849273682,-0.0006126345251686871,-0.29990994930267334
282.0,311.0,7.0959,1.2479,4.5302,-0.0014,-0.1132,0.0221,-1.706149240533346,-0.1488206684589386,2.1968259811401367,-1.1197444200515747,-0.00016093764861579984,1.863416314125061,3.490006132716797,3.901312084053643e-05,0.23855051398277283,-1.6789916197406214,0.0011943839490413666,0.1847478747367859,0.682037353515625,6.440677586650295e-28,0.12962839007377625,0.758767306804657,-0.00034716862137429416,-0.31558671593666077
282.0,311.0,7.0959,1.2479,4.5302,-0.0014,-0.1132,0.0221,-1.7070800266661585,-0.15255703032016754,2.244046449661255,-1.119728446006775,-0.00019029797113034874,1.8939478397369385,3.49001853048291,3.383438888704404e-05,0.24255256354808807,-1.6789873282061976,0.001360482769086957,0.17677542567253113,0.682041347026825,1.7927861661481285e-31,0.14003628492355347,0.7587272524833679,-0.0002019304083660245,-0.27820226550102234
282.0,311.0,7.0959,1.2479,4.5302,-0.0014,-0.1132,0.0221,-1.7080842457213343,-0.15857350826263428,2.150437355041504,-1.1197888851165771,-0.0002108647022396326,1.9173269271850586,3.490006132716797,3.040459159819875e-05,0.2288191318511963,-1.6789596716510218,0.001157746883109212,0.16934743523597717,0.6820615530014038,4.990285759927548e-35,0.12158150225877762,0.7587391138076782,0.00020428284187801182,-0.31010937690734863
275.0,315.0,8.1051,1.943,4.3406,0.0426,-0.2407,-0.0846,-1.7089950046935023,-0.162102609872818,2.229807138442993,-1.1197888851165771,-0.0010278824483975768,1.8931858539581299,3.4900547701069335,8.463230116717568e-09,0.23310986161231995,-1.6789997259723108,0.0009492065291851759,0.17065201699733734,0.6820693612098694,1.3890645682118757e-38,0.13439896702766418,0.7587632536888123,0.00022287796309683472,-0.3119000792503357
275.0,315.0,8.1051,1.943,4.3406,0.0426,-0.2407,-0.0846,-1.7099620304503382,-0.17310397326946259,2.2258143424987793,-1.1197724342346191,-0.001589720486663282,1.8555344343185425,3.489989920253418,2.3557711770899603e-12,0.2312498688697815,-1.678979221974508,0.0005995741230435669,0.1812976896762848,0.6820213794708252,3.86618246307217e-42,0.11865828931331635,0.758787214756012,0.00018796391668729484,-0.32002753019332886
275.0,315.0,8.1051,1.943,4.3406,0.0426,-0.2407,-0.0846,-1.7109972439207972,-0.1797092854976654,2.187713146209717,-1.1197967529296875,-0.00085512112127617,1.928126573562622,3.490022822017334,6.557375970782907e-16,0.2264435738325119,-1.6789677778827112,0.0005137076368555427,0.1656099557876587,0.6820496320724487,1.401298464324817e-45,0.1283043622970581,0.7587751746177673,0.00016250649059657007,-0.23017367720603943
275.0,315.0,8.1051,1.943,4.3406,0.0426,-0.2407,-0.0846,-1.7120558224120082,-0.17656667530536652,2.1492207050323486,-1.1197929382324219,-0.0004829741083085537,1.8708827495574951,3.490046663875244,1.825269664356582e-19,0.2344820499420166,-1.6789191404925745,0.0004649267648346722,0.1745884120464325,0.6820295453071594,0.0,0.11658228933811188,0.7587632536888123,0.00014312344137579203,-0.31001585721969604
275.0,315.0,8.1051,1.943,4.3406,0.0426,-0.2407,-0.0846,-1.7131263218321742,-0.16569624841213226,2.2465033531188965,-1.119720220565796,-0.0002922342100646347,1.8929367065429688,3.4900857645222167,5.0807044140084294e-23,0.24600724875926971,-1.6789472738849085,0.00038144728750921786,0.19415366649627686,0.6821014881134033,0.0,0.12400113046169281,0.7587231993675232,0.00012787170999217778,-0.3099369406700134
275.0,315.0,8.1051,1.943,4.3406,0.0426,-0.2407,-0.0846,-1.714097639123434,-0.15787597000598907,2.2371928691864014,-1.1197848320007324,-0.0002349909773329273,1.9114965200424194,3.4900104242512207,0.0004056570469401777,0.24044404923915863,-1.6789754072772425,0.00032279116567224264,0.16534502804279327,0.682001531124115,0.0,0.12266243249177933,0.7587711811065674,0.00021378272504080087,-0.28095072507858276
275.0,315.0,8.1051,1.943,4.3406,0.0426,-0.2407,-0.0846,-1.7151199779906214,-0.16451671719551086,2.275064468383789,-1.1196637153625488,-5.6621120165800676e-05,1.960803747177124,3.490034266109131,0.0006928002694621682,0.2376699149608612,-1.6789353529559534,0.000279775180388242,0.16731850802898407,0.6820534467697144,0.0,0.13200567662715912,0.7587671279907227,0.00030928212800063193,-0.2417997270822525
275.0,315.0,8.1051,1.943,4.3406,0.0426,-0.2407,-0.0846,-1.716172834435934,-0.17861953377723694,2.219921112060547,-1.1197600364685059,-9.427515033166856e-05,1.9296512603759766,3.4900900560566406,0.0004192520573269576,0.248551145195961,-1.6789916197406214,0.00024687746190465987,0.1744614839553833,0.6821054220199585,0.0,0.13368593156337738,0.7587630748748779,0.000973176269326359,-0.2282486855983734
275.0,315.0,8.1051,1.943,4.3406,0.0426,-0.2407,-0.0846,-1.717290540734762,-0.19353988766670227,2.257387638092041,-1.1197888851165771,-8.147508924594149e-05,1.956071376800537,3.4900900560566406,0.00019742395670618862,0.23750907182693481,-1.6789429823504847,0.0002209038066212088,0.17149323225021362,0.68202143907547,0.0,0.15017206966876984,0.7587510347366333,0.0006715933559462428,-0.2533300220966339
275.0,315.0,8.1051,1.943,4.3406,0.0426,-0.2407,-0.0846,-1.718423982659811,-0.18773077428340912,2.271867513656616,-1.1198173761367798,-1.4596909068131936e-06,1.9619545936584473,3.490102453822754,0.0002584369503892958,0.23522961139678955,-1.678939167653219,0.00019987573614344,0.15855708718299866,0.6820574998855591,0.0,0.1298407018184662,0.7586549520492554,2.8446097033452133e-08,-0.25555723905563354
275.0,315.0,8.1051,1.943,4.3406,0.0426,-0.2407,-0.0846,-1.7195049724974574,-0.17210225760936737,2.3120594024658203,-1.11974036693573,-3.524981738792232e-12,1.9148752689361572,3.490166350001953,0.0004283422895241529,0.24257420003414154,-1.67889911333193,0.00018250374705530703,0.15770047903060913,0.6820095181465149,0.0,0.12410521507263184,0.7586585879325867,-0.00316023756749928,-0.21252086758613586
275.0,315.0,8.1051,1.943,4.3406,0.0426,-0.2407,-0.0846,-1.720558305779928,-0.16824467480182648,2.3027167320251465,-1.1197526454925537,-8.512416422109701e-18,1.943772554397583,3.49009816228833,0.001858665025793016,0.2385677844285965,-1.6789315382586878,0.0001679101405898109,0.15523475408554077,0.6820454597473145,0.0,0.1292233169078827,0.7586632966995239,-0.003620809642598033,-0.23643451929092407
275.0,315.0,8.1051,1.943,4.3406,0.0426,-0.2407,-0.0846,-1.7215992412962855,-0.17248280346393585,2.308520793914795,-1.1197326183319092,-2.0556482989325612e-23,1.9702693223953247,3.490069552058838,0.0013302200241014361,0.23589114844799042,-1.6789234320269983,0.00015547772636637092,0.15629194676876068,0.6820454597473145,0.0,0.11006155610084534,0.7586232423782349,-0.003843725426122546,-0.23440831899642944
275.0,315.0,8.1051,1.943,4.3406,0.0426,-0.2407,-0.0846,-1.722684999505514,-0.18046139180660248,2.331230640411377,-1.1197527647018433,-4.964148829940616e-29,1.9387166500091553,3.490205927486084,0.001144006964750588,0.2331385314464569,-1.6789034048663538,0.00014475970237981528,0.1521822214126587,0.6820335388183594,0.0,0.11470214277505875,0.7586154937744141,-0.004595924634486437,-0.21747061610221863
275.0,315.0,8.1051,1.943,4.3406,0.0426,-0.2407,-0.0846,-1.723762651483053,-0.17955654859542847,2.340015172958374,-1.1197609901428223,-1.1987834882648435e-34,1.9928604364395142,3.490189715022705,0.003495272481814027,0.23556196689605713,-1.6788914839373987,0.0001354241103399545,0.16339783370494843,0.6820534467697144,0.0,0.11790923774242401,0.7585552334785461,-0.005309111438691616,-0.22661224007606506
275.0,315.0,8.1051,1.943,4.3406,0.0426,-0.2407,-0.0846,-1.7248274288573207,-0.16703830659389496,2.3210654258728027,-1.119728446006775,-2.894914471479353e-40,1.9558510780334473,3.4901935297199707,0.00482563953846693,0.2466992735862732,-1.6789477507220667,0.00012721968232654035,0.13562849164009094,0.6820535659790039,0.0,0.11515437811613083,0.7585151195526123,-0.004852697253227234,-0.22718968987464905
272.0,339.0,8.8959,1.5218,5.1242,0.026,-0.1698,-0.0964,-1.7257925472655238,-0.15882238745689392,2.3820438385009766,-1.1197609901428223,-0.0,1.9773662090301514,3.4902655321308593,0.007580925710499287,0.2514863908290863,-1.6788952986346644,0.00011995281965937465,0.13976053893566132,0.682037353515625,0.0,0.10311582684516907,0.7585638165473938,-0.003528350731357932,-0.21942749619483948
