ramyac6/ROB537/final_project/csv/bad/bad_22.csv
tof_0,tof_1,accelx,accely,accelz,gyrox,gyroy,gyroz,shoulder_lift_joint_position,shoulder_lift_joint_velocity,shoulder_lift_joint_effort,elbow_joint_position,elbow_joint_velocity,elbow_joint_effort,wrist_1_joint_position,wrist_1_joint_velocity,wrist_1_joint_effort,wrist_2_joint_position,wrist_2_joint_velocity,wrist_2_joint_effort,wrist_3_joint_position,wrist_3_joint_velocity,wrist_3_joint_effort,shoulder_pan_joint_position,shoulder_pan_joint_velocity,shoulder_pan_joint_effort
219.0,357.0,2.6746,-0.0257,8.9647,-0.0472,0.016,-0.1202,-1.768569131890768,0.0,2.9657747745513916,-1.636596918106079,-0.0,2.1216001510620117,4.637893839473389,-0.0,0.2880322337150574,-1.6247966925250452,0.0,0.0015102740144357085,0.995660126209259,-0.0,-0.009871073067188263,0.7365203499794006,0.0,0.021692080423235893
219.0,357.0,2.6746,-0.0257,8.9647,-0.0472,0.016,-0.1202,-1.7685772381224574,0.0,2.9644224643707275,-1.6365604400634766,-0.0,2.1214523315429688,4.637833757991455,-0.0,0.29745495319366455,-1.6247847715960901,0.0,0.004179095383733511,0.9956203103065491,-0.0,-0.0017330633709207177,0.7365162372589111,0.0,0.012050358578562737
219.0,357.0,2.6746,-0.0257,8.9647,-0.0472,0.016,-0.1202,-1.7686015568175257,0.0,3.0163495540618896,-1.636605143547058,-0.0,2.125816583633423,4.637889547938965,-0.0,0.28999555110931396,-1.624829117451803,0.0,-0.00613735057413578,0.9956409335136414,-0.0,-0.00744614377617836,0.7365244626998901,0.0,0.02378816530108452
219.0,357.0,2.6746,-0.0257,8.9647,-0.0472,0.016,-0.1202,-1.768654008904928,0.0,3.007904529571533,-1.6365928649902344,-0.0,2.1319825649261475,4.637853308314941,-0.0,0.3048546612262726,-1.6248205343829554,0.0,-0.0017673422116786242,0.9956761598587036,-0.0,0.016036201268434525,0.7365323901176453,0.0,-0.0010175216011703014
219.0,357.0,2.6746,-0.0257,8.9647,-0.0472,0.016,-0.1202,-1.768613954583639,0.0,2.984898567199707,-1.6365851163864136,-0.0,2.1507935523986816,4.63784567892041,-0.0,0.2905646860599518,-1.6248696486102503,0.0,0.012465329840779305,0.9956643581390381,-0.0,0.006288663484156132,0.7365121245384216,0.0,-0.011762449517846107
219.0,357.0,2.6746,-0.0257,8.9647,-0.0472,0.016,-0.1202,-1.7685982189574183,0.0,3.046200752258301,-1.6365809440612793,-0.0,2.145658493041992,4.637881441707275,-0.0,0.2886604368686676,-1.6248248259173792,0.0,0.0041700853034853935,0.9956400394439697,-0.0,0.0068491497077047825,0.7365723848342896,0.0,-0.013934110291302204
219.0,357.0,2.6746,-0.0257,8.9647,-0.0472,0.016,-0.1202,-1.7685734234251917,0.0,2.965902328491211,-1.6365524530410767,-0.0,2.1020827293395996,4.637849493617676,-0.0,0.2889801859855652,-1.6248372236834925,0.0,0.00150915770791471,0.9956161975860596,-0.0,-0.003010634332895279,0.7365723848342896,0.0,-0.009039195254445076
219.0,357.0,2.6746,-0.0257,8.9647,-0.0472,0.016,-0.1202,-1.7686220608153285,0.0,2.9910166263580322,-1.6365643739700317,-0.0,2.1601386070251465,4.6378771501728515,-0.0,0.29677075147628784,-1.6247647444354456,0.0,-0.003653216175734997,0.9956562519073486,-0.0,0.004901145584881306,0.736524224281311,0.0,0.009956469759345055
219.0,357.0,2.6746,-0.0257,8.9647,-0.0472,0.016,-0.1202,-1.768613954583639,0.0,2.9911909103393555,-1.6365283727645874,-0.0,2.1524624824523926,4.637865229243896,-0.0,0.3026871681213379,-1.624772850667135,0.0,-0.004674030467867851,0.9956562519073486,-0.0,-0.010948886163532734,0.7365484237670898,0.0,0.013897912576794624
219.0,357.0,2.6746,-0.0257,8.9647,-0.0472,0.016,-0.1202,-1.768585821191305,0.0,2.950634241104126,-1.636560320854187,-0.0,2.143014907836914,4.637881441707275,-0.0,0.30201131105422974,-1.6248248259173792,0.0,-0.010736940428614616,0.9956368803977966,-0.0,-0.006602264009416103,0.7366127371788025,0.0,0.031734734773635864
219.0,357.0,2.6746,-0.0257,8.9647,-0.0472,0.016,-0.1202,-1.7686058483519496,0.0,2.974752426147461,-1.636568546295166,-0.0,2.13796067237854,4.637897654170654,-0.0,0.29005858302116394,-1.6248372236834925,0.0,0.0014870647573843598,0.9956481456756592,-0.0,-0.005152924917638302,0.7365406155586243,0.0,0.021467218175530434
219.0,357.0,2.6746,-0.0257,8.9647,-0.0472,0.016,-0.1202,-1.7685982189574183,0.0,3.0127816200256348,-1.6365727186203003,-0.0,2.146890163421631,4.637889547938965,-0.0,0.30085787177085876,-1.6248052755938929,0.0,-0.0016901176422834396,0.9957079887390137,-0.0,0.008713975548744202,0.7365484237670898,0.0,0.008072173222899437
220.0,346.0,2.6387,-0.137,9.0006,-0.0396,0.0308,-0.1171,-1.7686058483519496,0.0,2.9949088096618652,-1.6365928649902344,-0.0,2.1261987686157227,4.637865229243896,-0.0,0.29863977432250977,-1.6248176733600062,0.0,-0.005874565802514553,0.9956681728363037,-0.0,0.0030707467813044786,0.7365806102752686,0.0,-0.015988554805517197
220.0,346.0,2.6387,-0.137,9.0006,-0.0396,0.0308,-0.1171,-1.7685772381224574,0.0,3.011587142944336,-1.6365727186203003,-0.0,2.0878589153289795,4.637857599849365,-0.0,0.29250776767730713,-1.6248496214496058,0.0,-0.014227263629436493,0.9956802725791931,-0.0,-0.012399515137076378,0.736564576625824,0.0,-0.03476543724536896
220.0,346.0,2.6387,-0.137,9.0006,-0.0396,0.0308,-0.1171,-1.7685772381224574,0.0,2.9711577892303467,-1.6366130113601685,-0.0,2.136673927307129,4.637873335475586,-0.0,0.30157917737960815,-1.6247690359698694,0.0,7.180287502706051e-05,0.9956881999969482,-0.0,0.005403089802712202,0.7365406155586243,0.0,-0.04301318898797035
220.0,346.0,2.6387,-0.137,9.0006,-0.0396,0.0308,-0.1171,-1.7685815296568812,0.0,3.0170083045959473,-1.6365364789962769,-0.0,2.1073129177093506,4.637833757991455,-0.0,0.29998743534088135,-1.624789063130514,0.0,0.00232529966160655,0.9957160353660583,-0.0,-0.00495096854865551,0.7366008162498474,0.0,-0.055041246116161346
220.0,346.0,2.6387,-0.137,9.0006,-0.0396,0.0308,-0.1171,-1.768585821191305,0.0,2.988347053527832,-1.636568546295166,-0.0,2.1387715339660645,4.637857599849365,1.2650565039962203e-08,0.2813042104244232,-1.6248052755938929,0.0,-0.007838273420929909,0.9956881999969482,-0.0,-0.020130954682826996,0.7366008162498474,0.0,-0.0020268969237804413
220.0,346.0,2.6387,-0.137,9.0006,-0.0396,0.0308,-0.1171,-1.768585821191305,0.0,3.0091686248779297,-1.636556625366211,1.554652300228554e-07,2.1248579025268555,4.6378819185444335,5.39313420311327e-11,0.2946222424507141,-1.6248415152179163,0.0,0.000641226302832365,0.9956042766571045,-0.0,-0.010068126022815704,0.7365406155586243,0.0,0.006892750505357981
220.0,346.0,2.6387,-0.137,9.0006,-0.0396,0.0308,-0.1171,-1.7685772381224574,0.0,2.982361316680908,-1.6365604400634766,2.7983190417635306e-11,2.1192891597747803,4.6379052835651855,2.299177829460236e-13,0.29973897337913513,-1.6247966925250452,0.0,-0.009059062227606773,0.9956920742988586,-0.0,-0.0073255570605397224,0.7365846633911133,0.0,0.019079167395830154
220.0,346.0,2.6387,-0.137,9.0006,-0.0396,0.0308,-0.1171,-1.768613954583639,0.0,2.978449821472168,-1.6365891695022583,5.036875491617066e-15,2.0922937393188477,4.6378819185444335,9.80175515134362e-16,0.29699385166168213,-1.624800984059469,0.0,0.013266103342175484,0.9956839084625244,-0.0,0.0069263954646885395,0.7365484237670898,0.0,0.02287663333117962
220.0,346.0,2.6387,-0.137,9.0006,-0.0396,0.0308,-0.1171,-1.7685615024962367,0.0,2.98160457611084,-1.6365848779678345,9.066197298601702e-19,2.0966238975524902,4.637900992030762,4.1786422442448345e-18,0.285413920879364,-1.6248248259173792,0.0,-0.0023563771974295378,0.9956364631652832,-0.0,-0.005271345842629671,0.736524224281311,0.0,-0.016161996871232986
220.0,346.0,2.6387,-0.137,9.0006,-0.0396,0.0308,-0.1171,-1.7685896358885707,0.0,2.9802842140197754,-1.6365727186203003,1.63188373801705e-22,2.1471359729766846,4.637853308314941,1.781420529279462e-20,0.29162171483039856,-1.624800984059469,0.0,-0.002213964704424143,0.9956600666046143,-0.0,-0.0065159061923623085,0.7365769147872925,0.0,-0.05640328675508499
220.0,346.0,2.6387,-0.137,9.0006,-0.0396,0.0308,-0.1171,-1.768569131890768,0.0,3.0037002563476562,-1.6365364789962769,2.9373328250541705e-26,2.1612906455993652,4.63787762701001,7.594475006178136e-23,0.30526819825172424,-1.6248534361468714,0.0,-0.002656016033142805,0.9956562519073486,-0.0,-0.010798919945955276,0.7365283370018005,0.0,0.027305185794830322
220.0,346.0,2.6387,-0.137,9.0006,-0.0396,0.0308,-0.1171,-1.768613954583639,0.0,2.9725394248962402,-1.6365206241607666,5.287095609094567e-30,2.147369623184204,4.637900992030762,3.237644159803241e-25,0.29289311170578003,-1.6248205343829554,0.0,0.0010360367596149445,0.9956962466239929,-0.0,-0.000732728629373014,0.7365604639053345,0.0,0.03402812406420708
220.0,346.0,2.6387,-0.137,9.0006,-0.0396,0.0308,-0.1171,-1.7685653171935023,0.0,2.9973647594451904,-1.6365524530410767,9.516584614131345e-34,2.1375887393951416,4.637885733241699,1.3802585243599336e-27,0.30586257576942444,-1.6247766653644007,0.0,0.002471912419423461,0.9956681728363037,-0.0,-0.005428720265626907,0.7365564107894897,0.0,0.004819760099053383
220.0,346.0,2.6387,-0.137,9.0006,-0.0396,0.0308,-0.1171,-1.7685653171935023,0.0,2.9713926315307617,-1.6365808248519897,1.7129518390496194e-37,2.111656665802002,4.637893839473389,5.884258024058057e-30,0.2960452437400818,-1.6248372236834925,0.0,-0.0020370485726743937,0.9957399368286133,-0.0,-0.00786639004945755,0.7366166114807129,0.0,-0.017540913075208664
220.0,346.0,2.6387,-0.137,9.0006,-0.0396,0.0308,-0.1171,-1.7685939274229945,0.0,2.972628116607666,-1.6365282535552979,3.083277011053895e-41,2.1216468811035156,4.637925787562988,3.1224014946928946e-06,0.29461750388145447,-1.6248934904681605,0.0,0.0036126021295785904,0.9956324100494385,-0.0,0.007304573431611061,0.7365320324897766,0.0003573751309886575,-0.05496300011873245
220.0,346.0,2.6387,-0.137,9.0006,-0.0396,0.0308,-0.1171,-1.7685653171935023,0.0,2.982426166534424,-1.6365606784820557,5.605193857299268e-45,2.1630969047546387,4.637900992030762,0.0001901292271213606,0.29928335547447205,-1.6248534361468714,0.0,-0.006297253537923098,0.9956760406494141,-0.0,-0.00712498277425766,0.7365885972976685,0.000434090819908306,-0.008325833827257156
220.0,346.0,2.6387,-0.137,9.0006,-0.0396,0.0308,-0.1171,-1.768585821191305,0.0,3.0018951892852783,-1.6365524530410767,0.00019720617274288088,2.164416790008545,4.63789336263623,0.00017605323228053749,0.28280404210090637,-1.6248205343829554,6.815236019974691e-08,-0.004003047943115234,0.9956841468811035,-0.0,0.010069819167256355,0.7365888953208923,0.0009060700540430844,-0.030253872275352478
220.0,346.0,2.6387,-0.137,9.0006,-0.0396,0.0308,-0.1171,-1.7685495815672816,0.0,2.9685776233673096,-1.6365528106689453,0.00018209619156550616,2.110579013824463,4.6379052835651855,0.0001632783532841131,0.2875404357910156,-1.624857250844137,-0.00013113646127749234,-0.0030155805870890617,0.9956961870193481,-0.0,-0.0076403068378567696,0.7366166114807129,0.0009046107879839838,0.01999180018901825
220.0,346.0,2.6387,-0.137,9.0006,-0.0396,0.0308,-0.1171,-1.76857390026235,0.0,3.006033182144165,-1.636492133140564,0.0001623826683498919,2.129936695098877,4.63786952077832,0.0001472481817472726,0.3021429777145386,-1.6248415152179163,-0.00014739918697159737,-0.005339182913303375,0.9956600666046143,-0.0,-0.010946063324809074,0.7365641593933105,0.0007217660895548761,0.006012333557009697
220.0,346.0,2.6387,-0.137,9.0006,-0.0396,0.0308,-0.1171,-1.7685333691039027,0.0,3.032837390899658,-1.6365524530410767,0.00015145190991461277,2.12839937210083,4.63792531072583,0.00013820279855281115,0.2967871427536011,-1.6248653570758265,-0.00011096249363617972,0.004109987989068031,0.9956722259521484,-0.0,0.0002453848719596863,0.7366045713424683,0.0005807687412016094,0.025503871962428093
220.0,346.0,2.6387,-0.137,9.0006,-0.0396,0.0308,-0.1171,-1.7685615024962367,0.0,2.9871644973754883,-1.6365487575531006,0.00014190026558935642,2.1377062797546387,4.637889547938965,0.00013020436745136976,0.2895677089691162,-1.6248205343829554,-8.89808070496656e-05,-0.006220915820449591,0.9956681728363037,-0.0,-0.008365382440388203,0.7366207838058472,0.00045569188660010695,-0.0009558259043842554
220.0,346.0,2.6387,-0.137,9.0006,-0.0396,0.0308,-0.1171,-1.7685533962645472,0.0,2.9452590942382812,-1.6365727186203003,0.00010992402530973777,2.2018673419952393,4.63787762701001,0.0001230812631547451,0.29657673835754395,-1.624845329915182,-7.427617674693465e-05,-0.003841381287202239,0.9956881403923035,-0.0,-0.004199239891022444,0.7366449236869812,0.00037891612737439573,-0.029139084741473198
218.0,362.0,2.5029,0.1011,9.3248,-0.047,0.005,-0.113,-1.7686058483519496,0.0,2.9891443252563477,-1.6365727186203003,0.00010080558422487229,2.1044158935546875,4.637865229243896,0.00010523229866521433,0.29824766516685486,-1.6248448530780237,-6.374566146405414e-05,0.006758228875696659,0.9956562519073486,-0.0,0.0012902680318802595,0.7366125583648682,0.00032428960548713803,0.009811938740313053
218.0,362.0,2.5029,0.1011,9.3248,-0.047,0.005,-0.113,-1.768613954583639,0.0,3.023110866546631,-1.6365928649902344,9.545904322294518e-05,2.1747517585754395,4.637841387385986,8.880480891093612e-05,0.28868091106414795,-1.624829117451803,-5.5832151701906696e-05,0.0016213890630751848,0.9956960678100586,-0.0,-0.0020482544787228107,0.7365922331809998,0.0003333355416543782,0.00206113257445395
218.0,362.0,2.5029,0.1011,9.3248,-0.047,0.005,-0.113,-1.7685414753355921,0.0,2.948789596557617,-1.6365768909454346,9.06514615053311e-05,2.1293787956237793,4.637873335475586,8.458360389340669e-05,0.30237680673599243,-1.6248653570758265,-4.9666810809867457e-05,0.005282789934426546,0.9956282377243042,-0.0,-0.011449482291936874,0.7366285920143127,0.0003020588483195752,-0.04289292171597481
218.0,362.0,2.5029,0.1011,9.3248,-0.047,0.005,-0.113,-1.7686063251891078,0.0,2.966649293899536,-1.6365891695022583,6.725815910613164e-05,2.1363606452941895,4.637889547938965,8.078694372670725e-05,0.29238462448120117,-1.624829117451803,-4.472852378967218e-05,-0.0011732715647667646,0.9956720471382141,-0.0,0.006123291328549385,0.7365803122520447,0.0003150865959469229,0.03658542037010193
218.0,362.0,2.5029,0.1011,9.3248,-0.047,0.005,-0.113,-1.7686101398863734,0.0,3.0021119117736816,-1.6366010904312134,6.176769966259599e-05,2.1477324962615967,4.637893839473389,7.731673395028338e-05,0.29315853118896484,-1.6248815695392054,-4.068337511853315e-05,0.0014471886679530144,0.9956122636795044,-0.0,0.0051965489983558655,0.736583948135376,0.0003242263337597251,-0.03248594328761101
218.0,362.0,2.5029,0.1011,9.3248,-0.047,0.005,-0.113,-1.76859774212026,0.0,2.979764938354492,-1.6366010904312134,5.906477235839702e-05,2.144599676132202,4.6378771501728515,7.413233834085986e-05,0.2925150692462921,-1.6248176733600062,-3.730962998815812e-05,0.0011634989641606808,0.9956841468811035,-0.0,-0.007921598851680756,0.7365761399269104,0.00030284991953521967,0.01877167448401451
218.0,362.0,2.5029,0.1011,9.3248,-0.047,0.005,-0.113,-1.7686101398863734,0.0,2.981886386871338,-1.6365933418273926,5.658893860527314e-05,2.1388163566589355,4.63786952077832,7.119993097148836e-05,0.2896029055118561,-1.6248052755938929,-3.4452605177648365e-05,0.004870506934821606,0.9956562519073486,-0.0,-0.014043162576854229,0.7365961074829102,0.0002958198019769043,-0.025548426434397697
218.0,362.0,2.5029,0.1011,9.3248,-0.047,0.005,-0.113,-1.7685982189574183,0.0,3.0137948989868164,-1.6365886926651,5.4312331485562027e-05,2.1207799911499023,4.637889547938965,6.849067722214386e-05,0.29359370470046997,-1.6248052755938929,-3.2002055377233773e-05,-0.0034257068764418364,0.9956203103065491,-0.0,-0.00046021025627851486,0.7366484999656677,0.00031113813747651875,-0.017295517027378082
218.0,362.0,2.5029,0.1011,9.3248,-0.047,0.005,-0.113,-1.7685815296568812,0.0,2.9552383422851562,-1.636556625366211,5.2211758884368464e-05,2.121276378631592,4.637889547938965,6.598004983970895e-05,0.27886074781417847,-1.6248772780047815,-2.987714105984196e-05,0.003520888276398182,0.9956282377243042,-0.0,-0.003176495898514986,0.7366407513618469,0.0003251542220823467,-0.013028205372393131
218.0,362.0,2.5029,0.1011,9.3248,-0.047,0.005,-0.113,-1.7685896358885707,0.0,2.9694666862487793,-1.636512279510498,6.129440589575097e-05,2.1767308712005615,4.637865229243896,6.364705768646672e-05,0.2869400382041931,-1.624829117451803,-2.801678783725947e-05,0.00760885514318943,0.9956842660903931,-0.0,-0.0036857533268630505,0.7366242408752441,0.0005602039163932204,0.006938358303159475
218.0,362.0,2.5029,0.1011,9.3248,-0.047,0.005,-0.113,-1.7685452900328578,0.0,3.0009100437164307,-1.6366047859191895,6.461649900302291e-05,2.156094551086426,4.637917681331299,6.14732998656109e-05,0.2933955490589142,-1.624829117451803,-2.6374540539109148e-05,-0.0009962460026144981,0.9956881403923035,-0.0,-0.002304739784449339,0.7366120219230652,0.0005385876283980906,0.006214895285665989
218.0,362.0,2.5029,0.1011,9.3248,-0.047,0.005,-0.113,-1.7685982189574183,0.0,2.9787864685058594,-1.636556625366211,6.13158626947552e-05,2.161285161972046,4.63784567892041,5.84776425966993e-05,0.2928091883659363,-1.624857250844137,-2.4243045118055306e-05,-0.0076124961487948895,0.9956722259521484,-0.0,-0.00198653107509017,0.7365881204605103,0.00048361069639213383,0.004886410664767027
218.0,362.0,2.5029,0.1011,9.3248,-0.047,0.005,-0.113,-1.7685414753355921,0.0,2.9849328994750977,-1.6364961862564087,5.9296009567333385e-05,2.123574733734131,4.6378771501728515,5.663762567564845e-05,0.28561869263648987,-1.6248329321490687,-2.300368396390695e-05,0.004807700868695974,0.9956681728363037,-0.0,-0.014186428859829903,0.7366001009941101,0.00041923162643797696,0.031289711594581604
218.0,362.0,2.5029,0.1011,9.3248,-0.047,0.005,-0.113,-1.7685653171935023,0.0,2.9745535850524902,-1.6365808248519897,5.740496999351308e-05,2.152639150619507,4.637917681331299,5.4909836762817577e-05,0.2878105640411377,-1.6248372236834925,-2.188488724641502e-05,0.003974641673266888,0.9956368803977966,-0.0,-0.004555560182780027,0.7366325855255127,0.00017038636724464595,-0.02184053510427475
218.0,362.0,2.5029,0.1011,9.3248,-0.047,0.005,-0.113,-1.7686182461180628,0.0,2.966498613357544,-1.6365487575531006,5.563084050663747e-05,2.1508073806762695,4.637837572688721,5.328435872797854e-05,0.30173733830451965,-1.6248133818255823,-2.0869871150352992e-05,-0.0007302546873688698,0.9956681132316589,-0.0,-0.004002793226391077,0.73661208152771,7.451031706295907e-05,0.05048862472176552
218.0,362.0,2.5029,0.1011,9.3248,-0.047,0.005,-0.113,-1.768585821191305,0.0,3.0110254287719727,-1.6365729570388794,5.3963118261890486e-05,2.135258197784424,4.637937708491943,5.1752365834545344e-05,0.28841057419776917,-1.6248205343829554,-1.9944884115830064e-05,-0.0016954333987087011,0.9956521987915039,-0.0,-0.010931866243481636,0.7366124987602234,6.170565029606223e-05,-0.02512745000422001
218.0,362.0,2.5029,0.1011,9.3248,-0.047,0.005,-0.113,-1.7686182461180628,0.0,2.969466209411621,-1.6365890502929688,5.239242818788625e-05,2.112938404083252,4.6379052835651855,5.0306021876167506e-05,0.29310810565948486,-1.6247847715960901,-8.502817649969074e-08,-0.0008584880270063877,0.9956328868865967,-0.0,-0.01067279651761055,0.7365963459014893,7.747251515866083e-07,0.046114858239889145
218.0,362.0,2.5029,0.1011,9.3248,-0.047,0.005,-0.113,-1.7685572109618128,0.0,2.9832019805908203,-1.636576771736145,5.0910595746245235e-05,2.0992324352264404,4.637893839473389,4.893830919172615e-05,0.28667792677879333,-1.6248248259173792,-3.6248840040720154e-10,0.0027507569175213575,0.995664119720459,-0.0,-0.006030679680407047,0.7366448044776917,1.3944778665120339e-10,-0.014957442879676819
218.0,362.0,2.5029,0.1011,9.3248,-0.047,0.005,-0.113,-1.7685982189574183,0.0,3.0001072883605957,-1.6366052627563477,4.951029768562876e-05,2.1392579078674316,4.637873335475586,4.76429850095883e-05,0.29848694801330566,-1.6248133818255823,-1.5453446898863743e-12,-0.009006583131849766,0.995660126209259,-0.0,-0.0004148976586293429,0.7365922331809998,2.5100110385327737e-14,-0.015896491706371307
218.0,362.0,2.5029,0.1011,9.3248,-0.047,0.005,-0.113,-1.7685696087279261,0.0,2.999810218811035,-1.6365892887115479,4.8184934712480754e-05,2.1220884323120117,4.637853308314941,4.641447958420031e-05,0.2901259958744049,-1.6248090902911585,-6.58804735144034e-15,0.009511762298643589,0.9956369400024414,-0.0,-0.0030756432097405195,0.7365762591362,4.517930638408466e-18,0.02761789597570896
218.0,362.0,2.5029,0.1011,9.3248,-0.047,0.005,-0.113,-1.7685495815672816,0.0,2.995779514312744,-1.6366015672683716,4.692871152656153e-05,2.123504638671875,4.637849493617676,4.524772157310508e-05,0.2934071719646454,-1.6247809568988245,-2.808587876038869e-17,-0.0013264622539281845,0.9956521987915039,-0.0,0.007088261190801859,0.7366248369216919,8.132115898611188e-22,0.012018553912639618
218.0,362.0,2.5029,0.1011,9.3248,-0.047,0.005,-0.113,-1.768540998498434,0.0,2.9875593185424805,-1.6365851163864136,4.573634942062199e-05,2.1158132553100586,4.637861414546631,4.413825081428513e-05,0.300171822309494,-1.6247766653644007,-1.197345099893244e-19,-0.00680573983117938,0.9957000613212585,-0.0,-0.0014411133015528321,0.7365762591362,-0.0007975593325681984,0.04535013064742088
220.0,346.0,2.5932,-0.0736,9.2423,-0.0515,0.0322,-0.1248,-1.7686501942076625,0.0,3.010953426361084,-1.6365727186203003,4.460303534870036e-05,2.1210365295410156,4.637900992030762,4.3081821786472574e-05,0.30377769470214844,-1.6247809568988245,-5.104469763856862e-22,-0.006573961116373539,0.9956881999969482,-0.0,-0.003898040857166052,0.7365682721138,-0.0007989978767000139,-0.01821489818394184
220.0,346.0,2.5932,-0.0736,9.2423,-0.0515,0.0322,-0.1248,-1.7685734234251917,0.0,2.9763307571411133,-1.6365406513214111,4.35245456174016e-05,2.13118839263916,4.6378819185444335,4.20747855969239e-05,0.2959299683570862,-1.624744717274801,-2.176115405541043e-24,-0.005391805898398161,0.995648205280304,-0.0,-0.006307005882263184,0.7365686893463135,-0.0006823239382356405,-0.029654135927557945
220.0,346.0,2.5932,-0.0736,9.2423,-0.0515,0.0322,-0.1248,-1.7686182461180628,0.0,2.984938621520996,-1.6365524530410767,4.249696939950809e-05,2.1030898094177246,4.63786952077832,4.111375892534852e-05,0.3180824816226959,-1.6248052755938929,-9.277121341939718e-27,0.012507330626249313,0.9956202507019043,-0.0,-0.0031080427579581738,0.736515998840332,-0.0006312478799372911,-0.05370384454727173
220.0,346.0,2.5932,-0.0736,9.2423,-0.0515,0.0322,-0.1248,-1.7685615024962367,0.0,2.98032808303833,-1.636596918106079,4.151681423536502e-05,2.1135995388031006,4.6378819185444335,4.019565676571801e-05,0.30757927894592285,-1.6248248259173792,-3.954982603940471e-29,-0.011142484843730927,0.9956441521644592,-0.0,0.0025104116648435593,0.7365604639053345,-0.0005909354076720774,-0.041704513132572174
220.0,346.0,2.5932,-0.0736,9.2423,-0.0515,0.0322,-0.1248,-1.76857390026235,0.0,2.9730300903320312,-1.6365528106689453,1.3336143638298381e-05,2.1228866577148438,4.637889547938965,1.6946825098784757e-07,0.28879016637802124,-1.624845329915182,-1.1008838141972768e-32,-0.0035573041532188654,0.9956802725791931,-0.0,-0.009954750537872314,0.7365888357162476,-0.0005161981098353863,-0.00029454310424625874
220.0,346.0,2.5932,-0.0736,9.2423,-0.0515,0.0322,-0.1248,-1.7685939274229945,0.0,2.989044189453125,-1.6365166902542114,1.2834771041525528e-05,2.120788097381592,4.637897177333496,7.224697506913458e-10,0.28756555914878845,-1.6248372236834925,-4.693240403773419e-35,-0.0068734679371118546,0.9956681728363037,-0.0,0.002097095362842083,0.7365604639053345,-0.0004457981267478317,-0.011373041197657585
220.0,346.0,2.5932,-0.0736,9.2423,-0.0515,0.0322,-0.1248,-1.7685696087279261,0.0,2.991537094116211,-1.6365524530410767,1.2478837561502587e-05,2.1310768127441406,4.637885733241699,3.08000196527769e-12,0.2965431213378906,-1.6248214880572718,-2.0008019733322603e-37,-0.005671931430697441,0.9956600666046143,-0.0,-0.01146119087934494,0.7365484237670898,-0.0004440024495124817,-0.028131205588579178
220.0,346.0,2.5932,-0.0736,9.2423,-0.0515,0.0322,-0.1248,-1.768585821191305,0.0,2.9840383529663086,-1.636556625366211,1.2142134437453933e-05,2.1206562519073486,4.637929602260254,1.3130531106581977e-14,0.3042897582054138,-1.6248257795916956,-8.529731778314448e-40,-0.0010083243250846863,0.9956562519073486,-0.0,-0.0003897512215189636,0.736556351184845,-0.00039707505493424833,0.0035494635812938213
220.0,346.0,2.5932,-0.0736,9.2423,-0.0515,0.0322,-0.1248,-1.7685533962645472,0.0,2.9823055267333984,-1.636576771736145,2.3591355784446932e-05,2.1393752098083496,4.637925787562988,1.3006528206460644e-05,0.2852385640144348,-1.6248577276812952,-3.6363695149229e-42,-0.006786116398870945,0.9956642985343933,-0.0,-0.001284943544305861,0.7365443110466003,-0.0003576245217118412,-0.0256977342069149
220.0,346.0,2.5932,-0.0736,9.2423,-0.0515,0.0322,-0.1248,-1.7685333691039027,0.0,2.9789981842041016,-1.6365246772766113,3.3218315365957096e-05,2.1679885387420654,4.637917681331299,1.1119910595880356e-05,0.28726017475128174,-1.6247928778277796,-1.5414283107572988e-44,-0.015542893670499325,0.9956842660903931,-0.0,-0.005405053496360779,0.7365162372589111,-0.00032530631870031357,-0.017337357625365257
220.0,346.0,2.5932,-0.0736,9.2423,-0.0515,0.0322,-0.1248,-1.7686101398863734,0.0,2.9524452686309814,-1.6365447044372559,3.369838304934092e-05,2.152726650238037,4.637885733241699,1.084524228645023e-05,0.2954370081424713,-1.6247571150409144,-0.0,-0.007592305541038513,0.9956960082054138,-0.0,-0.004014541395008564,0.73653244972229,-0.0002983451704494655,-0.0129330949857831
220.0,346.0,2.5932,-0.0736,9.2423,-0.0515,0.0322,-0.1248,-1.7686063251891078,0.0,2.994598865509033,-1.6365246772766113,3.287793879280798e-05,2.1463563442230225,4.637889547938965,1.0589988050924148e-05,0.2972453236579895,-1.6248052755938929,-0.0,-0.005141159985214472,0.9956328868865967,-0.0,0.000297946622595191,0.7365484237670898,-0.000275511498330161,0.005312948487699032
220.0,346.0,2.5932,-0.0736,9.2423,-0.0515,0.0322,-0.1248,-1.7685533962645472,0.0,2.9671764373779297,-1.6365808248519897,3.20963044941891e-05,2.1752350330352783,4.637897654170654,3.464651854301337e-07,0.2989502549171448,-1.6247809568988245,-0.0,-0.007084681186825037,0.995660126209259,-0.0,-0.007226001936942339,0.7365283370018005,-0.00019679623073898256,-0.01034945622086525
220.0,346.0,2.5932,-0.0736,9.2423,-0.0515,0.0322,-0.1248,-1.7685696087279261,0.0,3.0025720596313477,-1.6365973949432373,9.331079490948468e-05,2.1015024185180664,4.637881441707275,1.4770352718684876e-09,0.29997381567955017,-1.624800984059469,-0.0,-0.000577674014493823,0.9957080483436584,-0.0,-0.008185746148228645,0.7365447878837585,-0.00021582386398222297,0.021191950887441635
220.0,346.0,2.5932,-0.0736,9.2423,-0.0515,0.0322,-0.1248,-1.7685533962645472,0.0,2.9758479595184326,-1.6365727186203003,8.457495277980343e-05,2.1227126121520996,4.637889547938965,6.296832846808265e-12,0.2972727417945862,-1.6247966925250452,-0.0,-0.008262191899120808,0.9956320524215698,-0.0,-0.005072390660643578,0.7365365028381348,-0.00020027994469273835,0.05901237577199936
220.0,346.0,2.5932,-0.0736,9.2423,-0.0515,0.0322,-0.1248,-1.7686182461180628,0.0,3.035438060760498,-1.6365126371383667,0.00010266680328641087,2.1629135608673096,4.637897654170654,2.6844385004817783e-14,0.2977965772151947,-1.6248090902911585,-0.0,0.011852998286485672,0.9956522583961487,-0.0,-0.002452691551297903,0.7365282773971558,-0.00021737570932600647,7.709767669439316e-05
220.0,346.0,2.5932,-0.0736,9.2423,-0.0515,0.0322,-0.1248,-1.7685896358885707,0.0,2.9971516132354736,-1.6365447044372559,0.0001067882840288803,2.103749990463257,4.637897177333496,1.1444181417525067e-16,0.29628002643585205,-1.6247966925250452,-0.0,0.0022291401401162148,0.9956960678100586,-0.0,3.127468517050147e-05,0.7366045713424683,-0.00020024916739203036,-0.048240240663290024
220.0,346.0,2.5932,-0.0736,9.2423,-0.0515,0.0322,-0.1248,-1.768602033654684,0.0,2.9774270057678223,-1.6365410089492798,9.896198753267527e-05,2.1665234565734863,4.637865229243896,4.878833778965992e-19,0.2925785481929779,-1.6248133818255823,-0.0,-0.004530387930572033,0.9957159757614136,-0.0,0.0024335042107850313,0.7365162372589111,-0.0001639221445657313,-0.01577862910926342
220.0,346.0,2.5932,-0.0736,9.2423,-0.0515,0.0322,-0.1248,-1.7685815296568812,0.0,2.9576916694641113,-1.6365808248519897,0.00012251023144926876,2.1325674057006836,4.6378819185444335,2.079923435941497e-21,0.3027169406414032,-1.624841038380758,-0.0,-0.002994556212797761,0.9957519769668579,-0.0,0.0009734129998832941,0.7365323901176453,-0.0001386594376526773,-0.033164847642183304
220.0,346.0,2.5932,-0.0736,9.2423,-0.0515,0.0322,-0.1248,-1.7685495815672816,0.0,2.9905714988708496,-1.6364601850509644,0.00012144531501689926,2.1504287719726562,4.63789336263623,5.789542381535303e-25,0.29477810859680176,-1.6248577276812952,-0.0,-0.010915899649262428,0.995648980140686,-0.0,0.011948968283832073,0.7365604639053345,-0.00011262587213423103,-0.013927081599831581
220.0,346.0,2.5932,-0.0736,9.2423,-0.0515,0.0322,-0.1248,-1.7685619793333949,0.0,2.950342893600464,-1.6365687847137451,0.0001559015508973971,2.136536121368408,4.63787762701001,2.4681726313345455e-27,0.29748770594596863,-1.6248176733600062,-0.0,-0.004794785752892494,0.9956364631652832,-0.0,-0.0068844691850245,0.7365604639053345,-5.0133738113800064e-05,-0.0011238642036914825
220.0,346.0,2.5932,-0.0736,9.2423,-0.0515,0.0322,-0.1248,-1.7685533962645472,0.0,2.957726001739502,-1.63652503490448,0.0002246506483061239,2.1451616287231445,4.637921496028564,1.0522207660651138e-29,0.30095726251602173,-1.6248534361468714,-0.0,-0.0028595440089702606,0.9957079887390137,-0.0,-0.0033531817607581615,0.7365844249725342,-2.6117350060417266e-08,-0.05399477109313011
215.0,353.0,2.6907,0.6221,8.805,-0.0018,0.0473,-0.1086,-1.7685615024962367,0.0,2.9614694118499756,-1.6365447044372559,0.000805266376119107,2.1118407249450684,4.63789336263623,4.485782245527441e-32,0.3092634677886963,-1.6248415152179163,-0.0,-0.008673460222780704,0.9956562519073486,-0.0,-0.0022408906370401382,0.736576497554779,-4.70103036359637e-12,0.033232107758522034
215.0,353.0,2.6907,0.6221,8.805,-0.0018,0.0473,-0.1086,-1.768585821191305,0.0,2.985840320587158,-1.6364887952804565,0.0008503662538714707,2.1189537048339844,4.637865229243896,0.0001985842827707529,0.28691014647483826,-1.6247847715960901,-0.0,-0.0034021977335214615,0.995660126209259,-0.0,-0.013711011037230492,0.7365885376930237,-8.461688148294233e-16,0.010835791938006878
215.0,353.0,2.6907,0.6221,8.805,-0.0018,0.0473,-0.1086,-1.768557687798971,0.0,2.968411445617676,-1.6365125179290771,0.0013725378084927797,2.1182942390441895,4.637909575099609,0.0003589813713915646,0.29736363887786865,-1.6248248259173792,-0.0,-0.010864827781915665,0.9956570863723755,-0.0,0.0049841017462313175,0.7365682721138,-1.5230739617149944e-19,-0.026507319882512093
215.0,353.0,2.6907,0.6221,8.805,-0.0018,0.0473,-0.1086,-1.768557687798971,0.0,3.0136876106262207,-1.6365042924880981,0.0013562612002715468,2.0912373065948486,4.63794915258374,0.0003721519315149635,0.2855933606624603,-1.6248133818255823,-0.0,-0.0017963509308174253,0.9956562519073486,-0.0,-0.003411630168557167,0.7366005182266235,-2.7414790789940965e-23,0.012296192348003387
215.0,353.0,2.6907,0.6221,8.805,-0.0018,0.0473,-0.1086,-1.7685777149596156,0.00011275916767772287,2.9960029125213623,-1.636505126953125,0.00120771792717278,2.1522669792175293,4.637913389796875,0.0003343477437738329,0.2971423864364624,-1.624873463307516,-0.0,0.002390716690570116,0.9957278966903687,-0.0,0.0011115539819002151,0.7365682721138,-4.934565703400477e-27,0.037183232605457306
215.0,353.0,2.6907,0.6221,8.805,-0.0018,0.0473,-0.1086,-1.768557687798971,0.00014415579789783806,3.0380280017852783,-1.6365010738372803,0.0010124421678483486,2.1542305946350098,4.637897177333496,0.0003022616438101977,0.29656171798706055,-1.6247809568988245,-0.0,-0.00747940968722105,0.9957318902015686,-0.0,-0.013565581291913986,0.7365963459014893,-8.88204283797705e-31,0.042963284999132156
215.0,353.0,2.6907,0.6221,8.805,-0.0018,0.0473,-0.1086,-1.7685452900328578,0.00012425670865923166,2.996608018875122,-1.6364961862564087,0.0007476919563487172,2.1432852745056152,4.63787762701001,0.00027579066227190197,0.29281696677207947,-1.624789063130514,-0.0,-0.009849915280938148,0.9956840872764587,-0.0,0.0016834614798426628,0.7365762591362,-1.5987363723768812e-34,-0.0019121482037007809
215.0,353.0,2.6907,0.6221,8.805,-0.0018,0.0473,-0.1086,-1.7685982189574183,5.462222543428652e-05,2.990492343902588,-1.6365084648132324,0.0006825001910328865,2.1435434818267822,4.637953444118164,0.00025358417769894004,0.2923496961593628,-1.6248176733600062,-0.0,-0.005861807614564896,0.9956800937652588,-0.0,0.002144281752407551,0.7364956736564636,-2.8776686912789076e-38,0.052091993391513824
215.0,353.0,2.6907,0.6221,8.805,-0.0018,0.0473,-0.1086,-1.7685615024962367,5.795708148070844e-06,2.9802684783935547,-1.6365290880203247,0.0005612594541162252,2.1456689834594727,4.637909575099609,0.00023468825384043157,0.30054450035095215,-1.6248133818255823,-0.0,0.002485491568222642,0.9956600666046143,-0.0,-0.010583006776869297,0.736608624458313,-5.179199124144524e-42,-0.0199754498898983
215.0,353.0,2.6907,0.6221,8.805,-0.0018,0.0473,-0.1086,-1.768540998498434,1.0432068542343131e-09,3.0000150203704834,-1.6365042924880981,0.0001882182841654867,2.1122286319732666,4.637889547938965,0.00021841254783794284,0.306014746427536,-1.6247685591327112,-0.0,-0.00414563063532114,0.9956123232841492,-0.0,-0.003039464121684432,0.7365601062774658,-1.401298464324817e-45,-0.016466885805130005
215.0,353.0,2.6907,0.6221,8.805,-0.0018,0.0473,-0.1086,-1.7686058483519496,1.8777354345890507e-13,2.992312431335449,-1.6364765167236328,0.0001553151960251853,2.1069283485412598,4.637921496028564,0.00020424889225978404,0.29610830545425415,-1.624829117451803,-0.0,0.0066408757120370865,0.9956840872764587,-0.0,-0.00336833787150681,0.7365803718566895,0.0,0.0054345885291695595
215.0,353.0,2.6907,0.6221,8.805,-0.0018,0.0473,-0.1086,-1.7685896358885707,3.379857997658201e-17,2.9710750579833984,-1.6364723443984985,0.00013245076115708798,2.1559348106384277,4.637873812312744,0.00019181022071279585,0.2930094599723816,-1.6248090902911585,-0.0,0.0019665744621306658,0.9957000613212585,-0.0,-0.0025300427805632353,0.7365803718566895,0.0,0.0007105045951902866
215.0,353.0,2.6907,0.6221,8.805,-0.0018,0.0473,-0.1086,-1.7686058483519496,8.161958822200061e-23,2.9744982719421387,-1.636505126953125,0.00010849542013602331,2.1231086254119873,4.637885733241699,0.00017575579113326967,0.3033439815044403,-1.6247966925250452,-0.0,0.0021004658192396164,0.9956522583961487,-0.0,0.011008262634277344,0.736576497554779,0.0,-0.04565286636352539
215.0,353.0,2.6907,0.6221,8.805,-0.0018,0.0473,-0.1086,-1.7685982189574183,1.469123859407476e-26,3.020596504211426,-1.63652503490448,9.682180098025128e-05,2.145702362060547,4.63789336263623,0.00016646701260469854,0.29840776324272156,-1.6247966925250452,-0.0,0.004092351533472538,0.995628833770752,-0.0,-0.0043667396530508995,0.7365641593933105,0.0,-0.008174378424882889
215.0,353.0,2.6907,0.6221,8.805,-0.0018,0.0473,-0.1086,-1.7686101398863734,2.6443710267510512e-30,2.980020761489868,-1.6364970207214355,8.741669444134459e-05,2.1060242652893066,4.637929602260254,0.0001581109536346048,0.30083826184272766,-1.6247928778277796,-0.0,0.005396544001996517,0.9956601858139038,-0.0,-0.00472267484292388,0.7365682721138,0.0,0.03175269067287445
215.0,353.0,2.6907,0.6221,8.805,-0.0018,0.0473,-0.1086,-1.768585821191305,4.759774072796182e-34,2.9789819717407227,-1.636456847190857,0.00011944909783778712,2.1246895790100098,4.63787762701001,0.00015055360563565046,0.2966275215148926,-1.6247928778277796,-0.0,0.002543080598115921,0.9957000613212585,-0.0,-0.009749896824359894,0.7365723848342896,0.0,-0.0012062238529324532
215.0,353.0,2.6907,0.6221,8.805,-0.0018,0.0473,-0.1086,-1.7685653171935023,8.567425585966014e-38,2.994472026824951,-1.6365092992782593,0.00010979489161400124,2.1476407051086426,4.637897654170654,0.00014368590200319886,0.3053508698940277,-1.6248286406146448,-0.0,-0.0031325884629040956,0.9956760406494141,-0.0,-0.0017995295347645879,0.7365564107894897,0.0,0.02471691370010376
215.0,353.0,2.6907,0.6221,8.805,-0.0018,0.0473,-0.1086,-1.768602033654684,1.5421289599894612e-41,2.9801082611083984,-1.6365290880203247,0.0001237543619936332,2.1491267681121826,4.637917681331299,0.00013741734437644482,0.3007253408432007,-1.6247928778277796,-0.0,-0.00479129096493125,0.9956642985343933,-0.0,-0.0022826436907052994,0.7365241646766663,0.0,-0.012819984927773476
215.0,353.0,2.6907,0.6221,8.805,-0.0018,0.0473,-0.1086,-1.7685452900328578,2.802596928649634e-45,2.977012872695923,-1.636456847190857,0.00012590929691214114,2.1466972827911377,4.63789336263623,0.00013167306315153837,0.30483123660087585,-1.6248257795916956,-0.0,-0.010141921229660511,0.9956681728363037,-0.0,0.008971468545496464,0.7365723848342896,0.0,0.009977415204048157
215.0,353.0,2.6907,0.6221,8.805,-0.0018,0.0473,-0.1086,-1.768585821191305,0.0,2.988075017929077,-1.6364691257476807,0.00011564519081730396,2.1071441173553467,4.637909575099609,0.0001441347412765026,0.2906448245048523,-1.6248133818255823,-0.0,-0.008757990784943104,0.9956521987915039,-0.0,-0.0041085295379161835,0.7365522384643555,0.0,-0.012329373508691788
215.0,353.0,2.6907,0.6221,8.805,-0.0018,0.0473,-0.1086,-1.7686182461180628,0.0,2.9583115577697754,-1.6364805698394775,0.0001796708966139704,2.1465651988983154,4.637925787562988,0.00013887177919968963,0.29502981901168823,-1.6248214880572718,-0.0,-0.016979724168777466,0.995660126209259,-0.0,0.0011934558860957623,0.7365683317184448,0.0,0.004651745315641165
215.0,353.0,2.6907,0.6221,8.805,-0.0018,0.0473,-0.1086,-1.7685734234251917,0.0,3.003347635269165,-1.6364283561706543,0.00108297448605299,2.106584072113037,4.63786952077832,0.00013371481327340007,0.3032763600349426,-1.6248090902911585,-0.0,-0.0014464191626757383,0.9956841468811035,-0.0,0.0018662060610949993,0.7366124987602234,0.0,-0.013109933584928513
222.0,357.0,2.7547,-0.0407,9.061,-0.0334,0.0031,-0.118,-1.768557687798971,0.0,3.0060222148895264,-1.6364485025405884,0.002076396718621254,2.10725474357605,4.637909575099609,0.00012892603990621865,0.2951725721359253,-1.6247647444354456,-0.0,-0.004990554414689541,0.9956840872764587,-0.0,-0.009362151846289635,0.7365682721138,0.0,0.027202004566788673
222.0,357.0,2.7547,-0.0407,9.061,-0.0334,0.0031,-0.118,-1.7686220608153285,0.0,2.968616485595703,-1.6364648342132568,0.0036266720853745937,2.170330047607422,4.637937231654785,0.00012446842447388917,0.29411813616752625,-1.6248167196856897,-0.0,-0.0013024740619584918,0.9956441521644592,-0.0,-0.00339017016813159,0.7365761995315552,0.0,0.002797280438244343
222.0,357.0,2.7547,-0.0407,9.061,-0.0334,0.0031,-0.118,-1.7685939274229945,0.0,2.9942808151245117,-1.636448860168457,0.005559214856475592,2.153740882873535,4.637909575099609,0.00012030874495394528,0.29429876804351807,-1.6248415152179163,-0.0,-0.009785139001905918,0.9957078695297241,-0.0,-0.0038452944718301296,0.7365844249725342,0.0,0.01774941012263298
222.0,357.0,2.7547,-0.0407,9.061,-0.0334,0.0031,-0.118,-1.7685533962645472,0.0,2.94655704498291,-1.6364409923553467,0.00644024508073926,2.145409107208252,4.637937231654785,0.00011641818127827719,0.2975715398788452,-1.6248248259173792,-0.0,0.011340624652802944,0.995628833770752,-0.0,0.0008141929283738136,0.736592173576355,0.0,0.05778808891773224
222.0,357.0,2.7547,-0.0407,9.061,-0.0334,0.0031,-0.118,-1.768602033654684,0.0,2.9646334648132324,-1.6363686323165894,0.005973811727017164,2.0879836082458496,4.637945337886475,0.00011277130397502333,0.29739513993263245,-1.6248205343829554,-0.0,-0.008107272908091545,0.9956879615783691,-0.0,0.007263886742293835,0.7365440130233765,0.0,0.02081386186182499
222.0,357.0,2.7547,-0.0407,9.061,-0.0334,0.0031,-0.118,-1.7685772381224574,0.0,2.9816598892211914,-1.6363043785095215,0.007473485078662634,2.144123077392578,4.637909575099609,0.0001077102278941311,0.3057231307029724,-1.6247928778277796,-0.0,-0.00027036661049351096,0.9957119822502136,-0.0,-0.011757798492908478,0.736576497554779,6.796090747229755e-05,-0.010614670813083649
222.0,357.0,2.7547,-0.0407,9.061,-0.0334,0.0031,-0.118,-1.7685815296568812,0.0,2.9777393341064453,-1.6363694667816162,0.006884329952299595,2.1512017250061035,4.637945337886475,0.00010458110045874491,0.3005295693874359,-1.6248090902911585,-0.0,0.002252626698464155,0.9957558512687683,-0.0,-0.0065330336801707745,0.7365963459014893,7.732953235972673e-05,0.012493429705500603
222.0,357.0,2.7547,-0.0407,9.061,-0.0334,0.0031,-0.118,-1.7685815296568812,0.0,2.959958791732788,-1.6362888813018799,0.00674189068377018,2.1327362060546875,4.637889071101807,0.00010162882972508669,0.30314356088638306,-1.6248415152179163,-0.0,-0.00819280557334423,0.9956522583961487,-0.0,-0.006869149394333363,0.7366207242012024,7.476220343960449e-05,0.007535167969763279
222.0,357.0,2.7547,-0.0407,9.061,-0.0334,0.0031,-0.118,-1.7685495815672816,0.0,2.975987672805786,-1.6362526416778564,0.005010870285332203,2.139805793762207,4.6379334169575195,9.883854363579303e-05,0.2940288484096527,-1.624772850667135,-0.0,-0.004146758466959,0.9956881403923035,-0.0,-0.006403289269655943,0.736608624458313,7.235797238536179e-05,0.007076670881360769
222.0,357.0,2.7547,-0.0407,9.061,-0.0334,0.0031,-0.118,-1.7685815296568812,0.0,2.977742910385132,-1.6362566947937012,0.003765273839235306,2.192439079284668,4.637909575099609,9.61974510573782e-05,0.3010270595550537,-1.6248372236834925,-0.0,-0.0019180693197995424,0.9956570863723755,-0.0,-0.004045229405164719,0.7366083860397339,7.010357512626797e-05,0.016685351729393005
222.0,357.0,2.7547,-0.0407,9.061,-0.0334,0.0031,-0.118,-1.7686063251891078,0.0,2.965510606765747,-1.636220932006836,0.003659651381894946,2.1440210342407227,4.637941523189209,9.36939031817019e-05,0.2926308512687683,-1.624857250844137,-0.0,0.0007487026741728187,0.9956641793251038,-0.0,0.015034967102110386,0.7365641593933105,8.139720739563927e-05,-0.004483272321522236
222.0,357.0,2.7547,-0.0407,9.061,-0.0334,0.0031,-0.118,-1.768585821191305,0.0,2.9777207374572754,-1.636136531829834,0.0042787156999111176,2.1124470233917236,4.637941523189209,6.88125001033768e-05,0.28707054257392883,-1.6247928778277796,-0.0,0.006306114606559277,0.9957000613212585,-0.0,-0.0033591841347515583,0.7366124987602234,9.220825450029224e-05,0.029790693894028664
222.0,357.0,2.7547,-0.0407,9.061,-0.0334,0.0031,-0.118,-1.7685896358885707,0.0,2.9831814765930176,-1.6361408233642578,0.0047146654687821865,2.1017730236053467,4.637921496028564,6.604394729947671e-05,0.2847857177257538,-1.6248415152179163,-0.0,-0.004625207278877497,0.995648205280304,-0.0,0.0024914105888456106,0.7366448640823364,0.00010255737288389355,0.02409726195037365
222.0,357.0,2.7547,-0.0407,9.061,-0.0334,0.0031,-0.118,-1.76857390026235,0.0,2.9542236328125,-1.6361933946609497,0.004556686617434025,2.1364784240722656,4.637861414546631,6.415751704480499e-05,0.31378644704818726,-1.624772850667135,-0.0,-0.00826230924576521,0.9956562519073486,-0.0,-0.007194942329078913,0.7366407513618469,0.0003298782685305923,0.00906940083950758
222.0,357.0,2.7547,-0.0407,9.061,-0.0334,0.0031,-0.118,-1.768602033654684,0.0,3.0016469955444336,-1.6361687183380127,0.0032546864822506905,2.1415200233459473,4.6379052835651855,6.237880734261125e-05,0.3019898235797882,-1.6247809568988245,-0.0,-0.0013465359807014465,0.9957079291343689,-0.0,-0.003361651673913002,0.7366406917572021,0.0002993617963511497,-0.00040602218359708786
222.0,357.0,2.7547,-0.0407,9.061,-0.0334,0.0031,-0.118,-1.7686063251891078,0.0,3.0101985931396484,-1.636189341545105,0.0016182170948013663,2.120089292526245,4.637949629420898,6.0696103901136667e-05,0.29660117626190186,-1.6248052755938929,-0.0,-0.00611172616481781,0.9957121014595032,-0.0,-0.022524114698171616,0.7366244196891785,0.00026948098093271255,0.08637028187513351
222.0,357.0,2.7547,-0.0407,9.061,-0.0334,0.0031,-0.118,-1.7685896358885707,0.0,3.0269641876220703,-1.6361240148544312,0.000938846031203866,2.158043622970581,4.637917681331299,5.9101781516801566e-05,0.292843759059906,-1.6248372236834925,-0.0,0.00802767463028431,0.9956482648849487,-0.0,0.0017345590749755502,0.7366608381271362,0.00028583736275322735,-0.020130127668380737
222.0,357.0,2.7547,-0.0407,9.061,-0.0334,0.0031,-0.118,-1.768613954583639,0.0,3.0043294429779053,-1.6361613273620605,0.0006620805943384767,2.1675658226013184,4.637941523189209,5.758905172115192e-05,0.2981957793235779,-1.6248248259173792,-0.0,-0.012016712687909603,0.995664119720459,-0.0,0.005301427096128464,0.7366161346435547,0.00029950783937238157,-0.019981861114501953
222.0,357.0,2.7547,-0.0407,9.061,-0.0334,0.0031,-0.118,-1.7685533962645472,0.0,3.006474494934082,-1.636169672012329,0.0006801745039410889,2.128136396408081,4.637897654170654,5.6151846365537494e-05,0.3125171661376953,-1.6248329321490687,-0.0,0.012044178321957588,0.9956681728363037,-0.0,0.001989079173654318,0.7366366386413574,0.00027650935226120055,-0.014064750634133816
222.0,357.0,2.7547,-0.0407,9.061,-0.0334,0.0031,-0.118,-1.7685939274229945,0.0,2.959625244140625,-1.6361572742462158,0.0005833497270941734,2.133544445037842,4.637889547938965,5.4784624808235094e-05,0.286408394575119,-1.6248491446124476,-0.0,0.008000338450074196,0.9956681728363037,-0.0,-0.002293168567121029,0.7366407513618469,0.00025678600650280714,0.02612948790192604
222.0,357.0,2.7547,-0.0407,9.061,-0.0334,0.0031,-0.118,-1.7685495815672816,0.0,2.9434986114501953,-1.636136531829834,0.00018734119657892734,2.1327996253967285,4.637897654170654,5.2854247769573703e-05,0.2962035536766052,-1.6248052755938929,-0.0,0.0020722514018416405,0.9956920146942139,-0.0,-0.010181747376918793,0.7366728782653809,0.00023196595429908484,0.0061597153544425964
222.0,357.0,2.7547,-0.0407,9.061,-0.0334,0.0031,-0.118,-1.7686339817442835,0.0,2.980588912963867,-1.6361489295959473,0.0001286886545130983,2.122555732727051,4.637921496028564,5.164118192624301e-05,0.30076122283935547,-1.624857250844137,-0.0,0.008132096379995346,0.995703935623169,-0.0,-0.0013088893610984087,0.736575722694397,0.0002411586174275726,-0.0057863700203597546
222.0,357.0,2.7547,-0.0407,9.061,-0.0334,0.0031,-0.118,-1.7686015568175257,0.0,2.960130214691162,-1.6361654996871948,0.00011258167796768248,2.157135248184204,4.637929602260254,5.048254388384521e-05,0.2907469868659973,-1.6248167196856897,-0.0,0.003538114484399557,0.9957238435745239,-0.0,-0.006390661001205444,0.7366283535957336,0.00021813983039464802,-0.07662974298000336
221.0,341.0,2.3504,-0.1083,9.0987,-0.0577,0.0266,-0.113,-1.7686058483519496,0.0,3.0079407691955566,-1.636125087738037,0.00014938398089725524,2.125488519668579,4.637909575099609,1.268606138182804e-05,0.2963384985923767,-1.6248248259173792,-0.0,-0.008537180721759796,0.9956083297729492,-0.0,-0.005805907305330038,0.736620306968689,0.0002339191996725276,-0.0389401838183403
221.0,341.0,2.3504,-0.1083,9.0987,-0.0577,0.0266,-0.113,-1.7685896358885707,-6.577311432920396e-05,2.979900598526001,-1.6361851692199707,0.0001350749662378803,2.129398822784424,4.637937231654785,5.408267611528572e-08,0.2946988046169281,-1.6248248259173792,-0.0,-0.013695494271814823,0.9957040548324585,-0.0,-0.008640591986477375,0.7365959882736206,0.00021925094188190997,-0.014143594540655613
221.0,341.0,2.3504,-0.1083,9.0987,-0.0577,0.0266,-0.113,-1.7685896358885707,-6.145793304312974e-05,3.027963638305664,-1.6361727714538574,-8.525625889888033e-05,2.1216650009155273,4.637909098262451,2.3056290210377028e-10,0.2956905663013458,-1.624829117451803,-0.0,0.001685038791038096,0.9956761002540588,-0.0,-0.0032521050889045,0.7366806268692017,0.000235210289247334,0.02733200415968895
221.0,341.0,2.3504,-0.1083,9.0987,-0.0577,0.0266,-0.113,-1.7686578236021937,-8.589673961978406e-05,3.013071060180664,-1.6361933946609497,-0.0001186080407933332,2.160642147064209,4.637889071101807,9.82925763351461e-13,0.3084847629070282,-1.6248052755938929,-0.0,0.014984353445470333,0.9956521987915039,-0.0,0.011537991464138031,0.7366083860397339,0.0002200531162088737,0.050191059708595276
221.0,341.0,2.3504,-0.1083,9.0987,-0.0577,0.0266,-0.113,-1.7685939274229945,-8.111044735414907e-05,2.936793088912964,-1.6361531019210815,-0.00012377326493151486,2.117711305618286,4.637937708491943,4.190366434240643e-15,0.29800087213516235,-1.6248248259173792,-0.0,0.0008948793984018266,0.9956800937652588,-0.0,0.007546739652752876,0.7366161346435547,0.00020568438048940152,-0.06408675014972687
221.0,341.0,2.3504,-0.1083,9.0987,-0.0577,0.0266,-0.113,-1.768625398675436,-9.326525469077751e-05,2.972588539123535,-1.6361241340637207,-0.00010881073103519157,2.106550455093384,4.63789336263623,1.786418955538921e-17,0.30273571610450745,-1.6247966925250452,-0.0,-0.015407554805278778,0.995664119720459,-0.0,-0.007590477354824543,0.7366042733192444,0.00019307711045257747,0.0266912542283535
221.0,341.0,2.3504,-0.1083,9.0987,-0.0577,0.0266,-0.113,-1.7685734234251917,-9.654428868088871e-05,2.9849047660827637,-1.6361489295959473,-9.707231220090762e-05,2.0828750133514404,4.637897177333496,7.615783398881249e-20,0.2917604148387909,-1.6248496214496058,-0.0,-7.506017573177814e-05,0.995660126209259,-0.0,-0.008244955912232399,0.7366000413894653,0.00010899879271164536,0.009324824437499046
221.0,341.0,2.3504,-0.1083,9.0987,-0.0577,0.0266,-0.113,-1.7686015568175257,-9.1630092356354e-05,3.013977289199829,-1.6361687183380127,-8.762101060710847e-05,2.1344549655914307,4.637909575099609,3.2467270707393673e-22,0.28280240297317505,-1.6247809568988245,-0.0,-0.011052972637116909,0.9956721663475037,-0.0,-0.0005273031420074403,0.7365960478782654,5.307428364176303e-05,-0.013230612501502037
221.0,341.0,2.3504,-0.1083,9.0987,-0.0577,0.0266,-0.113,-1.7686497173705042,-8.719250035937876e-05,2.9893598556518555,-1.6361933946609497,-7.984678086359054e-05,2.1445114612579346,4.6379052835651855,1.384130611135356e-24,0.29386967420578003,-1.6247928778277796,-0.0,-0.012563362717628479,0.9956920146942139,-0.0,-0.0009495723061263561,0.7366448640823364,4.290914876037277e-05,0.008257527835667133
221.0,341.0,2.3504,-0.1083,9.0987,-0.0577,0.0266,-0.113,-1.7685653171935023,-8.316399180330336e-05,2.9945974349975586,-1.6362254619598389,-7.333971007028595e-05,2.1450586318969727,4.637861414546631,5.900765852714677e-27,0.2976250648498535,-1.6248248259173792,-0.0,-0.017598021775484085,0.9956249594688416,-0.0,0.005677020642906427,0.736628532409668,3.917273352271877e-05,-0.0181435476988554
221.0,341.0,2.3504,-0.1083,9.0987,-0.0577,0.0266,-0.113,-1.7686377964415492,-7.949132123030722e-05,2.9735517501831055,-1.6361603736877441,-6.781352567486465e-05,2.1161561012268066,4.63789336263623,2.5155892071212916e-29,0.2981463670730591,-1.6248329321490687,-0.0,7.742899470031261e-05,0.9956561923027039,-0.0,0.003403228707611561,0.7366406917572021,5.957733151262801e-08,-0.010173626244068146
221.0,341.0,2.3504,-0.1083,9.0987,-0.0577,0.0266,-0.113,-1.768630167047018,-7.612935587530956e-05,3.03501033782959,-1.6361970901489258,-4.235551750753075e-05,2.1573500633239746,4.63787762701001,1.07243511705321e-31,0.3058251142501831,-1.6248295942889612,-0.0,0.004166713450103998,0.9956800937652588,-0.0,0.010975085198879242,0.7366001605987549,1.0723709246984736e-11,0.009667322970926762
221.0,341.0,2.3504,-0.1083,9.0987,-0.0577,0.0266,-0.113,-1.768625875512594,-7.158776134019718e-05,3.0332412719726562,-1.6361933946609497,-2.8531991119962186e-05,2.100069999694824,4.63786952077832,2.98516273816654e-35,0.2899077832698822,-1.6247928778277796,-0.0,-0.010675346478819847,0.9956721663475037,-0.0,0.0010153015609830618,0.7365922331809998,2.5896497115083334e-17,-0.015569775365293026
221.0,341.0,2.3504,-0.1083,9.0987,-0.0577,0.0266,-0.113,-1.7686058483519496,-6.884960021125153e-05,2.998211622238159,-1.6361489295959473,-2.683076490939129e-05,2.157405138015747,4.6379052835651855,1.272621710500955e-37,0.3069038689136505,-1.6248248259173792,-0.0,0.004091752227395773,0.9956680536270142,-0.0,0.005218818783760071,0.7365881204605103,4.661278266216384e-21,0.011998152360320091
221.0,341.0,2.3504,-0.1083,9.0987,-0.0577,0.0266,-0.113,-1.7686101398863734,-6.631314317928627e-05,2.984456777572632,-1.6361407041549683,-2.5321056455140933e-05,2.0965023040771484,4.637885733241699,5.425379238357108e-40,0.2830432057380676,-1.6248248259173792,-0.0,-0.011109935119748116,0.9956720471382141,-0.0,0.008931314572691917,0.7365682721138,8.390135261313429e-25,0.02105165272951126
221.0,341.0,2.3504,-0.1083,9.0987,-0.0577,0.0266,-0.113,-1.7686377964415492,-6.395698437700048e-05,3.0019869804382324,-1.6361489295959473,-2.3972150302142836e-05,2.1623406410217285,4.637897177333496,2.313543764600273e-42,0.30743393301963806,-1.6248329321490687,-0.0,-0.011082224547863007,0.9957079291343689,-0.0,0.0046410709619522095,0.7366083860397339,1.5101948547319183e-28,0.025781553238630295
221.0,341.0,2.3504,-0.1083,9.0987,-0.0577,0.0266,-0.113,-1.768602033654684,-6.176200258778408e-05,2.9651217460632324,-1.6362016201019287,-2.2759713829145767e-05,2.169787883758545,4.6379052835651855,9.80908925027372e-45,0.29721930623054504,-1.6248090902911585,-0.0,0.009596442803740501,0.9957119226455688,-0.0,-0.004274830687791109,0.7365844249725342,2.7182971846875414e-32,0.003483166918158531
221.0,341.0,2.3504,-0.1083,9.0987,-0.0577,0.0266,-0.113,-1.7686377964415492,-5.971362770651467e-05,3.010493755340576,-1.6361727714538574,-2.1664052837877534e-05,2.1467790603637695,4.637885733241699,0.0,0.2896149456501007,-1.6247928778277796,-0.0,0.0015003655571490526,0.995703935623169,-0.0,0.0040535577572882175,0.7366166114807129,4.8928391867007845e-36,-0.03948863223195076
221.0,341.0,2.3504,-0.1083,9.0987,-0.0577,0.0266,-0.113,-1.7686339817442835,-7.222234853543341e-05,3.008918046951294,-1.6361604928970337,-2.0668963770731352e-05,2.160027503967285,4.637909575099609,0.0,0.30783963203430176,-1.6248615423785608,-0.0,-0.0019035721197724342,0.9957000613212585,-0.0,0.004675367381423712,0.7365963459014893,8.806936640527183e-40,0.006874655373394489
221.0,341.0,2.3504,-0.1083,9.0987,-0.0577,0.0266,-0.113,-1.7685934505858363,-6.999783363426104e-05,2.995093822479248,-1.6362093687057495,-3.873060632031411e-05,2.139535427093506,4.637925787562988,0.0,0.3027026951313019,-1.624772850667135,-0.0,0.003049077931791544,0.9956520795822144,-0.0,0.006935358978807926,0.7365885376930237,1.5834672646870433e-43,-0.031547266989946365
221.0,341.0,2.3504,-0.1083,9.0987,-0.0577,0.0266,-0.113,-1.7686497173705042,-6.792026397306472e-05,3.0008058547973633,-1.6361407041549683,-3.7859896110603586e-05,2.1162846088409424,4.637897177333496,0.0,0.2847444415092468,-1.6248496214496058,-0.0,-0.00841063167899847,0.9956681132316589,-0.0,0.0024474826641380787,0.7365599870681763,-0.00031276297522708774,-0.019860198721289635
221.0,341.0,2.3504,-0.1083,9.0987,-0.0577,0.0266,-0.113,-1.768682142297262,-0.00010658553219400346,3.0131218433380127,-1.636144995689392,-5.377050183597021e-05,2.180957078933716,4.6378819185444335,0.0,0.29043737053871155,-1.6248133818255823,-0.0,-0.005194912664592266,0.995660126209259,-0.0,-0.008678742684423923,0.7366127967834473,-0.0002748031110968441,0.023092586547136307
222.0,347.0,2.7021,-0.3368,9.1304,-0.0557,-0.0029,-0.1139,-1.7686377964415492,-0.00011514951620483771,2.943084239959717,-1.6361768245697021,-5.238285302766599e-05,2.1507740020751953,4.637885733241699,0.0,0.28324055671691895,-1.6247966925250452,-0.0,-0.009785500355064869,0.9957119822502136,-0.0,0.004302977584302425,0.7366127967834473,-0.0002448895829729736,-0.009708050638437271
222.0,347.0,2.7021,-0.3368,9.1304,-0.0557,-0.0029,-0.1139,-1.7686459026732386,-0.00011684025957947597,2.9519686698913574,-1.6362172365188599,-5.042635530116968e-05,2.147268056869507,4.637893839473389,0.0,0.295846164226532,-1.6248615423785608,-0.0,-0.0061676036566495895,0.9956721663475037,-0.0,-0.002351993229240179,0.736556351184845,-0.0002208494843216613,-0.007721285335719585
222.0,347.0,2.7021,-0.3368,9.1304,-0.0557,-0.0029,-0.1139,-1.768654008904928,-0.00013065732491668314,2.97434139251709,-1.6362249851226807,-4.8610676458338276e-05,2.1469950675964355,4.637829466457031,0.0,0.29522988200187683,-1.6247966925250452,-0.0,-0.0033638363238424063,0.995640218257904,-0.0,-0.0011020904639735818,0.7365522384643555,-0.00020110791956540197,0.0061767203733325005
222.0,347.0,2.7021,-0.3368,9.1304,-0.0557,-0.0029,-0.1139,-1.7686616382994593,-0.00012545709614641964,3.0132508277893066,-1.6361932754516602,-4.6921173634473234e-05,2.156867742538452,4.6378819185444335,0.0,0.29977869987487793,-1.624772850667135,-0.0,-0.0005997247062623501,0.9956362247467041,-0.0,0.0076332720927894115,0.7366207838058472,-0.0001846064260462299,0.00614150008186698
222.0,347.0,2.7021,-0.3368,9.1304,-0.0557,-0.0029,-0.1139,-1.768682142297262,-0.00013787818897981197,2.9780797958374023,-1.6361613273620605,-4.534513573162258e-05,2.1769838333129883,4.637885733241699,0.0,0.31064730882644653,-1.624829117451803,-0.0,-0.0027802460826933384,0.995699942111969,-0.0,-0.007427542004734278,0.7366045713424683,-0.00017060783284250647,-0.03209521248936653
222.0,347.0,2.7021,-0.3368,9.1304,-0.0557,-0.0029,-0.1139,-1.768625398675436,-0.00013039620534982532,2.9953417778015137,-1.6361613273620605,-4.317016646382399e-05,2.1512937545776367,4.63787762701001,0.0,0.3111717104911804,-1.6247966925250452,-0.0,-0.012307179160416126,0.9957523941993713,-0.0,0.004154488444328308,0.7365803122520447,-0.0001225481682922691,0.09016881883144379
222.0,347.0,2.7021,-0.3368,9.1304,-0.0557,-0.0029,-0.1139,-1.7686902485289515,-0.00012583825446199626,2.9893832206726074,-1.6361851692199707,-4.183245255262591e-05,2.171558141708374,4.6378819185444335,0.0,0.2932393550872803,-1.624817196522848,-0.0,0.011485833674669266,0.9956409335136414,-0.0,-0.0038463114760816097,0.7365803122520447,-8.644932677270845e-05,-0.00462515652179718
222.0,347.0,2.7021,-0.3368,9.1304,-0.0557,-0.0029,-0.1139,-1.768625398675436,-0.00012159693142166361,3.004103660583496,-1.6361323595046997,-4.0662402170710266e-05,2.0958964824676514,4.63789336263623,0.0,0.300101101398468,-1.624841038380758,-0.0,-0.0013514055171981454,0.9957078099250793,-0.0,0.01182498224079609,0.7366083264350891,-8.089554467005655e-05,0.022956332191824913
222.0,347.0,2.7021,-0.3368,9.1304,-0.0557,-0.0029,-0.1139,-1.7686296902098597,-0.00021507707424461842,2.980278968811035,-1.6362130641937256,-3.0117089409031905e-05,2.156002998352051,4.637925787562988,0.0,0.3008744716644287,-1.6248696486102503,-0.0,-0.007942644879221916,0.9956721067428589,-0.0,0.005988415330648422,0.7366004586219788,-7.63219577493146e-05,-0.005107933189719915
222.0,347.0,2.7021,-0.3368,9.1304,-0.0557,-0.0029,-0.1139,-1.7686454258360804,-0.00023094280913937837,2.988396644592285,-1.6361654996871948,-2.9140295737306587e-05,2.1704070568084717,4.637900992030762,0.0,0.29896828532218933,-1.6247928778277796,-0.0,-0.010191203095018864,0.9956482648849487,-0.0,0.005835344083607197,0.7366004586219788,7.257847755681723e-05,-0.011177354492247105
222.0,347.0,2.7021,-0.3368,9.1304,-0.0557,-0.0029,-0.1139,-1.7686783275999964,-0.00021668404224328697,2.978609085083008,-1.636136531829834,-2.8226411814102903e-05,2.1575348377227783,4.637921496028564,0.0,0.31583473086357117,-1.6247966925250452,-0.0,-0.006457182578742504,0.9956084489822388,-0.0,-0.0009651787113398314,0.7366166114807129,6.775606743758544e-05,-0.015953246504068375
222.0,347.0,2.7021,-0.3368,9.1304,-0.0557,-0.0029,-0.1139,-1.7686578236021937,-0.00020058645168319345,3.012509346008301,-1.636144757270813,-2.736807982728351e-05,2.147334575653076,4.637873335475586,0.0,0.3075140118598938,-1.6248176733600062,-0.0,-0.014874324202537537,0.9956641793251038,-0.0,0.0024877372197806835,0.7366448640823364,6.30121721769683e-05,0.014412770979106426
222.0,347.0,2.7021,-0.3368,9.1304,-0.0557,-0.0029,-0.1139,-1.768670221368307,-0.00020712264813482761,2.9645397663116455,-1.6361768245697021,-1.33420016936725e-05,2.1725211143493652,4.637913389796875,0.0,0.31683629751205444,-1.624845329915182,-0.0,-0.004490703344345093,0.9956840872764587,-0.0,-0.0034553827717900276,0.7366244196891785,8.828535646898672e-05,0.020357564091682434
222.0,347.0,2.7021,-0.3368,9.1304,-0.0557,-0.0029,-0.1139,-1.7686535320677699,-0.00020374191808514297,2.9895033836364746,-1.6361572742462158,-2.0497314068279593e-08,2.1899447441101074,4.6378819185444335,8.173305104719475e-06,0.3067968487739563,-1.6247966925250452,-0.0,-0.007552006281912327,0.9956920146942139,-0.0,0.006889997515827417,0.7366001009941101,0.00013491426943801343,-0.04488176852464676
222.0,347.0,2.7021,-0.3368,9.1304,-0.0557,-0.0029,-0.1139,-1.7686740360655726,-0.00019136590708512813,3.0066847801208496,-1.6361291408538818,-3.689444149496124e-12,2.1368050575256348,4.637897177333496,3.484407784526411e-08,0.3063238263130188,-1.6247847715960901,-0.0,-0.015910208225250244,0.9956521391868591,-0.0,-0.004673496354371309,0.73661208152771,0.0004685790336225182,-0.019765738397836685
222.0,347.0,2.7021,-0.3368,9.1304,-0.0557,-0.0029,-0.1139,-1.768682142297262,-0.00018040588474832475,3.0355405807495117,-1.636108636856079,0.003609719919040799,2.1494648456573486,4.6378819185444335,1.4854575902667477e-10,0.3094298839569092,-1.6248214880572718,-0.0,-0.0053209178149700165,0.9956482648849487,-0.0,-0.019953612238168716,0.7366484999656677,0.0005489519098773599,0.029937800019979477
222.0,347.0,2.7021,-0.3368,9.1304,-0.0557,-0.0029,-0.1139,-1.7686335049071253,-0.00017063345876522362,2.9825427532196045,-1.636108636856079,0.005703725386410952,2.143066883087158,4.637861414546631,6.332739779617291e-13,0.3162994384765625,-1.6248214880572718,-0.0,-0.016802679747343063,0.9956800937652588,-0.0,-0.016722101718187332,0.7366402745246887,0.0018757518846541643,-0.007205622736364603
222.0,347.0,2.7021,-0.3368,9.1304,-0.0557,-0.0029,-0.1139,-1.7686416111388148,-0.0001840571203501895,3.0253567695617676,-1.6360329389572144,0.006592323072254658,2.1611857414245605,4.637873335475586,2.6997459952012633e-15,0.31813138723373413,-1.6247885862933558,-0.0,-0.009353257715702057,0.9956204295158386,-0.0,0.005947981029748917,0.7367369532585144,0.003135740989819169,0.008931839838624
222.0,347.0,2.7021,-0.3368,9.1304,-0.0557,-0.0029,-0.1139,-1.7686859569945277,-0.00017594748351257294,3.0156502723693848,-1.6359885931015015,0.008909580297768116,2.129347324371338,4.637913389796875,1.1509441501080193e-17,0.3112620711326599,-1.6247847715960901,-0.0,-0.010822435840964317,0.9956840872764587,-0.0,-0.006070754490792751,0.7367488741874695,0.004117031116038561,-0.06029164418578148
222.0,347.0,2.7021,-0.3368,9.1304,-0.0557,-0.0029,-0.1139,-1.7686454258360804,-0.0002131587389158085,3.037839889526367,-1.6359889507293701,0.011876961216330528,2.1862030029296875,4.6378819185444335,4.906656063492698e-20,0.3137136995792389,-1.6248248259173792,-0.0,-0.020996546372771263,0.9956761002540588,-0.0,-0.005013340152800083,0.7367205619812012,0.00615909555926919,0.020214876160025597
222.0,347.0,2.7021,-0.3368,9.1304,-0.0557,-0.0029,-0.1139,-1.7686778507628382,-0.001056560082361102,2.994586944580078,-1.6358445882797241,0.016992393881082535,2.190690755844116,4.637889547938965,1.3657858085566224e-23,0.31879180669784546,-1.6247766653644007,-0.0,-0.009281127713620663,0.9956761002540588,-0.0,0.0034582403022795916,0.7367883920669556,0.009123062714934349,0.009481733664870262
222.0,347.0,2.7021,-0.3368,9.1304,-0.0557,-0.0029,-0.1139,-1.7687016926207484,-0.0019410287495702505,3.0068840980529785,-1.6358132362365723,0.01789151132106781,2.170351505279541,4.63789336263623,5.822559538425747e-26,0.318882018327713,-1.6247847715960901,-0.0,-0.013257862068712711,0.9956561326980591,-0.0,-0.005741172004491091,0.7368283271789551,0.009581456892192364,0.0409938246011734
213.0,354.0,2.1009,0.2112,9.417,-0.0148,0.056,-0.1084,-1.7687059841551722,-0.0028585779946297407,2.9655697345733643,-1.6357004642486572,0.018335288390517235,2.188694477081299,4.637909575099609,2.4822482903330996e-28,0.3257700502872467,-1.6248248259173792,-0.0,-0.02431473135948181,0.9957119822502136,-0.0,-0.008238086476922035,0.7368805408477783,0.010474298149347305,0.04151041805744171
213.0,354.0,2.1009,0.2112,9.417,-0.0148,0.056,-0.1084,-1.7687460384764613,-0.003998331725597382,2.996762275695801,-1.6356967687606812,0.017266200855374336,2.2073709964752197,4.637913389796875,1.0582212979718241e-30,0.33052003383636475,-1.6248090902911585,-0.0,-0.025210190564393997,0.9956880807876587,-0.0,0.0038100918754935265,0.7369083166122437,0.010832021944224834,0.06858094781637192
213.0,354.0,2.1009,0.2112,9.417,-0.0148,0.056,-0.1084,-1.7687536678709925,-0.005282938946038485,2.9750208854675293,-1.6356329917907715,0.015479003079235554,2.176945209503174,4.637897177333496,4.511363280121639e-33,0.3284749686717987,-1.6248372236834925,-0.0,-0.027266042307019234,0.9956521987915039,-0.0,-0.0010890616104006767,0.7369240522384644,0.010513247922062874,0.06226041913032532
213.0,354.0,2.1009,0.2112,9.417,-0.0148,0.056,-0.1084,-1.7687660656371058,-0.005918635055422783,2.97831392288208,-1.6355568170547485,0.013557204976677895,2.1973981857299805,4.637945337886475,1.9232647347957682e-35,0.33267509937286377,-1.6248891989337366,-0.0,-0.016155796125531197,0.9956800937652588,-0.0,-0.010323764756321907,0.7369480133056641,0.010352330282330513,-0.0016355141997337341
213.0,354.0,2.1009,0.2112,9.417,-0.0148,0.056,-0.1084,-1.7688142261900843,-0.006739677395671606,3.0000505447387695,-1.6355376243591309,0.01237134076654911,2.178133010864258,4.637941523189209,0.001009424333460629,0.33132511377334595,-1.624885384236471,-0.0,-0.021176300942897797,0.9956761002540588,-0.0,-0.005320238880813122,0.7370364665985107,0.00945027731359005,0.04928091540932655
213.0,354.0,2.1009,0.2112,9.417,-0.0148,0.056,-0.1084,-1.7688137493529261,-0.005793770309537649,2.987913131713867,-1.6354403495788574,0.010571379214525223,2.1923301219940186,4.637953444118164,0.0018075573025271297,0.3279091715812683,-1.6248329321490687,-0.0,-0.024515680968761444,0.9956601858139038,-0.0,-0.005958304740488529,0.737056314945221,0.008621026761829853,0.04082725569605827
213.0,354.0,2.1009,0.2112,9.417,-0.0148,0.056,-0.1084,-1.7688380680479945,-0.005421069450676441,2.9741995334625244,-1.635465145111084,0.008904947899281979,2.1754045486450195,4.637937231654785,0.002102616475895047,0.3255108594894409,-1.624897305165426,-0.0,-0.02507743611931801,0.9956920146942139,-0.0,-0.008544201031327248,0.7370439171791077,0.007816629484295845,0.03894667699933052
213.0,354.0,2.1009,0.2112,9.417,-0.0148,0.056,-0.1084,-1.7689019642271937,-0.004809108097106218,2.992434024810791,-1.6354371309280396,0.006881155539304018,2.156949520111084,4.637965841884277,0.0018703668611124158,0.3123592138290405,-1.6248849073993128,-0.00026869040448218584,-0.02449418604373932,0.9957119822502136,-0.0,-0.0004042369546368718,0.737112283706665,0.006644730921834707,0.06634730845689774
213.0,354.0,2.1009,0.2112,9.417,-0.0148,0.056,-0.1084,-1.7688857517638148,-0.004327833652496338,2.9827895164489746,-1.6354252099990845,0.004997144918888807,2.1700222492218018,4.638021631831787,0.0014192769303917885,0.3328017592430115,-1.6248448530780237,-0.00026770331896841526,-0.03197209909558296,0.9957159757614136,-0.0,0.0007661911658942699,0.7371243238449097,0.005414747167378664,0.012095111422240734
213.0,354.0,2.1009,0.2112,9.417,-0.0148,0.056,-0.1084,-1.7689300976195277,-0.004699700977653265,2.974165916442871,-1.6353449821472168,0.0028766458854079247,2.130096912384033,4.637913389796875,0.0012055285042151809,0.3265278935432434,-1.6248849073993128,-0.0002639761660248041,-0.02550584450364113,0.995635986328125,-0.0,0.0066617862321436405,0.7371321320533752,0.0045690955594182014,0.04686018452048302
213.0,354.0,2.1009,0.2112,9.417,-0.0148,0.056,-0.1084,-1.7689296207823695,-0.005561124533414841,2.989232063293457,-1.6354339122772217,0.00187360355630517,2.176149368286133,4.637941046352051,0.0010095271281898022,0.3212026357650757,-1.6248567740069788,-0.00027016110834665596,-0.02639755979180336,0.9956561923027039,-0.0,0.018646854907274246,0.7371239066123962,0.003270792542025447,0.06574762612581253
213.0,354.0,2.1009,0.2112,9.417,-0.0148,0.056,-0.1084,-1.7690102062621058,-0.006510545499622822,2.9752016067504883,-1.6353812217712402,0.0010803417535498738,2.175062656402588,4.637965365047119,0.0007761867600493133,0.3477526307106018,-1.6248772780047815,-0.0002576337137725204,-0.042050980031490326,0.9956442713737488,-0.0,0.01070659700781107,0.7371482849121094,0.0022802366875112057,0.06726517528295517
213.0,354.0,2.1009,0.2112,9.417,-0.0148,0.056,-0.1084,-1.769005914727682,-0.006661585066467524,2.9735445976257324,-1.63535737991333,0.00027243333170190454,2.170846700668335,4.638005419368408,0.0006461135926656425,0.33171534538269043,-1.6248610655414026,-0.00023819084162823856,-0.02210778370499611,0.9956761002540588,-0.0,0.011816629208624363,0.7371602058410645,0.0014375480823218822,0.06762734800577164
213.0,354.0,2.1009,0.2112,9.417,-0.0148,0.056,-0.1084,-1.7690502605833949,-0.0069955396465957165,2.9804601669311523,-1.6353931427001953,0.0001859401527326554,2.1613264083862305,4.63789336263623,0.0004754219844471663,0.32104143500328064,-1.6249092260943812,-0.00021392251073848456,-0.03313701972365379,0.9957277774810791,7.033363999653375e-06,0.014468788169324398,0.7371441721916199,0.00045545960892923176,0.10288619250059128
213.0,354.0,2.1009,0.2112,9.417,-0.0148,0.056,-0.1084,-1.7691027126707972,-0.00693989684805274,2.9759318828582764,-1.6353657245635986,0.00015409092884510756,2.1421380043029785,4.637985392207764,0.0004041832289658487,0.32774317264556885,-1.624869171773092,-0.00022700456611346453,-0.04696016013622284,0.9957239031791687,2.998433501488762e-08,0.018432173877954483,0.7371848821640015,0.00014118707622401416,0.12353435903787613
213.0,354.0,2.1009,0.2112,9.417,-0.0148,0.056,-0.1084,-1.769074102441305,-0.0065294173546135426,2.9708821773529053,-1.6353533267974854,0.0001315598638029769,2.1925511360168457,4.637981577510498,0.00035152584314346313,0.34729892015457153,-1.6248686949359339,-0.00021523638861253858,-0.03505800664424896,0.9956917762756348,1.2782794267529596e-10,0.027420789003372192,0.7371081709861755,0.00010392712283646688,0.06420863419771194
213.0,354.0,2.1009,0.2112,9.417,-0.0148,0.056,-0.1084,-1.7690941296019496,-0.00615539588034153,2.9185256958007812,-1.6353894472122192,0.0001523158571217209,2.1354501247406006,4.6379334169575195,0.0003110131365247071,0.33700332045555115,-1.6248610655414026,-0.00020310035324655473,-0.06066631153225899,0.9957401752471924,0.0005480782128870487,0.017295241355895996,0.7371321320533752,8.441835234407336e-05,0.09406353533267975
213.0,354.0,2.1009,0.2112,9.417,-0.0148,0.056,-0.1084,-1.7692104778685511,-0.0053244479931890965,2.9549505710601807,-1.6353893280029297,0.00015268819697666913,2.1605138778686523,4.637985392207764,0.0002788764249999076,0.34333282709121704,-1.6248729864703577,-0.00019225334108341485,-0.048819649964571,0.99569171667099,0.0005765781388618052,0.020086033269762993,0.737092137336731,7.107970304787159e-05,0.10535938292741776
213.0,354.0,2.1009,0.2112,9.417,-0.0148,0.056,-0.1084,-1.769170423547262,-0.004702480509877205,2.9713525772094727,-1.635368824005127,0.00013717461843043566,2.2103610038757324,4.637937231654785,0.0002527614706195891,0.3424800634384155,-1.624841038380758,-0.00018250610446557403,-0.06133508309721947,0.9957560896873474,0.0005568807246163487,0.028706729412078857,0.7371284365653992,6.138158641988412e-05,0.1313384771347046
213.0,354.0,2.1009,0.2112,9.417,-0.0148,0.056,-0.1084,-1.7692591152586878,-0.004453286528587341,2.931769371032715,-1.6353533267974854,0.00012452113151084632,2.140890598297119,4.637925787562988,0.00020265723287593573,0.32767683267593384,-1.6248448530780237,-0.00017369985289406031,-0.058017972856760025,0.9957197904586792,0.0004895007004961371,0.02201954275369644,0.7371321320533752,5.4012678447179496e-05,0.13890451192855835
213.0,354.0,2.1009,0.2112,9.417,-0.0148,0.056,-0.1084,-1.7692467174925746,-0.0036235156003385782,2.990541934967041,-1.6353248357772827,0.0001140046733780764,2.119070291519165,4.63794915258374,0.00017745302466209978,0.34454816579818726,-1.6248930136310022,-0.00016570415755268186,-0.056678302586078644,0.995731770992279,0.0004906902904622257,0.029272455722093582,0.7371444702148438,4.82236901007127e-05,0.12658283114433289
213.0,354.0,2.1009,0.2112,9.417,-0.0148,0.056,-0.1084,-1.7692424259581507,-0.002776913810521364,2.8990049362182617,-1.635360598564148,0.00014000092050991952,2.135847568511963,4.637953444118164,0.00016444224456790835,0.3392271399497986,-1.6248491446124476,-0.00015841246931813657,-0.06496298313140869,0.9957077503204346,0.00048369914293289185,0.03653943911194801,0.7371441721916199,4.355560668045655e-05,0.12444188445806503
223.0,337.0,2.6076,-0.5019,9.204,-0.0452,0.0308,-0.119,-1.7692705593504847,-0.0020527751184999943,2.9562158584594727,-1.6353449821472168,0.0001300416624872014,2.185560464859009,4.637921496028564,0.00015324070409405977,0.3420143723487854,-1.6248610655414026,-0.00015173529391176999,-0.057894136756658554,0.9957242608070374,0.00047819604515098035,0.031948551535606384,0.7371565103530884,7.941550575196743e-05,0.1347469687461853
223.0,337.0,2.6076,-0.5019,9.204,-0.0452,0.0308,-0.119,-1.7692305050291957,-0.0015367300948128104,2.9220356941223145,-1.6353449821472168,0.00012127961235819384,2.162821054458618,4.63794915258374,0.0001720314030535519,0.33917027711868286,-1.6248448530780237,-0.0001455983438063413,-0.06458746641874313,0.9957401752471924,0.0004708568740170449,0.03381872922182083,0.7371444702148438,7.298239506781101e-05,0.21029680967330933
223.0,337.0,2.6076,-0.5019,9.204,-0.0452,0.0308,-0.119,-1.7691942654051722,-0.0010763723403215408,2.9436891078948975,-1.63535737991333,7.044074300210923e-05,2.141108751296997,4.637913389796875,0.0001618407404748723,0.33779168128967285,-1.6248491446124476,-0.00013993855100125074,-0.0471668541431427,0.9957481026649475,0.0004195969377178699,0.03567853197455406,0.7371202111244202,9.989249520003796e-05,0.17790910601615906
223.0,337.0,2.6076,-0.5019,9.204,-0.0452,0.0308,-0.119,-1.7692228756346644,-0.0007812103140167892,2.9766759872436523,-1.6353206634521484,6.377309910021722e-05,2.1996288299560547,4.63794915258374,0.00015268831339199096,0.3502759635448456,-1.6248653570758265,-0.00013470237900037318,-0.05503524839878082,0.9957799911499023,0.0003854981914628297,0.02833300270140171,0.7371482849121094,0.00012432335643097758,0.18277700245380402
223.0,337.0,2.6076,-0.5019,9.204,-0.0452,0.0308,-0.119,-1.769181867639059,-0.0006057823775336146,2.962350845336914,-1.6353492736816406,0.00010887163080042228,2.1824703216552734,4.637982054347656,0.0001445153175154701,0.33403098583221436,-1.6248810927020472,-0.00012984388740733266,-0.06376398354768753,0.9957560896873474,0.0003293096087872982,0.03948035463690758,0.7371684312820435,0.00010050565470010042,0.17788399755954742
223.0,337.0,2.6076,-0.5019,9.204,-0.0452,0.0308,-0.119,-1.7692505321898402,-0.0004947258275933564,2.9511163234710693,-1.6353449821472168,0.0001395609142491594,2.1154820919036865,4.6379896837421875,0.00013717259571421891,0.3383437395095825,-1.6248610655414026,-0.00012532352411653847,-0.06145957112312317,0.9956917762756348,0.00034441016032360494,0.05109087750315666,0.7371602058410645,0.0001576954236952588,0.16404160857200623
223.0,337.0,2.6076,-0.5019,9.204,-0.0452,0.0308,-0.119,-1.7692305050291957,-0.0004302988527342677,2.9467782974243164,-1.635349154472351,0.0017329268157482147,2.1876540184020996,4.637937231654785,0.00014851527521386743,0.35231858491897583,-1.6248653570758265,-0.00011910416651517153,-0.05601368099451065,0.9957281947135925,0.0003374233201611787,0.029181092977523804,0.7371280193328857,0.0017192310187965631,0.1875470131635666
223.0,337.0,2.6076,-0.5019,9.204,-0.0452,0.0308,-0.119,-1.7692185841002406,-0.00039581218152306974,2.9833197593688965,-1.635317087173462,0.0022028081584721804,2.1909937858581543,4.637941046352051,0.00016159405640792102,0.3468424081802368,-1.6248810927020472,-0.00011528989125508815,-0.04932462051510811,0.9957799315452576,0.00034683014382608235,0.04065200313925743,0.7372082471847534,0.002242745365947485,0.21109651029109955
223.0,337.0,2.6076,-0.5019,9.204,-0.0452,0.0308,-0.119,-1.7692023716368617,-0.00039979114080779254,2.943770170211792,-1.6352972984313965,0.0021310027223080397,2.1431725025177,4.6379615503498535,0.00012015992251690477,0.3577321767807007,-1.624873463307516,-9.624615631764755e-05,-0.06236153095960617,0.9958197474479675,0.0003176110330969095,0.036581385880708694,0.7371684312820435,0.0024854973889887333,0.17743703722953796
223.0,337.0,2.6076,-0.5019,9.204,-0.0452,0.0308,-0.119,-1.7692467174925746,-0.0003614988527260721,2.958034038543701,-1.6353251934051514,0.0019826642237603664,2.1670079231262207,4.637945337886475,0.00011836015619337559,0.3522224426269531,-1.6248286406146448,-8.744069054955617e-05,-0.05266866087913513,0.9957520961761475,0.0003084895433858037,0.04692260921001434,0.7372205853462219,0.0030579620506614447,0.23775334656238556
223.0,337.0,2.6076,-0.5019,9.204,-0.0452,0.0308,-0.119,-1.7692061863341273,-0.00026602076832205057,2.944704055786133,-1.6352564096450806,0.0016558755887672305,2.134068250656128,4.637921019191406,0.00011819849169114605,0.35095712542533875,-1.6248367468463343,-8.414872718276456e-05,-0.05626311153173447,0.9957361221313477,0.0002717048628255725,0.04818202555179596,0.7372528314590454,0.004026064649224281,0.15876521170139313
223.0,337.0,2.6076,-0.5019,9.204,-0.0452,0.0308,-0.119,-1.7692467174925746,-0.00029735808493569493,2.967442512512207,-1.63535737991333,0.001246295403689146,2.136981964111328,4.637973948115967,0.0001320543815381825,0.3471006155014038,-1.6248448530780237,-8.111500937957317e-05,-0.05889711529016495,0.9957759380340576,0.0002906728186644614,0.0424535870552063,0.737280547618866,0.004451274406164885,0.17040732502937317
223.0,337.0,2.6076,-0.5019,9.204,-0.0452,0.0308,-0.119,-1.7692543468871058,-0.0007502203807234764,2.987344741821289,-1.6353051662445068,0.001041459501720965,2.1678900718688965,4.637952967281006,0.00014462327817454934,0.34108766913414,-1.6248686949359339,-7.829231617506593e-05,-0.05146598070859909,0.9957640171051025,0.0003048291546292603,0.05317806825041771,0.737292468547821,0.0052609131671488285,0.21194423735141754
223.0,337.0,2.6076,-0.5019,9.204,-0.0452,0.0308,-0.119,-1.769294878045553,-0.0008371280273422599,2.981013774871826,-1.635244607925415,0.0006697943317703903,2.1810302734375,4.6379896837421875,0.0002826344280038029,0.36536264419555664,-1.6248529593097132,-7.565969281131402e-05,-0.06028767675161362,0.9957918524742126,0.0002791989245451987,0.05773404240608215,0.7372682094573975,0.006241059396415949,0.22722315788269043
223.0,337.0,2.6076,-0.5019,9.204,-0.0452,0.0308,-0.119,-1.7692867718138636,-0.001156157930381596,3.011624336242676,-1.6352689266204834,0.0006192066939547658,2.1689462661743164,4.637993975276611,0.0003669614961836487,0.3604605793952942,-1.6248810927020472,-7.319823635043576e-05,-0.0605941116809845,0.9957958459854126,0.00029245519544929266,0.040278688073158264,0.7372801303863525,0.007152168080210686,0.22104042768478394
223.0,337.0,2.6076,-0.5019,9.204,-0.0452,0.0308,-0.119,-1.7692262134947718,-0.0010971081210300326,2.9517922401428223,-1.6352890729904175,0.0005036544753238559,2.169964075088501,4.637953444118164,0.00031596003100275993,0.3534170985221863,-1.624885384236471,-7.08919542375952e-05,-0.06905430555343628,0.9957759380340576,0.0002710322441998869,0.0352063924074173,0.7373806238174438,0.008171478286385536,0.1868499219417572
223.0,337.0,2.6076,-0.5019,9.204,-0.0452,0.0308,-0.119,-1.7693029842772425,-0.0012351088225841522,2.92667293548584,-1.635289192199707,0.000495153246447444,2.1586363315582275,4.6379615503498535,0.0002770363353192806,0.3568182587623596,-1.6248810927020472,-6.872654194012284e-05,-0.055557020008563995,0.9958239197731018,0.0002936732198577374,0.0421915128827095,0.7373762130737305,0.009201016277074814,0.17676246166229248
223.0,337.0,2.6076,-0.5019,9.204,-0.0452,0.0308,-0.119,-1.7692905865111292,-0.0013027586974203587,2.96195650100708,-1.635280728340149,0.00048170704394578934,2.166515827178955,4.637973948115967,0.00027069958741776645,0.351167768239975,-1.6248930136310022,-6.668951391475275e-05,-0.06321736425161362,0.9957719445228577,0.00031168025452643633,0.05358500778675079,0.7373920679092407,0.009723011404275894,0.24837541580200195
223.0,337.0,2.6076,-0.5019,9.204,-0.0452,0.0308,-0.119,-1.7693187199034632,-0.0012429262278601527,2.997880697250366,-1.6353015899658203,0.0003917853464372456,2.1716818809509277,4.637917204494141,0.0002666256041266024,0.35347890853881836,-1.6248810927020472,-6.476973067037761e-05,-0.06441552191972733,0.9957997798919678,0.00032059766817837954,0.03991907835006714,0.737440288066864,0.011393493041396141,0.21928220987319946
223.0,337.0,2.6076,-0.5019,9.204,-0.0452,0.0308,-0.119,-1.769250055352682,-0.0014304344076663256,2.969372272491455,-1.6353175640106201,0.00038065435364842415,2.2060835361480713,4.63795725881543,0.0002427445288049057,0.35359179973602295,-1.6249130407916468,-6.295737694017589e-05,-0.07424966990947723,0.9957321286201477,0.0002961115969810635,0.04670786112546921,0.7375002503395081,0.012207556515932083,0.22671248018741608
223.0,337.0,2.6076,-0.5019,9.204,-0.0452,0.0308,-0.119,-1.7692543468871058,-0.0016515000024810433,2.9441585540771484,-1.6352404356002808,0.00042363116517663,2.1547608375549316,4.637921019191406,0.0002138935960829258,0.355416476726532,-1.6248849073993128,-7.24013734725304e-05,-0.05309135466814041,0.9957640171051025,0.00029737953445874155,0.04648111015558243,0.7375117540359497,0.014626950025558472,0.2504652738571167
223.0,337.0,2.6076,-0.5019,9.204,-0.0452,0.0308,-0.119,-1.76930632213735,-0.0016225686995312572,2.986508369445801,-1.6352651119232178,0.0008779300842434168,2.199901819229126,4.637929602260254,0.00019819046428892761,0.3541603088378906,-1.6248729864703577,-7.060917414491996e-05,-0.07064952701330185,0.9957559704780579,0.0003602220385801047,0.06191828101873398,0.7376282215118408,0.015951264649629593,0.25510168075561523
223.0,337.0,2.6076,-0.5019,9.204,-0.0452,0.0308,-0.119,-1.7692944012083949,-0.001671649981290102,2.91867733001709,-1.6352852582931519,0.0013255594531074166,2.134052276611328,4.637965365047119,0.00021332775941118598,0.3601996898651123,-1.6248329321490687,-6.881010631332174e-05,-0.06159096583724022,0.9957878589630127,0.00037247414002195,0.06523916125297546,0.7376881837844849,0.017180100083351135,0.21426230669021606
220.0,360.0,2.4383,0.0658,9.0628,-0.0244,0.0194,-0.1049,-1.7693225346007289,-0.0017198853893205523,2.962428569793701,-1.6352248191833496,0.0017301285406574607,2.1610043048858643,4.63792531072583,0.00020161038264632225,0.35574737191200256,-1.6248567740069788,-6.71000816510059e-05,-0.07781507819890976,0.9958360195159912,0.00037498955498449504,0.05289207026362419,0.7377923727035522,0.01817542314529419,0.2848459780216217
220.0,360.0,2.4383,0.0658,9.0628,-0.0244,0.0194,-0.1049,-1.7693706951537074,-0.0018761319806799293,2.9749157428741455,-1.6352449655532837,0.0021338819060474634,2.1935298442840576,4.6379734712788085,0.00021563070185948163,0.3532567322254181,-1.6248930136310022,-6.547295197378844e-05,-0.08331054449081421,0.9958674311637878,0.000340944534400478,0.0541410967707634,0.7378523349761963,0.01962435431778431,0.2533283531665802
220.0,360.0,2.4383,0.0658,9.0628,-0.0244,0.0194,-0.1049,-1.7693706951537074,-0.002294232603162527,2.931580066680908,-1.6352325677871704,0.002127861836925149,2.232152223587036,4.637945337886475,0.00018236869073007256,0.3614053726196289,-1.6249011198626917,-7.318828284041956e-05,-0.07497149705886841,0.9958077073097229,0.00034859482548199594,0.05817904323339462,0.7378798723220825,0.02004621922969818,0.24748578667640686
220.0,360.0,2.4383,0.0658,9.0628,-0.0244,0.0194,-0.1049,-1.7693869076170863,-0.003063913667574525,2.9058151245117188,-1.635237216949463,0.0020157317630946636,2.163054943084717,4.637985392207764,0.00019701644487213343,0.3490433096885681,-1.624885384236471,-7.284604362212121e-05,-0.07082974165678024,0.9957759380340576,0.0003697166102938354,0.04430058225989342,0.7379881143569946,0.02061358094215393,0.28093284368515015
220.0,360.0,2.4383,0.0658,9.0628,-0.0244,0.0194,-0.1049,-1.76939119915151,-0.004012982826679945,2.9256491661071777,-1.6352450847625732,0.0018557228613644838,2.146359920501709,4.637945337886475,0.00021540955640375614,0.35536929965019226,-1.624880615864889,-7.120515510905534e-05,-0.08274474740028381,0.9958156943321228,0.00038466439582407475,0.05263088643550873,0.7381327748298645,0.021365199238061905,0.26548343896865845
220.0,360.0,2.4383,0.0658,9.0628,-0.0244,0.0194,-0.1049,-1.7693869076170863,-0.004991129506379366,2.9072608947753906,-1.635209321975708,0.0017810106510296464,2.1813416481018066,4.63794915258374,0.00023123669961933047,0.36009806394577026,-1.6248772780047815,-6.963121995795518e-05,-0.07564037293195724,0.9958156943321228,0.0003948407247662544,0.05144651606678963,0.7381641864776611,0.021321525797247887,0.27802610397338867
220.0,360.0,2.4383,0.0658,9.0628,-0.0244,0.0194,-0.1049,-1.769463678399557,-0.006146531086415052,2.8911643028259277,-1.6351850032806396,0.001649179495871067,2.1410577297210693,4.637997313136719,0.0005168892093934119,0.362867146730423,-1.6248529593097132,-2.9684883884328883e-07,-0.07490655034780502,0.9957919716835022,0.0005306286038830876,0.07157497107982635,0.7382523417472839,0.02201402373611927,0.30262041091918945
220.0,360.0,2.4383,0.0658,9.0628,-0.0244,0.0194,-0.1049,-1.7694908581175746,-0.0065800705924630165,2.8956358432769775,-1.6351968050003052,0.0018046024488285184,2.168149948120117,4.63795725881543,0.0005025311838835478,0.3557397723197937,-1.6248891989337366,-1.265513249748551e-09,-0.07518211007118225,0.995851993560791,0.0006745882565155625,0.062970831990242,0.7383603453636169,0.02183767408132553,0.26557719707489014
220.0,360.0,2.4383,0.0658,9.0628,-0.0244,0.0194,-0.1049,-1.7694388828673304,-0.006922713480889797,2.8737640380859375,-1.635217547416687,0.0017170137725770473,2.18217134475708,4.6379896837421875,0.0004320348962210119,0.3605075776576996,-1.6248653570758265,-5.395080215908621e-12,-0.08581425249576569,0.9958236813545227,0.0008727835374884307,0.07290386408567429,0.7384324073791504,0.022292738780379295,0.31576523184776306
220.0,360.0,2.4383,0.0658,9.0628,-0.0244,0.0194,-0.1049,-1.7695189915099085,-0.008032053709030151,2.9144768714904785,-1.6351611614227295,0.0021469048224389553,2.191585063934326,4.637932940120361,0.0004260545829311013,0.3542124032974243,-1.6249249617206019,-2.3000073457661412e-14,-0.08249488472938538,0.995827317237854,0.0011753953294828534,0.06293917447328568,0.7384799718856812,0.02326047793030739,0.25989067554473877
220.0,360.0,2.4383,0.0658,9.0628,-0.0244,0.0194,-0.1049,-1.76955046276235,-0.00855875015258789,2.868553400039673,-1.6352050304412842,0.002370416885241866,2.189028024673462,4.637993975276611,0.00038177749956957996,0.3524371385574341,-1.6248448530780237,-9.805291116851713e-17,-0.07875017076730728,0.9958836436271667,0.002232800703495741,0.062142349779605865,0.7386202216148376,0.023176783695816994,0.21499857306480408
220.0,360.0,2.4383,0.0658,9.0628,-0.0244,0.0194,-0.1049,-1.7695747814574183,-0.009639634750783443,2.8998026847839355,-1.6351771354675293,0.0024593141861259937,2.185237407684326,4.637932940120361,0.0003405202296562493,0.3470936715602875,-1.624857250844137,-4.180149729212424e-19,-0.07471498847007751,0.9959120750427246,0.0032879828941076994,0.07077109813690186,0.7386999726295471,0.023668115958571434,0.2667977809906006
220.0,360.0,2.4383,0.0658,9.0628,-0.0244,0.0194,-0.1049,-1.7696267567076625,-0.011432191357016563,2.868199348449707,-1.6351252794265747,0.0022461065091192722,2.1682002544403076,4.637965365047119,0.0002929953334387392,0.3514595031738281,-1.624857250844137,-1.16356011643464e-22,-0.06754568219184875,0.9958634972572327,0.008224905468523502,0.07363896071910858,0.7388643026351929,0.024218948557972908,0.3178921639919281
220.0,360.0,2.4383,0.0658,9.0628,-0.0244,0.0194,-0.1049,-1.7696830234923304,-0.012382935732603073,2.8708109855651855,-1.6351450681686401,0.002020374871790409,2.14384126663208,4.637889071101807,0.00026805614470504224,0.35151857137680054,-1.6248810927020472,-4.960439216348639e-25,-0.07641863077878952,0.9959795475006104,0.010507357306778431,0.059485889971256256,0.7389522790908813,0.02544049173593521,0.2464994490146637
220.0,360.0,2.4383,0.0658,9.0628,-0.0244,0.0194,-0.1049,-1.7697187862791957,-0.01300650741904974,2.8451995849609375,-1.635189414024353,0.00173986388836056,2.1906628608703613,4.637932940120361,0.00017442753596697003,0.35186004638671875,-1.6248567740069788,-2.1147130642099726e-27,-0.07347234338521957,0.9959474205970764,0.009255876764655113,0.06856320798397064,0.7390521168708801,0.02533242292702198,0.269149512052536
220.0,360.0,2.4383,0.0658,9.0628,-0.0244,0.0194,-0.1049,-1.7698518238463343,-0.01371520385146141,2.794323205947876,-1.6351368427276611,0.0016932806465774775,2.1859514713287354,4.6379615503498535,8.939855615608394e-05,0.3455689549446106,-1.6248810927020472,-9.015353301315104e-30,-0.07263197004795074,0.9960236549377441,0.0052049485966563225,0.07878538966178894,0.7391639947891235,0.025792472064495087,0.2351895123720169
220.0,360.0,2.4383,0.0658,9.0628,-0.0244,0.0194,-0.1049,-1.769867559472555,-0.014206920750439167,2.799539089202881,-1.6351326704025269,0.0016427801456302404,2.1582834720611572,4.63795725881543,8.105354936560616e-05,0.3420889377593994,-1.6248415152179163,-3.8433860438729815e-32,-0.07027171552181244,0.9959830641746521,0.0019592067692428827,0.056879885494709015,0.7392480969429016,0.026400387287139893,0.21482086181640625
220.0,360.0,2.4383,0.0658,9.0628,-0.0244,0.0194,-0.1049,-1.7698551617064417,-0.014704031869769096,2.8001227378845215,-1.6350727081298828,0.001584775629453361,2.164341449737549,4.63795725881543,7.435445877490565e-05,0.35248225927352905,-1.624857250844137,-1.638495632083522e-34,-0.06897537410259247,0.9959632158279419,0.0008391774026677012,0.059100791811943054,0.7393679618835449,0.02662040665745735,0.24822688102722168
220.0,360.0,2.4383,0.0658,9.0628,-0.0244,0.0194,-0.1049,-1.7699796162047328,-0.014872497878968716,2.790436267852783,-1.6351615190505981,0.0016306197503581643,2.135416269302368,4.637969656581543,6.867941556265578e-05,0.34078988432884216,-1.6248329321490687,-6.98516343795829e-37,-0.0723402351140976,0.9959750175476074,0.0002863131230697036,0.0832698866724968,0.7394719123840332,0.02722529135644436,0.2199118733406067
220.0,360.0,2.4383,0.0658,9.0628,-0.0244,0.0194,-0.1049,-1.7700196705260218,-0.015232951380312443,2.765716791152954,-1.6351532936096191,0.001583793549798429,2.1779420375823975,4.637977762813232,6.380920967785642e-05,0.3511248826980591,-1.6248491446124476,-2.977883952253561e-39,-0.07246161252260208,0.9959869980812073,0.00012678831990342587,0.06884525716304779,0.7396244406700134,0.027944697067141533,0.21687406301498413
220.0,360.0,2.4383,0.0658,9.0628,-0.0244,0.0194,-0.1049,-1.7701078854002894,-0.015859415754675865,2.767427921295166,-1.6351009607315063,0.0013343464815989137,2.141558885574341,4.63792531072583,5.9584279370028526e-05,0.344096839427948,-1.6249011198626917,-1.2695764086782843e-41,-0.07095517218112946,0.9959869980812073,9.858033445198089e-05,0.06675294786691666,0.7396717667579651,0.02929341048002243,0.27221786975860596
220.0,360.0,2.4383,0.0658,9.0628,-0.0244,0.0194,-0.1049,-1.7700988254942835,-0.01627388410270214,2.7502541542053223,-1.6350932121276855,0.001292104017920792,2.1652841567993164,4.63792531072583,5.588409840129316e-05,0.3372739851474762,-1.624857250844137,-5.465064010866787e-44,-0.0696227103471756,0.9960030317306519,8.084208093350753e-05,0.07069820165634155,0.7398160696029663,0.030928777530789375,0.28090134263038635
221.0,347.0,2.5603,-0.2847,8.9312,-0.04,0.0029,-0.0942,-1.7702518902220667,-0.016324786469340324,2.7611031532287598,-1.635129451751709,0.0011228458024561405,2.1567916870117188,4.637965365047119,5.261658952804282e-05,0.33775562047958374,-1.6248529593097132,-0.0,-0.062324173748493195,0.9959830045700073,6.852064689155668e-05,0.07257489114999771,0.7398955821990967,0.03320082277059555,0.21852095425128937
221.0,347.0,2.5603,-0.2847,8.9312,-0.04,0.0029,-0.0942,-1.770275732079977,-0.016340618953108788,2.728403091430664,-1.6351009607315063,0.0009643146186135709,2.1520607471466064,4.637981577510498,4.971015368937515e-05,0.3342978358268738,-1.6248491446124476,-0.0,-0.06819745898246765,0.9959750771522522,5.946018791291863e-05,0.07189770042896271,0.7400920391082764,0.03561626747250557,0.19214823842048645
221.0,347.0,2.5603,-0.2847,8.9312,-0.04,0.0029,-0.0942,-1.7704044781126917,-0.015988338738679886,2.720010757446289,-1.6351417303085327,0.000832047953736037,2.1231987476348877,4.637952967281006,4.7107983846217394e-05,0.3457995653152466,-1.6248448530780237,-0.0,-0.0680968165397644,0.9959949851036072,5.251730908639729e-05,0.07808872312307358,0.7402037382125854,0.0391869843006134,0.24569839239120483
221.0,347.0,2.5603,-0.2847,8.9312,-0.04,0.0029,-0.0942,-1.7704278431334437,-0.016277292743325233,2.7582504749298096,-1.635073184967041,0.00068432348780334,2.106889247894287,4.637965841884277,4.476482718018815e-05,0.33808159828186035,-1.6248372236834925,-0.0,-0.06641014665365219,0.9960347414016724,4.702692967839539e-05,0.07367456704378128,0.7403596639633179,0.04052671045064926,0.20325390994548798
221.0,347.0,2.5603,-0.2847,8.9312,-0.04,0.0029,-0.0942,-1.7704640827574671,-0.016448553651571274,2.715557098388672,-1.635129451751709,0.0005749862175434828,2.1601576805114746,4.637993975276611,4.2643667256925255e-05,0.3475651144981384,-1.6248534361468714,-2.148646308341995e-05,-0.06692790985107422,0.995935320854187,4.2576095438562334e-05,0.07342036068439484,0.7405641078948975,0.043297555297613144,0.2387547343969345
221.0,347.0,2.5603,-0.2847,8.9312,-0.04,0.0029,-0.0942,-1.7705804310240687,-0.01740235462784767,2.6942367553710938,-1.6351009607315063,0.00046383452718146145,2.142108917236328,4.637965365047119,3.981385088991374e-05,0.33215051889419556,-1.6248248259173792,-2.062829298665747e-05,-0.05666840076446533,0.9960069060325623,7.326907507376745e-05,0.06955529004335403,0.7407957911491394,0.04577164724469185,0.21993309259414673
221.0,347.0,2.5603,-0.2847,8.9312,-0.04,0.0029,-0.0942,-1.770700593987936,-0.018442751839756966,2.6796936988830566,-1.6351051330566406,0.00041088726720772684,2.1672544479370117,4.637973948115967,3.8127163861645386e-05,0.3346269428730011,-1.624857250844137,-2.0166056856396608e-05,-0.05625268816947937,0.9959472417831421,6.885499897180125e-05,0.06912776827812195,0.7410322427749634,0.04684612900018692,0.1723540872335434
221.0,347.0,2.5603,-0.2847,8.9312,-0.04,0.0029,-0.0942,-1.7707039318480433,-0.01991799846291542,2.6337132453918457,-1.6350735425949097,0.0003687908174470067,2.197831630706787,4.637997313136719,3.657757042674348e-05,0.3399882912635803,-1.6247885862933558,-1.61437742463022e-06,-0.04733830690383911,0.9960706233978271,6.396564276656136e-05,0.07869577407836914,0.7412081956863403,0.047185592353343964,0.18344756960868835
221.0,347.0,2.5603,-0.2847,8.9312,-0.04,0.0029,-0.0942,-1.770792623559469,-0.020550373941659927,2.662482261657715,-1.635113000869751,0.0002490052138455212,2.1871395111083984,4.637929602260254,3.514899799483828e-05,0.33455637097358704,-1.6248248259173792,-6.882344472103341e-09,-0.05687710642814636,0.9960147738456726,5.972067447146401e-05,0.06697316467761993,0.7413635849952698,0.047087542712688446,0.11015387624502182
221.0,347.0,2.5603,-0.2847,8.9312,-0.04,0.0029,-0.0942,-1.77089323619985,-0.022487899288535118,2.5989809036254883,-1.6351418495178223,0.0002679990138858557,2.133004665374756,4.637941046352051,3.3827855077106506e-05,0.3263890743255615,-1.6248248259173792,-2.934051612779598e-11,-0.055144988000392914,0.9960148334503174,5.600395888905041e-05,0.06566163897514343,0.7415276169776917,0.046424247324466705,0.1719263195991516
221.0,347.0,2.5603,-0.2847,8.9312,-0.04,0.0029,-0.0942,-1.7709485493102015,-0.024320458993315697,2.6638994216918945,-1.6350445747375488,0.0003240773512516171,2.1507203578948975,4.637965365047119,3.260240191593766e-05,0.325886070728302,-1.624829117451803,-1.250832120172629e-13,-0.039819762110710144,0.9959272742271423,7.862432539695874e-05,0.07288356125354767,0.7416951656341553,0.0449334979057312,0.1402532011270523
221.0,347.0,2.5603,-0.2847,8.9312,-0.04,0.0029,-0.0942,-1.7711054287352503,-0.027433471754193306,2.620901107788086,-1.635084867477417,0.0008523457800038159,2.13299560546875,4.637977762813232,3.1462652259506285e-05,0.3265473544597626,-1.6248090902911585,-5.332493272461488e-16,-0.04140739142894745,0.9959830641746521,7.470563286915421e-05,0.07615973055362701,0.7419196963310242,0.043284542858600616,0.16264119744300842
221.0,347.0,2.5603,-0.2847,8.9312,-0.04,0.0029,-0.0942,-1.7711450062193812,-0.028596093878149986,2.6720519065856934,-1.635045051574707,0.0017023201799020171,2.164275884628296,4.6379896837421875,3.0399927709368058e-05,0.34033429622650146,-1.624772850667135,-2.273325381433307e-18,-0.05826462805271149,0.9959949851036072,7.078988710418344e-05,0.07513667643070221,0.7420997619628906,0.041087523102760315,0.09137464314699173
221.0,347.0,2.5603,-0.2847,8.9312,-0.04,0.0029,-0.0942,-1.77130188564443,-0.030542755499482155,2.6033506393432617,-1.6350611448287964,0.0024536901619285345,2.1248769760131836,4.638005896205566,2.9406624889816158e-05,0.3452460765838623,-1.6248534361468714,-9.691543709116775e-21,-0.03818922117352486,0.9959830641746521,6.726262654410675e-05,0.0881417766213417,0.7422435283660889,0.0386723168194294,0.08719824254512787
221.0,347.0,2.5603,-0.2847,8.9312,-0.04,0.0029,-0.0942,-1.7713810406126917,-0.034038372337818146,2.594149112701416,-1.6350010633468628,0.0035696469713002443,2.1277637481689453,4.638005896205566,2.8476188163040206e-05,0.3305855095386505,-1.6248248259173792,-4.131657097828877e-23,-0.03350507840514183,0.9959750771522522,6.407019827747717e-05,0.06321468949317932,0.7423631548881531,0.035949647426605225,0.057812660932540894
221.0,347.0,2.5603,-0.2847,8.9312,-0.04,0.0029,-0.0942,-1.7715212307372035,-0.03540457785129547,2.603785514831543,-1.6350371837615967,0.005071606952697039,2.143733501434326,4.63794915258374,4.134350820095278e-05,0.33601173758506775,-1.624857250844137,-1.7613900763333359e-25,-0.045604124665260315,0.9960267543792725,6.116717122495174e-05,0.08671918511390686,0.7425233721733093,0.0324087031185627,0.06702784448862076
221.0,347.0,2.5603,-0.2847,8.9312,-0.04,0.0029,-0.0942,-1.7716576061644496,-0.03718483820557594,2.587486743927002,-1.635041356086731,0.00609288876876235,2.1683201789855957,4.637993975276611,4.0171875298256055e-05,0.3441757559776306,-1.6248090902911585,-7.509081445509281e-28,-0.03747418522834778,0.9959710836410522,5.851574314874597e-05,0.08105619996786118,0.7426631450653076,0.030624039471149445,0.022881392389535904
221.0,347.0,2.5603,-0.2847,8.9312,-0.04,0.0029,-0.0942,-1.7718259296812953,-0.040032584220170975,2.6346230506896973,-1.6349488496780396,0.007231432478874922,2.1393518447875977,4.637985392207764,5.190255615161732e-05,0.3311515748500824,-1.6248329321490687,-3.2012393761593145e-30,-0.03169380873441696,0.9959830045700073,5.6084660172928125e-05,0.06587633490562439,0.7427348494529724,0.027042679488658905,0.03179178759455681
221.0,347.0,2.5603,-0.2847,8.9312,-0.04,0.0029,-0.0942,-1.7719866238036097,-0.0423378087580204,2.6006217002868652,-1.6349290609359741,0.008273023180663586,2.11832857131958,4.637993498439453,3.60941412509419e-05,0.33696359395980835,-1.6248534361468714,-1.3647383618555184e-32,-0.02610127255320549,0.9959949851036072,5.384755786508322e-05,0.07378540933132172,0.7429154515266418,0.023901453241705894,0.01300259679555893
221.0,347.0,2.5603,-0.2847,8.9312,-0.04,0.0029,-0.0942,-1.7722112141051234,-0.04547157511115074,2.5854039192199707,-1.6349574327468872,0.009067386388778687,2.1481854915618896,4.6379896837421875,4.07595798606053e-05,0.34109488129615784,-1.6248052755938929,-5.818093792154935e-35,-0.042694106698036194,0.9959872961044312,5.178205174161121e-05,0.07089465111494064,0.7429590821266174,0.020136523991823196,0.019399818032979965
221.0,347.0,2.5603,-0.2847,8.9312,-0.04,0.0029,-0.0942,-1.772475381890768,-0.05099780485033989,2.618722438812256,-1.6348854303359985,0.00844230130314827,2.1866376399993896,4.637993498439453,5.4149666539160535e-05,0.34271112084388733,-1.6247966925250452,-1.6194875015826663e-38,-0.0258628036826849,0.9959631562232971,4.896480095339939e-05,0.0845833420753479,0.7430509328842163,0.016007382422685623,0.025468911975622177
