ramyac6/ROB537/final_project/csv/bad/bad_180.csv
tof_0,tof_1,accelx,accely,accelz,gyrox,gyroy,gyroz,shoulder_lift_joint_position,shoulder_lift_joint_velocity,shoulder_lift_joint_effort,elbow_joint_position,elbow_joint_velocity,elbow_joint_effort,wrist_1_joint_position,wrist_1_joint_velocity,wrist_1_joint_effort,wrist_2_joint_position,wrist_2_joint_velocity,wrist_2_joint_effort,wrist_3_joint_position,wrist_3_joint_velocity,wrist_3_joint_effort,shoulder_pan_joint_position,shoulder_pan_joint_velocity,shoulder_pan_joint_effort
235.0,249.0,2.7511,-1.7964,8.8385,-0.0428,0.0228,-0.1129,-1.7896067104735316,0.0,3.1150057315826416,-1.4321898221969604,-0.0,2.1819159984588623,4.350387259120605,0.0,0.3088148236274719,-1.6249006430255335,-0.0,0.006946435198187828,1.189305305480957,0.0,-0.0007896561874076724,0.7432191371917725,0.0,-0.008003568276762962
235.0,249.0,2.7511,-1.7964,8.8385,-0.0428,0.0228,-0.1129,-1.7896629772581996,0.0,3.136770725250244,-1.43218994140625,-0.0,2.193032741546631,4.350379629726074,0.0,0.301361620426178,-1.624908749257223,-0.0,2.0002597011625767e-05,1.1893494129180908,0.0,-0.0052907271310687065,0.7431708574295044,0.0,0.027236318215727806
235.0,249.0,2.7511,-1.7964,8.8385,-0.0428,0.0228,-0.1129,-1.7896186314024867,0.0,3.122110366821289,-1.4321696758270264,-0.0,2.1762747764587402,4.35040728628125,0.0,0.29764577746391296,-1.6248810927020472,-0.0,0.0033429686445742846,1.1893258094787598,0.0,-0.00937371701002121,0.7432068586349487,0.0,0.008496148511767387
235.0,249.0,2.7511,-1.7964,8.8385,-0.0428,0.0228,-0.1129,-1.789659162560934,0.0,3.1543869972229004,-1.4322255849838257,-0.0,2.20957612991333,4.350394888515137,0.0,0.3125460147857666,-1.624841038380758,-0.0,0.0057013495825231075,1.189321517944336,0.0,-0.0003820667043328285,0.743182897567749,0.0,0.0105604138225317
235.0,249.0,2.7511,-1.7964,8.8385,-0.0428,0.0228,-0.1129,-1.78965487102651,0.0,3.1175460815429688,-1.4322336912155151,-0.0,2.197030544281006,4.350391550655029,0.0,0.2941453158855438,-1.6248610655414026,-0.0,-0.009446967393159866,1.1892774105072021,0.0,-0.003403672017157078,0.7431870102882385,0.0,0.0005542018334381282
235.0,249.0,2.7511,-1.7964,8.8385,-0.0428,0.0228,-0.1129,-1.789659162560934,0.0,3.1160361766815186,-1.4321935176849365,-0.0,2.195708751678467,4.3504273134418945,0.0,0.29972946643829346,-1.6248653570758265,-0.0,-0.006807146593928337,1.1892452239990234,0.0,-0.005150890909135342,0.7431589365005493,0.0,-0.05659098923206329
235.0,249.0,2.7511,-1.7964,8.8385,-0.0428,0.0228,-0.1129,-1.7896391354002894,0.0,3.150547981262207,-1.4321894645690918,-0.0,2.179070234298706,4.350403471583984,0.0,0.31751778721809387,-1.6248047987567347,-0.0,0.00960544217377901,1.1893374919891357,0.0,-0.016849126666784286,0.7432068586349487,0.0,0.004926976747810841
235.0,249.0,2.7511,-1.7964,8.8385,-0.0428,0.0228,-0.1129,-1.7896305523314417,0.0,3.1634340286254883,-1.4321815967559814,-0.0,2.2260119915008545,4.3504273134418945,0.0,0.30955809354782104,-1.6248648802386683,-0.0,0.0012917815474793315,1.1893093585968018,0.0,0.002813042374327779,0.7431948184967041,0.0,-0.03386734053492546
235.0,249.0,2.7511,-1.7964,8.8385,-0.0428,0.0228,-0.1129,-1.7896391354002894,0.0,3.1381797790527344,-1.4321976900100708,-0.0,2.1760387420654297,4.350391550655029,0.0,0.30055469274520874,-1.624841038380758,-0.0,0.0047859372571110725,1.1893373727798462,0.0,-0.017776254564523697,0.7431146502494812,0.0,0.0038450616411864758
235.0,249.0,2.7511,-1.7964,8.8385,-0.0428,0.0228,-0.1129,-1.789659162560934,0.0,3.1576766967773438,-1.4321775436401367,-0.0,2.190244436264038,4.350419207210205,0.0,0.28603988885879517,-1.6248772780047815,-0.0,0.00041801680345088243,1.1893014907836914,0.0,0.004536445252597332,0.7432070374488831,0.0,-0.0020321598276495934
229.0,244.0,2.7936,-1.8479,8.8032,-0.037,0.017,-0.1129,-1.789659162560934,0.0,3.1170806884765625,-1.432210087776184,-0.0,2.1895339488983154,4.350391550655029,0.0,0.2882741093635559,-1.6248210112201136,-0.0,0.011920491233468056,1.1892447471618652,0.0,-0.003451467026025057,0.7432231903076172,0.0,-0.04915964603424072
229.0,244.0,2.7936,-1.8479,8.8032,-0.037,0.017,-0.1129,-1.789581914941305,0.0,3.149400234222412,-1.4321935176849365,-0.0,2.258457660675049,4.350414915675781,0.0,0.2957817018032074,-1.624841038380758,-0.0,-0.002089747693389654,1.189345359802246,0.0,-0.01155824214220047,0.7431988716125488,0.0,0.005840991623699665
229.0,244.0,2.7936,-1.8479,8.8032,-0.037,0.017,-0.1129,-1.7895904980101527,0.0,3.1158175468444824,-1.4322296380996704,-0.0,2.2273411750793457,4.350423021907471,0.0,0.30974459648132324,-1.6248529593097132,-0.0,-0.002835023682564497,1.1892695426940918,0.0,-0.011627229861915112,0.7432068586349487,0.0,0.0031451641116291285
229.0,244.0,2.7936,-1.8479,8.8032,-0.037,0.017,-0.1129,-1.7895947895445765,0.0,3.164501428604126,-1.4321852922439575,-0.0,2.196915626525879,4.3504273134418945,0.0,0.30645090341567993,-1.6247976461993616,-0.0,0.003888692706823349,1.1893014907836914,0.0,-0.0064338576048612595,0.7431988716125488,0.0,0.013490084558725357
229.0,244.0,2.7936,-1.8479,8.8032,-0.037,0.017,-0.1129,-1.7895986042418421,0.0,3.110562324523926,-1.432213306427002,-0.0,2.2017109394073486,4.3504273134418945,0.0,0.29139500856399536,-1.6248334089862269,-0.0,0.005749584175646305,1.1892653703689575,0.0,0.004059487022459507,0.7432149648666382,0.0,0.01991179771721363
229.0,244.0,2.7936,-1.8479,8.8032,-0.037,0.017,-0.1129,-1.7896110020079554,0.0,3.1145451068878174,-1.4321976900100708,-0.0,2.22853946685791,4.350403471583984,0.0,0.29321759939193726,-1.6248372236834925,-0.0,0.005499756429344416,1.1893055438995361,0.0,-0.0020201511215418577,0.7431988716125488,0.0,0.01841953955590725
229.0,244.0,2.7936,-1.8479,8.8032,-0.037,0.017,-0.1129,-1.7896467647948207,0.0,3.147660970687866,-1.4321935176849365,-0.0,2.2262187004089355,4.350371523494385,0.0,0.300037145614624,-1.6248529593097132,-0.0,-0.006374352611601353,1.1893134117126465,0.0,0.003387616015970707,0.7431788444519043,0.0,0.034728676080703735
229.0,244.0,2.7936,-1.8479,8.8032,-0.037,0.017,-0.1129,-1.7896110020079554,0.0,3.1395068168640137,-1.432254433631897,-0.0,2.2022433280944824,4.3504273134418945,0.0,0.29509207606315613,-1.624857250844137,-0.0,-0.009983396157622337,1.189305305480957,0.0,-0.00029849051497876644,0.7431626915931702,0.0,-0.03886105865240097
229.0,244.0,2.7936,-1.8479,8.8032,-0.037,0.017,-0.1129,-1.7896348438658656,0.0,3.1675825119018555,-1.432173490524292,-0.0,2.2003750801086426,4.35040728628125,0.0,0.30243125557899475,-1.624841038380758,-0.0,-0.0002526920288801193,1.1892613172531128,0.0,0.005375043023377657,0.7431907057762146,0.0,-0.034431103616952896
229.0,244.0,2.7936,-1.8479,8.8032,-0.037,0.017,-0.1129,-1.78956999401235,0.0,3.1380743980407715,-1.4322257041931152,-0.0,2.2091643810272217,4.350414915675781,0.0,0.2985804080963135,-1.6248167196856897,-0.0,0.006041636690497398,1.189293384552002,0.0,-0.007701718248426914,0.7431828379631042,0.0,-0.06346981972455978
229.0,244.0,2.7936,-1.8479,8.8032,-0.037,0.017,-0.1129,-1.7895862064757289,0.0,3.1812386512756348,-1.43222975730896,-0.0,2.1649539470672607,4.350447340602539,0.0,0.28151339292526245,-1.6248372236834925,-0.0,-0.0026816644240170717,1.1892695426940918,0.0,-0.005009320564568043,0.7431626319885254,0.0,-0.02707001194357872
229.0,244.0,2.7936,-1.8479,8.8032,-0.037,0.017,-0.1129,-1.7896348438658656,0.0,3.1482584476470947,-1.4321894645690918,-0.0,2.1789333820343018,4.35043923437085,0.0,0.29572439193725586,-1.624841038380758,-0.0,0.009785864502191544,1.1892895698547363,0.0,0.011927858926355839,0.7431668043136597,0.0,-0.03178999945521355
229.0,244.0,2.7936,-1.8479,8.8032,-0.037,0.017,-0.1129,-1.789614816705221,0.0,3.1496832370758057,-1.432173490524292,-0.0,2.200382947921753,4.350395365352295,0.0,0.30508187413215637,-1.6248768011676233,-0.0,-0.0003465211484581232,1.1893212795257568,0.0,-0.006615514867007732,0.7431585788726807,0.0,-0.01671130768954754
229.0,244.0,2.7936,-1.8479,8.8032,-0.037,0.017,-0.1129,-1.7896305523314417,0.0,3.15950345993042,-1.432137370109558,-0.0,2.2148051261901855,4.3504273134418945,0.0,0.2876577377319336,-1.6248768011676233,-0.0,0.0058771842159330845,1.1893253326416016,0.0,0.00812496617436409,0.7432227730751038,0.0,0.0595996230840683
229.0,244.0,2.7936,-1.8479,8.8032,-0.037,0.017,-0.1129,-1.7896305523314417,0.0,3.202019691467285,-1.4321612119674683,-0.0,2.226484537124634,4.35043923437085,0.0,0.30064594745635986,-1.6248529593097132,-0.0,-0.006702895276248455,1.1892613172531128,0.0,-0.014413520693778992,0.7431585192680359,0.0,0.01770646683871746
229.0,244.0,2.7936,-1.8479,8.8032,-0.037,0.017,-0.1129,-1.789659162560934,0.0,3.117504358291626,-1.4321575164794922,-0.0,2.2053520679473877,4.35040728628125,0.0,0.30240195989608765,-1.6248529593097132,-0.0,-0.005452493205666542,1.1893454790115356,0.0,0.006251708138734102,0.7431386113166809,0.0,-0.0019156290218234062
229.0,244.0,2.7936,-1.8479,8.8032,-0.037,0.017,-0.1129,-1.789659162560934,0.0,3.1391749382019043,-1.432165265083313,-0.0,2.1920690536499023,4.350367231959961,0.0,0.3022751808166504,-1.6248891989337366,-0.0,-0.008753830567002296,1.1892814636230469,0.0,-0.009736863896250725,0.743206799030304,0.0,0.014393330551683903
229.0,244.0,2.7936,-1.8479,8.8032,-0.037,0.017,-0.1129,-1.7896067104735316,0.0,3.129776954650879,-1.4322173595428467,-0.0,2.1747334003448486,4.350411100978516,0.0,0.3049899637699127,-1.6248648802386683,-0.0,0.013241753913462162,1.1893253326416016,0.0,-0.010874627158045769,0.7431788444519043,0.0,0.025156117975711823
229.0,244.0,2.7936,-1.8479,8.8032,-0.037,0.017,-0.1129,-1.7896467647948207,0.0,3.1163814067840576,-1.4321656227111816,-0.0,2.1772780418395996,4.350435419673584,0.0,0.2970966398715973,-1.6248810927020472,-0.0,0.001862384844571352,1.1892613172531128,0.0,0.0056028771214187145,0.7431906461715698,0.0,0.020675359293818474
229.0,244.0,2.7936,-1.8479,8.8032,-0.037,0.017,-0.1129,-1.7895986042418421,0.0,3.129767894744873,-1.4322537183761597,-0.0,2.2031972408294678,4.350423021907471,0.0,0.28983014822006226,-1.6248610655414026,-0.0,0.005444632843136787,1.1893093585968018,0.0,-0.002213201019912958,0.743226945400238,0.0,0.03019563853740692
227.0,251.0,2.7224,-1.8126,8.9222,-0.0399,0.0234,-0.1127,-1.7896424732603968,0.0,3.1153249740600586,-1.4322017431259155,-0.0,2.2220966815948486,4.3503991800495605,0.0,0.3003203868865967,-1.624857250844137,-0.0,-0.006330067757517099,1.1893376111984253,0.0,-0.0002731851127464324,0.7431466579437256,0.0,0.03798721730709076
227.0,251.0,2.7224,-1.8126,8.9222,-0.0399,0.0234,-0.1127,-1.7896305523314417,0.0,3.183136463165283,-1.4321935176849365,-0.0,2.1720898151397705,4.35040728628125,0.0,0.2763797342777252,-1.6248810927020472,-0.0,0.012640846893191338,1.189293384552002,0.0,-0.0030436960514634848,0.7432068586349487,0.0,-0.0074609718285501
227.0,251.0,2.7224,-1.8126,8.9222,-0.0399,0.0234,-0.1127,-1.7895986042418421,0.0,3.1040148735046387,-1.432173490524292,-0.0,2.164905309677124,4.350382967586182,0.0,0.3093831539154053,-1.6248529593097132,-0.0,0.0008521630661562085,1.1892895698547363,0.0,0.00492726219817996,0.743182897567749,0.0,-0.02874988131225109
227.0,251.0,2.7224,-1.8126,8.9222,-0.0399,0.0234,-0.1127,-1.7896510563292445,0.0,3.1149868965148926,-1.432153344154358,-0.0,2.2142627239227295,4.350411577815674,0.0,0.3071693480014801,-1.6248729864703577,-0.0,-0.004385047592222691,1.1893293857574463,0.0,0.005546503234654665,0.743215024471283,0.0,-0.01704425737261772
227.0,251.0,2.7224,-1.8126,8.9222,-0.0399,0.0234,-0.1127,-1.7896229229369105,0.0,3.1037254333496094,-1.4322060346603394,-0.0,2.1988253593444824,4.350447340602539,0.0,0.29722270369529724,-1.6248729864703577,-0.0,-0.0028685997240245342,1.1893130540847778,0.0,-0.00034087098902091384,0.743226945400238,0.0,0.007364134304225445
227.0,251.0,2.7224,-1.8126,8.9222,-0.0399,0.0234,-0.1127,-1.78965487102651,0.0,3.1424269676208496,-1.4321612119674683,-0.0,2.2224550247192383,4.3504273134418945,0.0,0.2968875467777252,-1.6248491446124476,-0.0,-0.0017427862621843815,1.189353585243225,0.0,0.005761866923421621,0.7431870698928833,0.0,-0.023975137621164322
227.0,251.0,2.7224,-1.8126,8.9222,-0.0399,0.0234,-0.1127,-1.789614816705221,0.0,3.075756549835205,-1.4321935176849365,-0.0,2.174630641937256,4.350411100978516,0.0,0.2998065948486328,-1.6249049345599573,-0.0,-0.012504891492426395,1.1892448663711548,0.0,-0.009312285110354424,0.7432109117507935,0.0,0.008001932874321938
227.0,251.0,2.7224,-1.8126,8.9222,-0.0399,0.0234,-0.1127,-1.789614816705221,0.0,3.1651611328125,-1.4322060346603394,-0.0,2.1756842136383057,4.350455923671387,0.0,0.3004492521286011,-1.6248648802386683,-0.0,0.017747050151228905,1.1893131732940674,0.0,0.0043654972687363625,0.7432389855384827,0.0,-0.011159161105751991
227.0,251.0,2.7224,-1.8126,8.9222,-0.0399,0.0234,-0.1127,-1.789642950097555,0.0,3.1602540016174316,-1.4321937561035156,-0.0,2.2147469520568848,4.350394888515137,0.0,0.2986084222793579,-1.6248768011676233,-0.0,0.0007706701289862394,1.18924880027771,0.0,0.0016718714032322168,0.7431870102882385,0.0,0.011932953260838985
227.0,251.0,2.7224,-1.8126,8.9222,-0.0399,0.0234,-0.1127,-1.7896667919554652,0.0,3.1632297039031982,-1.4321856498718262,-0.0,2.1924831867218018,4.35043112813916,0.0,0.2970575988292694,-1.6248968283282679,-0.0,-0.011992228217422962,1.189293384552002,0.0,-0.016592439264059067,0.7432109713554382,0.0,-5.8838166296482086e-05
227.0,251.0,2.7224,-1.8126,8.9222,-0.0399,0.0234,-0.1127,-1.78965487102651,0.0,3.100332736968994,-1.4321812391281128,-0.0,2.1674022674560547,4.350379152888916,0.0,0.30750197172164917,-1.6248210112201136,-0.0,-0.0033889515325427055,1.1892695426940918,0.0,-0.006751348730176687,0.7431705594062805,0.0,0.030215417966246605
227.0,251.0,2.7224,-1.8126,8.9222,-0.0399,0.0234,-0.1127,-1.7895986042418421,0.0,3.1495461463928223,-1.4322092533111572,-0.0,2.2174081802368164,4.350426836604736,0.0,0.3024890422821045,-1.6248930136310022,-0.0,-0.001940826652571559,1.1892693042755127,0.0,-0.012471256777644157,0.7431589365005493,0.0,0.04378867521882057
227.0,251.0,2.7224,-1.8126,8.9222,-0.0399,0.0234,-0.1127,-1.7896791897215785,0.0,3.1551687717437744,-1.432165265083313,-0.0,2.2426087856292725,4.350403471583984,0.0,0.29112619161605835,-1.6248529593097132,-0.0,0.008746407926082611,1.1893093585968018,0.0,-0.007975376211106777,0.7431870102882385,0.0,-0.014766647480428219
227.0,251.0,2.7224,-1.8126,8.9222,-0.0399,0.0234,-0.1127,-1.789642950097555,0.0,3.1374549865722656,-1.4321775436401367,-0.0,2.237990379333496,4.35043923437085,0.0,0.2846124768257141,-1.6248610655414026,-0.0,0.006442200392484665,1.189257264137268,0.0,-0.006554033607244492,0.7431466579437256,0.0,-0.004764518700540066
227.0,251.0,2.7224,-1.8126,8.9222,-0.0399,0.0234,-0.1127,-1.7896224460997523,0.0,3.112488269805908,-1.432161569595337,-0.0,2.202888011932373,4.3504673677631835,0.0,0.28942424058914185,-1.624841038380758,-0.0,-0.007416850887238979,1.1892246007919312,0.0,-1.7708574887365103e-05,0.7431787848472595,0.0,0.015551038086414337
227.0,251.0,2.7224,-1.8126,8.9222,-0.0399,0.0234,-0.1127,-1.7895904980101527,0.0,3.1429331302642822,-1.4322173595428467,-0.0,2.2018022537231445,4.350395365352295,0.0,0.28842151165008545,-1.6248129049884241,-0.0,0.01940895989537239,1.1893093585968018,0.0,-0.0061629051342606544,0.7432109713554382,0.0,-0.03077518939971924
227.0,251.0,2.7224,-1.8126,8.9222,-0.0399,0.0234,-0.1127,-1.789602895776266,0.0,3.131704092025757,-1.4322494268417358,-0.0,2.163792848587036,4.350423021907471,0.0,0.29874446988105774,-1.6248491446124476,-0.0,0.0075409309938549995,1.1892774105072021,0.0,3.902288153767586e-05,0.7431585192680359,0.0,0.03649941086769104
227.0,251.0,2.7224,-1.8126,8.9222,-0.0399,0.0234,-0.1127,-1.7896224460997523,0.0,3.1432762145996094,-1.4322060346603394,-0.0,2.187959909439087,4.350391550655029,0.0,0.2970775067806244,-1.6248248259173792,-0.0,-0.00836214143782854,1.1892974376678467,0.0,0.006918178405612707,0.7431749105453491,0.0,-0.006177807226777077
227.0,251.0,2.7224,-1.8126,8.9222,-0.0399,0.0234,-0.1127,-1.7896667919554652,0.0,3.1117663383483887,-1.432218313217163,-0.0,2.1710245609283447,4.350367231959961,0.0,0.30679261684417725,-1.6248768011676233,-0.0,-0.019611699506640434,1.1893335580825806,0.0,-0.0013981390511617064,0.7431948184967041,0.0,-0.007179006934165955
227.0,251.0,2.7224,-1.8126,8.9222,-0.0399,0.0234,-0.1127,-1.789614816705221,0.0,3.128436326980591,-1.4322223663330078,-0.0,2.213773250579834,4.35040728628125,0.0,0.28922268748283386,-1.6248968283282679,-0.0,-0.00034795794636011124,1.1892651319503784,0.0,-0.002071487484499812,0.7431787848472595,0.0,0.004835726693272591
236.0,249.0,2.7727,-1.7803,8.8158,-0.0377,0.0218,-0.1142,-1.7896348438658656,0.0,3.1429853439331055,-1.4322141408920288,-0.0,2.2176079750061035,4.350435419673584,0.0,0.288547158241272,-1.6248968283282679,-0.0,-0.008852105587720871,1.1893056631088257,0.0,-0.00979071855545044,0.7431988716125488,0.0,-0.01825321465730667
236.0,249.0,2.7727,-1.7803,8.8158,-0.0377,0.0218,-0.1142,-1.7896629772581996,0.0,3.1087470054626465,-1.4322699308395386,-0.0,2.221029758453369,4.3504273134418945,0.0,0.30326953530311584,-1.6248167196856897,-0.0,-0.008929568342864513,1.1892814636230469,0.0,0.00028243535780347884,0.743182897567749,0.0,-0.015530885197222233
236.0,249.0,2.7727,-1.7803,8.8158,-0.0377,0.0218,-0.1142,-1.7896467647948207,0.0,3.1706058979034424,-1.432221531867981,-0.0,2.202475070953369,4.350423021907471,0.0,0.298198401927948,-1.6248648802386683,-0.0,-0.009268750436604023,1.1893254518508911,0.0,-0.0009390262421220541,0.7432150840759277,0.0,0.013830883428454399
236.0,249.0,2.7727,-1.7803,8.8158,-0.0377,0.0218,-0.1142,-1.7896110020079554,0.0,3.0884761810302734,-1.4321852922439575,-0.0,2.1673967838287354,4.350455923671387,0.0,0.2955628037452698,-1.6248849073993128,-0.0,-0.004271646961569786,1.1892733573913574,0.0,-0.006072737276554108,0.7431787848472595,0.0,0.018230188637971878
236.0,249.0,2.7727,-1.7803,8.8158,-0.0377,0.0218,-0.1142,-1.789602895776266,0.0,3.144890069961548,-1.432137370109558,-0.0,2.1940407752990723,4.350423021907471,0.0,0.30771225690841675,-1.624857250844137,-0.0,0.019946763291954994,1.1892613172531128,0.0,0.007011876441538334,0.7432270050048828,0.0,0.01592615805566311
236.0,249.0,2.7727,-1.7803,8.8158,-0.0377,0.0218,-0.1142,-1.789614816705221,0.0,3.1644062995910645,-1.4321575164794922,-0.0,2.1993062496185303,4.350475473994873,0.0,0.30620086193084717,-1.624829117451803,-0.0,0.010266879573464394,1.1893174648284912,0.0,-0.010279844515025616,0.7431585788726807,0.0,-0.01919339969754219
236.0,249.0,2.7727,-1.7803,8.8158,-0.0377,0.0218,-0.1142,-1.7896510563292445,0.0,3.156294822692871,-1.4321975708007812,-0.0,2.1973953247070312,4.350414915675781,0.0,0.2900730073451996,-1.624829117451803,-0.0,0.000489279511384666,1.1892974376678467,0.0,-0.016804320737719536,0.7432270050048828,0.0,0.03337171673774719
236.0,249.0,2.7727,-1.7803,8.8158,-0.0377,0.0218,-0.1142,-1.7896229229369105,0.0,3.1407501697540283,-1.4321693181991577,-0.0,2.213949203491211,4.35043923437085,0.0,0.2976706027984619,-1.6249130407916468,-0.0,0.001917556393891573,1.189297080039978,0.0,0.0019492375431582332,0.7432311177253723,0.0,0.020858805626630783
236.0,249.0,2.7727,-1.7803,8.8158,-0.0377,0.0218,-0.1142,-1.7896391354002894,0.0,3.1111063957214355,-1.4321693181991577,-0.0,2.1785998344421387,4.3503991800495605,0.0,0.29649755358695984,-1.6248729864703577,-0.0,-0.014804251492023468,1.1892573833465576,0.0,-0.00018747271678876132,0.743182897567749,0.0,-0.011729465797543526
236.0,249.0,2.7727,-1.7803,8.8158,-0.0377,0.0218,-0.1142,-1.7896186314024867,0.0,3.1373820304870605,-1.432173490524292,-0.0,2.1971874237060547,4.350403471583984,0.0,0.285639226436615,-1.6248491446124476,-0.0,0.0011973930522799492,1.189232587814331,0.0,-0.014252830296754837,0.7431749701499939,0.0,0.01036454364657402
236.0,249.0,2.7727,-1.7803,8.8158,-0.0377,0.0218,-0.1142,-1.789671083489889,0.0,3.1736879348754883,-1.4321331977844238,-0.0,2.1763534545898438,4.350395365352295,0.0,0.2988124489784241,-1.624829117451803,-0.0,0.010694359429180622,1.1893216371536255,0.0,0.0031173580791801214,0.7432233095169067,0.0,-0.004095276817679405
236.0,249.0,2.7727,-1.7803,8.8158,-0.0377,0.0218,-0.1142,-1.7896110020079554,0.0,3.117043972015381,-1.4321532249450684,-0.0,2.1779286861419678,4.350423021907471,0.0,0.30656006932258606,-1.6248648802386683,-0.0,0.00481098098680377,1.189293384552002,0.0,-0.0033870229963213205,0.7432070970535278,0.0,-0.0024260422214865685
236.0,249.0,2.7727,-1.7803,8.8158,-0.0377,0.0218,-0.1142,-1.78956999401235,0.0,3.1597959995269775,-1.4322296380996704,-0.0,2.1641011238098145,4.350451632136963,0.0,0.3048193156719208,-1.6248334089862269,-0.0,-0.006249971687793732,1.1892613172531128,0.0,-0.008364079520106316,0.7432027459144592,0.0,-0.0033834120258688927
236.0,249.0,2.7727,-1.7803,8.8158,-0.0377,0.0218,-0.1142,-1.7896110020079554,0.0,3.156883716583252,-1.4321812391281128,-0.0,2.2308828830718994,4.35040728628125,0.0,0.28861504793167114,-1.6248334089862269,-0.0,-0.002151241758838296,1.1892732381820679,0.0,-0.002417604671791196,0.7431988716125488,0.0,-0.013012201525270939
236.0,249.0,2.7727,-1.7803,8.8158,-0.0377,0.0218,-0.1142,-1.7896467647948207,0.0,3.143120288848877,-1.432137370109558,-0.0,2.185471773147583,4.350379629726074,0.0,0.3016473054885864,-1.6248849073993128,-0.0,-0.0012521471362560987,1.1893012523651123,0.0,0.0036977874115109444,0.7431787848472595,0.0,-7.175374776124954e-05
236.0,249.0,2.7727,-1.7803,8.8158,-0.0377,0.0218,-0.1142,-1.7896267376341761,0.0,3.161837577819824,-1.4321894645690918,-0.0,2.188011646270752,4.350423021907471,0.0,0.28842490911483765,-1.624845329915182,-0.0,-0.0007886221865192056,1.1892651319503784,0.0,0.0016216764925047755,0.743182897567749,0.0,-0.005970131140202284
236.0,249.0,2.7727,-1.7803,8.8158,-0.0377,0.0218,-0.1142,-1.7895986042418421,0.0,3.1613807678222656,-1.4321894645690918,-0.0,2.2194910049438477,4.350395365352295,0.0,0.29630717635154724,-1.624829117451803,-0.0,-0.0019046134548261762,1.1892772912979126,0.0,0.000251824501901865,0.7431585192680359,0.0,0.048867009580135345
236.0,249.0,2.7727,-1.7803,8.8158,-0.0377,0.0218,-0.1142,-1.78965487102651,0.0,3.1281728744506836,-1.4321212768554688,-0.0,2.191944122314453,4.350443049068115,0.0,0.29732948541641235,-1.6248768011676233,-0.0,0.00569352600723505,1.1893012523651123,0.0,0.016818290576338768,0.7432150840759277,0.0,0.015417222864925861
236.0,249.0,2.7727,-1.7803,8.8158,-0.0377,0.0218,-0.1142,-1.7896186314024867,0.0,3.1571483612060547,-1.4321935176849365,-0.0,2.2051382064819336,4.350411100978516,0.0,0.30504700541496277,-1.624857250844137,-0.0,-0.011265456676483154,1.18924880027771,0.0,-0.007127669639885426,0.7432027459144592,0.0,0.011829158291220665
233.0,249.0,2.8134,-1.7988,8.9157,-0.0415,0.0243,-0.1129,-1.789642950097555,0.0,3.1301589012145996,-1.4321656227111816,-0.0,2.18491792678833,4.350387259120605,0.0,0.30055081844329834,-1.6248167196856897,-0.0,0.007027530111372471,1.1893253326416016,0.0,-0.005701289512217045,0.7431507706642151,0.0,-0.03174707666039467
233.0,249.0,2.8134,-1.7988,8.9157,-0.0415,0.0243,-0.1129,-1.78965487102651,0.0,3.096414089202881,-1.432153344154358,-0.0,2.211268901824951,4.35040728628125,0.0,0.3056580722332001,-1.6248610655414026,-0.0,-0.0028993503656238317,1.1893254518508911,0.0,0.00406555226072669,0.7431507706642151,0.0,-0.0017268378287553787
233.0,249.0,2.8134,-1.7988,8.9157,-0.0415,0.0243,-0.1129,-1.7895986042418421,0.0,3.121952533721924,-1.432145595550537,-0.0,2.1991524696350098,4.350387259120605,0.0,0.30403757095336914,-1.62490159669985,-0.0,-0.012480298057198524,1.1892814636230469,0.0,-0.017401080578565598,0.7431626319885254,0.0,-0.016803722828626633
233.0,249.0,2.8134,-1.7988,8.9157,-0.0415,0.0243,-0.1129,-1.7895943127074183,0.0,3.141557455062866,-1.4321612119674683,-0.0,2.2038955688476562,4.350387259120605,0.0,0.28356248140335083,-1.6249006430255335,-0.0,-0.002352758077904582,1.1893093585968018,0.0,-0.004352843854576349,0.7431585192680359,0.0,-0.019698448479175568
233.0,249.0,2.8134,-1.7988,8.9157,-0.0415,0.0243,-0.1129,-1.78965487102651,0.0,3.1332406997680664,-1.4322255849838257,-0.0,2.2046384811401367,4.350426836604736,0.0,0.29792243242263794,-1.6248129049884241,-0.0,-0.005729229189455509,1.189265489578247,0.0,-0.0026367753744125366,0.743215024471283,0.0,-0.034788649529218674
233.0,249.0,2.8134,-1.7988,8.9157,-0.0415,0.0243,-0.1129,-1.7895738087096156,0.0,3.155240535736084,-1.4321978092193604,-0.0,2.2279610633850098,4.350435419673584,0.0,0.29463839530944824,-1.6248610655414026,-0.0,-0.004231638740748167,1.1892813444137573,0.0,-0.012191472575068474,0.743226945400238,0.0,0.002831278368830681
233.0,249.0,2.8134,-1.7988,8.9157,-0.0415,0.0243,-0.1129,-1.7896629772581996,0.0,3.1427345275878906,-1.4321575164794922,-0.0,2.1839218139648438,4.35037533819165,0.0,0.30606842041015625,-1.6248968283282679,-0.0,-0.004550044424831867,1.1892893314361572,0.0,-0.008819437585771084,0.7432228326797485,0.0,-0.001978904940187931
233.0,249.0,2.8134,-1.7988,8.9157,-0.0415,0.0243,-0.1129,-1.7896467647948207,0.0,3.1200320720672607,-1.432161569595337,-0.0,2.200523853302002,4.350455923671387,0.0,0.29449474811553955,-1.6248610655414026,-0.0,0.004745035897940397,1.1893376111984253,0.0,0.010536201298236847,0.7432109713554382,0.0,-0.06696033477783203
233.0,249.0,2.8134,-1.7988,8.9157,-0.0415,0.0243,-0.1129,-1.7896305523314417,0.0,3.101550817489624,-1.4322017431259155,-0.0,2.190850257873535,4.3504554468342285,0.0,0.30937743186950684,-1.6248129049884241,-0.0,-0.018838558346033096,1.189341425895691,0.0,-0.0026836353354156017,0.7431787848472595,0.0,0.018932752311229706
233.0,249.0,2.8134,-1.7988,8.9157,-0.0415,0.0243,-0.1129,-1.7896467647948207,0.0,3.1477537155151367,-1.4322173595428467,-0.0,2.1996099948883057,4.350379152888916,0.0,0.3008497357368469,-1.6248372236834925,-0.0,-0.009878300130367279,1.1892732381820679,0.0,-0.016802651807665825,0.7431870102882385,0.0,-0.03445274755358696
233.0,249.0,2.8134,-1.7988,8.9157,-0.0415,0.0243,-0.1129,-1.7896272144713343,0.0,3.1401329040527344,-1.4322216510772705,-0.0,2.185076951980591,4.350423021907471,0.0,0.2889849841594696,-1.6248810927020472,-0.0,-0.009361726231873035,1.1892695426940918,0.0,-0.004067649133503437,0.7431829571723938,0.0,-0.013824988156557083
233.0,249.0,2.8134,-1.7988,8.9157,-0.0415,0.0243,-0.1129,-1.7895943127074183,0.0,3.116678237915039,-1.432201862335205,-0.0,2.193659543991089,4.350423021907471,0.0,0.2916097640991211,-1.6248167196856897,-0.0,-3.3585820347070694e-05,1.189394235610962,0.0,-0.007028711959719658,0.7432228326797485,0.0,-0.008188853971660137
233.0,249.0,2.8134,-1.7988,8.9157,-0.0415,0.0243,-0.1129,-1.7896105251707972,0.0,3.1368772983551025,-1.4322381019592285,-0.0,2.151247501373291,4.350423021907471,0.0,0.293416291475296,-1.624841038380758,-0.0,-0.0077903373166918755,1.1892772912979126,0.0,-0.007130444049835205,0.7431948781013489,0.0,-0.01424107700586319
233.0,249.0,2.8134,-1.7988,8.9157,-0.0415,0.0243,-0.1129,-1.7896229229369105,0.0,3.1814541816711426,-1.4321575164794922,-0.0,2.1904184818267822,4.350419207210205,0.0,0.2998865842819214,-1.6248534361468714,-0.0,-0.005781401880085468,1.189285159111023,0.0,-0.004423724953085184,0.7431790828704834,0.0,0.022883061319589615
233.0,249.0,2.8134,-1.7988,8.9157,-0.0415,0.0243,-0.1129,-1.7896958790221156,0.0,3.1579995155334473,-1.432210087776184,-0.0,2.1616768836975098,4.350414915675781,0.0,0.30061081051826477,-1.6248849073993128,-0.0,0.0032035736367106438,1.1892895698547363,0.0,-0.00039854203350842,0.7431545257568359,0.0,0.006540057249367237
233.0,249.0,2.8134,-1.7988,8.9157,-0.0415,0.0243,-0.1129,-1.789614816705221,0.0,3.1151766777038574,-1.432201862335205,-0.0,2.176265239715576,4.3504273134418945,0.0,0.2928115129470825,-1.6248167196856897,-0.0,-0.0067512840032577515,1.1892732381820679,0.0,-0.0034535878803581,0.7431589961051941,0.0,-0.02789475955069065
233.0,249.0,2.8134,-1.7988,8.9157,-0.0415,0.0243,-0.1129,-1.7896348438658656,0.0,3.185086488723755,-1.4321496486663818,-0.0,2.2012171745300293,4.350472136134766,0.0,0.2964920997619629,-1.6248129049884241,-0.0,0.0007910362910479307,1.1892774105072021,0.0,-0.002192895859479904,0.7431787848472595,0.0,0.00850020069628954
233.0,249.0,2.8134,-1.7988,8.9157,-0.0415,0.0243,-0.1129,-1.78965487102651,0.0,3.0645127296447754,-1.4321693181991577,-0.0,2.202342987060547,4.350411100978516,0.0,0.29815343022346497,-1.6248491446124476,-0.0,0.0006747543229721487,1.1892938613891602,0.0,-0.0031361225992441177,0.7432310581207275,0.0,-0.0066505675204098225
233.0,249.0,2.8134,-1.7988,8.9157,-0.0415,0.0243,-0.1129,-1.78965487102651,0.0,3.1484382152557373,-1.432153344154358,-0.0,2.182680130004883,4.350443525905273,0.0,0.28990042209625244,-1.6248849073993128,-0.0,0.005128022748976946,1.1892814636230469,0.0,-0.0033468513283878565,0.7432109117507935,0.0,-0.028689069673419
233.0,249.0,2.8134,-1.7988,8.9157,-0.0415,0.0243,-0.1129,-1.7896186314024867,0.0,3.1849281787872314,-1.4322060346603394,-0.0,2.173769235610962,4.350435419673584,0.0,0.2926834523677826,-1.624841038380758,-0.0,-0.01100146397948265,1.1893014907836914,0.0,-0.005464810878038406,0.743206799030304,0.0,0.03593422845005989
233.0,248.0,2.8552,-1.7862,8.6435,-0.048,0.0212,-0.1057,-1.78965487102651,0.0,3.1545004844665527,-1.4321857690811157,-0.0,2.2287702560424805,4.350419207210205,0.0,0.30298101902008057,-1.6248648802386683,-0.0,0.008491321466863155,1.1893898248672485,0.0,-0.0039694467559456825,0.7432029843330383,0.0,0.0018668868578970432
233.0,248.0,2.8552,-1.7862,8.6435,-0.048,0.0212,-0.1057,-1.7896305523314417,0.0,3.1381072998046875,-1.432177186012268,-0.0,2.1543750762939453,4.35043112813916,0.0,0.29327744245529175,-1.6248810927020472,-0.0,-0.0019457275047898293,1.1893253326416016,0.0,-0.0065272292122244835,0.743215024471283,0.0,-0.01854896731674671
233.0,248.0,2.8552,-1.7862,8.6435,-0.048,0.0212,-0.1057,-1.7896229229369105,0.0,3.1298232078552246,-1.432165265083313,-0.0,2.183671474456787,4.350395365352295,0.0,0.2926679253578186,-1.6248253027545374,-0.0,0.014685492031276226,1.1893134117126465,0.0,-0.0014771446585655212,0.7432273626327515,0.0,0.006085194647312164
233.0,248.0,2.8552,-1.7862,8.6435,-0.048,0.0212,-0.1057,-1.7896186314024867,0.0,3.19350004196167,-1.4322576522827148,-0.0,2.2056097984313965,4.350423021907471,0.0,0.30904918909072876,-1.62490159669985,-0.0,-0.0007328932988457382,1.1892573833465576,0.0,-0.009398456662893295,0.7431626319885254,0.0,-0.03367205709218979
233.0,248.0,2.8552,-1.7862,8.6435,-0.048,0.0212,-0.1057,-1.7896510563292445,0.0,3.173794746398926,-1.4321935176849365,-0.0,2.164611339569092,4.350411100978516,0.0,0.29482510685920715,-1.624869171773092,-0.0,0.005027905106544495,1.1892855167388916,0.0,-0.007806699723005295,0.7432029843330383,0.0,0.01645171083509922
233.0,248.0,2.8552,-1.7862,8.6435,-0.048,0.0212,-0.1057,-1.7896224460997523,0.0,3.156832218170166,-1.432221531867981,-0.0,2.1802525520324707,4.350403471583984,0.0,0.3024686276912689,-1.6248648802386683,-0.0,0.0020490866154432297,1.1893134117126465,0.0,-0.012472313828766346,0.7431747317314148,0.0,0.016038741916418076
233.0,248.0,2.8552,-1.7862,8.6435,-0.048,0.0212,-0.1057,-1.7896586857237757,0.0,3.1439034938812256,-1.432177186012268,-0.0,2.191507339477539,4.350443525905273,0.0,0.3074225187301636,-1.6248768011676233,-0.0,0.00041824986692517996,1.189265489578247,0.0,-0.0025059448089450598,0.7432068586349487,0.0,-0.010674428194761276
233.0,248.0,2.8552,-1.7862,8.6435,-0.048,0.0212,-0.1057,-1.7896186314024867,0.0,3.0952541828155518,-1.432145595550537,-0.0,2.2026777267456055,4.35043112813916,0.0,0.29265472292900085,-1.6248930136310022,-0.0,0.005271635018289089,1.1892938613891602,0.0,0.004387024790048599,0.7432109713554382,0.0,-0.013951752334833145
233.0,248.0,2.8552,-1.7862,8.6435,-0.048,0.0212,-0.1057,-1.7896267376341761,0.0,3.1201722621917725,-1.4321491718292236,-0.0,2.1475439071655273,4.350399656886719,0.0,0.30189454555511475,-1.6248372236834925,-0.0,-0.0008270411635749042,1.1893012523651123,0.0,-0.0021468959748744965,0.7431787848472595,0.0,-0.029157081618905067
233.0,248.0,2.8552,-1.7862,8.6435,-0.048,0.0212,-0.1057,-1.7896667919554652,0.0,3.123203754425049,-1.4321537017822266,-0.0,2.187520980834961,4.350391550655029,0.0,0.28703445196151733,-1.6248768011676233,-0.0,-0.002580465516075492,1.189253330230713,0.0,0.001187486806884408,0.7431870102882385,0.0,-0.027331389486789703
233.0,248.0,2.8552,-1.7862,8.6435,-0.048,0.0212,-0.1057,-1.789642950097555,0.0,3.132723808288574,-1.432173490524292,-0.0,2.210698127746582,4.350419207210205,0.0,0.2906889021396637,-1.624845329915182,-0.0,0.006786508020013571,1.1893216371536255,0.0,-0.003556396346539259,0.7432070970535278,0.0,-0.04248687997460365
233.0,248.0,2.8552,-1.7862,8.6435,-0.048,0.0212,-0.1057,-1.7896229229369105,0.0,3.149949073791504,-1.4321894645690918,-0.0,2.1794023513793945,4.350391073817871,0.0,0.29263773560523987,-1.6248248259173792,-0.0,-0.01767541468143463,1.1893779039382935,0.0,-0.011375430040061474,0.7431626319885254,0.0,-0.0202180165797472
233.0,248.0,2.8552,-1.7862,8.6435,-0.048,0.0212,-0.1057,-1.7896272144713343,0.0,3.119041919708252,-1.432165265083313,-0.0,2.2059130668640137,4.35040728628125,0.0,0.2937079071998596,-1.6248968283282679,-0.0,-0.0076038651168346405,1.1893293857574463,0.0,0.01189933717250824,0.7431989312171936,0.0,-0.017057295888662338
233.0,248.0,2.8552,-1.7862,8.6435,-0.048,0.0212,-0.1057,-1.7896510563292445,0.0,3.133633613586426,-1.4321812391281128,-0.0,2.227205753326416,4.350399656886719,0.0,0.3010130822658539,-1.6248648802386683,-0.0,0.007636150810867548,1.1893055438995361,0.0,0.00631530350074172,0.7432270050048828,0.0,0.024648591876029968
233.0,248.0,2.8552,-1.7862,8.6435,-0.048,0.0212,-0.1057,-1.7896348438658656,0.0,3.1156582832336426,-1.432210087776184,-0.0,2.149118423461914,4.3503991800495605,0.0,0.2983289361000061,-1.624857250844137,-0.0,0.015268237330019474,1.18924880027771,0.0,-0.0013602813705801964,0.7431831359863281,0.0,0.010660268366336823
233.0,248.0,2.8552,-1.7862,8.6435,-0.048,0.0212,-0.1057,-1.7896391354002894,0.0,3.13931941986084,-1.432092547416687,-0.0,2.1963508129119873,4.350467844600342,0.0,0.2928990423679352,-1.6248491446124476,-0.0,0.0035919202491641045,1.1893376111984253,0.0,-0.005760337691754103,0.7431988716125488,0.0,0.019091345369815826
233.0,248.0,2.8552,-1.7862,8.6435,-0.048,0.0212,-0.1057,-1.7896667919554652,0.0,3.1530957221984863,-1.4321693181991577,-0.0,2.2003402709960938,4.3504273134418945,0.0,0.29902157187461853,-1.624869171773092,-0.0,0.0028025470674037933,1.1892979145050049,0.0,-0.013080582953989506,0.7431989312171936,0.0,0.007992098107933998
233.0,248.0,2.8552,-1.7862,8.6435,-0.048,0.0212,-0.1057,-1.7896229229369105,0.0,3.1431331634521484,-1.4321331977844238,-0.0,2.181550979614258,4.350382967586182,0.0,0.2908690571784973,-1.6248491446124476,-0.0,0.001870255684480071,1.189321517944336,0.0,-0.0035296869464218616,0.7431988716125488,0.0,0.01960529014468193
233.0,248.0,2.8552,-1.7862,8.6435,-0.048,0.0212,-0.1057,-1.7896186314024867,0.0,3.132190465927124,-1.432210087776184,-0.0,2.197542428970337,4.350387259120605,0.0,0.2979963421821594,-1.624857250844137,-0.0,0.005851466674357653,1.1893174648284912,0.0,-0.006360101047903299,0.7431988716125488,0.0,0.012526558712124825
228.0,250.0,2.7643,-1.7671,8.7691,-0.0353,0.0212,-0.1071,-1.7896510563292445,0.0,3.1859002113342285,-1.4322421550750732,-0.0,2.2074897289276123,4.350394888515137,0.0,0.2867579460144043,-1.624841038380758,-0.0,0.0072800954803824425,1.1892695426940918,0.0,-0.004511296283453703,0.7431425452232361,0.0,0.0324995256960392
228.0,250.0,2.7643,-1.7671,8.7691,-0.0353,0.0212,-0.1071,-1.789642950097555,0.0,3.0938303470611572,-1.432201862335205,-0.0,2.2245521545410156,4.350394888515137,0.0,0.29390692710876465,-1.6248729864703577,-0.0,-0.010076778940856457,1.1893614530563354,0.0,-0.0024482575245201588,0.7431948184967041,0.0,-0.037770144641399384
228.0,250.0,2.7643,-1.7671,8.7691,-0.0353,0.0212,-0.1071,-1.7896186314024867,0.0,3.143996238708496,-1.4321770668029785,-0.0,2.2119972705841064,4.35037533819165,0.0,0.2978300452232361,-1.6248491446124476,-0.0,0.0032157553359866142,1.1893093585968018,0.0,-0.007770576514303684,0.7432068586349487,0.0,-0.004300354048609734
228.0,250.0,2.7643,-1.7671,8.7691,-0.0353,0.0212,-0.1071,-1.7896348438658656,0.0,3.1119179725646973,-1.432173490524292,-0.0,2.189617156982422,4.350435419673584,0.0,0.29584091901779175,-1.6248491446124476,-0.0,0.006876087747514248,1.189265489578247,0.0,0.00040042714681476355,0.7431907057762146,0.0,-0.020548416301608086
228.0,250.0,2.7643,-1.7671,8.7691,-0.0353,0.0212,-0.1071,-1.789642950097555,0.0,3.095005750656128,-1.4321656227111816,-0.0,2.2037031650543213,4.350443525905273,0.0,0.29338139295578003,-1.6248491446124476,-0.0,0.010344129987061024,1.189341425895691,0.0,0.0027412765193730593,0.7432227730751038,0.0,0.011241944506764412
228.0,250.0,2.7643,-1.7671,8.7691,-0.0353,0.0212,-0.1071,-1.7896067104735316,0.0,3.1480090618133545,-1.432221531867981,-0.0,2.1939709186553955,4.350447340602539,0.0,0.302288681268692,-1.624800984059469,-0.0,0.007089804857969284,1.1893134117126465,0.0,-0.0026061309035867453,0.7431668043136597,0.0,0.03637510538101196
228.0,250.0,2.7643,-1.7671,8.7691,-0.0353,0.0212,-0.1071,-1.78965487102651,0.0,3.143325090408325,-1.432210087776184,-0.0,2.199429988861084,4.350394888515137,0.0,0.3007773756980896,-1.6248491446124476,-0.0,-0.0023244533222168684,1.1892446279525757,0.0,-0.023123053833842278,0.743206799030304,0.0,-0.040988631546497345
228.0,250.0,2.7643,-1.7671,8.7691,-0.0353,0.0212,-0.1071,-1.7896229229369105,0.0,3.1213111877441406,-1.432173490524292,-0.0,2.2132575511932373,4.35043923437085,0.0,0.2975686192512512,-1.6248930136310022,-0.0,0.0015210877172648907,1.1893216371536255,0.0,0.0036579107400029898,0.7431626915931702,0.0,0.036727484315633774
228.0,250.0,2.7643,-1.7671,8.7691,-0.0353,0.0212,-0.1071,-1.7896391354002894,0.0,3.1590871810913086,-1.432221531867981,-0.0,2.208798408508301,4.350403471583984,0.0,0.3015004098415375,-1.6248648802386683,-0.0,0.001700105844065547,1.1892774105072021,0.0,0.0031170365400612354,0.7432187795639038,0.0,-0.041475579142570496
228.0,250.0,2.7643,-1.7671,8.7691,-0.0353,0.0212,-0.1071,-1.78965487102651,0.0,3.1599042415618896,-1.432221531867981,-0.0,2.19744873046875,4.350423021907471,0.0,0.3139130771160126,-1.624857250844137,-0.0,-0.0037880814634263515,1.1892613172531128,0.0,-0.007525687105953693,0.7431667447090149,0.0,0.021380964666604996
228.0,250.0,2.7643,-1.7671,8.7691,-0.0353,0.0212,-0.1071,-1.7896229229369105,0.0,3.138247013092041,-1.4321775436401367,-0.0,2.2360851764678955,4.350395365352295,0.0,0.3020346462726593,-1.624841038380758,-0.0,-0.004950875416398048,1.1893250942230225,0.0,-0.00358623918145895,0.74317467212677,0.0,-0.006801768206059933
228.0,250.0,2.7643,-1.7671,8.7691,-0.0353,0.0212,-0.1071,-1.7896067104735316,0.0,3.177945613861084,-1.432173490524292,-0.0,2.1909995079040527,4.350447340602539,0.0,0.2998259663581848,-1.6248891989337366,-0.0,-0.006118954159319401,1.1893212795257568,0.0,-0.005957408808171749,0.7431788444519043,0.0,-0.024139655753970146
228.0,250.0,2.7643,-1.7671,8.7691,-0.0353,0.0212,-0.1071,-1.7896062336363734,0.0,3.138598918914795,-1.4322060346603394,-0.0,2.214963436126709,4.350391550655029,0.0,0.2995487451553345,-1.6248491446124476,-0.0,-0.0018629194237291813,1.1892893314361572,0.0,-0.004397425800561905,0.7431788444519043,0.0,0.02333180233836174
228.0,250.0,2.7643,-1.7671,8.7691,-0.0353,0.0212,-0.1071,-1.7895943127074183,0.0,3.1272716522216797,-1.4322017431259155,-0.0,2.2055439949035645,4.350411577815674,0.0,0.29014110565185547,-1.6248810927020472,-0.0,0.002812818856909871,1.1892774105072021,0.0,-0.003795634489506483,0.7431907057762146,0.0,0.007512532640248537
228.0,250.0,2.7643,-1.7671,8.7691,-0.0353,0.0212,-0.1071,-1.789614816705221,0.0,3.181872606277466,-1.4321452379226685,-0.0,2.233520984649658,4.350403471583984,0.0,0.2997882068157196,-1.6248968283282679,-0.0,-0.005847299005836248,1.189317226409912,0.0,-0.014189442619681358,0.7432352304458618,0.0,-0.04489389806985855
228.0,250.0,2.7643,-1.7671,8.7691,-0.0353,0.0212,-0.1071,-1.7896348438658656,0.0,3.05252742767334,-1.4322173595428467,-0.0,2.191749095916748,4.350391550655029,0.0,0.2929002642631531,-1.624845329915182,-0.0,0.00445061968639493,1.189353585243225,0.0,0.005852741189301014,0.743182897567749,0.0,0.025870535522699356
228.0,250.0,2.7643,-1.7671,8.7691,-0.0353,0.0212,-0.1071,-1.7896229229369105,0.0,3.1093897819519043,-1.4321935176849365,-0.0,2.183750629425049,4.3504273134418945,0.0,0.2943580746650696,-1.6248810927020472,-0.0,-0.0009642901131883264,1.189257264137268,0.0,-0.004017403349280357,0.7431467175483704,0.0,0.01224436890333891
228.0,250.0,2.7643,-1.7671,8.7691,-0.0353,0.0212,-0.1071,-1.789614816705221,0.0,3.1511354446411133,-1.432137370109558,-0.0,2.220496416091919,4.350387259120605,0.0,0.2913432717323303,-1.6248729864703577,-0.0,0.012733789160847664,1.1892695426940918,0.0,0.0032828308176249266,0.7431907057762146,0.0,0.04944424331188202
228.0,250.0,2.7643,-1.7671,8.7691,-0.0353,0.0212,-0.1071,-1.7896472416319789,0.0,3.1525893211364746,-1.432161569595337,-0.0,2.179605484008789,4.35040728628125,0.0,0.29748326539993286,-1.6248491446124476,-0.0,-0.0031550568528473377,1.1893339157104492,0.0,-0.009943168610334396,0.7432109713554382,0.0,-0.01291769091039896
228.0,250.0,2.7643,-1.7671,8.7691,-0.0353,0.0212,-0.1071,-1.789614816705221,0.0,3.137373924255371,-1.4321852922439575,-0.0,2.2008442878723145,4.350382967586182,0.0,0.28931424021720886,-1.6248930136310022,-0.0,0.013350834138691425,1.1893376111984253,0.0,0.005402548238635063,0.7431667447090149,0.0,-0.040751922875642776
229.0,248.0,2.7864,-1.7569,8.9288,-0.0396,0.0206,-0.1077,-1.7896391354002894,0.0,3.158076524734497,-1.4321693181991577,-0.0,2.2153854370117188,4.350419207210205,0.0,0.3016054630279541,-1.6248610655414026,-0.0,0.003629647195339203,1.1893093585968018,0.0,0.00486865546554327,0.7431667447090149,0.0,-0.004410856403410435
229.0,248.0,2.7864,-1.7569,8.9288,-0.0396,0.0206,-0.1077,-1.7896348438658656,0.0,3.15653657913208,-1.432173490524292,-0.0,2.1955668926239014,4.350387259120605,0.0,0.29329681396484375,-1.6248930136310022,-0.0,-0.003994960803538561,1.1892613172531128,0.0,0.0019823473412543535,0.7431910634040833,0.0,-0.004783314652740955
229.0,248.0,2.7864,-1.7569,8.9288,-0.0396,0.0206,-0.1077,-1.7895986042418421,0.0,3.1262600421905518,-1.4321852922439575,-0.0,2.203871488571167,4.350394888515137,0.0,0.29789793491363525,-1.6248849073993128,-0.0,0.004454172216355801,1.1892974376678467,0.0,0.0037640323862433434,0.7431824803352356,0.0,-0.039659254252910614
229.0,248.0,2.7864,-1.7569,8.9288,-0.0396,0.0206,-0.1077,-1.7896186314024867,0.0,3.1507515907287598,-1.4321857690811157,-0.0,2.2052502632141113,4.350459738368652,0.0,0.2911871671676636,-1.6248086134540003,-0.0,-0.0010833670385181904,1.189333200454712,0.0,-0.000756789289880544,0.7432191967964172,0.0,-0.032640792429447174
229.0,248.0,2.7864,-1.7569,8.9288,-0.0396,0.0206,-0.1077,-1.7896272144713343,0.0,3.1216843128204346,-1.4322223663330078,-0.0,2.1964468955993652,4.350419207210205,0.0,0.2875449061393738,-1.6248129049884241,-0.0,0.0007454421720467508,1.1893216371536255,0.0,-0.018609125167131424,0.7431466579437256,0.0,0.052327610552310944
229.0,248.0,2.7864,-1.7569,8.9288,-0.0396,0.0206,-0.1077,-1.7896348438658656,0.0,3.115030527114868,-1.4322060346603394,-0.0,2.192587375640869,4.350391550655029,0.0,0.292641282081604,-1.6248529593097132,-0.0,-0.004230127669870853,1.1893093585968018,0.0,-0.005844644270837307,0.7432109713554382,0.0,-0.03676258400082588
229.0,248.0,2.7864,-1.7569,8.9288,-0.0396,0.0206,-0.1077,-1.7896391354002894,0.0,3.126936435699463,-1.432246208190918,-0.0,2.2061357498168945,4.350395365352295,0.0,0.3046594262123108,-1.624869171773092,-0.0,0.0009050101507455111,1.189257264137268,0.0,-0.0012485352344810963,0.7431666851043701,0.0,0.03451330587267876
229.0,248.0,2.7864,-1.7569,8.9288,-0.0396,0.0206,-0.1077,-1.789642950097555,0.0,3.1109743118286133,-1.4321852922439575,-0.0,2.2514960765838623,4.350382967586182,0.0,0.30854204297065735,-1.6248491446124476,-0.0,-0.0013212279882282019,1.1892613172531128,0.0,-0.006113697774708271,0.743215024471283,0.0,0.020540449768304825
229.0,248.0,2.7864,-1.7569,8.9288,-0.0396,0.0206,-0.1077,-1.7896305523314417,0.0,3.1441121101379395,-1.4321295022964478,-0.0,2.1880791187286377,4.350403471583984,0.0,0.28753846883773804,-1.6248610655414026,-0.0,0.0018005099846050143,1.189333200454712,0.0,0.012574265711009502,0.7431948184967041,0.0,0.020846214145421982
229.0,248.0,2.7864,-1.7569,8.9288,-0.0396,0.0206,-0.1077,-1.7896229229369105,0.0,3.1666784286499023,-1.4321414232254028,-0.0,2.192902088165283,4.350391073817871,0.0,0.3002811074256897,-1.6248334089862269,-0.0,-0.002482652897015214,1.189305305480957,0.0,-0.0008073817007243633,0.7431787848472595,0.0,-0.008284511975944042
229.0,248.0,2.7864,-1.7569,8.9288,-0.0396,0.0206,-0.1077,-1.78965487102651,0.0,3.1603546142578125,-1.4321812391281128,-0.0,2.1652212142944336,4.350419207210205,0.0,0.3009648323059082,-1.624845329915182,-0.0,-0.0039445264264941216,1.1893376111984253,0.0,-0.0017070687608793378,0.7432392239570618,0.0,0.030942097306251526
229.0,248.0,2.7864,-1.7569,8.9288,-0.0396,0.0206,-0.1077,-1.7896629772581996,0.0,3.1055994033813477,-1.4322060346603394,-0.0,2.178450584411621,4.35043923437085,0.0,0.29807671904563904,-1.624841038380758,-0.0,-0.012088952586054802,1.1892814636230469,0.0,0.005771508906036615,0.7432109713554382,0.0,-0.006699755322188139
229.0,248.0,2.7864,-1.7569,8.9288,-0.0396,0.0206,-0.1077,-1.789642950097555,0.0,3.1524765491485596,-1.4322052001953125,-0.0,2.2121658325195312,4.350435419673584,0.0,0.2998364567756653,-1.6248849073993128,-0.0,-0.006065563764423132,1.1892855167388916,0.0,-0.01690177619457245,0.7431626915931702,0.0,0.001392484176903963
229.0,248.0,2.7864,-1.7569,8.9288,-0.0396,0.0206,-0.1077,-1.7896386585631312,0.0,3.1449384689331055,-1.4321978092193604,-0.0,2.186079502105713,4.35040728628125,0.0,0.3078187108039856,-1.6248253027545374,-0.0,-0.0033836793154478073,1.1892324686050415,0.0,-0.002809729892760515,0.7432593107223511,0.0,-0.007203761488199234
229.0,248.0,2.7864,-1.7569,8.9288,-0.0396,0.0206,-0.1077,-1.789671083489889,0.0,3.156156063079834,-1.432153344154358,-0.0,2.227855682373047,4.350414915675781,0.0,0.30230778455734253,-1.624845329915182,-0.0,-0.005750141106545925,1.189293384552002,0.0,-0.005535793490707874,0.7432228922843933,0.0,0.058747630566358566
229.0,248.0,2.7864,-1.7569,8.9288,-0.0396,0.0206,-0.1077,-1.7896510563292445,0.0,3.1730573177337646,-1.4321775436401367,-0.0,2.1878714561462402,4.350391550655029,0.0,0.30086565017700195,-1.6248729864703577,-0.0,-0.01600644551217556,1.1893175840377808,0.0,-0.0029890963342040777,0.7431507110595703,0.0,-0.0610368549823761
229.0,248.0,2.7864,-1.7569,8.9288,-0.0396,0.0206,-0.1077,-1.789659162560934,0.0,3.120932102203369,-1.432157039642334,-0.0,2.2042508125305176,4.350382967586182,0.0,0.2900276482105255,-1.6248768011676233,-0.0,-0.009839467704296112,1.1893051862716675,0.0,0.0005676664877682924,0.743134617805481,0.0,0.01637186110019684
229.0,248.0,2.7864,-1.7569,8.9288,-0.0396,0.0206,-0.1077,-1.7896753750243128,0.0,3.1385207176208496,-1.4322017431259155,-0.0,2.2390475273132324,4.350382967586182,0.0,0.29594871401786804,-1.6248491446124476,-0.0,0.009358350187540054,1.1892614364624023,0.0,-0.012358980253338814,0.743182897567749,0.0,-0.018150830641388893
229.0,248.0,2.7864,-1.7569,8.9288,-0.0396,0.0206,-0.1077,-1.7895986042418421,0.0,3.118253231048584,-1.432145118713379,-0.0,2.1884765625,4.350443525905273,0.0,0.2791830897331238,-1.6248610655414026,-0.0,-0.008549169637262821,1.189333438873291,0.0,-0.006750185042619705,0.743166446685791,0.0,-0.02003154531121254
229.0,248.0,2.7864,-1.7569,8.9288,-0.0396,0.0206,-0.1077,-1.7896062336363734,0.0,3.1809847354888916,-1.4321414232254028,-0.0,2.2123427391052246,4.350419207210205,0.0,0.2922958731651306,-1.6248648802386683,-0.0,0.009479272179305553,1.189293384552002,0.0,-0.009102336131036282,0.743182897567749,0.0,-0.003983295522630215
229.0,247.0,2.8451,-1.8114,8.6333,-0.038,0.0241,-0.1161,-1.7895986042418421,0.0,3.1339874267578125,-1.4321815967559814,-0.0,2.197844982147217,4.35037533819165,0.0,0.2895466983318329,-1.6248930136310022,-0.0,-0.009141038171947002,1.1893055438995361,0.0,-0.006266780663281679,0.7431667447090149,0.0,0.008198578841984272
229.0,247.0,2.8451,-1.8114,8.6333,-0.038,0.0241,-0.1161,-1.7896634540953578,0.0,3.054388999938965,-1.4321693181991577,-0.0,2.236553192138672,4.3504273134418945,0.0,0.2961151599884033,-1.6248810927020472,-0.0,-0.0075289467349648476,1.1892532110214233,0.0,-0.010953796096146107,0.7432191371917725,0.0,0.024888090789318085
229.0,247.0,2.8451,-1.8114,8.6333,-0.038,0.0241,-0.1161,-1.7896186314024867,0.0,3.2077980041503906,-1.432237982749939,-0.0,2.198657512664795,4.350443525905273,0.0,0.3048153817653656,-1.6248529593097132,-0.0,-0.002739191986620426,1.1892695426940918,0.0,-0.010235410183668137,0.7431989312171936,0.0,-0.009648770093917847
229.0,247.0,2.8451,-1.8114,8.6333,-0.038,0.0241,-0.1161,-1.7896067104735316,0.0,3.143217086791992,-1.4321775436401367,-0.0,2.142308473587036,4.3503991800495605,0.0,0.3035579323768616,-1.6248729864703577,-0.0,0.009811526164412498,1.1892974376678467,0.0,-0.01519247516989708,0.7431465983390808,0.0,0.026227634400129318
229.0,247.0,2.8451,-1.8114,8.6333,-0.038,0.0241,-0.1161,-1.789659162560934,0.0,3.20157790184021,-1.4321693181991577,-0.0,2.198014736175537,4.3504273134418945,0.0,0.29266610741615295,-1.6248372236834925,-0.0,0.0006439810968004167,1.1893572807312012,0.0,-0.01260523684322834,0.7432554960250854,0.0,0.04454151540994644
229.0,247.0,2.8451,-1.8114,8.6333,-0.038,0.0241,-0.1161,-1.7896348438658656,0.0,3.1761412620544434,-1.4322576522827148,-0.0,2.2022461891174316,4.350459738368652,0.0,0.29876816272735596,-1.624857250844137,-0.0,-0.0013462438946589828,1.1892735958099365,0.0,-0.005550001747906208,0.7431424856185913,0.0,-0.051857586950063705
229.0,247.0,2.8451,-1.8114,8.6333,-0.038,0.0241,-0.1161,-1.7896348438658656,0.0,3.1142001152038574,-1.4322141408920288,-0.0,2.175767660140991,4.350406809444092,0.0,0.29292112588882446,-1.624869171773092,-0.0,0.002286133822053671,1.1893212795257568,0.0,0.0004752832464873791,0.7432068586349487,0.0,-0.01658693701028824
229.0,247.0,2.8451,-1.8114,8.6333,-0.038,0.0241,-0.1161,-1.7896105251707972,0.0,3.1030192375183105,-1.4321852922439575,-0.0,2.2005558013916016,4.3503991800495605,0.0,0.3031988739967346,-1.624869171773092,-0.0,0.0014012819156050682,1.189341425895691,0.0,-0.0013358034193515778,0.7432109713554382,0.0,-0.029696661978960037
229.0,247.0,2.8451,-1.8114,8.6333,-0.038,0.0241,-0.1161,-1.7895986042418421,0.0,3.1303329467773438,-1.43222975730896,-0.0,2.197883129119873,4.350411577815674,0.0,0.2872122526168823,-1.624845329915182,-0.0,-0.010182070545852184,1.1892613172531128,0.0,-0.007342929486185312,0.7431948184967041,0.0,0.001597406342625618
229.0,247.0,2.8451,-1.8114,8.6333,-0.038,0.0241,-0.1161,-1.7896310291686,0.0,3.1428751945495605,-1.4321975708007812,-0.0,2.194091320037842,4.350387259120605,0.0,0.30301254987716675,-1.6248167196856897,-0.0,-0.008869395591318607,1.1893093585968018,0.0,-0.001975596882402897,0.7432030439376831,0.0,-0.009477936662733555
229.0,247.0,2.8451,-1.8114,8.6333,-0.038,0.0241,-0.1161,-1.7896348438658656,0.0,3.148754596710205,-1.4322421550750732,-0.0,2.1959378719329834,4.3504273134418945,0.0,0.2991323173046112,-1.6248167196856897,-0.0,-0.006766699254512787,1.1893134117126465,0.0,-0.002475207671523094,0.7432392835617065,0.0,-0.004542302805930376
229.0,247.0,2.8451,-1.8114,8.6333,-0.038,0.0241,-0.1161,-1.7896110020079554,0.0,3.150662899017334,-1.432210087776184,-0.0,2.206371545791626,4.350435419673584,0.0,0.2906426787376404,-1.6248491446124476,-0.0,-0.0031792023219168186,1.1893376111984253,0.0,-0.010463169775903225,0.7431626319885254,0.0,0.020926106721162796
229.0,247.0,2.8451,-1.8114,8.6333,-0.038,0.0241,-0.1161,-1.7896391354002894,0.0,3.149796485900879,-1.432221531867981,-0.0,2.2342519760131836,4.350411100978516,0.0,0.29574888944625854,-1.6248610655414026,-0.0,-0.011979613453149796,1.18924880027771,0.0,-0.01277727447450161,0.7431988716125488,0.0,-0.03248811513185501
229.0,247.0,2.8451,-1.8114,8.6333,-0.038,0.0241,-0.1161,-1.7896272144713343,0.0,3.1146621704101562,-1.4321935176849365,-0.0,2.1773998737335205,4.350414915675781,0.0,0.287244975566864,-1.6248372236834925,-0.0,-0.0035790735855698586,1.1892971992492676,0.0,-0.01237211748957634,0.7431507110595703,0.0,0.04258139058947563
229.0,247.0,2.8451,-1.8114,8.6333,-0.038,0.0241,-0.1161,-1.7895986042418421,0.0,3.1025211811065674,-1.4321454763412476,-0.0,2.2163822650909424,4.350419207210205,0.0,0.2925760746002197,-1.624845329915182,-0.0,0.0015912342350929976,1.1892855167388916,0.0,-0.014205140992999077,0.7432109713554382,0.0,-0.023644521832466125
229.0,247.0,2.8451,-1.8114,8.6333,-0.038,0.0241,-0.1161,-1.7896186314024867,0.0,3.1572422981262207,-1.4321372509002686,-0.0,2.1756680011749268,4.350487871760986,0.0,0.30024993419647217,-1.6248968283282679,-0.0,0.0004764141049236059,1.189249038696289,0.0,-0.001013526925817132,0.7431585192680359,0.0,0.040540240705013275
229.0,247.0,2.8451,-1.8114,8.6333,-0.038,0.0241,-0.1161,-1.7895986042418421,0.0,3.100489616394043,-1.432193636894226,-0.0,2.1926064491271973,4.350452108974121,2.2837434698885772e-06,0.29016029834747314,-1.624845329915182,-0.0,-0.0006030079675838351,1.1892163753509521,0.0,-0.013387748971581459,0.743206799030304,0.0,0.002857634797692299
229.0,247.0,2.8451,-1.8114,8.6333,-0.038,0.0241,-0.1161,-1.7895986042418421,0.0,3.150836706161499,-1.432201862335205,-0.0,2.2024407386779785,4.35045496999707,6.356885573488569e-10,0.30993393063545227,-1.6248768011676233,-0.0,-0.002472843276336789,1.1892814636230469,0.0,-0.005943260155618191,0.7432109713554382,0.0,-0.04709555208683014
229.0,247.0,2.8451,-1.8114,8.6333,-0.038,0.0241,-0.1161,-1.7896272144713343,0.0,3.1743526458740234,-1.432201862335205,-0.0,2.1646366119384766,4.3504673677631835,2.710039874800896e-12,0.3043375313282013,-1.6248372236834925,-0.0,0.00015243653615470976,1.1892774105072021,0.0,0.002652406692504883,0.7431667447090149,0.0,-0.016069399192929268
228.0,249.0,2.784,-1.8694,8.8774,-0.0348,0.0304,-0.1216,-1.7896233997740687,0.0,3.153947353363037,-1.4322060346603394,-0.0,2.2043075561523438,4.350459261531494,1.1553322724509527e-14,0.290921688079834,-1.6248491446124476,-0.0,0.001105800038203597,1.1892974376678467,0.0,-0.0006859907880425453,0.7432029843330383,0.0,-0.008999815210700035
228.0,249.0,2.784,-1.8694,8.8774,-0.0348,0.0304,-0.1216,-1.7896467647948207,0.0,3.156010866165161,-1.4321775436401367,-0.0,2.2115230560302734,4.350426836604736,3.215909890351517e-18,0.29953083395957947,-1.6248610655414026,-0.0,0.007940730080008507,1.1892814636230469,0.0,-0.0054875826463103294,0.7432191967964172,0.0,-0.002403838559985161
228.0,249.0,2.784,-1.8694,8.8774,-0.0348,0.0304,-0.1216,-1.7896191082396449,0.0,3.1001338958740234,-1.4322421550750732,-0.0,2.168842315673828,4.350450678462646,1.370992734817543e-20,0.29113203287124634,-1.6248372236834925,-0.0,0.007324138656258583,1.189293384552002,0.0,0.0011616554111242294,0.7432351112365723,0.0,0.006517831236124039
228.0,249.0,2.784,-1.8694,8.8774,-0.0348,0.0304,-0.1216,-1.7896391354002894,0.0,3.1247496604919434,-1.4321492910385132,-0.0,2.193408489227295,4.350475473994873,5.844756905937689e-23,0.2975769639015198,-1.6248372236834925,-0.0,-0.0030342189129441977,1.1893174648284912,0.0,-0.0034105030354112387,0.7431907057762146,0.0,-0.01726464554667473
228.0,249.0,2.784,-1.8694,8.8774,-0.0348,0.0304,-0.1216,-1.7896353207030238,0.0,3.188572645187378,-1.4321894645690918,-0.0,2.1622047424316406,4.35045496999707,2.4917113394111265e-25,0.30021393299102783,-1.6248768011676233,-0.0,0.002783752977848053,1.1893093585968018,0.0,-0.008960040286183357,0.7431706190109253,0.0,0.032142043113708496
228.0,249.0,2.784,-1.8694,8.8774,-0.0348,0.0304,-0.1216,-1.7896348438658656,0.0,3.115973949432373,-1.432218313217163,-0.0,2.170196771621704,4.35043112813916,6.935769656699116e-29,0.286699116230011,-1.6248129049884241,-0.0,-0.002685431856662035,1.189293384552002,0.0,-0.009227629750967026,0.7431747317314148,0.0,-0.054155394434928894
228.0,249.0,2.784,-1.8694,8.8774,-0.0348,0.0304,-0.1216,-1.7896110020079554,0.0,3.1405839920043945,-1.432210087776184,-0.0,2.2088980674743652,4.350443525905273,2.9568276755103544e-31,0.2988240718841553,-1.6248334089862269,-0.0,0.0053569721058011055,1.189341425895691,0.0,-0.008239589631557465,0.7431948184967041,0.0,-0.005812377668917179
228.0,249.0,2.784,-1.8694,8.8774,-0.0348,0.0304,-0.1216,-1.789602895776266,0.0,3.1638503074645996,-1.4321978092193604,-0.0,2.2103312015533447,4.350451632136963,1.260541918117257e-33,0.29584673047065735,-1.6248968283282679,-0.0,-0.007230713497847319,1.1893253326416016,0.0,-0.012924673035740852,0.7431467175483704,0.0,-0.0334596112370491
228.0,249.0,2.784,-1.8694,8.8774,-0.0348,0.0304,-0.1216,-1.7896391354002894,0.0,3.138012409210205,-1.4321935176849365,-0.0,2.224294900894165,4.350423021907471,3.5087643620606767e-37,0.3034164309501648,-1.624857250844137,-0.0,0.012489834800362587,1.1893174648284912,0.0,-0.0046330043114721775,0.743191123008728,0.0,0.020694376900792122
228.0,249.0,2.784,-1.8694,8.8774,-0.0348,0.0304,-0.1216,-1.7896472416319789,0.0,3.1306533813476562,-1.4321978092193604,-0.0,2.2148756980895996,4.350423021907471,1.4958412691158838e-39,0.2985551059246063,-1.624841038380758,-0.0,-0.007712832186371088,1.189265489578247,0.0,-0.013410728424787521,0.7431948184967041,0.0,0.0056387679651379585
228.0,249.0,2.784,-1.8694,8.8774,-0.0348,0.0304,-0.1216,-1.7896067104735316,0.0,3.0782995223999023,-1.4321532249450684,-0.0,2.19464373588562,4.350402994746826,5.6248551118187606e-05,0.30805695056915283,-1.6248968283282679,-0.0,0.00986187532544136,1.1892651319503784,0.0,-0.008082916960120201,0.743226945400238,0.0,0.009346670471131802
228.0,249.0,2.784,-1.8694,8.8774,-0.0348,0.0304,-0.1216,-1.7896467647948207,0.0,3.1217806339263916,-1.4321815967559814,-0.0,2.185035228729248,4.35043923437085,5.462953413370997e-05,0.29594331979751587,-1.6248648802386683,-0.0,-0.0021401490084826946,1.1893293857574463,0.0,-0.004632287193089724,0.7431907057762146,0.0,0.024675004184246063
228.0,249.0,2.784,-1.8694,8.8774,-0.0348,0.0304,-0.1216,-1.7896110020079554,0.0,3.077545404434204,-1.432218313217163,-0.0,2.1807522773742676,4.3504673677631835,5.1503971917554736e-05,0.3068186640739441,-1.6248810927020472,-0.0,-0.01388823613524437,1.1893376111984253,0.0,-0.015544269233942032,0.7431791424751282,0.0,0.0043410006910562515
228.0,249.0,2.784,-1.8694,8.8774,-0.0348,0.0304,-0.1216,-1.789614816705221,0.0,3.2148172855377197,-1.432210087776184,-0.0,2.2310917377471924,4.350419207210205,4.871589771937579e-05,0.30309396982192993,-1.6248167196856897,-0.0,0.004199478309601545,1.1893174648284912,0.0,-0.003339689690619707,0.7431787848472595,0.0,0.03659207746386528
228.0,249.0,2.784,-1.8694,8.8774,-0.0348,0.0304,-0.1216,-1.7896067104735316,0.0,3.1344351768493652,-1.4322141408920288,-0.0,2.197699785232544,4.350387259120605,4.621420885086991e-05,0.3000309467315674,-1.6248729864703577,-0.0,-0.0011013273615390062,1.1893012523651123,0.0,0.004951753653585911,0.7431667447090149,0.0,-0.05400718003511429
228.0,249.0,2.784,-1.8694,8.8774,-0.0348,0.0304,-0.1216,-1.7895704708495082,0.0,3.0797648429870605,-1.4322019815444946,-0.0,2.176568031311035,4.350398703212402,4.290902870707214e-05,0.2901865243911743,-1.624869171773092,-0.0,0.006501573603600264,1.1893014907836914,0.0,0.002073172479867935,0.7431585192680359,0.0,-0.01126107294112444
228.0,249.0,2.784,-1.8694,8.8774,-0.0348,0.0304,-0.1216,-1.7896229229369105,0.0,3.158061981201172,-1.4321292638778687,-0.0,2.21970272064209,4.350414915675781,4.095629265066236e-05,0.29791441559791565,-1.624829117451803,-0.0,-0.0008192862151190639,1.1892974376678467,0.0,-0.00934705138206482,0.7431907057762146,0.0,-0.013775180093944073
228.0,249.0,2.784,-1.8694,8.8774,-0.0348,0.0304,-0.1216,-1.7896186314024867,0.0,3.1496920585632324,-1.4321335554122925,-0.0,2.187086343765259,4.35040728628125,3.917355206795037e-05,0.3054579794406891,-1.6248768011676233,-0.0,0.008047309704124928,1.1893093585968018,0.0,-0.00694641936570406,0.7431548237800598,0.0,0.008790802210569382
228.0,249.0,2.784,-1.8694,8.8774,-0.0348,0.0304,-0.1216,-1.7896233997740687,0.0,3.1227784156799316,-1.4321856498718262,-0.0,2.222581624984741,4.3503991800495605,3.6772613384528086e-05,0.29051199555397034,-1.6248372236834925,-0.0,0.004665016196668148,1.1892774105072021,0.0,-0.015848103910684586,0.7431626319885254,0.0,-0.012037307024002075
228.0,249.0,2.784,-1.8694,8.8774,-0.0348,0.0304,-0.1216,-1.7896067104735316,0.0,3.1237897872924805,-1.4321978092193604,-0.0,2.2520439624786377,4.350499792689941,3.532910704961978e-05,0.29617828130722046,-1.6248529593097132,-0.0,0.002531589474529028,1.18930983543396,0.0,-0.004703985992819071,0.7432070970535278,0.0,0.037881094962358475
232.0,246.0,2.7823,-1.8042,8.8696,-0.0463,0.0254,-0.1124,-1.7896229229369105,0.0,3.1544127464294434,-1.432210087776184,-0.0,2.209533929824829,4.35043112813916,3.39946236636024e-05,0.29683077335357666,-1.624869171773092,-0.0,0.0012543938355520368,1.1892855167388916,0.0,-0.0021679254714399576,0.7431706190109253,0.0,0.059285394847393036
232.0,246.0,2.7823,-1.8042,8.8696,-0.0463,0.0254,-0.1124,-1.7895986042418421,0.0,3.1265335083007812,-1.43222975730896,-0.0,2.208712100982666,4.350455923671387,3.2171799830393866e-05,0.2947704792022705,-1.6248448530780237,-0.0,-0.0014614982064813375,1.1893174648284912,0.0,-0.005386469420045614,0.7431706190109253,0.0,0.05960828438401222
232.0,246.0,2.7823,-1.8042,8.8696,-0.0463,0.0254,-0.1124,-1.7895943127074183,0.0,3.088526725769043,-1.4321975708007812,-0.0,2.1747283935546875,4.350418730373047,3.106145959463902e-05,0.30442437529563904,-1.624845329915182,-0.0,-0.005229867063462734,1.1893093585968018,0.0,-0.0028566739056259394,0.74317467212677,0.0,0.012445700354874134
232.0,246.0,2.7823,-1.8042,8.8696,-0.0463,0.0254,-0.1124,-1.7896391354002894,0.0,3.1423630714416504,-1.4321976900100708,-0.0,2.203064441680908,4.350414915675781,4.404093851917423e-05,0.2973683476448059,-1.6248529593097132,-0.0,-0.0022859256714582443,1.1892614364624023,0.0,-0.0029350207187235355,0.7431948184967041,0.0,0.047876372933387756
232.0,246.0,2.7823,-1.8042,8.8696,-0.0463,0.0254,-0.1124,-1.7895904980101527,0.0,3.1244044303894043,-1.4322141408920288,-0.0,2.1917128562927246,4.350459261531494,4.3579515477176756e-05,0.2964300513267517,-1.624869171773092,-0.0,-0.0010212443303316832,1.189293384552002,0.0,-0.0063192034140229225,0.7431824803352356,0.0,-0.031208639964461327
232.0,246.0,2.7823,-1.8042,8.8696,-0.0463,0.0254,-0.1124,-1.7896110020079554,0.0,3.1532373428344727,-1.4321775436401367,-0.0,2.2047195434570312,4.350410624141357,4.157065268373117e-05,0.29483306407928467,-1.624841038380758,-0.0,-0.0074169752188026905,1.189293384552002,0.0,0.007040408439934254,0.7432310581207275,0.0,-0.0203685499727726
232.0,246.0,2.7823,-1.8042,8.8696,-0.0463,0.0254,-0.1124,-1.7896067104735316,0.0,3.1507225036621094,-1.4321696758270264,-0.0,2.2039589881896973,4.35043112813916,4.032879223814234e-05,0.3031432628631592,-1.6248610655414026,-0.0,-0.009785572998225689,1.1892733573913574,0.0,-0.0005241783801466227,0.7432109713554382,0.0,0.017154932022094727
232.0,246.0,2.7823,-1.8042,8.8696,-0.0463,0.0254,-0.1124,-1.789602895776266,0.0,3.120629072189331,-1.4322099685668945,-0.0,2.1979098320007324,4.35046307622876,3.9159007428679615e-05,0.29885023832321167,-1.6248334089862269,-0.0,0.010106741450726986,1.1893055438995361,0.0,-0.006098088342696428,0.7431907057762146,0.0,0.030184604227542877
232.0,246.0,2.7823,-1.8042,8.8696,-0.0463,0.0254,-0.1124,-1.7895986042418421,0.0,3.1222147941589355,-1.4321496486663818,-0.0,2.2127840518951416,4.350475473994873,4.6816257963655517e-05,0.2954368591308594,-1.624845329915182,-0.0,-0.008515533059835434,1.1892695426940918,0.0,-0.009865757077932358,0.74317467212677,0.0,-0.00810527428984642
232.0,246.0,2.7823,-1.8042,8.8696,-0.0463,0.0254,-0.1124,-1.7896152935423792,0.0,3.1377334594726562,-1.4321496486663818,-0.0,2.2061994075775146,4.350426836604736,4.866800372838043e-05,0.3149758279323578,-1.6248491446124476,-0.0,0.0008413861505687237,1.1892733573913574,0.0,-0.005400815512984991,0.7432150840759277,0.0,0.03656182438135147
232.0,246.0,2.7823,-1.8042,8.8696,-0.0463,0.0254,-0.1124,-1.789558549920553,0.0,3.116669178009033,-1.4322141408920288,-0.0,2.2180776596069336,4.35043112813916,4.739974974654615e-05,0.29943564534187317,-1.6248729864703577,-0.0,0.00981825590133667,1.1892971992492676,0.0,-0.01224537007510662,0.7432471513748169,0.0,0.01940726302564144
232.0,246.0,2.7823,-1.8042,8.8696,-0.0463,0.0254,-0.1124,-1.7895547352232875,0.0004294707905501127,3.1430282592773438,-1.4321211576461792,-0.0,2.2146496772766113,4.350455923671387,4.5598695578519255e-05,0.306282639503479,-1.6248648802386683,-0.0,-0.001601682510226965,1.1893494129180908,0.0,0.00451251957565546,0.7432068586349487,0.0,0.001935172127559781
232.0,246.0,2.7823,-1.8042,8.8696,-0.0463,0.0254,-0.1124,-1.7896152935423792,0.0003606184327509254,3.1349387168884277,-1.4321253299713135,-0.0,2.1845180988311768,4.350423021907471,4.4472082663560286e-05,0.3060707449913025,-1.6248810927020472,-0.0,-0.007901542820036411,1.1893012523651123,0.0,-0.0060361223295331,0.7431829571723938,0.0,-0.050343722105026245
232.0,246.0,2.7823,-1.8042,8.8696,-0.0463,0.0254,-0.1124,-1.7896191082396449,0.0003107939846813679,3.150975227355957,-1.4321088790893555,-0.0,2.199038028717041,4.350471182460449,4.339985389378853e-05,0.2993716895580292,-1.6248891989337366,-0.0,0.005466562695801258,1.1893413066864014,0.0,-0.01000288873910904,0.7431507110595703,0.0,-0.01925688050687313
232.0,246.0,2.7823,-1.8042,8.8696,-0.0463,0.0254,-0.1124,-1.789574762383932,0.00032764821662567556,3.1921205520629883,-1.4321856498718262,-0.0,2.1928653717041016,4.350447340602539,4.2378062062198296e-05,0.2955414354801178,-1.6248648802386683,-0.0,0.0033789591398090124,1.189365267753601,0.0,-0.0016841671895235777,0.743202805519104,0.0,0.011181293055415154
232.0,246.0,2.7823,-1.8042,8.8696,-0.0463,0.0254,-0.1124,-1.7895623646178187,0.0002772092411760241,3.100918769836426,-1.4321656227111816,-0.0,2.208444118499756,4.350435419673584,3.318313247291371e-05,0.2909686863422394,-1.6249569098102015,-0.0,0.0064463624730706215,1.1892974376678467,0.0,-0.005555907730013132,0.7432109713554382,0.0,-0.03894880414009094
232.0,246.0,2.7823,-1.8042,8.8696,-0.0463,0.0254,-0.1124,-1.7895704708495082,0.00025139606441371143,3.1185781955718994,-1.432173490524292,-0.0,2.1682307720184326,4.3504673677631835,2.952787690446712e-05,0.29262763261795044,-1.6249654928790491,-0.0,-0.00021597935119643807,1.1893055438995361,0.0,-0.001187861547805369,0.7432510852813721,0.0,-0.11028824746608734
232.0,246.0,2.7823,-1.8042,8.8696,-0.0463,0.0254,-0.1124,-1.789558549920553,0.0002299812767887488,3.1334662437438965,-1.4322057962417603,-0.0,2.192625045776367,4.35045496999707,4.100087608094327e-05,0.2973538339138031,-1.6249287764178675,-0.0,-0.002525248099118471,1.1893293857574463,0.0,-0.006345399189740419,0.743295431137085,0.00018914173415396363,-0.006340458523482084
232.0,246.0,2.7823,-1.8042,8.8696,-0.0463,0.0254,-0.1124,-1.789562841454977,0.0002039247628999874,3.166299819946289,-1.4321295022964478,-0.0,2.192394495010376,4.35045496999707,4.0919214370660484e-05,0.29691964387893677,-1.624880615864889,-0.0,0.008801009505987167,1.1893131732940674,0.0,-0.011270396411418915,0.743294894695282,0.004482810851186514,0.01026113424450159
229.0,250.0,3.0048,-1.8903,8.6255,-0.0371,0.0206,-0.117,-1.7895342312254847,0.00018960388842970133,3.1979079246520996,-1.4321738481521606,-0.0,2.204738140106201,4.350450678462646,3.9715920138405636e-05,0.3059746026992798,-1.6248887220965784,-0.0,0.004938806407153606,1.1892778873443604,0.0,0.004913815297186375,0.7432907819747925,0.0036525821778923273,-0.013995206914842129
229.0,250.0,3.0048,-1.8903,8.6255,-0.0371,0.0206,-0.117,-1.789574762383932,0.0001771624811226502,3.134993553161621,-1.4321129322052002,0.00012574653374031186,2.205233097076416,4.350499792689941,3.8580892578465864e-05,0.2935781180858612,-1.624908749257223,-0.0,-0.0023332503624260426,1.189265489578247,0.0,-0.0068895816802978516,0.7433189749717712,0.0021891954820603132,0.002814615610986948
229.0,250.0,3.0048,-1.8903,8.6255,-0.0371,0.0206,-0.117,-1.789590974847311,0.00016625324496999383,3.0860280990600586,-1.4321138858795166,0.00027679058257490396,2.211825370788574,4.350442572230957,3.750892574316822e-05,0.2990017235279083,-1.624908749257223,-0.0,0.0016582689713686705,1.189305305480957,0.0,-0.001189898932352662,0.743270218372345,0.0012368776369839907,0.01039963960647583
229.0,250.0,3.0048,-1.8903,8.6255,-0.0371,0.0206,-0.117,-1.789687295953268,7.744305912638083e-05,3.1705613136291504,-1.432009220123291,0.00930055882781744,2.1632492542266846,4.350459261531494,3.600827039917931e-05,0.2914566695690155,-1.6249287764178675,-0.0,-0.008370177820324898,1.1893174648284912,0.0,-0.011452561244368553,0.7433346509933472,0.0034195282496511936,0.0039965370669960976
229.0,250.0,3.0048,-1.8903,8.6255,-0.0371,0.0206,-0.117,-1.7897397480406703,-0.003150728764012456,3.1564764976501465,-1.4319615364074707,0.0205257348716259,2.231663227081299,4.350430651302002,5.682878691004589e-05,0.2874336242675781,-1.6249249617206019,-0.0,-0.020246749743819237,1.1892852783203125,0.0,-0.0033832958433777094,0.7433624863624573,0.007641050033271313,-0.03165037930011749
229.0,250.0,3.0048,-1.8903,8.6255,-0.0371,0.0206,-0.117,-1.7897550068297328,-0.008387441746890545,3.072808265686035,-1.4318134784698486,0.03156193345785141,2.267470359802246,4.350507422084473,4.850281766266562e-05,0.2995234727859497,-1.6249449888812464,-0.0,-0.00417663436383009,1.1892532110214233,0.0,0.010300212539732456,0.7434993386268616,0.012384042143821716,0.02398119494318962
229.0,250.0,3.0048,-1.8903,8.6255,-0.0371,0.0206,-0.117,-1.7899238071837367,-0.020806418731808662,3.109376907348633,-1.4316213130950928,0.04133397340774536,2.2707273960113525,4.350435419673584,1.1633454022330625e-07,0.2921946346759796,-1.6249406973468226,-0.0,0.01282853726297617,1.1893293857574463,0.0,-0.0036866769660264254,0.7436432242393494,0.020119108259677887,0.07504645735025406
229.0,250.0,3.0048,-1.8903,8.6255,-0.0371,0.0206,-0.117,-1.7900072536864222,-0.029056590050458908,3.0524258613586426,-1.4315180778503418,0.03976467251777649,2.2180700302124023,4.3504273134418945,4.959523902670071e-10,0.3033708930015564,-1.6249287764178675,-0.0,-0.00036008621100336313,1.1893576383590698,0.0,-0.0014373207231983542,0.7437552809715271,0.025515399873256683,0.09626037627458572
229.0,250.0,3.0048,-1.8903,8.6255,-0.0371,0.0206,-0.117,-1.7901236019530238,-0.033564042299985886,3.063524007797241,-1.4313613176345825,0.03587618097662926,2.2649405002593994,4.350459261531494,-0.00020503743144217879,0.3054659962654114,-1.6248968283282679,-0.0,-0.007829312235116959,1.1892611980438232,0.0,-0.0029369527474045753,0.7438108325004578,0.02981753833591938,0.002996183931827545
229.0,250.0,3.0048,-1.8903,8.6255,-0.0371,0.0206,-0.117,-1.7903081379332484,-0.03318404033780098,3.0751023292541504,-1.431165337562561,0.028941825032234192,2.245898723602295,4.350365801448486,-4.441883447725559e-06,0.2942667305469513,-1.6249244848834437,-0.0,0.007633859291672707,1.189321517944336,0.0,-0.0007291719666682184,0.7439911365509033,0.03428197652101517,0.04002607613801956
229.0,250.0,3.0048,-1.8903,8.6255,-0.0371,0.0206,-0.117,-1.7904163799681605,-0.029268329963088036,3.049295425415039,-1.430989384651184,0.02732503041625023,2.2532854080200195,4.350491209621094,-1.8936447077066987e-08,0.29893675446510315,-1.6249406973468226,-0.0,0.001929874182678759,1.1893014907836914,0.0,-0.001556597650051117,0.744106650352478,0.037986963987350464,0.04400027543306351
229.0,250.0,3.0048,-1.8903,8.6255,-0.0371,0.0206,-0.117,-1.7905484638609828,-0.02487579919397831,3.05511474609375,-1.4309380054473877,0.02838023751974106,2.2562294006347656,4.350474997157715,0.0018799396930262446,0.30081653594970703,-1.6249530951129358,-0.0,-0.0013477541506290436,1.1892855167388916,0.0,0.006481831893324852,0.7442828416824341,0.041892845183610916,0.006372332572937012
229.0,250.0,3.0048,-1.8903,8.6255,-0.0371,0.0206,-0.117,-1.7906247578062953,-0.022244662046432495,3.142180919647217,-1.4307498931884766,0.029501471668481827,2.243414878845215,4.350515051479004,0.0017898022197186947,0.29784056544303894,-1.624920670186178,-0.0,0.008572755381464958,1.189293384552002,0.0,-0.007035617250949144,0.7444791197776794,0.04431748762726784,0.06565583497285843
229.0,250.0,3.0048,-1.8903,8.6255,-0.0371,0.0206,-0.117,-1.7908407650389613,-0.024070147424936295,3.1011877059936523,-1.4306659698486328,0.025646287947893143,2.233621597290039,4.350487394923828,0.0009058956056833267,0.3024892508983612,-1.6249244848834437,-0.0,0.0008609868818894029,1.189253330230713,0.0,-0.007173209451138973,0.7447590231895447,0.04978583753108978,0.06649429351091385
229.0,250.0,3.0048,-1.8903,8.6255,-0.0371,0.0206,-0.117,-1.7909571133055628,-0.029010621830821037,3.0959205627441406,-1.4305660724639893,0.020870355889201164,2.2329273223876953,4.350527449245117,0.0006777105736546218,0.2957450747489929,-1.6249168554889124,-0.0,-0.02440708316862583,1.1892937421798706,0.0,-0.0027527501806616783,0.7449471950531006,0.049710433930158615,0.06785422563552856
229.0,250.0,3.0048,-1.8903,8.6255,-0.0371,0.0206,-0.117,-1.791145463983053,-0.03566492348909378,3.0823731422424316,-1.4304739236831665,0.014889460057020187,2.226102828979492,4.35047881185498,0.0005415205960161984,0.2915388345718384,-1.6249287764178675,-0.0,-0.0024277926422655582,1.1892814636230469,0.0,-0.0021237987093627453,0.745155394077301,0.05214668810367584,0.052782315760850906
229.0,250.0,3.0048,-1.8903,8.6255,-0.0371,0.0206,-0.117,-1.791349550286764,-0.04439184442162514,3.0511324405670166,-1.430450439453125,0.007598622236400843,2.20371413230896,4.350474997157715,0.0004760260635521263,0.29359447956085205,-1.6249287764178675,-0.0,-0.0006499090814031661,1.1893253326416016,0.0,0.004796389490365982,0.7454468607902527,0.05495733767747879,0.07390032708644867
229.0,250.0,3.0048,-1.8903,8.6255,-0.0371,0.0206,-0.117,-1.7915345631041468,-0.04613924026489258,3.085951805114746,-1.4304907321929932,0.003570960834622383,2.2034618854522705,4.350474997157715,0.00042061152635142207,0.29645398259162903,-1.6249287764178675,-0.0,0.006750836968421936,1.1893012523651123,0.0,0.005527670495212078,0.7456508278846741,0.056724369525909424,0.08313258737325668
229.0,250.0,3.0048,-1.8903,8.6255,-0.0371,0.0206,-0.117,-1.7916537723936976,-0.04551433399319649,3.056581974029541,-1.43046236038208,0.0013537737540900707,2.183877944946289,4.350531740779541,0.0003710711607709527,0.2991473376750946,-1.6249287764178675,-0.0,-0.0004307681228965521,1.1893293857574463,0.0,0.003769991220906377,0.7458065152168274,0.058037739247083664,0.04689441993832588
229.0,250.0,3.0048,-1.8903,8.6255,-0.0371,0.0206,-0.117,-1.7919703922667445,-0.04228251054883003,3.076564311981201,-1.4304544925689697,0.00042065506568178535,2.194845199584961,4.350567503566406,0.0003602690703701228,0.29556214809417725,-1.6249569098102015,-0.0,-0.004955817945301533,1.189333438873291,0.0,-0.00980803370475769,0.7462030649185181,0.05653659999370575,0.0017045307904481888
235.0,250.0,2.1709,-2.4461,10.1504,-0.1239,0.0382,-0.1214,-1.7921272716917933,-0.03950101509690285,3.076413869857788,-1.4304261207580566,0.000320474267937243,2.230370044708252,4.350523157710693,0.00022687877935823053,0.3048083782196045,-1.6249006430255335,-0.0,-0.005376645363867283,1.189321517944336,0.0,0.000438711722381413,0.7463864684104919,0.05480659753084183,0.0028583891689777374
235.0,250.0,2.1709,-2.4461,10.1504,-0.1239,0.0382,-0.1214,-1.7923151455321253,-0.039808765053749084,3.0698580741882324,-1.43043851852417,0.0002589631185401231,2.1780240535736084,4.350559874171875,0.00026284161140210927,0.30415189266204834,-1.6248729864703577,-0.0,-0.009444600902497768,1.189345121383667,0.0,-0.003340412164106965,0.7465420365333557,0.05262361839413643,0.04105193167924881
235.0,250.0,2.1709,-2.4461,10.1504,-0.1239,0.0382,-0.1214,-1.7925077877440394,-0.040675513446331024,3.056610584259033,-1.43043851852417,0.00021726918930653483,2.1633331775665283,4.350563212031982,0.00071186653804034,0.2968010902404785,-1.6249168554889124,-0.0,0.002762847114354372,1.1892893314361572,0.0,-0.0059514399617910385,0.746757984161377,0.05106816068291664,0.06616576015949249
235.0,250.0,2.1709,-2.4461,10.1504,-0.1239,0.0382,-0.1214,-1.7927843532957972,-0.04906310513615608,3.050541877746582,-1.4304583072662354,-0.00016560283256694674,2.1850998401641846,4.350530310268066,0.0008951486670412123,0.3019396960735321,-1.6249244848834437,-0.0,-0.010062312707304955,1.1893253326416016,0.0,0.0030683737713843584,0.7470459938049316,0.045284733176231384,0.050163403153419495
235.0,250.0,2.1709,-2.4461,10.1504,-0.1239,0.0382,-0.1214,-1.7929722271361292,-0.05308866128325462,3.0718917846679688,-1.4304944276809692,-0.0002679316676221788,2.195004940032959,4.350567503566406,0.0008597301202826202,0.3007889986038208,-1.6248768011676233,-0.0,-0.00027402513660490513,1.189277172088623,0.0,0.012570531107485294,0.7472425103187561,0.042564231902360916,0.059238970279693604
235.0,250.0,2.1709,-2.4461,10.1504,-0.1239,0.0382,-0.1214,-1.7932168445982875,-0.05843515321612358,3.0398929119110107,-1.4305026531219482,-0.001978653483092785,2.1891722679138184,4.350555582637451,0.0006223625387065113,0.3077048063278198,-1.6248686949359339,-1.684211042629613e-06,-0.006787505000829697,1.1893093585968018,0.0,-0.004658645950257778,0.7473863363265991,0.03704129159450531,0.04042540863156319
235.0,250.0,2.1709,-2.4461,10.1504,-0.1239,0.0382,-0.1214,-1.7934886417784632,-0.06488551944494247,3.0467209815979004,-1.430558681488037,-0.0017345899250358343,2.196476697921753,4.350519343013428,0.00043958815513178706,0.3082606792449951,-1.6249168554889124,-3.2809421099955216e-05,-0.012767811305820942,1.1893253326416016,0.0,0.003913028631359339,0.7476100921630859,0.03173723444342613,0.05377103388309479
235.0,250.0,2.1709,-2.4461,10.1504,-0.1239,0.0382,-0.1214,-1.7937647304930628,-0.06673290580511093,3.067103862762451,-1.4304583072662354,-0.0005673497798852623,2.2016682624816895,4.350535078639648,0.00036767072742804885,0.30458948016166687,-1.6249092260943812,-3.166391979902983e-05,-0.01386822760105133,1.189293384552002,0.0,0.002193990396335721,0.7477218508720398,0.027896659448742867,0.06467892229557037
235.0,250.0,2.1709,-2.4461,10.1504,-0.1239,0.0382,-0.1214,-1.7940579853453578,-0.06814900785684586,3.0317435264587402,-1.4304862022399902,-0.00016808504005894065,2.2699854373931885,4.350555582637451,0.000315993616823107,0.3134792745113373,-1.624880615864889,-3.058779475395568e-05,-0.01404157280921936,1.189353585243225,0.0,-0.010197782889008522,0.7478220462799072,0.024520017206668854,0.0556362047791481
235.0,250.0,2.1709,-2.4461,10.1504,-0.1239,0.0382,-0.1214,-1.794462343255514,-0.06967853009700775,3.025038719177246,-1.430498480796814,-3.199029041667245e-09,2.2049827575683594,4.350543184871338,0.0003113223647233099,0.3202422261238098,-1.6249211470233362,-2.910407965828199e-05,-0.0002016127109527588,1.189293384552002,0.0,0.005796168465167284,0.7479175329208374,0.02009814791381359,0.020950764417648315
235.0,250.0,2.1709,-2.4461,10.1504,-0.1239,0.0382,-0.1214,-1.794690271417135,-0.06938588619232178,3.0301313400268555,-1.4304344654083252,-5.7581391911532e-13,2.1700170040130615,4.350555105800293,0.00036103057209402323,0.3183360695838928,-1.6248930136310022,-2.819239307427779e-05,-0.01319824904203415,1.189265489578247,0.0,-0.006019423715770245,0.7480177879333496,0.018532102927565575,0.03739533573389053
235.0,250.0,2.1709,-2.4461,10.1504,-0.1239,0.0382,-0.1214,-1.7949630222716273,-0.06897561997175217,3.0257232189178467,-1.4304664134979248,0.000974354159552604,2.2376604080200195,4.350640459651611,0.0003371147904545069,0.32205867767333984,-1.6248768011676233,-2.7336083803675137e-05,-0.013872592709958553,1.1892971992492676,0.0,-0.0018322905525565147,0.7481338977813721,0.017532307654619217,0.007930670864880085
235.0,250.0,2.1709,-2.4461,10.1504,-0.1239,0.0382,-0.1214,-1.7953201733031214,-0.06975413113832474,3.0765318870544434,-1.4303982257843018,0.0020418197382241488,2.231630802154541,4.350611372584961,0.0019553296733647585,0.3195255696773529,-1.6248567740069788,-2.6530256945989095e-05,-0.029354775324463844,1.189265489578247,0.0,-0.003298674477264285,0.7482100129127502,0.017048779875040054,-0.0019401558674871922
235.0,250.0,2.1709,-2.4461,10.1504,-0.1239,0.0382,-0.1214,-1.7956797085204066,-0.07023607939481735,3.080404281616211,-1.4303940534591675,0.0027483655139803886,2.213749408721924,4.350627108211182,0.0062493919394910336,0.32751548290252686,-1.6248729864703577,-3.789376933127642e-05,-0.0253104530274868,1.1894022226333618,0.0,-0.0010563982650637627,0.7482972741127014,0.018529167398810387,0.05350970849394798
235.0,250.0,2.1709,-2.4461,10.1504,-0.1239,0.0382,-0.1214,-1.7960049114623011,-0.0709453821182251,3.0703670978546143,-1.4303821325302124,0.0024847970344126225,2.262453079223633,4.350594683284424,0.013074184767901897,0.3317534625530243,-1.6248810927020472,-3.7063062336528674e-05,-0.016248874366283417,1.189317226409912,0.0,-0.0047458624467253685,0.7483896017074585,0.018744008615612984,-0.018271517008543015
235.0,250.0,2.1709,-2.4461,10.1504,-0.1239,0.0382,-0.1214,-1.796293397943014,-0.07271236181259155,3.1058690547943115,-1.4303536415100098,0.001553380279801786,2.255625009536743,4.350687189693115,0.020115341991186142,0.34608352184295654,-1.6248768011676233,-3.6073561204830185e-05,-0.024276433512568474,1.1892573833465576,0.0,0.006061888299882412,0.7485019564628601,0.018249107524752617,0.05884500592947006
235.0,250.0,2.1709,-2.4461,10.1504,-0.1239,0.0382,-0.1214,-1.7967821560301722,-0.07717840373516083,3.128263473510742,-1.4303821325302124,0.0007623559213243425,2.254251480102539,4.350851221675537,0.02068908140063286,0.33938902616500854,-1.624880615864889,-3.4683424019021913e-05,-0.03558386117219925,1.1893614530563354,0.0,-0.003769822884351015,0.7485778331756592,0.0174106452614069,0.0061638131737709045
235.0,250.0,2.1709,-2.4461,10.1504,-0.1239,0.0382,-0.1214,-1.7970787487425746,-0.08132481575012207,3.0567221641540527,-1.4303737878799438,0.0005692564300261438,2.2167704105377197,4.3508664804646,0.018676239997148514,0.33112359046936035,-1.6249011198626917,-3.38146674039308e-05,-0.02394723892211914,1.1893174648284912,0.0,-0.00017429329454898834,0.7486779689788818,0.0165514275431633,0.011911788024008274
235.0,250.0,2.1709,-2.4461,10.1504,-0.1239,0.0382,-0.1214,-1.7973987064757289,-0.08594900369644165,3.066314220428467,-1.4304187297821045,0.0004542495298665017,2.204582929611206,4.350922270412109,0.015442714095115662,0.3378615975379944,-1.6248887220965784,-3.298839874332771e-05,-0.03580757603049278,1.1893413066864014,0.0,-0.004054166376590729,0.7487097978591919,0.01588348299264908,0.06473267823457718
235.0,250.0,2.1709,-2.4461,10.1504,-0.1239,0.0382,-0.1214,-1.7979113064207972,-0.08927768468856812,3.0467724800109863,-1.430366039276123,0.0004173438064754009,2.2076334953308105,4.351010008449219,0.010396508499979973,0.3329820930957794,-1.6249011198626917,-3.1822011806070805e-05,-0.032591819763183594,1.1893253326416016,0.0,0.0044110603630542755,0.7487658262252808,0.01303729135543108,-0.04758019000291824
227.0,246.0,1.7856,-1.815,9.006,-0.0612,0.0438,-0.1095,-1.7982398472227992,-0.09149052202701569,3.0206987857818604,-1.4304146766662598,0.0004217218665871769,2.217618703842163,4.351074858302734,0.006809490267187357,0.3355686366558075,-1.6248610655414026,-3.1089184631127864e-05,-0.046941228210926056,1.189293384552002,0.0,0.0014565646415576339,0.7488377094268799,0.010916715487837791,0.0018555133137851954
227.0,246.0,1.7856,-1.815,9.006,-0.0612,0.0438,-0.1095,-1.7986365757384242,-0.09305202215909958,3.0700087547302246,-1.4303505420684814,0.0003604843223001808,2.145552635192871,4.351091070766113,0.0034911236725747585,0.3249948024749756,-1.6249049345599573,-3.985022340202704e-05,-0.05065812170505524,1.1893532276153564,0.0,-0.01330342423170805,0.7488495707511902,0.00800410471856594,0.04613383859395981
227.0,246.0,1.7856,-1.815,9.006,-0.0612,0.0438,-0.1095,-1.7990294895567835,-0.09402788430452347,2.977778911590576,-1.4304022789001465,0.0017632711678743362,2.192685127258301,4.35101763784375,0.0018637165194377303,0.3273279070854187,-1.6249287764178675,-2.0083634808543138e-05,-0.04560554027557373,1.1893253326416016,0.0,-0.007724775932729244,0.7489137649536133,0.006399739533662796,-0.014648434706032276
227.0,246.0,1.7856,-1.815,9.006,-0.0612,0.0438,-0.1095,-1.7995864353575648,-0.09635905176401138,3.00951886177063,-1.4303710460662842,0.003180186962708831,2.2039570808410645,4.351094408626221,0.0009846988832578063,0.3192767798900604,-1.6249006430255335,-5.590353069351295e-09,-0.04884262755513191,1.1893012523651123,0.0,0.004683876875787973,0.7489415407180786,0.003953611012548208,0.03255510330200195
227.0,246.0,1.7856,-1.815,9.006,-0.0612,0.0438,-0.1095,-1.8000027141966761,-0.09840018302202225,2.9861457347869873,-1.4303669929504395,0.003973101731389761,2.2063369750976562,4.351050062770508,0.000749634113162756,0.3217320740222931,-1.6248810927020472,-2.383255225113512e-11,-0.05027315765619278,1.1893293857574463,0.0,-0.010721337050199509,0.7489216923713684,0.002790522761642933,0.004259164445102215
227.0,246.0,1.7856,-1.815,9.006,-0.0612,0.0438,-0.1095,-1.8003751240172328,-0.10095056146383286,3.024378776550293,-1.4303710460662842,0.004877511411905289,2.2226791381835938,4.351082487697266,0.000605322711635381,0.3169308602809906,-1.6248729864703577,-3.637435656855814e-05,-0.04515070840716362,1.1893093585968018,0.0,-0.003290291177108884,0.7489575147628784,0.0018872736254706979,-0.0074120755307376385
227.0,246.0,1.7856,-1.815,9.006,-0.0612,0.0438,-0.1095,-1.801000257531637,-0.1041901558637619,2.9866185188293457,-1.430286169052124,0.0044607543386518955,2.1997177600860596,4.351114912624023,0.00046977290185168386,0.31309396028518677,-1.6248648802386683,-3.674978870549239e-05,-0.059484414756298065,1.1892813444137573,0.0,-0.014334522187709808,0.7489534616470337,0.0010592173784971237,-0.015018632635474205
227.0,246.0,1.7856,-1.815,9.006,-0.0612,0.0438,-0.1095,-1.8013841114439906,-0.10640981793403625,2.9555392265319824,-1.4302903413772583,0.00476241298019886,2.174783229827881,4.351114912624023,0.0004087704874109477,0.31986361742019653,-1.6249011198626917,-3.530871981638484e-05,-0.061793986707925797,1.1893254518508911,0.0,0.0041341655887663364,0.7489374876022339,0.0008182501187548041,-0.004315155558288097
227.0,246.0,1.7856,-1.815,9.006,-0.0612,0.0438,-0.1095,-1.8017808399596156,-0.10844874382019043,2.944958209991455,-1.4302544593811035,0.004755187314003706,2.2117207050323486,4.351082010860107,0.00036179638118483126,0.3119150996208191,-1.6248930136310022,-3.3975738915614784e-05,-0.07243825495243073,1.1892812252044678,0.0,-0.013499087654054165,0.748929500579834,0.0006666431436315179,0.01868186704814434
227.0,246.0,1.7856,-1.815,9.006,-0.0612,0.0438,-0.1095,-1.8023106060423792,-0.10995451360940933,2.9522666931152344,-1.430254578590393,0.004947150591760874,2.1838579177856445,4.351090117091797,0.0003692326135933399,0.316714882850647,-1.624880615864889,-3.273980473750271e-05,-0.06270955502986908,1.1892893314361572,0.0,0.0021798121742904186,0.7489696145057678,0.0005006174324080348,0.011134151369333267
227.0,246.0,1.7856,-1.815,9.006,-0.0612,0.0438,-0.1095,-1.8029352627196253,-0.11426685750484467,2.8942694664001465,-1.4301578998565674,0.00458415225148201,2.1965320110321045,4.351050062770508,0.0002514068619348109,0.31259432435035706,-1.624869171773092,-4.653378709917888e-05,-0.06472335755825043,1.1893495321273804,0.0,-0.010634993202984333,0.7489175796508789,0.00039868871681392193,-0.014094999991357327
227.0,246.0,1.7856,-1.815,9.006,-0.0612,0.0438,-0.1095,-1.8034163914122523,-0.12191800773143768,2.8995866775512695,-1.430150032043457,0.003981312736868858,2.214877128601074,4.351118250484131,0.0003028202918358147,0.31413599848747253,-1.6249130407916468,-4.501556031755172e-05,-0.07740233093500137,1.189305305480957,0.0,-0.0016282593132928014,0.7489094138145447,0.00019455487199593335,0.020480718463659286
227.0,246.0,1.7856,-1.815,9.006,-0.0612,0.0438,-0.1095,-1.8038526974120082,-0.12956298887729645,2.8731424808502197,-1.4301785230636597,0.0037242404650896788,2.1700329780578613,4.351130171413086,0.0008190088556148112,0.3049612045288086,-1.6248849073993128,-5.783587766927667e-05,-0.07423397898674011,1.1893696784973145,0.0,-0.008610876277089119,0.7489336133003235,9.795015648705885e-05,0.03609658032655716
227.0,246.0,1.7856,-1.815,9.006,-0.0612,0.0438,-0.1095,-1.804577489892477,-0.13344542682170868,2.8775415420532227,-1.4301308393478394,0.005789556540548801,2.163755416870117,4.351166411037109,0.0015297422651201487,0.306978702545166,-1.624880615864889,-5.540238998946734e-05,-0.06192454695701599,1.1893134117126465,0.0,-0.0041907127015292645,0.7489013671875,2.0423182434115006e-07,-0.004623793065547943
227.0,246.0,1.7856,-1.815,9.006,-0.0612,0.0438,-0.1095,-1.805138727227682,-0.13331948220729828,2.839343786239624,-1.4301224946975708,0.007550048176199198,2.179758071899414,4.35115830480542,0.0024276431649923325,0.31290900707244873,-1.624920670186178,-6.712612957926467e-05,-0.07059694826602936,1.189317226409912,0.0,-0.0040862481109797955,0.7489055395126343,3.676100743255084e-11,0.018387863412499428
227.0,246.0,1.7856,-1.815,9.006,-0.0612,0.0438,-0.1095,-1.8056918583311976,-0.1315007358789444,2.858483076095581,-1.4300541877746582,0.010665932670235634,2.1821956634521484,4.351154490108154,0.003097112290561199,0.3159642815589905,-1.6249211470233362,-6.52369053568691e-05,-0.0695113092660904,1.1893212795257568,0.0,-0.0032002711668610573,0.7488976120948792,-0.0021224920637905598,-0.02026168629527092
227.0,246.0,1.7856,-1.815,9.006,-0.0612,0.0438,-0.1095,-1.8064691028990687,-0.1264561116695404,2.8871350288391113,-1.4299702644348145,0.013662287965416908,2.208970785140991,4.351174040431641,0.002662802115082741,0.3159381151199341,-1.624880615864889,-0.00016499587218277156,-0.07900756597518921,1.1893372535705566,0.0,-0.009084111079573631,0.7487931251525879,-0.0025005866773426533,-0.0029927510768175125
227.0,246.0,1.7856,-1.815,9.006,-0.0612,0.0438,-0.1095,-1.8069850407042445,-0.12400329113006592,2.898009777069092,-1.4299266338348389,0.014728598296642303,2.199802875518799,4.3511621195026855,0.0019026906229555607,0.31207358837127686,-1.6249445120440882,-0.00015694918693043292,-0.08934211730957031,1.1893093585968018,0.0,0.006437961012125015,0.7487893104553223,-0.0020797818433493376,-0.018746379762887955
227.0,246.0,1.7856,-1.815,9.006,-0.0612,0.0438,-0.1095,-1.8075138531126917,-0.12691570818424225,2.932023048400879,-1.4299111366271973,0.014718457125127316,2.188976764678955,4.35118214666333,0.0012031615478917956,0.32208722829818726,-1.6248334089862269,-0.0001467277033952996,-0.09635104984045029,1.1892613172531128,0.0,-0.01080462895333767,0.748821496963501,-0.001754686119966209,-0.015493381768465042
215.0,236.0,3.1513,-1.3801,8.5029,-0.1029,-0.0684,-0.1318,-1.8080631695189417,-0.133107990026474,2.902703285217285,-1.429863452911377,0.013922413811087608,2.1435189247131348,4.351154013270996,0.0008696212898939848,0.3095971941947937,-1.6249049345599573,-0.00013774428225588053,-0.08469527959823608,1.1893134117126465,0.0,-0.0037778373807668686,0.7488013505935669,-0.0014767602551728487,0.01230761781334877
215.0,236.0,3.1513,-1.3801,8.5029,-0.1029,-0.0684,-0.1318,-1.808908601800436,-0.14295460283756256,2.8640568256378174,-1.4296942949295044,0.01355925016105175,2.1702332496643066,4.351154490108154,0.0006145788356661797,0.30330073833465576,-1.6248810927020472,-0.00015133190026972443,-0.08027185499668121,1.189333200454712,0.0,-0.01928686909377575,0.7487893104553223,-0.0020903523545712233,-0.04711826145648956
215.0,236.0,3.1513,-1.3801,8.5029,-0.1029,-0.0684,-0.1318,-1.809476991693014,-0.15226855874061584,2.825106143951416,-1.4297308921813965,0.014052500016987324,2.185657262802124,4.351142092342041,0.0005141494912095368,0.31399697065353394,-1.6249125639544886,-0.0001433511934010312,-0.08431696891784668,1.189293384552002,0.0,-0.003562208963558078,0.7487412095069885,-0.002616681857034564,-0.007480711210519075
215.0,236.0,3.1513,-1.3801,8.5029,-0.1029,-0.0684,-0.1318,-1.8100620708861292,-0.15858705341815948,2.861340045928955,-1.4296308755874634,0.016191165894269943,2.1538424491882324,4.351145907039307,0.00044195339432917535,0.30019107460975647,-1.6249049345599573,-0.00013612385373562574,-0.09494154155254364,1.1892409324645996,0.0,-0.0016159408260136843,0.748757541179657,-0.003185870125889778,0.0004624087596312165
215.0,236.0,3.1513,-1.3801,8.5029,-0.1029,-0.0684,-0.1318,-1.8110195598998011,-0.16118863224983215,2.7988357543945312,-1.4294947385787964,0.022531574591994286,2.1873247623443604,4.3512183862873535,0.0004153777554165572,0.2984553575515747,-1.624885384236471,-0.0001265528262592852,-0.09545040130615234,1.1893012523651123,0.0,0.007511770352721214,0.7487536072731018,-0.0035131527110934258,-0.05899975821375847
215.0,236.0,3.1513,-1.3801,8.5029,-0.1029,-0.0684,-0.1318,-1.8116442165770472,-0.15556424856185913,2.8211910724639893,-1.4293423891067505,0.02853061445057392,2.1753549575805664,4.3512183862873535,0.00034008166403509676,0.30571848154067993,-1.6248849073993128,-0.0001208864850923419,-0.07335032522678375,1.1893417835235596,0.0,0.006611759774386883,0.7487375736236572,-0.0035550205502659082,-0.025222711265087128
215.0,236.0,3.1513,-1.3801,8.5029,-0.1029,-0.0684,-0.1318,-1.8122850857176722,-0.14790958166122437,2.891918659210205,-1.4292268753051758,0.03509361296892166,2.1870667934417725,4.351221724147461,0.001522930571809411,0.31597405672073364,-1.624892536793844,-0.00011570582137210295,-0.0844779759645462,1.1893413066864014,0.0,-0.017247553914785385,0.7487093806266785,-0.002940428676083684,-0.04120025783777237
215.0,236.0,3.1513,-1.3801,8.5029,-0.1029,-0.0684,-0.1318,-1.813274999658102,-0.14793765544891357,2.900599956512451,-1.4289944171905518,0.04139259085059166,2.208059310913086,4.351193590755127,0.0018220247002318501,0.31818708777427673,-1.6249006430255335,-0.0001265249156858772,-0.08304816484451294,1.1893372535705566,0.0,-0.0163985975086689,0.7487536072731018,-0.0011826452100649476,-0.02818223275244236
215.0,236.0,3.1513,-1.3801,8.5029,-0.1029,-0.0684,-0.1318,-1.8138672314085902,-0.15478430688381195,2.8856348991394043,-1.4288265705108643,0.04319572448730469,2.231935739517212,4.351234121913574,0.0011308768298476934,0.31186944246292114,-1.624960724507467,-0.00012192576105007902,-0.08968178927898407,1.189305305480957,0.0,0.0006068623624742031,0.7487292885780334,-0.0004677865363191813,-0.05384543538093567
215.0,236.0,3.1513,-1.3801,8.5029,-0.1029,-0.0684,-0.1318,-1.8146172962584437,-0.17129595577716827,2.9051480293273926,-1.4286705255508423,0.04322720691561699,2.204040050506592,4.351165934199951,0.0006077224388718605,0.30180150270462036,-1.6248930136310022,-0.00013400637544691563,-0.09865562617778778,1.1892770528793335,0.0,-0.001352071762084961,0.7487334609031677,0.0004963254905305803,-0.060370706021785736
215.0,236.0,3.1513,-1.3801,8.5029,-0.1029,-0.0684,-0.1318,-1.8152781925597132,-0.18490198254585266,2.853209972381592,-1.4285509586334229,0.04346543550491333,2.2208869457244873,4.351234121913574,0.0004504436510615051,0.3084733188152313,-1.6249449888812464,-0.00014843828103039414,-0.10750758647918701,1.1892855167388916,0.0,-0.00940178893506527,0.7487616539001465,0.000483877956867218,-0.041714489459991455
215.0,236.0,3.1513,-1.3801,8.5029,-0.1029,-0.0684,-0.1318,-1.81646790126943,-0.20112739503383636,2.840137004852295,-1.4282195568084717,0.04628094658255577,2.19069242477417,4.351221724147461,0.00020144646987318993,0.30463936924934387,-1.624920670186178,-0.0001497043704148382,-0.10020729899406433,1.1893491744995117,0.0,0.0017256706487387419,0.7487577199935913,0.00026176744722761214,0.028876379132270813
215.0,236.0,3.1513,-1.3801,8.5029,-0.1029,-0.0684,-0.1318,-1.817188402215475,-0.1975756138563156,2.8845407962799072,-1.4278984069824219,0.05164260044693947,2.21368145942688,4.351257963771484,0.0009036737028509378,0.3088858425617218,-1.6249011198626917,-0.00015418730617966503,-0.09263086318969727,1.1893253326416016,0.0,-0.010077008046209812,0.7487412095069885,1.2508585314208176e-05,0.004640442784875631
215.0,236.0,3.1513,-1.3801,8.5029,-0.1029,-0.0684,-0.1318,-1.8180018864073695,-0.18841451406478882,2.841242551803589,-1.4277071952819824,0.05540388077497482,2.236464023590088,4.3513194757648925,0.004672992508858442,0.3145928382873535,-1.6249130407916468,-0.00016702213906683028,-0.11399183422327042,1.1893372535705566,0.0,0.0013914143200963736,0.7487255334854126,2.251501207695128e-09,-0.0015257475897669792
215.0,236.0,3.1513,-1.3801,8.5029,-0.1029,-0.0684,-0.1318,-1.8190990887083949,-0.17711538076400757,2.909970283508301,-1.4273627996444702,0.0613398514688015,2.212711811065674,4.351305647487305,0.007959621958434582,0.32129836082458496,-1.624948803578512,-0.00017845106776803732,-0.10387757420539856,1.1893012523651123,0.0,-0.008566085249185562,0.7487296462059021,-0.0011382688535377383,-0.0507386215031147
215.0,236.0,3.1513,-1.3801,8.5029,-0.1029,-0.0684,-0.1318,-1.8198687038817347,-0.17529836297035217,2.869682788848877,-1.4271677732467651,0.06290530413389206,2.2655138969421387,4.351305647487305,0.007112355437129736,0.32498499751091003,-1.6249249617206019,-0.00034259885433129966,-0.09906022250652313,1.189333200454712,0.0,-0.004848785698413849,0.7487015724182129,-0.0009544034255668521,0.025226779282093048
215.0,236.0,3.1513,-1.3801,8.5029,-0.1029,-0.0684,-0.1318,-1.8205810985960902,-0.1818850040435791,2.8880693912506104,-1.426923394203186,0.06337838619947433,2.278186082839966,4.351301355952881,0.004694094881415367,0.3208155035972595,-1.6249006430255335,-0.0004149579326622188,-0.09366685897111893,1.189305305480957,0.0,-0.001154385507106781,0.7487293481826782,-0.000512510712724179,-0.04350373148918152
215.0,236.0,3.1513,-1.3801,8.5029,-0.1029,-0.0684,-0.1318,-1.8217555485167445,-0.19939276576042175,2.914695978164673,-1.4265031814575195,0.06483108550310135,2.254964828491211,4.351265593166016,0.001209658570587635,0.3242952823638916,-1.6249449888812464,-0.0004018329782411456,-0.11190767586231232,1.1892732381820679,0.0,0.0009882815647870302,0.748753547668457,-0.00033812326728366315,0.00014136824756860733
215.0,236.0,3.1513,-1.3801,8.5029,-0.1029,-0.0684,-0.1318,-1.8226334057249964,-0.2073582410812378,2.852217674255371,-1.4262676239013672,0.06597104668617249,2.2713794708251953,4.351265593166016,0.00019517865439411253,0.299862265586853,-1.6249049345599573,-0.0003622101212386042,-0.10694397985935211,1.1893491744995117,0.0,0.004584308713674545,0.7487536072731018,-0.00028463455964811146,0.016084859147667885
215.0,236.0,3.1513,-1.3801,8.5029,-0.1029,-0.0684,-0.1318,-1.8233620129027308,-0.2090018391609192,2.870967388153076,-1.4259556531906128,0.07262017577886581,2.263840436935425,4.351329966182373,8.320772053593828e-07,0.304111123085022,-1.624976936970846,-0.0003290934837423265,-0.1259884387254715,1.189317226409912,0.0,0.0016448117094114423,0.7487255334854126,-0.0002468613674864173,-0.0024181287735700607
202.0,220.0,2.2092,-1.2491,9.6341,-0.0484,-0.0643,-0.1263,-1.8242150745787562,-0.20797666907310486,2.8835530281066895,-1.4256879091262817,0.07582054287195206,2.2358334064483643,4.351293249721191,3.547275584381282e-09,0.30112990736961365,-1.6249483267413538,-0.00035064734402112663,-0.12071967124938965,1.189333200454712,0.0,0.003311138367280364,0.7487378716468811,-6.669731374131516e-05,0.004064325243234634
202.0,220.0,2.2092,-1.2491,9.6341,-0.0484,-0.0643,-0.1263,-1.8253690205016078,-0.20512938499450684,2.8819985389709473,-1.4252241849899292,0.08335498720407486,2.2263758182525635,4.351293249721191,9.873971215310084e-13,0.2990213632583618,-1.6249530951129358,-0.0002971514768432826,-0.11409550905227661,1.1893410682678223,0.0,0.0025542420335114002,0.7487216591835022,-0.0001090544683393091,-0.0030640708282589912
