ramyac6/ROB537/final_project/csv/bad/bad_137.csv
tof_0,tof_1,accelx,accely,accelz,gyrox,gyroy,gyroz,shoulder_lift_joint_position,shoulder_lift_joint_velocity,shoulder_lift_joint_effort,elbow_joint_position,elbow_joint_velocity,elbow_joint_effort,wrist_1_joint_position,wrist_1_joint_velocity,wrist_1_joint_effort,wrist_2_joint_position,wrist_2_joint_velocity,wrist_2_joint_effort,wrist_3_joint_position,wrist_3_joint_velocity,wrist_3_joint_effort,shoulder_pan_joint_position,shoulder_pan_joint_velocity,shoulder_pan_joint_effort
298.0,258.0,0.7334,0.3266,9.4558,-0.0426,0.027,-0.119,-1.757876535455221,0.0,2.9500083923339844,-1.6721479892730713,-0.0,2.1167397499084473,4.801416012435713,-0.0,0.29559123516082764,-1.596802059804098,-0.0,-0.014230959117412567,0.7427657842636108,-0.0,0.008887498639523983,0.8228564858436584,0.0,-0.026659324765205383
298.0,258.0,0.7334,0.3266,9.4558,-0.0426,0.027,-0.119,-1.757864614526266,0.0,2.892721176147461,-1.672192096710205,-0.0,2.1650161743164062,4.8013798771198175,-0.0,0.2967682480812073,-1.5967662970172327,-0.0,-0.01291969045996666,0.7427095174789429,-0.0,0.005371797364205122,0.8229371905326843,0.0,0.022400304675102234
298.0,258.0,0.7334,0.3266,9.4558,-0.0426,0.027,-0.119,-1.7579089603819789,0.0,2.9380922317504883,-1.6721806526184082,-0.0,2.0895135402679443,4.801415952831068,-0.0,0.29069024324417114,-1.596773926411764,-0.0,-0.005027079489082098,0.7427411675453186,-0.0,0.003889175597578287,0.8228968977928162,0.0,0.019999967887997627
298.0,258.0,0.7334,0.3266,9.4558,-0.0426,0.027,-0.119,-1.7579132519164027,0.0,2.900373935699463,-1.6721726655960083,-0.0,2.1261446475982666,4.801379929273882,-0.0,0.2800995111465454,-1.5967372099505823,-0.0,-0.018796496093273163,0.7427574992179871,-0.0,0.00460551492869854,0.8228890895843506,0.0,-0.0013486501993611455
298.0,258.0,0.7334,0.3266,9.4558,-0.0426,0.027,-0.119,-1.757848402062887,0.0,2.9158294200897217,-1.6721961498260498,-0.0,2.106919765472412,4.801375816553392,-0.0,0.2815839350223541,-1.596773926411764,-0.0,0.0004632921190932393,0.7427616119384766,-0.0,-0.008705363608896732,0.8229091763496399,0.0,0.0013786591589450836
298.0,258.0,0.7334,0.3266,9.4558,-0.0426,0.027,-0.119,-1.7578684292235316,0.0,2.948370933532715,-1.6721839904785156,-0.0,2.1302103996276855,4.801431666105547,-0.0,0.27999234199523926,-1.596773926411764,-0.0,-0.012399137020111084,0.7427775859832764,-0.0,-0.005684128031134605,0.8228729367256165,0.0,0.008693325333297253
298.0,258.0,0.7334,0.3266,9.4558,-0.0426,0.027,-0.119,-1.7578846416869105,0.0,2.9337310791015625,-1.6722044944763184,-0.0,2.121448516845703,4.801383960037985,-0.0,0.2907414734363556,-1.5967782179461878,-0.0,-0.008961068466305733,0.7427337169647217,-0.0,0.00019957474432885647,0.8229293823242188,0.0,0.02354489639401436
298.0,258.0,0.7334,0.3266,9.4558,-0.0426,0.027,-0.119,-1.7578927479186,0.0,2.968860387802124,-1.6721601486206055,-0.0,2.1130824089050293,4.80139588096694,-0.0,0.2972264885902405,-1.5967901388751429,-0.0,-0.007165776565670967,0.7427657842636108,-0.0,-0.009416691027581692,0.8228849172592163,0.0,0.02274971641600132
298.0,258.0,0.7334,0.3266,9.4558,-0.0426,0.027,-0.119,-1.7578884563841761,0.0,2.9449667930603027,-1.6721961498260498,-0.0,2.116957426071167,4.801423485368051,-0.0,0.2997666895389557,-1.5967171827899378,-0.0,-0.01224978081882,0.7427534461021423,-0.0,0.006504003889858723,0.8228849768638611,0.0,-0.012744560837745667
294.0,256.0,0.6652,0.2871,9.6275,-0.0405,0.0214,-0.1202,-1.7578684292235316,0.0,2.952029228210449,-1.6721725463867188,-0.0,2.124748706817627,4.801392192929544,-0.0,0.30095887184143066,-1.5967901388751429,-0.0,-0.01534183882176876,0.7428296804428101,-0.0,-0.005577506497502327,0.8228769898414612,0.0,0.012899170629680157
294.0,256.0,0.6652,0.2871,9.6275,-0.0405,0.0214,-0.1202,-1.7578884563841761,0.0,2.914407253265381,-1.6721726655960083,-0.0,2.113886833190918,4.8013799516256235,-0.0,0.285695344209671,-1.596757713948385,-0.0,0.0027440765406936407,0.7427575588226318,-0.0,0.000146826496347785,0.8229091167449951,0.0,0.010209588333964348
294.0,256.0,0.6652,0.2871,9.6275,-0.0405,0.0214,-0.1202,-1.757876535455221,0.0,2.9207801818847656,-1.6722166538238525,-0.0,2.126955032348633,4.801463949471273,-0.0,0.2898373603820801,-1.5967662970172327,-0.0,-0.010155356489121914,0.742817759513855,-0.0,-0.009093470871448517,0.8229050636291504,0.0,-0.04329672455787659
294.0,256.0,0.6652,0.2871,9.6275,-0.0405,0.0214,-0.1202,-1.7578445873656214,0.0,2.94140362739563,-1.6721961498260498,-0.0,2.0905652046203613,4.801388117461958,-0.0,0.2759121358394623,-1.5967662970172327,-0.0,-0.0095704086124897,0.742813766002655,-0.0,-0.003840968944132328,0.8229294419288635,0.0,-0.04125284031033516
294.0,256.0,0.6652,0.2871,9.6275,-0.0405,0.0214,-0.1202,-1.7578965626158656,0.0,2.9785876274108887,-1.6722285747528076,-0.0,2.1270081996917725,4.80139588096694,-0.0,0.2852264642715454,-1.5967982451068323,-0.0,-0.018188968300819397,0.742805540561676,-0.0,0.0020065130665898323,0.8229091167449951,0.0,-0.03187965601682663
294.0,256.0,0.6652,0.2871,9.6275,-0.0405,0.0214,-0.1202,-1.7578808269896449,0.0,2.9180727005004883,-1.6722004413604736,-0.0,2.1006381511688232,4.801375809102812,-0.0,0.28614380955696106,-1.5967538992511194,-0.0,-0.010369684547185898,0.7427337765693665,-0.0,0.003428054740652442,0.8228811025619507,0.0,0.017931662499904633
294.0,256.0,0.6652,0.2871,9.6275,-0.0405,0.0214,-0.1202,-1.7579089603819789,0.0,2.9173085689544678,-1.672236442565918,-0.0,2.053236961364746,4.801379884570398,-0.0,0.29930633306503296,-1.596729580556051,-0.0,-0.020441606640815735,0.7427854537963867,-0.0,-0.009851276874542236,0.8228931427001953,0.0,0.024152450263500214
294.0,256.0,0.6652,0.2871,9.6275,-0.0405,0.0214,-0.1202,-1.7578565082945765,0.0,2.9493136405944824,-1.672168493270874,-0.0,2.156871795654297,4.801359484880724,-0.0,0.2926119565963745,-1.5967415014850062,-0.0,-0.01289395708590746,0.7428300976753235,-0.0,-0.0041508302092552185,0.8228808641433716,0.0,-0.013902557082474232
294.0,256.0,0.6652,0.2871,9.6275,-0.0405,0.0214,-0.1202,-1.7578445873656214,0.0,2.91521954536438,-1.6722526550292969,-0.0,2.1375210285186768,4.801399956434526,-0.0,0.2966642379760742,-1.5967696348773401,-0.0,-0.0014324203366413713,0.7427055835723877,-0.0,-0.015546631999313831,0.8229013681411743,0.0,0.030235394835472107
294.0,256.0,0.6652,0.2871,9.6275,-0.0405,0.0214,-0.1202,-1.7578927479186,0.0,2.937964916229248,-1.6722126007080078,-0.0,2.122467517852783,4.801359484880724,-0.0,0.30432140827178955,-1.5967620054828089,-0.0,0.011453107930719852,0.7426974177360535,-0.0,0.011108660139143467,0.8228931427001953,0.0,-0.0054826149716973305
294.0,256.0,0.6652,0.2871,9.6275,-0.0405,0.0214,-0.1202,-1.7578808269896449,0.0,2.955798625946045,-1.6721806526184082,-0.0,2.154256582260132,4.801367643266477,-0.0,0.29152172803878784,-1.5967820326434534,-0.0,-0.01606309972703457,0.7427330613136292,-0.0,0.0047266678884625435,0.8228973150253296,0.0,-0.05923153832554817
294.0,256.0,0.6652,0.2871,9.6275,-0.0405,0.0214,-0.1202,-1.757876535455221,0.0,2.935138702392578,-1.6721563339233398,-0.0,2.089764356613159,4.801404113858499,-0.0,0.2998889684677124,-1.5967538992511194,-0.0,0.0013896613381803036,0.7427616119384766,-0.0,-0.014702538959681988,0.82293301820755,0.0,0.030402079224586487
294.0,256.0,0.6652,0.2871,9.6275,-0.0405,0.0214,-0.1202,-1.7578884563841761,0.0,2.932040214538574,-1.6722044944763184,-0.0,2.1062614917755127,4.8014201177056215,-0.0,0.2875707745552063,-1.5967901388751429,-0.0,-0.015628790482878685,0.7427775859832764,-0.0,-0.001109811826609075,0.8228811025619507,0.0,-0.012601664289832115
294.0,256.0,0.6652,0.2871,9.6275,-0.0405,0.0214,-0.1202,-1.757876535455221,0.0,2.926668167114258,-1.6721887588500977,-0.0,2.1115124225616455,4.801396275847711,-0.0,0.29301825165748596,-1.5967538992511194,-0.0,-0.009461453184485435,0.7427856922149658,-0.0,-0.007389133330434561,0.8228809237480164,0.0,0.020835481584072113
294.0,256.0,0.6652,0.2871,9.6275,-0.0405,0.0214,-0.1202,-1.757864614526266,0.0,2.943131446838379,-1.672192096710205,-0.0,2.1030447483062744,4.801432344108381,-0.0,0.2870306372642517,-1.5968058745013636,-0.0,-0.004394812975078821,0.7427412867546082,-0.0,0.007984684780240059,0.8229212164878845,0.0,-0.0048366449773311615
294.0,256.0,0.6652,0.2871,9.6275,-0.0405,0.0214,-0.1202,-1.757848402062887,0.0,2.935988426208496,-1.6722204685211182,-0.0,2.128579616546631,4.801367643266477,-0.0,0.28468990325927734,-1.596773926411764,-0.0,-0.002019695471972227,0.7427574992179871,-0.0,-0.0024225956294685602,0.8228968977928162,0.0,-0.018678927794098854
294.0,256.0,0.6652,0.2871,9.6275,-0.0405,0.0214,-0.1202,-1.7578360042967738,0.0,2.912726879119873,-1.6721642017364502,-0.0,2.0727944374084473,4.801388117461958,-0.0,0.2952169179916382,-1.596729580556051,-0.0,-0.00017224374460056424,0.7427697777748108,-0.0,0.0015203419607132673,0.8229009509086609,0.0,-0.045492835342884064
294.0,256.0,0.6652,0.2871,9.6275,-0.0405,0.0214,-0.1202,-1.757848402062887,0.0,2.907604932785034,-1.6722242832183838,-0.0,2.144737482070923,4.801335643022814,-0.0,0.2914745807647705,-1.596729580556051,-0.0,-0.010026960633695126,0.7427657842636108,-0.0,-0.005774787161499262,0.8229009509086609,0.0,-0.004891052842140198
305.0,242.0,0.8818,0.3751,9.0897,-0.0417,0.0331,-0.1313,-1.7578240833678187,0.0,2.8969879150390625,-1.6722164154052734,-0.0,2.083406448364258,4.801375876158037,-0.0,0.2896474301815033,-1.5967620054828089,-0.0,-0.010725583881139755,0.7427377700805664,-0.0,-0.010379929095506668,0.8228767514228821,0.0,0.014094129204750061
305.0,242.0,0.8818,0.3751,9.0897,-0.0417,0.0331,-0.1313,-1.7579051456847132,0.0,2.9187774658203125,-1.6721880435943604,-0.0,2.1361536979675293,4.801415952831068,-0.0,0.29556936025619507,-1.5967581907855433,-0.0,-0.013476609252393246,0.7427534461021423,-0.0,-0.009947020560503006,0.8229050636291504,0.0,0.043673813343048096
305.0,242.0,0.8818,0.3751,9.0897,-0.0417,0.0331,-0.1313,-1.7579008541502894,0.0,2.9251174926757812,-1.6721482276916504,-0.0,2.090815782546997,4.801363567798891,-0.0,0.2930208146572113,-1.5967376867877405,-0.0,-0.005033314693719149,0.7427657842636108,-0.0,0.008614558726549149,0.8228809237480164,0.0,0.008615282364189625
305.0,242.0,0.8818,0.3751,9.0897,-0.0417,0.0331,-0.1313,-1.7578846416869105,0.0,2.893430709838867,-1.672168493270874,-0.0,2.186952829360962,4.801383960037985,-0.0,0.28531527519226074,-1.5967453161822718,-0.0,-0.007607756648212671,0.7427616119384766,-0.0,0.0037891678512096405,0.8229130506515503,0.0,-0.0005539562553167343
305.0,242.0,0.8818,0.3751,9.0897,-0.0417,0.0331,-0.1313,-1.757848402062887,0.0,2.9656200408935547,-1.6721519231796265,-0.0,2.147630453109741,4.801379884570398,-0.0,0.2978837192058563,-1.5968058745013636,-0.0,-0.00441810442134738,0.7427738308906555,-0.0,0.0012366583105176687,0.8228931427001953,0.0,-0.0375492200255394
305.0,242.0,0.8818,0.3751,9.0897,-0.0417,0.0331,-0.1313,-1.7578689060606898,0.0,2.9214930534362793,-1.6721961498260498,-0.0,2.112919330596924,4.801424193173208,-0.0,0.29258814454078674,-1.5967333952533167,-0.0,-0.014698812738060951,0.7427534461021423,-0.0,0.0021447150502353907,0.822917103767395,0.0,0.01850700005888939
305.0,242.0,0.8818,0.3751,9.0897,-0.0417,0.0331,-0.1313,-1.7578927479186,0.0,2.9343905448913574,-1.6722044944763184,-0.0,2.1562116146087646,4.801331567555227,-0.0,0.2855035364627838,-1.5967863241778772,-0.0,-0.005179582163691521,0.7427452802658081,-0.0,-6.083690095692873e-05,0.8229130506515503,0.0,0.03907020390033722
305.0,242.0,0.8818,0.3751,9.0897,-0.0417,0.0331,-0.1313,-1.757848402062887,0.0,2.9422855377197266,-1.672192096710205,-0.0,2.129101037979126,4.801383960037985,-0.0,0.30117738246917725,-1.5967982451068323,-0.0,-0.015178046189248562,0.7427977323532104,-0.0,0.0008961048442870378,0.8228931427001953,0.0,0.02509818971157074
305.0,242.0,0.8818,0.3751,9.0897,-0.0417,0.0331,-0.1313,-1.7579089603819789,0.0,2.907071113586426,-1.6721601486206055,-0.0,2.1385982036590576,4.801399956434526,-0.0,0.2966124415397644,-1.5967701117144983,-0.0,-0.006845954339951277,0.7427258491516113,-0.0,-0.008041498251259327,0.8228890895843506,0.0,0.005337791983038187
305.0,242.0,0.8818,0.3751,9.0897,-0.0417,0.0331,-0.1313,-1.7578565082945765,0.0,2.9204893112182617,-1.6721562147140503,-0.0,2.1114115715026855,4.801391805499353,-0.0,0.2893247902393341,-1.5967662970172327,-0.0,-0.01473555900156498,0.7427256107330322,-0.0,-0.0018612833227962255,0.8229050636291504,0.0,-0.03678201511502266
305.0,242.0,0.8818,0.3751,9.0897,-0.0417,0.0331,-0.1313,-1.7578841648497523,0.0,2.9284257888793945,-1.6722204685211182,-0.0,2.140876531600952,4.801339494972982,-0.0,0.28903308510780334,-1.5967782179461878,-0.0,-0.008062814362347126,0.7427412271499634,-0.0,-0.009139012545347214,0.8228849768638611,0.0,-0.010329452343285084
305.0,242.0,0.8818,0.3751,9.0897,-0.0417,0.0331,-0.1313,-1.7579132519164027,0.0,2.9265098571777344,-1.6722044944763184,-0.0,2.0782155990600586,4.801392192929544,-0.0,0.2921522259712219,-1.5967496077166956,-0.0,0.002149338601157069,0.7427534461021423,-0.0,0.00015052675735205412,0.8228849768638611,0.0,-0.012341654859483242
305.0,242.0,0.8818,0.3751,9.0897,-0.0417,0.0331,-0.1313,-1.7578932247557582,0.0,2.938553810119629,-1.6722126007080078,-0.0,2.1407556533813477,4.80137180069045,-0.0,0.28478318452835083,-1.5967333952533167,-0.0,-0.004134045448154211,0.7427495121955872,-0.0,-0.020538732409477234,0.8228849768638611,0.0,-0.030360886827111244
305.0,242.0,0.8818,0.3751,9.0897,-0.0417,0.0331,-0.1313,-1.7578603229918421,0.0,2.9270803928375244,-1.6722404956817627,-0.0,2.101719617843628,4.801379884570398,-0.0,0.2842983603477478,-1.5967453161822718,-0.0,-0.016511395573616028,0.7427452802658081,-0.0,0.0004686195170506835,0.8228769898414612,0.0,0.007516451179981232
305.0,242.0,0.8818,0.3751,9.0897,-0.0417,0.0331,-0.1313,-1.7578565082945765,0.0,2.908559799194336,-1.6722166538238525,-0.0,2.139192581176758,4.801335643022814,-0.0,0.28550589084625244,-1.5967496077166956,-0.0,-0.011815128847956657,0.7428176403045654,-0.0,-0.016009459272027016,0.8229330778121948,0.0,0.01658659242093563
305.0,242.0,0.8818,0.3751,9.0897,-0.0417,0.0331,-0.1313,-1.7579051456847132,0.0,2.923034429550171,-1.6722002029418945,-0.0,2.1139464378356934,4.801359484880724,-0.0,0.28468039631843567,-1.5967333952533167,-0.0,0.007325929589569569,0.7427976727485657,-0.0,-0.010006584227085114,0.8229212164878845,0.0,-0.008718438446521759
305.0,242.0,0.8818,0.3751,9.0897,-0.0417,0.0331,-0.1313,-1.7578884563841761,0.0,2.9316933155059814,-1.6721601486206055,-0.0,2.0745882987976074,4.801359879761495,-0.0,0.28238457441329956,-1.596773926411764,-0.0,-0.007154050283133984,0.7427218556404114,-0.0,-0.004437786526978016,0.8228729367256165,0.0,0.019896363839507103
305.0,242.0,0.8818,0.3751,9.0897,-0.0417,0.0331,-0.1313,-1.7578402958311976,0.0,2.940401315689087,-1.672236680984497,-0.0,2.1193790435791016,4.801391805499353,-0.0,0.28581756353378296,-1.5967372099505823,-0.0,0.005085267126560211,0.7427218556404114,-0.0,-0.0050964755937457085,0.8228931427001953,0.0,0.02399102970957756
300.0,261.0,0.8596,0.3721,9.2447,-0.0463,0.0263,-0.1251,-1.757836481133932,0.0,2.9395856857299805,-1.6721160411834717,-0.0,2.122936248779297,4.801363567798891,-0.0,0.28818684816360474,-1.5967453161822718,-0.0,0.0074998862110078335,0.7427452802658081,-0.0,-0.008915439248085022,0.822933554649353,0.0,-0.014360775239765644
300.0,261.0,0.8596,0.3721,9.2447,-0.0463,0.0263,-0.1251,-1.7579051456847132,0.0,2.930349349975586,-1.672196388244629,-0.0,2.113759994506836,4.801388117461958,-0.0,0.2992936372756958,-1.596773926411764,-0.0,0.0007587599684484303,0.7427738308906555,-0.0,0.0052855550311505795,0.8228931427001953,0.0,0.022109489887952805
300.0,261.0,0.8596,0.3721,9.2447,-0.0463,0.0263,-0.1251,-1.7578965626158656,0.0,2.935025215148926,-1.6722002029418945,-0.0,2.1368932723999023,4.801367643266477,-0.0,0.27973031997680664,-1.5967415014850062,-0.0,-0.011899221688508987,0.7427574992179871,-0.0,-0.00039130705408751965,0.8228731751441956,0.0,0.03092527762055397
300.0,261.0,0.8596,0.3721,9.2447,-0.0463,0.0263,-0.1251,-1.7578360042967738,0.0,2.902268409729004,-1.672184705734253,-0.0,2.1695892810821533,4.801383960037985,-0.0,0.283401221036911,-1.5967863241778772,-0.0,-0.01716509833931923,0.742781400680542,-0.0,0.004556681029498577,0.8228849768638611,0.0,-0.002334555145353079
300.0,261.0,0.8596,0.3721,9.2447,-0.0463,0.0263,-0.1251,-1.7578684292235316,0.0,2.910268545150757,-1.6721880435943604,-0.0,2.1297800540924072,4.801367643266477,-0.0,0.27905935049057007,-1.5967496077166956,-0.0,0.004588660784065723,0.7427977323532104,-0.0,0.002058914629742503,0.8229617476463318,0.0,-0.029129235073924065
300.0,261.0,0.8596,0.3721,9.2447,-0.0463,0.0263,-0.1251,-1.7578841648497523,0.0,2.9381394386291504,-1.6722166538238525,-0.0,2.147244453430176,4.801379981427946,-0.0,0.276710569858551,-1.5967901388751429,-0.0,-0.01756395399570465,0.7428216934204102,-0.0,-0.004317408427596092,0.8228849768638611,0.0,0.026372183114290237
300.0,261.0,0.8596,0.3721,9.2447,-0.0463,0.0263,-0.1251,-1.7579089603819789,0.0,2.9219601154327393,-1.6722166538238525,-0.0,2.1292433738708496,4.8013799516256235,-0.0,0.28861916065216064,-1.5967863241778772,-0.0,0.0012421882711350918,0.7427494525909424,-0.0,0.004341803956776857,0.8229130506515503,0.0,-0.014134800061583519
300.0,261.0,0.8596,0.3721,9.2447,-0.0463,0.0263,-0.1251,-1.7578884563841761,0.0,2.9053473472595215,-1.6721765995025635,-0.0,2.139739513397217,4.801419462054529,-0.0,0.2857169508934021,-1.5967901388751429,-0.0,-0.007055393420159817,0.7427856922149658,-0.0,-1.6982958186417818e-06,0.8229371905326843,0.0,-0.021554479375481606
300.0,261.0,0.8596,0.3721,9.2447,-0.0463,0.0263,-0.1251,-1.7578603229918421,0.0,2.9481232166290283,-1.6721806526184082,-0.0,2.155360221862793,4.801339696138658,-0.0,0.28349432349205017,-1.5967820326434534,-0.0,0.006601952016353607,0.7427337765693665,-0.0,0.012471731752157211,0.8228729367256165,0.0,-0.0031506139785051346
300.0,261.0,0.8596,0.3721,9.2447,-0.0463,0.0263,-0.1251,-1.757876535455221,0.0,2.9190139770507812,-1.6722044944763184,-0.0,2.0977587699890137,4.801399956434526,-0.0,0.3008818030357361,-1.5967863241778772,-0.0,-0.006033145822584629,0.7428217530250549,-0.0,0.006930412724614143,0.8228931427001953,0.0,0.03624595329165459
300.0,261.0,0.8596,0.3721,9.2447,-0.0463,0.0263,-0.1251,-1.7578565082945765,0.0,2.9344844818115234,-1.6722204685211182,-0.0,2.1219375133514404,4.801363523095407,-0.0,0.28789740800857544,-1.5967496077166956,-0.0,-0.004438408650457859,0.7427654266357422,-0.0,0.0031509650871157646,0.8228849768638611,0.0,-0.008484884165227413
300.0,261.0,0.8596,0.3721,9.2447,-0.0463,0.0263,-0.1251,-1.7578603229918421,0.0,2.8813564777374268,-1.6721519231796265,-0.0,2.1389753818511963,4.8013599319155595,-0.0,0.29078808426856995,-1.5967538992511194,-0.0,-0.013946738094091415,0.7427494525909424,-0.0,0.00016986916307359934,0.8229050636291504,0.0,-0.00558394193649292
300.0,261.0,0.8596,0.3721,9.2447,-0.0463,0.0263,-0.1251,-1.7578808269896449,0.0,2.9220924377441406,-1.6721322536468506,-0.0,2.0754661560058594,4.801355804293909,-0.0,0.28775954246520996,-1.596729580556051,-0.0,-0.00557221844792366,0.742769718170166,-0.0,-0.01617618463933468,0.8229091167449951,0.0,-0.01208608876913786
300.0,261.0,0.8596,0.3721,9.2447,-0.0463,0.0263,-0.1251,-1.7578965626158656,0.0,2.885038137435913,-1.6722044944763184,-0.0,2.141444444656372,4.801395948022165,-0.0,0.2840619683265686,-1.5967863241778772,-0.0,0.0075750029645860195,0.7427337765693665,-0.0,-0.0071892887353897095,0.8228972554206848,0.0,-0.019764548167586327
300.0,261.0,0.8596,0.3721,9.2447,-0.0463,0.0263,-0.1251,-1.757864614526266,0.0,2.90116024017334,-1.6721765995025635,-0.0,2.0896074771881104,4.80139588841752,-0.0,0.28358936309814453,-1.5967252890216272,-0.0,-0.00675183767452836,0.742769718170166,-0.0,-0.010526864789426327,0.8229130506515503,0.0,-0.01731090620160103
300.0,261.0,0.8596,0.3721,9.2447,-0.0463,0.0263,-0.1251,-1.7578884563841761,0.0,2.901479482650757,-1.6721961498260498,-0.0,2.103832721710205,4.801411907165804,-0.0,0.2971670627593994,-1.5967777411090296,-0.0,-0.010577831417322159,0.7427372336387634,-0.0,-0.00346183474175632,0.8228324055671692,0.0,-0.03339151293039322
300.0,261.0,0.8596,0.3721,9.2447,-0.0463,0.0263,-0.1251,-1.7578684292235316,0.0,2.9259724617004395,-1.6721560955047607,-0.0,2.1200032234191895,4.80136356034831,-0.0,0.2962040603160858,-1.5967863241778772,-0.0,-0.011930425651371479,0.7427493929862976,-0.0,-0.013829383067786694,0.8229294419288635,0.0,-0.0294233076274395
300.0,261.0,0.8596,0.3721,9.2447,-0.0463,0.0263,-0.1251,-1.7578684292235316,0.0,2.9277071952819824,-1.6722002029418945,-0.0,2.0799765586853027,4.80136755385951,-0.0,0.28836488723754883,-1.596773926411764,-0.0,-0.014428585767745972,0.7427337765693665,-0.0,-0.007670896593481302,0.8229294419288635,0.0,0.005730027798563242
286.0,251.0,0.7011,0.277,9.5157,-0.04,0.0281,-0.1234,-1.7578565082945765,0.0,2.8742294311523438,-1.672208547592163,-0.0,2.1242833137512207,4.8013798771198175,-0.0,0.27944621443748474,-1.5967214743243616,-0.0,-0.01041839737445116,0.7427534461021423,-0.0,0.0033125746995210648,0.822868824005127,0.0,-0.015140432864427567
286.0,251.0,0.7011,0.277,9.5157,-0.04,0.0281,-0.1234,-1.7579089603819789,0.0,2.9068124294281006,-1.6722044944763184,-0.0,2.1485719680786133,4.801355789392748,-0.0,0.2834806442260742,-1.596757713948385,-0.0,-0.012124310247600079,0.7427534461021423,-0.0,-0.0021122016478329897,0.8228968977928162,0.0,0.00382614997215569
286.0,251.0,0.7011,0.277,9.5157,-0.04,0.0281,-0.1234,-1.7579089603819789,0.0,2.876361846923828,-1.6721519231796265,-0.0,2.1329221725463867,4.801355729788103,-0.0,0.29544711112976074,-1.5967214743243616,-0.0,-0.017479076981544495,0.7427412271499634,-0.0,-0.010548866353929043,0.8229290246963501,0.0,-0.022060411050915718
286.0,251.0,0.7011,0.277,9.5157,-0.04,0.0281,-0.1234,-1.7578927479186,0.0,2.927783966064453,-1.6721482276916504,-0.0,2.102571725845337,4.80137180069045,-0.0,0.29768797755241394,-1.5967662970172327,-0.0,-0.00045976671390235424,0.7427412271499634,-0.0,0.0017602178268134594,0.822917103767395,0.0,0.02033871039748192
286.0,251.0,0.7011,0.277,9.5157,-0.04,0.0281,-0.1234,-1.7578445873656214,0.0,2.9270176887512207,-1.6722126007080078,-0.0,2.114713191986084,4.801367635815897,-0.0,0.27609628438949585,-1.5967662970172327,-0.0,-0.00645155506208539,0.7427337765693665,-0.0,-0.012175164185464382,0.8228647112846375,0.0,-0.004287661984562874
286.0,251.0,0.7011,0.277,9.5157,-0.04,0.0281,-0.1234,-1.7578841648497523,0.0,2.9218907356262207,-1.672208547592163,-0.0,2.1367592811584473,4.801408181875505,-0.0,0.29246973991394043,-1.5967333952533167,-0.0,-0.009309603832662106,0.7427534461021423,-0.0,0.004222193732857704,0.8229252696037292,0.0,-0.009451054967939854
286.0,251.0,0.7011,0.277,9.5157,-0.04,0.0281,-0.1234,-1.757864614526266,0.0,2.913421630859375,-1.6721765995025635,-0.0,2.0879147052764893,4.801392200380125,-0.0,0.2825348675251007,-1.5967376867877405,-0.0,-0.019447393715381622,0.7427452802658081,-0.0,-0.013528004288673401,0.8229371905326843,0.0,0.0343693345785141
286.0,251.0,0.7011,0.277,9.5157,-0.04,0.0281,-0.1234,-1.7578927479186,0.0,2.9319519996643066,-1.6722283363342285,-0.0,2.121166229248047,4.801383960037985,-0.0,0.2987074851989746,-1.596729580556051,-0.0,-0.001199080259539187,0.7427575588226318,-0.0,-0.0010828211670741439,0.8228729367256165,0.0,-0.01264195702970028
286.0,251.0,0.7011,0.277,9.5157,-0.04,0.0281,-0.1234,-1.7579008541502894,0.0,2.933032512664795,-1.672208547592163,-0.0,2.1005117893218994,4.801392192929544,-0.0,0.27668917179107666,-1.5967820326434534,-0.0,-0.009732559323310852,0.7427337765693665,-0.0,-0.006756165996193886,0.8229212164878845,0.0,0.019235754385590553
286.0,251.0,0.7011,0.277,9.5157,-0.04,0.0281,-0.1234,-1.7578360042967738,0.0,2.9113450050354004,-1.6722285747528076,-0.0,2.098287582397461,4.801396268397131,-0.0,0.2799455523490906,-1.5967453161822718,-0.0,0.00024580303579568863,0.7427371144294739,-0.0,0.005598273128271103,0.8229330778121948,0.0,0.02398703619837761
286.0,251.0,0.7011,0.277,9.5157,-0.04,0.0281,-0.1234,-1.7579008541502894,0.0,2.9308133125305176,-1.6722044944763184,-0.0,2.1143417358398438,4.801375876158037,-0.0,0.2756505608558655,-1.5967090765582483,-0.0,-0.012393726967275143,0.7427371144294739,-0.0,-0.005906696431338787,0.8229013681411743,0.0,-0.044576484709978104
286.0,251.0,0.7011,0.277,9.5157,-0.04,0.0281,-0.1234,-1.757864614526266,0.0,2.974294424057007,-1.672184705734253,-0.0,2.1352508068084717,4.80137180069045,-0.0,0.2790917456150055,-1.5967620054828089,-0.0,-0.0007096901535987854,0.7427418231964111,-0.0,0.0024290969595313072,0.822877049446106,0.0,-0.04956378787755966
286.0,251.0,0.7011,0.277,9.5157,-0.04,0.0281,-0.1234,-1.7578722439207972,0.0,2.925405979156494,-1.6722126007080078,-0.0,2.12333083152771,4.80137180069045,-0.0,0.2861589193344116,-1.5967782179461878,-0.0,0.004507292062044144,0.7427574992179871,-0.0,0.0010312586091458797,0.8229252696037292,0.0,-0.012531891465187073
286.0,251.0,0.7011,0.277,9.5157,-0.04,0.0281,-0.1234,-1.7578884563841761,0.0,2.881277561187744,-1.6722530126571655,-0.0,2.1213743686676025,4.801411899715223,-0.0,0.28515326976776123,-1.5967453161822718,-0.0,-0.004255812615156174,0.7426731586456299,-0.0,0.002892484422773123,0.8228403925895691,0.0,0.023984264582395554
286.0,251.0,0.7011,0.277,9.5157,-0.04,0.0281,-0.1234,-1.7578565082945765,0.0,2.894211530685425,-1.6722204685211182,-0.0,2.1458544731140137,4.801331567555227,-0.0,0.2798885107040405,-1.5967982451068323,-0.0,0.0021919035352766514,0.7427657842636108,-0.0,0.0028138193301856518,0.8229214549064636,0.0,-0.009901001118123531
286.0,251.0,0.7011,0.277,9.5157,-0.04,0.0281,-0.1234,-1.757864614526266,0.0,2.9118881225585938,-1.672168493270874,-0.0,2.17136287689209,4.801363567798891,-0.0,0.29948461055755615,-1.5967252890216272,-0.0,-0.013373740948736668,0.7427657842636108,-0.0,-0.019556138664484024,0.8228808641433716,0.0,-0.016246695071458817
286.0,251.0,0.7011,0.277,9.5157,-0.04,0.0281,-0.1234,-1.7578603229918421,0.0,2.9294300079345703,-1.6721642017364502,-0.0,2.048621654510498,4.801404113858499,-0.0,0.29291555285453796,-1.5967620054828089,-0.0,0.0015066583873704076,0.7427371144294739,-0.0,-0.007943421602249146,0.8229330778121948,0.0,0.0180235356092453
286.0,251.0,0.7011,0.277,9.5157,-0.04,0.0281,-0.1234,-1.7578522167601527,0.0,2.8963522911071777,-1.672236442565918,-0.0,2.1332435607910156,4.801383960037985,-0.0,0.2926408052444458,-1.5967453161822718,-0.0,-0.000721024232916534,0.7427255511283875,-0.0,0.0010011553531512618,0.8229009509086609,0.0,0.03485192358493805
296.0,264.0,0.6652,0.2925,9.5181,-0.0344,0.0241,-0.1208,-1.7579089603819789,0.0,2.849928379058838,-1.6722002029418945,-0.0,2.106398105621338,4.801347534149446,-0.0,0.3001253604888916,-1.596802059804098,-0.0,-0.013479102402925491,0.7427412271499634,-0.0,0.008130436763167381,0.8228527307510376,0.0,0.006487955804914236
296.0,264.0,0.6652,0.2925,9.5181,-0.0344,0.0241,-0.1208,-1.7578603229918421,0.0,2.914602279663086,-1.6721601486206055,-0.0,2.105360507965088,4.801335635572233,-0.0,0.2903088927268982,-1.5967133680926722,-0.0,-0.013637213036417961,0.7427452802658081,-0.0,-0.005569894332438707,0.8229212164878845,0.0,-0.02677834965288639
296.0,264.0,0.6652,0.2925,9.5181,-0.0344,0.0241,-0.1208,-1.7579089603819789,0.0,2.916694402694702,-1.672143816947937,-0.0,2.1471750736236572,4.801367643266477,-0.0,0.2928236424922943,-1.5967901388751429,-0.0,-0.0116436081007123,0.7427136301994324,-0.0,0.017571065574884415,0.8228811025619507,0.0,0.03553517162799835
296.0,264.0,0.6652,0.2925,9.5181,-0.0344,0.0241,-0.1208,-1.7578841648497523,0.0,2.8998517990112305,-1.6722004413604736,-0.0,2.105811595916748,4.801383960037985,-0.0,0.28675955533981323,-1.5967620054828089,-0.0,-0.015044623985886574,0.7427095174789429,-0.0,0.0040394761599600315,0.8228890299797058,0.0,0.053601861000061035
296.0,264.0,0.6652,0.2925,9.5181,-0.0344,0.0241,-0.1208,-1.7579132519164027,0.0,2.928720235824585,-1.672192096710205,-0.0,2.080521821975708,4.80139588096694,-0.0,0.3010746240615845,-1.5967376867877405,-0.0,-0.011926820501685143,0.7427616119384766,-0.0,0.00036090367939323187,0.8229252696037292,0.0,0.009191024117171764
296.0,264.0,0.6652,0.2925,9.5181,-0.0344,0.0241,-0.1208,-1.7578402958311976,0.0,2.9230024814605713,-1.672236442565918,-0.0,2.1017627716064453,4.801431636303224,-0.0,0.2922338843345642,-1.5967009703265589,-0.0,-0.008294234052300453,0.7428300380706787,-0.0,0.0022371727973222733,0.8229212164878845,0.0,-0.045127250254154205
296.0,264.0,0.6652,0.2925,9.5181,-0.0344,0.0241,-0.1208,-1.7579175434508265,0.0,2.8959860801696777,-1.672208547592163,-0.0,2.137911796569824,4.801351646869936,-0.0,0.28831344842910767,-1.5967901388751429,-0.0,-0.00038609554758295417,0.7427135705947876,-0.0,-0.006311509292572737,0.822925329208374,0.0,-0.05720285326242447
296.0,264.0,0.6652,0.2925,9.5181,-0.0344,0.0241,-0.1208,-1.757876535455221,0.0,2.9165639877319336,-1.6721725463867188,-0.0,2.1035430431365967,4.801367650717058,-0.0,0.2845059037208557,-1.5967662970172327,-0.0,0.0024629966355860233,0.7428017854690552,-0.0,0.0013546398840844631,0.8228849768638611,0.0,0.004532653838396072
296.0,264.0,0.6652,0.2925,9.5181,-0.0344,0.0241,-0.1208,-1.7578722439207972,0.0,2.9107704162597656,-1.6721880435943604,-0.0,2.1405274868011475,4.801383960037985,-0.0,0.2879124879837036,-1.5967496077166956,-0.0,0.002746348502114415,0.7427013516426086,-0.0,0.007261297665536404,0.8228972554206848,0.0,-0.027938054874539375
296.0,264.0,0.6652,0.2925,9.5181,-0.0344,0.0241,-0.1208,-1.7578846416869105,0.0,2.917804718017578,-1.672224521636963,-0.0,2.155848503112793,4.801399956434526,-0.0,0.30365651845932007,-1.5967620054828089,-0.0,-4.5432825572788715e-05,0.7427494525909424,-0.0,-0.0021393094211816788,0.8229413032531738,0.0,0.023291807621717453
296.0,264.0,0.6652,0.2925,9.5181,-0.0344,0.0241,-0.1208,-1.7578565082945765,0.0,2.921534299850464,-1.6722004413604736,-0.0,2.1317601203918457,4.801404113858499,-0.0,0.2875570058822632,-1.5967782179461878,-0.0,0.0016387579962611198,0.7427371740341187,-0.0,-0.0002519311383366585,0.822925329208374,0.0,-0.01102981436997652
296.0,264.0,0.6652,0.2925,9.5181,-0.0344,0.0241,-0.1208,-1.7578603229918421,0.0,2.9451613426208496,-1.6722283363342285,-0.0,2.1434569358825684,4.801408196776666,-0.0,0.30027490854263306,-1.5967863241778772,-0.0,-0.011578612960875034,0.7427854537963867,-0.0,-0.008638913743197918,0.8229371905326843,0.0,0.029425570741295815
296.0,264.0,0.6652,0.2925,9.5181,-0.0344,0.0241,-0.1208,-1.7578722439207972,0.0,2.8803882598876953,-1.672168493270874,-0.0,2.121267557144165,4.801392192929544,-0.0,0.293965220451355,-1.5967095533954065,-0.0,-0.010333510115742683,0.7426972389221191,-0.0,-0.00854425597935915,0.8229248523712158,0.0,-0.013434656895697117
296.0,264.0,0.6652,0.2925,9.5181,-0.0344,0.0241,-0.1208,-1.7578884563841761,0.0,2.95534348487854,-1.6722044944763184,-0.0,2.0794577598571777,4.801411922066965,-0.0,0.2851768434047699,-1.5967701117144983,-0.0,-0.005660371854901314,0.7427977919578552,-0.0,0.002313852310180664,0.8228567242622375,0.0,0.034938592463731766
296.0,264.0,0.6652,0.2925,9.5181,-0.0344,0.0241,-0.1208,-1.7578689060606898,0.0,2.8991665840148926,-1.672192096710205,-0.0,2.2030231952667236,4.801379884570398,-0.0,0.2863991856575012,-1.596802059804098,-0.0,-0.010743326507508755,0.7426894307136536,-0.0,-0.00253876275382936,0.8229132294654846,0.0,0.010990818031132221
296.0,264.0,0.6652,0.2925,9.5181,-0.0344,0.0241,-0.1208,-1.7578884563841761,0.0,2.983872175216675,-1.6722126007080078,-0.0,2.111417770385742,4.801335643022814,-0.0,0.2872591018676758,-1.5967538992511194,-0.0,-0.0052400073036551476,0.7427575588226318,-0.0,-0.004873467609286308,0.8229252696037292,0.0,0.030257893726229668
296.0,264.0,0.6652,0.2925,9.5181,-0.0344,0.0241,-0.1208,-1.7578689060606898,0.0,2.89259672164917,-1.6722445487976074,-0.0,2.1455893516540527,4.801392192929544,-0.0,0.3001739978790283,-1.596757713948385,-0.0,0.006125068292021751,0.7427775859832764,-0.0,0.005973344203084707,0.8229047656059265,0.0,-0.012049764394760132
296.0,264.0,0.6652,0.2925,9.5181,-0.0344,0.0241,-0.1208,-1.7579008541502894,0.0,2.923597574234009,-1.6721765995025635,-0.0,2.1512176990509033,4.801379884570398,-0.0,0.2931895852088928,-1.596757713948385,-0.0,-0.005866547115147114,0.7427418231964111,-0.0,-0.007721021771430969,0.8229654431343079,0.0,-0.004315381404012442
301.0,252.0,0.7035,0.2788,9.5252,-0.033,0.026,-0.1199,-1.7578841648497523,0.0,2.930954933166504,-1.6721839904785156,-0.0,2.1100285053253174,4.801391805499353,-0.0,0.2812972664833069,-1.5967415014850062,-0.0,-0.007834846153855324,0.7427452802658081,-0.0,-0.00021396996453404427,0.8229050636291504,0.0,-0.03963608294725418
301.0,252.0,0.7035,0.2788,9.5252,-0.033,0.026,-0.1199,-1.7579051456847132,0.0,2.956394910812378,-1.672140121459961,-0.0,2.1299428939819336,4.801355804293909,-0.0,0.2834656238555908,-1.5967620054828089,-0.0,-0.010269119404256344,0.742817759513855,-0.0,0.009277806617319584,0.8228886127471924,0.0,-0.05119737237691879
301.0,252.0,0.7035,0.2788,9.5252,-0.033,0.026,-0.1199,-1.757848402062887,0.0,2.9543514251708984,-1.672140121459961,-0.0,2.0966129302978516,4.801388117461958,-0.0,0.2918420433998108,-1.5967496077166956,-0.0,-0.007252003997564316,0.7427452802658081,-0.0,-0.010713986121118069,0.8229413032531738,0.0,0.005646777339279652
301.0,252.0,0.7035,0.2788,9.5252,-0.033,0.026,-0.1199,-1.7578445873656214,0.0,2.9153733253479004,-1.6722285747528076,-0.0,2.1040282249450684,4.80139588096694,-0.0,0.2862558364868164,-1.596757713948385,-0.0,-0.0025557728949934244,0.7428095936775208,-0.0,0.0005201083840802312,0.8228890299797058,0.0,-0.016653774306178093
301.0,252.0,0.7035,0.2788,9.5252,-0.033,0.026,-0.1199,-1.7578965626158656,0.0,2.8885722160339355,-1.6722204685211182,-0.0,2.1669492721557617,4.801399956434526,-0.0,0.28183919191360474,-1.5967701117144983,-0.0,-0.017884468659758568,0.7427095174789429,-0.0,4.3705920688807964e-05,0.822917103767395,0.0,-0.0057777222245931625
301.0,252.0,0.7035,0.2788,9.5252,-0.033,0.026,-0.1199,-1.7579089603819789,0.0,2.9353232383728027,-1.672196388244629,-0.0,2.09979248046875,4.801388117461958,-0.0,0.29480576515197754,-1.5967662970172327,-0.0,-0.0062951017171144485,0.7427534461021423,-0.0,-0.005321948789060116,0.8229371905326843,0.0,0.016337309032678604
301.0,252.0,0.7035,0.2788,9.5252,-0.033,0.026,-0.1199,-1.757848402062887,0.0,2.9126768112182617,-1.672192096710205,-0.0,2.0813260078430176,4.801351646869936,-0.0,0.2999223470687866,-1.5967820326434534,-0.0,-0.012047609314322472,0.7427371144294739,-0.0,-0.007188682444393635,0.8228811025619507,0.0,-0.04083230346441269
301.0,252.0,0.7035,0.2788,9.5252,-0.033,0.026,-0.1199,-1.7579051456847132,0.0,2.925126075744629,-1.6722404956817627,-0.0,2.147022247314453,4.801383960037985,-0.0,0.297584593296051,-1.5967376867877405,-0.0,-0.007719074841588736,0.7427494525909424,-0.0,0.002669583074748516,0.8228849768638611,0.0,-0.02214471995830536
301.0,252.0,0.7035,0.2788,9.5252,-0.033,0.026,-0.1199,-1.757864614526266,0.0,2.924267292022705,-1.6721880435943604,-0.0,2.1216890811920166,4.801411877363481,-0.0,0.29668858647346497,-1.5967453161822718,-0.0,-0.004098909441381693,0.7427776455879211,-0.0,-0.003781456733122468,0.8229009509086609,0.0,0.004231387749314308
301.0,252.0,0.7035,0.2788,9.5252,-0.033,0.026,-0.1199,-1.7578808269896449,0.0,2.8977560997009277,-1.6722724437713623,-0.0,2.1138248443603516,4.801363567798891,-0.0,0.29647529125213623,-1.5967696348773401,-0.0,-0.0066329981200397015,0.7427616119384766,-0.0,0.00020361924543976784,0.8228931427001953,0.0,0.004432701040059328
301.0,252.0,0.7035,0.2788,9.5252,-0.033,0.026,-0.1199,-1.757876535455221,0.0,2.94279408454895,-1.6722404956817627,-0.0,2.206819772720337,4.801383960037985,-0.0,0.28692156076431274,-1.596729580556051,-0.0,0.0010577876819297671,0.7427257895469666,-0.0,-0.011247716844081879,0.8228972554206848,0.0,0.029010970145463943
301.0,252.0,0.7035,0.2788,9.5252,-0.033,0.026,-0.1199,-1.7578603229918421,0.0,2.9281420707702637,-1.6722285747528076,-0.0,2.1144914627075195,4.801388117461958,-0.0,0.30609485507011414,-1.5967496077166956,-0.0,-0.018442921340465546,0.7427817583084106,-0.0,-0.0010950968135148287,0.8229009509086609,0.0,0.017926035448908806
301.0,252.0,0.7035,0.2788,9.5252,-0.033,0.026,-0.1199,-1.7579051456847132,0.0,2.951918125152588,-1.6721560955047607,-0.0,2.141996383666992,4.801391805499353,-0.0,0.28196877241134644,-1.596729580556051,-0.0,0.0005863476544618607,0.7427494525909424,-0.0,-0.006012650206685066,0.8229494094848633,0.0,-0.0032984651625156403
301.0,252.0,0.7035,0.2788,9.5252,-0.033,0.026,-0.1199,-1.7578689060606898,0.0,2.931969165802002,-1.672224521636963,-0.0,2.1267004013061523,4.80139588096694,-0.0,0.2913295328617096,-1.5967701117144983,-0.0,-0.0031044944189488888,0.7427411675453186,-0.0,0.001587013597600162,0.8229050636291504,0.0,-0.0013397433795034885
301.0,252.0,0.7035,0.2788,9.5252,-0.033,0.026,-0.1199,-1.7579008541502894,0.0,2.8871278762817383,-1.6722126007080078,-0.0,2.101778030395508,4.80137180069045,-0.0,0.29869580268859863,-1.5967820326434534,-0.0,-0.010919161140918732,0.7427412271499634,-0.0,0.005578726064413786,0.8229132294654846,0.0,-0.012380743399262428
301.0,252.0,0.7035,0.2788,9.5252,-0.033,0.026,-0.1199,-1.7578603229918421,0.0,2.885374069213867,-1.6722044944763184,-0.0,2.109476089477539,4.801355804293909,-0.0,0.30106228590011597,-1.5967171827899378,-0.0,-0.013408060185611248,0.7427817583084106,-0.0,0.0058690765872597694,0.8229212164878845,0.0,-0.013172656297683716
301.0,252.0,0.7035,0.2788,9.5252,-0.033,0.026,-0.1199,-1.7579008541502894,0.0,2.9397082328796387,-1.672208547592163,-0.0,2.141620397567749,4.801399956434526,-0.0,0.290535569190979,-1.596773926411764,-0.0,-0.0016711613861843944,0.7427858114242554,-0.0,0.0018034055829048157,0.822933554649353,0.0,0.0030772131867706776
301.0,252.0,0.7035,0.2788,9.5252,-0.033,0.026,-0.1199,-1.7579132519164027,0.0,2.912827491760254,-1.6722285747528076,-0.0,2.0775504112243652,4.801383960037985,-0.0,0.2915695309638977,-1.5967133680926722,-0.0,-0.01469300128519535,0.7427330613136292,-0.0,-0.0024852559436112642,0.8229050636291504,0.0,-0.05224404111504555
293.0,258.0,0.6287,0.3374,9.5695,-0.0388,0.0276,-0.1167,-1.7578808269896449,0.0,2.900160312652588,-1.6722004413604736,-0.0,2.1638972759246826,4.80139588096694,-0.0,0.2963434159755707,-1.5967376867877405,-0.0,-0.005727970041334629,0.742721438407898,-0.0,-0.013460736721754074,0.8228968977928162,0.0,-0.04623832926154137
293.0,258.0,0.6287,0.3374,9.5695,-0.0388,0.0276,-0.1167,-1.7578402958311976,0.0,2.918051242828369,-1.6721962690353394,-0.0,2.1253859996795654,4.801411877363481,-0.0,0.29062607884407043,-1.5967939535724085,-0.0,-0.0026987437158823013,0.7427255511283875,-0.0,-0.010975364595651627,0.8228931427001953,0.0,0.027127061039209366
293.0,258.0,0.6287,0.3374,9.5695,-0.0388,0.0276,-0.1167,-1.7578603229918421,0.0,2.943202495574951,-1.6722204685211182,-0.0,2.1178927421569824,4.801383960037985,-0.0,0.29684117436408997,-1.5967453161822718,-0.0,-0.012768140062689781,0.7427977919578552,-0.0,-0.005723291076719761,0.8229130506515503,0.0,-0.0279860720038414
293.0,258.0,0.6287,0.3374,9.5695,-0.0388,0.0276,-0.1167,-1.7579008541502894,0.0,2.9279913902282715,-1.6721560955047607,-0.0,2.080045461654663,4.801415952831068,-0.0,0.28544941544532776,-1.5967620054828089,-0.0,0.0068247257731854916,0.7427494525909424,-0.0,0.00033433688804507256,0.8229132294654846,0.0,0.03224026784300804
293.0,258.0,0.6287,0.3374,9.5695,-0.0388,0.0276,-0.1167,-1.7578965626158656,0.0,2.9363040924072266,-1.672208309173584,-0.0,2.0870485305786133,4.80137180069045,-0.0,0.28883397579193115,-1.5967376867877405,-0.0,-0.010164591483771801,0.7427657842636108,-0.0,0.007442087400704622,0.8228849768638611,0.0,-0.017633754760026932
293.0,258.0,0.6287,0.3374,9.5695,-0.0388,0.0276,-0.1167,-1.7578565082945765,0.0,2.940760612487793,-1.6722164154052734,-0.0,2.131920576095581,4.801392192929544,-0.0,0.28801393508911133,-1.596757713948385,-0.0,-0.015949701890349388,0.7427452802658081,-0.0,-0.008147301152348518,0.8229212164878845,0.0,0.005966105964034796
293.0,258.0,0.6287,0.3374,9.5695,-0.0388,0.0276,-0.1167,-1.7578565082945765,0.0,2.9436745643615723,-1.6721880435943604,-0.0,2.130239486694336,4.8014201177056215,-0.0,0.2808150053024292,-1.5967333952533167,-0.0,-0.006966829299926758,0.7426972985267639,-0.0,0.0014339080080389977,0.8229212164878845,0.0,0.012412081472575665
293.0,258.0,0.6287,0.3374,9.5695,-0.0388,0.0276,-0.1167,-1.7579008541502894,0.0,2.946185827255249,-1.6722044944763184,-0.0,2.1160125732421875,4.8014439446623705,-0.0,0.2844853401184082,-1.5967701117144983,-0.0,-0.017408613115549088,0.7427857518196106,-0.0,-0.0010727974586188793,0.8228890895843506,0.0,0.016522182151675224
293.0,258.0,0.6287,0.3374,9.5695,-0.0388,0.0276,-0.1167,-1.7578846416869105,0.0,2.983948230743408,-1.6722166538238525,-0.0,2.092489719390869,4.801415952831068,-0.0,0.30002832412719727,-1.5967620054828089,-0.0,-0.004683751612901688,0.7427657842636108,-0.0,-0.018148981034755707,0.8229452967643738,0.0,-0.019876303151249886
293.0,258.0,0.6287,0.3374,9.5695,-0.0388,0.0276,-0.1167,-1.7579170666136683,0.0,2.9050166606903076,-1.672236442565918,-0.0,2.09306001663208,4.801359484880724,-0.0,0.306350976228714,-1.596757713948385,-0.0,-0.024370139464735985,0.7427657842636108,-0.0,0.0007742472225800157,0.8229009509086609,0.0,0.015276504680514336
293.0,258.0,0.6287,0.3374,9.5695,-0.0388,0.0276,-0.1167,-1.757848402062887,0.0,2.9296398162841797,-1.672224521636963,-0.0,2.1356568336486816,4.801375809102812,-0.0,0.2936961352825165,-1.5967415014850062,-0.0,-0.016121001914143562,0.7427494525909424,-0.0,0.019152235239744186,0.8228890895843506,0.0,-0.02383505180478096
293.0,258.0,0.6287,0.3374,9.5695,-0.0388,0.0276,-0.1167,-1.7578965626158656,0.0,2.9297428131103516,-1.672184705734253,-0.0,2.1305010318756104,4.801359477430143,-0.0,0.30171912908554077,-1.5967376867877405,-0.0,-0.01564335823059082,0.7428096532821655,-0.0,0.013468168675899506,0.8228890895843506,0.0,-0.031151417642831802
293.0,258.0,0.6287,0.3374,9.5695,-0.0388,0.0276,-0.1167,-1.7578689060606898,0.0,2.906583309173584,-1.672192096710205,-0.0,2.059770345687866,4.801383960037985,-0.0,0.29473817348480225,-1.596802059804098,-0.0,-0.011759432964026928,0.7427775859832764,-0.0,-0.005073755979537964,0.8228973150253296,0.0,-0.010140295140445232
293.0,258.0,0.6287,0.3374,9.5695,-0.0388,0.0276,-0.1167,-1.7578565082945765,0.0,2.918362617492676,-1.6722204685211182,-0.0,2.1369340419769287,4.80137180069045,-0.0,0.2852802574634552,-1.596773926411764,-0.0,-0.004031846299767494,0.7427616119384766,-0.0,-0.00580204650759697,0.8228890895843506,0.0,0.022512085735797882
293.0,258.0,0.6287,0.3374,9.5695,-0.0388,0.0276,-0.1167,-1.7578841648497523,0.0,2.926175594329834,-1.672208547592163,-0.0,2.0353550910949707,4.801379884570398,-0.0,0.2855556011199951,-1.596729580556051,-0.0,-0.008486265316605568,0.7427495121955872,-0.0,-0.013982617296278477,0.8229129910469055,0.0,0.016102027148008347
293.0,258.0,0.6287,0.3374,9.5695,-0.0388,0.0276,-0.1167,-1.7578684292235316,0.0,2.9406142234802246,-1.6722166538238525,-0.0,2.145186424255371,4.801392192929544,-0.0,0.28396889567375183,-1.5967620054828089,-0.0,0.0035583556164056063,0.7427657842636108,-0.0,0.004464735742658377,0.8229212164878845,0.0,-0.01042727567255497
293.0,258.0,0.6287,0.3374,9.5695,-0.0388,0.0276,-0.1167,-1.7579294643797816,0.0,2.9078383445739746,-1.6721880435943604,-0.0,2.100600242614746,4.801392192929544,-0.0,0.27703285217285156,-1.5967901388751429,-0.0,-0.0016153710894286633,0.7427453398704529,-0.0,0.0015451780054718256,0.8229494094848633,0.0,0.0033297426998615265
293.0,261.0,0.661,0.4295,9.6197,-0.0174,0.0257,-0.1127,-1.757836481133932,0.0,2.9608445167541504,-1.6721519231796265,-0.0,2.1516101360321045,4.801388132363119,-0.0,0.28313109278678894,-1.5967453161822718,-0.0,0.0008741435594856739,0.7427248358726501,-0.0,0.005248599220067263,0.8228849768638611,0.0,0.009878775104880333
293.0,261.0,0.661,0.4295,9.6197,-0.0174,0.0257,-0.1127,-1.7579089603819789,0.0,2.906639337539673,-1.6722404956817627,-0.0,2.1463799476623535,4.801375809102812,-0.0,0.2819722890853882,-1.5967415014850062,-0.0,0.003035364206880331,0.7427135705947876,-0.0,-0.016000963747501373,0.8228890895843506,0.0,0.004077664110809565
293.0,261.0,0.661,0.4295,9.6197,-0.0174,0.0257,-0.1127,-1.7579132519164027,0.0,2.8977551460266113,-1.6722285747528076,-0.0,2.0700461864471436,4.801351661771097,-0.0,0.28890836238861084,-1.5967782179461878,-0.0,-0.01143353246152401,0.7427412271499634,-0.0,0.008199755102396011,0.8229494094848633,0.0,-0.02922755852341652
293.0,261.0,0.661,0.4295,9.6197,-0.0174,0.0257,-0.1127,-1.7579170666136683,0.0,2.8922200202941895,-1.6722002029418945,-0.0,2.130324363708496,4.801392192929544,-0.0,0.29891452193260193,-1.596773926411764,-0.0,-0.011137424036860466,0.7427818179130554,-0.0,-0.00989634171128273,0.8229293823242188,0.0,0.0011273575946688652
293.0,261.0,0.661,0.4295,9.6197,-0.0174,0.0257,-0.1127,-1.757864614526266,0.0,2.9114036560058594,-1.6722323894500732,-0.0,2.112067699432373,4.801339792996206,-0.0,0.2804759740829468,-1.5967901388751429,-0.0,-0.014964993111789227,0.7427694797515869,-0.0,-0.01906190812587738,0.8229212164878845,0.0,-0.027164146304130554
293.0,261.0,0.661,0.4295,9.6197,-0.0174,0.0257,-0.1127,-1.7578884563841761,0.0,2.8984909057617188,-1.672184705734253,-0.0,2.1376049518585205,4.801412272244253,-0.0,0.2845660150051117,-1.5967939535724085,-0.0,-0.004880419000983238,0.7427371740341187,-0.0,-0.00234646862372756,0.8228890895843506,5.540128000802724e-08,0.014125104062259197
293.0,261.0,0.661,0.4295,9.6197,-0.0174,0.0257,-0.1127,-1.7578522167601527,0.0,2.9604499340057373,-1.6721519231796265,-0.0,2.161562442779541,4.801408248930731,-0.0,0.28771787881851196,-1.5967696348773401,-3.765307621250713e-09,-0.0064470344223082066,0.7427776455879211,-0.0,-0.004220070317387581,0.8229207992553711,2.825591764121782e-06,-0.008047687821090221
293.0,261.0,0.661,0.4295,9.6197,-0.0174,0.0257,-0.1127,-1.7578884563841761,0.0,2.9125022888183594,-1.6721961498260498,-0.0,2.1063144207000732,4.801367665618219,-0.0,0.2943892478942871,-1.5967815558062952,-1.605209715149769e-11,-0.003002242650836706,0.7427616119384766,-0.0,-0.010589707642793655,0.8228965997695923,0.0012236107140779495,0.03393172100186348
293.0,261.0,0.661,0.4295,9.6197,-0.0174,0.0257,-0.1127,-1.7578522167601527,0.0,2.9428186416625977,-1.6721241474151611,-0.0,2.1412622928619385,4.801343875914373,-0.0,0.29829666018486023,-1.596773926411764,-4.46816020665511e-15,-0.005863705184310675,0.7428259253501892,-0.0,0.002142437268048525,0.8229812979698181,0.002571188611909747,-0.02169577032327652
293.0,261.0,0.661,0.4295,9.6197,-0.0174,0.0257,-0.1127,-1.7579051456847132,-3.3901574880701446e-08,2.9078917503356934,-1.6721961498260498,-0.0,2.1363329887390137,4.801335628121652,-0.0,0.29316288232803345,-1.596830193196432,-1.243728709904878e-18,-0.009148904122412205,0.7427616119384766,-0.0,0.005020345561206341,0.8230012655258179,0.003944704309105873,0.0048089721240103245
293.0,261.0,0.661,0.4295,9.6197,-0.0174,0.0257,-0.1127,-1.7579008541502894,-6.102163913057623e-12,2.911135673522949,-1.6722166538238525,4.179441930318717e-07,2.114729404449463,4.801339815347948,-0.0,0.284151554107666,-1.5967934767352503,-5.3022107628000015e-21,-0.01859286241233349,0.7427452206611633,-0.0,-0.0005969250341877341,0.8230170011520386,0.005116690415889025,0.0378291979432106
293.0,261.0,0.661,0.4295,9.6197,-0.0174,0.0257,-0.1127,-1.7578965626158656,-1.47360058913117e-17,2.935107469558716,-1.6722044944763184,1.0092858623508838e-12,2.1039223670959473,4.801395925670423,-0.0,0.28845447301864624,-1.5968135038958948,-0.00027693144511431456,-0.005116739310324192,0.7427735328674316,-0.0,-0.0025830657687038183,0.8230571150779724,0.007565128151327372,0.0015606130473315716
293.0,261.0,0.661,0.4295,9.6197,-0.0174,0.0257,-0.1127,-1.7578965626158656,-2.6524289511594423e-21,2.928861618041992,-1.672232747077942,1.816678810532887e-16,2.1026830673217773,4.801335643022814,-0.0,0.287760853767395,-1.5968015829669397,-0.00028835394186899066,-0.013255778700113297,0.742793619632721,-0.0,-0.0005151152145117521,0.823069155216217,0.008661691099405289,0.02695874497294426
293.0,261.0,0.661,0.4295,9.6197,-0.0174,0.0257,-0.1127,-1.7578841648497523,-6.4053036461757454e-27,2.9419074058532715,-1.6722246408462524,4.387065772696942e-22,2.1420094966888428,4.801335605769911,-8.396825457168688e-10,0.2852761149406433,-1.5968263784991663,-0.0003013642563018948,-0.013183018192648888,0.7427657842636108,-0.0,-0.008555247448384762,0.8231571912765503,0.010298844426870346,0.036006249487400055
293.0,261.0,0.661,0.4295,9.6197,-0.0174,0.0257,-0.1127,-1.7578841648497523,-1.1529320062921526e-30,2.902437925338745,-1.672224521636963,7.896564221401206e-26,2.1391639709472656,4.801343898266115,-3.579698169831058e-12,0.29210713505744934,-1.5967815558062952,-0.0002847298455890268,-0.008793054148554802,0.7427493929862976,-0.0,-0.0022519086487591267,0.8232418298721313,0.010359522886574268,-0.00029344623908400536
293.0,261.0,0.661,0.4295,9.6197,-0.0174,0.0257,-0.1127,-1.7579409084715785,-2.7841953911069767e-36,2.925203800201416,-1.6721560955047607,1.906927372909583e-31,2.126795530319214,4.801343853562631,-9.964220305791732e-16,0.2871147692203522,-1.596830193196432,-0.00025076570454984903,-0.000357750803232193,0.7427895069122314,-0.0,-0.009103890508413315,0.8232775926589966,0.010563736781477928,0.0050919936038553715
293.0,261.0,0.661,0.4295,9.6197,-0.0174,0.0257,-0.1127,-1.7578965626158656,-6.723430031830472e-42,2.9444544315338135,-1.6721725463867188,4.60500530748033e-37,2.124418258666992,4.801351617067613,-2.7735779529209294e-19,0.288958877325058,-1.5967977682696741,-0.0002560035791248083,-0.00959650706499815,0.7427013516426086,-0.0,-0.0038340906612575054,0.8233174681663513,0.010631350800395012,-0.0005685444921255112
293.0,261.0,0.661,0.4295,9.6197,-0.0174,0.0257,-0.1127,-1.7579452000060023,-1.401298464324817e-45,2.9796793460845947,-1.6722445487976074,8.288820546327725e-41,2.1703555583953857,4.801355804293909,-1.1824196475985868e-21,0.3009105324745178,-1.596802059804098,-0.00023901303939055651,-0.00645999051630497,0.7427493333816528,-0.0,0.0005923772696405649,0.8234260082244873,0.009921510703861713,-0.01925624907016754
313.0,267.0,0.475,0.0132,9.5474,-0.0548,0.0194,-0.1167,-1.7579289875426234,0.0,2.9107861518859863,-1.6721880435943604,0.0,2.126763343811035,4.801355811744489,-3.2913079019950977e-25,0.27917203307151794,-1.5968459288226526,-0.0002173641260014847,-0.0011060121469199657,0.7427694797515869,-0.0,-0.0076763322576880455,0.823449969291687,0.008151275105774403,-0.029725046828389168
313.0,267.0,0.475,0.0132,9.5474,-0.0548,0.0194,-0.1167,-1.7578841648497523,0.0,2.9422590732574463,-1.672168493270874,-0.0,2.109023094177246,4.801335643022814,-1.4031360683903262e-27,0.292464017868042,-1.5967734495746058,-0.00020498601952567697,-0.001206135842949152,0.7427616119384766,-0.0,0.00502385850995779,0.8234736323356628,0.007294352166354656,0.05196433141827583
313.0,267.0,0.475,0.0132,9.5474,-0.0548,0.0194,-0.1167,-1.7579051456847132,0.0,2.902578353881836,-1.672140121459961,-0.0,2.1397156715393066,4.801336008101263,-3.905681073121221e-31,0.2985181212425232,-1.5968096891986292,-0.00018885450845118612,-0.0024565872736275196,0.7427694797515869,-0.0,0.004791849292814732,0.8235096335411072,0.005847547203302383,-0.03740401566028595
313.0,267.0,0.475,0.0132,9.5474,-0.0548,0.0194,-0.1167,-1.7579051456847132,0.0,2.919053077697754,-1.6721560955047607,-0.0,2.1095762252807617,4.801359887212076,-1.6650530341222225e-33,0.2978059649467468,-1.596813980733053,-0.0001738489663694054,-0.0049482062458992004,0.742817759513855,-0.0,-0.0024890119675546885,0.8235216736793518,0.004735404159873724,0.011550013907253742
313.0,267.0,0.475,0.0132,9.5474,-0.0548,0.0194,-0.1167,-1.7579008541502894,-0.00011751069541787729,2.9092633724212646,-1.6722126007080078,-0.0,2.1001291275024414,4.801379996329107,-4.634736600945971e-37,0.2988455593585968,-1.5968096891986292,-0.00015571473340969533,0.0026314191054552794,0.7427411675453186,-0.0,0.004812382161617279,0.8235659003257751,0.0034196951892226934,0.01873958483338356
313.0,267.0,0.475,0.0132,9.5474,-0.0548,0.0194,-0.1167,-1.7579008541502894,-0.00012542125477921218,2.880678176879883,-1.6721725463867188,-0.0,2.1424734592437744,4.801384034543791,-1.975860261965743e-39,0.28110939264297485,-1.5968459288226526,-0.00014563465083483607,-0.011187293566763401,0.7427653670310974,-0.0,-0.0006208124104887247,0.8235374093055725,0.0026363302022218704,-0.0480409637093544
313.0,267.0,0.475,0.0132,9.5474,-0.0548,0.0194,-0.1167,-1.757932802239889,-0.0001541140372864902,2.943167209625244,-1.6722445487976074,-0.0,2.1576144695281982,4.801343868463793,-5.493089980153283e-43,0.2836613357067108,-1.5967934767352503,-0.00013274498633109033,-0.005956812761723995,0.7428178191184998,-0.0,-0.0055174920707941055,0.8235740065574646,0.0017477150540798903,-0.007565634325146675
313.0,267.0,0.475,0.0132,9.5474,-0.0548,0.0194,-0.1167,-1.7579008541502894,-0.0004915643366985023,2.9071052074432373,-1.6721806526184082,-0.0,2.088320016860962,4.8013037396366975,-0.0001590823958395049,0.2927256226539612,-1.5968096891986292,-0.00012195183808216825,-0.0013827742077410221,0.7428014278411865,-0.0,-0.01695326901972294,0.8235657215118408,0.0010206520091742277,0.011477867141366005
313.0,267.0,0.475,0.0132,9.5474,-0.0548,0.0194,-0.1167,-1.757904668847555,-0.0005967227625660598,2.972695827484131,-1.672168493270874,-0.0,2.0754427909851074,4.801291431277551,-0.00018929291400127113,0.28625503182411194,-1.5968416372882288,-0.00011568130867090076,-0.002473975531756878,0.7427735328674316,-0.0,-0.010535329580307007,0.8235900402069092,0.0007950511062517762,0.056269943714141846
313.0,267.0,0.475,0.0132,9.5474,-0.0548,0.0194,-0.1167,-1.7579366169371546,-0.0009737556683830917,2.916398048400879,-1.6722404956817627,-0.0,2.1508994102478027,4.801323878556051,-0.0007156002102419734,0.3018547594547272,-1.5968416372882288,-0.0001073983294190839,-0.0031557101756334305,0.7427853941917419,-0.0,-0.004702722188085318,0.8235698938369751,0.0005256356671452522,0.025045208632946014
313.0,267.0,0.475,0.0132,9.5474,-0.0548,0.0194,-0.1167,-1.7579003773131312,-0.000965182320214808,2.932068109512329,-1.6721644401550293,-0.0,2.12003231048584,4.801276224642553,-0.0009800619445741177,0.2903725504875183,-1.5968177954303187,-0.00010250511695630848,-0.00753485132008791,0.7427858114242554,-0.0,-0.00037675254861824214,0.8235295414924622,0.0004481435753405094,0.002599807921797037
313.0,267.0,0.475,0.0132,9.5474,-0.0548,0.0194,-0.1167,-1.7579323254027308,-0.001138349762186408,2.8387386798858643,-1.6722643375396729,-0.0,2.128779649734497,4.801300036698141,-0.0020900398958474398,0.27629274129867554,-1.5968177954303187,-7.6769691077061e-05,-0.0007552178576588631,0.7428419589996338,-0.0,-0.002904570894315839,0.8235296010971069,6.107724766479805e-05,0.04445697367191315
313.0,267.0,0.475,0.0132,9.5474,-0.0548,0.0194,-0.1167,-1.757977148095602,-0.0014792134752497077,2.943737506866455,-1.6722407341003418,-0.0,2.1602044105529785,4.801311987429418,-0.002849208191037178,0.27740857005119324,-1.5967734495746058,-7.361903408309445e-05,-0.02717621624469757,0.742781400680542,-0.0,-0.013492168858647346,0.82346510887146,5.188282739254646e-05,0.053727250546216965
313.0,267.0,0.475,0.0132,9.5474,-0.0548,0.0194,-0.1167,-1.758000989953512,-0.002596428385004401,2.9319331645965576,-1.6721519231796265,-0.0,2.066152334213257,4.8012040359671495,-0.004630414769053459,0.2974203824996948,-1.5968177954303187,-6.93635010975413e-05,-0.005155188962817192,0.742805540561676,-0.0,0.0038984075654298067,0.8235620856285095,1.252909304083616e-10,-0.0016869246028363705
313.0,267.0,0.475,0.0132,9.5474,-0.0548,0.0194,-0.1167,-1.7580377064146937,-0.0037173356395214796,2.9312729835510254,-1.6722562313079834,-0.0,2.132384777069092,4.80124473103837,-0.00726213026791811,0.2835707664489746,-1.5967658201800745,-6.678966747131199e-05,-0.006565465126186609,0.7427653670310974,-0.0,0.003476862795650959,0.8235055208206177,2.2551925265928106e-14,-0.010750276036560535
313.0,267.0,0.475,0.0132,9.5474,-0.0548,0.0194,-0.1167,-1.7580167255797328,-0.005374134052544832,2.9265713691711426,-1.6721322536468506,-0.0,2.1410133838653564,4.80117696055726,-0.00995850283652544,0.2847040891647339,-1.5967372099505823,-6.326828588498756e-05,-0.003957898356020451,0.7428137063980103,-0.0,0.0026626987382769585,0.8235257863998413,5.446024028669301e-20,0.002664132509380579
313.0,267.0,0.475,0.0132,9.5474,-0.0548,0.0194,-0.1167,-1.7580768070616664,-0.005971433129161596,2.8763484954833984,-1.6722123622894287,-0.0,2.1400604248046875,4.8011170429881,-0.011878909543156624,0.2826731204986572,-1.596802059804098,-6.0099537222413346e-05,0.0057400986552238464,0.7428095936775208,-0.0,-0.0022724904119968414,0.8234412670135498,-0.0006991399568505585,-0.0002829795703291893
313.0,267.0,0.475,0.0132,9.5474,-0.0548,0.0194,-0.1167,-1.7581249676146449,-0.005717504303902388,2.89693546295166,-1.672208309173584,-0.0,2.1351451873779297,4.800976547389784,-0.011743116192519665,0.2775712013244629,-1.5968058745013636,-5.8157627790933475e-05,-0.010743525810539722,0.7427977919578552,-0.0,-0.009268190711736679,0.8234975934028625,-0.0006414616364054382,0.022832650691270828
298.0,261.0,0.6437,0.2201,9.4881,-0.0451,0.0269,-0.1171,-1.758080621758932,-0.004842605907469988,2.92769193649292,-1.6722285747528076,-0.0,2.159776210784912,4.800985450833597,-0.011725012212991714,0.2880687415599823,-1.5967620054828089,-5.546936154132709e-05,-0.0035965312272310257,0.742797315120697,-0.0,-0.007027304731309414,0.823538064956665,-0.0004729698703158647,0.0002948538167402148
298.0,261.0,0.6437,0.2201,9.4881,-0.0451,0.0269,-0.1171,-1.7581693134703578,-0.004959390498697758,2.878178596496582,-1.6722126007080078,-0.0,2.1550230979919434,4.800925555616178,-0.01028885506093502,0.28892257809638977,-1.596757713948385,-5.3811127145309e-05,-0.0014635407133027911,0.7427772283554077,-0.0,0.016504155471920967,0.8234654068946838,-0.00040244837873615324,0.013618064112961292
298.0,261.0,0.6437,0.2201,9.4881,-0.0451,0.0269,-0.1171,-1.7581726513304652,-0.00524945231154561,2.9360384941101074,-1.6722685098648071,-0.0,2.130452871322632,4.800861607282915,-0.008378686383366585,0.2746756374835968,-1.596785847340719,-5.150165088707581e-05,-0.01400829292833805,0.7427530884742737,-0.0,-0.0016469056718051434,0.8234893679618835,-0.0003288979933131486,-0.02588198520243168
298.0,261.0,0.6437,0.2201,9.4881,-0.0451,0.0269,-0.1171,-1.7582055530943812,-0.0053619639948010445,2.918553352355957,-1.6722323894500732,-0.0,2.092923402786255,4.800813588290968,-0.0068834088742733,0.2866455018520355,-1.5967815558062952,-3.838062548311427e-05,-0.015213975682854652,0.7428296804428101,-0.0,-0.007348524872213602,0.8234811425209045,-0.00029317912412807345,0.024941544979810715
298.0,261.0,0.6437,0.2201,9.4881,-0.0451,0.0269,-0.1171,-1.7582327328123988,-0.005742987617850304,2.9427437782287598,-1.6722447872161865,-0.0,2.0977745056152344,4.800761501282015,-0.004620690364390612,0.287777304649353,-1.5967415014850062,-3.604798985179514e-05,-0.0017670788802206516,0.7427850365638733,-0.0,0.0061081089079380035,0.8235014081001282,-0.00025211137835867703,0.003191051073372364
298.0,261.0,0.6437,0.2201,9.4881,-0.0451,0.0269,-0.1171,-1.7582408390440882,-0.005300317890942097,2.878909111022949,-1.6722242832183838,-0.0,2.1260690689086914,4.800773854344644,-0.0027854773215949535,0.29561665654182434,-1.5967696348773401,-3.4659518860280514e-05,-0.007292724680155516,0.7428457140922546,-0.0,-0.004016529768705368,0.8234692811965942,-0.00022113641898613423,-0.01071418821811676
298.0,261.0,0.6437,0.2201,9.4881,-0.0451,0.0269,-0.1171,-1.7583047352232875,-0.005052400287240744,2.9412288665771484,-1.6722242832183838,-0.0,2.0968310832977295,4.800729582994737,-0.001979665830731392,0.2951020300388336,-1.5967696348773401,-3.3791966416174546e-05,-0.01692023128271103,0.7427771687507629,-0.0,0.00835462473332882,0.8234894275665283,-0.00020439509535208344,0.02479778230190277
298.0,261.0,0.6437,0.2201,9.4881,-0.0451,0.0269,-0.1171,-1.7583214245238246,-0.0034375698305666447,2.8882882595062256,-1.6722123622894287,-0.0,2.1108460426330566,4.800750005036154,-0.0008837017812766135,0.2957669496536255,-1.5967415014850062,-3.256910349591635e-05,0.006903861649334431,0.7427854537963867,-0.0,0.002573765581473708,0.8235218524932861,-0.00018355165957473218,0.019918669015169144
298.0,261.0,0.6437,0.2201,9.4881,-0.0451,0.0269,-0.1171,-1.7583171329894007,-0.0028568829875439405,2.917783260345459,-1.6722283363342285,-0.0,2.1008317470550537,4.800729582994737,-0.0007591970497742295,0.27877944707870483,-1.596773926411764,-3.180188650730997e-05,-0.009154824540019035,0.742797315120697,-0.0,-0.002588337752968073,0.823485255241394,-0.00017186711193062365,-0.036554522812366486
298.0,261.0,0.6437,0.2201,9.4881,-0.0451,0.0269,-0.1171,-1.7583571873106898,-0.0019596486818045378,2.9559326171875,-1.6722164154052734,-0.0,2.120375156402588,4.80075419971303,-0.0007055154419504106,0.2769066095352173,-1.5967901388751429,-3.071651008212939e-05,-0.017469117417931557,0.7428218722343445,-0.0,-0.002637566067278385,0.823481559753418,-0.00015688687562942505,-0.04031763970851898
298.0,261.0,0.6437,0.2201,9.4881,-0.0451,0.0269,-0.1171,-1.7584053478636683,-0.0018329829908907413,2.915316104888916,-1.6722809076309204,-0.0,2.089064121246338,4.8007099134619615,-0.0005998892011120915,0.2916107177734375,-1.5967901388751429,-3.003316669492051e-05,-0.005145917180925608,0.7428337931632996,-0.0,0.010764525271952152,0.8234571814537048,-0.00014827135601080954,0.025684278458356857
298.0,261.0,0.6437,0.2201,9.4881,-0.0451,0.0269,-0.1171,-1.7584053478636683,-0.00189302081707865,2.874689817428589,-1.6721718311309814,-0.0,2.089984893798828,4.800714003830709,-0.0011263068299740553,0.28513941168785095,-1.5968220869647425,-3.2535435678937574e-08,-0.0004933051532134414,0.7428137063980103,-0.0,-0.010296681895852089,0.8234811425209045,-0.00013698716065846384,-0.00062528345733881
298.0,261.0,0.6437,0.2201,9.4881,-0.0451,0.0269,-0.1171,-1.7584096393980921,-0.001987006515264511,2.9420652389526367,-1.672196388244629,-0.0,2.133042335510254,4.800721849292078,-0.0010996367782354355,0.29447707533836365,-1.596757713948385,-1.3870367354673618e-10,-0.007017865311354399,0.7428132891654968,-0.0,0.0018435120582580566,0.8235136866569519,-0.00013037261669524014,0.03840953856706619
298.0,261.0,0.6437,0.2201,9.4881,-0.0451,0.0269,-0.1171,-1.7583772144713343,-0.002280906308442354,2.9056568145751953,-1.6722530126571655,-3.5493241739459336e-05,2.1293044090270996,4.8006778983171365,-0.0010621054098010063,0.275582492351532,-1.5967901388751429,-3.860868330769762e-14,-0.016249319538474083,0.7428013682365417,-0.0,0.012964218854904175,0.8235419392585754,-0.000121567580208648,0.0009922431781888008
298.0,261.0,0.6437,0.2201,9.4881,-0.0451,0.0269,-0.1171,-1.7583972416319789,-0.0025678002275526524,2.9470229148864746,-1.672208309173584,-3.896974885719828e-05,2.1372735500335693,4.8007099134619615,-0.0008171512745320797,0.282500684261322,-1.5967662970172327,2.122509067703504e-05,-0.00014712021220475435,0.7428457140922546,-0.0,0.007277099881321192,0.823481559753418,-0.0001138766820076853,-0.030886024236679077
298.0,261.0,0.6437,0.2201,9.4881,-0.0451,0.0269,-0.1171,-1.7584010563292445,-0.002899477956816554,2.9015002250671387,-1.6721841096878052,-3.7352419894887134e-05,2.141818046569824,4.800702321320333,-0.0008245478384196758,0.2911812961101532,-1.5967782179461878,2.3044700355967507e-05,-0.0014317857567220926,0.7428255081176758,-0.0,-0.005795604549348354,0.8234775066375732,-0.00010926809773081914,-0.027414564043283463
298.0,261.0,0.6437,0.2201,9.4881,-0.0451,0.0269,-0.1171,-1.7584730587401332,-0.003119570668786764,2.9094767570495605,-1.6721839904785156,-3.51633716491051e-05,2.1436426639556885,4.800762305944719,-0.0006865762989036739,0.2901921272277832,-1.5967777411090296,2.2201978936209343e-05,-0.014030544087290764,0.7427850365638733,-0.0,-0.0020116909872740507,0.8235055208206177,-0.00010301465954398736,0.03229405730962753
298.0,261.0,0.6437,0.2201,9.4881,-0.0451,0.0269,-0.1171,-1.758461137811178,-0.003562716767191887,2.9194247722625732,-1.6722447872161865,-3.3841191907413304e-05,2.1191136837005615,4.800705852895536,-0.0005790722789242864,0.2856781780719757,-1.5967496077166956,2.166746708098799e-05,-0.007782483007758856,0.7427533864974976,-0.0,0.02027391456067562,0.8235460519790649,-9.922875324264169e-05,-0.006728829350322485
289.0,262.0,0.9595,0.3745,9.2363,-0.0603,-0.0107,-0.1225,-1.7584811649718226,-0.00485193682834506,2.8991036415100098,-1.672220230102539,-3.203442247468047e-05,2.113426446914673,4.800737860589781,-0.0004183403216302395,0.2971441447734833,-1.5967939535724085,3.0005987355252728e-05,-0.005775843746960163,0.7428456544876099,-0.0,0.0008677397854626179,0.8235298991203308,-7.844349602237344e-05,-0.04282257333397865
289.0,262.0,0.9595,0.3745,9.2363,-0.0603,-0.0107,-0.1225,-1.7585212192931117,-0.006206793244928122,2.920081615447998,-1.6722283363342285,-3.093338091275655e-05,2.1449379920959473,4.800702321320333,-0.00040447269566357136,0.2928672134876251,-1.596729580556051,3.0650306143797934e-05,-0.0023899581283330917,0.7428457140922546,-0.0,-0.010893967933952808,0.82346510887146,-6.576226587640122e-05,-0.06551314890384674
289.0,262.0,0.9595,0.3745,9.2363,-0.0603,-0.0107,-0.1225,-1.758601804772848,-0.010080782696604729,2.8950839042663574,-1.6722447872161865,-2.941681486845482e-05,2.145601272583008,4.80071800479249,-0.00039573493995703757,0.27577856183052063,-1.5967620054828089,9.825542292674072e-06,-0.02038515731692314,0.7428697943687439,-0.0,-0.004395646974444389,0.8235296010971069,5.950696959189372e-06,3.128312528133392e-05
289.0,262.0,0.9595,0.3745,9.2363,-0.0603,-0.0107,-0.1225,-1.7586537800230921,-0.013160898350179195,2.8923497200012207,-1.6722407341003418,-2.8485761504271068e-05,2.0993664264678955,4.800645898073473,-0.00040196641930378973,0.2933616638183594,-1.5967901388751429,4.188782298797378e-08,0.0022000817116349936,0.7427891492843628,-0.0,0.005622921511530876,0.823541522026062,4.558909131446853e-05,-0.02406039834022522
289.0,262.0,0.9595,0.3745,9.2363,-0.0603,-0.0107,-0.1225,-1.7587620220580042,-0.016408255323767662,2.911311149597168,-1.6722890138626099,-2.719467920542229e-05,2.0981690883636475,4.80063400694684,-0.0014450408052653074,0.2867015302181244,-1.596717659627096,1.1659628991467219e-11,0.006157711148262024,0.7428296804428101,-0.0,0.013101199641823769,0.8235214352607727,0.001020974013954401,-0.0069513521157205105
289.0,262.0,0.9595,0.3745,9.2363,-0.0603,-0.0107,-0.1225,-1.758857866326803,-0.017647521570324898,2.9007856845855713,-1.6722166538238525,-1.3007878806092776e-05,2.124851942062378,4.800674582808771,-0.0021052465308457613,0.2862188518047333,-1.5967419783221644,3.2455011815784706e-15,0.004154566675424576,0.7427973747253418,-0.0,0.01445342879742384,0.8235576748847961,0.0010981723899021745,-0.026885394006967545
289.0,262.0,0.9595,0.3745,9.2363,-0.0603,-0.0107,-0.1225,-1.7588697872557582,-0.018254820257425308,2.871577262878418,-1.6722004413604736,-1.4747029126738198e-06,2.112518787384033,4.800678241043844,-0.0022188422735780478,0.2942182123661041,-1.5967701117144983,1.3836082188510146e-17,-0.003575483802706003,0.7427891492843628,-0.0,0.025920536369085312,0.8235374093055725,0.001050650724209845,-0.027117375284433365
289.0,262.0,0.9595,0.3745,9.2363,-0.0603,-0.0107,-0.1225,-1.7590018711485804,-0.018233120441436768,2.8058974742889404,-1.6721560955047607,-3.561233773152761e-12,2.1169888973236084,4.800638149469652,-0.0018631522543728352,0.2771361172199249,-1.5967133680926722,0.00013846515503246337,0.007805996108800173,0.7427850961685181,-0.0,0.009819064289331436,0.8235776424407959,0.0009272319730371237,-0.036742180585861206
289.0,262.0,0.9595,0.3745,9.2363,-0.0603,-0.0107,-0.1225,-1.7591144047179164,-0.019394539296627045,2.8397457599639893,-1.6722323894500732,-6.410094940705513e-16,2.076112985610962,4.80063400694684,-0.0015702691162005067,0.27811628580093384,-1.5967095533954065,0.00014618579007219523,0.0021623673383146524,0.7427772283554077,-0.0,0.011399712413549423,0.8235896825790405,0.0008406767738051713,-0.04001826047897339
289.0,262.0,0.9595,0.3745,9.2363,-0.0603,-0.0107,-0.1225,-1.7592102489867152,-0.020020155236124992,2.8314924240112305,-1.6721806526184082,-1.5479625944615255e-21,2.096492290496826,4.800638581603327,-0.0014684275956824422,0.2709711194038391,-1.596701447163717,0.0001596823858562857,0.012659327127039433,0.7428054809570312,-0.0,0.017127901315689087,0.8235816955566406,0.0006011843797750771,0.012492894195020199
289.0,262.0,0.9595,0.3745,9.2363,-0.0603,-0.0107,-0.1225,-1.7593428097166957,-0.02106916718184948,2.8592193126678467,-1.6721519231796265,-2.7862779178774415e-25,2.053933620452881,4.800614322512903,-0.0015986552461981773,0.27047139406204224,-1.596705738698141,0.00016332941595464945,0.010322758927941322,0.7427973747253418,-0.0,0.00850868783891201,0.8235659003257751,0.000504805298987776,0.01016166340559721
289.0,262.0,0.9595,0.3745,9.2363,-0.0603,-0.0107,-0.1225,-1.7594505749144496,-0.023311549797654152,2.776170492172241,-1.6722204685211182,-6.728533425688696e-31,2.1265780925750732,4.800634409278192,-0.0018113707192242146,0.2659696638584137,-1.596677605305807,0.00018266211554873735,0.00547115970402956,0.7428013682365417,-0.0,0.004793138243257999,0.8235535621643066,8.089204493444413e-05,-0.07065007090568542
289.0,262.0,0.9595,0.3745,9.2363,-0.0603,-0.0107,-0.1225,-1.7595826588072718,-0.025449303910136223,2.800830364227295,-1.672208547592163,-1.624861755847851e-36,2.1220548152923584,4.800602066307821,-0.0017227765638381243,0.2658542990684509,-1.596705738698141,0.00017257363651879132,0.006954551208764315,0.7428374886512756,-0.0,-0.0060853855684399605,0.8235940933227539,1.9534476813909407e-10,-0.07795682549476624
289.0,262.0,0.9595,0.3745,9.2363,-0.0603,-0.0107,-0.1225,-1.75968660930776,-0.02572553977370262,2.8418655395507812,-1.672179937362671,-2.9246920638462555e-40,2.1155307292938232,4.800614307611742,-0.001619054819457233,0.27208036184310913,-1.5967095533954065,0.0002879922103602439,0.02300785668194294,0.7428137063980103,-0.0,-0.006818920373916626,0.823541522026062,-0.0015715527115389705,-0.03851627930998802
289.0,262.0,0.9595,0.3745,9.2363,-0.0603,-0.0107,-0.1225,-1.759855409661764,-0.025021249428391457,2.810192823410034,-1.6722285747528076,-1.401298464324817e-45,2.0937819480895996,4.8005983112152,-0.0011834385804831982,0.27750709652900696,-1.5967181364642542,0.0002903566637542099,0.009788066148757935,0.7428297400474548,-0.0,0.006071799900382757,0.8235014081001282,-0.0013481368077918887,-0.06309030205011368
289.0,262.0,0.9595,0.3745,9.2363,-0.0603,-0.0107,-0.1225,-1.7599955997862757,-0.024258434772491455,2.8039307594299316,-1.6722002029418945,-0.0,2.146207809448242,4.800630251854219,-0.0009887681808322668,0.2661479711532593,-1.5967381636248987,0.0003044251643586904,0.021359659731388092,0.7427932024002075,-0.0,0.0051972088403999805,0.8235216736793518,-0.0010742545127868652,-0.10006262362003326
289.0,262.0,0.9595,0.3745,9.2363,-0.0603,-0.0107,-0.1225,-1.7601319752135218,-0.023600434884428978,2.789384365081787,-1.6722004413604736,-0.0,2.116345167160034,4.800594317704,-0.0007814735290594399,0.26854968070983887,-1.5966900030719202,0.000267043593339622,0.018549229949712753,0.7427730560302734,-0.0,0.004454675130546093,0.8234811425209045,-0.0008212369866669178,-0.06346754729747772
289.0,262.0,0.9595,0.3745,9.2363,-0.0603,-0.0107,-0.1225,-1.760195871392721,-0.02309972606599331,2.75260591506958,-1.6721644401550293,-0.0,2.112809419631958,4.8006266234214685,-0.0007588109583593905,0.275970995426178,-1.5966818968402308,0.0002811751328408718,0.03313269466161728,0.7428699135780334,-0.0,0.006059074774384499,0.8234856724739075,-0.0005657497094944119,-0.1695004105567932
286.0,262.0,0.6395,0.0036,9.3553,-0.0458,0.0031,-0.1225,-1.7603804073729457,-0.023010415956377983,2.8007771968841553,-1.6721519231796265,-0.0,2.134439468383789,4.800594317704,-0.0009000363061204553,0.2590583562850952,-1.5967138449298304,0.0002992209338117391,0.026273880153894424,0.7428334355354309,-0.0,-0.001518120290711522,0.8235055208206177,-0.0004928019479848444,-0.12494055926799774
286.0,262.0,0.6395,0.0036,9.3553,-0.0458,0.0031,-0.1225,-1.7604075870909632,-0.02317480556666851,2.7552669048309326,-1.6722004413604736,-0.0,2.099386215209961,4.800582635193624,-0.0012924759648740292,0.26930153369903564,-1.596677605305807,0.00026731190155260265,0.02144477888941765,0.7427932024002075,-0.0,-0.0041142795234918594,0.8234733939170837,-0.0004861548950430006,-0.10032425075769424
286.0,262.0,0.6395,0.0036,9.3553,-0.0458,0.0031,-0.1225,-1.7605720959105433,-0.02347656711935997,2.7702198028564453,-1.6721601486206055,-0.0,2.103407859802246,4.800534288376131,-0.0021226732060313225,0.26952803134918213,-1.596694294606344,0.0002706571249291301,0.04170159623026848,0.7428096532821655,-0.0,0.01609952002763748,0.823448896408081,-0.0004555310879368335,-0.15159472823143005
286.0,262.0,0.6395,0.0036,9.3553,-0.0458,0.0031,-0.1225,-1.7606798611082972,-0.024340415373444557,2.7795543670654297,-1.6722809076309204,-0.0,2.1023669242858887,4.800574871688642,-0.0025608621072024107,0.2608005702495575,-1.5966699759112757,0.00023647720809094608,0.032563596963882446,0.7428137063980103,-0.0,0.003771403804421425,0.823473334312439,-0.00047973389155231416,-0.15236151218414307
286.0,262.0,0.6395,0.0036,9.3553,-0.0458,0.0031,-0.1225,-1.760852952996725,-0.023936737328767776,2.7386646270751953,-1.6722002029418945,-0.0,2.0796360969543457,4.800514611392774,-0.0027824395801872015,0.25144338607788086,-1.5966575781451624,0.00025302497670054436,0.03220122680068016,0.742821455001831,-0.0,0.016469018533825874,0.8234371542930603,-0.0004946422995999455,-0.14199495315551758
286.0,262.0,0.6395,0.0036,9.3553,-0.0458,0.0031,-0.1225,-1.7609363994994105,-0.023204565048217773,2.738015651702881,-1.6722044944763184,-0.0,2.110137939453125,4.800534713059225,-0.0026812993455678225,0.24937720596790314,-1.5966780821429651,0.00022632471518591046,0.03411361947655678,0.7428374886512756,-0.0,0.008516998030245304,0.8235057592391968,-0.0006659058853983879,-0.13936147093772888
286.0,262.0,0.6395,0.0036,9.3553,-0.0458,0.0031,-0.1225,-1.761012693444723,-0.024267040193080902,2.767305374145508,-1.6721802949905396,-0.0,2.1249210834503174,4.800531054824152,-0.0026668175123631954,0.24403837323188782,-1.5966575781451624,0.00021115195704624057,0.036530639976263046,0.742773175239563,-0.0,-0.00332672824151814,0.8235219120979309,-0.0007088738493621349,-0.13303154706954956
286.0,262.0,0.6395,0.0036,9.3553,-0.0458,0.0031,-0.1225,-1.7611566982665003,-0.02389988861978054,2.723752498626709,-1.6721839904785156,-0.0,2.0955653190612793,4.800518813520231,-0.002854779828339815,0.25200822949409485,-1.5966456572162073,0.00021878800180274993,0.044326186180114746,0.742797315120697,-0.0,0.003914614208042622,0.823481559753418,-0.0008909727912396193,-0.21625100076198578
286.0,262.0,0.6395,0.0036,9.3553,-0.0458,0.0031,-0.1225,-1.7612692318358363,-0.024124562740325928,2.713423728942871,-1.6721765995025635,-0.0,2.161764621734619,4.800494621485033,-0.0029356498271226883,0.25039252638816833,-1.5966575781451624,0.00020667565695475787,0.05542917549610138,0.742881715297699,-0.0,0.005230870563536882,0.823489785194397,-0.0009957009460777044,-0.165731281042099
286.0,262.0,0.6395,0.0036,9.3553,-0.0458,0.0031,-0.1225,-1.7613970241942347,-0.026427173987030983,2.7043704986572266,-1.6721522808074951,-0.0,2.0989480018615723,4.800466994732179,-0.002543176058679819,0.24748115241527557,-1.5967024008380335,0.0001902896910905838,0.04035964608192444,0.7427850365638733,-0.0,0.0035209679044783115,0.8234575986862183,-0.0008436734788119793,-0.168720543384552
286.0,262.0,0.6395,0.0036,9.3553,-0.0458,0.0031,-0.1225,-1.7615615330138148,-0.027014460414648056,2.717818021774292,-1.6722493171691895,5.6364711781498045e-05,2.099266529083252,4.800435031741419,-0.0024087936617434025,0.23853209614753723,-1.596682373677389,0.0001807355583878234,0.0518488809466362,0.7427813410758972,-0.0,0.0066917408257722855,0.8233729004859924,-0.0007604942074976861,-0.16797113418579102
286.0,262.0,0.6395,0.0036,9.3553,-0.0458,0.0031,-0.1225,-1.761636873284811,-0.029350413009524345,2.7332444190979004,-1.6721441745758057,0.0003467650094535202,2.1132192611694336,4.800446945219793,-0.0022718338295817375,0.24619179964065552,-1.5966575781451624,0.00016807758947834373,0.04217178374528885,0.742797315120697,-0.0,0.018182262778282166,0.8234695196151733,-0.0005166289629414678,-0.17591041326522827
286.0,262.0,0.6395,0.0036,9.3553,-0.0458,0.0031,-0.1225,-1.7618943653502406,-0.031117742881178856,2.688328742980957,-1.6721928119659424,0.0006866008043289185,2.07100248336792,4.800462971418657,-0.0021231062710285187,0.256032794713974,-1.5966575781451624,0.0001413779245922342,0.050114862620830536,0.742789089679718,-0.0,0.007214932702481747,0.8234412670135498,-0.0003842257719952613,-0.1830081343650818
286.0,262.0,0.6395,0.0036,9.3553,-0.0458,0.0031,-0.1225,-1.76200594524526,-0.03186667338013649,2.695462465286255,-1.6721642017364502,0.0006666636909358203,2.105469226837158,4.800443279534139,-0.001962801208719611,0.25534719228744507,-1.596694294606344,0.00013299308193381876,0.048643141984939575,0.742809534072876,-0.0,0.028242364525794983,0.823481559753418,-0.00032816894236020744,-0.20580065250396729
286.0,262.0,0.6395,0.0036,9.3553,-0.0458,0.0031,-0.1225,-1.7621947727599085,-0.03222624212503433,2.7069103717803955,-1.6721644401550293,0.0007643611170351505,2.1276068687438965,4.8003912819321535,-0.0017619518330320716,0.24879977107048035,-1.5966737906085413,0.000122161116451025,0.04232746362686157,0.7428293228149414,-0.0,0.02005188539624214,0.8234695196151733,-0.00026925033307634294,-0.14617297053337097
286.0,262.0,0.6395,0.0036,9.3553,-0.0458,0.0031,-0.1225,-1.7623025379576625,-0.0328105092048645,2.6768345832824707,-1.672112226486206,0.0007262799190357327,2.1361536979675293,4.800402636616983,-0.0016579998191446066,0.23346704244613647,-1.5966337362872522,0.0001158699524239637,0.041989509016275406,0.7428575754165649,-0.0,0.013369331136345863,0.823481559753418,-0.0001924575917655602,-0.17659175395965576
286.0,262.0,0.6395,0.0036,9.3553,-0.0458,0.0031,-0.1225,-1.7625347576537074,-0.035481102764606476,2.6768360137939453,-1.6721363067626953,0.0006067590438760817,2.074690580368042,4.80041095891551,-0.0018027853220701218,0.2554648518562317,-1.5966947714435022,0.00012350901670288295,0.03780841454863548,0.7428297400474548,-0.0,0.010976143181324005,0.8234695196151733,-0.0001292596134589985,-0.2084496021270752
286.0,262.0,0.6395,0.0036,9.3553,-0.0458,0.0031,-0.1225,-1.7626668415465296,-0.037604425102472305,2.6669816970825195,-1.6721324920654297,0.0005812915624119341,2.081371784210205,4.800358812301912,-0.0021400072146207094,0.25641578435897827,-1.596682373677389,0.00012315987260080874,0.05634528398513794,0.7427289485931396,-0.0,0.01801595464348793,0.8234289288520813,2.8540007406263612e-05,-0.22333984076976776
272.0,247.0,0.8225,0.2477,9.3458,-0.0382,-0.0533,-0.1231,-1.7628947697081507,-0.04056701064109802,2.6713995933532715,-1.6721205711364746,0.0004524613032117486,2.10086989402771,4.800339492946424,-0.002812401158735156,0.23637084662914276,-1.5966737906085413,0.00011529317998792976,0.049819350242614746,0.742809534072876,-0.0,0.01706141233444214,0.8235055208206177,0.0001326917263213545,-0.14206677675247192
272.0,247.0,0.8225,0.2477,9.3458,-0.0382,-0.0533,-0.1231,-1.7630754909911097,-0.04307270050048828,2.6497879028320312,-1.6720913648605347,0.00041899102507159114,2.1190385818481445,4.800339515298166,-0.002982611767947674,0.2504451274871826,-1.5966699759112757,0.0001105715855374001,0.03365890681743622,0.7428054809570312,-0.0,0.014821216464042664,0.8235258460044861,0.00018752443429548293,-0.22135773301124573
272.0,247.0,0.8225,0.2477,9.3458,-0.0382,-0.0533,-0.1231,-1.7633396587767542,-0.04428088292479515,2.6539621353149414,-1.6721205711364746,0.0004775458946824074,2.1011428833007812,4.800415727287092,-0.0029265827033668756,0.23681706190109253,-1.5966737906085413,0.00010417227167636156,0.06871555000543594,0.7428494691848755,-0.0,0.0072310687974095345,0.8234651684761047,0.00017821120854932815,-0.18802517652511597
272.0,247.0,0.8225,0.2477,9.3458,-0.0382,-0.0533,-0.1231,-1.7635919056334437,-0.047259457409381866,2.6366994380950928,-1.672095537185669,0.0019092619186267257,2.083596706390381,4.800319421082296,-0.00282386620528996,0.2320844680070877,-1.5966337362872522,0.00011433104373281822,0.059083644300699234,0.7428579926490784,-0.0,0.009780080057680607,0.8235134482383728,0.0004664298321586102,-0.18298855423927307
272.0,247.0,0.8225,0.2477,9.3458,-0.0382,-0.0533,-0.1231,-1.7638045750060023,-0.04943014681339264,2.673642158508301,-1.6721051931381226,0.00241191522218287,2.0803489685058594,4.800371493190088,-0.0024554035626351833,0.23377865552902222,-1.5966418425189417,0.00011084022844443098,0.058598533272743225,0.7427813410758972,-0.0,0.01493851374834776,0.8234972953796387,0.0004487249825615436,-0.23236960172653198
272.0,247.0,0.8225,0.2477,9.3458,-0.0382,-0.0533,-0.1231,-1.7641250095763148,-0.05306869372725487,2.6214141845703125,-1.672072410583496,0.003122911090031266,2.0942776203155518,4.800287130265989,-0.00245980778709054,0.23162859678268433,-1.5966737906085413,0.00010528544225962833,0.05094820261001587,0.7428300380706787,-0.0,0.012198176234960556,0.8235378265380859,0.0004404154315125197,-0.19950371980667114
272.0,247.0,0.8225,0.2477,9.3458,-0.0382,-0.0533,-0.1231,-1.7643004856505335,-0.055258072912693024,2.7175257205963135,-1.6721165180206299,0.004222179763019085,2.1446988582611084,4.800327683776178,-0.002631303621456027,0.22868627309799194,-1.5966580549823206,0.0001018801995087415,0.049779705703258514,0.7428132891654968,-0.0,0.004734398797154427,0.8235374093055725,0.0005079139955341816,-0.23128175735473633
272.0,247.0,0.8225,0.2477,9.3458,-0.0382,-0.0533,-0.1231,-1.7646171055235804,-0.056267157196998596,2.6266417503356934,-1.6719828844070435,0.004628427792340517,2.0975632667541504,4.800291600614347,-0.0023524314165115356,0.21799637377262115,-1.5966256300555628,9.716615022625774e-05,0.05820620059967041,0.7428780198097229,-0.0,0.017870014533400536,0.8235296010971069,0.00047585766878910363,-0.18912461400032043
272.0,247.0,0.8225,0.2477,9.3458,-0.0382,-0.0533,-0.1231,-1.7648774586119593,-0.05653158947825432,2.606959342956543,-1.6720649003982544,0.004108063876628876,2.0988144874572754,4.800251509040155,-0.002088248962536454,0.24142378568649292,-1.5966418425189417,9.42586048040539e-05,0.06405073404312134,0.7427973747253418,-0.0,0.026412907987833023,0.8234890699386597,0.0004196669615339488,-0.22210635244846344
272.0,247.0,0.8225,0.2477,9.3458,-0.0382,-0.0533,-0.1231,-1.7652064762511195,-0.058364808559417725,2.613788604736328,-1.6719684600830078,0.003496952587738633,2.128343343734741,4.800239185779848,-0.0017949180910363793,0.2279498279094696,-1.596661392842428,9.977978334063664e-05,0.0642395168542862,0.7427932024002075,-0.0,0.014041632413864136,0.8235378861427307,0.0003497613361105323,-0.22920319437980652
272.0,247.0,0.8225,0.2477,9.3458,-0.0382,-0.0533,-0.1231,-1.7655383549132289,-0.057643260806798935,2.641439437866211,-1.671972393989563,0.0024209776893258095,2.1105661392211914,4.800271841674604,-0.0016847088700160384,0.2245836704969406,-1.5966337362872522,9.884930477710441e-05,0.05976059287786484,0.7427891492843628,-0.0,0.022934865206480026,0.8235700726509094,0.0003426426846999675,-0.2640250325202942
272.0,247.0,0.8225,0.2477,9.3458,-0.0382,-0.0533,-0.1231,-1.7657748661436976,-0.05892308056354523,2.5937132835388184,-1.6719558238983154,0.0017262980109080672,2.071913719177246,4.800255480199613,-0.0017141203861683607,0.23295193910598755,-1.5966418425189417,9.620861965231597e-05,0.07121126353740692,0.7428616881370544,-0.0,0.016447728499770164,0.8235419392585754,0.00031286932062357664,-0.2367810606956482
272.0,247.0,0.8225,0.2477,9.3458,-0.0382,-0.0533,-0.1231,-1.7661472759642542,-0.0629894882440567,2.599785804748535,-1.6719887256622314,0.0011150861391797662,2.047142744064331,4.800231444626608,-0.0018370453035458922,0.2524978816509247,-1.5966056028949183,9.250058064935729e-05,0.06606845557689667,0.7428821921348572,-0.0,0.011688758619129658,0.8235296010971069,0.00025774328969419,-0.21779899299144745
272.0,247.0,0.8225,0.2477,9.3458,-0.0382,-0.0533,-0.1231,-1.766395708123678,-0.06501522660255432,2.6065235137939453,-1.6719601154327393,0.0008512302883900702,2.085543155670166,4.800203825324335,-0.0016047111712396145,0.2271193265914917,-1.5966537634478968,9.0183355496265e-05,0.052523840218782425,0.742809534072876,-0.0,0.027790313586592674,0.8235093355178833,0.00023124972358345985,-0.22960588335990906
272.0,247.0,0.8225,0.2477,9.3458,-0.0382,-0.0533,-0.1231,-1.7668124637999476,-0.06529422104358673,2.645138740539551,-1.67190420627594,0.0005560076097026467,2.12426495552063,4.800232055574217,-0.0011102845892310143,0.230373352766037,-1.5966461340533655,8.691737457411364e-05,0.06562209874391556,0.7427768707275391,-0.0,0.014682023786008358,0.823541522026062,0.00020035839406773448,-0.25912120938301086
272.0,247.0,0.8225,0.2477,9.3458,-0.0382,-0.0533,-0.1231,-1.7670651874937953,-0.06609084457159042,2.633533477783203,-1.6719242334365845,0.0005976666579954326,2.089332342147827,4.800195599883356,-0.0008221473544836044,0.2266864776611328,-1.596593205128805,8.152650843840092e-05,0.06733357906341553,0.742817759513855,-0.0,0.01396160013973713,0.8235134482383728,0.0001472008298151195,-0.2363012582063675
272.0,247.0,0.8225,0.2477,9.3458,-0.0382,-0.0533,-0.1231,-1.7674528561034144,-0.06715547293424606,2.5916574001312256,-1.671944499015808,0.0008902617846615613,2.102766275405884,4.8002202091510675,-0.000590532086789608,0.2235017716884613,-1.5966342131244105,7.730421930318698e-05,0.0689719021320343,0.7428137063980103,-0.0,0.025506941601634026,0.8235373497009277,9.965283970814198e-05,-0.2752892076969147
272.0,247.0,0.8225,0.2477,9.3458,-0.0382,-0.0533,-0.1231,-1.7676969967284144,-0.06812059879302979,2.6509032249450684,-1.6719284057617188,0.0014585875906050205,2.0801897048950195,4.8002321002777,-0.0004972164751961827,0.2387775480747223,-1.5966299215899866,7.473638834198937e-05,0.07457347214221954,0.7428255081176758,-0.0,0.0026044133119285107,0.8235216736793518,9.164961375063285e-05,-0.22587528824806213
255.0,235.0,0.6173,-0.0102,9.5276,-0.0345,-0.0768,-0.1054,-1.7681499920287074,-0.07069023698568344,2.6090221405029297,-1.6718997955322266,0.001655349973589182,2.120717763900757,4.800251494138994,-0.0004019745974801481,0.22847744822502136,-1.5966137091266077,7.118939538486302e-05,0.06982363760471344,0.7428534030914307,-0.0,0.01468624547123909,0.8235538601875305,8.317868923768401e-05,-0.2713872790336609
255.0,235.0,0.6173,-0.0102,9.5276,-0.0345,-0.0768,-0.1054,-1.7685181103148402,-0.07358216494321823,2.6065244674682617,-1.6718683242797852,0.001457562786526978,2.1116538047790527,4.80025144198493,-0.00033736665500327945,0.22824345529079437,-1.5966017881976526,6.796387606300414e-05,0.06419540196657181,0.742773175239563,-0.0,-0.0013883165083825588,0.8235374093055725,-8.635626727482304e-05,-0.21547505259513855
255.0,235.0,0.6173,-0.0102,9.5276,-0.0345,-0.0768,-0.1054,-1.768806596795553,-0.0767921432852745,2.603395938873291,-1.6719324588775635,0.0012030522339046001,2.090517520904541,4.800215723901548,-0.0003047203354071826,0.23159220814704895,-1.5966418425189417,6.59710931358859e-05,0.055951930582523346,0.7428374290466309,-0.0,0.010806017555296421,0.8235055208206177,-7.944849494379014e-05,-0.2727826237678528
255.0,235.0,0.6173,-0.0102,9.5276,-0.0345,-0.0768,-0.1054,-1.7692510090269984,-0.07999244332313538,2.63291072845459,-1.671912670135498,0.0009926188504323363,2.1458535194396973,4.800203825324335,-0.0003040216688532382,0.22361992299556732,-1.5966499487506312,6.31918665021658e-05,0.06179126352071762,0.7427850961685181,-0.0,0.017186108976602554,0.8235096335411072,-0.00010523626406211406,-0.24513021111488342
255.0,235.0,0.6173,-0.0102,9.5276,-0.0345,-0.0768,-0.1054,-1.7695676289000453,-0.08090149611234665,2.589352607727051,-1.6718926429748535,0.0010536833433434367,2.092434883117676,4.800235497742452,-0.0002804195391945541,0.23836973309516907,-1.5966461340533655,6.1465660110116e-05,0.07052876055240631,0.742870032787323,-0.0,0.01679745502769947,0.8235378861427307,-0.0001300131989410147,-0.24379000067710876
255.0,235.0,0.6173,-0.0102,9.5276,-0.0345,-0.0768,-0.1054,-1.7700158558287562,-0.07994551956653595,2.5747733116149902,-1.6718560457229614,0.0012346860021352768,2.0708041191101074,4.800235497742452,-0.0002510784543119371,0.22799988090991974,-1.5966056028949183,5.904610952711664e-05,0.0777907595038414,0.7428337335586548,-0.0,0.0067086489871144295,0.8235055208206177,-0.00014678575098514557,-0.19650207459926605
255.0,235.0,0.6173,-0.0102,9.5276,-0.0345,-0.0768,-0.1054,-1.770336767236227,-0.07741158455610275,2.6310977935791016,-1.6719173192977905,0.0016982774250209332,2.1238763332366943,4.8002474186714075,-0.00023470682208426297,0.23632654547691345,-1.5966418425189417,5.7536191889084876e-05,0.06644441932439804,0.7428579926490784,-0.0,0.025052359327673912,0.8234811425209045,-0.00013779736764263362,-0.29090389609336853
255.0,235.0,0.6173,-0.0102,9.5276,-0.0345,-0.0768,-0.1054,-1.7708054981627406,-0.0739663690328598,2.6478772163391113,-1.6718928813934326,0.0018787593580782413,2.0609543323516846,4.800247739046373,-0.000213796432944946,0.23541468381881714,-1.5966461340533655,5.541080827242695e-05,0.0673479288816452,0.7428452968597412,-0.0,-0.0007837573066353798,0.823481559753418,-0.00012620363850146532,-0.27789586782455444
255.0,235.0,0.6173,-0.0102,9.5276,-0.0345,-0.0768,-0.1054,-1.771069189111227,-0.07573838531970978,2.64042067527771,-1.6718721389770508,0.0015252066077664495,2.1067984104156494,4.800223830133238,-0.0002018104278249666,0.2301524579524994,-1.5966580549823206,5.407898788689636e-05,0.0649154782295227,0.7428333759307861,-0.0,0.006954138167202473,0.823493480682373,-0.00023973279166966677,-0.2377682626247406
255.0,235.0,0.6173,-0.0102,9.5276,-0.0345,-0.0768,-0.1054,-1.7715298138060511,-0.08047862350940704,2.614230155944824,-1.6718761920928955,0.0009414757951162755,2.150750160217285,4.800235505193033,-0.00018615605949889868,0.2289784550666809,-1.5966256300555628,5.2197159675415605e-05,0.05885780602693558,0.7428337335586548,-0.0,0.021204527467489243,0.8235134482383728,-0.0001685367024037987,-0.25699755549430847
255.0,235.0,0.6173,-0.0102,9.5276,-0.0345,-0.0768,-0.1054,-1.7720104656615199,-0.08853860199451447,2.6541826725006104,-1.67185640335083,0.0006760885589756072,2.1221413612365723,4.800235482841291,-0.00011465162970125675,0.22942744195461273,-1.5966256300555628,5.0441896746633574e-05,0.07961618900299072,0.7428252100944519,-0.0,0.022674376145005226,0.8234811425209045,-0.00014772547001484782,-0.25508853793144226
255.0,235.0,0.6173,-0.0102,9.5276,-0.0345,-0.0768,-0.1054,-1.772374769250387,-0.0924304947257042,2.6133766174316406,-1.6718883514404297,0.00042663264321163297,2.0257303714752197,4.800239498704233,-0.000125197708257474,0.2199224829673767,-1.5966299215899866,6.4252053562086076e-06,0.07259932160377502,0.7427691221237183,-0.0,0.01027486938983202,0.823485255241394,-0.0001365207863273099,-0.2554376423358917
255.0,235.0,0.6173,-0.0102,9.5276,-0.0345,-0.0768,-0.1054,-1.7729040584959925,-0.09284316748380661,2.6024155616760254,-1.6718240976333618,0.0015770349418744445,2.11433744430542,4.800243618875303,-0.00012197024625493214,0.22152718901634216,-1.5966342131244105,1.7884795866507375e-09,0.06707517802715302,0.7428094744682312,-0.0,0.012751827016472816,0.8235378265380859,-0.0001225752494065091,-0.2063860297203064
255.0,235.0,0.6173,-0.0102,9.5276,-0.0345,-0.0768,-0.1054,-1.7732397518553675,-0.09133410453796387,2.564199924468994,-1.6718040704727173,0.004208805505186319,2.0726380348205566,4.800227212696829,-9.742019756231457e-05,0.22953274846076965,-1.5966461340533655,7.624568511277463e-12,0.07255379855632782,0.7428132891654968,-0.0,0.008632398210465908,0.8235178589820862,-0.00011476009240141138,-0.24796605110168457
255.0,235.0,0.6173,-0.0102,9.5276,-0.0345,-0.0768,-0.1054,-1.7738691769041957,-0.08825653046369553,2.5631091594696045,-1.671760082244873,0.006615599151700735,2.0954694747924805,4.800223815232076,-9.132848208537325e-05,0.22637492418289185,-1.5966499487506312,2.122326811431559e-15,0.07279190421104431,0.742809534072876,-0.0,0.009773680940270424,0.8235419392585754,-0.00010474289592821151,-0.3049740791320801
255.0,235.0,0.6173,-0.0102,9.5276,-0.0345,-0.0768,-0.1054,-1.7742015324034632,-0.08746708184480667,2.6145195960998535,-1.6717112064361572,0.007145177107304335,2.098785638809204,4.800211894303121,-8.776583126746118e-05,0.21874666213989258,-1.596609894429342,9.047812382307099e-18,0.06649182736873627,0.7427571415901184,-0.0,0.004579136148095131,0.8235216736793518,-7.523313979618251e-05,-0.23605701327323914
255.0,235.0,0.6173,-0.0102,9.5276,-0.0345,-0.0768,-0.1054,-1.7747093639769496,-0.08791619539260864,2.6389570236206055,-1.6717486381530762,0.005938244517892599,2.1059231758117676,4.800216074078836,-8.29144410090521e-05,0.23442542552947998,-1.5966222921954554,2.5184911232047745e-21,0.0668545737862587,0.742837131023407,-0.0,0.01330631785094738,0.8235175609588623,8.188671199604869e-05,-0.2260878086090088
243.0,237.0,0.6921,0.4002,10.0337,-0.0261,-0.0922,-0.121,-1.7753311596312464,-0.08955438435077667,2.645352840423584,-1.6717082262039185,0.0034133573062717915,2.07304048538208,4.800235482841291,-9.421599679626524e-05,0.23338374495506287,-1.596654240285055,7.010312027935806e-25,0.05726379156112671,0.742821455001831,-0.0,-0.0010276813991367817,0.8235378265380859,0.000145049300044775,-0.20211750268936157
243.0,237.0,0.6921,0.4002,10.0337,-0.0261,-0.0922,-0.121,-1.7757159672179164,-0.09235213696956635,2.6584081649780273,-1.6717002391815186,0.0017450513551011682,2.09710693359375,4.800239483803072,-9.110379323828965e-05,0.2258143424987793,-1.5966461340533655,2.988606087591614e-27,0.05749725550413132,0.7427648901939392,-0.0,0.016050731763243675,0.8235657215118408,0.0001678161061136052,-0.24605494737625122
243.0,237.0,0.6921,0.4002,10.0337,-0.0261,-0.0922,-0.121,-1.7762161693968714,-0.09537012130022049,2.6405773162841797,-1.6716885566711426,0.0007376342546194792,2.0885393619537354,4.800239491253652,-0.00010092053707921878,0.22716933488845825,-1.5966580549823206,8.318894527548953e-31,0.06962475180625916,0.7428415417671204,-0.0,0.023574499413371086,0.8235780596733093,0.00015105988131836057,-0.3136816918849945
243.0,237.0,0.6921,0.4002,10.0337,-0.0261,-0.0922,-0.121,-1.7766005001463832,-0.09779839217662811,2.6071343421936035,-1.6717370748519897,0.0005553376395255327,2.1471424102783203,4.800227913051405,-9.801852866075933e-05,0.23252622783184052,-1.5966580549823206,3.546475639980457e-33,0.0626453161239624,0.7428296804428101,-0.0,0.016553867608308792,0.8235093951225281,0.00014155611279420555,-0.20964093506336212
243.0,237.0,0.6921,0.4002,10.0337,-0.0261,-0.0922,-0.121,-1.7771860561766566,-0.10086902976036072,2.6265153884887695,-1.6717045307159424,0.00048585375770926476,2.1017284393310547,4.800191524415769,-0.00010701904830057174,0.22382408380508423,-1.5966337362872522,9.87174455562612e-37,0.07667727768421173,0.7428054809570312,-0.0,0.020841388031840324,0.8235214352607727,0.00012934913684148341,-0.2558332681655884
243.0,237.0,0.6921,0.4002,10.0337,-0.0261,-0.0922,-0.121,-1.7775904140868128,-0.1031595915555954,2.622371196746826,-1.6716803312301636,0.0005463915294967592,2.072512626647949,4.800239476352491,-9.264103573514149e-05,0.23113524913787842,-1.596638027821676,4.208479040251258e-39,0.07358650118112564,0.7428174018859863,-0.0,0.033401452004909515,0.8235378265380859,9.789349132915959e-05,-0.25255364179611206
243.0,237.0,0.6921,0.4002,10.0337,-0.0261,-0.0922,-0.121,-1.7782274685301722,-0.10839638859033585,2.6170387268066406,-1.6716158390045166,0.0037316372618079185,2.091679573059082,4.8002119092042825,-8.717012678971514e-05,0.23614224791526794,-1.5966299215899866,1.171485516175547e-42,0.06980579346418381,0.742797315120697,-0.0,0.014177313074469566,0.8235378265380859,9.047587082022801e-05,-0.23994803428649902
243.0,237.0,0.6921,0.4002,10.0337,-0.0261,-0.0922,-0.121,-1.778679986993307,-0.11301633715629578,2.5646932125091553,-1.6716691255569458,0.006021906156092882,2.104732036590576,4.800215776055612,-8.482234989060089e-05,0.22037571668624878,-1.59658128419985,5.605193857299268e-45,0.06868144869804382,0.7428013682365417,-0.0,0.010508980602025986,0.8235216736793518,8.614564285380766e-05,-0.2813448905944824
243.0,237.0,0.6921,0.4002,10.0337,-0.0261,-0.0922,-0.121,-1.7793690166869105,-0.1178952232003212,2.6365606784820557,-1.671628475189209,0.006967449095100164,2.0921764373779297,4.800255517452516,-8.152925147442147e-05,0.23052453994750977,-1.596638027821676,0.0,0.07224948704242706,0.7427932024002075,-0.0,0.014298006892204285,0.8234931826591492,8.037562656681985e-05,-0.26001033186912537
243.0,237.0,0.6921,0.4002,10.0337,-0.0261,-0.0922,-0.121,-1.7800942860045375,-0.11498570442199707,2.6395998001098633,-1.6715928316116333,0.007856668904423714,2.1176528930664062,4.800255517452516,-7.848234963603318e-05,0.2356100082397461,-1.5966418425189417,0.0,0.07850039750337601,0.7428337931632996,-0.0,0.014627210795879364,0.8235538601875305,7.533005555160344e-05,-0.2598414421081543
243.0,237.0,0.6921,0.4002,10.0337,-0.0261,-0.0922,-0.121,-1.7806068859496058,-0.11318287998437881,2.6360015869140625,-1.6715123653411865,0.007917692884802818,2.088460922241211,4.800247426121988,-7.657455716980621e-05,0.22937780618667603,-1.5966299215899866,0.0,0.06963273137807846,0.7428136467933655,-0.0,0.019735068082809448,0.8235296607017517,7.230415212688968e-05,-0.2177828550338745
243.0,237.0,0.6921,0.4002,10.0337,-0.0261,-0.0922,-0.121,-1.7813316784300746,-0.11010072380304337,2.6171751022338867,-1.671525001525879,0.005329410545527935,2.102194309234619,4.800239483803072,-7.38805829314515e-05,0.2346380650997162,-1.5966222921954554,0.0,0.06556457281112671,0.7428456544876099,-0.0,0.013432898558676243,0.8235055208206177,6.819515692768618e-05,-0.22596850991249084
243.0,237.0,0.6921,0.4002,10.0337,-0.0261,-0.0922,-0.121,-1.7817884884276332,-0.1144651249051094,2.6480700969696045,-1.6714885234832764,0.0032455644104629755,2.119284152984619,4.800255517452516,-7.218749669846147e-05,0.22651758790016174,-1.596609894429342,0.0,0.0583861842751503,0.7427571415901184,-0.0,0.005529697984457016,0.823541522026062,8.210608211811632e-05,-0.2731851041316986
243.0,237.0,0.6921,0.4002,10.0337,-0.0261,-0.0922,-0.121,-1.782529970208639,-0.12748463451862335,2.586641550064087,-1.6714922189712524,0.00038518759538419545,2.031181812286377,4.800191472261705,-7.97471875557676e-05,0.20854519307613373,-1.596654240285055,0.0,0.07342896610498428,0.7428292632102966,-0.0,0.005651299841701984,0.8235014081001282,7.786870264681056e-05,-0.25088706612586975
243.0,237.0,0.6921,0.4002,10.0337,-0.0261,-0.0922,-0.121,-1.7830950222411097,-0.1368817389011383,2.580720901489258,-1.6714239120483398,0.0001614573848200962,2.115793466567993,4.8002395434077165,-6.707330157951219e-07,0.22548650205135345,-1.5966299215899866,0.0,0.06800536066293716,0.7428174018859863,-0.0,0.0015631362330168486,0.8234931826591492,7.526396802859381e-05,-0.24753573536872864
243.0,237.0,0.6921,0.4002,10.0337,-0.0261,-0.0922,-0.121,-1.7838403187193812,-0.1433594673871994,2.589939832687378,-1.6714648008346558,0.00038120243698358536,2.0932674407958984,4.80022723504857,-1.8670100188078464e-10,0.21818691492080688,-1.5966423193561,0.0,0.05916991084814072,0.7428452968597412,-0.0,0.0039453813806176186,0.8235175609588623,5.7388999266549945e-05,-0.2913001775741577
243.0,237.0,0.6921,0.4002,10.0337,-0.0261,-0.0922,-0.121,-1.7844044170775355,-0.1442798525094986,2.575838565826416,-1.671488642692566,0.0005603473400697112,2.097115993499756,4.800267818361082,-7.959355288571224e-13,0.22180378437042236,-1.5966222921954554,0.0,0.0717037096619606,0.7427771687507629,-0.0,0.021221188828349113,0.8235055208206177,2.1192616259213537e-05,-0.2654060125350952
