ramyac6/ROB537/final_project/csv/bad/bad_133.csv
tof_0,tof_1,accelx,accely,accelz,gyrox,gyroy,gyroz,shoulder_lift_joint_position,shoulder_lift_joint_velocity,shoulder_lift_joint_effort,elbow_joint_position,elbow_joint_velocity,elbow_joint_effort,wrist_1_joint_position,wrist_1_joint_velocity,wrist_1_joint_effort,wrist_2_joint_position,wrist_2_joint_velocity,wrist_2_joint_effort,wrist_3_joint_position,wrist_3_joint_velocity,wrist_3_joint_effort,shoulder_pan_joint_position,shoulder_pan_joint_velocity,shoulder_pan_joint_effort
742.0,8190.0,0.0371,0.4134,9.7639,-0.025,0.0081,-0.1084,-1.43745772660289,0.0,1.5977829694747925,-1.8427387475967407,-0.0,2.183239221572876,4.704281969661377,-0.0,0.28855395317077637,-1.5971458593951624,0.0,-0.009465686976909637,0.636393666267395,-0.0,0.0020305204670876265,0.7951514720916748,0.0,-0.022006532177329063
742.0,8190.0,0.0371,0.4134,9.7639,-0.025,0.0081,-0.1084,-1.4374821496060868,0.0,1.6349321603775024,-1.8426706790924072,-0.0,2.2073006629943848,4.70420949041333,-0.0,0.2849421203136444,-1.5971339384662073,0.0,6.581190973520279e-05,0.6363976001739502,-0.0,-0.004439285025000572,0.7951837778091431,0.0,0.006367092486470938
742.0,8190.0,0.0371,0.4134,9.7639,-0.025,0.0081,-0.1084,-1.437461869125702,0.0,1.5929043292999268,-1.8426789045333862,-0.0,2.159451484680176,4.704218073482178,-0.0,0.2821292281150818,-1.5971458593951624,0.0,-0.010196742601692677,0.63641756772995,-0.0,-7.933494634926319e-05,0.7951678037643433,0.0,-0.02109622210264206
742.0,8190.0,0.0371,0.4134,9.7639,-0.025,0.0081,-0.1084,-1.4374738943627854,0.0,1.6385047435760498,-1.8427066802978516,-0.0,2.1864969730377197,4.704237623805664,-0.0,0.28551816940307617,-1.597165886555807,0.0,-0.008100058883428574,0.6364453434944153,-0.0,0.009653948247432709,0.7951514720916748,0.0,0.028538092970848083
742.0,8190.0,0.0371,0.4134,9.7639,-0.025,0.0081,-0.1084,-1.4374900621226807,0.0,1.6124190092086792,-1.8426861763000488,-0.0,2.167214870452881,4.704213781947754,-0.0,0.2890251874923706,-1.5971539656268519,0.0,-0.0003966944059357047,0.6363818049430847,-0.0,-0.003521417733281851,0.7951837778091431,0.0,-0.010684099979698658
742.0,8190.0,0.0371,0.4134,9.7639,-0.025,0.0081,-0.1084,-1.4374738943627854,0.0,1.6130526065826416,-1.842682123184204,-0.0,2.1672170162200928,4.704177065486572,-0.0,0.28927189111709595,-1.5971258322345179,0.0,-0.006855514366179705,0.63641357421875,-0.0,-0.008008252829313278,0.7951472997665405,0.0,0.04708285257220268
742.0,8190.0,0.0371,0.4134,9.7639,-0.025,0.0081,-0.1084,-1.4374337953380127,0.0,1.574331283569336,-1.842698574066162,-0.0,2.166682481765747,4.704229517573975,-0.0,0.28334376215934753,-1.5971296469317835,0.0,0.008099756203591824,0.63641357421875,-0.0,-0.009292855858802795,0.7951514720916748,0.0,0.025353897362947464
742.0,8190.0,0.0371,0.4134,9.7639,-0.025,0.0081,-0.1084,-1.4374700796655198,0.0,1.6435766220092773,-1.8426984548568726,-0.0,2.227919816970825,4.704237623805664,-0.0,0.28625720739364624,-1.5971296469317835,0.0,-0.013406377285718918,0.6364056468009949,-0.0,0.0007922156364656985,0.7951354384422302,0.0,-0.04108244925737381
742.0,8190.0,0.0371,0.4134,9.7639,-0.025,0.0081,-0.1084,-1.43745772660289,0.0,1.6043360233306885,-1.8427585363388062,-0.0,2.168501377105713,4.704229517573975,-0.0,0.27832603454589844,-1.5971258322345179,0.0,-0.021301966160535812,0.6364454030990601,-0.0,-0.008262962102890015,0.7951917052268982,0.0,-0.033617015928030014
761.0,1009.0,0.0622,0.4552,9.673,-0.0287,0.024,-0.1139,-1.4374296528152009,0.0,1.6110424995422363,-1.8426508903503418,-0.0,2.160759449005127,4.704193277949951,-0.0,0.2878466248512268,-1.597109619771139,0.0,-0.016614964231848717,0.6364771723747253,-0.0,-0.0036014870274811983,0.7951678037643433,0.0,0.008949805982410908
761.0,1009.0,0.0622,0.4552,9.673,-0.0287,0.024,-0.1139,-1.437478021984436,0.0,1.6235098838806152,-1.8426376581192017,-0.0,2.1738839149475098,4.704221888179443,-0.0,0.28714439272880554,-1.5971296469317835,0.0,-0.00038737663999199867,0.636429488658905,-0.0,-0.015966545790433884,0.7951595187187195,0.0,0.029594693332910538
761.0,1009.0,0.0622,0.4552,9.673,-0.0287,0.024,-0.1139,-1.4374659818461915,0.0,1.5935415029525757,-1.8426426649093628,-0.0,2.2054827213287354,4.70424143850293,-0.0,0.28590112924575806,-1.597177807484762,0.0,0.0009449644712731242,0.6364573240280151,-0.0,0.00290432246401906,0.795163631439209,0.0,0.0027057910338044167
761.0,1009.0,0.0622,0.4552,9.673,-0.0287,0.024,-0.1139,-1.437498317365982,0.0,1.5986037254333496,-1.8426789045333862,-0.0,2.203886032104492,4.704225226039551,-0.0,0.273162305355072,-1.5971577803241175,0.0,-0.012738372199237347,0.63640958070755,-0.0,-0.012754758819937706,0.7951472997665405,0.0,-0.0023181033320724964
761.0,1009.0,0.0622,0.4552,9.673,-0.0287,0.024,-0.1139,-1.4375024151853104,0.0,1.6178889274597168,-1.8427108526229858,-0.0,2.192347764968872,4.7042457300373535,-0.0,0.27701371908187866,-1.5971382300006312,0.0,-0.014884255826473236,0.63641357421875,-0.0,-0.004726681392639875,0.795163631439209,0.0,-0.02161576971411705
761.0,1009.0,0.0622,0.4552,9.673,-0.0287,0.024,-0.1139,-1.4374900621226807,0.0,1.603018879890442,-1.842682123184204,-0.0,2.2121121883392334,4.70420949041333,-0.0,0.2758027911186218,-1.597121540700094,0.0,0.001156412879936397,0.6363817453384399,-0.0,-0.00783476885408163,0.7951472997665405,0.0,0.024454530328512192
761.0,1009.0,0.0622,0.4552,9.673,-0.0287,0.024,-0.1139,-1.4374742072871705,0.0,1.581658959388733,-1.8426780700683594,-0.0,2.1423511505126953,4.704193277949951,-0.0,0.28815388679504395,-1.5971458593951624,0.0,-0.0028136291075497866,0.63641357421875,-0.0,-0.0035119359381496906,0.7951514720916748,0.0,-0.07621629536151886
761.0,1009.0,0.0622,0.4552,9.673,-0.0287,0.024,-0.1139,-1.4374821496060868,0.0,1.6294305324554443,-1.8427067995071411,-0.0,2.1585006713867188,4.704185171718262,-0.0,0.2817738652229309,-1.5971420446978968,0.0,-0.005344817414879799,0.63640958070755,-0.0,-0.00517723523080349,0.7951313257217407,0.0,-0.039751533418893814
761.0,1009.0,0.0622,0.4552,9.673,-0.0287,0.024,-0.1139,-1.4374942195466538,0.0,1.5936212539672852,-1.8426426649093628,-0.0,2.193225383758545,4.704269571895264,-0.0,0.28663843870162964,-1.5971501509295862,0.0,-0.007157501764595509,0.6363778114318848,-0.0,-0.005278650671243668,0.7951554656028748,0.0,0.0069268252700567245
761.0,1009.0,0.0622,0.4552,9.673,-0.0287,0.024,-0.1139,-1.4374337953380127,0.0,1.591260313987732,-1.8426666259765625,-0.0,2.1791789531707764,4.704218073482178,-0.0,0.2802523374557495,-1.5971859137164515,0.0,-0.003907158505171537,0.6364215612411499,-0.0,-0.008809748105704784,0.795163631439209,0.0,0.0018761120736598969
761.0,1009.0,0.0622,0.4552,9.673,-0.0287,0.024,-0.1139,-1.437486247425415,0.0,1.5988037586212158,-1.8426581621170044,-0.0,2.2041943073272705,4.704218073482178,-0.0,0.29087984561920166,-1.5971258322345179,0.0,-0.0026872935704886913,0.6364771723747253,-0.0,0.00917055457830429,0.7951837778091431,0.0,0.023490067571401596
761.0,1009.0,0.0622,0.4552,9.673,-0.0287,0.024,-0.1139,-1.4375630033067246,0.0,1.627651572227478,-1.8427025079727173,-0.0,2.181807518005371,4.704250021571777,-0.0,0.2892531752586365,-1.5971458593951624,0.0,-0.0060496944934129715,0.6364254951477051,-0.0,-0.007573003880679607,0.7951514720916748,0.0,0.0017539809923619032
761.0,1009.0,0.0622,0.4552,9.673,-0.0287,0.024,-0.1139,-1.4374417525580903,0.0,1.5836029052734375,-1.8426541090011597,-0.0,2.2040886878967285,4.704237623805664,-0.0,0.28244203329086304,-1.5971539656268519,0.0,-0.013845440931618214,0.63641756772995,-0.0,0.0029548630118370056,0.7951796054840088,0.0,0.041514329612255096
761.0,1009.0,0.0622,0.4552,9.673,-0.0287,0.024,-0.1139,-1.4374416780522843,0.0,1.620143175125122,-1.842698574066162,-0.0,2.168884754180908,4.70420949041333,-0.0,0.28754284977912903,-1.5971859137164515,0.0,-0.015417525544762611,0.63641357421875,-0.0,-0.00023376336321234703,0.7951878905296326,0.0,0.0425664484500885
761.0,1009.0,0.0622,0.4552,9.673,-0.0287,0.024,-0.1139,-1.4374821496060868,0.0,1.5578604936599731,-1.8426944017410278,-0.0,2.1998085975646973,4.704241915340088,-0.0,0.2853560745716095,-1.5971296469317835,0.0,0.0004907944239675999,0.6364016532897949,-0.0,-0.004760534502565861,0.7951391339302063,0.0,-0.02499893121421337
761.0,1009.0,0.0622,0.4552,9.673,-0.0287,0.024,-0.1139,-1.4374862176230927,0.0,1.5857982635498047,-1.8427026271820068,-0.0,2.22757887840271,4.704205675716064,-0.0,0.27201414108276367,-1.597165886555807,0.0,-0.007977531291544437,0.6364731788635254,-0.0,0.00736746471375227,0.7951837778091431,0.0,-0.024963073432445526
761.0,1009.0,0.0622,0.4552,9.673,-0.0287,0.024,-0.1139,-1.4374659818461915,0.0,1.6385042667388916,-1.8426426649093628,-0.0,2.169248104095459,4.704205675716064,-0.0,0.29642853140830994,-1.5971339384662073,0.0,0.0008488637395203114,0.6363936066627502,-0.0,-0.004214709624648094,0.795163631439209,0.0,-0.0016463156789541245
780.0,8190.0,0.2459,0.5282,9.3703,-0.0341,0.0165,-0.117,-1.4374499481967469,0.0,1.625701665878296,-1.8427150249481201,-0.0,2.1704254150390625,4.704241915340088,-0.0,0.2910184860229492,-1.5971296469317835,0.0,-0.005896615330129862,0.6363575458526611,-0.0,-0.006930685136467218,0.7951677441596985,0.0,0.0022595636546611786
780.0,8190.0,0.2459,0.5282,9.3703,-0.0341,0.0165,-0.117,-1.4375224572471161,0.0,1.602262020111084,-1.8426706790924072,-0.0,2.198420524597168,4.704201384181641,-0.0,0.290978342294693,-1.5971739927874964,0.0,-0.009554845280945301,0.6364215016365051,-0.0,-0.007392179220914841,0.795135498046875,0.0,-0.008787484839558601
780.0,8190.0,0.2459,0.5282,9.3703,-0.0341,0.0165,-0.117,-1.4375061106732865,0.0,1.6068041324615479,-1.8427149057388306,-0.0,2.1795711517333984,4.7042738634296875,-0.0,0.2858005166053772,-1.5971296469317835,0.0,0.0002321463543921709,0.6364532709121704,-0.0,0.00809204950928688,0.7951355576515198,0.0,0.04189189523458481
780.0,8190.0,0.2459,0.5282,9.3703,-0.0341,0.0165,-0.117,-1.4374417674592515,0.0,1.5935735702514648,-1.8426629304885864,-0.0,2.1583285331726074,4.704205675716064,-0.0,0.2836160361766815,-1.5971534887896937,0.0,-0.01066514104604721,0.6364453434944153,-0.0,0.004731317050755024,0.795163631439209,0.0,0.020434826612472534
780.0,8190.0,0.2459,0.5282,9.3703,-0.0341,0.0165,-0.117,-1.437465952043869,0.0,1.597644567489624,-1.842698574066162,-0.0,2.1826610565185547,4.7042457300373535,-0.0,0.3002414405345917,-1.5971339384662073,0.0,-0.016064846888184547,0.63640958070755,-0.0,-0.0008749122498556972,0.7951595187187195,0.0,0.010233411565423012
780.0,8190.0,0.2459,0.5282,9.3703,-0.0341,0.0165,-0.117,-1.4374862176230927,0.0,1.6109659671783447,-1.8426907062530518,-0.0,2.1713755130767822,4.704265757197998,-0.0,0.2866523861885071,-1.5971415678607386,0.0,-0.007545622065663338,0.6363738775253296,-0.0,-0.003210152732208371,0.7951796054840088,0.0,-0.0009445967152714729
780.0,8190.0,0.2459,0.5282,9.3703,-0.0341,0.0165,-0.117,-1.4374700349620362,0.0,1.6161930561065674,-1.8426861763000488,-0.0,2.1529037952423096,4.704237623805664,-0.0,0.2742830514907837,-1.5971053282367151,0.0,-0.008610441349446774,0.636433482170105,-0.0,-0.004225572571158409,0.7951473593711853,0.0,0.026665540412068367
780.0,8190.0,0.2459,0.5282,9.3703,-0.0341,0.0165,-0.117,-1.437437893157341,0.0,1.6239404678344727,-1.8427308797836304,-0.0,2.165297508239746,4.70420949041333,-0.0,0.2777004837989807,-1.5971739927874964,0.0,-0.019133156165480614,0.6364254951477051,-0.0,0.008565028198063374,0.7951920032501221,0.0,0.004618499428033829
780.0,8190.0,0.2459,0.5282,9.3703,-0.0341,0.0165,-0.117,-1.4375023406795044,0.0,1.6176928281784058,-1.8427067995071411,-0.0,2.1573994159698486,4.70420949041333,-0.0,0.269329309463501,-1.5970972220050257,0.0,-0.014876015484333038,0.6364573240280151,-0.0,-0.0006902614841237664,0.7951958179473877,0.0,-0.021599361672997475
780.0,8190.0,0.2459,0.5282,9.3703,-0.0341,0.0165,-0.117,-1.4374255996993561,0.0,1.6420000791549683,-1.8427149057388306,-0.0,2.168024778366089,4.704205675716064,-0.0,0.2827291786670685,-1.5971296469317835,0.0,-0.013567943125963211,0.6364374160766602,-0.0,-0.013551083393394947,0.7951958179473877,0.0,-0.003002125769853592
780.0,8190.0,0.2459,0.5282,9.3703,-0.0341,0.0165,-0.117,-1.4374700647643586,0.0,1.6635472774505615,-1.8427462577819824,-0.0,2.178579807281494,4.704188986415527,-0.0,0.284720778465271,-1.5971458593951624,0.0,-0.008143200539052486,0.6364374160766602,-0.0,-0.005911052227020264,0.7951313257217407,0.0,-0.009133405983448029
780.0,8190.0,0.2459,0.5282,9.3703,-0.0341,0.0165,-0.117,-1.4375060957721253,0.0,1.5945172309875488,-1.8426787853240967,-0.0,2.178976535797119,4.704250021571777,-0.0,0.27458569407463074,-1.5971820990191858,0.0,-0.01130259595811367,0.6364532709121704,-0.0,-0.007817283272743225,0.7951514720916748,0.0,-0.013332311995327473
780.0,8190.0,0.2459,0.5282,9.3703,-0.0341,0.0165,-0.117,-1.437453643684723,0.0,1.6608589887619019,-1.842722773551941,-0.0,2.161269187927246,4.7042457300373535,-0.0,0.28403815627098083,-1.5971420446978968,0.0,-0.017708973959088326,0.6364215016365051,-0.0,0.0032635608222335577,0.7952200174331665,0.0,0.012273800559341908
780.0,8190.0,0.2459,0.5282,9.3703,-0.0341,0.0165,-0.117,-1.4374821943095704,0.0,1.5706803798675537,-1.8427064418792725,-0.0,2.2189037799835205,4.704185171718262,-0.0,0.28726983070373535,-1.5971339384662073,0.0,-0.008084277622401714,0.6364453434944153,-0.0,0.004896096885204315,0.7951313257217407,0.0,-0.006843734532594681
780.0,8190.0,0.2459,0.5282,9.3703,-0.0341,0.0165,-0.117,-1.437506080870964,0.0,1.6067423820495605,-1.842658281326294,-0.0,2.206458568572998,4.704220934505127,-0.0,0.2893516719341278,-1.5971339384662073,0.0,-0.017437497153878212,0.6364056468009949,-0.0,5.451589822769165e-05,0.795163631439209,0.0,-0.026418764144182205
780.0,8190.0,0.2459,0.5282,9.3703,-0.0341,0.0165,-0.117,-1.4375467163375397,0.0,1.6100578308105469,-1.8426458835601807,-0.0,2.1849427223205566,4.704253836269043,-0.0,0.27906519174575806,-1.5970972220050257,0.0,-0.006768236868083477,0.6364254951477051,-0.0,0.01517882663756609,0.795171856880188,0.0,-0.0049120159819722176
780.0,8190.0,0.2459,0.5282,9.3703,-0.0341,0.0165,-0.117,-1.4374700647643586,0.0,1.603722333908081,-1.8427067995071411,-0.0,2.1806013584136963,4.704205675716064,-0.0,0.29330116510391235,-1.5971701780902308,0.0,-0.002539025852456689,0.63641357421875,-0.0,-0.006752627436071634,0.7951878309249878,0.0,0.0248399768024683
780.0,8190.0,0.2459,0.5282,9.3703,-0.0341,0.0165,-0.117,-1.4374659669450303,0.0,1.5854727029800415,-1.8427188396453857,-0.0,2.213250160217285,4.704217119807861,-0.0,0.2857360541820526,-1.5971577803241175,0.0,-0.010541439987719059,0.63641357421875,-0.0,-0.0066388496197760105,0.7951554656028748,0.0,0.015312321484088898
743.0,1012.0,0.1968,0.475,9.6796,-0.0363,0.0191,-0.1141,-1.4374942046454926,0.0,1.5784262418746948,-1.8426742553710938,-0.0,2.1973519325256348,4.704241915340088,-0.0,0.28870391845703125,-1.597177807484762,0.0,-0.0030062785372138023,0.63640958070755,-0.0,-0.0013216501101851463,0.7951678037643433,0.0,0.009595249779522419
743.0,1012.0,0.1968,0.475,9.6796,-0.0363,0.0191,-0.1141,-1.4374780666879197,0.0,1.5535287857055664,-1.8426350355148315,-0.0,2.1687395572662354,4.704241915340088,-0.0,0.28253793716430664,-1.5971501509295862,0.0,-0.012430214323103428,0.6364493370056152,-0.0,0.004995323251932859,0.7951999306678772,0.0,0.041772015392780304
743.0,1012.0,0.1968,0.475,9.6796,-0.0363,0.0191,-0.1141,-1.4373931747725983,0.0,1.6436667442321777,-1.842698574066162,-0.0,2.219109296798706,4.704290075893066,-0.0,0.30112624168395996,-1.5971415678607386,0.0,-0.006566272582858801,0.6364414095878601,-0.0,-0.0004965118132531643,0.7951756119728088,0.0,0.017104797065258026
743.0,1012.0,0.1968,0.475,9.6796,-0.0363,0.0191,-0.1141,-1.4374738794616242,0.0,1.583442211151123,-1.8427109718322754,-0.0,2.164041042327881,4.704220934505127,-0.0,0.29537108540534973,-1.5971458593951624,0.0,-0.0064767394214868546,0.6364612579345703,-0.0,-0.0005691175465472043,0.7951876521110535,0.0,0.026373721659183502
743.0,1012.0,0.1968,0.475,9.6796,-0.0363,0.0191,-0.1141,-1.4374618393233796,0.0,1.601785659790039,-1.842698097229004,-0.0,2.1438510417938232,4.7042457300373535,-0.0,0.2733418345451355,-1.5971296469317835,0.0,-0.011295069009065628,0.63641357421875,-0.0,-0.0015832390636205673,0.7951514720916748,0.0,0.03245830163359642
743.0,1012.0,0.1968,0.475,9.6796,-0.0363,0.0191,-0.1141,-1.437490077023842,0.0,1.5894371271133423,-1.842690110206604,-0.0,2.1715707778930664,4.7042457300373535,-0.0,0.2902546525001526,-1.5971458593951624,0.0,-0.011142073199152946,0.6364016532897949,-0.0,0.003369209822267294,0.7951391339302063,0.0,0.009786214679479599
743.0,1012.0,0.1968,0.475,9.6796,-0.0363,0.0191,-0.1141,-1.4374659818461915,0.0,1.5924196243286133,-1.8426861763000488,-0.0,2.1814661026000977,4.704241915340088,-0.0,0.2900930345058441,-1.5971339384662073,0.0,-0.017164502292871475,0.6363735198974609,-0.0,0.0061539895832538605,0.7951837778091431,0.0,0.025332652032375336
743.0,1012.0,0.1968,0.475,9.6796,-0.0363,0.0191,-0.1141,-1.437506542806961,0.0,1.594630479812622,-1.8426861763000488,-0.0,2.177823781967163,4.704241915340088,-0.0,0.28313687443733215,-1.59709340730776,0.0,-0.02127024158835411,0.6364215016365051,-0.0,0.010535718873143196,0.7951192855834961,0.0,0.0006789349718019366
743.0,1012.0,0.1968,0.475,9.6796,-0.0363,0.0191,-0.1141,-1.4375024002841492,0.0,1.6096720695495605,-1.8426707983016968,-0.0,2.1978211402893066,4.704201384181641,-0.0,0.29699403047561646,-1.5971458593951624,0.0,-0.002269523683935404,0.6364573240280151,-0.0,0.01074653398245573,0.795191764831543,0.0,0.008957317098975182
743.0,1012.0,0.1968,0.475,9.6796,-0.0363,0.0191,-0.1141,-1.4374536138824006,0.0,1.5794978141784668,-1.842698097229004,-0.0,2.178927421569824,4.704205675716064,-0.0,0.27126064896583557,-1.5971258322345179,0.0,-0.012712573632597923,0.6364017128944397,-0.0,-0.005039129871875048,0.7951233983039856,0.0,-0.00023737922310829163
743.0,1012.0,0.1968,0.475,9.6796,-0.0363,0.0191,-0.1141,-1.4374659818461915,0.0,1.5801857709884644,-1.842698574066162,-0.0,2.1724448204040527,4.704253836269043,-0.0,0.27739179134368896,-1.597137753163473,0.0,-0.00994895026087761,0.6364374160766602,-0.0,-0.00638180086389184,0.7952039837837219,0.0,-0.013241450302302837
743.0,1012.0,0.1968,0.475,9.6796,-0.0363,0.0191,-0.1141,-1.437421442275383,0.0,1.6287760734558105,-1.8426668643951416,-0.0,2.180178165435791,4.7042457300373535,-0.0,0.290394127368927,-1.5971296469317835,0.0,-0.01065134722739458,0.6363579034805298,-0.0,-0.01660589501261711,0.7951636910438538,0.0,-0.011480435729026794
743.0,1012.0,0.1968,0.475,9.6796,-0.0363,0.0191,-0.1141,-1.4374458205750962,0.0,1.591747760772705,-1.842690110206604,-0.0,2.2223124504089355,4.704188986415527,-0.0,0.2809737026691437,-1.5971177260028284,0.0,-0.009315764531493187,0.6364652514457703,-0.0,-0.0101042240858078,0.795163631439209,0.0,-0.01937764696776867
743.0,1012.0,0.1968,0.475,9.6796,-0.0363,0.0191,-0.1141,-1.437461869125702,0.0,1.6323940753936768,-1.8427307605743408,-0.0,2.165363311767578,4.70423333227124,-0.0,0.2839299440383911,-1.5971620718585413,0.0,-0.003621984738856554,0.6363698840141296,-0.0,-0.005048428662121296,0.7951719164848328,0.0,-0.008650185540318489
743.0,1012.0,0.1968,0.475,9.6796,-0.0363,0.0191,-0.1141,-1.4374780368855973,0.0,1.6061298847198486,-1.8426822423934937,-0.0,2.162104606628418,4.704201384181641,-0.0,0.29165351390838623,-1.5971501509295862,0.0,-0.013604747131466866,0.6364774703979492,-0.0,0.0015637781471014023,0.7951878309249878,0.0,-0.029774075374007225
743.0,1012.0,0.1968,0.475,9.6796,-0.0363,0.0191,-0.1141,-1.4374942195466538,0.0,1.6207427978515625,-1.842690110206604,-0.0,2.2016539573669434,4.704237623805664,-0.0,0.27636951208114624,-1.597109619771139,0.0,-0.005676696076989174,0.6364572644233704,-0.0,-0.0046028858050704,0.7951391339302063,0.0,-0.007209831848740578
743.0,1012.0,0.1968,0.475,9.6796,-0.0363,0.0191,-0.1141,-1.437465952043869,0.0,1.5857884883880615,-1.8426543474197388,-0.0,2.2021877765655518,4.704237623805664,-0.0,0.2946465313434601,-1.5971739927874964,0.0,-0.010559819638729095,0.6363817453384399,-0.0,0.01766813173890114,0.7951796650886536,0.0,0.0021323352120816708
688.0,1012.0,0.1334,0.4666,9.6443,-0.0382,0.0231,-0.1057,-1.4374821794084092,0.0,1.5986299514770508,-1.8426861763000488,-0.0,2.215595006942749,4.70420949041333,-0.0,0.2890002727508545,-1.5971620718585413,0.0,-0.009626428596675396,0.6364691257476807,-0.0,0.005403592716902494,0.7951837778091431,0.0,0.022369813174009323
688.0,1012.0,0.1334,0.4666,9.6443,-0.0382,0.0231,-0.1057,-1.4374458354762574,0.0,1.6088494062423706,-1.8426822423934937,-0.0,2.1554105281829834,4.704220934505127,-0.0,0.2870442271232605,-1.5971701780902308,0.0,-0.009911948814988136,0.6364572644233704,-0.0,0.002118207048624754,0.7951555252075195,0.0,-0.022032150998711586
688.0,1012.0,0.1334,0.4666,9.6443,-0.0382,0.0231,-0.1057,-1.4374821347049256,0.0,1.6084630489349365,-1.8427144289016724,-0.0,2.1742095947265625,4.7042457300373535,-0.0,0.2872104048728943,-1.5971534887896937,0.0,-0.006172670982778072,0.6364691853523254,-0.0,0.004929632414132357,0.7951472997665405,0.0,-0.027935422956943512
688.0,1012.0,0.1334,0.4666,9.6443,-0.0382,0.0231,-0.1057,-1.4374458354762574,0.0,1.6166799068450928,-1.8427025079727173,-0.0,2.1941003799438477,4.704245253200195,-0.0,0.28491121530532837,-1.5971420446978968,0.0,0.0010936930775642395,0.6364453434944153,-0.0,-0.010611776262521744,0.795131266117096,0.0,0.0046706609427928925
688.0,1012.0,0.1334,0.4666,9.6443,-0.0382,0.0231,-0.1057,-1.437465952043869,0.0,1.578061819076538,-1.8427025079727173,-0.0,2.1887431144714355,4.70423333227124,-0.0,0.2903871536254883,-1.5971458593951624,0.0,-0.01565433479845524,0.6364771127700806,-0.0,-0.014042865484952927,0.7951390743255615,0.0,0.016428416594862938
688.0,1012.0,0.1334,0.4666,9.6443,-0.0382,0.0231,-0.1057,-1.4375102084926148,0.0,1.6269793510437012,-1.842690110206604,-0.0,2.1812362670898438,4.704281969661377,-0.0,0.2793191373348236,-1.5971258322345179,0.0,-0.009049939922988415,0.6363937258720398,-0.0,0.00978152360767126,0.7951436638832092,0.0,-0.006002666428685188
688.0,1012.0,0.1334,0.4666,9.6443,-0.0382,0.0231,-0.1057,-1.437469796543457,0.0,1.6222554445266724,-1.8426861763000488,-0.0,2.1807897090911865,4.704265757197998,-0.0,0.2898826599121094,-1.5971339384662073,0.0,-0.016908545047044754,0.6364136338233948,-0.0,-0.0019979598000645638,0.7951472997665405,0.0,-0.002643570303916931
688.0,1012.0,0.1334,0.4666,9.6443,-0.0382,0.0231,-0.1057,-1.4374618840268631,0.0,1.5834965705871582,-1.8426861763000488,-0.0,2.212921142578125,4.704213781947754,-0.0,0.2869066596031189,-1.5971339384662073,0.0,-0.006567278876900673,0.6364374160766602,-0.0,-0.005543438717722893,0.7951920032501221,0.0,0.026934931054711342
688.0,1012.0,0.1334,0.4666,9.6443,-0.0382,0.0231,-0.1057,-1.4374577415040513,0.0,1.595478892326355,-1.8426543474197388,-0.0,2.1555497646331787,4.7042738634296875,-0.0,0.2833351194858551,-1.5971296469317835,0.0,-0.01881239376962185,0.6364056468009949,-0.0,0.008494338020682335,0.7951555252075195,0.0,0.016936643049120903
688.0,1012.0,0.1334,0.4666,9.6443,-0.0382,0.0231,-0.1057,-1.4374780517867585,0.0,1.5951933860778809,-1.842690110206604,-0.0,2.1982741355895996,4.704165144557617,-0.0,0.2766343653202057,-1.5971458593951624,0.0,-0.0036625147331506014,0.6364215016365051,-0.0,-0.006814375054091215,0.7951719164848328,0.0,-0.004842615686357021
688.0,1012.0,0.1334,0.4666,9.6443,-0.0382,0.0231,-0.1057,-1.4374862027219315,0.0,1.5949227809906006,-1.8427149057388306,-0.0,2.1572391986846924,4.7042128282734375,-0.0,0.2822585105895996,-1.5971458593951624,0.0,-0.00813840888440609,0.6364215612411499,-0.0,-0.0074088964611291885,0.7951395511627197,0.0,-0.027166448533535004
688.0,1012.0,0.1334,0.4666,9.6443,-0.0382,0.0231,-0.1057,-1.437490077023842,0.0,1.5969208478927612,-1.842626690864563,-0.0,2.1980538368225098,4.704220934505127,-0.0,0.27335983514785767,-1.597177807484762,0.0,-0.01558216754347086,0.6363897919654846,-0.0,0.003282818477600813,0.7951920032501221,0.0,-0.017241086810827255
688.0,1012.0,0.1334,0.4666,9.6443,-0.0382,0.0231,-0.1057,-1.4374659818461915,0.0,1.5988404750823975,-1.8427064418792725,-0.0,2.158130407333374,4.704213781947754,-0.0,0.29579365253448486,-1.5971296469317835,0.0,-0.0007594218477606773,0.6364136338233948,-0.0,0.0011228193761780858,0.7951755523681641,0.0,0.013477909378707409
688.0,1012.0,0.1334,0.4666,9.6443,-0.0382,0.0231,-0.1057,-1.4374821049026032,0.0,1.6414101123809814,-1.8426783084869385,-0.0,2.1753690242767334,4.704241915340088,-0.0,0.2833634614944458,-1.5971501509295862,0.0,-0.004142692778259516,0.636429488658905,-0.0,0.003542525228112936,0.7952036261558533,0.0,0.019686829298734665
688.0,1012.0,0.1334,0.4666,9.6443,-0.0382,0.0231,-0.1057,-1.4374862176230927,0.0,1.609811782836914,-1.8426504135131836,-0.0,2.1791317462921143,4.704237623805664,-0.0,0.29171422123908997,-1.5971620718585413,0.0,-0.01446195226162672,0.6363779306411743,-0.0,0.005018535070121288,0.7951999306678772,0.0,0.03174261003732681
688.0,1012.0,0.1334,0.4666,9.6443,-0.0382,0.0231,-0.1057,-1.4374821496060868,0.0,1.6046826839447021,-1.842698574066162,-0.0,2.170008420944214,4.704201384181641,-0.0,0.2836713194847107,-1.5971620718585413,0.0,-0.02067587524652481,0.6363897323608398,-0.0,0.00015149125829339027,0.7951432466506958,0.0,0.04245966672897339
688.0,1012.0,0.1334,0.4666,9.6443,-0.0382,0.0231,-0.1057,-1.4375261080316086,0.0,1.5990004539489746,-1.8427188396453857,-0.0,2.211854934692383,4.704220934505127,-0.0,0.2830390930175781,-1.5971296469317835,0.0,0.011488492600619793,0.6363778710365295,-0.0,-0.00835915096104145,0.79515540599823,0.0,-0.04261469841003418
753.0,989.0,0.0514,0.4403,9.7711,-0.0449,0.0257,-0.1194,-1.4374577564052125,0.0,1.6236257553100586,-1.8426941633224487,-0.0,2.184126853942871,4.7042457300373535,-0.0,0.2889537811279297,-1.5971296469317835,0.0,0.000829603523015976,0.6364215612411499,-0.0,0.005563921760767698,0.7951595783233643,0.0,7.704738527536392e-05
753.0,989.0,0.0514,0.4403,9.7711,-0.0449,0.0257,-0.1194,-1.437429667716362,0.0,1.5547202825546265,-1.8426941633224487,-0.0,2.151716709136963,4.704205675716064,-0.0,0.2886536121368408,-1.5971820990191858,0.0,-0.00827700924128294,0.6364215612411499,-0.0,-0.0042466064915061,0.7951514720916748,0.0,0.03030093014240265
753.0,989.0,0.0514,0.4403,9.7711,-0.0449,0.0257,-0.1194,-1.4375064832023163,0.0,1.5881688594818115,-1.8426311016082764,-0.0,2.163637161254883,4.7042457300373535,-0.0,0.27574533224105835,-1.5971339384662073,0.0,-0.006445559207350016,0.6364532709121704,-0.0,-0.020070858299732208,0.7951635718345642,0.0,0.03607570007443428
753.0,989.0,0.0514,0.4403,9.7711,-0.0449,0.0257,-0.1194,-1.4374780666879197,0.0,1.618422508239746,-1.8426668643951416,-0.0,2.1702094078063965,4.704213781947754,-0.0,0.278533935546875,-1.5971015135394495,0.0,-0.02425897680222988,0.6364333629608154,-0.0,0.010191347450017929,0.7951760292053223,0.0,0.024271998554468155
753.0,989.0,0.0514,0.4403,9.7711,-0.0449,0.0257,-0.1194,-1.4374618542245408,0.0,1.6057974100112915,-1.8427307605743408,-0.0,2.159151315689087,4.704160853023193,-0.0,0.2873328626155853,-1.5971296469317835,0.0,-0.017810141667723656,0.6364215612411499,-0.0,0.0010095583274960518,0.795139491558075,0.0,0.009389253333210945
753.0,989.0,0.0514,0.4403,9.7711,-0.0449,0.0257,-0.1194,-1.4374698561481019,0.0,1.6052746772766113,-1.8427149057388306,-0.0,2.190478801727295,4.704237623805664,-0.0,0.28152531385421753,-1.5971296469317835,0.0,-0.0002697970485314727,0.6364216208457947,-0.0,0.0038546149153262377,0.7951555252075195,0.0,-0.03995046764612198
753.0,989.0,0.0514,0.4403,9.7711,-0.0449,0.0257,-0.1194,-1.437498317365982,0.0,1.5938308238983154,-1.8426861763000488,-0.0,2.1843223571777344,4.704237623805664,-0.0,0.2830316424369812,-1.5971058050738733,0.0,-0.01583605259656906,0.6364294290542603,-0.0,0.0035119361709803343,0.7951193451881409,0.0,-0.025294525548815727
753.0,989.0,0.0514,0.4403,9.7711,-0.0449,0.0257,-0.1194,-1.437478007083275,0.0,1.5633279085159302,-1.8426941633224487,-0.0,2.1848769187927246,4.704229517573975,-0.0,0.2741169333457947,-1.597137753163473,0.0,-0.009445257484912872,0.6364254951477051,-0.0,-0.000211839796975255,0.7951472997665405,0.0,0.022520819678902626
753.0,989.0,0.0514,0.4403,9.7711,-0.0449,0.0257,-0.1194,-1.437514291410782,0.0,1.5681214332580566,-1.8427025079727173,-0.0,2.146890640258789,4.704249544734619,-0.0,0.2832731604576111,-1.597109619771139,0.0,-0.00026646931655704975,0.6364294290542603,-0.0,-0.0022445721551775932,0.7951837778091431,0.0,6.902031600475311e-06
753.0,989.0,0.0514,0.4403,9.7711,-0.0449,0.0257,-0.1194,-1.4374618542245408,0.0,1.6171321868896484,-1.8426783084869385,-0.0,2.1907646656036377,4.7042457300373535,-0.0,0.29396384954452515,-1.597109619771139,0.0,-0.01466770377010107,0.6364215612411499,-0.0,-0.006833542138338089,0.7951391935348511,0.0,0.0215457733720541
753.0,989.0,0.0514,0.4403,9.7711,-0.0449,0.0257,-0.1194,-1.4374941748431702,0.0,1.6008999347686768,-1.8426543474197388,-0.0,2.1513283252716064,4.704193277949951,-0.0,0.2864038348197937,-1.5971258322345179,0.0,-0.007147706113755703,0.6363897919654846,-0.0,-0.0003483553882688284,0.7951472997665405,0.0,0.002130732173100114
753.0,989.0,0.0514,0.4403,9.7711,-0.0449,0.0257,-0.1194,-1.4374982726624985,0.0,1.6376924514770508,-1.8426543474197388,-0.0,2.1888110637664795,4.704213781947754,-0.0,0.29580560326576233,-1.5971577803241175,0.0,-0.011678521521389484,0.6363739371299744,-0.0,-0.001766276080161333,0.7951714396476746,0.0,0.011177197098731995
753.0,989.0,0.0514,0.4403,9.7711,-0.0449,0.0257,-0.1194,-1.4375023704818268,0.0,1.5663402080535889,-1.8426629304885864,-0.0,2.180513858795166,4.7042175966450195,-0.0,0.2885105609893799,-1.5971382300006312,0.0,-0.005820968188345432,0.636433482170105,-0.0,0.0019343262538313866,0.79515141248703,0.0,0.021498452872037888
753.0,989.0,0.0514,0.4403,9.7711,-0.0449,0.0257,-0.1194,-1.437490077023842,0.0,1.607398271560669,-1.842658281326294,-0.0,2.1852734088897705,4.704237623805664,-0.0,0.28970348834991455,-1.5971701780902308,0.0,-0.020803622901439667,0.6364175081253052,-0.0,-0.0159304216504097,0.7951590418815613,0.0,-0.048150643706321716
753.0,989.0,0.0514,0.4403,9.7711,-0.0449,0.0257,-0.1194,-1.4374659818461915,0.0,1.58701753616333,-1.842674732208252,-0.0,2.2098312377929688,4.70423333227124,-0.0,0.2915025055408478,-1.597165886555807,0.0,-0.007454507052898407,0.6363818645477295,-0.0,-0.01273595355451107,0.795183539390564,0.0,0.023678500205278397
753.0,989.0,0.0514,0.4403,9.7711,-0.0449,0.0257,-0.1194,-1.4374941748431702,0.0,1.5845036506652832,-1.842698574066162,-0.0,2.1966137886047363,4.704185171718262,-0.0,0.29831770062446594,-1.5971739927874964,0.0,-0.0005596602568402886,0.6364413499832153,-0.0,-0.0010289858328178525,0.7951755523681641,0.0,0.018892286345362663
753.0,989.0,0.0514,0.4403,9.7711,-0.0449,0.0257,-0.1194,-1.4374738943627854,0.0,1.642494797706604,-1.8427025079727173,-0.0,2.171128749847412,4.7042576509663085,-0.0,0.2795044779777527,-1.5971339384662073,0.0,-0.010256314650177956,0.6364651322364807,-0.0,-0.0036138673312962055,0.7951678037643433,0.0,0.005328473635017872
755.0,1009.0,0.07,0.3996,9.7986,-0.0338,0.0235,-0.108,-1.4374618393233796,0.0,1.6277031898498535,-1.8426941633224487,-0.0,2.1796722412109375,4.7042457300373535,-0.0,0.2742554545402527,-1.5971296469317835,0.0,-0.009797610342502594,0.636505126953125,-0.0,0.008066674694418907,0.7951796054840088,0.0,0.009329771623015404
755.0,1009.0,0.07,0.3996,9.7986,-0.0338,0.0235,-0.108,-1.4374618244222184,0.0,1.5951979160308838,-1.842690110206604,-0.0,2.1805968284606934,4.704220934505127,-0.0,0.28938955068588257,-1.5971296469317835,0.0,-0.009386787191033363,0.6364294290542603,-0.0,-0.003127506235614419,0.7951231002807617,0.0,-0.012694044038653374
755.0,1009.0,0.07,0.3996,9.7986,-0.0338,0.0235,-0.108,-1.4374738943627854,0.0,1.6218113899230957,-1.8427307605743408,-0.0,2.187710762023926,4.704250021571777,-0.0,0.2855169177055359,-1.5971501509295862,0.0,0.0012220831122249365,0.6364493370056152,-0.0,-0.002653351053595543,0.7951678037643433,0.0,0.00762992212548852
755.0,1009.0,0.07,0.3996,9.7986,-0.0338,0.0235,-0.108,-1.4375101637891312,0.0,1.6110000610351562,-1.8426707983016968,-0.0,2.1656336784362793,4.70423333227124,-0.0,0.2790091931819916,-1.5971339384662073,0.0,-0.003758071456104517,0.6364532113075256,-0.0,-0.014381584711372852,0.7951917052268982,0.0,0.005768685135990381
755.0,1009.0,0.07,0.3996,9.7986,-0.0338,0.0235,-0.108,-1.4374741476825257,0.0,1.619908332824707,-1.8426504135131836,-0.0,2.2194197177886963,4.704237623805664,-0.0,0.2918277680873871,-1.5971620718585413,0.0,-0.0025024705100804567,0.6364611387252808,-0.0,-0.01020103506743908,0.7951837778091431,0.0,-0.01061223540455103
755.0,1009.0,0.07,0.3996,9.7986,-0.0338,0.0235,-0.108,-1.4374821347049256,0.0,1.6161296367645264,-1.8426941633224487,-0.0,2.167762517929077,4.704205675716064,-0.0,0.275753915309906,-1.5971501509295862,0.0,0.0037745728623121977,0.6363977193832397,-0.0,-0.006704428233206272,0.7951395511627197,0.0,-0.013052464462816715
755.0,1009.0,0.07,0.3996,9.7986,-0.0338,0.0235,-0.108,-1.4374780517867585,0.0,1.6268982887268066,-1.8427343368530273,-0.0,2.1668155193328857,4.7042457300373535,-0.0,0.2848280072212219,-1.597177807484762,0.0,0.006714170798659325,0.6363820433616638,-0.0,-0.0001758364960551262,0.795207679271698,0.0,-0.026901496574282646
755.0,1009.0,0.07,0.3996,9.7986,-0.0338,0.0235,-0.108,-1.437506080870964,0.0,1.5978844165802002,-1.842698574066162,-0.0,2.149421215057373,4.704221888179443,-0.0,0.28996962308883667,-1.5971458593951624,0.0,-0.009402185678482056,0.636433482170105,-0.0,-0.0017331682611256838,0.7951472997665405,-1.2490964991229703e-06,0.015386568382382393
755.0,1009.0,0.07,0.3996,9.7986,-0.0338,0.0235,-0.108,-1.4374454331449051,0.0,1.6165077686309814,-1.8426350355148315,-0.0,2.1715102195739746,4.7042457300373535,-0.0,0.28566819429397583,-1.5971296469317835,0.0,-0.005341537296772003,0.6364017128944397,-0.0,0.011835150420665741,0.7951957583427429,-3.0164215309574915e-12,-0.005289835389703512
755.0,1009.0,0.07,0.3996,9.7986,-0.0338,0.0235,-0.108,-1.437454031114914,0.0,1.624860167503357,-1.8426861763000488,-0.0,2.161771297454834,4.704213781947754,-0.0,0.2917197346687317,-1.5971458593951624,0.0,0.0029110219329595566,0.6364254951477051,-0.0,-0.009709442965686321,0.7951350212097168,-7.284303021013446e-18,0.010523721575737
755.0,1009.0,0.07,0.3996,9.7986,-0.0338,0.0235,-0.108,-1.4374297124198456,0.0,1.6307073831558228,-1.8426469564437866,-0.0,2.2073144912719727,4.704188986415527,-0.0,0.2873978316783905,-1.5971697012530726,0.0,-0.01595252938568592,0.6364176273345947,-0.0,-0.001294649438932538,0.7951917052268982,-1.3111487216593889e-21,-0.055841490626335144
755.0,1009.0,0.07,0.3996,9.7986,-0.0338,0.0235,-0.108,-1.4374413353255768,0.0,1.5825676918029785,-1.842674732208252,-0.0,2.1768815517425537,4.704225226039551,-0.0,0.27956774830818176,-1.5971296469317835,0.0,-0.01528848148882389,0.63640958070755,-0.0,0.0019305907189846039,0.7951796054840088,-3.1662700434734256e-27,0.040636204183101654
755.0,1009.0,0.07,0.3996,9.7986,-0.0338,0.0235,-0.108,-1.4374575477889557,0.0,1.5820204019546509,-1.8426941633224487,-0.0,2.2087879180908203,4.70420949041333,-0.0,0.2848113775253296,-1.5971458593951624,0.0,0.004569557495415211,0.6364413499832153,-0.0,0.005776566453278065,0.7951632142066956,-5.699174181571934e-31,0.0141379963606596
755.0,1009.0,0.07,0.3996,9.7986,-0.0338,0.0235,-0.108,-1.4374454331449051,0.0,1.583451271057129,-1.8426623344421387,-0.0,2.193997621536255,4.704253836269043,-0.0,0.28215986490249634,-1.5971978346454065,0.0,-0.0011180411092936993,0.6363778710365295,-0.0,-0.01206772681325674,0.7951794266700745,-1.3762836051784619e-36,-0.03001062199473381
755.0,1009.0,0.07,0.3996,9.7986,-0.0338,0.0235,-0.108,-1.437478021984436,0.0,1.593388319015503,-1.8426543474197388,-0.0,2.175358295440674,4.704250021571777,-0.0,0.2739708125591278,-1.5971582571612757,0.0,-0.006143899634480476,0.6364650130271912,-0.0,-0.0005281175835989416,0.7952238917350769,-2.4772574641873414e-40,0.018890777602791786
755.0,1009.0,0.07,0.3996,9.7986,-0.0338,0.0235,-0.108,-1.4374697667411347,0.0,1.6058788299560547,-1.8427109718322754,-0.0,2.194892406463623,4.704193277949951,-0.0,0.29456156492233276,-1.5971415678607386,0.0,-0.014988861978054047,0.6364651918411255,-0.0,-0.0009917193092405796,0.7951876521110535,-0.0,0.008460011333227158
755.0,1009.0,0.07,0.3996,9.7986,-0.0338,0.0235,-0.108,-1.437501997952797,0.0,1.5872135162353516,-1.8426469564437866,-0.0,2.1874847412109375,4.704205675716064,-0.0,0.2781659960746765,-1.5971458593951624,0.0,-0.00916890799999237,0.6364572644233704,-0.0,-0.008440445177257061,0.7951350212097168,0.0,-0.024372102692723274
755.0,1009.0,0.07,0.3996,9.7986,-0.0338,0.0235,-0.108,-1.4374937278083344,0.0,1.6378847360610962,-1.8426543474197388,-0.0,2.214054822921753,4.70424143850293,-0.0,0.2858539819717407,-1.597177807484762,0.0,-0.013188189826905727,0.6363699436187744,-0.0,-0.00025441619800403714,0.795183539390564,0.0,-0.043548811227083206
741.0,976.0,0.195,0.6317,9.3948,-0.0292,0.0235,-0.1112,-1.4374614667943497,0.0,1.6154518127441406,-1.8427268266677856,-0.0,2.1586594581604004,4.704229517573975,-0.0,0.28403836488723755,-1.5971258322345179,0.0,-0.02293207123875618,0.6364453434944153,-0.0,-0.0015314104966819286,0.795159101486206,0.0,0.03826337680220604
741.0,976.0,0.195,0.6317,9.3948,-0.0292,0.0235,-0.1112,-1.4374739241651078,0.0,1.6295816898345947,-1.842658281326294,-0.0,2.1876044273376465,4.704205675716064,-0.0,0.29275235533714294,-1.5971539656268519,0.0,0.0012467834167182446,0.6364651918411255,-0.0,-0.0004543047398328781,0.795207679271698,0.0,0.00014169840142130852
741.0,976.0,0.195,0.6317,9.3948,-0.0292,0.0235,-0.1112,-1.4374896001866837,0.0,1.6273432970046997,-1.8426822423934937,-0.0,2.151685953140259,4.704201384181641,-0.0,0.28344231843948364,-1.5971296469317835,0.0,-0.0025440140161663294,0.6364493370056152,-0.0,-0.0016375631093978882,0.7951472997665405,0.0,0.022807836532592773
741.0,976.0,0.195,0.6317,9.3948,-0.0292,0.0235,-0.1112,-1.4375664603761216,0.0,1.5963025093078613,-1.8427660465240479,-0.0,2.199986219406128,4.704241915340088,-0.0,0.28722286224365234,-1.597165886555807,0.0,-0.01117011345922947,0.6364294290542603,-0.0,0.0019808027427643538,0.7951995134353638,0.0,0.019906679168343544
741.0,976.0,0.195,0.6317,9.3948,-0.0292,0.0235,-0.1112,-1.437554122214653,0.0,1.5974462032318115,-1.8426865339279175,-0.0,2.1761279106140137,4.70423333227124,-0.0,0.28195351362228394,-1.5971701780902308,0.0,-0.011864193715155125,0.63641357421875,-0.0,0.007813227362930775,0.7951472997665405,0.0,-0.0026461458764970303
741.0,976.0,0.195,0.6317,9.3948,-0.0292,0.0235,-0.1112,-1.4375422459891816,-0.0005546434549614787,1.581167459487915,-1.8427304029464722,-0.0,2.178459644317627,4.704213781947754,-0.0,0.2843649387359619,-1.5971382300006312,0.0,-0.004500396084040403,0.6364173293113708,-0.0,0.00022781966254115105,0.7951954007148743,0.0,-0.025781793519854546
741.0,976.0,0.195,0.6317,9.3948,-0.0292,0.0235,-0.1112,-1.4375862789205094,-0.0014608365017920732,1.631569266319275,-1.8426629304885864,-0.0,2.1800379753112793,4.704226179713867,-0.0,0.28565260767936707,-1.5971415678607386,0.0,-0.0005687233642674983,0.63641357421875,-0.0,-0.00408256147056818,0.7952035665512085,0.0,-0.03861584514379501
741.0,976.0,0.195,0.6317,9.3948,-0.0292,0.0235,-0.1112,-1.4375739854625245,-0.00264919875189662,1.6077052354812622,-1.842694640159607,-0.0,2.162022113800049,4.704185171718262,-0.0,0.28168928623199463,-1.5971382300006312,0.0,-0.011828137561678886,0.6364057064056396,-0.0,0.001002478413283825,0.795183539390564,0.00010848417150555179,-0.04925476014614105
741.0,976.0,0.195,0.6317,9.3948,-0.0292,0.0235,-0.1112,-1.4376542133143921,-0.005373103078454733,1.5865049362182617,-1.8427109718322754,-0.0,2.1557178497314453,4.704218073482178,-1.180494678010291e-06,0.2791077494621277,-1.597194019948141,0.0,-0.010031415149569511,0.6364012956619263,-0.0,0.0014214764814823866,0.7952238321304321,0.0001422451896360144,-0.04819440096616745
741.0,976.0,0.195,0.6317,9.3948,-0.0292,0.0235,-0.1112,-1.43767403185878,-0.007717682048678398,1.6040067672729492,-1.8427581787109375,7.015644509777985e-09,2.2276201248168945,4.704201384181641,-5.032633865198477e-09,0.28648698329925537,-1.5971339384662073,0.0,-0.012201990932226181,0.6363652348518372,-0.0,0.003309684805572033,0.7952356338500977,0.0007724529132246971,0.03304602578282356
741.0,976.0,0.195,0.6317,9.3948,-0.0292,0.0235,-0.1112,-1.4377544236234208,-0.009523041546344757,1.6179814338684082,-1.8427069187164307,1.6941958293627095e-14,2.1693263053894043,4.704193754787109,-0.00043990518315695226,0.2951005697250366,-1.5971220175372522,0.0,-0.02445271611213684,0.6364455819129944,-0.0,-0.008975248783826828,0.7952033281326294,0.0006593777798116207,0.05147910118103027
741.0,976.0,0.195,0.6317,9.3948,-0.0292,0.0235,-0.1112,-1.4377660316279908,-0.009242018684744835,1.5782941579818726,-1.8426668643951416,3.0494923180441174e-18,2.1620001792907715,4.70417754232373,-0.0008834476466290653,0.2842463254928589,-1.5971053282367151,0.0,-0.007125036790966988,0.6363934874534607,-0.0,0.007980367168784142,0.7952437996864319,0.0006227372214198112,0.003728455863893032
741.0,976.0,0.195,0.6317,9.3948,-0.0292,0.0235,-0.1112,-1.4378421616605301,-0.009408596903085709,1.5962624549865723,-1.8427423238754272,7.364164856088327e-24,2.1976616382598877,4.704193754787109,-0.001188387512229383,0.2768453359603882,-1.5971539656268519,3.3894764772668395e-09,0.0005249068490229547,0.6364176273345947,-0.0,0.016128266230225563,0.7951992154121399,0.0004946632543578744,0.04150550067424774
741.0,976.0,0.195,0.6317,9.3948,-0.0292,0.0235,-0.1112,-1.4379022431424637,-0.010907777585089207,1.6642155647277832,-1.8427304029464722,1.3255236916369456e-27,2.1973443031311035,4.70417754232373,-0.0016413365956395864,0.2850881814956665,-1.5971220175372522,1.4449870119892516e-11,-0.00029538231319747865,0.6364452838897705,-0.0,0.005358382593840361,0.7953042984008789,0.00040504211210645735,-0.02567826211452484
741.0,976.0,0.195,0.6317,9.3948,-0.0292,0.0235,-0.1112,-1.4380100828460236,-0.012267112731933594,1.6037464141845703,-1.842698574066162,3.200983523936386e-33,2.175367832183838,4.7041050630756835,-0.002292985562235117,0.2821691334247589,-1.59709340730776,4.022174913552619e-15,-0.010264798067510128,0.6364293098449707,-0.0,-0.00975547544658184,0.7952315211296082,0.0003798344114329666,0.029378678649663925
741.0,976.0,0.195,0.6317,9.3948,-0.0292,0.0235,-0.1112,-1.4380781215480347,-0.014498750679194927,1.6184643507003784,-1.8427224159240723,7.729998133038096e-39,2.219189167022705,4.704134150142334,-0.0031418576836586,0.27681952714920044,-1.59709340730776,1.1195873047292979e-18,-0.002357801655307412,0.6363934874534607,-0.0,-0.006811461877077818,0.7952636480331421,0.0003154454752802849,0.027346938848495483
741.0,976.0,0.195,0.6317,9.3948,-0.0292,0.0235,-0.1112,-1.4381785702756424,-0.015419689007103443,1.576743245124817,-1.8427224159240723,1.3914893750745434e-42,2.1867730617523193,4.704089327449463,-0.003441490698605776,0.2883527874946594,-1.5970972220050257,4.772975921685886e-21,-0.011615928262472153,0.6364217400550842,-0.0,0.0006279281806200743,0.7952153086662292,0.00031328105251304805,-0.00787630956619978
714.0,995.0,-0.0305,0.5342,9.2375,-0.0376,0.0185,-0.1119,-1.4382460874370118,-0.015678994357585907,1.6086912155151367,-1.8427308797836304,-0.0,2.1674997806549072,4.704073591823242,-0.0037536786403506994,0.28495290875434875,-1.5970972220050257,1.3285754763156188e-24,-0.007558138575404882,0.6364415287971497,-0.0,7.389311940642074e-05,0.7952517867088318,0.00028482000925578177,-0.013255652040243149
714.0,995.0,-0.0305,0.5342,9.2375,-0.0376,0.0185,-0.1119,-1.4383705717376252,-0.015110655687749386,1.5677827596664429,-1.842714548110962,-0.0,2.188714027404785,4.704094095821045,-0.003784589469432831,0.28112441301345825,-1.5970733801471155,5.663926158547612e-27,-0.004378855228424072,0.636457085609436,-0.0,-0.0006901139859110117,0.795223593711853,0.00026120091206394136,-0.01574915647506714
714.0,995.0,-0.0305,0.5342,9.2375,-0.0376,0.0185,-0.1119,-1.4384058278850098,-0.014265069738030434,1.5557554960250854,-1.842714548110962,-0.0,2.176384925842285,4.7040740686604,-0.0038786865770816803,0.2822105884552002,-1.59709340730776,1.5765746219951691e-30,-0.005238930694758892,0.6364452242851257,-0.0,0.0004290627548471093,0.7952394485473633,0.00023230526130646467,0.06146320700645447
714.0,995.0,-0.0305,0.5342,9.2375,-0.0376,0.0185,-0.1119,-1.4385179293206711,-0.013271864503622055,1.5959157943725586,-1.8427304029464722,-0.0,2.1565163135528564,4.704005404109619,-0.0037411979865282774,0.287399023771286,-1.597126309071676,4.388453315293172e-34,-0.015703534707427025,0.6364094614982605,-0.0,0.0019601979292929173,0.7952678203582764,0.00020916607172694057,0.002306999871507287
714.0,995.0,-0.0305,0.5342,9.2375,-0.0376,0.0185,-0.1119,-1.4385662835887452,-0.013143131509423256,1.6225626468658447,-1.8426905870437622,-0.0,2.173252820968628,4.704017801875732,-0.002949518384411931,0.2902842164039612,-1.5971339384662073,1.8708664499134768e-36,-0.015600135549902916,0.636461615562439,-0.0,0.0031946904491633177,0.7952636480331421,0.00019614140910562128,0.020734775811433792
714.0,995.0,-0.0305,0.5342,9.2375,-0.0376,0.0185,-0.1119,-1.438673974280693,-0.014301569201052189,1.617095947265625,-1.842686653137207,-0.0,2.15812349319458,4.704025431270264,-0.0017443932592868805,0.28052976727485657,-1.597081486378805,5.2076314699856744e-40,-0.016350768506526947,0.6364054083824158,-0.0,-0.005971798673272133,0.7952559590339661,0.00018880187417380512,-0.013598231598734856
714.0,995.0,-0.0305,0.5342,9.2375,-0.0376,0.0185,-0.1119,-1.4387383323958893,-0.014819982461631298,1.6422665119171143,-1.842766523361206,-0.0,2.150944948196411,4.704042597407959,-0.0009541622712276876,0.2712423503398895,-1.5971177260028284,2.2196567674905102e-42,-0.009482002817094326,0.63641357421875,-0.0,-0.002774828812107444,0.7952799797058105,0.00019902126223314553,-0.00259596761316061
714.0,995.0,-0.0305,0.5342,9.2375,-0.0376,0.0185,-0.1119,-1.4388219875148316,-0.015733931213617325,1.6146084070205688,-1.842726469039917,-0.0,2.209860324859619,4.704030199641846,-0.0005815915064886212,0.2950873076915741,-1.597137753163473,0.0,-0.010041899047791958,0.6363815665245056,-0.0,-0.003974538762122393,0.7952637076377869,0.00020993522775825113,0.014865260571241379
714.0,995.0,-0.0305,0.5342,9.2375,-0.0376,0.0185,-0.1119,-1.4389019024423142,-0.01691424287855625,1.5958130359649658,-1.8426951169967651,-0.0,2.243356227874756,4.704017801875732,-0.00041889396379701793,0.2924952507019043,-1.5971177260028284,0.0,-0.014213727787137032,0.6364254951477051,-0.0,0.00045622815378010273,0.7953081130981445,0.0006398417754098773,-0.003318856004625559
714.0,995.0,-0.0305,0.5342,9.2375,-0.0376,0.0185,-0.1119,-1.4389982980540772,-0.017685482278466225,1.5903211832046509,-1.8426905870437622,-0.0,2.141951084136963,4.704005404109619,-0.0003530892136041075,0.27768629789352417,-1.597109619771139,0.0,-0.011330408044159412,0.6364254951477051,-0.0,-0.00904339924454689,0.7952836751937866,0.0006721036625094712,-0.020536378026008606
714.0,995.0,-0.0305,0.5342,9.2375,-0.0376,0.0185,-0.1119,-1.4390777808478852,-0.0190520528703928,1.6366928815841675,-1.8427304029464722,-0.0,2.192615032196045,4.703993006343506,-0.00028576687327586114,0.28834131360054016,-1.5971382300006312,0.0,-0.007165700662881136,0.6364414691925049,-0.0,-0.008268564939498901,0.7952472567558289,0.0008489977335557342,-0.02039818838238716
714.0,995.0,-0.0305,0.5342,9.2375,-0.0376,0.0185,-0.1119,-1.4391983461431046,-0.02128402516245842,1.6351348161697388,-1.8427025079727173,-0.0,2.182089328765869,4.704009695644043,-0.0002535474777687341,0.27424103021621704,-1.5971015135394495,0.0,-0.009699912741780281,0.6364615559577942,-0.0,-0.011509199626743793,0.7952554821968079,0.000727312930393964,0.009772981517016888
714.0,995.0,-0.0305,0.5342,9.2375,-0.0376,0.0185,-0.1119,-1.4393624377301713,-0.023931626230478287,1.623396635055542,-1.8427581787109375,-0.0,2.1459057331085205,4.704037829036377,-0.00021688129345420748,0.2936915159225464,-1.5971420446978968,0.0,-0.009973504580557346,0.6364292502403259,-0.0,-0.013769044540822506,0.7952635884284973,0.000561036984436214,-0.006766917183995247
714.0,995.0,-0.0305,0.5342,9.2375,-0.0376,0.0185,-0.1119,-1.4394584012082596,-0.025935007259249687,1.5871003866195679,-1.8427029848098755,-0.0,2.16953706741333,4.703989668483398,-0.000197818226297386,0.28782299160957336,-1.5971420446978968,0.0,-0.00707293301820755,0.6364411115646362,-0.0,-0.025272132828831673,0.7952635288238525,0.00047619573888368905,0.04169685021042824
714.0,995.0,-0.0305,0.5342,9.2375,-0.0376,0.0185,-0.1119,-1.4396062356284638,-0.03104586713016033,1.571385383605957,-1.842726469039917,-0.0,2.184177875518799,4.704054041499756,-0.0001918783236760646,0.2804787755012512,-1.5970976988421839,7.679012196604162e-05,-0.009198778308928013,0.6364575028419495,-0.0,0.0014334549196064472,0.7952919006347656,0.00038815842708572745,-0.003733613295480609
714.0,995.0,-0.0305,0.5342,9.2375,-0.0376,0.0185,-0.1119,-1.4398223620704194,-0.03675904497504234,1.6204326152801514,-1.8427069187164307,-0.0,2.2026214599609375,4.704022093410156,-0.00021803980052936822,0.2934010326862335,-1.5970976988421839,8.297907334053889e-05,-0.017090633511543274,0.6363692879676819,-0.0,-0.00885196402668953,0.7952877283096313,0.0003275972849223763,-0.0312460046261549
714.0,995.0,-0.0305,0.5342,9.2375,-0.0376,0.0185,-0.1119,-1.4400266718915482,-0.0424313023686409,1.5425488948822021,-1.8427348136901855,-0.0,2.174612522125244,4.704002066249512,-0.0002048793830908835,0.2831578254699707,-1.59706956544985,8.003049151739106e-05,-0.013892787508666515,0.6364213824272156,-0.0,-0.0010848535457625985,0.7952635288238525,0.000296733807772398,0.036604419350624084
761.0,973.0,-0.2495,0.7035,9.9081,-0.0278,0.0166,-0.1213,-1.44023850679908,-0.05025148391723633,1.5800588130950928,-1.8426827192306519,-0.0,2.2187633514404297,4.704078360194824,-0.00021330942399799824,0.2836207151412964,-1.5970857779132288,9.116346336668357e-05,-0.010649059899151325,0.63641357421875,-0.0,-0.017688682302832603,0.7952998280525208,0.00025999394711107016,-0.03527281433343887
761.0,973.0,-0.2495,0.7035,9.9081,-0.0278,0.0166,-0.1213,-1.4404344272664567,-0.054712314158678055,1.5376274585723877,-1.8427069187164307,-0.0,2.176326036453247,4.703997774715088,-0.00013991136802360415,0.29035961627960205,-1.5971019903766077,8.819406502880156e-05,-0.011628074571490288,0.6364817023277283,-0.0,-0.005043032579123974,0.7953039407730103,0.00024016945098992437,0.021998070180416107
761.0,973.0,-0.2495,0.7035,9.9081,-0.0278,0.0166,-0.1213,-1.4408348214677353,-0.06007413566112518,1.5491676330566406,-1.842698574066162,-0.0,2.1423346996307373,4.703989668483398,-0.000126152066513896,0.29491692781448364,-1.5971177260028284,9.807902097236365e-05,-0.016997411847114563,0.6364292502403259,-0.0,-0.010036948136985302,0.7952594757080078,0.00021551991812884808,-0.016376683488488197
761.0,973.0,-0.2495,0.7035,9.9081,-0.0278,0.0166,-0.1213,-1.441222996716835,-0.06858999282121658,1.5244396924972534,-1.8427308797836304,-0.0,2.21258807182312,4.7040344911762695,-0.00011636472481768578,0.28696560859680176,-1.5971301237689417,0.00010664702131180093,-0.012786575593054295,0.6364537477493286,-0.0,0.0029951808974146843,0.7952717542648315,0.00019546010298654437,0.006451196502894163
761.0,973.0,-0.2495,0.7035,9.9081,-0.0278,0.0166,-0.1213,-1.4414666158011933,-0.07486817240715027,1.5105726718902588,-1.8427025079727173,-0.0,2.2007179260253906,4.704037829036377,-0.0001298587303608656,0.2701079845428467,-1.5971382300006312,0.00010400133032817394,-0.010601273737847805,0.6364455819129944,-0.0,-0.004938541911542416,0.7952877879142761,0.0001840400800574571,0.004219868686050177
761.0,973.0,-0.2495,0.7035,9.9081,-0.0278,0.0166,-0.1213,-1.4420194339803238,-0.0834701806306839,1.509260654449463,-1.8427541255950928,-0.0,2.1671600341796875,4.704009695644043,-0.00012364466965664178,0.28882908821105957,-1.59709340730776,0.00015256021288223565,-0.0022675697691738605,0.6364373564720154,-0.0,-0.0011880469974130392,0.7953038811683655,0.0001692104706307873,0.041647497564554214
761.0,973.0,-0.2495,0.7035,9.9081,-0.0278,0.0166,-0.1213,-1.4422664803317566,-0.0903170183300972,1.495599389076233,-1.8427029848098755,-0.0,2.2174243927001953,4.704030199641846,-0.00011823102977359667,0.2804466187953949,-1.59709340730776,0.000190678023500368,-0.0013791106175631285,0.6364536881446838,-0.0,-0.007880930788815022,0.7953237891197205,0.00016058393521234393,-0.017089715227484703
761.0,973.0,-0.2495,0.7035,9.9081,-0.0278,0.0166,-0.1213,-1.4428627651980896,-0.10095334053039551,1.4998213052749634,-1.8427069187164307,-0.0,2.186048746109009,4.704062147731445,-0.00011094693036284298,0.29215461015701294,-1.5971019903766077,0.00016935760504566133,0.0033106126356869936,0.6364090442657471,-0.0,-0.0014288326492533088,0.7952717542648315,0.00014917664520908147,-0.016583004966378212
761.0,973.0,-0.2495,0.7035,9.9081,-0.0278,0.0166,-0.1213,-1.443271131520607,-0.10448144376277924,1.4902608394622803,-1.8426783084869385,-0.0,2.1438143253326416,4.704005404109619,-0.00010656467929948121,0.2800304591655731,-1.5971301237689417,0.00015750070451758802,-0.005096751730889082,0.6363971829414368,-0.0,0.007306430954486132,0.7952998280525208,0.00014243164332583547,-0.027027111500501633
761.0,973.0,-0.2495,0.7035,9.9081,-0.0278,0.0166,-0.1213,-1.4439276915839692,-0.10163354128599167,1.4981224536895752,-1.8427149057388306,-0.0,2.1331963539123535,4.704022093410156,-0.00010061118518933654,0.2912147343158722,-1.5971100966082972,0.00017053999181371182,-0.0065463874489068985,0.6364452242851257,-0.0,0.0023194155655801296,0.7953199744224548,0.00015240909124258906,-0.021810822188854218
761.0,973.0,-0.2495,0.7035,9.9081,-0.0278,0.0166,-0.1213,-1.4445796471885224,-0.10381319373846054,1.4924018383026123,-1.8426504135131836,-0.0,2.1468513011932373,4.704013987178467,-9.528508235234767e-05,0.2703666687011719,-1.597126309071676,0.000156195746967569,-0.014830623753368855,0.6364615559577942,-0.0,0.00111062778159976,0.7953195571899414,0.0001433355937479064,-0.05196688696742058
761.0,973.0,-0.2495,0.7035,9.9081,-0.0278,0.0166,-0.1213,-1.4450075340322037,-0.10659398883581161,1.4844274520874023,-1.8427070379257202,-0.0,2.133157730102539,4.70402638494458,-0.00010635681974235922,0.2852240800857544,-1.597126309071676,0.00014765352534595877,-0.016362464055418968,0.6364694237709045,-0.0,0.00640872772783041,0.7953158020973206,9.452270023757592e-05,-0.003405800089240074
761.0,973.0,-0.2495,0.7035,9.9081,-0.0278,0.0166,-0.1213,-1.445667789583542,-0.12006910890340805,1.4837663173675537,-1.8427149057388306,-0.0,2.1265063285827637,4.704013987178467,-0.0001324702170677483,0.275336354970932,-1.5970976988421839,0.00013645915896631777,-0.006186969578266144,0.6363612413406372,-0.0,-0.0037062945775687695,0.7952957153320312,0.00013582776591647416,-0.03618309274315834
761.0,973.0,-0.2495,0.7035,9.9081,-0.0278,0.0166,-0.1213,-1.446175569002964,-0.12783664464950562,1.482561469078064,-1.8426827192306519,-0.0,2.19315767288208,4.704017801875732,-0.00018078062566928566,0.2842836380004883,-1.5970614592181605,0.00012989388778805733,0.0021483597811311483,0.6364254951477051,-0.0,-0.008978694677352905,0.7952952980995178,0.0007947523263283074,-0.03320728987455368
761.0,973.0,-0.2495,0.7035,9.9081,-0.0278,0.0166,-0.1213,-1.4469802689603348,-0.14380551874637604,1.4406535625457764,-1.8427069187164307,-0.0,2.1994094848632812,4.704025908107422,-0.00020484659762587398,0.2842405438423157,-1.5970895926104944,0.0001413192367181182,-0.010290845297276974,0.6364374160766602,-0.0,-0.005453202407807112,0.7952957153320312,0.000771030958276242,-0.04737777262926102
761.0,973.0,-0.2495,0.7035,9.9081,-0.0278,0.0166,-0.1213,-1.4477557030371209,-0.1568620204925537,1.4505215883255005,-1.8427348136901855,4.535220068646595e-05,2.1508629322052,4.704037829036377,-0.00016681497800163925,0.2797468900680542,-1.5970576445208948,0.00013242907880339772,-0.0034893667325377464,0.63640958070755,-0.0,0.004326823633164167,0.7953399419784546,0.0009912345558404922,0.0019302312284708023
761.0,973.0,-0.2495,0.7035,9.9081,-0.0278,0.0166,-0.1213,-1.448371873503067,-0.15707868337631226,1.4243131875991821,-1.842690110206604,0.0011568181216716766,2.1773123741149902,4.704085989589355,-0.00015700457151979208,0.2753556966781616,-1.5970738569842737,0.00012708599388133734,0.004475512076169252,0.63645339012146,-0.0,0.0009697899222373962,0.7953237891197205,0.001053256681188941,-0.011237717233598232
719.0,965.0,-0.7597,0.2171,9.4026,-0.0173,-0.0736,-0.1132,-1.449324020450451,-0.15629889070987701,1.403782844543457,-1.8426668643951416,0.001685706665739417,2.1954290866851807,4.704054041499756,-0.0001375542487949133,0.2621113359928131,-1.5970609823810022,0.0001282577431993559,-0.003077294211834669,0.6364050507545471,-0.0,0.003810353111475706,0.7953680157661438,0.0010948085691779852,-0.06793799251317978
719.0,965.0,-0.7597,0.2171,9.4026,-0.0173,-0.0736,-0.1132,-1.449960083966591,-0.15353436768054962,1.4261301755905151,-1.8426543474197388,0.0011223567416891456,2.1704182624816895,4.704029245967529,-0.00011931383050978184,0.2628101706504822,-1.5971019903766077,0.0001318967406405136,-0.005437968298792839,0.6364173293113708,-0.0,0.0012846456374973059,0.7952911853790283,0.001044894102960825,-0.006981736980378628
719.0,965.0,-0.7597,0.2171,9.4026,-0.0173,-0.0736,-0.1132,-1.4509159860065957,-0.15956780314445496,1.4846171140670776,-1.8427144289016724,4.810169411939569e-05,2.1677184104919434,4.704054041499756,-0.00014256741269491613,0.279376745223999,-1.5970900694476526,0.00012505897029768676,-0.010523027740418911,0.6364694237709045,-0.0,0.005507001653313637,0.7954082489013672,0.0022618966177105904,-0.007838078774511814
719.0,965.0,-0.7597,0.2171,9.4026,-0.0173,-0.0736,-0.1132,-1.4519566682032128,-0.17518988251686096,1.4550552368164062,-1.8426941633224487,1.161599288979076e-10,2.102376937866211,4.704029245967529,-0.0001703131420072168,0.27683714032173157,-1.5970495382892054,0.00011886501306435093,0.005937614478170872,0.6364939212799072,-0.0,-0.00516289658844471,0.7953917980194092,0.0034293443895876408,-0.023158395662903786
719.0,965.0,-0.7597,0.2171,9.4026,-0.0173,-0.0736,-0.1132,-1.4526562628201027,-0.1843544989824295,1.44635009765625,-1.8426783084869385,2.0908378110459647e-14,2.1797547340393066,4.704030199641846,-0.00014338883920572698,0.27048829197883606,-1.5970614592181605,0.00011506573355291039,-0.002215067856013775,0.6364374160766602,-0.0,-0.008217801339924335,0.7954399585723877,0.004662791732698679,-0.013230758719146252
719.0,965.0,-0.7597,0.2171,9.4026,-0.0173,-0.0736,-0.1132,-1.4537124645761033,-0.19785018265247345,1.4087495803833008,-1.8427064418792725,-0.00030726828845217824,2.154649257659912,4.704017801875732,-0.00017348089022561908,0.28063851594924927,-1.5970895926104944,0.00010191503679379821,0.0043284036219120026,0.6364292502403259,-0.0,-0.002963518723845482,0.7954438328742981,0.005439674016088247,-0.031955890357494354
719.0,965.0,-0.7597,0.2171,9.4026,-0.0173,-0.0736,-0.1132,-1.4545489338091393,-0.2029600292444229,1.39801025390625,-1.842642903327942,-0.00011237616854486987,2.2173705101013184,4.7040344911762695,-0.00011599130084505305,0.2789453864097595,-1.5970895926104944,9.744676208356395e-05,0.00043205206748098135,0.6363809108734131,-0.0,0.00383296562358737,0.795447826385498,0.005228111054748297,-0.05023619905114174
719.0,965.0,-0.7597,0.2171,9.4026,-0.0173,-0.0736,-0.1132,-1.455705040400364,-0.2070305347442627,1.4276392459869385,-1.8426306247711182,-7.659506917612191e-10,2.1672520637512207,4.704013987178467,-8.755693852435797e-05,0.2690342664718628,-1.5970376173602503,9.150190453510731e-05,-0.008206674829125404,0.636437714099884,-0.0,-0.0037422706373035908,0.795447826385498,0.0035612410865724087,-0.06864124536514282
719.0,965.0,-0.7597,0.2171,9.4026,-0.0173,-0.0736,-0.1132,-1.4565288361958046,-0.20929645001888275,1.4007316827774048,-1.842594861984253,0.001380415866151452,2.171595811843872,4.704033537501953,-7.978911889949813e-05,0.27354979515075684,-1.59706956544985,0.0001032061263686046,0.011478673666715622,0.6364217400550842,-0.0,0.0070336489006876945,0.7954638004302979,0.002586619695648551,-0.025165023282170296
719.0,965.0,-0.7597,0.2171,9.4026,-0.0173,-0.0736,-0.1132,-1.4577931103161355,-0.21099290251731873,1.4243419170379639,-1.8426425457000732,0.0010520709911361337,2.160062313079834,4.704025431270264,-3.643292802735232e-05,0.27273324131965637,-1.59706956544985,9.96683374978602e-05,0.003440238069742918,0.6364173293113708,-0.0,0.011778848245739937,0.7954918146133423,0.0012021164875477552,0.018212342634797096
719.0,965.0,-0.7597,0.2171,9.4026,-0.0173,-0.0736,-0.1132,-1.4590205636671563,-0.2155093401670456,1.438969373703003,-1.8426425457000732,0.00029050561715848744,2.162212371826172,4.704029245967529,-3.151233613607474e-05,0.26666539907455444,-1.5971301237689417,9.443957969779149e-05,0.012846570461988449,0.6364656686782837,-0.0,0.0004258401459082961,0.7954835891723633,0.0008407920249737799,-0.07370512187480927
719.0,965.0,-0.7597,0.2171,9.4026,-0.0173,-0.0736,-0.1132,-1.4599647682956238,-0.21776822209358215,1.4572327136993408,-1.8426072597503662,0.00020910936291329563,2.1502037048339844,4.70402638494458,-2.944946572824847e-05,0.28617075085639954,-1.5970781485186976,9.124794451054186e-05,-0.008474539965391159,0.6364415287971497,-0.0,-0.012468835338950157,0.7955197691917419,0.000758183712605387,-0.01439798902720213
719.0,965.0,-0.7597,0.2171,9.4026,-0.0173,-0.0736,-0.1132,-1.4614094209722062,-0.23541571199893951,1.4847538471221924,-1.8426547050476074,7.752196688670665e-05,2.1359305381774902,4.704037829036377,-3.996443410869688e-05,0.2802932858467102,-1.5970657507525843,8.684534259373322e-05,0.00822344422340393,0.636473536491394,-0.0,-0.005142580717802048,0.7954835891723633,0.000431840744568035,-0.009603975340723991
719.0,965.0,-0.7597,0.2171,9.4026,-0.0173,-0.0736,-0.1132,-1.4623576191118737,-0.24855676293373108,1.4189558029174805,-1.8426265716552734,9.575510375725571e-07,2.1603176593780518,4.704090281123779,-3.671156810014509e-05,0.2735636234283447,-1.5970938841449183,8.413903560722247e-05,-0.0064548528753221035,0.6364612579345703,-0.0,0.0047884308733046055,0.7955163717269897,0.00043453817488625646,0.0005269786342978477
719.0,965.0,-0.7597,0.2171,9.4026,-0.0173,-0.0736,-0.1132,-1.463864655499794,-0.25655338168144226,1.432389736175537,-1.8425953388214111,2.3123731662105795e-12,2.132039785385132,4.704085989589355,-3.2708336220821366e-05,0.2810470163822174,-1.5970900694476526,8.038168016355485e-05,0.0012114609126001596,0.6364374160766602,-0.0,0.0009881816804409027,0.795504093170166,0.00035010167630389333,-0.027480822056531906
719.0,965.0,-0.7597,0.2171,9.4026,-0.0173,-0.0736,-0.1132,-1.4654234883240242,-0.2556990385055542,1.448653221130371,-1.842634677886963,5.58410854534644e-18,2.1174490451812744,4.704037829036377,-3.499457434941178e-08,0.2820286452770233,-1.5970900694476526,7.694555824855343e-05,0.008770139887928963,0.6364816427230835,-0.0,-0.007122179493308067,0.7955081462860107,0.00029308669036254287,-0.014901015907526016
719.0,965.0,-0.7597,0.2171,9.4026,-0.0173,-0.0736,-0.1132,-1.466481977408268,-0.2606537342071533,1.404632806777954,-1.8426666259765625,1.0051197638928283e-21,2.1706385612487793,4.704045935268066,-1.4918737079039346e-10,0.28796878457069397,-1.5970576445208948,7.481352076865733e-05,0.0027088564820587635,0.6364173293113708,-0.0,-0.001866943552158773,0.7954437136650085,0.0002643850748427212,-0.054626498371362686
719.0,965.0,-0.7597,0.2171,9.4026,-0.0173,-0.0736,-0.1132,-1.46822892994199,-0.2741308808326721,1.4648675918579102,-1.8426107168197632,2.427246234830328e-27,2.15816068649292,4.7040740686604,-4.1526850724392037e-14,0.2772459089756012,-1.5970900694476526,7.182811532402411e-05,0.001402026042342186,0.6363487839698792,-0.0,0.0045621017925441265,0.7955200672149658,0.00023052254982758313,-0.007568072527647018
708.0,903.0,-1.0187,0.5019,9.1645,0.0116,-0.1491,-0.1118,-1.4693401169827958,-0.2780962586402893,1.4431482553482056,-1.8427019119262695,4.368957502712494e-31,2.149850845336914,4.7040416437336425,-1.7703547109964473e-16,0.27259892225265503,-1.5971463362323206,6.996681622695178e-05,0.007694178260862827,0.6363775134086609,-0.0,0.00469060055911541,0.7955040335655212,0.00021238838962744921,-0.05620752274990082
708.0,903.0,-1.0187,0.5019,9.1645,0.0116,-0.1491,-0.1118,-1.470994198029377,-0.27777013182640076,1.4225285053253174,-1.842622995376587,1.0550518285617769e-36,2.136319637298584,4.704062147731445,-4.927847073693114e-20,0.27532216906547546,-1.5970938841449183,6.734896305715665e-05,-0.008414028212428093,0.6364295482635498,-0.0,0.005900185089558363,0.7955158948898315,0.0001899716880870983,-0.015856042504310608
708.0,903.0,-1.0187,0.5019,9.1645,0.0116,-0.1491,-0.1118,-1.4727936920574685,-0.2926037609577179,1.4213099479675293,-1.8425989151000977,2.5475606081425174e-42,2.1568095684051514,4.70405022680249,-1.371684279317141e-23,0.28618884086608887,-1.5970738569842737,6.491993553936481e-05,-0.00884929858148098,0.6364016532897949,-0.0,-0.0018471741350367665,0.7954835891723633,0.00017183565068989992,-0.004512440878897905
708.0,903.0,-1.0187,0.5019,9.1645,0.0116,-0.1491,-0.1118,-1.473988601272442,-0.3040691912174225,1.4349720478057861,-1.842626690864563,0.0,2.1825199127197266,4.704070253963135,-5.847705096077249e-26,0.27444973587989807,-1.5970857779132288,6.339560059132054e-05,-0.0008623921312391758,0.6364336609840393,-0.0,-0.006569657474756241,0.7955118417739868,0.00016155374760273844,-0.039062418043613434
708.0,903.0,-1.0187,0.5019,9.1645,0.0116,-0.1491,-0.1118,-1.4758267116597672,-0.3102588355541229,1.3885754346847534,-1.842622995376587,-0.0,2.1413679122924805,4.704029245967529,-1.6277300860808072e-29,0.27913200855255127,-1.5970457235919397,6.1238810303621e-05,0.004704228136688471,0.6363775134086609,-0.0,0.003824376268312335,0.7954999804496765,0.00014824785466771573,-0.022279201075434685
708.0,903.0,-1.0187,0.5019,9.1645,0.0116,-0.1491,-0.1118,-1.4770337131670495,-0.3118831515312195,1.4264001846313477,-1.8426662683486938,-0.0,2.189643144607544,4.70405833303418,-6.939268177091966e-32,0.28179800510406494,-1.5970419088946741,5.9880654589505866e-05,-0.013180665671825409,0.636465311050415,-0.0,-0.008552441373467445,0.7954758405685425,0.00014053155609872192,-0.024207554757595062
708.0,903.0,-1.0187,0.5019,9.1645,0.0116,-0.1491,-0.1118,-1.4788752880743523,-0.3224029242992401,1.4250315427780151,-1.8426508903503418,5.594262620434165e-05,2.1351397037506104,4.704062147731445,-1.9315706814514075e-35,0.2784682512283325,-1.5971100966082972,3.288236172238612e-08,-0.008022991009056568,0.6364295482635498,-0.0,0.006629634648561478,0.7955040335655212,0.00013035447045695037,-0.026271767914295197
708.0,903.0,-1.0187,0.5019,9.1645,0.0116,-0.1491,-0.1118,-1.4801587846926232,-0.3257298171520233,1.4022283554077148,-1.8425992727279663,7.432577694999054e-05,2.158872365951538,4.704025431270264,-8.234588614200198e-38,0.27315419912338257,-1.5970457235919397,1.4018265714899059e-10,-0.013410620391368866,0.6364455819129944,-0.0,-0.015796296298503876,0.795439600944519,0.00012435097596608102,0.005986227188259363
708.0,903.0,-1.0187,0.5019,9.1645,0.0116,-0.1491,-0.1118,-1.4820765641382714,-0.3223312795162201,1.4740910530090332,-1.8425908088684082,0.0011885309359058738,2.181166172027588,4.704025431270264,-2.2921038980961033e-41,0.28394192457199097,-1.5970738569842737,3.902035826072216e-14,-0.0004944265820086002,0.6364612579345703,-0.0,0.0003883346216753125,0.795504093170166,9.694022446637973e-05,-0.0031226715072989464
708.0,903.0,-1.0187,0.5019,9.1645,0.0116,-0.1491,-0.1118,-1.4840106156519433,-0.3261290490627289,1.4226170778274536,-1.8426032066345215,0.0021602290216833353,2.1629858016967773,4.7040015894123535,-7.006492321624085e-45,0.2678163945674896,-1.597025219594137,1.0861458814888815e-17,-0.008507316932082176,0.6364016532897949,-0.0,-0.01623198390007019,0.7954835891723633,0.00010712452785810456,0.014604460448026657
708.0,903.0,-1.0187,0.5019,9.1645,0.0116,-0.1491,-0.1118,-1.4853547152927895,-0.32854869961738586,1.5223252773284912,-1.8426305055618286,0.001468209782615304,2.1501522064208984,4.7040416437336425,-0.0,0.28902971744537354,-1.5970619360553187,4.6304103737600915e-20,-0.003361236536875367,0.6364734768867493,-0.0,-0.0009655952453613281,0.795479953289032,0.00010500585631234571,-0.06021059304475784
708.0,903.0,-1.0187,0.5019,9.1645,0.0116,-0.1491,-0.1118,-1.4873404663852234,-0.3357859253883362,1.4280744791030884,-1.8425908088684082,0.0003334228531457484,2.122753620147705,4.704065962428711,-0.0,0.28525564074516296,-1.5970376173602503,1.2888918284784758e-23,-0.008238882757723331,0.6363934874534607,-0.0,-0.002166671911254525,0.7954758405685425,0.00011575368989724666,-0.013781046494841576
708.0,903.0,-1.0187,0.5019,9.1645,0.0116,-0.1491,-0.1118,-1.48863489300523,-0.34198904037475586,1.452385425567627,-1.842586874961853,0.00023867479467298836,2.119561195373535,4.7040416437336425,-0.0,0.28400635719299316,-1.5970738569842737,5.494748389261155e-26,-0.010574026964604855,0.6364054679870605,-0.0,-0.0070794690400362015,0.7955118417739868,0.0001273841189686209,0.00934670027345419
708.0,903.0,-1.0187,0.5019,9.1645,0.0116,-0.1491,-0.1118,-1.4907134112766762,-0.3450741171836853,1.4678616523742676,-1.8426388502120972,0.0002560686261858791,2.163562297821045,4.7040416437336425,-0.0,0.28319692611694336,-1.5971019903766077,1.5294832838661996e-29,-0.007050055079162121,0.6363934874534607,-0.0,-0.005645918659865856,0.7954958081245422,0.00012116029392927885,0.020445972681045532
708.0,903.0,-1.0187,0.5019,9.1645,0.0116,-0.1491,-0.1118,-1.4928202268532296,-0.3534119427204132,1.4593842029571533,-1.8425630331039429,0.0002212796825915575,2.1692004203796387,4.704081698054932,0.00014128147449810058,0.29038020968437195,-1.597081486378805,4.257372379029544e-33,0.00035406462848186493,0.6364090442657471,-0.0,-0.009190191514790058,0.7955118417739868,0.00011533761426107958,0.004168819170445204
708.0,903.0,-1.0187,0.5019,9.1645,0.0116,-0.1491,-0.1118,-1.4941940915635605,-0.3562771677970886,1.453545093536377,-1.8425545692443848,0.0016167395515367389,2.1287147998809814,4.704065485591553,0.0003049539518542588,0.2845986485481262,-1.5970495382892054,1.8149843711351357e-35,-0.0017319145845249295,0.6364292502403259,-0.0,0.004808587022125721,0.7955240607261658,0.00011175723193446174,0.02816491387784481
708.0,903.0,-1.0187,0.5019,9.1645,0.0116,-0.1491,-0.1118,-1.496376597588398,-0.35149085521698,1.4720211029052734,-1.8425348997116089,0.005315049551427364,2.1327853202819824,4.704101725215576,0.0016926898388192058,0.28271031379699707,-1.5970538298236292,5.052076130057905e-39,-0.0035750512033700943,0.6364455819129944,-0.0,-0.012990759685635567,0.7954594492912292,9.345793660031632e-05,0.014217114076018333
568.0,559.0,-0.3111,0.3075,9.5928,0.02,-0.2647,-0.0953,-1.4978871506503602,-0.35398101806640625,1.4539207220077515,-1.8424986600875854,0.007089296821504831,2.189621925354004,4.704121752376221,0.0015218975022435188,0.28975170850753784,-1.5970500151263636,2.1537957396672438e-41,-0.017647234722971916,0.6364455819129944,-0.0,-0.0013714935630559921,0.7954717874526978,0.00010353212564950809,-0.04482780024409294
568.0,559.0,-0.3111,0.3075,9.5928,0.02,-0.2647,-0.0953,-1.5001370844295998,-0.36219602823257446,1.4809026718139648,-1.8424583673477173,0.00730107631534338,2.151564598083496,4.704149408931396,0.0008847517310641706,0.27925077080726624,-1.5970538298236292,5.605193857299268e-45,-0.007836841978132725,0.6363815665245056,-0.0,-0.002086469903588295,0.7955000400543213,9.941284224623814e-05,-0.013226182200014591
568.0,559.0,-0.3111,0.3075,9.5928,0.02,-0.2647,-0.0953,-1.5016240340522309,-0.36114922165870667,1.531867265701294,-1.842443585395813,0.005818504374474287,2.1647839546203613,4.704081221217773,0.0006903659086674452,0.27950045466423035,-1.5970976988421839,0.0,-0.02134542539715767,0.6364452242851257,-0.0,-0.016929596662521362,0.7954795360565186,9.674143075244501e-05,-0.03176145628094673
568.0,559.0,-0.3111,0.3075,9.5928,0.02,-0.2647,-0.0953,-1.5038097140244027,-0.3683333396911621,1.5201842784881592,-1.8424036502838135,0.0034278451930731535,2.1322760581970215,4.704121752376221,0.0005193905672058463,0.29232674837112427,-1.5971139113055628,2.081370803352911e-05,-0.00987166352570057,0.6364374160766602,-0.0,-0.0005446143914014101,0.7955200672149658,6.539040623465553e-05,-0.042639270424842834
568.0,559.0,-0.3111,0.3075,9.5928,0.02,-0.2647,-0.0953,-1.506051556473114,-0.3798247277736664,1.5747662782669067,-1.8424508571624756,0.0014597183326259255,2.1632461547851562,4.704085512752197,0.00041633954970166087,0.29204970598220825,-1.5970495382892054,2.0112704078201205e-05,-0.0154058076441288,0.6364374160766602,-0.0,-0.012554890476167202,0.7955238223075867,7.518781785620376e-05,-0.025842826813459396
568.0,559.0,-0.3111,0.3075,9.5928,0.02,-0.2647,-0.0953,-1.5075382900289078,-0.3778294026851654,1.5814226865768433,-1.842482566833496,0.00019504288502503186,2.1219005584716797,4.704110308284424,0.0003677108616102487,0.29793620109558105,-1.5970295111285608,1.2987044328838238e-06,-0.015681467950344086,0.6363893747329712,-0.0,0.003445971757173538,0.795504093170166,7.315292896237224e-05,-0.031050294637680054
568.0,559.0,-0.3111,0.3075,9.5928,0.02,-0.2647,-0.0953,-1.509723999803402,-0.38325008749961853,1.5281139612197876,-1.842482566833496,1.1870879834674497e-09,2.120404005050659,4.704125567073486,0.0003129022952634841,0.29475587606430054,-1.5970538298236292,3.614991084255337e-10,-0.026538731530308723,0.6365140676498413,-0.0,-0.008654753677546978,0.7955077290534973,7.029614062048495e-05,0.031771887093782425
568.0,559.0,-0.3111,0.3075,9.5928,0.02,-0.2647,-0.0953,-1.5112187688103695,-0.3859218955039978,1.5734782218933105,-1.8424110412597656,2.1367166391263182e-13,2.161019802093506,4.704117460841797,0.0002846215502358973,0.2976859211921692,-1.5970738569842737,1.5411274686960574e-12,-0.016379404813051224,0.6364292502403259,-0.0,-0.008059995248913765,0.7955200672149658,6.851243233541027e-05,0.023622756823897362
568.0,559.0,-0.3111,0.3075,9.5928,0.02,-0.2647,-0.0953,-1.5135133278420945,-0.3774149417877197,1.5833017826080322,-1.8423871994018555,5.159918022917636e-19,2.1615025997161865,4.70415370046582,0.00028401415329426527,0.29301917552948,-1.5970900694476526,4.289785126479603e-16,-0.021668238565325737,0.6364132165908813,-0.0,-0.014762346632778645,0.7955241203308105,6.600027700187638e-05,-0.0035861064679920673
568.0,559.0,-0.3111,0.3075,9.5928,0.02,-0.2647,-0.0953,-1.515670796190836,-0.3764275014400482,1.5852738618850708,-1.8423949480056763,0.0023864309769123793,2.156496524810791,4.704109354610107,0.00017213316459674388,0.3024897575378418,-1.5970938841449183,1.1940773487327474e-19,-0.02363286167383194,0.6365102529525757,-0.0,0.007571486756205559,0.7954717874526978,6.366590241668746e-05,0.0006323843263089657
568.0,559.0,-0.3111,0.3075,9.5928,0.02,-0.2647,-0.0953,-1.5172378246537228,-0.37589260935783386,1.5977420806884766,-1.8424031734466553,0.002543181413784623,2.1929218769073486,4.704114122981689,0.0001595672802068293,0.29484906792640686,-1.5970457235919397,5.090539363794873e-22,-0.012093560770154,0.6364094614982605,-0.0,-0.003394138067960739,0.7955201268196106,6.902741006342694e-05,-0.028507590293884277
568.0,559.0,-0.3111,0.3075,9.5928,0.02,-0.2647,-0.0953,-1.5193910983255883,-0.37844282388687134,1.5953131914138794,-1.8424195051193237,0.0014384357491508126,2.1317942142486572,4.704141302699707,0.00014422214007936418,0.28894150257110596,-1.5970900694476526,1.4169704468854475e-25,-0.016461491584777832,0.63641357421875,-0.0,-0.0034325518645346165,0.7955721616744995,8.002644608495757e-05,-0.02989642322063446
568.0,559.0,-0.3111,0.3075,9.5928,0.02,-0.2647,-0.0953,-1.5209669669023533,-0.3837457001209259,1.5418455600738525,-1.8423991203308105,0.000595057150349021,2.1528286933898926,4.704142256374023,0.0001355338463326916,0.3019697964191437,-1.5970938841449183,6.040766418900549e-28,-0.024361606687307358,0.6363734602928162,-0.0,0.010555989108979702,0.7954675555229187,0.00020840379875153303,-0.06128886342048645
568.0,559.0,-0.3111,0.3075,9.5928,0.02,-0.2647,-0.0953,-1.5232886348715802,-0.3882763683795929,1.619187593460083,-1.8423950672149658,0.00018828829342965037,2.156672716140747,4.704081221217773,0.00012430132483132184,0.28466179966926575,-1.5971100966082972,1.6814696723116998e-31,-0.027999797835946083,0.6364536881446838,-0.0,-0.0004755901754833758,0.7955077290534973,0.0007426106021739542,0.0047399988397955894
568.0,559.0,-0.3111,0.3075,9.5928,0.02,-0.2647,-0.0953,-1.525609878157713,-0.3951185345649719,1.5792292356491089,-1.8423867225646973,0.0003301719552837312,2.1599678993225098,4.704096956843994,0.0001147885704995133,0.29564186930656433,-1.59706956544985,4.6804333698623363e-35,-0.01921837031841278,0.6364054083824158,-0.0,-0.003049681195989251,0.7955158948898315,0.0006085095810703933,0.02449057437479496
568.0,559.0,-0.3111,0.3075,9.5928,0.02,-0.2647,-0.0953,-1.5272245530835171,-0.38975244760513306,1.642960786819458,-1.8424112796783447,0.0005421716487035155,2.1497139930725098,4.704149408931396,0.00014993120566941798,0.30315929651260376,-1.5970781485186976,1.9953420660997422e-37,-0.023783331736922264,0.6364414691925049,-0.0,-0.008857201784849167,0.795475423336029,0.0004788910155184567,0.01586255617439747
568.0,559.0,-0.3111,0.3075,9.5928,0.02,-0.2647,-0.0953,-1.5296228763512154,-0.38955843448638916,1.6155853271484375,-1.8423556089401245,0.005612298380583525,2.1848695278167725,4.70418564855542,0.0002640798920765519,0.29670387506484985,-1.5970976988421839,5.554046463351412e-41,-0.012370582669973373,0.6364176273345947,-0.0,-0.006406028755009174,0.7954835891723633,0.00036296178586781025,-0.026363039389252663
478.0,399.0,0.6162,0.4786,9.2381,0.0205,-0.3596,-0.1008,-1.531233162885048,-0.3924955129623413,1.6279103755950928,-1.842344045639038,0.006654299329966307,2.1301326751708984,4.7041050630756835,0.00024608575040474534,0.29698026180267334,-1.5970738569842737,2.368194404708941e-43,-0.006641708314418793,0.6364336609840393,-0.0,-0.0070653073489665985,0.795504093170166,0.00031253305496647954,0.05732162669301033
478.0,399.0,0.6162,0.4786,9.2381,0.0205,-0.3596,-0.1008,-1.5336590234986325,-0.3882646858692169,1.6438853740692139,-1.8422995805740356,0.00599866034463048,2.1802618503570557,4.7041331964680175,0.00021650509734172374,0.29325687885284424,-1.5970738569842737,0.0,-0.016804266721010208,0.6364537477493286,-0.0,-0.005762883462011814,0.795495867729187,0.000258634245255962,-0.021793141961097717
478.0,399.0,0.6162,0.4786,9.2381,0.0205,-0.3596,-0.1008,-1.5353096027723332,-0.39656439423561096,1.6644588708877563,-1.8422918319702148,0.004098655190318823,2.17244291305542,4.7041331964680175,0.0002004304260481149,0.30098485946655273,-1.5970495382892054,0.0,-0.0268047247081995,0.6363693475723267,-0.0,0.00413101352751255,0.795504093170166,0.00023196674010250717,-0.005553380120545626
478.0,399.0,0.6162,0.4786,9.2381,0.0205,-0.3596,-0.1008,-1.537715596412756,-0.4050027132034302,1.619037389755249,-1.8423153162002563,0.0017315447330474854,2.14601731300354,4.70412985860791,0.00015042557788547128,0.2910721004009247,-1.5970976988421839,0.0,-0.011620181612670422,0.6364333629608154,-0.0,-0.008735274896025658,0.7954916954040527,0.00024107297940645367,-0.02477249875664711
478.0,399.0,0.6162,0.4786,9.2381,0.0205,-0.3596,-0.1008,-1.5401816715351124,-0.4104914665222168,1.6735832691192627,-1.8422715663909912,2.9627110507135512e-06,2.125211000442505,4.7041379648396,0.00011636866111075506,0.3045944571495056,-1.5971058050738733,0.0,-0.02523989975452423,0.6363815665245056,-0.0,0.004577097948640585,0.7955077290534973,0.00021260016364976764,-0.011008799076080322
478.0,399.0,0.6162,0.4786,9.2381,0.0205,-0.3596,-0.1008,-1.5417679970017453,-0.41862690448760986,1.5741398334503174,-1.8422720432281494,5.332775887545438e-10,2.1494884490966797,4.704113169307373,0.00010305506293661892,0.2978338897228241,-1.5970857779132288,0.0,-0.01838744431734085,0.6364459991455078,-0.0,-0.0052417004480957985,0.795527994632721,0.00019708125910256058,0.000600142462644726
478.0,399.0,0.6162,0.4786,9.2381,0.0205,-0.3596,-0.1008,-1.5442256976715107,-0.4159412980079651,1.714569091796875,-1.842250943183899,1.2878026349840734e-15,2.1272826194763184,4.704125567073486,9.4878654635977e-05,0.29797983169555664,-1.5970619360553187,0.0,-0.028745586052536964,0.6364099383354187,-0.0,-0.003492611926048994,0.7954717874526978,0.0001581849210197106,0.06299621611833572
478.0,399.0,0.6162,0.4786,9.2381,0.0205,-0.3596,-0.1008,-1.5458684389344235,-0.4141756296157837,1.6517713069915771,-1.8422317504882812,0.00041979868547059596,2.154660224914551,4.704173727626465,4.227237150189467e-05,0.291610449552536,-1.5970662275897425,0.0,-0.019293248653411865,0.636461615562439,-0.0,-0.013128849677741528,0.7954638004302979,0.00013889071124140173,-0.032985489815473557
478.0,399.0,0.6162,0.4786,9.2381,0.0205,-0.3596,-0.1008,-1.5482943833670397,-0.4092629551887512,1.7175564765930176,-1.8421868085861206,0.0030550623778253794,2.1747965812683105,4.704205675716064,7.337932038353756e-05,0.2927532196044922,-1.5970376173602503,0.0,-0.008496897295117378,0.6364377737045288,-0.0,-0.014451037161052227,0.7955201268196106,0.0001271182409254834,0.01698438450694084
478.0,399.0,0.6162,0.4786,9.2381,0.0205,-0.3596,-0.1008,-1.5507087421468277,-0.40827247500419617,1.6825348138809204,-1.8421753644943237,0.004463210701942444,2.1457066535949707,4.70416180669751,6.545104406541213e-05,0.29863792657852173,-1.5971058050738733,0.0,-0.020548950880765915,0.6363856196403503,-0.0,-0.008567309938371181,0.7955398559570312,0.00011718722089426592,-0.0007477728649973869
478.0,399.0,0.6162,0.4786,9.2381,0.0205,-0.3596,-0.1008,-1.5523704786649724,-0.40792304277420044,1.652398943901062,-1.842187762260437,0.0038857378531247377,2.108322858810425,4.704089804286621,6.101344115450047e-05,0.29801905155181885,-1.5970619360553187,0.0,-0.02753439173102379,0.6364094614982605,-0.0,0.002224308205768466,0.795527994632721,0.00013276829849928617,0.024442309513688087
478.0,399.0,0.6162,0.4786,9.2381,0.0205,-0.3596,-0.1008,-1.5548485939255734,-0.4104866683483124,1.6445982456207275,-1.8421999216079712,0.0019930924754589796,2.149376153945923,4.704141302699707,5.538100595003925e-05,0.30368131399154663,-1.5970781485186976,0.0,-0.0290316604077816,0.6363774538040161,-0.0,-0.0003122657653875649,0.7955403327941895,0.0001244235463673249,-0.0020464088302105665
478.0,399.0,0.6162,0.4786,9.2381,0.0205,-0.3596,-0.1008,-1.5565192692777892,-0.41475194692611694,1.7034194469451904,-1.8421592712402344,0.0013365205377340317,2.130502939224243,4.704137011165283,5.21704314451199e-05,0.3037341833114624,-1.5970662275897425,0.0,-0.026548685505986214,0.6364415287971497,-0.0,0.012781701982021332,0.7955118417739868,0.00011894239287357777,0.07823684066534042
478.0,399.0,0.6162,0.4786,9.2381,0.0205,-0.3596,-0.1008,-1.559000927289464,-0.41361698508262634,1.7228028774261475,-1.8421671390533447,0.0007939633214846253,2.138002395629883,4.704181833858154,7.15782298357226e-05,0.300260454416275,-1.5970338026629847,0.0,-0.0217139832675457,0.6363815665245056,-3.202092102583265e-08,0.0024477371480315924,0.7954795360565186,9.322932601207867e-05,0.007048275321722031
478.0,399.0,0.6162,0.4786,9.2381,0.0205,-0.3596,-0.1008,-1.561551127848663,-0.4165148138999939,1.7250854969024658,-1.8421111106872559,0.004053213633596897,2.130852699279785,4.704189940089844,8.313385478686541e-05,0.30110055208206177,-1.5970619360553187,0.0,-0.025812357664108276,0.6363734602928162,-8.913139323829533e-12,0.006816960871219635,0.7955159544944763,8.754846930969507e-05,-0.022968504577875137
478.0,399.0,0.6162,0.4786,9.2381,0.0205,-0.3596,-0.1008,-1.5632576442188402,-0.4142136573791504,1.7754937410354614,-1.8421080112457275,0.005234463606029749,2.1135635375976562,4.704186125392578,0.00019067835819441825,0.2913682460784912,-1.5970543066607874,0.0,-0.011858970858156681,0.6364017128944397,-3.799811146613062e-14,-0.007020629942417145,0.795475423336029,8.426957356277853e-05,-0.009854026138782501
478.0,399.0,0.6162,0.4786,9.2381,0.0205,-0.3596,-0.1008,-1.5657841421528538,-0.40865832567214966,1.7586174011230469,-1.8420355319976807,0.007002707105129957,2.165184736251831,4.704157992000244,0.00017537493840791285,0.3035278022289276,-1.5970819632159632,0.0,-0.016283471137285233,0.6363975405693054,-1.0576913647254249e-17,-0.008196070790290833,0.7955159544944763,7.978713983902708e-05,0.004492232576012611
384.0,346.0,0.9721,0.4672,9.5575,0.027,-0.3551,-0.0948,-1.5674415412689378,-0.41567736864089966,1.6914513111114502,-1.8420231342315674,0.007146329618990421,2.1373472213745117,4.704165621394775,0.00016269409388769418,0.2971823215484619,-1.597098175679342,0.0,-0.02978827804327011,0.6363856792449951,-4.509104013811763e-20,-4.0579354390501976e-05,0.7955521941184998,7.705471944063902e-05,-0.02135336585342884
384.0,346.0,0.9721,0.4672,9.5575,0.027,-0.3551,-0.0948,-1.5698957854513829,-0.4158768951892853,1.7420624494552612,-1.8420240879058838,0.0059651779010891914,2.1313986778259277,4.70415370046582,0.00014677256694994867,0.3151114284992218,-1.5970938841449183,0.0,-0.024585075676441193,0.6363734006881714,-1.2551255840635767e-23,-0.02234908938407898,0.795527994632721,8.793988672550768e-05,-0.031572483479976654
384.0,346.0,0.9721,0.4672,9.5575,0.027,-0.3551,-0.0948,-1.5715333424010218,-0.4234718382358551,1.762210726737976,-1.8420237302780151,0.004141231533139944,2.115053653717041,4.704109354610107,0.00011070867185480893,0.2923707664012909,-1.5970938841449183,0.0,-0.006576515734195709,0.6364054083824158,-5.350796681497876e-26,0.004572601523250341,0.7955036163330078,8.517356764059514e-05,-0.020497620105743408
384.0,346.0,0.9721,0.4672,9.5575,0.027,-0.3551,-0.0948,-1.5740682087340296,-0.4322187900543213,1.7715132236480713,-1.8420320749282837,0.0013958297204226255,2.100821018218994,4.7041331964680175,0.00010095304605783895,0.3003937602043152,-1.5970819632159632,0.0,-0.015439369715750217,0.6363533139228821,-1.4894138599833924e-29,-0.004459626507014036,0.7954835891723633,8.132535731419921e-05,-0.06366311758756638
384.0,346.0,0.9721,0.4672,9.5575,0.027,-0.3551,-0.0948,-1.5766016445555628,-0.4305070638656616,1.7355858087539673,-1.8420237302780151,0.00023201941803563386,2.0944979190826416,4.704145594234131,5.615980990114622e-05,0.2991723418235779,-1.5970619360553187,0.0,-0.016113346442580223,0.636389434337616,-4.145838168945664e-33,-0.006202955264598131,0.795475423336029,6.48621644359082e-05,-0.016475044190883636
384.0,346.0,0.9721,0.4672,9.5575,0.027,-0.3551,-0.0948,-1.5782562694945277,-0.42704063653945923,1.7928714752197266,-1.8419764041900635,0.0017708044033497572,2.134690761566162,4.704137011165283,7.130298763513565e-05,0.294364333152771,-1.5970781485186976,0.0,-0.01385216973721981,0.6363652944564819,-1.767435825534522e-35,-0.005103799514472485,0.7955118417739868,5.0440270570106804e-05,-0.05262123793363571
384.0,346.0,0.9721,0.4672,9.5575,0.027,-0.3551,-0.0948,-1.58075012783193,-0.4196036756038666,1.7845182418823242,-1.8419362306594849,0.0060624307952821255,2.153024673461914,4.704178019160889,8.26319883344695e-05,0.30541712045669556,-1.5970781485186976,0.0,-0.021431175991892815,0.6364217400550842,-4.919723490102426e-39,-0.015585551038384438,0.7954877614974976,3.629265120252967e-05,-0.0014326861128211021
384.0,346.0,0.9721,0.4672,9.5575,0.027,-0.3551,-0.0948,-1.582372327844137,-0.4138858914375305,1.7764928340911865,-1.8419721126556396,0.007125395350158215,2.1368308067321777,4.704157992000244,9.41979669732973e-05,0.2959691286087036,-1.5970938841449183,0.0,-0.01857714168727398,0.6364259123802185,-2.0973234115549537e-41,-0.0018780252430588007,0.7954514622688293,4.696040923590772e-05,-0.028156550601124763
384.0,346.0,0.9721,0.4672,9.5575,0.027,-0.3551,-0.0948,-1.5849062405028285,-0.4109185039997101,1.823784351348877,-1.8418923616409302,0.007481202483177185,2.1545562744140625,4.704205675716064,0.00010080649371957406,0.30475300550460815,-1.5970576445208948,0.0,-0.014602169394493103,0.6363571286201477,-5.605193857299268e-45,-0.014260686933994293,0.7955480813980103,1.3280712664709426e-05,-0.025866249576210976
384.0,346.0,0.9721,0.4672,9.5575,0.027,-0.3551,-0.0948,-1.587367673913473,-0.4151298999786377,1.802905559539795,-1.8418126106262207,0.007886618375778198,2.1518359184265137,4.704181833858154,9.065589983947575e-05,0.30077236890792847,-1.5970538298236292,0.0,-0.023455943912267685,0.63641357421875,-0.0,0.0013024737127125263,0.7954753637313843,1.1494275895529427e-05,-0.016598865389823914
384.0,346.0,0.9721,0.4672,9.5575,0.027,-0.3551,-0.0948,-1.5890871487059535,-0.41467827558517456,1.8377203941345215,-1.8418208360671997,0.007283720653504133,2.1327602863311768,4.704137011165283,8.495058136759326e-05,0.3056795597076416,-1.5970857779132288,0.0,-0.021825004369020462,0.6364176273345947,-0.0,-0.0038176467642188072,0.7955118417739868,1.120800880016759e-05,-0.008526044897735119
384.0,346.0,0.9721,0.4672,9.5575,0.027,-0.3551,-0.0948,-1.5916086635985316,-0.414203941822052,1.7797549962997437,-1.8417483568191528,0.008319712243974209,2.1082935333251953,4.704193754787109,0.00020326758385635912,0.2989954948425293,-1.5970738569842737,0.0,-0.023680079728364944,0.6364296078681946,-0.0,-0.018843531608581543,0.7954999208450317,1.0804198609548621e-05,0.014051999896764755
384.0,346.0,0.9721,0.4672,9.5575,0.027,-0.3551,-0.0948,-1.5932918987669886,-0.41750672459602356,1.8382675647735596,-1.8417121171951294,0.00952592771500349,2.16611647605896,4.704173727626465,0.00021603400819003582,0.3125976622104645,-1.5970137755023401,0.0,-0.018760666251182556,0.6363980174064636,-0.0,-0.020656302571296692,0.795475423336029,1.0550881597737316e-05,-0.03741602599620819
384.0,346.0,0.9721,0.4672,9.5575,0.027,-0.3551,-0.0948,-1.5958534679808558,-0.40840503573417664,1.8269026279449463,-1.841708779335022,0.011019783094525337,2.1500089168548584,4.7042175966450195,0.00022639402595814317,0.3019184470176697,-1.5970662275897425,0.0,-0.013530034571886063,0.6363897323608398,-0.0,-0.014881806448101997,0.7955159544944763,1.0192424269916955e-05,-0.06269390136003494
384.0,346.0,0.9721,0.4672,9.5575,0.027,-0.3551,-0.0948,-1.5975080929198207,-0.4105784296989441,1.866520643234253,-1.8415930271148682,0.012248159386217594,2.157691478729248,4.7041894632526855,0.00024371384643018246,0.3049337565898895,-1.597098175679342,0.0,-0.012156803160905838,0.6363734006881714,-0.0,-0.01199363637715578,0.7955362200737,9.966687684936915e-06,-0.012931863777339458
384.0,346.0,0.9721,0.4672,9.5575,0.027,-0.3551,-0.0948,-1.6000544033446253,-0.40970003604888916,1.8531391620635986,-1.841532826423645,0.013767313212156296,2.150920867919922,4.704226179713867,0.00041874745511449873,0.2996057868003845,-1.5970500151263636,0.0,-0.017332494258880615,0.63641357421875,-0.0,-0.020681088790297508,0.7955480217933655,7.05244820875528e-11,-0.02360052987933159
384.0,346.0,0.9721,0.4672,9.5575,0.027,-0.3551,-0.0948,-1.6025124988951625,-0.41072383522987366,1.8902473449707031,-1.841496467590332,0.014475839212536812,2.1563029289245605,4.704218073482178,0.00033601673203520477,0.31241071224212646,-1.5970938841449183,0.0,-0.02180526591837406,0.6363980770111084,-8.463601989205927e-05,-0.0137253999710083,0.795539915561676,1.7030833543255108e-16,-0.04162342846393585
384.0,346.0,0.9721,0.4672,9.5575,0.027,-0.3551,-0.0948,-1.604147573510641,-0.41766396164894104,1.8646891117095947,-1.841384768486023,0.013707493431866169,2.1489315032958984,4.70418564855542,0.0002923323481809348,0.3021681010723114,-1.5970819632159632,0.0,-0.016191700473427773,0.6364697813987732,-8.165588224073872e-05,-0.01960301771759987,0.7955238819122314,3.065489991090893e-20,-0.014508061110973358
342.0,365.0,1.4034,0.9087,9.5432,0.0507,-0.3638,-0.1029,-1.6065970859923304,-0.4171450734138489,1.9189794063568115,-1.8413296937942505,0.012560089118778706,2.1646344661712646,4.70418564855542,0.00024463364388793707,0.30362507700920105,-1.5970619360553187,0.0,-0.020857594907283783,0.6364216804504395,-7.744056347291917e-05,-0.02190704643726349,0.7955238819122314,7.402797075598327e-26,0.00021624471992254257
342.0,365.0,1.4034,0.9087,9.5432,0.0507,-0.3638,-0.1029,-1.608232160607809,-0.41449737548828125,1.8940759897232056,-1.8412407636642456,0.013471794314682484,2.1880240440368652,4.704205675716064,0.00022063733194954693,0.31099191308021545,-1.5969975630389612,0.0,-0.0190727598965168,0.6364536881446838,-8.933197386795655e-05,-0.01780335232615471,0.7955762147903442,6.267393473535776e-05,0.005769647192209959
342.0,365.0,1.4034,0.9087,9.5432,0.0507,-0.3638,-0.1029,-1.6106063328185023,-0.4073013365268707,2.0193161964416504,-1.841145396232605,0.01816486567258835,2.1603055000305176,4.704213781947754,0.0002679082390386611,0.3129916191101074,-1.5970619360553187,0.0,-0.02508595585823059,0.6364021301269531,-8.556583634344861e-05,-0.0186382494866848,0.7955040335655212,2.8463633498176932e-05,0.034192584455013275
342.0,365.0,1.4034,0.9087,9.5432,0.0507,-0.3638,-0.1029,-1.613004823724264,-0.40181857347488403,1.9323045015335083,-1.8410252332687378,0.023104896768927574,2.1634883880615234,4.7041613298603515,0.00026875233743339777,0.31187188625335693,-1.5970857779132288,0.0,-0.013282585889101028,0.636349618434906,-8.168302156263962e-05,-0.010628780350089073,0.7955358028411865,2.599594517960213e-05,0.0075035737827420235
342.0,365.0,1.4034,0.9087,9.5432,0.0507,-0.3638,-0.1029,-1.6145836315550746,-0.39620310068130493,2.0038442611694336,-1.840941309928894,0.02451014705002308,2.202434539794922,4.704193277949951,0.00028630206361413,0.3130955696105957,-1.5970457235919397,0.0,-0.013033520430326462,0.6363371014595032,-7.928445120342076e-05,-0.028370868414640427,0.7955320477485657,2.457718801451847e-05,0.008153760805726051
342.0,365.0,1.4034,0.9087,9.5432,0.0507,-0.3638,-0.1029,-1.616918226281637,-0.39071694016456604,1.9834667444229126,-1.8407617807388306,0.027802521362900734,2.156498432159424,4.70420949041333,0.0002482637937646359,0.316148042678833,-1.5970457235919397,0.0,-0.00182504509575665,0.6363979578018188,-7.59395188651979e-05,-0.013824661262333393,0.7955439686775208,4.542934402707033e-05,-0.07402840256690979
342.0,365.0,1.4034,0.9087,9.5432,0.0507,-0.3638,-0.1029,-1.618540426293844,-0.39165768027305603,2.0070083141326904,-1.8406267166137695,0.030714862048625946,2.1593070030212402,4.704173250789307,0.0002273542486364022,0.325187623500824,-1.5970419088946741,0.0,-0.022130653262138367,0.6363692879676819,-7.38620146876201e-05,-0.014387805014848709,0.7955077290534973,4.3247702706139535e-05,0.001789129339158535
342.0,365.0,1.4034,0.9087,9.5432,0.0507,-0.3638,-0.1029,-1.6208864651122035,-0.38801008462905884,2.040832042694092,-1.8404066562652588,0.03361117094755173,2.220094919204712,4.704197092647217,0.00021832890342921019,0.3189942240715027,-1.597098175679342,0.0,-0.005363529548048973,0.6364057660102844,-7.095061300788075e-05,-0.018209565430879593,0.7955077290534973,4.0339844417758286e-05,-0.036782436072826385
342.0,365.0,1.4034,0.9087,9.5432,0.0507,-0.3638,-0.1029,-1.623228212396139,-0.39126235246658325,2.032366991043091,-1.8402149677276611,0.03707154095172882,2.211761951446533,4.704181357020996,0.0002117424737662077,0.3203994035720825,-1.597058121358053,0.0,-0.015110046602785587,0.6363655924797058,-7.953857857501134e-05,-0.03073420748114586,0.7955197691917419,3.779855614993721e-05,0.0026891017332673073
342.0,365.0,1.4034,0.9087,9.5432,0.0507,-0.3638,-0.1029,-1.6248556576170863,-0.3917631506919861,2.0264780521392822,-1.8400956392288208,0.03985417261719704,2.184860944747925,4.704225226039551,0.00022662381525151432,0.32365739345550537,-1.5970619360553187,0.0,-0.017021887004375458,0.6363897323608398,-7.767258648527786e-05,-0.01578410342335701,0.7955041527748108,3.627508704084903e-05,-0.03852076828479767
342.0,365.0,1.4034,0.9087,9.5432,0.0507,-0.3638,-0.1029,-1.62719788173818,-0.38290658593177795,2.0757498741149902,-1.8397879600524902,0.044315602630376816,2.252528667449951,4.704218073482178,0.0002816464111674577,0.30970829725265503,-1.5970819632159632,0.0,-0.008889498189091682,0.6363976001739502,-7.490255666198209e-05,-0.02145765721797943,0.7955077290534973,3.4206965210614726e-05,-0.017118306830525398
342.0,365.0,1.4034,0.9087,9.5432,0.0507,-0.3638,-0.1029,-1.6288367710509242,-0.3842630982398987,2.062215805053711,-1.839616060256958,0.04785119369626045,2.2564706802368164,4.70423333227124,0.00030226304079405963,0.3259757459163666,-1.5970419088946741,0.0,-0.014805765822529793,0.6363693475723267,-7.31629115762189e-05,-0.013097120448946953,0.7955197691917419,4.379830352263525e-05,-0.01816375181078911
342.0,365.0,1.4034,0.9087,9.5432,0.0507,-0.3638,-0.1029,-1.6311146221556605,-0.3817215859889984,2.0537497997283936,-1.8392640352249146,0.053218524903059006,2.2124547958374023,4.70420949041333,0.000581241911277175,0.32751572132110596,-1.5970819632159632,0.0,-0.017936930060386658,0.6363697648048401,-7.069972343742847e-05,-0.01359989121556282,0.7955238819122314,4.685806197812781e-05,-0.00459659518674016
342.0,365.0,1.4034,0.9087,9.5432,0.0507,-0.3638,-0.1029,-1.6326176128783167,-0.37961313128471375,2.0888290405273438,-1.8391331434249878,0.05611831322312355,2.24279522895813,4.704201384181641,0.0004928545677103102,0.3216319978237152,-1.5970900694476526,0.0,-0.02249620109796524,0.6364217400550842,-1.7766455130185932e-05,-0.020742276683449745,0.7955238819122314,4.5286233216756955e-05,0.00764227332547307
342.0,365.0,1.4034,0.9087,9.5432,0.0507,-0.3638,-0.1029,-1.6348797283568324,-0.3872244954109192,2.0613973140716553,-1.838733434677124,0.058407850563526154,2.279301643371582,4.704213781947754,0.00029680089210160077,0.3172515332698822,-1.5970457235919397,0.0,-0.022367149591445923,0.6363897323608398,-4.945358345054274e-09,-0.009327275678515434,0.7955403327941895,5.7466055295662954e-05,-0.005800791084766388
342.0,365.0,1.4034,0.9087,9.5432,0.0507,-0.3638,-0.1029,-1.6371780834593714,-0.3859356939792633,2.0857391357421875,-1.8383539915084839,0.06237557902932167,2.2750399112701416,4.704218073482178,0.00023789354600012302,0.32573914527893066,-1.5970576445208948,0.0,-0.003950847312808037,0.6363856792449951,-1.3765588061792622e-12,-0.018836580216884613,0.7955321073532104,5.4860727686900645e-05,0.005707697011530399
342.0,365.0,1.4034,0.9087,9.5432,0.0507,-0.3638,-0.1029,-1.6386720142760218,-0.38190704584121704,2.116114377975464,-1.838098168373108,0.06526308506727219,2.28761625289917,4.7042457300373535,0.0002103451988659799,0.3255586326122284,-1.5970619360553187,0.0,-0.005723258014768362,0.6364176273345947,-5.86848566296776e-15,-0.015231942757964134,0.7954917550086975,5.3238134569255635e-05,-0.03215206786990166
364.0,750.0,2.1398,0.8267,9.4379,0.0122,-0.3375,-0.1084,-1.640839239160055,-0.3756725490093231,2.132535934448242,-1.837671160697937,0.07176384329795837,2.295999526977539,4.704185171718262,6.574210419785231e-05,0.32708585262298584,-1.5970457235919397,0.0,-0.0018068975768983364,0.6364219784736633,-1.6335147227060705e-18,-0.016474835574626923,0.7955158948898315,5.097660323372111e-05,0.0388057641685009
364.0,750.0,2.1398,0.8267,9.4379,0.0122,-0.3375,-0.1084,-1.642357965508932,-0.37035903334617615,2.140092611312866,-1.8373273611068726,0.076014943420887,2.270037889480591,4.70423333227124,0.00011438097862992436,0.3343205451965332,-1.597025219594137,0.0,-0.013356447219848633,0.6363332271575928,-6.963929371713804e-21,-0.010008849203586578,0.795527994632721,4.9572707212064415e-05,-0.00991920754313469
364.0,750.0,2.1398,0.8267,9.4379,0.0122,-0.3375,-0.1084,-1.644491811791891,-0.3629189431667328,2.115777015686035,-1.8368641138076782,0.08207840472459793,2.269886016845703,4.704220934505127,0.0001441566419089213,0.3267242908477783,-1.5970338026629847,0.0,-0.00895526073873043,0.6363939046859741,-1.938435361887252e-24,-0.024455994367599487,0.7955074310302734,3.77454562112689e-05,-0.05974304676055908
364.0,750.0,2.1398,0.8267,9.4379,0.0122,-0.3375,-0.1084,-1.6466509304442347,-0.3579213321208954,2.128328323364258,-1.8363730907440186,0.08409054577350616,2.3425285816192627,4.704250021571777,0.00012441974831745028,0.32385188341140747,-1.5970781485186976,0.0,-0.016207195818424225,0.6363537311553955,-5.395706035942182e-28,-0.025003276765346527,0.7955560088157654,3.5156088415533304e-05,-0.044405266642570496
