ramyac6/ROB537/final_project/csv/bad/bad_158.csv
tof_0,tof_1,accelx,accely,accelz,gyrox,gyroy,gyroz,shoulder_lift_joint_position,shoulder_lift_joint_velocity,shoulder_lift_joint_effort,elbow_joint_position,elbow_joint_velocity,elbow_joint_effort,wrist_1_joint_position,wrist_1_joint_velocity,wrist_1_joint_effort,wrist_2_joint_position,wrist_2_joint_velocity,wrist_2_joint_effort,wrist_3_joint_position,wrist_3_joint_velocity,wrist_3_joint_effort,shoulder_pan_joint_position,shoulder_pan_joint_velocity,shoulder_pan_joint_effort
912.0,877.0,3.3685,0.5653,8.79,-0.0336,0.0228,-0.1167,-1.5204030399075528,0.0,1.8494861125946045,-2.015571117401123,-0.0,2.077226400375366,4.6517249780842285,0.0,0.29967910051345825,-1.6385515371905726,0.0,0.00358222471550107,0.8045693039894104,0.0,-0.0028866161592304707,0.783454418182373,0.0,-0.018657177686691284
912.0,877.0,3.3685,0.5653,8.79,-0.0336,0.0228,-0.1167,-1.5203830760768433,0.0,1.7781257629394531,-2.0155060291290283,-0.0,2.060410737991333,4.651689215297363,0.0,0.2904070317745209,-1.638575855885641,0.0,-0.010794336907565594,0.804609477519989,0.0,-0.010317213833332062,0.7835185527801514,0.0,-0.0461365282535553
912.0,877.0,3.3685,0.5653,8.79,-0.0336,0.0228,-0.1167,-1.5203949970057984,0.0,1.8440439701080322,-2.015538215637207,-0.0,2.044018507003784,4.651733561153076,0.0,0.2951808571815491,-1.6385872999774378,0.0,-0.0069887759163975716,0.8045729994773865,0.0,-0.005574522539973259,0.783482551574707,0.0,-0.005665676202625036
912.0,877.0,3.3685,0.5653,8.79,-0.0336,0.0228,-0.1167,-1.5203791198185463,0.0,1.85005521774292,-2.0155701637268066,-0.0,2.0691378116607666,4.651721163386963,0.0,0.2996889650821686,-1.6386244932757776,0.0,0.010100153274834156,0.80464106798172,0.0,0.0023725596256554127,0.7834662795066833,0.0,-0.014585076831281185
912.0,877.0,3.3685,0.5653,8.79,-0.0336,0.0228,-0.1167,-1.5203711253455658,0.0,1.8139480352401733,-2.0154976844787598,-0.0,2.06024432182312,4.651753588313721,0.0,0.29195526242256165,-1.6385796705829065,0.0,0.00840352475643158,0.8045526742935181,0.0,-0.0015139152528718114,0.7835065126419067,0.0,-0.04004243016242981
912.0,877.0,3.3685,0.5653,8.79,-0.0336,0.0228,-0.1167,-1.5203472015312691,0.0,1.8437485694885254,-2.0155627727508545,-0.0,2.076727867126465,4.65176169454541,0.0,0.29871878027915955,-1.6385954062091272,0.0,-0.009273938834667206,0.8045971393585205,0.0,-0.010795931331813335,0.7835185527801514,0.0,0.015441960655152798
912.0,877.0,3.3685,0.5653,8.79,-0.0336,0.0228,-0.1167,-1.5203711253455658,0.0,1.8424245119094849,-2.0155422687530518,-0.0,2.0596938133239746,4.651729269618652,0.0,0.3008137345314026,-1.638599697743551,0.0,0.0025907554663717747,0.8045487999916077,0.0,-0.006750210653990507,0.7834784984588623,0.0,0.033998288214206696
912.0,877.0,3.3685,0.5653,8.79,-0.0336,0.0228,-0.1167,-1.5203791198185463,0.0,1.8572721481323242,-2.0155422687530518,-0.0,2.0848965644836426,4.651721163386963,0.0,0.2916666567325592,-1.6385234037982386,0.0,0.0041679684072732925,0.8045849204063416,0.0,-0.008005606010556221,0.7834984064102173,0.0,0.028600728139281273
901.0,916.0,3.2698,0.5031,8.814,-0.0392,0.0319,-0.1147,-1.520407037144043,0.0,1.8429962396621704,-2.0154855251312256,-0.0,2.0092597007751465,4.65170876562085,0.0,0.28775179386138916,-1.6385834852801722,0.0,0.0008656295831315219,0.8045930862426758,0.0,-0.0066211046651005745,0.7834784984588623,0.0,0.009196002967655659
901.0,916.0,3.2698,0.5031,8.814,-0.0392,0.0319,-0.1147,-1.5203670387021084,0.0,1.8265076875686646,-2.015533924102783,-0.0,2.047508955001831,4.651721163386963,0.0,0.2940070927143097,-1.6385796705829065,0.0,0.005026077851653099,0.804564893245697,0.0,0.006308832671493292,0.7834703326225281,0.0,0.002234723884612322
901.0,916.0,3.2698,0.5031,8.814,-0.0392,0.0319,-0.1147,-1.5203830909780045,0.0,1.8305010795593262,-2.015594720840454,-0.0,2.048428535461426,4.651709719295166,0.0,0.2994474470615387,-1.6385796705829065,0.0,-0.004353876691311598,0.8045648336410522,0.0,0.005266551394015551,0.7834662199020386,0.0,-0.04025204852223396
901.0,916.0,3.2698,0.5031,8.814,-0.0392,0.0319,-0.1147,-1.5203989532640954,0.0,1.859870433807373,-2.015537977218628,-0.0,2.02193546295166,4.65176169454541,0.0,0.2936041057109833,-1.6385634581195276,0.0,-0.009057488292455673,0.8046090602874756,0.0,-0.01975366100668907,0.7834744453430176,0.0,0.009988201782107353
901.0,916.0,3.2698,0.5031,8.814,-0.0392,0.0319,-0.1147,-1.5203989532640954,0.0,1.8642480373382568,-2.0155627727508545,-0.0,2.085042953491211,4.651673002833984,0.0,0.29031240940093994,-1.6385672728167933,0.0,-0.00770427705720067,0.8046488761901855,0.0,0.006656198762357235,0.7834823727607727,0.0,-0.019377438351511955
901.0,916.0,3.2698,0.5031,8.814,-0.0392,0.0319,-0.1147,-1.5203870733133336,0.0,1.8753330707550049,-2.0155670642852783,-0.0,2.037061929702759,4.651709719295166,0.0,0.3010191023349762,-1.6385634581195276,0.0,-0.0037110752891749144,0.8045648336410522,0.0,-0.011438529938459396,0.7835267186164856,0.0,0.0075755976140499115
901.0,916.0,3.2698,0.5031,8.814,-0.0392,0.0319,-0.1147,-1.5203989532640954,0.0,1.8580737113952637,-2.0156071186065674,-0.0,2.0457773208618164,4.651729269618652,0.0,0.2844322919845581,-1.6385634581195276,0.0,-0.011527903378009796,0.8046254515647888,0.0,0.0011727561941370368,0.7834503054618835,0.0,0.03463994339108467
901.0,916.0,3.2698,0.5031,8.814,-0.0392,0.0319,-0.1147,-1.5204068657806893,0.0,1.834951639175415,-2.0155184268951416,-0.0,2.052339792251587,4.6517860132404785,0.0,0.29456859827041626,-1.6385634581195276,0.0,-0.007834053598344326,0.8046008944511414,0.0,0.004918810911476612,0.7835347056388855,0.0,-0.041924942284822464
901.0,916.0,3.2698,0.5031,8.814,-0.0392,0.0319,-0.1147,-1.5203910295716305,0.0,1.851477861404419,-2.0155670642852783,-0.0,2.0762100219726562,4.651733561153076,0.0,0.2984972596168518,-1.6385353247271937,0.0,0.0006968199741095304,0.8045124411582947,0.0,-0.002289693569764495,0.7834665775299072,0.0,-0.005849147215485573
901.0,916.0,3.2698,0.5031,8.814,-0.0392,0.0319,-0.1147,-1.5203711253455658,0.0,1.883337140083313,-2.015533924102783,-0.0,2.0867323875427246,4.651777907008789,0.0,0.294661283493042,-1.6385954062091272,0.0,0.002526794094592333,0.8046250343322754,0.0,-0.006291565485298634,0.7834625244140625,0.0,0.006961172446608543
901.0,916.0,3.2698,0.5031,8.814,-0.0392,0.0319,-0.1147,-1.5203909997693081,0.0,1.833434820175171,-2.015533924102783,-0.0,2.0356850624084473,4.651765509242676,0.0,0.291892409324646,-1.6385677496539515,0.0,-0.010625946335494518,0.8045487999916077,0.0,-0.0047386325895786285,0.7834945917129517,0.0,-0.003953663632273674
901.0,916.0,3.2698,0.5031,8.814,-0.0392,0.0319,-0.1147,-1.5203630824438115,0.0,1.8455476760864258,-2.015550374984741,-0.0,2.037019729614258,4.6517860132404785,0.0,0.30340930819511414,-1.6385353247271937,0.0,0.006092379800975323,0.8045487999916077,0.0,-0.01341908611357212,0.7835146188735962,0.0,0.01970946043729782
901.0,916.0,3.2698,0.5031,8.814,-0.0392,0.0319,-0.1147,-1.5204110343805333,0.0,1.805605411529541,-2.0155184268951416,-0.0,2.0645246505737305,4.651765986079834,0.0,0.3066794276237488,-1.638519589100973,0.0,0.004699846729636192,0.8046011924743652,0.0,-0.006356629077345133,0.7835266590118408,0.0,0.0491010807454586
901.0,916.0,3.2698,0.5031,8.814,-0.0392,0.0319,-0.1147,-1.5203630824438115,0.0,1.7969348430633545,-2.015554666519165,-0.0,2.0395803451538086,4.651721163386963,0.0,0.29040616750717163,-1.6385396162616175,0.0,-0.002013685880228877,0.8045770525932312,0.0,0.004337104503065348,0.7835106253623962,0.0,-0.01250157319009304
901.0,916.0,3.2698,0.5031,8.814,-0.0392,0.0319,-0.1147,-1.5203472015312691,0.0,1.845771074295044,-2.01552152633667,-0.0,2.013035297393799,4.651745958919189,0.0,0.3078530430793762,-1.6385472456561487,0.0,-0.0009136484004557133,0.8045487999916077,0.0,-0.00816414039582014,0.7834823727607727,0.0,-0.0022583624813705683
926.0,878.0,3.3159,0.5659,8.7577,-0.0374,0.0243,-0.1229,-1.520375122582056,0.0,1.8256640434265137,-2.015537977218628,-0.0,2.0077130794525146,4.651737375850342,0.0,0.2958335280418396,-1.6386235396014612,0.0,0.004174030385911465,0.8045849204063416,0.0,-0.010694027878344059,0.783482551574707,0.0,-0.0333712138235569
926.0,878.0,3.3159,0.5659,8.7577,-0.0374,0.0243,-0.1229,-1.5203711253455658,0.0,1.871830701828003,-2.0155627727508545,-0.0,2.043368101119995,4.651765986079834,0.0,0.2968578338623047,-1.6385796705829065,0.0,-0.0019660599064081907,0.8045811653137207,0.0,0.0011451076716184616,0.7835185527801514,0.0,0.002790408208966255
926.0,878.0,3.3159,0.5659,8.7577,-0.0374,0.0243,-0.1229,-1.5203551587513466,0.0,1.8567100763320923,-2.0155420303344727,-0.0,2.0800299644470215,4.651753588313721,0.0,0.2894400358200073,-1.6385796705829065,0.0,-0.002117508091032505,0.8045730590820312,0.0,-0.0034949539694935083,0.7835267186164856,0.0,0.020435679703950882
926.0,878.0,3.3159,0.5659,8.7577,-0.0374,0.0243,-0.1229,-1.5203751374832173,0.0,1.8707799911499023,-2.015533924102783,-0.0,2.070523500442505,4.65176169454541,0.0,0.2939019799232483,-1.6385677496539515,0.0,-7.212604396045208e-05,0.8045893907546997,0.0,-0.001846926985308528,0.7834864854812622,0.0,0.029325731098651886
926.0,878.0,3.3159,0.5659,8.7577,-0.0374,0.0243,-0.1229,-1.5203710359385987,0.0,1.8040099143981934,-2.015533924102783,-0.0,2.0680999755859375,4.651753588313721,0.0,0.2973875403404236,-1.6385954062091272,0.0,0.0023177515249699354,0.8045893907546997,0.0,-0.009435401298105717,0.7834945917129517,0.0,-0.012609999626874924
926.0,878.0,3.3159,0.5659,8.7577,-0.0374,0.0243,-0.1229,-1.5203472015312691,0.0,1.8357079029083252,-2.0155060291290283,-0.0,2.041114330291748,4.6517698007771,0.0,0.3090064525604248,-1.6385515371905726,0.0,-0.010322142392396927,0.8046057820320129,0.0,-0.008015298284590244,0.7835387587547302,0.0,0.0046208687126636505
926.0,878.0,3.3159,0.5659,8.7577,-0.0374,0.0243,-0.1229,-1.5204310280135651,0.0,1.8588519096374512,-2.0155463218688965,-0.0,2.0413529872894287,4.651729269618652,0.0,0.3034723103046417,-1.6385634581195276,0.0,0.0051686130464077,0.804568886756897,0.0,-0.011568799614906311,0.7834946513175964,0.0,-0.011672938242554665
926.0,878.0,3.3159,0.5659,8.7577,-0.0374,0.0243,-0.1229,-1.5204149906388302,0.0,1.8178788423538208,-2.0155587196350098,-0.0,2.007847547531128,4.6517578798481445,0.0,0.29428303241729736,-1.6385191122638147,0.0,0.004922311753034592,0.8046332001686096,0.0,0.002251396654173732,0.7834987044334412,0.0,-0.027102075517177582
926.0,878.0,3.3159,0.5659,8.7577,-0.0374,0.0243,-0.1229,-1.5203910407475014,0.0,1.8250224590301514,-2.0155587196350098,-0.0,2.031306266784668,4.651777907008789,0.0,0.2981431186199188,-1.6385834852801722,0.0,-0.002074442571029067,0.8045607209205627,0.0,-0.01163302082568407,0.7835226655006409,0.0,-0.021764149889349937
926.0,878.0,3.3159,0.5659,8.7577,-0.0374,0.0243,-0.1229,-1.5203710359385987,0.0,1.8617619276046753,-2.015550374984741,-0.0,2.0668890476226807,4.6517578798481445,0.0,0.30353814363479614,-1.6385472456561487,0.0,0.011713126674294472,0.8046131134033203,0.0,-0.010188059881329536,0.7834747433662415,0.0,-0.029331669211387634
926.0,878.0,3.3159,0.5659,8.7577,-0.0374,0.0243,-0.1229,-1.5203670387021084,0.0,1.8319661617279053,-2.015533924102783,-0.0,2.0610244274139404,4.651741667384766,0.0,0.28466376662254333,-1.638531510029928,0.0,0.005142453592270613,0.8046295046806335,0.0,0.004776181653141975,0.7834986448287964,0.0,0.026223216205835342
926.0,878.0,3.3159,0.5659,8.7577,-0.0374,0.0243,-0.1229,-1.5203630824438115,0.0,1.8107887506484985,-2.015533924102783,-0.0,2.062385082244873,4.651713533992432,0.0,0.30692556500434875,-1.6385954062091272,0.0,-0.01864657923579216,0.8046213984489441,0.0,-0.0003888355568051338,0.7834986448287964,0.0,-0.007287927903234959
926.0,878.0,3.3159,0.5659,8.7577,-0.0374,0.0243,-0.1229,-1.5203472015312691,0.0,1.814234972000122,-2.015610456466675,-0.0,2.0342063903808594,4.65179364263501,0.0,0.3015432357788086,-1.6385391394244593,0.0,0.003264288417994976,0.804609477519989,0.0,-0.009750878438353539,0.7835144996643066,0.0,0.021678119897842407
926.0,878.0,3.3159,0.5659,8.7577,-0.0374,0.0243,-0.1229,-1.5203749921968956,0.0,1.811785340309143,-2.015550374984741,-0.0,2.0556530952453613,4.651753588313721,0.0,0.29647499322891235,-1.6385753790484827,0.0,-0.014698363840579987,0.8045770525932312,0.0,-0.013337577693164349,0.7835307717323303,0.0,0.02513076737523079
916.0,925.0,3.3846,0.5701,8.9474,-0.0382,0.0203,-0.1173,-1.5204110343805333,0.0,1.8278248310089111,-2.0155627727508545,-0.0,2.0653910636901855,4.651765986079834,0.0,0.2976757884025574,-1.6385834852801722,0.0,0.001394074410200119,0.8046172261238098,0.0,-0.010879660956561565,0.7834543585777283,0.0,0.021827172487974167
916.0,925.0,3.3846,0.5701,8.9474,-0.0382,0.0203,-0.1173,-1.5203989532640954,0.0,1.8514525890350342,-2.015571117401123,-0.0,2.081552028656006,4.651716871852539,0.0,0.2965812087059021,-1.6385515371905726,0.0,-0.005661811679601669,0.8045487999916077,0.0,-0.010509708896279335,0.7834864854812622,0.0,0.011971347033977509
916.0,925.0,3.3846,0.5701,8.9474,-0.0382,0.0203,-0.1173,-1.5203671281090756,0.0,1.818310022354126,-2.015510082244873,-0.0,2.0429515838623047,4.651693029994629,0.0,0.29381996393203735,-1.6385796705829065,0.0,-0.0019444115459918976,0.8045690059661865,0.0,-0.010676058009266853,0.7835105657577515,0.0,0.01607833057641983
916.0,925.0,3.3846,0.5701,8.9474,-0.0382,0.0203,-0.1173,-1.5204229478589077,0.0,1.8193516731262207,-2.0155141353607178,-0.0,2.0901618003845215,4.651773615474365,0.0,0.2993817627429962,-1.6386316458331507,0.0,-0.004390858579427004,0.8045730590820312,0.0,-0.007606932427734137,0.7834543585777283,0.0,0.01112359482795
916.0,925.0,3.3846,0.5701,8.9474,-0.0382,0.0203,-0.1173,-1.520375122582056,0.0,1.8637781143188477,-2.0155909061431885,-0.0,2.023818254470825,4.651753588313721,0.0,0.2976433336734772,-1.638531510029928,0.0,0.0078633027151227,0.8045767545700073,0.0,-0.010159689001739025,0.7834946513175964,0.0,0.007636692840605974
916.0,925.0,3.3846,0.5701,8.9474,-0.0382,0.0203,-0.1173,-1.5203472015312691,0.0,1.8029563426971436,-2.01552152633667,-0.0,2.084360122680664,4.65176169454541,0.0,0.30544865131378174,-1.6385553518878382,0.0,-0.00990784727036953,0.8046011924743652,0.0,0.001188598689623177,0.783478319644928,0.0,-0.014375429600477219
916.0,925.0,3.3846,0.5701,8.9474,-0.0382,0.0203,-0.1173,-1.5203949970057984,0.0,1.8195185661315918,-2.0155422687530518,-0.0,2.042426109313965,4.6517249780842285,0.0,0.28966251015663147,-1.6385515371905726,0.0,1.0523945093154907e-05,0.8046053647994995,0.0,-0.008246859535574913,0.7834905385971069,0.0,-0.004093955270946026
916.0,925.0,3.3846,0.5701,8.9474,-0.0382,0.0203,-0.1173,-1.520375122582056,0.0,1.841041088104248,-2.0155701637268066,-0.0,2.03851056098938,4.651737375850342,0.0,0.29171645641326904,-1.6385915915118616,0.0,0.0014102142304182053,0.8046454191207886,0.0,-0.005398500710725784,0.7835469245910645,0.0,0.0027017337270081043
916.0,925.0,3.3846,0.5701,8.9474,-0.0382,0.0203,-0.1173,-1.5203791198185463,0.0,1.8404467105865479,-2.015566110610962,-0.0,2.095573902130127,4.65176169454541,0.0,0.2844467759132385,-1.6385391394244593,0.0,-0.008494524285197258,0.8045489192008972,0.0,-0.007141506299376488,0.783502459526062,0.0,0.02213284745812416
916.0,925.0,3.3846,0.5701,8.9474,-0.0382,0.0203,-0.1173,-1.5203910295716305,0.0,1.854565143585205,-2.0155298709869385,-0.0,2.0120508670806885,4.651733561153076,0.0,0.29626646637916565,-1.638543430958883,0.0,0.0057885427959263325,0.8046050071716309,0.0,-0.0053932699374854565,0.7834665775299072,0.0,0.024327876046299934
916.0,925.0,3.3846,0.5701,8.9474,-0.0382,0.0203,-0.1173,-1.520375122582056,0.0,1.8087323904037476,-2.015550374984741,-0.0,2.0413365364074707,4.6517249780842285,0.0,0.2897515594959259,-1.6385553518878382,0.0,-0.0015291341114789248,0.8046373128890991,0.0,0.004028655122965574,0.7835267186164856,0.0,0.05407053977251053
916.0,925.0,3.3846,0.5701,8.9474,-0.0382,0.0203,-0.1173,-1.5204149906388302,0.0,1.8199543952941895,-2.0155670642852783,-0.0,2.020911693572998,4.651777907008789,0.0,0.30324286222457886,-1.6385834852801722,0.0,-0.008767330087721348,0.8045287728309631,0.0,-0.01810806803405285,0.7835027575492859,0.0,0.031853992491960526
916.0,925.0,3.3846,0.5701,8.9474,-0.0382,0.0203,-0.1173,-1.5203909587911149,0.0,1.8321969509124756,-2.015554666519165,-0.0,2.0814950466156006,4.651741667384766,0.0,0.2986687123775482,-1.6385677496539515,0.0,-0.0026260842569172382,0.8045852184295654,0.0,0.00031954445876181126,0.7835065126419067,0.0,-0.009006687439978123
916.0,925.0,3.3846,0.5701,8.9474,-0.0382,0.0203,-0.1173,-1.5204110269299527,0.0,1.8271549940109253,-2.015533924102783,-0.0,2.0115389823913574,4.651749296779297,0.0,0.315107136964798,-1.6385634581195276,0.0,-0.01353243738412857,0.804577112197876,0.0,-0.0004590070166159421,0.7834703922271729,0.0,0.05108592286705971
916.0,925.0,3.3846,0.5701,8.9474,-0.0382,0.0203,-0.1173,-1.5204110083035012,0.0,1.8530027866363525,-2.0155742168426514,-0.0,2.098069190979004,4.651773615474365,0.0,0.3021882176399231,-1.6385677496539515,0.0,0.0010770380031317472,0.8045366406440735,0.0,-0.00121840531937778,0.7834984064102173,0.0,0.02363092452287674
912.0,858.0,3.2955,0.5647,8.7308,-0.0409,0.0199,-0.1226,-1.520398949538805,0.0,1.8048479557037354,-2.0155224800109863,-0.0,2.0160610675811768,4.651741667384766,0.0,0.3021543323993683,-1.6386316458331507,0.0,-0.008379515260457993,0.8045529127120972,0.0,-0.011924169026315212,0.783506453037262,0.0,0.0007709469646215439
912.0,858.0,3.2955,0.5647,8.7308,-0.0409,0.0199,-0.1226,-1.5203830760768433,0.0,1.8077409267425537,-2.0155184268951416,-0.0,2.0222182273864746,4.651745958919189,0.0,0.2984304428100586,-1.6385710875140589,0.0,-0.0022078000474721193,0.8045971393585205,0.0,0.0008300181943923235,0.7834945917129517,0.0,0.038901444524526596
912.0,858.0,3.2955,0.5647,8.7308,-0.0409,0.0199,-0.1226,-1.5204029840281983,0.0,1.8166728019714355,-2.0155224800109863,-0.0,1.9974191188812256,4.6517578798481445,0.0,0.29910820722579956,-1.6385391394244593,0.0,-0.005041550379246473,0.8045893907546997,0.0,-0.0024226317182183266,0.7834703326225281,0.0,-0.0356745645403862
912.0,858.0,3.2955,0.5647,8.7308,-0.0409,0.0199,-0.1226,-1.5203511615148564,0.0,1.8221638202667236,-2.0154976844787598,-0.0,2.0253114700317383,4.651777907008789,0.0,0.29965874552726746,-1.6385472456561487,0.0,-0.0015648722182959318,0.8045607805252075,0.0,-0.0016342243179678917,0.7835185527801514,0.0,0.0027578799054026604
912.0,858.0,3.2955,0.5647,8.7308,-0.0409,0.0199,-0.1226,-1.520374984746315,0.0,1.8711824417114258,-2.015550374984741,-0.0,2.096957206726074,4.651705427760742,0.0,0.290873259305954,-1.6385515371905726,0.0,-0.008742433972656727,0.804577112197876,0.0,0.0023613558150827885,0.7835348844528198,0.0,0.012390092015266418
912.0,858.0,3.2955,0.5647,8.7308,-0.0409,0.0199,-0.1226,-1.520355162476637,0.0,1.8467005491256714,-2.015538215637207,-0.0,2.050663709640503,4.651713533992432,0.0,0.28998321294784546,-1.6385472456561487,0.0,-0.004237504210323095,0.8046290874481201,0.0,0.00975661538541317,0.783482551574707,0.0,0.01787305623292923
912.0,858.0,3.2955,0.5647,8.7308,-0.0409,0.0199,-0.1226,-1.5203870733133336,0.0,1.8777425289154053,-2.015550374984741,-0.0,2.0508859157562256,4.651701136226318,0.0,0.28878849744796753,-1.6385796705829065,0.0,-0.014640575274825096,0.8045811653137207,0.0,-0.0012239739298820496,0.7835106253623962,0.0,0.0018824394792318344
912.0,858.0,3.2955,0.5647,8.7308,-0.0409,0.0199,-0.1226,-1.5203910295716305,0.0,1.8858606815338135,-2.0155463218688965,-0.0,2.0285837650299072,4.65176169454541,0.0,0.30134260654449463,-1.6385710875140589,0.0,-0.002339474856853485,0.8046053051948547,0.0,0.00261885579675436,0.7835065126419067,0.0,0.007794602774083614
912.0,858.0,3.2955,0.5647,8.7308,-0.0409,0.0199,-0.1226,-1.5204310466400166,0.0,1.8636040687561035,-2.015533924102783,-0.0,2.046976327896118,4.651733561153076,0.0,0.29703447222709656,-1.6385391394244593,0.0,0.00032679486321285367,0.8045971393585205,0.0,-0.004989747889339924,0.7835023999214172,0.0,-0.016352849081158638
912.0,858.0,3.2955,0.5647,8.7308,-0.0409,0.0199,-0.1226,-1.5203791421702881,0.0,1.842400074005127,-2.0155742168426514,-0.0,2.0058116912841797,4.651737375850342,0.0,0.2963852882385254,-1.6385558287249964,0.0,-0.0028846117202192545,0.8046090602874756,0.0,-0.009662462398409843,0.783502459526062,0.0,0.011920894496142864
912.0,858.0,3.2955,0.5647,8.7308,-0.0409,0.0199,-0.1226,-1.5203670387021084,0.0,1.8186266422271729,-2.015537977218628,-0.0,2.0244574546813965,4.651745958919189,0.0,0.2938104569911957,-1.6385272184955042,0.0,-0.007041014265269041,0.804589033126831,0.0,-0.006138156168162823,0.7835186123847961,0.0,0.03640923649072647
912.0,858.0,3.2955,0.5647,8.7308,-0.0409,0.0199,-0.1226,-1.5203910146704693,0.0,1.7923738956451416,-2.0155298709869385,-0.0,2.106196641921997,4.651749773616455,0.0,0.29181531071662903,-1.638599697743551,0.0,0.0029570618644356728,0.804577112197876,0.0,0.004685112275183201,0.783474326133728,0.0,-0.001913205487653613
912.0,858.0,3.2955,0.5647,8.7308,-0.0409,0.0199,-0.1226,-1.5203870472363015,0.0,1.8217406272888184,-2.015537977218628,-0.0,2.073023557662964,4.651729269618652,0.0,0.29093265533447266,-1.6385634581195276,0.0,0.003281237091869116,0.8045567870140076,0.0,0.007106289267539978,0.7834905385971069,0.0,-0.046119436621665955
912.0,858.0,3.2955,0.5647,8.7308,-0.0409,0.0199,-0.1226,-1.5203511838665982,0.0,1.8218603134155273,-2.015497922897339,-0.0,2.0682756900787354,4.651765509242676,0.0,0.289610892534256,-1.638543430958883,0.0,-0.007023274432867765,0.8045930862426758,0.0,-0.012100261636078358,0.7835226655006409,0.0,-0.012301914393901825
912.0,858.0,3.2955,0.5647,8.7308,-0.0409,0.0199,-0.1226,-1.5203590591302891,0.0,1.8123935461044312,-2.0156309604644775,-0.0,2.0179495811462402,4.6517249780842285,0.0,0.29765447974205017,-1.6385796705829065,0.0,-0.007036656141281128,0.8046093583106995,0.0,-0.00445372611284256,0.7835144400596619,0.0,0.013594561256468296
919.0,857.0,3.3553,0.5509,8.7362,-0.0426,0.0266,-0.1182,-1.5203591150096436,0.0,1.8276151418685913,-2.015538215637207,-0.0,2.073899745941162,4.65176169454541,0.0,0.2966528534889221,-1.6385634581195276,0.0,-0.010422310791909695,0.8045931458473206,0.0,-0.007172667887061834,0.7834584712982178,0.0,-0.02466696687042713
919.0,857.0,3.3553,0.5509,8.7362,-0.0426,0.0266,-0.1182,-1.520387065862753,0.0,1.8903508186340332,-2.0155019760131836,-0.0,2.0186281204223633,4.651705427760742,0.0,0.2982659637928009,-1.6385472456561487,0.0,0.010193598456680775,0.8046050071716309,0.0,0.007602304685860872,0.7834662795066833,0.0,0.06447678059339523
919.0,857.0,3.3553,0.5509,8.7362,-0.0426,0.0266,-0.1182,-1.520367046152689,0.0,1.8188796043395996,-2.015550374984741,-0.0,2.0557546615600586,4.651733561153076,0.0,0.2991691827774048,-1.6385634581195276,0.0,0.007013296242803335,0.8045852184295654,0.0,-0.0030745489057153463,0.7835225462913513,0.0,0.02438572235405445
919.0,857.0,3.3553,0.5509,8.7362,-0.0426,0.0266,-0.1182,-1.5204189878753205,0.0,1.8701165914535522,-2.0155980587005615,-0.0,2.0119271278381348,4.651697321529053,0.0,0.30042868852615356,-1.6385672728167933,0.0,-0.005360348150134087,0.8046532273292542,0.0,-0.007050587795674801,0.7835348844528198,0.0,-0.01840071752667427
919.0,857.0,3.3553,0.5509,8.7362,-0.0426,0.0266,-0.1182,-1.5203870509615918,0.0,1.822728157043457,-2.0155298709869385,-0.0,2.041731595993042,4.6517578798481445,0.0,0.30143341422080994,-1.6385591665851038,0.0,-0.009112636558711529,0.8046491146087646,0.0,-0.0013359321746975183,0.7835065126419067,0.0,-0.022492777556180954
919.0,857.0,3.3553,0.5509,8.7362,-0.0426,0.0266,-0.1182,-1.5203670387021084,0.0,1.8202197551727295,-2.015537977218628,-0.0,2.0168778896331787,4.651789827937744,0.0,0.30150994658470154,-1.6386120955096644,0.0,-0.011374279856681824,0.8045852184295654,0.0,0.0001264633610844612,0.7834784984588623,0.0,-0.019130561500787735
919.0,857.0,3.3553,0.5509,8.7362,-0.0426,0.0266,-0.1182,-1.5203670238009472,0.0,1.8202133178710938,-2.015510320663452,-0.0,2.1135902404785156,4.651745958919189,0.0,0.2869887053966522,-1.6385353247271937,0.0,0.0010351784294471145,0.8045930862426758,0.0,-0.006432301830500364,0.7834463119506836,0.0,-0.006540494505316019
919.0,857.0,3.3553,0.5509,8.7362,-0.0426,0.0266,-0.1182,-1.5203711588731785,0.0,1.8133546113967896,-2.015578269958496,-0.0,2.032254934310913,4.651733561153076,0.0,0.3037402331829071,-1.6385710875140589,0.0,-0.013780470006167889,0.8045730590820312,0.0,-0.008000312373042107,0.7834905385971069,0.0,-0.01554285641759634
919.0,857.0,3.3553,0.5509,8.7362,-0.0426,0.0266,-0.1182,-1.5203551326743145,0.0,1.8464231491088867,-2.0155422687530518,-0.0,2.0825536251068115,4.651729269618652,0.0,0.30420032143592834,-1.6385710875140589,0.0,0.0007916884496808052,0.8045448660850525,0.0,-0.0032002695370465517,0.7834984064102173,0.0,0.004258790984749794
919.0,857.0,3.3553,0.5509,8.7362,-0.0426,0.0266,-0.1182,-1.520391048198082,0.0,1.868241786956787,-2.0155587196350098,-0.0,2.0304441452026367,4.651721163386963,0.0,0.3025811016559601,-1.6385510603534144,0.0,-0.007015476934611797,0.8046369552612305,0.0,-0.003836090676486492,0.7834986448287964,0.0,0.01840825565159321
919.0,857.0,3.3553,0.5509,8.7362,-0.0426,0.0266,-0.1182,-1.5203511838665982,0.0,1.8560643196105957,-2.0154976844787598,-0.0,2.080110549926758,4.651737375850342,0.0,0.3016899526119232,-1.638543430958883,0.0,-0.005661119241267443,0.8045608401298523,0.0,0.00687889289110899,0.7835267186164856,0.0,-0.011471698060631752
919.0,857.0,3.3553,0.5509,8.7362,-0.0426,0.0266,-0.1182,-1.5203511838665982,0.0,1.7994338274002075,-2.015554666519165,-0.0,2.0170562267303467,4.6517578798481445,0.0,0.2899593114852905,-1.6385391394244593,0.0,-0.00021310593001544476,0.804617166519165,0.0,0.012104656547307968,0.7835144996643066,0.0,-0.007738141808658838
919.0,857.0,3.3553,0.5509,8.7362,-0.0426,0.0266,-0.1182,-1.520355162476637,0.0,1.83872652053833,-2.015538215637207,-0.0,2.0379743576049805,4.651713533992432,0.0,0.2855692207813263,-1.6385753790484827,0.0,0.003458163235336542,0.8045930862426758,0.0,-0.015434827655553818,0.7835144996643066,0.0,0.002556460676714778
919.0,857.0,3.3553,0.5509,8.7362,-0.0426,0.0266,-0.1182,-1.5203910295716305,0.0,1.8396074771881104,-2.0155627727508545,-0.0,2.0517048835754395,4.651733561153076,0.0,0.2989264726638794,-1.638543430958883,0.0,-0.008446711115539074,0.8045811653137207,0.0,-0.008584879338741302,0.7834905385971069,0.0,-0.05061778426170349
902.0,900.0,3.2877,0.5551,8.7847,-0.0392,0.0243,-0.1249,-1.5203511354378243,0.0,1.8344781398773193,-2.0155422687530518,-0.0,2.0411837100982666,4.651721163386963,0.0,0.28709012269973755,-1.6385915915118616,0.0,-0.003908502869307995,0.8046131134033203,0.0,-0.00030637835152447224,0.7834905385971069,0.0,0.03065885603427887
902.0,900.0,3.2877,0.5551,8.7847,-0.0392,0.0243,-0.1249,-1.5204229776612301,0.0,1.8200979232788086,-2.0155749320983887,-0.0,2.030322551727295,4.651721163386963,0.0,0.2812444567680359,-1.638543430958883,0.0,-0.0020736504811793566,0.8045689463615417,0.0,-0.0035310876555740833,0.7835105657577515,0.0,0.0336608849465847
902.0,900.0,3.2877,0.5551,8.7847,-0.0392,0.0243,-0.1249,-1.5203870621374627,0.0,1.852518081665039,-2.0155463218688965,-0.0,2.11649751663208,4.651781721706055,0.0,0.3013416528701782,-1.6385515371905726,0.0,-0.0028382090386003256,0.8045971989631653,0.0,-0.017017608508467674,0.7834783792495728,0.0,-0.005025043152272701
902.0,900.0,3.2877,0.5551,8.7847,-0.0392,0.0243,-0.1249,-1.5203870621374627,0.0,1.8933076858520508,-2.0155742168426514,-0.0,2.026185989379883,4.651721163386963,0.0,0.29420173168182373,-1.6385677496539515,0.0,0.00839549582451582,0.8046050071716309,0.0,-0.0043125697411596775,0.7834984064102173,0.0,0.027337612584233284
902.0,900.0,3.2877,0.5551,8.7847,-0.0392,0.0243,-0.1249,-1.5203791309944172,0.0,1.804585576057434,-2.0155298709869385,-0.0,2.051260471343994,4.651705427760742,0.0,0.29540300369262695,-1.6385672728167933,0.0,-0.007562674582004547,0.804577112197876,0.0,-0.008143057115375996,0.7834864854812622,0.0,-0.04951858893036842
902.0,900.0,3.2877,0.5551,8.7847,-0.0392,0.0243,-0.1249,-1.5203870695880433,0.0,1.827359914779663,-2.0155298709869385,-0.0,2.0446858406066895,4.651721163386963,0.0,0.295510470867157,-1.6385634581195276,0.0,0.005771857686340809,0.8045731782913208,0.0,0.0004712747468147427,0.7834987044334412,0.0,-0.0010709899943321943
902.0,900.0,3.2877,0.5551,8.7847,-0.0392,0.0243,-0.1249,-1.5204029616764565,0.0,1.8354835510253906,-2.0155627727508545,-0.0,2.040961503982544,4.651745958919189,0.0,0.2976091802120209,-1.6385591665851038,0.0,0.007403288036584854,0.8045811653137207,0.0,-0.00136846536770463,0.7835307717323303,0.0,-0.0010726125910878181
902.0,900.0,3.2877,0.5551,8.7847,-0.0392,0.0243,-0.1249,-1.5203472536853333,0.0,1.8145360946655273,-2.01552152633667,-0.0,2.0615763664245605,4.6517698007771,0.0,0.2974841296672821,-1.6385472456561487,0.0,-0.00034003378823399544,0.8046090602874756,0.0,-0.009464572183787823,0.783502459526062,0.0,-0.0027466253377497196
902.0,900.0,3.2877,0.5551,8.7847,-0.0392,0.0243,-0.1249,-1.520371002410986,0.0,1.7796711921691895,-2.01552152633667,-0.0,2.0711164474487305,4.651737375850342,0.0,0.2960471212863922,-1.6385591665851038,0.0,-0.004413112998008728,0.8045408725738525,0.0,-0.006157318130135536,0.7834503054618835,0.0,0.007769535295665264
902.0,900.0,3.2877,0.5551,8.7847,-0.0392,0.0243,-0.1249,-1.5204189543477078,0.0,1.841921329498291,-2.0155298709869385,-0.0,2.0050976276397705,4.65176169454541,0.0,0.2999337315559387,-1.6385472456561487,0.0,-0.004680667072534561,0.8046330809593201,0.0,0.004371585324406624,0.7834905385971069,0.0,-0.03260078281164169
902.0,900.0,3.2877,0.5551,8.7847,-0.0392,0.0243,-0.1249,-1.5203631047955533,0.0,1.84531569480896,-2.015521764755249,-0.0,2.0601515769958496,4.651689215297363,0.0,0.29528647661209106,-1.6385472456561487,0.0,0.008147024549543858,0.8045852184295654,0.0,0.0010004641953855753,0.783502459526062,0.0,-0.011505641043186188
902.0,900.0,3.2877,0.5551,8.7847,-0.0392,0.0243,-0.1249,-1.5203910146704693,0.0,1.8099441528320312,-2.015530824661255,-0.0,2.0404677391052246,4.651729269618652,0.0,0.30026212334632874,-1.638543430958883,0.0,-0.0009626065148040652,0.804564893245697,0.0,0.0009072953835129738,0.7835185527801514,0.0,-0.0022094943560659885
902.0,900.0,3.2877,0.5551,8.7847,-0.0392,0.0243,-0.1249,-1.5203711588731785,0.0,1.8188118934631348,-2.015550374984741,-0.0,2.0848240852355957,4.651765986079834,0.0,0.2929462492465973,-1.6385553518878382,0.0,0.0031451706308871508,0.8045529723167419,0.0,-0.011903860606253147,0.7834703922271729,0.0,-0.001354128122329712
902.0,900.0,3.2877,0.5551,8.7847,-0.0392,0.0243,-0.1249,-1.5204029281488438,0.0,1.8282287120819092,-2.0155298709869385,-0.0,2.0564446449279785,4.6517578798481445,0.0,0.29670482873916626,-1.6385591665851038,0.0,0.0033344561234116554,0.8045930862426758,0.0,-0.000687877181917429,0.783502459526062,0.0,-0.027476808056235313
902.0,900.0,3.2877,0.5551,8.7847,-0.0392,0.0243,-0.1249,-1.5203749810210248,0.0,1.8282842636108398,-2.015510320663452,-0.0,2.0063610076904297,4.651737375850342,0.0,0.3020370900630951,-1.6385634581195276,0.0,0.00877092033624649,0.8045690655708313,0.0,0.008047448471188545,0.7834984064102173,0.0,-0.01193256489932537
906.0,933.0,3.2435,0.5121,8.8313,-0.0357,0.0195,-0.1093,-1.5203511838665982,0.0,1.8569307327270508,-2.0155627727508545,-0.0,2.0250558853149414,4.65176169454541,0.0,0.2821488082408905,-1.638543430958883,0.0,-0.00545016024261713,0.8046011924743652,0.0,-0.0023799880873411894,0.7835144400596619,0.0,0.02363462746143341
906.0,933.0,3.2435,0.5121,8.8313,-0.0357,0.0195,-0.1093,-1.5203710359385987,0.0,1.8146003484725952,-2.0155224800109863,-0.0,2.025907039642334,4.651765986079834,0.0,0.30016380548477173,-1.638531510029928,0.0,0.006837088614702225,0.8046090602874756,0.0,-0.009194220416247845,0.7834986448287964,0.0,0.0010332493111491203
906.0,933.0,3.2435,0.5121,8.8313,-0.0357,0.0195,-0.1093,-1.5203432862511654,0.0,1.8239238262176514,-2.0155019760131836,-0.0,2.0613303184509277,4.651733561153076,0.0,0.28583794832229614,-1.63861591020693,0.0,0.003630360122770071,0.8045329451560974,0.0,0.006497594993561506,0.783486545085907,0.0,-0.012834611348807812
906.0,933.0,3.2435,0.5121,8.8313,-0.0357,0.0195,-0.1093,-1.5203749810210248,0.0,1.8417105674743652,-2.0155184268951416,-0.0,2.072352647781372,4.651765986079834,0.0,0.29073861241340637,-1.6385591665851038,0.0,0.005616889800876379,0.8045893311500549,0.0,-0.009158628061413765,0.783502459526062,0.0,0.007838558405637741
906.0,933.0,3.2435,0.5121,8.8313,-0.0357,0.0195,-0.1093,-1.5203910072198887,0.0,1.7900748252868652,-2.0155019760131836,-0.0,2.0140929222106934,4.6517249780842285,0.0,0.30112454295158386,-1.638571564351217,0.0,-0.0021960483863949776,0.8046410083770752,0.0,0.003188320202752948,0.7834824919700623,0.0,-0.02467181161046028
906.0,933.0,3.2435,0.5121,8.8313,-0.0357,0.0195,-0.1093,-1.5203749810210248,0.0,1.8225760459899902,-2.0155587196350098,-0.0,2.0757431983947754,4.6517578798481445,0.0,0.3030341565608978,-1.6385834852801722,0.0,-0.003888460574671626,0.8045689463615417,0.0,0.00312160630710423,0.7834784984588623,0.0,0.029816225171089172
906.0,933.0,3.2435,0.5121,8.8313,-0.0357,0.0195,-0.1093,-1.5203791309944172,0.0,1.8493719100952148,-2.015571117401123,-0.0,2.0831618309020996,4.651741667384766,0.0,0.3035612404346466,-1.6385558287249964,0.0,0.01528901793062687,0.8046131134033203,0.0,-0.00014639180153608322,0.7834824323654175,0.0,0.023811107501387596
906.0,933.0,3.2435,0.5121,8.8313,-0.0357,0.0195,-0.1093,-1.5204108592918892,0.0,1.839141845703125,-2.015550374984741,-0.0,2.0315027236938477,4.651716871852539,0.0,0.2978430390357971,-1.6385591665851038,0.0,-0.008132780902087688,0.8045527935028076,0.0,-0.0010128264548256993,0.7835307717323303,0.0,-0.018304403871297836
906.0,933.0,3.2435,0.5121,8.8313,-0.0357,0.0195,-0.1093,-1.5203949970057984,0.0,1.8354465961456299,-2.0155184268951416,-0.0,2.0798590183258057,4.651737375850342,0.0,0.2960968017578125,-1.6385634581195276,0.0,-0.010670706629753113,0.8046011924743652,0.0,-0.018465278670191765,0.7835185527801514,0.0,-0.033837560564279556
906.0,933.0,3.2435,0.5121,8.8313,-0.0357,0.0195,-0.1093,-1.5203989420882245,0.0,1.8598649501800537,-2.015594720840454,-0.0,2.065115451812744,4.6517249780842285,0.0,0.29260310530662537,-1.6385515371905726,0.0,-0.0034206490963697433,0.804589033126831,0.0,-0.016266463324427605,0.7835144996643066,0.0,0.009275926277041435
906.0,933.0,3.2435,0.5121,8.8313,-0.0357,0.0195,-0.1093,-1.5204110232046624,0.0,1.828599452972412,-2.015550374984741,-0.0,2.0094542503356934,4.65176169454541,0.0,0.30044806003570557,-1.6385796705829065,0.0,-0.008875211700797081,0.8045570850372314,0.0,-0.00035643091541714966,0.7834544777870178,0.0,-0.013248257339000702
906.0,933.0,3.2435,0.5121,8.8313,-0.0357,0.0195,-0.1093,-1.5203670498779793,0.0,1.857535719871521,-2.0155906677246094,-0.0,2.0723419189453125,4.651697321529053,0.0,0.31149622797966003,-1.6385515371905726,0.0,0.012809633277356625,0.8046092987060547,0.0,-0.00013142317766323686,0.783482551574707,0.0,-0.01016705296933651
906.0,933.0,3.2435,0.5121,8.8313,-0.0357,0.0195,-0.1093,-1.5204189543477078,0.0,1.7960240840911865,-2.0155670642852783,-0.0,2.0359408855438232,4.651753588313721,0.0,0.28873512148857117,-1.6385558287249964,0.0,-0.0010268890764564276,0.8046250343322754,0.0,0.002678985707461834,0.7835307121276855,0.0,0.028736166656017303
906.0,933.0,3.2435,0.5121,8.8313,-0.0357,0.0195,-0.1093,-1.5203989420882245,0.0,1.8131392002105713,-2.0155792236328125,-0.0,2.0452933311462402,4.651773615474365,0.0,0.2973749339580536,-1.6385677496539515,0.0,0.0061759185045957565,0.8046051263809204,0.0,-0.011413516476750374,0.7835427522659302,0.0,0.04744745045900345
906.0,933.0,3.2435,0.5121,8.8313,-0.0357,0.0195,-0.1093,-1.5203910072198887,0.0,1.7989754676818848,-2.0155298709869385,-0.0,2.049165964126587,4.651745958919189,0.0,0.3021833896636963,-1.6385672728167933,0.0,0.002826147247105837,0.804536759853363,0.0,-0.024780312553048134,0.7834905385971069,0.0,0.012482605874538422
895.0,8190.0,3.3709,0.5342,8.6722,-0.0379,0.0223,-0.1242,-1.5204149682870884,0.0,1.8657989501953125,-2.0155184268951416,-0.0,2.0726797580718994,4.651737375850342,0.0,0.30320441722869873,-1.6385553518878382,0.0,-0.003642698284238577,0.8044726252555847,0.0,-0.010831725783646107,0.783506453037262,0.0,0.011775822378695011
895.0,8190.0,3.3709,0.5342,8.6722,-0.0379,0.0223,-0.1242,-1.5204068732312699,0.0,1.8589346408843994,-2.0154895782470703,-0.0,2.07766056060791,4.6517578798481445,0.0,0.289251446723938,-1.6385553518878382,0.0,0.0013087834231555462,0.8045811653137207,0.0,-0.007609473075717688,0.7835185527801514,0.0,-0.012217536568641663
895.0,8190.0,3.3709,0.5342,8.6722,-0.0379,0.0223,-0.1242,-1.5203710359385987,0.0,1.8223508596420288,-2.0155060291290283,-0.0,2.0371975898742676,4.651705427760742,0.0,0.2926299571990967,-1.6385472456561487,0.0,-0.0017478971276432276,0.804573118686676,0.0,-0.0008623849134892225,0.7834942936897278,0.0,0.004595692735165358
895.0,8190.0,3.3709,0.5342,8.6722,-0.0379,0.0223,-0.1242,-1.5204149682870884,0.0,1.8205797672271729,-2.015571117401123,-0.0,2.030287981033325,4.651716871852539,0.0,0.2965690493583679,-1.6385515371905726,0.0,-0.0146830128505826,0.8046250343322754,0.0,-0.00817881990224123,0.7834703922271729,0.0,0.033711500465869904
895.0,8190.0,3.3709,0.5342,8.6722,-0.0379,0.0223,-0.1242,-1.5203949970057984,0.0,1.8041585683822632,-2.0155587196350098,-0.0,2.037127733230591,4.651737375850342,0.0,0.28514623641967773,-1.6385353247271937,0.0,-0.00838375836610794,0.8046090602874756,0.0,0.0013556033372879028,0.7835185527801514,0.0,0.036512214690446854
895.0,8190.0,3.3709,0.5342,8.6722,-0.0379,0.0223,-0.1242,-1.5204470206848164,0.0,1.818964958190918,-2.0155224800109863,-0.0,2.0699782371520996,4.651733561153076,0.0,0.29374226927757263,-1.6385629812823694,0.0,0.00432274304330349,0.8045771718025208,0.0,0.0030596095602959394,0.7834905385971069,0.0,0.059781815856695175
895.0,8190.0,3.3709,0.5342,8.6722,-0.0379,0.0223,-0.1242,-1.520359096383192,0.0,1.8020206689834595,-2.015537977218628,-0.0,2.07503080368042,4.651777907008789,0.0,0.2909110486507416,-1.6385796705829065,0.0,0.0004537198692560196,0.804548978805542,0.0,0.004105612635612488,0.7834462523460388,0.0,0.018658585846424103
895.0,8190.0,3.3709,0.5342,8.6722,-0.0379,0.0223,-0.1242,-1.520359118734934,0.0,1.7947380542755127,-2.015533924102783,-0.0,2.024810791015625,4.65176169454541,0.0,0.3000783324241638,-1.63861591020693,0.0,0.001786183100193739,0.8046571612358093,0.0,-0.008962387219071388,0.7835346460342407,0.0,0.006713534705340862
895.0,8190.0,3.3709,0.5342,8.6722,-0.0379,0.0223,-0.1242,-1.5204149682870884,0.0,1.8619909286499023,-2.015526533126831,-0.0,2.0629067420959473,4.651745958919189,0.0,0.308162122964859,-1.6385510603534144,0.0,-0.004315408878028393,0.8046409487724304,0.0,-0.013126389123499393,0.7835105657577515,0.0,0.017385507002472878
895.0,8190.0,3.3709,0.5342,8.6722,-0.0379,0.0223,-0.1242,-1.520391010945179,0.0,1.8556797504425049,-2.0155422687530518,-0.0,2.0526113510131836,4.651721163386963,0.0,0.29969358444213867,-1.6385558287249964,0.0,-0.0009871849324554205,0.8045971393585205,0.0,0.004862166941165924,0.7835427522659302,0.0,-0.003776530735194683
895.0,8190.0,3.3709,0.5342,8.6722,-0.0379,0.0223,-0.1242,-1.5203830760768433,0.0,1.8276238441467285,-2.0155141353607178,-0.0,2.054760217666626,4.6517249780842285,0.0,0.3031892478466034,-1.6385558287249964,0.0,-0.004584750160574913,0.8045650720596313,0.0,-0.0068528298288583755,0.7834984064102173,0.0,0.0017505437135696411
895.0,8190.0,3.3709,0.5342,8.6722,-0.0379,0.0223,-0.1242,-1.5203591150096436,0.0,1.8138090372085571,-2.0155627727508545,-0.0,2.0471248626708984,4.651765509242676,0.0,0.29845762252807617,-1.6384871641742151,0.0,-0.002621762454509735,0.8045330047607422,0.0,-0.015919368714094162,0.7835065126419067,0.0,-0.03912942856550217
895.0,8190.0,3.3709,0.5342,8.6722,-0.0379,0.0223,-0.1242,-1.520347238784172,0.0,1.8376479148864746,-2.0155463218688965,-0.0,2.022249698638916,4.651773615474365,0.0,0.2969924211502075,-1.6385954062091272,0.0,0.0114302858710289,0.8046250343322754,0.0,-0.004523284733295441,0.7835266590118408,0.0,0.00496926112100482
895.0,8190.0,3.3709,0.5342,8.6722,-0.0379,0.0223,-0.1242,-1.5203351576677342,0.0,1.8545951843261719,-2.0155019760131836,-0.0,2.074495553970337,4.651777907008789,0.0,0.30362144112586975,-1.6385915915118616,0.0,0.002867050701752305,0.8046090602874756,0.0,-0.007585699670016766,0.7835144996643066,0.0,-0.0339648574590683
895.0,8190.0,3.3709,0.5342,8.6722,-0.0379,0.0223,-0.1242,-1.5203591150096436,0.0,1.834684133529663,-2.0155627727508545,-0.0,2.0414891242980957,4.651709719295166,0.0,0.2990387976169586,-1.6385396162616175,0.0,0.006843858864158392,0.8046131134033203,0.0,-0.00372541812248528,0.7834622263908386,0.0,-0.015268324874341488
943.0,882.0,3.1884,0.5701,8.8056,-0.0353,0.02,-0.1107,-1.5203909997693081,0.0,1.7866359949111938,-2.015571117401123,-0.0,2.0477259159088135,4.651721163386963,0.0,0.29039695858955383,-1.6385872999774378,0.0,-0.013635296374559402,0.8046330809593201,0.0,-0.005038089584559202,0.7834622859954834,0.0,0.007727151270955801
943.0,882.0,3.1884,0.5701,8.8056,-0.0353,0.02,-0.1107,-1.5203830760768433,0.0,1.831709623336792,-2.0155019760131836,-0.0,2.1249537467956543,4.65178553640332,0.0,0.29795411229133606,-1.6385796705829065,0.0,-0.0022188518196344376,0.804564893245697,0.0,-0.01116457674652338,0.7835144996643066,0.0,0.04603767767548561
943.0,882.0,3.1884,0.5701,8.8056,-0.0353,0.02,-0.1107,-1.5203949746540566,0.0,1.8359742164611816,-2.0155422687530518,-0.0,2.0164451599121094,4.65176169454541,0.0,0.28380143642425537,-1.6385553518878382,0.0,-0.00199652137234807,0.8045771718025208,0.0,-0.007643372751772404,0.7835144996643066,0.0,0.03606713190674782
943.0,882.0,3.1884,0.5701,8.8056,-0.0353,0.02,-0.1107,-1.520374984746315,0.0,1.8175064325332642,-2.0155422687530518,-0.0,2.067852258682251,4.651749296779297,0.0,0.2935764789581299,-1.6386478582965296,0.0,0.0035717980936169624,0.8046130537986755,0.0,-0.01157638430595398,0.7834902405738831,0.0,-0.002093282528221607
943.0,882.0,3.1884,0.5701,8.8056,-0.0353,0.02,-0.1107,-1.5203910072198887,0.0,1.853463888168335,-2.0155670642852783,-0.0,2.024606704711914,4.6517698007771,0.0,0.28292274475097656,-1.6385872999774378,0.0,-0.015883037820458412,0.8046329617500305,0.0,-0.004598628729581833,0.7835347056388855,0.0,-0.008514143526554108
943.0,882.0,3.1884,0.5701,8.8056,-0.0353,0.02,-0.1107,-1.5203591150096436,0.0,1.8810977935791016,-2.0155255794525146,-0.0,2.0811004638671875,4.651761217708252,0.0,0.2967328727245331,-1.638627831135885,0.0,-0.010855300351977348,0.8046212196350098,0.0,-0.010815693065524101,0.7834902405738831,0.00014596871915273368,-0.035946350544691086
943.0,882.0,3.1884,0.5701,8.8056,-0.0353,0.02,-0.1107,-1.5203749810210248,0.0,1.8050408363342285,-2.015510082244873,-0.0,2.0342369079589844,4.651765509242676,0.0,0.29450321197509766,-1.638603989277975,0.0,-0.0036063147708773613,0.8045408725738525,0.0,0.0016803368926048279,0.7834862470626831,0.0006788757164031267,-0.009810314513742924
943.0,882.0,3.1884,0.5701,8.8056,-0.0353,0.02,-0.1107,-1.520378967081644,0.0,1.8448208570480347,-2.0155587196350098,-0.0,2.1007027626037598,4.651741667384766,0.0,0.2843180000782013,-1.6385872999774378,0.0,-0.0013686680467799306,0.8045971393585205,0.0,0.010907886549830437,0.7835184335708618,0.0018554251873865724,-0.013473760336637497
943.0,882.0,3.1884,0.5701,8.8056,-0.0353,0.02,-0.1107,-1.5203591150096436,0.0,1.8112564086914062,-2.0155670642852783,-0.0,2.0625054836273193,4.651733561153076,0.0,0.2911745309829712,-1.6386154333697718,0.0,-0.0042115990072488785,0.8045890927314758,0.0,-0.006520370952785015,0.7835947871208191,0.0027594801504164934,-0.026665430516004562
943.0,882.0,3.1884,0.5701,8.8056,-0.0353,0.02,-0.1107,-1.5203750070980568,0.0,1.8520665168762207,-2.0155835151672363,-0.0,2.0951578617095947,4.65179364263501,0.0,0.28270065784454346,-1.6385749022113245,0.0,0.0004162393743172288,0.8046249747276306,0.0,7.502268999814987e-05,0.7835703492164612,0.004129378590732813,0.005450548138469458
943.0,882.0,3.1884,0.5701,8.8056,-0.0353,0.02,-0.1107,-1.5203511838665982,0.0,1.8577423095703125,-2.015533924102783,-0.0,2.0293774604797363,4.651781721706055,0.0,0.29440414905548096,-1.638627831135885,0.0,-0.0089418925344944,0.8045608997344971,0.0,-0.007543894462287426,0.7836626768112183,0.0054268245585262775,0.035578593611717224
943.0,882.0,3.1884,0.5701,8.8056,-0.0353,0.02,-0.1107,-1.5203830760768433,0.0,1.852310299873352,-2.015550374984741,-0.0,2.10269832611084,4.651705427760742,0.0,0.29468274116516113,-1.6386154333697718,0.0,-0.007678575813770294,0.8046169877052307,0.0,-0.00035960739478468895,0.7836626768112183,0.006261695176362991,0.003895353991538286
943.0,882.0,3.1884,0.5701,8.8056,-0.0353,0.02,-0.1107,-1.5203391437283535,0.0,1.8243002891540527,-2.0155224800109863,-0.0,2.034670829772949,4.651749773616455,0.0,0.3061674237251282,-1.6386397520648401,0.0,-0.0008857529610395432,0.8046249747276306,0.0,-0.009885129518806934,0.7836906909942627,0.005295858718454838,-0.02003060281276703
943.0,882.0,3.1884,0.5701,8.8056,-0.0353,0.02,-0.1107,-1.5203989420882245,0.0,1.8286657333374023,-2.0155224800109863,-0.0,2.071610450744629,4.651745482082031,0.0,0.30085480213165283,-1.6386068503009241,0.0,-0.007061590440571308,0.8046330213546753,0.0,-0.009395655244588852,0.783682644367218,0.004354475531727076,0.009487111121416092
928.0,913.0,3.216,0.216,8.8146,-0.0467,0.0228,-0.1162,-1.5203989793411274,0.0,1.8106298446655273,-2.0155060291290283,-0.0,2.0573644638061523,4.651773615474365,0.0,0.3049340844154358,-1.638644043599264,0.0,0.006198052316904068,0.8046409487724304,0.0,-0.007213712669909,0.783778965473175,0.0027894466184079647,-0.003961792215704918
928.0,913.0,3.216,0.216,8.8146,-0.0467,0.0228,-0.1162,-1.5204270494035264,0.0,1.8222997188568115,-2.015537977218628,-0.0,2.0714809894561768,4.651741667384766,0.0,0.3014247417449951,-1.638583008443014,0.0,-0.0032637515105307102,0.8046050667762756,0.0,-0.006159748416393995,0.7837426662445068,0.0017553396755829453,0.008985709398984909
928.0,913.0,3.216,0.216,8.8146,-0.0467,0.0228,-0.1162,-1.5203470972231408,0.0,1.8397067785263062,-2.0155298709869385,-0.0,2.0083000659942627,4.651765986079834,0.0,0.3015841841697693,-1.6385791937457483,0.0,-0.00471357349306345,0.8045931458473206,0.0,-0.003187658730894327,0.7837265729904175,0.0011310633271932602,0.05292276293039322
928.0,913.0,3.216,0.216,8.8146,-0.0467,0.0228,-0.1162,-1.5203749810210248,0.0,1.8417104482650757,-2.015533924102783,-0.0,2.080808401107788,4.6517698007771,0.0,0.29420578479766846,-1.6385791937457483,0.0,0.010064337402582169,0.8046489953994751,0.0,-0.010251401923596859,0.7836943864822388,0.0008565339376218617,0.031096594408154488
928.0,913.0,3.216,0.216,8.8146,-0.0467,0.0228,-0.1162,-1.520395004456379,0.0,1.8624823093414307,-2.0155742168426514,-0.0,2.0162763595581055,4.651729269618652,0.0,0.29700446128845215,-1.6386078039752405,0.0,6.621242209803313e-05,0.8045931458473206,0.0,0.0022319527342915535,0.7837427258491516,0.0006308539886958897,0.038261529058218
928.0,913.0,3.216,0.216,8.8146,-0.0467,0.0228,-0.1162,-1.5203870248845597,0.0,1.828648567199707,-2.0155670642852783,-0.0,2.073448657989502,4.651713533992432,0.0,0.2999570369720459,-1.638599697743551,0.0,-0.004802575800567865,0.8046209812164307,0.0,-0.0007578730583190918,0.7837187051773071,0.000554368831217289,0.023658376187086105
928.0,913.0,3.216,0.216,8.8146,-0.0467,0.0228,-0.1162,-1.5203989420882245,0.0,1.8462250232696533,-2.0155298709869385,-0.0,2.05850887298584,4.651777907008789,0.0,0.2936985492706299,-1.6386235396014612,0.0,0.002987947314977646,0.8046409487724304,0.0,-0.0008182274177670479,0.7836745977401733,0.00045032845810055733,0.05179772526025772
928.0,913.0,3.216,0.216,8.8146,-0.0467,0.0228,-0.1162,-1.5203751784614106,0.0,1.8700671195983887,-2.0155420303344727,-0.0,2.0776357650756836,4.651733561153076,0.0,0.29464173316955566,-1.6386154333697718,0.0,0.0009279560181312263,0.8046449422836304,0.0,-0.01132954191416502,0.7837146520614624,0.00037917314330115914,-0.014183436520397663
928.0,913.0,3.216,0.216,8.8146,-0.0467,0.0228,-0.1162,-1.5203791570714493,0.0,1.8676936626434326,-2.015571117401123,-0.0,2.0346274375915527,4.651729269618652,0.0,0.2860422134399414,-1.638599697743551,0.0,-0.008471211418509483,0.8045891523361206,0.0,-0.006739550735801458,0.7837467193603516,0.0003131921694148332,0.010557493194937706
928.0,913.0,3.216,0.216,8.8146,-0.0467,0.0228,-0.1162,-1.520375159834959,0.0,1.7952500581741333,-2.015550374984741,-0.0,2.039708137512207,4.651701136226318,0.0,0.2904077470302582,-1.6385753790484827,0.0,-0.0018494577379897237,0.8046091198921204,0.0,-0.012645724229514599,0.783698558807373,0.00027703773230314255,0.014973316341638565
928.0,913.0,3.216,0.216,8.8146,-0.0467,0.0228,-0.1162,-1.520407037144043,0.0,1.8184112310409546,-2.0155866146087646,-0.0,2.0824949741363525,4.651737375850342,0.0,0.2938883304595947,-1.6385791937457483,0.0,0.004700881894677877,0.8046289086341858,0.0,0.003672293620184064,0.7837386727333069,0.00024836664670147,-0.004758927505463362
928.0,913.0,3.216,0.216,8.8146,-0.0467,0.0228,-0.1162,-1.520423063342907,0.0,1.820197582244873,-2.015611410140991,-0.0,2.0362751483917236,4.651745958919189,0.0,0.28853970766067505,-1.6386235396014612,0.0,-0.01061074435710907,0.8045812249183655,0.0,0.0023401258513331413,0.7837187051773071,0.00022507415269501507,0.0203880462795496
928.0,913.0,3.216,0.216,8.8146,-0.0467,0.0228,-0.1162,-1.5203670387021084,0.0,1.8376576900482178,-2.0155587196350098,-0.0,2.0721259117126465,4.651689215297363,0.0,0.2881081998348236,-1.638627831135885,0.0,0.012043092399835587,0.8045569658279419,0.0,-0.012537425383925438,0.7837507724761963,0.00020577607210725546,-0.029971711337566376
928.0,913.0,3.216,0.216,8.8146,-0.0467,0.0228,-0.1162,-1.5204189543477078,0.0,1.8134868144989014,-2.015533924102783,-0.0,2.05301570892334,4.651749773616455,0.0,0.29236212372779846,-1.6385796705829065,0.0,-0.004825134761631489,0.8045933246612549,0.0,-0.008138494566082954,0.7837386131286621,0.00018952581740450114,-0.02739214524626732
928.0,913.0,3.216,0.216,8.8146,-0.0467,0.0228,-0.1162,-1.5204030510834237,0.0,1.8506063222885132,-2.015582323074341,-0.0,2.0832483768463135,4.651665373439453,0.0,0.3095897436141968,-1.6385872999774378,0.0,-0.0052384925074875355,0.8045970797538757,0.0,-0.005165675655007362,0.7837386727333069,0.00011923934653168544,-0.04493149742484093
917.0,891.0,3.2387,0.527,8.7607,-0.0351,0.0229,-0.1051,-1.5203989420882245,0.0,1.8356263637542725,-2.0155587196350098,-0.0,2.014711856842041,4.651737375850342,0.0,0.29945454001426697,-1.638599697743551,0.0,0.0011809179559350014,0.8046289682388306,0.0,0.0006626916583627462,0.7836825847625732,0.00011044969141948968,0.019624972715973854
917.0,891.0,3.2387,0.527,8.7607,-0.0351,0.0229,-0.1051,-1.5204389256289979,0.0,1.8356724977493286,-2.01552152633667,-0.0,2.047389030456543,4.651721163386963,0.0,0.28278738260269165,-1.6386120955096644,0.0,0.0005234158015809953,0.8046608567237854,0.0,-0.0026773842982947826,0.7837024927139282,8.230011735577136e-05,-0.005485888570547104
917.0,891.0,3.2387,0.527,8.7607,-0.0351,0.0229,-0.1051,-1.5203949970057984,0.0,1.8329195976257324,-2.015554666519165,-0.0,2.0441694259643555,4.651741667384766,0.0,0.29446566104888916,-1.6385553518878382,0.0,-0.015037547796964645,0.8046249747276306,0.0,-0.003225197782739997,0.7837147116661072,7.58262540330179e-05,0.008239898830652237
917.0,891.0,3.2387,0.527,8.7607,-0.0351,0.0229,-0.1051,-1.5204389256289979,0.0,1.836876630783081,-2.0155255794525146,-0.0,2.0638084411621094,4.651754065150879,0.0,0.2995373606681824,-1.6385710875140589,0.0,-0.0059640370309352875,0.8045850992202759,0.0,-0.0011235284619033337,0.7837628126144409,6.052462413208559e-05,-0.006934896111488342
917.0,891.0,3.2387,0.527,8.7607,-0.0351,0.0229,-0.1051,-1.5204110120287915,0.0,1.8182017803192139,-2.015533924102783,-0.0,2.0410234928131104,4.651685400600098,0.0,0.29626551270484924,-1.638603989277975,0.0,-0.0022074547596275806,0.804597020149231,0.0,0.0012381870765239,0.7837306261062622,0.00010069541167467833,0.0050167422741651535
917.0,891.0,3.2387,0.527,8.7607,-0.0351,0.0229,-0.1051,-1.520439089541771,0.0,1.8059946298599243,-2.0155506134033203,-0.0,2.023383378982544,4.651681109065674,0.0,0.29904627799987793,-1.6386359373675745,0.0,-0.00854653213173151,0.8046289086341858,0.0,0.0009760040557011962,0.7837707996368408,0.00015763394185341895,-0.005800889804959297
917.0,891.0,3.2387,0.527,8.7607,-0.0351,0.0229,-0.1051,-1.5204310950687905,0.0,1.8890759944915771,-2.0155019760131836,-0.0,2.052720308303833,4.651693029994629,0.0,0.30959653854370117,-1.6386030356036585,0.0,-0.0035649705678224564,0.8046969175338745,0.0,-0.004019471816718578,0.7837828993797302,0.000430687447078526,-0.04510776698589325
917.0,891.0,3.2387,0.527,8.7607,-0.0351,0.0229,-0.1051,-1.5203949970057984,0.0,1.8041930198669434,-2.0155298709869385,-0.0,2.0596561431884766,4.651701136226318,0.0,0.3021015524864197,-1.638611141835348,0.0,-0.006331905722618103,0.8046408295631409,0.0,-0.0022845182102173567,0.7837907671928406,0.00152787403203547,0.014356674626469612
917.0,891.0,3.2387,0.527,8.7607,-0.0351,0.0229,-0.1051,-1.5204149682870884,0.0,1.845889687538147,-2.015554666519165,-0.0,2.077479839324951,4.651713533992432,0.0,0.28799229860305786,-1.638627831135885,0.0,-0.002153455512598157,0.8046810030937195,0.0,-0.011531085707247257,0.7837825417518616,0.0026932223699986935,0.042830199003219604
917.0,891.0,3.2387,0.527,8.7607,-0.0351,0.0229,-0.1051,-1.5203910407475014,0.0,1.8172399997711182,-2.0155627727508545,-0.0,2.038160800933838,4.651745958919189,0.0,0.29899862408638,-1.6386192480670374,0.0,0.003426061710342765,0.8047086596488953,0.0,-0.009830059483647346,0.7838147878646851,0.00365189160220325,0.022288862615823746
917.0,891.0,3.2387,0.527,8.7607,-0.0351,0.0229,-0.1051,-1.5203870099833985,0.0,1.8415117263793945,-2.015582323074341,-0.0,2.0681755542755127,4.651717825526855,0.0,0.2911319136619568,-1.6386516729937952,0.0,0.002496476750820875,0.8046927452087402,0.0,0.013681299053132534,0.7838387489318848,0.004932682495564222,-0.016819428652524948
917.0,891.0,3.2387,0.527,8.7607,-0.0351,0.0229,-0.1051,-1.520391010945179,0.0,1.7935850620269775,-2.0155627727508545,-0.0,2.057349443435669,4.651709719295166,0.0,0.2939467132091522,-1.6386354605304163,0.0,-0.005863721016794443,0.8046287298202515,0.0,0.0008478397503495216,0.783878743648529,0.006827228702604771,0.010242692194879055
917.0,891.0,3.2387,0.527,8.7607,-0.0351,0.0229,-0.1051,-1.5204628270915528,0.0,1.8070354461669922,-2.015533924102783,-0.0,2.0376346111297607,4.651730223292969,0.0,0.285214900970459,-1.6386235396014612,0.0,-0.0026993444189429283,0.8046526312828064,0.0,0.022025447338819504,0.7839108109474182,0.009496437385678291,0.06581616401672363
917.0,891.0,3.2387,0.527,8.7607,-0.0351,0.0229,-0.1051,-1.520423063342907,-7.529163121944293e-05,1.7837421894073486,-2.0155906677246094,-0.0,2.0516297817230225,4.651709719295166,0.0,0.27764075994491577,-1.6386430899249476,0.0,-0.010423465631902218,0.8046689033508301,6.364679393300321e-06,0.042563118040561676,0.7840188145637512,0.011089223437011242,0.0790056586265564
917.0,891.0,3.2387,0.527,8.7607,-0.0351,0.0229,-0.1051,-1.5204190772822876,-0.00010059233318315819,1.7750797271728516,-2.0155298709869385,-0.0,2.06666898727417,4.651665373439453,0.0,0.2763194441795349,-1.6386273542987269,0.0,-0.014649751596152782,0.8046446442604065,1.7716319522520507e-09,0.025546517223119736,0.7840830087661743,0.01320130005478859,0.0871485099196434
919.0,878.0,3.2638,0.8644,8.6106,-0.0072,0.0226,-0.102,-1.5204271723381062,-0.0005483284476213157,1.7560937404632568,-2.015514373779297,-0.0,2.046902894973755,4.6516615587421875,0.0,0.2649003267288208,-1.6386430899249476,0.0,-0.023434476926922798,0.8046609163284302,4.931401966466742e-13,0.03792477771639824,0.7841629981994629,0.015835443511605263,0.1574264019727707
919.0,878.0,3.2638,0.8644,8.6106,-0.0072,0.0226,-0.102,-1.5204470057836552,-0.0005211522802710533,1.776930332183838,-2.0155224800109863,-0.0,1.9803926944732666,4.651693506831787,0.0,0.27488160133361816,-1.6386435667621058,0.0,-0.0171979907900095,0.8046967387199402,1.3726739334006354e-16,0.007673449348658323,0.7842550277709961,0.019527919590473175,0.14539378881454468
919.0,878.0,3.2638,0.8644,8.6106,-0.0072,0.0226,-0.102,-1.5204071600786229,-0.0004714731767307967,1.7695982456207275,-2.0155060291290283,-0.0,2.0637307167053223,4.651697321529053,0.0,0.2702726423740387,-1.6386311689959925,0.0,-0.04600336775183678,0.8047208189964294,0.00039798178477212787,0.032398246228694916,0.7843833565711975,0.022329160943627357,0.1691664457321167
919.0,878.0,3.2638,0.8644,8.6106,-0.0072,0.0226,-0.102,-1.5204550635865708,-0.0004210039915051311,1.7177358865737915,-2.0154895782470703,-0.0,2.0323050022125244,4.651677294368408,-0.00020142740686424077,0.26345717906951904,-1.6386354605304163,0.0,-0.03365769237279892,0.80470871925354,0.00041229143971577287,0.03596185892820358,0.78453129529953,0.02381889335811138,0.16488368809223175
919.0,878.0,3.2638,0.8644,8.6106,-0.0072,0.0226,-0.102,-1.5204111237875004,-0.0003718360385391861,1.7528624534606934,-2.015537977218628,-0.0,2.074763298034668,4.651725931758545,-0.00018705302500166,0.2651139795780182,-1.6386192480670374,-0.00018427547183819115,-0.014943867921829224,0.8047524690628052,0.0008123858133330941,0.03332717716693878,0.7846875190734863,0.025476055219769478,0.19068261981010437
919.0,878.0,3.2638,0.8644,8.6106,-0.0072,0.0226,-0.102,-1.5204469461790104,-0.00032195093808695674,1.71812903881073,-2.0155463218688965,-0.0,2.012346029281616,4.651677294368408,-0.0001663125294726342,0.2594860792160034,-1.638667408620016,-0.0001643883588258177,-0.038732193410396576,0.8047285079956055,0.001135518541559577,0.040344465523958206,0.7848315834999084,0.026413757354021072,0.21279509365558624
919.0,878.0,3.2638,0.8644,8.6106,-0.0072,0.0226,-0.102,-1.5204670552960415,-0.00028386834310367703,1.7347840070724487,-2.0155420303344727,-0.0,1.9952311515808105,4.651729269618652,-0.00014971131167840213,0.24829277396202087,-1.638639275227682,-0.00017577968537807465,-0.025918470695614815,0.8047086596488953,0.0009632427245378494,0.033580243587493896,0.7850440740585327,0.026405582204461098,0.17635022103786469
919.0,878.0,3.2638,0.8644,8.6106,-0.0072,0.0226,-0.102,-1.5204311174205323,-0.00019918331236112863,1.7398655414581299,-2.0154852867126465,-0.0,1.9874190092086792,4.651709719295166,-0.00013212658814154565,0.2557603120803833,-1.6386669317828577,-0.0001570909225847572,-0.03788242116570473,0.8047642707824707,0.0009731811005622149,0.04447411000728607,0.78523188829422,0.026716401800513268,0.2651331126689911
919.0,878.0,3.2638,0.8644,8.6106,-0.0072,0.0226,-0.102,-1.5204750013402482,-0.00017583294538781047,1.6805737018585205,-2.0155060291290283,-0.0,2.02754545211792,4.651737375850342,-0.00012142963532824069,0.2595955729484558,-1.6386593023883265,-0.00014448071306105703,-0.03224853053689003,0.8047605156898499,0.0011038151569664478,0.047536276280879974,0.7853881120681763,0.02676946111023426,0.25211045145988464
919.0,878.0,3.2638,0.8644,8.6106,-0.0072,0.0226,-0.102,-1.520391085450985,-0.0001573829649714753,1.7153791189193726,-2.015526533126831,-0.0,2.0058817863464355,4.651725931758545,-0.00011233513214392588,0.25765925645828247,-1.638639275227682,-0.00015593548596370965,-0.02482009306550026,0.8047605156898499,0.0011153343366459012,0.05176008492708206,0.785520076751709,0.0256404597312212,0.26626336574554443
919.0,878.0,3.2638,0.8644,8.6106,-0.0072,0.0226,-0.102,-1.5205028739622612,-0.0001707898045424372,1.6774102449417114,-2.015533924102783,-0.0,1.967092752456665,4.651701136226318,-0.00010450816625962034,0.25860708951950073,-1.638611141835348,-0.00014524305879604071,-0.037637148052453995,0.8048245310783386,0.001824930659495294,0.05700322613120079,0.7856801152229309,0.02436918020248413,0.28031572699546814
919.0,878.0,3.2638,0.8644,8.6106,-0.0072,0.0226,-0.102,-1.5204709817520161,-0.00018199573969468474,1.674955129623413,-2.0155224800109863,-0.0,2.002044916152954,4.651721163386963,-9.770093311090022e-05,0.26013949513435364,-1.6386516729937952,-0.0001358471781713888,-0.04509494826197624,0.8048283457756042,0.003401991678401828,0.06834761053323746,0.7858444452285767,0.025400569662451744,0.20904317498207092
919.0,878.0,3.2638,0.8644,8.6106,-0.0072,0.0226,-0.102,-1.5204311174205323,-0.0003312340413685888,1.6674268245697021,-2.015510082244873,-0.0,1.9954171180725098,4.651689215297363,-0.00012600506306625903,0.2448849081993103,-1.6386473814593714,-0.0001275930117117241,-0.03632120043039322,0.8048399686813354,0.007343278266489506,0.07747460901737213,0.7859765291213989,0.023572545498609543,0.2861948013305664
919.0,878.0,3.2638,0.8644,8.6106,-0.0072,0.0226,-0.102,-1.520470966850855,-0.002036481397226453,1.668677806854248,-2.0155141353607178,-0.0,2.020653009414673,4.651685400600098,-0.00012101571337552741,0.2407054901123047,-1.638707462941305,-0.00012028442142764106,-0.05733975023031235,0.8048958778381348,0.009902069345116615,0.08738240599632263,0.7861525416374207,0.02384478785097599,0.2858424782752991
916.0,906.0,3.3565,0.4158,8.5663,-0.0246,0.007,-0.0899,-1.5204546500793477,-0.0034931302070617676,1.689924955368042,-2.015537977218628,-0.0,1.998901605606079,4.651717825526855,-0.00013021657650824636,0.2378069907426834,-1.6386311689959925,-0.00011376794282114133,-0.046749696135520935,0.8049198389053345,0.007430242840200663,0.08718474209308624,0.7863128781318665,0.02603054605424404,0.3381924331188202
916.0,906.0,3.3565,0.4158,8.5663,-0.0246,0.007,-0.0899,-1.5205107902041455,-0.005256878677755594,1.6466197967529297,-2.015510320663452,-0.0,1.9709031581878662,4.651717825526855,-0.00012401120329741389,0.23625347018241882,-1.6386473814593714,-0.00010792102693812922,-0.04980333894491196,0.8049997091293335,0.0041283671744167805,0.08829803019762039,0.7863967418670654,0.026431232690811157,0.30658942461013794
916.0,906.0,3.3565,0.4158,8.5663,-0.0246,0.007,-0.0899,-1.5205146123519917,-0.0067494530230760574,1.6037379503250122,-2.015537977218628,-0.0,2.0078370571136475,4.651653452510498,-0.00011791833094321191,0.241806298494339,-1.6386554876910608,-0.00010264595039188862,-0.03717298060655594,0.8050036430358887,0.0018511352827772498,0.0995919406414032,0.7865808606147766,0.028994491323828697,0.38282328844070435
916.0,906.0,3.3565,0.4158,8.5663,-0.0246,0.007,-0.0899,-1.520566937779524,-0.0052562616765499115,1.6565837860107422,-2.015530824661255,-0.0,2.008723020553589,4.651681109065674,-0.00011066840670537204,0.24563080072402954,-1.638611141835348,-9.636562754167244e-05,-0.05047912150621414,0.8049917221069336,0.0007939205388538539,0.09710437059402466,0.786841094493866,0.03048865683376789,0.2697010040283203
916.0,906.0,3.3565,0.4158,8.5663,-0.0246,0.007,-0.0899,-1.5206309010139485,-0.0044769225642085075,1.604259729385376,-2.015489339828491,-0.0,1.9755420684814453,4.651741667384766,-0.0001057903136825189,0.2450738251209259,-1.638611141835348,-3.913379623554647e-05,-0.04294803738594055,0.804995596408844,0.0010697604157030582,0.09383540600538254,0.7870012521743774,0.031599149107933044,0.31834888458251953
916.0,906.0,3.3565,0.4158,8.5663,-0.0246,0.007,-0.0899,-1.520674818461277,-0.004736987873911858,1.6632215976715088,-2.0155224800109863,-0.0,1.9982531070709229,4.651725931758545,-0.00010132398892892525,0.2368246465921402,-1.6386430899249476,-3.6711171560455114e-05,-0.0603005513548851,0.8050357103347778,0.0017871017334982753,0.09429043531417847,0.7872697114944458,0.033050090074539185,0.34747135639190674
916.0,906.0,3.3565,0.4158,8.5663,-0.0246,0.007,-0.0899,-1.5207027581385155,-0.006321558728814125,1.62794029712677,-2.015526533126831,-0.0,2.019435405731201,4.6517016130634765,-8.364888344658539e-05,0.25066643953323364,-1.6386354605304163,-3.4594431781442836e-05,-0.057785771787166595,0.8050317764282227,0.001997867366299033,0.11420638114213943,0.7873815298080444,0.03371693193912506,0.3615897595882416
916.0,906.0,3.3565,0.4158,8.5663,-0.0246,0.007,-0.0899,-1.5207791601172467,-0.006606698036193848,1.6366145610809326,-2.0155420303344727,-0.0,1.963787317276001,4.651754065150879,-7.918020855868235e-05,0.2682217061519623,-1.638611141835348,-3.270851811976172e-05,-0.049401964992284775,0.805115282535553,0.0019203131087124348,0.10913020372390747,0.7876057624816895,0.03420991078019142,0.38103482127189636
916.0,906.0,3.3565,0.4158,8.5663,-0.0246,0.007,-0.0899,-1.520770513718464,-0.006308898329734802,1.6640701293945312,-2.0154895782470703,-0.0,2.0164785385131836,4.6517059045979,-7.521003135479987e-05,0.25014305114746094,-1.6385872999774378,-3.101756374235265e-05,-0.0469137467443943,0.8050551414489746,0.001624446245841682,0.11401214450597763,0.787830114364624,0.03313056752085686,0.36327582597732544
916.0,906.0,3.3565,0.4158,8.5663,-0.0246,0.007,-0.0899,-1.5208547052792092,-0.006772984284907579,1.6412270069122314,-2.015537977218628,-0.0,1.9454741477966309,4.651717825526855,-8.593874372309074e-05,0.24207502603530884,-1.6386154333697718,-2.2231060938793235e-05,-0.05938160791993141,0.805091381072998,0.0013031048001721501,0.10087679326534271,0.788034200668335,0.03356561437249184,0.38222360610961914
916.0,906.0,3.3565,0.4158,8.5663,-0.0246,0.007,-0.0899,-1.5208663579872628,-0.006571405101567507,1.6297531127929688,-2.0155420303344727,-0.0,2.0175232887268066,4.651722117061279,-8.202637400245294e-05,0.2403026819229126,-1.6386068503009241,-1.7437292626709677e-05,-0.04638930410146713,0.8050591349601746,0.001179190119728446,0.11238490790128708,0.788250207901001,0.032481011003255844,0.3580405116081238
916.0,906.0,3.3565,0.4158,8.5663,-0.0246,0.007,-0.0899,-1.5209386695972462,-0.008305661380290985,1.587599277496338,-2.0155141353607178,-0.0,2.0096426010131836,4.651665373439453,-7.84513249527663e-05,0.2452327311038971,-1.6385672728167933,-1.3427437806967646e-05,-0.05066296085715294,0.8050674200057983,0.0012474477989599109,0.12884938716888428,0.7884222865104675,0.03522415831685066,0.3199933171272278
916.0,906.0,3.3565,0.4158,8.5663,-0.0246,0.007,-0.0899,-1.520990678375103,-0.011553135700523853,1.564098834991455,-2.0155184268951416,-0.0,1.9915481805801392,4.651685877437256,-8.770044951234013e-05,0.23557469248771667,-1.6386354605304163,-1.2851340216002427e-05,-0.04985358938574791,0.8050431609153748,0.0012036514235660434,0.11493454873561859,0.7886345982551575,0.0352783165872097,0.38035255670547485
916.0,906.0,3.3565,0.4158,8.5663,-0.0246,0.007,-0.0899,-1.5210904640010376,-0.015981169417500496,1.5588029623031616,-2.015493631362915,-0.0,1.9628431797027588,4.6517016130634765,-9.493284596828744e-05,0.22724011540412903,-1.6386154333697718,-1.215696374856634e-05,-0.04461860656738281,0.8051632046699524,0.000997686991468072,0.1237495094537735,0.7890031933784485,0.039165396243333817,0.4174354672431946
916.0,906.0,3.3565,0.4158,8.5663,-0.0246,0.007,-0.0899,-1.5211942580393334,-0.018280765041708946,1.5161793231964111,-2.0155060291290283,-0.0,1.969254493713379,4.651665373439453,-9.133296407526359e-05,0.23665106296539307,-1.638603989277975,-1.168350900115911e-05,-0.05456523597240448,0.8051151633262634,0.0010782325407490134,0.12213006615638733,0.7892030477523804,0.04479937627911568,0.43514204025268555
942.0,869.0,2.8247,0.664,8.4233,0.0432,-0.0018,-0.0299,-1.5213426624289532,-0.01994996890425682,1.5184483528137207,-2.015482187271118,-0.0,1.9443144798278809,4.651677294368408,-8.798467752058059e-05,0.249332457780838,-1.6385915915118616,-1.124555910791969e-05,-0.04378974065184593,0.8051512241363525,0.0011251161340624094,0.1310272216796875,0.7895072102546692,0.0525602288544178,0.44393420219421387
942.0,869.0,2.8247,0.664,8.4233,0.0432,-0.0018,-0.0299,-1.5214706857553502,-0.022046450525522232,1.5048837661743164,-2.015537977218628,-0.0,1.9799209833145142,4.651693506831787,-0.00013693023356609046,0.2406664490699768,-1.6386397520648401,-1.0839241440407932e-05,-0.05944447219371796,0.805202841758728,0.0012442198349162936,0.12721078097820282,0.7898595333099365,0.0607522651553154,0.4708934426307678
942.0,869.0,2.8247,0.664,8.4233,0.0432,-0.0018,-0.0299,-1.5215699237636109,-0.023715868592262268,1.525273323059082,-2.015537977218628,-0.0,1.9907443523406982,4.651722117061279,-0.00012553096166811883,0.23086027801036835,-1.6385954062091272,-1.0461286365170963e-05,-0.04475937783718109,0.8051511645317078,0.001432204619050026,0.11047446727752686,0.7903052568435669,0.06679760664701462,0.4495465159416199
942.0,869.0,2.8247,0.664,8.4233,0.0432,-0.0018,-0.0299,-1.5217381988516827,-0.026353368535637856,1.442875623703003,-2.015482187271118,0.0003690309531521052,2.0057373046875,4.6517059045979,-0.00011583620653254911,0.24308711290359497,-1.6385591665851038,-1.0108776223205496e-05,-0.04176466912031174,0.8051471710205078,0.0012740361271426082,0.11905649304389954,0.7907763123512268,0.0733272060751915,0.4812294840812683
942.0,869.0,2.8247,0.664,8.4233,0.0432,-0.0018,-0.0299,-1.5218941655806084,-0.02913561649620533,1.4322688579559326,-2.015493631362915,0.0007764395559206605,2.0219943523406982,4.651673956508301,-0.00010753164679044858,0.22555723786354065,-1.6386235396014612,-1.6585978812599933e-07,-0.040033161640167236,0.8052470088005066,0.0010249384213238955,0.12537844479084015,0.7912527918815613,0.0824686586856842,0.46076422929763794
942.0,869.0,2.8247,0.664,8.4233,0.0432,-0.0018,-0.0299,-1.5221101616374035,-0.03314836323261261,1.438023567199707,-2.015469789505005,0.0007005075458437204,2.0309367179870605,4.651669188136719,-8.290655387099832e-05,0.24274149537086487,-1.638603989277975,-4.6167684258913155e-11,-0.03468937799334526,0.8051592111587524,0.0007848668610677123,0.13836787641048431,0.7917611002922058,0.09164899587631226,0.47194674611091614
942.0,869.0,2.8247,0.664,8.4233,0.0432,-0.0018,-0.0299,-1.5223178689232846,-0.037928447127342224,1.4112598896026611,-2.0154738426208496,0.0005958171677775681,2.087195634841919,4.651693506831787,-7.523838576162234e-05,0.24727807939052582,-1.6385872999774378,-1.2850946706517014e-14,-0.038559429347515106,0.8051272034645081,0.0006529227830469608,0.1229546070098877,0.7923094630241394,0.09973409026861191,0.5182349681854248
942.0,869.0,2.8247,0.664,8.4233,0.0432,-0.0018,-0.0299,-1.5226093021086236,-0.04347587376832962,1.4552843570709229,-2.015493631362915,0.0005832836031913757,2.1045541763305664,4.651689215297363,-6.943314656382427e-05,0.24619795382022858,-1.638599697743551,-2.335596158331758e-19,-0.034690044820308685,0.805131196975708,0.0004348199290689081,0.11728890240192413,0.7931020855903625,0.1016370877623558,0.480572372674942
942.0,869.0,2.8247,0.664,8.4233,0.0432,-0.0018,-0.0299,-1.522885301416256,-0.04850763455033302,1.4050565958023071,-2.015469789505005,0.0031359484419226646,2.1302616596221924,4.651709719295166,-4.929908027406782e-05,0.25558900833129883,-1.6385753790484827,-6.501217290092578e-23,-0.036496635526418686,0.8052187561988831,0.00043040254968218505,0.12869158387184143,0.7937306761741638,0.10107141733169556,0.5269549489021301
942.0,869.0,2.8247,0.664,8.4233,0.0432,-0.0018,-0.0299,-1.5231810224107285,-0.05294077843427658,1.430833101272583,-2.0154261589050293,0.007521454710513353,2.1209664344787598,4.651713533992432,-4.667362736654468e-05,0.25181490182876587,-1.6385472456561487,-1.809637672113268e-26,-0.0165847260504961,0.8052068948745728,0.0004130498564336449,0.12823233008384705,0.7943552732467651,0.09974715113639832,0.4190368056297302
942.0,869.0,2.8247,0.664,8.4233,0.0432,-0.0018,-0.0299,-1.5235167567482968,-0.05997934937477112,1.462106466293335,-2.015362024307251,0.011174231767654419,2.1570262908935547,4.65176169454541,-4.4372489355737343e-05,0.25961729884147644,-1.6385591665851038,-5.0371926571154014e-30,-0.008230689913034439,0.805206835269928,0.0005100169801153243,0.115354523062706,0.7949957847595215,0.09933366626501083,0.3975123465061188
942.0,869.0,2.8247,0.664,8.4233,0.0432,-0.0018,-0.0299,-1.523912252192833,-0.06550053507089615,1.4329991340637207,-2.0152976512908936,0.01285546738654375,2.1670732498168945,4.651729269618652,-4.2287549149477854e-05,0.24919062852859497,-1.6385954062091272,-1.4021209372886895e-33,-0.013406983576714993,0.805211067199707,0.0008703558123670518,0.12402224540710449,0.7955361008644104,0.09749346226453781,0.434567391872406
942.0,869.0,2.8247,0.664,8.4233,0.0432,-0.0018,-0.0299,-1.52434020981703,-0.07068424671888351,1.4488388299942017,-2.015214681625366,0.013618544675409794,2.171736478805542,4.651697798366211,4.933734453516081e-05,0.26452383399009705,-1.6385915915118616,-3.902855677026199e-37,-0.01204277016222477,0.8052904605865479,0.0010291446233168244,0.14138707518577576,0.7961244583129883,0.0952242836356163,0.4445788264274597
942.0,869.0,2.8247,0.664,8.4233,0.0432,-0.0018,-0.0299,-1.5247956749847908,-0.07510588318109512,1.3842902183532715,-2.015162944793701,0.016567589715123177,2.2261736392974854,4.651725931758545,6.71107554808259e-05,0.26001855731010437,-1.6385954062091272,-1.0863706474524577e-40,-0.001230886671692133,0.8052229285240173,0.0017455671913921833,0.13550782203674316,0.7967385649681091,0.0978235974907875,0.4226803183555603
942.0,869.0,2.8247,0.664,8.4233,0.0432,-0.0018,-0.0299,-1.5252955865911026,-0.07797244191169739,1.3861671686172485,-2.015042543411255,0.017961299046874046,2.1810367107391357,4.651681109065674,6.377851968863979e-05,0.27005070447921753,-1.6385553518878382,-3.0828566215145976e-44,-0.015922538936138153,0.8053025007247925,0.0027159079909324646,0.12977281212806702,0.7973535656929016,0.10554506629705429,0.45299088954925537
902.0,857.0,2.3533,0.07,9.3278,-0.0388,-0.0134,-0.0224,-1.5257669065943738,-0.07753647118806839,1.435036540031433,-2.014922618865967,0.018162090331315994,2.2279086112976074,4.651697321529053,5.955826782155782e-05,0.2806062400341034,-1.6385391394244593,-0.0,-0.0290682315826416,0.8052705526351929,0.003365351352840662,0.13607969880104065,0.7979739308357239,0.11040309816598892,0.4397153854370117
902.0,857.0,2.3533,0.07,9.3278,-0.0388,-0.0134,-0.0224,-1.526258749221899,-0.07612032443284988,1.4370278120040894,-2.0147860050201416,0.01805088482797146,2.1966614723205566,4.651681109065674,7.43991113267839e-05,0.274190217256546,-1.6385472456561487,0.0001511843001935631,-0.014457691460847855,0.8053106665611267,0.004700066521763802,0.1566930115222931,0.7985984683036804,0.10840301960706711,0.45630350708961487
902.0,857.0,2.3533,0.07,9.3278,-0.0388,-0.0134,-0.0224,-1.5269178722849865,-0.0806494951248169,1.411888599395752,-2.0146751403808594,0.01815744861960411,2.273324966430664,4.6517249780842285,6.878894055262208e-05,0.27872076630592346,-1.638547722493307,0.0001754261029418558,-0.018413588404655457,0.8053025603294373,0.007020151242613792,0.14344006776809692,0.7994990348815918,0.10559912025928497,0.4109264016151428
902.0,857.0,2.3533,0.07,9.3278,-0.0388,-0.0134,-0.0224,-1.52749781057749,-0.08875595778226852,1.4448589086532593,-2.0145952701568604,0.017449090257287025,2.2210593223571777,4.651749773616455,7.919456402305514e-05,0.28703558444976807,-1.6385234037982386,0.00015990289102774113,-0.0028062027413398027,0.8053900599479675,0.0063526746816933155,0.15016165375709534,0.8001677989959717,0.1034250482916832,0.40708303451538086
902.0,857.0,2.3533,0.07,9.3278,-0.0388,-0.0134,-0.0224,-1.5280335445753117,-0.09512423723936081,1.4361999034881592,-2.014491558074951,0.016421474516391754,2.264284133911133,4.651733561153076,0.00017898344958666712,0.28344717621803284,-1.6385234037982386,0.00014685600763186812,-0.0035286759957671165,0.8054182529449463,0.005403784103691578,0.16238908469676971,0.8007441759109497,0.10143265128135681,0.3762052059173584
902.0,857.0,2.3533,0.07,9.3278,-0.0388,-0.0134,-0.0224,-1.5286049594036122,-0.10179147869348526,1.4784691333770752,-2.014350652694702,0.017217690125107765,2.246382236480713,4.651777907008789,0.000260452798102051,0.288965106010437,-1.638531510029928,0.0001357774599455297,-0.002342025050893426,0.8054061532020569,0.0038412862922996283,0.1488724797964096,0.8012886643409729,0.09400526434183121,0.3925158977508545
902.0,857.0,2.3533,0.07,9.3278,-0.0388,-0.0134,-0.0224,-1.5291920539787789,-0.10641037672758102,1.5264513492584229,-2.0142388343811035,0.01935437321662903,2.3079721927642822,4.651745482082031,0.001015400281175971,0.2862772047519684,-1.6385472456561487,0.00012625346425920725,-0.009334273636341095,0.8054340481758118,0.0022994375322014093,0.1622084081172943,0.8018690347671509,0.09342534840106964,0.3973011374473572
902.0,857.0,2.3533,0.07,9.3278,-0.0388,-0.0134,-0.0224,-1.5298759129694481,-0.10855493694543839,1.4953079223632812,-2.0140907764434814,0.022091686725616455,2.2707414627075195,4.65179364263501,0.0012125546345487237,0.31528154015541077,-1.6385796705829065,0.00013256102101877332,-0.007723880931735039,0.8054022192955017,0.0013701075222343206,0.1407853066921234,0.8024494647979736,0.09942597895860672,0.4242839813232422
902.0,857.0,2.3533,0.07,9.3278,-0.0388,-0.0134,-0.0224,-1.5306121383658429,-0.10735546797513962,1.553208827972412,-2.0139105319976807,0.024929294362664223,2.3370895385742188,4.651769323939941,0.001054701511748135,0.3196815848350525,-1.638575855885641,0.0001291728694923222,-0.0077258385717868805,0.8054501414299011,0.00090985611313954,0.14821091294288635,0.8030340075492859,0.10239893943071365,0.35991644859313965
902.0,857.0,2.3533,0.07,9.3278,-0.0388,-0.0134,-0.0224,-1.5312868443182488,-0.1058766096830368,1.6048791408538818,-2.0137624740600586,0.02517845667898655,2.3566722869873047,4.65178553640332,0.0008915648213587701,0.31713587045669556,-1.6385439077960413,0.00013679460971616209,-0.006053814198821783,0.8054700493812561,0.0004903780063614249,0.14637458324432373,0.8036505579948425,0.1046023815870285,0.3668423593044281
902.0,857.0,2.3533,0.07,9.3278,-0.0388,-0.0134,-0.0224,-1.5319338266602536,-0.10151897370815277,1.5796291828155518,-2.0136308670043945,0.02382933907210827,2.362654209136963,4.651773615474365,0.0005666938959620893,0.32801616191864014,-1.6385200659381312,0.0001557509385747835,-0.0040328833274543285,0.8053783178329468,0.0003693195176310837,0.13932140171527863,0.8042348623275757,0.10151048004627228,0.36154961585998535
902.0,857.0,2.3533,0.07,9.3278,-0.0388,-0.0134,-0.0224,-1.532589254235365,-0.10398966819047928,1.5884878635406494,-2.013486862182617,0.02044486440718174,2.3748326301574707,4.651733561153076,0.0003291094908490777,0.3297452926635742,-1.6384714285479944,0.0001910233695525676,0.0027930052019655704,0.8054501414299011,0.0002963092701975256,0.1410006582736969,0.8048954606056213,0.10064959526062012,0.36984723806381226
902.0,857.0,2.3533,0.07,9.3278,-0.0388,-0.0134,-0.0224,-1.5334925216487427,-0.11514120548963547,1.558581829071045,-2.0133872032165527,0.01596454344689846,2.334606885910034,4.651733561153076,0.00018062969320453703,0.333744078874588,-1.6384838263141077,0.0002015905047301203,0.01119022723287344,0.8053501844406128,0.0002345134416827932,0.13304995000362396,0.8056648373603821,0.09337283670902252,0.3045393228530884
902.0,857.0,2.3533,0.07,9.3278,-0.0388,-0.0134,-0.0224,-1.5341802027872582,-0.12371843308210373,1.5116268396377563,-2.0132431983947754,0.014280703850090504,2.295902967453003,4.651797457332275,0.00017484631098341197,0.32660621404647827,-1.6385200659381312,0.0004058050690218806,0.017726000398397446,0.8054021000862122,0.0002027976152021438,0.14406341314315796,0.8061771988868713,0.08609262108802795,0.27052170038223267
886.0,827.0,3.3523,1.6355,8.8708,0.0593,0.0189,-0.0889,-1.5348390837064763,-0.1270245611667633,1.5115010738372803,-2.0131468772888184,0.01779654435813427,2.357614517211914,4.651809855098389,8.838900976115838e-05,0.31168150901794434,-1.6385114828692835,0.0003195527824573219,0.013136640191078186,0.8054620623588562,0.00017864079563878477,0.1390545666217804,0.8066654205322266,0.0777897909283638,0.29090115427970886
886.0,827.0,3.3523,1.6355,8.8708,0.0593,0.0189,-0.0889,-1.5356468644789238,-0.12791214883327484,1.499999761581421,-2.013023614883423,0.023487243801355362,2.375828266143799,4.651813192958496,0.0011024685809388757,0.329881876707077,-1.6385319868670862,0.00026340625481680036,0.01801890693604946,0.8053862452507019,0.00015962703037075698,0.136192187666893,0.8071419596672058,0.07629632949829102,0.2841132581233978
886.0,827.0,3.3523,1.6355,8.8708,0.0593,0.0189,-0.0889,-1.5363578137806435,-0.12332011759281158,1.535125970840454,-2.012892007827759,0.029997412115335464,2.4070632457733154,4.651869459743164,0.002053448697552085,0.33497583866119385,-1.638547722493307,0.00022404770425055176,0.015572838485240936,0.8054180145263672,0.00017286832735408098,0.14221176505088806,0.8075733184814453,0.08060406148433685,0.2868504524230957
886.0,827.0,3.3523,1.6355,8.8708,0.0593,0.0189,-0.0889,-1.5372295093587418,-0.1194722130894661,1.548030138015747,-2.012691020965576,0.03319266438484192,2.404283046722412,4.651833696956299,0.0011654122499749064,0.34254831075668335,-1.6385114828692835,0.00019492482533678412,0.022984473034739494,0.8054021000862122,0.00015793445345479995,0.1344498097896576,0.808121919631958,0.08695082366466522,0.2694726288318634
886.0,827.0,3.3523,1.6355,8.8708,0.0593,0.0189,-0.0889,-1.5379527111402531,-0.12277563661336899,1.4931838512420654,-2.0124919414520264,0.03669257089495659,2.4455087184906006,4.651773138637207,0.0004733505775220692,0.3406097888946533,-1.6385358015643519,0.00017250330711249262,0.010243238881230354,0.8054061532020569,0.00014519397518597543,0.13594616949558258,0.8086785674095154,0.0919029712677002,0.28309953212738037
886.0,827.0,3.3523,1.6355,8.8708,0.0593,0.0189,-0.0889,-1.538756252532341,-0.13140511512756348,1.5806024074554443,-2.0123002529144287,0.037580154836177826,2.4240593910217285,4.651777430171631,-7.924029341666028e-05,0.35156863927841187,-1.6384909788714808,0.00020852856687270105,0.014574379660189152,0.8054100871086121,0.00013435563596431166,0.14054501056671143,0.8091675639152527,0.09423327445983887,0.30561256408691406
886.0,827.0,3.3523,1.6355,8.8708,0.0593,0.0189,-0.0889,-1.5394831535271187,-0.1411401331424713,1.516139030456543,-2.01202392578125,0.04016397148370743,2.4431142807006836,4.651745482082031,-0.0002267515956191346,0.3334253430366516,-1.6384838263141077,0.00019634370983112603,0.02055894210934639,0.8054062724113464,0.00012502327444963157,0.14110085368156433,0.8097804188728333,0.0940372571349144,0.2949024438858032
886.0,827.0,3.3523,1.6355,8.8708,0.0593,0.0189,-0.0889,-1.5403188218227406,-0.14871637523174286,1.519841194152832,-2.011795997619629,0.046813517808914185,2.4933435916900635,4.651789351100586,-0.00012929318472743034,0.3355792760848999,-1.63847524324526,0.001062560360878706,0.03115229308605194,0.8053783178329468,0.0001363755582133308,0.13099351525306702,0.8103277087211609,0.08986790478229523,0.24948935210704803
886.0,827.0,3.3523,1.6355,8.8708,0.0593,0.0189,-0.0889,-1.5414857187173148,-0.15250840783119202,1.5130479335784912,-2.0112881660461426,0.0645686686038971,2.5098679065704346,4.651853724116943,-2.433762062992173e-07,0.33943238854408264,-1.638468090687887,0.004537822213023901,0.029575858265161514,0.805414080619812,0.00012551748659461737,0.12768110632896423,0.8109719753265381,0.07810094207525253,0.21997767686843872
886.0,827.0,3.3523,1.6355,8.8708,0.0593,0.0189,-0.0889,-1.5424090822092076,-0.1475977599620819,1.5531753301620483,-2.0108768939971924,0.08068451285362244,2.504261016845703,4.651825590724609,-6.774466404513291e-11,0.3366878032684326,-1.6384199301349085,0.018609531223773956,0.04733778163790703,0.8054382801055908,0.00011843823449453339,0.135036900639534,0.8114497065544128,0.0658586248755455,0.18244194984436035
886.0,827.0,3.3523,1.6355,8.8708,0.0593,0.0189,-0.0889,-1.543275985201337,-0.14234106242656708,1.5949922800064087,-2.0103237628936768,0.09579986333847046,2.497922420501709,4.651776953334473,-1.8856974426492874e-14,0.352308988571167,-1.6383684317218226,0.018348028883337975,0.046596210449934006,0.8054460883140564,0.0001121149689424783,0.13797308504581451,0.8117927312850952,0.05594218522310257,0.17832767963409424
886.0,827.0,3.3523,1.6355,8.8708,0.0593,0.0189,-0.0889,-1.5442354150912543,-0.14627432823181152,1.6072065830230713,-2.0097849369049072,0.107946015894413,2.552856922149658,4.65181748449292,0.0001711169898044318,0.3436729609966278,-1.638280216847555,0.0046634916216135025,0.03373296931385994,0.8054100871086121,0.00010643265704857185,0.1375993937253952,0.8121168613433838,0.04849911853671074,0.17464707791805267
886.0,827.0,3.3523,1.6355,8.8708,0.0593,0.0189,-0.0889,-1.5452347819558163,-0.15957996249198914,1.5713996887207031,-2.0090370178222656,0.11607233434915543,2.544210195541382,4.651769323939941,7.703138544457033e-05,0.34064534306526184,-1.6382959524737757,-0.0016167417634278536,0.025049222633242607,0.8054140210151672,0.00010129855218110606,0.14258678257465363,0.8123536705970764,0.04268881678581238,0.16372355818748474
886.0,827.0,3.3523,1.6355,8.8708,0.0593,0.0189,-0.0889,-1.5461777088097115,-0.17454411089420319,1.5250561237335205,-2.0083699226379395,0.11981620639562607,2.550473928451538,4.65179364263501,7.942789892467772e-08,0.33566713333129883,-1.6382883230792444,-0.0011180678848177195,0.03863268718123436,0.8054775595664978,9.663699893280864e-05,0.12297657877206802,0.8126612901687622,0.0391661673784256,0.17149892449378967
886.0,827.0,3.3523,1.6355,8.8708,0.0593,0.0189,-0.0889,-1.5471410409412165,-0.1809411346912384,1.508451223373413,-2.0076022148132324,0.12101243436336517,2.526270627975464,4.651837988490723,2.210904549715398e-11,0.3382576107978821,-1.6382964293109339,-0.0005098871770314872,0.04698089510202408,0.8054938316345215,0.00010560853115748614,0.12518781423568726,0.8127978444099426,0.03715876489877701,0.21488045156002045
874.0,808.0,2.8708,0.1645,8.8935,0.0026,0.0915,-0.0924,-1.5481722255102177,-0.1760730743408203,1.5148284435272217,-2.0068624019622803,0.13427068293094635,2.567187786102295,4.65179364263501,6.1541343954185906e-15,0.3367103934288025,-1.6382482687579554,-3.8977700000941695e-07,0.042409732937812805,0.8054501414299011,8.329352567670867e-05,0.14266693592071533,0.8129931688308716,0.03502091392874718,0.18785172700881958
874.0,808.0,2.8708,0.1645,8.8935,0.0026,0.0915,-0.0924,-1.5492036540857335,-0.17326197028160095,1.485084056854248,-2.0059826374053955,0.14663030207157135,2.5972275733947754,4.65179364263501,1.7130261149192349e-18,0.33190834522247314,-1.6382682959186,-1.0849586506989084e-10,0.03621050715446472,0.8054938316345215,0.0005897818482480943,0.1447666585445404,0.8132177591323853,0.03383458033204079,0.1418781727552414
874.0,808.0,2.8708,0.1645,8.8935,0.0026,0.0915,-0.0924,-1.5502624691328784,-0.17029134929180145,1.5670640468597412,-2.0050389766693115,0.16122817993164062,2.605639696121216,4.65179364263501,4.768271130003599e-22,0.34164175391197205,-1.6382721106158655,-3.020022450975386e-14,0.023478208109736443,0.8055097460746765,0.000812095997389406,0.1463841050863266,0.8133857250213623,0.03184768557548523,0.14898750185966492
874.0,808.0,2.8708,0.1645,8.8935,0.0026,0.0915,-0.0924,-1.5517658845386286,-0.1763831377029419,1.590778112411499,-2.0037004947662354,0.17654894292354584,2.6253106594085693,4.651761217708252,8.666100037411445e-27,0.3526189625263214,-1.6383283774005335,-5.488741961947013e-19,0.018464243039488792,0.8055656552314758,0.001161706168204546,0.15112465620040894,0.8137462139129639,0.035639937967061996,0.1720239818096161
874.0,808.0,2.8708,0.1645,8.8935,0.0026,0.0915,-0.0924,-1.5527758219144125,-0.18370845913887024,1.5284481048583984,-2.0025484561920166,0.17770880460739136,2.6359245777130127,4.651773138637207,2.4122407970399344e-30,0.3299133777618408,-1.6382444540606897,-1.5278112751662868e-22,0.028020795434713364,0.8054501414299011,0.0010620576795190573,0.1621982753276825,0.8138741254806519,0.037030499428510666,0.19157546758651733
874.0,808.0,2.8708,0.1645,8.8935,0.0026,0.0915,-0.0924,-1.553878865470626,-0.19342422485351562,1.5347588062286377,-2.0014607906341553,0.1799945831298828,2.585468292236328,4.651809855098389,-9.880666766548529e-05,0.3314467966556549,-1.6382764021502894,-4.2527189414649467e-26,0.01777658984065056,0.805442214012146,0.0008972948417067528,0.162522554397583,0.8141946792602539,0.037310585379600525,0.18228664994239807
874.0,808.0,2.8708,0.1645,8.8935,0.0026,0.0915,-0.0924,-1.5551063281348725,-0.20457954704761505,1.5225173234939575,-2.0003621578216553,0.18758320808410645,2.5987203121185303,4.651781721706055,-4.2807034333236516e-05,0.3277302086353302,-1.6382926146136683,-1.1837600509390776e-29,0.034245382994413376,0.8054382801055908,0.0007576710777357221,0.13085447251796722,0.8143144249916077,0.03519808128476143,0.1856672763824463
874.0,808.0,2.8708,0.1645,8.8935,0.0026,0.0915,-0.0924,-1.556285348986723,-0.20502936840057373,1.4512068033218384,-1.9991583824157715,0.1985795646905899,2.6163971424102783,4.651833696956299,-5.612706809188239e-05,0.3300325274467468,-1.6382525602923792,-3.295039969733462e-33,0.016143832355737686,0.8054938316345215,0.0005280249170027673,0.14553500711917877,0.8145188689231873,0.031104659661650658,0.22554856538772583
874.0,808.0,2.8708,0.1645,8.8935,0.0026,0.0915,-0.0924,-1.5574479105747123,-0.1957809180021286,1.5257344245910645,-1.99787175655365,0.21003730595111847,2.6262292861938477,4.6518212991901855,-1.5623175642076603e-08,0.3305368423461914,-1.638223950062887,-9.17186480447644e-37,0.032395921647548676,0.8054656982421875,0.0005061604897491634,0.15396687388420105,0.8146949410438538,0.02782084234058857,0.18206465244293213
874.0,808.0,2.8708,0.1645,8.8935,0.0026,0.0915,-0.0924,-1.5587232227301975,-0.19263485074043274,1.5183122158050537,-1.9965442419052124,0.21656671166419983,2.6490981578826904,4.651841803187988,-4.348767873585402e-12,0.3361470699310303,-1.6382525602923792,-2.5530256721533842e-40,0.028618015348911285,0.8054501414299011,0.0004335836274549365,0.15506970882415771,0.814850926399231,0.026830673217773438,0.1508253812789917
874.0,808.0,2.8708,0.1645,8.8935,0.0026,0.0915,-0.0924,-1.5600142854130645,-0.20575222373008728,1.570162057876587,-1.9952366352081299,0.22295628488063812,2.622457981109619,4.65181748449292,-1.2104955260749495e-15,0.3293076157569885,-1.6382887999164026,-7.146622168056567e-44,0.04009037837386131,0.8054938316345215,0.0004106289707124233,0.15271404385566711,0.815035343170166,0.029870562255382538,0.19424042105674744
874.0,808.0,2.8708,0.1645,8.8935,0.0026,0.0915,-0.0924,-1.5613095576739688,-0.22288668155670166,1.50773024559021,-1.9938007593154907,0.2302495539188385,2.5918173789978027,4.651757403010986,-3.369458445182758e-19,0.32856112718582153,-1.638256851826803,-0.0,0.025541502982378006,0.8055418133735657,0.00035066597047261894,0.153569296002388,0.8152358531951904,0.031999506056308746,0.14663708209991455
874.0,808.0,2.8708,0.1645,8.8935,0.0026,0.0915,-0.0924,-1.5631117283231397,-0.22728292644023895,1.5328395366668701,-1.991938829421997,0.23644042015075684,2.5928115844726562,4.651773138637207,-6.1238250497434885e-24,0.32489442825317383,-1.638256851826803,-0.0,0.03457658737897873,0.8055537343025208,0.00025118276244029403,0.15352408587932587,0.8154153823852539,0.029980860650539398,0.2055758386850357
874.0,808.0,2.8708,0.1645,8.8935,0.0026,0.0915,-0.0924,-1.5644623951851209,-0.2215428650379181,1.5871539115905762,-1.9904108047485352,0.248029425740242,2.629209041595459,4.6518212991901855,-1.704588978854633e-27,0.3313431739807129,-1.638235870991842,-0.0,0.04349547252058983,0.8054779767990112,0.00021502701565623283,0.15950025618076324,0.8156154751777649,0.02555832825601101,0.09422403573989868
874.0,808.0,2.8708,0.1645,8.8935,0.0026,0.0915,-0.0924,-1.5658293145573516,-0.22699236869812012,1.5642393827438354,-1.988940715789795,0.2630902826786041,2.679658889770508,4.651841803187988,-4.744786556557396e-31,0.3182395398616791,-1.638256851826803,-0.0,0.03955665975809097,0.8054937720298767,0.00018806174921337515,0.15626150369644165,0.8157196044921875,0.021362964063882828,0.10029469430446625
894.0,777.0,2.8989,0.3523,10.0283,-0.0287,0.0878,-0.1216,-1.5671877812458952,-0.23572853207588196,1.4701353311538696,-1.9873201847076416,0.2727999687194824,2.6167726516723633,4.651749296779297,-1.320728973753785e-34,0.314789354801178,-1.638223950062887,-0.0,0.053541917353868484,0.8054898977279663,0.00020022678654640913,0.13973373174667358,0.8158716559410095,0.017899619415402412,0.08813508599996567
894.0,777.0,2.8989,0.3523,10.0283,-0.0287,0.0878,-0.1216,-1.5686103566880156,-0.23481550812721252,1.5601832866668701,-1.985669732093811,0.2780900001525879,2.65255069732666,4.65178553640332,-3.676297833105679e-38,0.3069600462913513,-1.6382606665240687,0.0002423204277874902,0.04248807579278946,0.8055336475372314,0.00018042496230918914,0.14960795640945435,0.8159676790237427,0.013976521790027618,0.06335514783859253
894.0,777.0,2.8989,0.3523,10.0283,-0.0287,0.0878,-0.1216,-1.570053666979522,-0.2402072548866272,1.5228080749511719,-1.9840553998947144,0.2864513695240021,2.6528656482696533,4.651781721706055,-0.0006659394130110741,0.3106878101825714,-1.6382525602923792,0.00020896141359116882,0.05102336034178734,0.8055616021156311,0.0001913085434352979,0.15360529720783234,0.8160237073898315,0.010425087995827198,0.06023070961236954
894.0,777.0,2.8989,0.3523,10.0283,-0.0287,0.0878,-0.1216,-1.5714956722655238,-0.2534677982330322,1.4994897842407227,-1.9822797775268555,0.29175299406051636,2.656175374984741,4.651749773616455,-0.0006558325840160251,0.2998906672000885,-1.638228718434469,0.00018340568931307644,0.058340493589639664,0.8055018186569214,0.0002003327099373564,0.14497241377830505,0.8160557746887207,0.007381269242614508,0.09829837828874588
894.0,777.0,2.8989,0.3523,10.0283,-0.0287,0.0878,-0.1216,-1.5730110607542933,-0.26459401845932007,1.4934532642364502,-1.980525016784668,0.2949454188346863,2.594041347503662,4.651773615474365,-0.0005159941501915455,0.2952633500099182,-1.6382282415973108,0.00019608474394772202,0.04634663090109825,0.8055617213249207,0.0002169431681977585,0.1496119648218155,0.8160756826400757,0.00465252622961998,0.03121555782854557
894.0,777.0,2.8989,0.3523,10.0283,-0.0287,0.0878,-0.1216,-1.5745493374266566,-0.26342669129371643,1.479668140411377,-1.9787501096725464,0.31087857484817505,2.6291322708129883,4.651737375850342,-0.0003787352761719376,0.28948551416397095,-1.6382363478290003,0.0001768363144947216,0.05586157739162445,0.8055576682090759,0.00026975301443599164,0.15763795375823975,0.8161318302154541,0.0017158252885565162,0.028802840039134026
894.0,777.0,2.8989,0.3523,10.0283,-0.0287,0.0878,-0.1216,-1.5760685406126917,-0.2594563663005829,1.4918742179870605,-1.9769277572631836,0.3219635784626007,2.646047830581665,4.651801748866699,-0.0003603688965085894,0.2910442352294922,-1.6382606665240687,0.00018773040210362524,0.0681774765253067,0.8055096864700317,0.0008385736146010458,0.15841877460479736,0.8160837292671204,-0.00046190028660930693,0.09098561853170395
894.0,777.0,2.8989,0.3523,10.0283,-0.0287,0.0878,-0.1216,-1.5782305202879847,-0.2632611393928528,1.4713916778564453,-1.974273443222046,0.3327144682407379,2.6434688568115234,4.65178553640332,-0.0003005316248163581,0.30316972732543945,-1.6382325331317347,0.00016783286991994828,0.06129581481218338,0.8055417537689209,0.0021357235964387655,0.15865491330623627,0.8161119222640991,-0.0009117030422203243,0.03573065251111984
894.0,777.0,2.8989,0.3523,10.0283,-0.0287,0.0878,-0.1216,-1.5798412762083949,-0.2694225609302521,1.5280907154083252,-1.9722903966903687,0.34466591477394104,2.6652021408081055,4.65178553640332,-0.00024259256315417588,0.2951834499835968,-1.6382163206683558,0.00017760643095243722,0.054180532693862915,0.8055894374847412,0.00350364507175982,0.14378465712070465,0.8160757422447205,-0.0004725377366412431,0.00011266888759564608
894.0,777.0,2.8989,0.3523,10.0283,-0.0287,0.0878,-0.1216,-1.5815278492369593,-0.2837321162223816,1.5211411714553833,-1.9702203273773193,0.34017038345336914,2.6399288177490234,4.651713533992432,-0.0008203036268241704,0.2907448709011078,-1.6382163206683558,0.00016564222460146993,0.06946837902069092,0.8056572079658508,0.006235675420612097,0.1620694100856781,0.8160797953605652,-0.0003388524055480957,0.0017604837194085121
894.0,777.0,2.8989,0.3523,10.0283,-0.0287,0.0878,-0.1216,-1.583193918267721,-0.29337257146835327,1.4476715326309204,-1.9681026935577393,0.3435732126235962,2.656498432159424,4.651753588313721,-0.0007835080614313483,0.28845152258872986,-1.6382043997394007,0.00014928230666555464,0.06953801959753036,0.80572909116745,0.012425257824361324,0.18974128365516663,0.8160637617111206,-0.00026421897928230464,0.003739330917596817
894.0,777.0,2.8989,0.3523,10.0283,-0.0287,0.0878,-0.1216,-1.584905286828512,-0.29550662636756897,1.4864122867584229,-1.9659124612808228,0.3522644340991974,2.641998291015625,4.651777430171631,-0.0004961597151122987,0.27598100900650024,-1.6382363478290003,0.00013576913625001907,0.067619189620018,0.8057694435119629,0.014408416114747524,0.17546388506889343,0.816135823726654,-7.212669152067974e-05,0.06804485619068146
894.0,777.0,2.8989,0.3523,10.0283,-0.0287,0.0878,-0.1216,-1.586663385430807,-0.29790619015693665,1.4220352172851562,-1.9638192653656006,0.3578788936138153,2.694664478302002,4.6517698007771,-0.00029854397871531546,0.2810157835483551,-1.6382001082049769,0.00014917853695806116,0.06029868125915527,0.8059161901473999,0.01512144971638918,0.1787041425704956,0.8160637021064758,-0.00022530423302669078,0.01796358823776245
894.0,777.0,2.8989,0.3523,10.0283,-0.0287,0.0878,-0.1216,-1.588494440118307,-0.29549214243888855,1.5015771389007568,-1.9616413116455078,0.36717426776885986,2.680600643157959,4.651781721706055,-0.00019486654491629452,0.2980402708053589,-1.6382082144366663,0.00013794867845717818,0.060901179909706116,0.8060081601142883,0.014782398007810116,0.16855745017528534,0.8161118626594543,-0.0008120281854644418,0.0119563527405262
894.0,777.0,2.8989,0.3523,10.0283,-0.0287,0.0878,-0.1216,-1.5903212032713832,-0.28951436281204224,1.5514018535614014,-1.959351897239685,0.37564823031425476,2.6858248710632324,4.6517698007771,6.114398274803534e-05,0.2903634011745453,-1.6382406393634241,0.00012812866771128029,0.06632357090711594,0.8060439229011536,0.013859269209206104,0.188785582780838,0.8160757422447205,-0.0008531425264663994,-0.005620516836643219
897.0,821.0,2.9324,1.4489,8.6357,-0.015,0.1297,-0.0796,-1.5921794376769007,-0.30222392082214355,1.5589957237243652,-1.9570941925048828,0.3866243362426758,2.7210941314697266,4.651781721706055,5.3543706599157304e-05,0.30127447843551636,-1.6382244269000452,0.00011961390555370599,0.06026877835392952,0.8061358332633972,0.012335962615907192,0.18978795409202576,0.8160797357559204,-0.0005436163628473878,-0.026914505288004875
897.0,821.0,2.9324,1.4489,8.6357,-0.015,0.1297,-0.0796,-1.5940619907774867,-0.3103775978088379,1.524458408355713,-1.9548364877700806,0.3920459449291229,2.715414047241211,4.6517979341694335,1.4904088629918988e-08,0.3016148805618286,-1.6381962935077112,0.00011216034181416035,0.0595431849360466,0.8062072396278381,0.011151481419801712,0.19587799906730652,0.8161159157752991,-0.00011655577691271901,-0.006016885861754417
897.0,821.0,2.9324,1.4489,8.6357,-0.015,0.1297,-0.0796,-1.596692224542135,-0.3184828758239746,1.594310998916626,-1.9517322778701782,0.39743009209632874,2.66922664642334,4.651721163386963,2.7087446868856446e-13,0.28293436765670776,-1.6382525602923792,0.00011855409684358165,0.06830941140651703,0.8062230944633484,0.011441213078796864,0.19724228978157043,0.8160278797149658,-0.0002754637971520424,0.01827126555144787
897.0,821.0,2.9324,1.4489,8.6357,-0.015,0.1297,-0.0796,-1.5986110172667445,-0.3324330747127533,1.5130442380905151,-1.949347972869873,0.3945433497428894,2.6791322231292725,4.651741667384766,7.539891573252736e-17,0.28922462463378906,-1.6382363478290003,0.00011424258991610259,0.06833962351083755,0.8063828945159912,0.012566660530865192,0.20065069198608398,0.8160958290100098,-0.0007750420481897891,0.011074557900428772
897.0,821.0,2.9324,1.4489,8.6357,-0.015,0.1297,-0.0796,-1.6005813084044398,-0.32749781012535095,1.5385448932647705,-1.9469128847122192,0.4089554250240326,2.667574167251587,4.651765509242676,-0.00014513933274429291,0.2947542667388916,-1.6381924788104456,0.00010834878048626706,0.05967035889625549,0.806446373462677,0.01772787980735302,0.19843657314777374,0.8160717487335205,-0.001049367361702025,0.025174392387270927
