ramyac6/ROB537/final_project/csv/bad/bad_97.csv
tof_0,tof_1,accelx,accely,accelz,gyrox,gyroy,gyroz,shoulder_lift_joint_position,shoulder_lift_joint_velocity,shoulder_lift_joint_effort,elbow_joint_position,elbow_joint_velocity,elbow_joint_effort,wrist_1_joint_position,wrist_1_joint_velocity,wrist_1_joint_effort,wrist_2_joint_position,wrist_2_joint_velocity,wrist_2_joint_effort,wrist_3_joint_position,wrist_3_joint_velocity,wrist_3_joint_effort,shoulder_pan_joint_position,shoulder_pan_joint_velocity,shoulder_pan_joint_effort
957.0,928.0,-0.527,-0.3978,9.5707,-0.0344,0.0228,-0.1168,-1.8818508587279261,0.0,2.8035764694213867,-2.1383297443389893,-0.0,1.462382197380066,5.557834493904867,-0.0,0.2923004925251007,-1.5454948584186,0.0,-0.018711676821112633,1.0197350978851318,0.0,-0.008989116176962852,0.7546554803848267,0.0,-0.015610085800290108
957.0,928.0,-0.527,-0.3978,9.5707,-0.0344,0.0228,-0.1168,-1.8819271526732386,0.0,2.7967967987060547,-2.1383535861968994,-0.0,1.443594217300415,5.55786685922698,-0.0,0.29134291410446167,-1.5454347769366663,0.0,-0.01838826760649681,1.0197269916534424,0.0,0.001106469426304102,0.7547444701194763,0.0,-0.0036633461713790894
957.0,928.0,-0.527,-0.3978,9.5707,-0.0344,0.0228,-0.1168,-1.8819314442076625,0.0,2.8300423622131348,-2.138361692428589,-0.0,1.4860354661941528,5.55786685922698,-0.0,0.28349757194519043,-1.5454986731158655,0.0,-0.0067771440371870995,1.0197839736938477,0.0,0.00732737872749567,0.7547040581703186,0.0,-0.0022370656952261925
957.0,928.0,-0.527,-0.3978,9.5707,-0.0344,0.0228,-0.1168,-1.881867071191305,0.0,2.813958168029785,-2.138345241546631,-0.0,1.4830905199050903,5.557838547020712,-0.0,0.27655863761901855,-1.5454586187945765,0.0,-0.0026376554742455482,1.0197795629501343,0.0,-0.004425852093845606,0.7547158598899841,0.0,0.014278635382652283
957.0,928.0,-0.527,-0.3978,9.5707,-0.0344,0.0228,-0.1168,-1.8819190464415492,0.0,2.80911922454834,-2.1384217739105225,-0.0,1.5247066020965576,5.557882773667135,-0.0,0.282162070274353,-1.5454466978656214,0.0,-0.008492054417729378,1.0197715759277344,0.0,0.0062559908255934715,0.7546998858451843,0.0,0.04965426027774811
957.0,928.0,-0.527,-0.3978,9.5707,-0.0344,0.0228,-0.1168,-1.881911417047018,0.0,2.800823211669922,-2.1383535861968994,-0.0,1.4957926273345947,5.557838547020712,-0.0,0.2728797197341919,-1.5454791227923792,0.0,-0.009648207575082779,1.0197550058364868,0.0,-0.005984135903418064,0.7547204494476318,0.0,0.01440893579274416
982.0,970.0,-0.5503,-0.4008,9.5354,-0.0449,0.0246,-0.1205,-1.8818751774229945,0.0,2.833542823791504,-2.1383659839630127,-0.0,1.5091288089752197,5.557826983719625,-0.0,0.26570552587509155,-1.545462433491842,0.0,-0.023422861471772194,1.0197999477386475,0.0,0.008102675899863243,0.7546998262405396,0.0,0.009412357583642006
982.0,970.0,-0.5503,-0.4008,9.5354,-0.0449,0.0246,-0.1205,-1.8819190464415492,0.0,2.8325486183166504,-2.138341188430786,-0.0,1.4345085620880127,5.557838547020712,-0.0,0.2820364832878113,-1.545483414326803,0.0,-0.011276988312602043,1.019779920578003,0.0,0.0051551987417042255,0.7547241449356079,0.0,-0.03193255886435509
982.0,970.0,-0.5503,-0.4008,9.5354,-0.0449,0.0246,-0.1205,-1.881895204583639,0.0,2.802042007446289,-2.1383979320526123,-0.0,1.4786293506622314,5.557858693390646,-0.0,0.2963080406188965,-1.5455072561847132,0.0,-0.007979863323271275,1.0197590589523315,0.0,0.003633749671280384,0.7546958923339844,0.0,0.026120593771338463
982.0,970.0,-0.5503,-0.4008,9.5354,-0.0449,0.0246,-0.1205,-1.8818909130492152,0.0,2.7918572425842285,-2.1383907794952393,-0.0,1.4884974956512451,5.557854461460867,-0.0,0.2837544083595276,-1.5454586187945765,0.0,-0.017756571993231773,1.019806981086731,0.0,-0.0031956899911165237,0.7547081112861633,0.0,-0.014426976442337036
982.0,970.0,-0.5503,-0.4008,9.5354,-0.0449,0.0246,-0.1205,-1.8818909130492152,0.0,2.778165340423584,-2.1383657455444336,-0.0,1.465968132019043,5.557826983719625,-0.0,0.2732808589935303,-1.545462433491842,0.0,0.0013435976579785347,1.0198187828063965,0.0,0.005373679101467133,0.7547200322151184,0.0,-0.0010680188424885273
982.0,970.0,-0.5503,-0.4008,9.5354,-0.0449,0.0246,-0.1205,-1.8819314442076625,0.0,2.7495203018188477,-2.1383700370788574,-0.0,1.5631999969482422,5.557878780155935,-0.0,0.269659161567688,-1.5454304854022425,0.0,-0.010176076553761959,1.0197632312774658,0.0,0.001309898099862039,0.7546876668930054,0.0,0.0065320637077093124
982.0,970.0,-0.5503,-0.4008,9.5354,-0.0449,0.0246,-0.1205,-1.8818909130492152,0.0,2.7709758281707764,-2.1383700370788574,-0.0,1.4495177268981934,5.557866620808401,-0.0,0.2817038297653198,-1.5454710165606897,0.0,-0.008340533822774887,1.019818902015686,0.0,-0.007065171841531992,0.7547482252120972,0.0,-0.02306370437145233
982.0,970.0,-0.5503,-0.4008,9.5354,-0.0449,0.0246,-0.1205,-1.8819190464415492,0.0,2.7665224075317383,-2.1383867263793945,-0.0,1.4687385559082031,5.5578428385551355,-0.0,0.28767386078834534,-1.5454748312579554,0.0,-0.0026642000302672386,1.019775629043579,0.0,-0.004393355455249548,0.754740297794342,0.0,0.0016379216685891151
982.0,970.0,-0.5503,-0.4008,9.5354,-0.0449,0.0246,-0.1205,-1.8818465671935023,0.0,2.7873973846435547,-2.1383657455444336,-0.0,1.5111247301101685,5.55783091762618,-0.0,0.27782154083251953,-1.5454710165606897,0.0,-0.007263427134603262,1.0197715759277344,0.0,-0.0003975527361035347,0.7546998858451843,0.0,-0.009086200967431068
982.0,970.0,-0.5503,-0.4008,9.5354,-0.0449,0.0246,-0.1205,-1.8819028339781703,0.0,2.810957431793213,-2.1383659839630127,-0.0,1.4750148057937622,5.557842778950491,-0.0,0.2881218194961548,-1.5454872290240687,0.0,-0.01192204188555479,1.019758939743042,0.0,-0.0038758893497288227,0.7547200322151184,0.0,-0.005757104605436325
992.0,941.0,-0.5988,-0.4014,9.6652,-0.0354,0.0215,-0.1249,-1.8818708858885707,0.0,2.7997384071350098,-2.1383659839630127,-0.0,1.4713401794433594,5.55787085273818,-0.0,0.28092053532600403,-1.5454748312579554,0.0,-0.003429295727983117,1.0198591947555542,0.0,0.01105404645204544,0.7547081112861633,0.0,-0.01776447333395481
992.0,941.0,-0.5988,-0.4014,9.6652,-0.0354,0.0215,-0.1249,-1.8818751774229945,0.0,2.7581992149353027,-2.1383659839630127,-0.0,1.494829535484314,5.557874905854025,-0.0,0.2829027771949768,-1.545490566884176,0.0,-0.01767294481396675,1.0197715759277344,0.0,0.004265265539288521,0.7547523379325867,0.0,-0.024377470836043358
992.0,941.0,-0.5988,-0.4014,9.6652,-0.0354,0.0215,-0.1249,-1.881923337975973,0.0,2.800926685333252,-2.138394832611084,-0.0,1.437300682067871,5.55787883976058,-0.0,0.2914201319217682,-1.5454543272601526,0.0,-0.0058706230483949184,1.0198312997817993,0.0,-0.01915716752409935,0.7547040581703186,0.0,0.0060274554416537285
992.0,941.0,-0.5988,-0.4014,9.6652,-0.0354,0.0215,-0.1249,-1.881923337975973,0.0,2.803922176361084,-2.138374090194702,-0.0,1.5112085342407227,5.557874905854025,-0.0,0.2697007358074188,-1.5454586187945765,0.0,-0.00922227744013071,1.0197393894195557,0.0,0.006240233778953552,0.7547765970230103,0.0,-0.04857107251882553
992.0,941.0,-0.5988,-0.4014,9.6652,-0.0354,0.0215,-0.1249,-1.8819152317442835,0.0,2.802830696105957,-2.1384053230285645,-0.0,1.4951679706573486,5.55788670757369,-0.0,0.28330403566360474,-1.5454543272601526,0.0,-0.014961695298552513,1.0197151899337769,0.0,-0.008102343417704105,0.7547399997711182,0.0,0.03251068294048309
992.0,941.0,-0.5988,-0.4014,9.6652,-0.0354,0.0215,-0.1249,-1.88187899212026,0.0,2.7840576171875,-2.1382925510406494,-0.0,1.4781343936920166,5.55783491113738,-0.0,0.2816822826862335,-1.5454948584186,0.0,-0.00416353577747941,1.0197510719299316,0.0,0.0015441965078935027,0.7547282576560974,0.0,-0.07370321452617645
992.0,941.0,-0.5988,-0.4014,9.6652,-0.0354,0.0215,-0.1249,-1.8818627796568812,0.0,2.8107004165649414,-2.138429880142212,-0.0,1.4690232276916504,5.557874905854025,-0.0,0.28286227583885193,-1.545462433491842,0.0,-0.008556516841053963,1.019791603088379,0.0,-0.002173235174268484,0.7547122240066528,0.0,0.0229216068983078
992.0,941.0,-0.5988,-0.4014,9.6652,-0.0354,0.0215,-0.1249,-1.8818751774229945,0.0,2.791951894760132,-2.1383864879608154,-0.0,1.4664157629013062,5.557846772461691,-0.0,0.2837330996990204,-1.545434300099508,0.0,-0.01818261481821537,1.0197999477386475,0.0,0.008374215103685856,0.754732072353363,0.0,0.02361779473721981
992.0,941.0,-0.5988,-0.4014,9.6652,-0.0354,0.0215,-0.1249,-1.8819314442076625,0.0,2.768800735473633,-2.1383988857269287,-0.0,1.4167537689208984,5.55783091762618,-0.0,0.29560935497283936,-1.5454872290240687,0.0,-0.01460767351090908,1.0197429656982422,0.0,0.013187533244490623,0.7547485828399658,0.0,-0.004621284082531929
992.0,941.0,-0.5988,-0.4014,9.6652,-0.0354,0.0215,-0.1249,-1.8818751774229945,0.0,2.7753024101257324,-2.138357639312744,-0.0,1.4899905920028687,5.557846772461691,-0.0,0.2862488031387329,-1.5455029646502894,0.0,-0.00846529845148325,1.0197755098342896,0.0,-0.007204077206552029,0.7547885775566101,0.0,-0.006772189401090145
986.0,8190.0,-0.4732,-0.3906,9.5414,-0.0371,0.0228,-0.12,-1.8819195232787074,0.0,2.8002748489379883,-2.1383979320526123,-0.0,1.4879837036132812,5.557850706368246,-0.0,0.2658417224884033,-1.5454872290240687,0.0,-0.017872974276542664,1.0197839736938477,0.0,-0.006570571102201939,0.7546998858451843,0.0,0.0025868406519293785
986.0,8190.0,-0.4732,-0.3906,9.5414,-0.0371,0.0228,-0.12,-1.881895204583639,0.0,2.819943904876709,-2.1383657455444336,-0.0,1.5001559257507324,5.557934689312734,-0.0,0.27731767296791077,-1.5454872290240687,0.0,-0.00801665335893631,1.019863247871399,0.0,-0.01230686716735363,0.7547200322151184,0.0,0.02582714334130287
986.0,8190.0,-0.4732,-0.3906,9.5414,-0.0371,0.0228,-0.12,-1.8819152317442835,0.0,2.8127870559692383,-2.1384224891662598,-0.0,1.4685256481170654,5.557850765972891,-0.0,0.2860029339790344,-1.5454748312579554,0.0,-0.004225018434226513,1.0197553634643555,0.0,-0.005530279129743576,0.7546918392181396,0.0,0.04053275287151337
986.0,8190.0,-0.4732,-0.3906,9.5414,-0.0371,0.0228,-0.12,-1.8818708858885707,0.0,2.835258960723877,-2.1383461952209473,-0.0,1.4454660415649414,5.557850706368246,-0.0,0.28270456194877625,-1.545450512562887,0.0,-0.005285769701004028,1.0197513103485107,0.0,-0.0026932251639664173,0.7547204494476318,0.0,0.006822230760008097
986.0,8190.0,-0.4732,-0.3906,9.5414,-0.0371,0.0228,-0.12,-1.8819195232787074,0.0,2.760500907897949,-2.138357639312744,-0.0,1.4704129695892334,5.557850765972891,-0.0,0.2911341190338135,-1.5455072561847132,0.0,-0.012610790319740772,1.0197867155075073,0.0,0.01050492376089096,0.7547081112861633,0.0,-0.04198642075061798
986.0,8190.0,-0.4732,-0.3906,9.5414,-0.0371,0.0228,-0.12,-1.8819028339781703,0.0,2.786785840988159,-2.138394832611084,-0.0,1.4622609615325928,5.557862627297201,-0.0,0.27907952666282654,-1.545483414326803,0.0,-0.01609260030090809,1.0197715759277344,0.0,0.0030274773016572,0.7547241449356079,0.0,-0.004772590473294258
986.0,8190.0,-0.4732,-0.3906,9.5414,-0.0371,0.0228,-0.12,-1.8818632564940394,0.0,2.793351173400879,-2.138394832611084,-0.0,1.4915175437927246,5.557822870999136,-0.0,0.27373963594436646,-1.5454424063311976,0.0,-0.011768674477934837,1.0197949409484863,0.0,0.008542332798242569,0.7547040581703186,0.0,0.046561408787965775
986.0,8190.0,-0.4732,-0.3906,9.5414,-0.0371,0.0228,-0.12,-1.88187899212026,0.0,2.819331407546997,-2.1383700370788574,-0.0,1.449526071548462,5.5578428385551355,-0.0,0.27686426043510437,-1.545438591633932,0.0,-0.02715642936527729,1.0197312831878662,0.0,0.011118677444756031,0.7547081708908081,0.0,-0.014468357898294926
986.0,8190.0,-0.4732,-0.3906,9.5414,-0.0371,0.0228,-0.12,-1.8819152317442835,0.0,2.8180081844329834,-2.1383421421051025,-0.0,1.453474521636963,5.557854640274801,-0.0,0.26549193263053894,-1.545466725026266,0.0,-0.003876078873872757,1.019798994064331,0.0,0.008672734722495079,0.7547122240066528,0.0,-0.025344327092170715
986.0,8190.0,-0.4732,-0.3906,9.5414,-0.0371,0.0228,-0.12,-1.881895204583639,0.0,2.8013815879821777,-2.1383421421051025,-0.0,1.4717345237731934,5.5578428385551355,-0.0,0.29023119807243347,-1.5454948584186,0.0,-0.026088010519742966,1.019806981086731,0.0,0.0046145496889948845,0.7547200322151184,0.0,0.04428563266992569
996.0,965.0,-0.4977,-0.3709,9.4564,-0.031,0.0177,-0.1239,-1.8819557629027308,0.0,2.776270866394043,-2.1383535861968994,-0.0,1.5047882795333862,5.557850706368246,-0.0,0.28241437673568726,-1.545466725026266,0.0,-0.006461315788328648,1.0197349786758423,0.0,0.007488866336643696,0.7547564506530762,0.0,-0.029019795358181
996.0,965.0,-0.4977,-0.3709,9.4564,-0.031,0.0177,-0.1239,-1.8818870983519496,0.0,2.79826021194458,-2.1383659839630127,-0.0,1.437516689300537,5.557866918831625,-0.0,0.27438706159591675,-1.5454543272601526,0.0,-0.016767468303442,1.0197839736938477,0.0,0.0052149551920592785,0.754740297794342,0.0,-0.03596998751163483
996.0,965.0,-0.4977,-0.3709,9.4564,-0.031,0.0177,-0.1239,-1.8819028339781703,0.0,2.787479877471924,-2.1383907794952393,-0.0,1.5043530464172363,5.557806718140402,-0.0,0.2692234218120575,-1.5454791227923792,0.0,-0.004721205681562424,1.019747257232666,0.0,-0.004156909883022308,0.7547683119773865,0.0,-0.001428936142474413
996.0,965.0,-0.4977,-0.3709,9.4564,-0.031,0.0177,-0.1239,-1.881895204583639,0.0,2.795945167541504,-2.1383421421051025,-0.0,1.4672880172729492,5.55789469459609,-0.0,0.28493842482566833,-1.5454791227923792,0.0,-0.006867386866360903,1.019783616065979,0.0,-0.003528990549966693,0.7547564506530762,0.0,-0.029230963438749313
996.0,965.0,-0.4977,-0.3709,9.4564,-0.031,0.0177,-0.1239,-1.8818909130492152,0.0,2.8225255012512207,-2.138345241546631,-0.0,1.5109994411468506,5.55789469459609,-0.0,0.2910136580467224,-1.5455029646502894,0.0,-0.01057849545031786,1.019791603088379,0.0,0.004971454851329327,0.7547040581703186,0.0,0.008091374300420284
996.0,965.0,-0.4977,-0.3709,9.4564,-0.031,0.0177,-0.1239,-1.881907125512594,0.0,2.796765089035034,-2.138338088989258,-0.0,1.46426260471344,5.557826983719625,-0.0,0.27321282029151917,-1.5454748312579554,0.0,-0.01188553124666214,1.0198309421539307,0.0,-0.0027772376779466867,0.754740297794342,0.0,0.044290296733379364
996.0,965.0,-0.4977,-0.3709,9.4564,-0.031,0.0177,-0.1239,-1.8819557629027308,0.0,2.7798547744750977,-2.1383700370788574,-0.0,1.5244331359863281,5.55783091762618,-0.0,0.2733592987060547,-1.5455153624164026,0.0,-0.023772962391376495,1.0197908878326416,0.0,-0.005419083870947361,0.754732072353363,0.0,-0.03985434025526047
996.0,965.0,-0.4977,-0.3709,9.4564,-0.031,0.0177,-0.1239,-1.881907125512594,0.0,2.7968740463256836,-2.138345241546631,-0.0,1.4790054559707642,5.557862686901846,-0.0,0.28063756227493286,-1.545462433491842,0.0,-0.013284265995025635,1.0198348760604858,0.0,0.003446163609623909,0.7547081112861633,0.0,0.013584903441369534
996.0,965.0,-0.4977,-0.3709,9.4564,-0.031,0.0177,-0.1239,-1.8818751774229945,0.0,2.7627315521240234,-2.1383824348449707,-0.0,1.4946277141571045,5.55789070108489,-0.0,0.2810951769351959,-1.545490566884176,0.0,-0.005573743022978306,1.0197594165802002,0.0,0.00010746129555627704,0.7547241449356079,0.0,0.026013411581516266
996.0,965.0,-0.4977,-0.3709,9.4564,-0.031,0.0177,-0.1239,-1.8819271526732386,0.0,2.7667369842529297,-2.138345241546631,-0.0,1.5001013278961182,5.55787883976058,-0.0,0.27447134256362915,-1.545483414326803,0.0,-0.011043590493500233,1.019779920578003,0.0,0.011216878890991211,0.7547323703765869,0.0,-0.0002996581606566906
950.0,971.0,-0.5396,-0.3643,9.4887,-0.0383,0.0283,-0.1156,-1.8818909130492152,0.0,2.847565174102783,-2.1383535861968994,-0.0,1.4896769523620605,5.557862627297201,-0.0,0.2958967089653015,-1.5454748312579554,0.0,-0.024072611704468727,1.0198309421539307,0.0,0.007542356848716736,0.7547200322151184,0.0,-0.040292978286743164
950.0,971.0,-0.5396,-0.3643,9.4887,-0.0383,0.0283,-0.1156,-1.881895204583639,0.0,2.827463388442993,-2.138357639312744,-0.0,1.4876277446746826,5.557854640274801,-0.0,0.27345389127731323,-1.5455072561847132,0.0,-0.011249123141169548,1.019735336303711,0.0,-0.004920329432934523,0.7547443509101868,0.0,0.00506066158413887
950.0,971.0,-0.5396,-0.3643,9.4887,-0.0383,0.0283,-0.1156,-1.8819390736021937,0.0,2.7701663970947266,-2.1383657455444336,-0.0,1.5352301597595215,5.5578147051628015,-0.0,0.2783961296081543,-1.545490566884176,0.0,-0.009697254747152328,1.0197389125823975,0.0,0.008898011408746243,0.7547241449356079,0.0,0.022317932918667793
950.0,971.0,-0.5396,-0.3643,9.4887,-0.0383,0.0283,-0.1156,-1.8818589649596156,0.0,2.8181753158569336,-2.138357639312744,-0.0,1.4666334390640259,5.5578269241149805,-0.0,0.2817980647087097,-1.5454710165606897,0.0,-0.008073645643889904,1.0197553634643555,0.0,0.015148445032536983,0.7547241449356079,0.0,-0.00964001752436161
950.0,971.0,-0.5396,-0.3643,9.4887,-0.0383,0.0283,-0.1156,-1.8818589649596156,0.0,2.7800769805908203,-2.138361692428589,-0.0,1.4630296230316162,5.55788670757369,-0.0,0.28008246421813965,-1.5454710165606897,0.0,-0.003133130259811878,1.0197875499725342,0.0,-0.006478073541074991,0.7547281980514526,0.0,0.0016456812154501677
950.0,971.0,-0.5396,-0.3643,9.4887,-0.0383,0.0283,-0.1156,-1.8818546734251917,0.0,2.7485287189483643,-2.1383659839630127,-0.0,1.4799787998199463,5.557854699879446,-0.0,0.27430498600006104,-1.5455110708819788,0.0,-0.00435821246355772,1.019775629043579,0.0,-0.0016759628197178245,0.7547320127487183,0.0,0.012307211756706238
950.0,971.0,-0.5396,-0.3643,9.4887,-0.0383,0.0283,-0.1156,-1.881907125512594,0.0,2.7667856216430664,-2.138282060623169,-0.0,1.4402083158493042,5.55787085273818,-0.0,0.28447800874710083,-1.5454791227923792,0.0,-0.018360842019319534,1.0197949409484863,0.0,-0.00020415592007339,0.7547200322151184,0.0,-0.014639063738286495
950.0,971.0,-0.5396,-0.3643,9.4887,-0.0383,0.0283,-0.1156,-1.8818875751891078,0.0,2.822561740875244,-2.138374090194702,-0.0,1.4779906272888184,5.5578186986740015,-0.0,0.28330084681510925,-1.5454424063311976,0.0,-0.004642548505216837,1.019750952720642,0.0,0.017540063709020615,0.7547523379325867,0.0,0.0047934213653206825
950.0,971.0,-0.5396,-0.3643,9.4887,-0.0383,0.0283,-0.1156,-1.8818994961180628,0.0,2.79905366897583,-2.1383824348449707,-0.0,1.5333244800567627,5.55787883976058,-0.0,0.2836100459098816,-1.5454748312579554,0.0,-0.011529957875609398,1.0197715759277344,0.0,-0.01889548823237419,0.7547724843025208,0.0,0.03222036361694336
950.0,971.0,-0.5396,-0.3643,9.4887,-0.0383,0.0283,-0.1156,-1.8819028339781703,0.0,2.783034563064575,-2.138402223587036,-0.0,1.4478697776794434,5.557866918831625,-0.0,0.274036705493927,-1.5454466978656214,0.0,-0.010550018399953842,1.0198112726211548,0.0,0.009630181826651096,0.7547204494476318,0.0,0.02167063020169735
950.0,971.0,-0.5396,-0.3643,9.4887,-0.0383,0.0283,-0.1156,-1.8818708858885707,0.0,2.804123878479004,-2.1383657455444336,-0.0,1.4739844799041748,5.557862627297201,-0.0,0.270633727312088,-1.5454872290240687,0.0,-0.005944164469838142,1.0198112726211548,0.0,0.0001067181583493948,0.7547323703765869,0.0,-0.023535948246717453
1008.0,967.0,-0.5115,-0.4223,9.6251,-0.0394,0.0234,-0.1135,-1.8818994961180628,0.0,2.8013477325439453,-2.138402223587036,-0.0,1.4543039798736572,5.557874905854025,-0.0,0.2929433584213257,-1.5454347769366663,0.0,-0.02373836189508438,1.019783616065979,0.0,-0.008523735217750072,0.7547523379325867,0.0,-0.015541726723313332
1008.0,967.0,-0.5115,-0.4223,9.6251,-0.0394,0.0234,-0.1135,-1.8819190464415492,0.0,2.836196184158325,-2.138394832611084,-0.0,1.4828163385391235,5.557842778950491,-0.0,0.28663140535354614,-1.5454748312579554,0.0,-0.005690685007721186,1.0198394060134888,0.0,0.017804358154535294,0.754740297794342,0.0,-0.019677501171827316
1008.0,967.0,-0.5115,-0.4223,9.6251,-0.0394,0.0234,-0.1135,-1.88187899212026,0.0,2.810387134552002,-2.1383297443389893,-0.0,1.443123459815979,5.557850706368246,-0.0,0.2886683940887451,-1.5454791227923792,0.0,-0.015574784949421883,1.019775629043579,0.0,-0.0026456713676452637,0.7547563910484314,0.0,0.03526093810796738
1008.0,967.0,-0.5115,-0.4223,9.6251,-0.0394,0.0234,-0.1135,-1.8819433651366175,0.0,2.809499979019165,-2.1383297443389893,-0.0,1.4357175827026367,5.557858693390646,-0.0,0.2924492359161377,-1.5454304854022425,0.0,0.0006549803074449301,1.019783616065979,0.0,-0.013089632615447044,0.7546998858451843,0.0,-0.01921028271317482
1008.0,967.0,-0.5115,-0.4223,9.6251,-0.0394,0.0234,-0.1135,-1.881895204583639,0.0,2.7890946865081787,-2.138378381729126,-0.0,1.502225637435913,5.55787085273818,-0.0,0.300700306892395,-1.5454266707049769,0.0,-0.011069124564528465,1.0197389125823975,0.0,-0.0009638841729611158,0.7547523379325867,0.0,0.004431571811437607
1008.0,967.0,-0.5115,-0.4223,9.6251,-0.0394,0.0234,-0.1135,-1.881923337975973,0.0,2.8180150985717773,-2.138345241546631,-0.0,1.470356822013855,5.557834851532736,-0.0,0.2841038703918457,-1.5454872290240687,0.0,-0.015927547588944435,1.0197590589523315,0.0,-0.0001283611636608839,0.7547081708908081,0.0,-0.0075997039675712585
1008.0,967.0,-0.5115,-0.4223,9.6251,-0.0394,0.0234,-0.1135,-1.8819109402098597,0.0,2.79958438873291,-2.138406276702881,-0.0,1.4812912940979004,5.557862627297201,-0.0,0.2685945928096771,-1.5454948584186,0.0,-0.010111173614859581,1.019722819328308,0.0,-0.0020206733606755733,0.7547323703765869,0.0,-0.01868843473494053
1008.0,967.0,-0.5115,-0.4223,9.6251,-0.0394,0.0234,-0.1135,-1.881895204583639,0.0,2.781308174133301,-2.138333797454834,-0.0,1.467963695526123,5.55788670757369,-0.0,0.2770439088344574,-1.5455029646502894,0.0,-0.011983409523963928,1.0198112726211548,0.0,-0.01747477799654007,0.7546957731246948,0.0,3.204960376024246e-05
1008.0,967.0,-0.5115,-0.4223,9.6251,-0.0394,0.0234,-0.1135,-1.88187899212026,0.0,2.78403902053833,-2.138357639312744,-0.0,1.4899113178253174,5.557902741223135,-0.0,0.2878425121307373,-1.545483414326803,0.0,-0.005333010572940111,1.019826889038086,0.0,-4.409113898873329e-06,0.7546918392181396,0.0,0.027182362973690033
1008.0,967.0,-0.5115,-0.4223,9.6251,-0.0394,0.0234,-0.1135,-1.881895204583639,0.0,2.8063502311706543,-2.138406276702881,-0.0,1.5054181814193726,5.55787085273818,-0.0,0.27711838483810425,-1.5454304854022425,0.0,-0.011070331558585167,1.0198112726211548,0.0,0.01125680934637785,0.7547040581703186,0.0,0.0131760835647583
979.0,989.0,-0.5904,-0.3936,9.7161,-0.0412,0.0208,-0.1165,-1.881907125512594,0.0,2.7904839515686035,-2.1384103298187256,-0.0,1.4323866367340088,5.55788670757369,-0.0,0.2771815061569214,-1.5454791227923792,0.0,-0.0020821269135922194,1.019779920578003,0.0,0.007076430134475231,0.7547361850738525,0.0,-0.010192596353590488
979.0,989.0,-0.5904,-0.3936,9.7161,-0.0412,0.0208,-0.1165,-1.8818708858885707,0.0,2.78240966796875,-2.1383700370788574,-0.0,1.4683310985565186,5.557862686901846,-0.0,0.27754518389701843,-1.545483414326803,0.0,-0.015671120956540108,1.0198112726211548,0.0,-0.004136647563427687,0.7547159194946289,0.0,0.032091643661260605
979.0,989.0,-0.5904,-0.3936,9.7161,-0.0412,0.0208,-0.1165,-1.8818990192809046,0.0,2.7848997116088867,-2.1383907794952393,-0.0,1.4433685541152954,5.557866918831625,-0.0,0.29467085003852844,-1.5454791227923792,0.0,-0.027496233582496643,1.0197715759277344,0.0,-0.0024487425107508898,0.7546998858451843,0.0,-0.004672309383749962
979.0,989.0,-0.5904,-0.3936,9.7161,-0.0412,0.0208,-0.1165,-1.8819190464415492,0.0,2.8074898719787598,-2.138389825820923,-0.0,1.5012986660003662,5.557866918831625,-0.0,0.2871129512786865,-1.545450512562887,0.0,-0.011287203989923,1.019806981086731,0.0,-0.004165918566286564,0.7547485828399658,0.0,0.0118235033005476
979.0,989.0,-0.5904,-0.3936,9.7161,-0.0412,0.0208,-0.1165,-1.881923337975973,0.0,2.7572855949401855,-2.138338088989258,-0.0,1.5029652118682861,5.55787085273818,-0.0,0.28098830580711365,-1.5454948584186,0.0,-0.0017996975220739841,1.019775629043579,0.0,0.01345764473080635,0.754740297794342,0.0,0.040987107902765274
979.0,989.0,-0.5904,-0.3936,9.7161,-0.0412,0.0208,-0.1165,-1.8818909130492152,0.0,2.826455593109131,-2.1383657455444336,-0.0,1.4376885890960693,5.557858693390646,-0.0,0.28558075428009033,-1.545483414326803,0.0,-0.008652430959045887,1.019791603088379,0.0,-0.01043193880468607,0.7547163963317871,0.0,0.012773746624588966
979.0,989.0,-0.5904,-0.3936,9.7161,-0.0412,0.0208,-0.1165,-1.8818465671935023,0.0,2.8214964866638184,-2.1383864879608154,-0.0,1.4769248962402344,5.557902622013845,-0.0,0.2849216163158417,-1.5454424063311976,0.0,-0.01904042437672615,1.01985502243042,0.0,0.009447169490158558,0.7546958923339844,0.0,-0.06040692701935768
979.0,989.0,-0.5904,-0.3936,9.7161,-0.0412,0.0208,-0.1165,-1.8818990192809046,0.0,2.7343688011169434,-2.1383700370788574,-0.0,1.5184111595153809,5.557854640274801,-0.0,0.28079739212989807,-1.5455353895770472,0.0,-0.007560772821307182,1.0197713375091553,0.0,-0.0021689115092158318,0.754732072353363,0.0,-0.05327270179986954
979.0,989.0,-0.5904,-0.3936,9.7161,-0.0412,0.0208,-0.1165,-1.8818665943541468,0.0,2.769484758377075,-2.1383421421051025,-0.0,1.4608548879623413,5.5578428385551355,-0.0,0.2839130461215973,-1.5454710165606897,0.0,-0.0037716133520007133,1.0197798013687134,0.0,0.006904921028763056,0.7547200322151184,0.0,0.00386823620647192
979.0,989.0,-0.5904,-0.3936,9.7161,-0.0412,0.0208,-0.1165,-1.8818994961180628,0.0,2.76235032081604,-2.1384103298187256,-0.0,1.51155686378479,5.55787085273818,-0.0,0.2763533592224121,-1.5454424063311976,0.0,-0.022649534046649933,1.019791603088379,0.0,0.0018527787178754807,0.7547282576560974,0.0,0.013225399889051914
976.0,970.0,-0.5312,-0.393,9.5264,-0.0254,0.0171,-0.115,-1.8819195232787074,0.0,2.787630796432495,-2.1383659839630127,-0.0,1.4970378875732422,5.55787085273818,-0.0,0.2885105013847351,-1.5454586187945765,0.0,-0.006765919737517834,1.0198112726211548,0.0,0.0013066569808870554,0.7546998858451843,0.0,-0.019562160596251488
976.0,970.0,-0.5312,-0.393,9.5264,-0.0254,0.0171,-0.115,-1.8818632564940394,0.0,2.7795944213867188,-2.1383216381073,-0.0,1.4846144914627075,5.557850646763601,-0.0,0.29396432638168335,-1.5454948584186,0.0,-0.030592329800128937,1.0198473930358887,0.0,-0.0007349187508225441,0.7547526359558105,0.0,-0.032384760677814484
976.0,970.0,-0.5312,-0.393,9.5264,-0.0254,0.0171,-0.115,-1.8819152317442835,0.0,2.8003382682800293,-2.1384053230285645,-0.0,1.4951220750808716,5.557890760689535,-0.0,0.2852579951286316,-1.5454948584186,0.0,-0.013274392113089561,1.0198112726211548,0.0,-0.0012458466226235032,0.7547282576560974,0.0,0.02089497447013855
976.0,970.0,-0.5312,-0.393,9.5264,-0.0254,0.0171,-0.115,-1.8818909130492152,9.227446064186129e-12,2.7891035079956055,-2.1383090019226074,-0.0,1.4745275974273682,5.557866620808401,-0.0,0.2831780016422272,-1.545483414326803,0.0,-0.00819081999361515,1.0197676420211792,0.0,0.00279490789398551,0.7547000646591187,0.0,0.015627065673470497
976.0,970.0,-0.5312,-0.393,9.5264,-0.0254,0.0171,-0.115,-1.8818994961180628,4.010897008280196e-21,2.8439037799835205,-2.1383979320526123,-0.0,1.4988274574279785,5.557850706368246,-0.0,0.2868656814098358,-1.5454466978656214,0.0,-0.013019108213484287,1.0197393894195557,0.0,-0.004426281899213791,0.7547364830970764,0.0,0.00260523846372962
976.0,970.0,-0.5312,-0.393,9.5264,-0.0254,0.0171,-0.115,-1.8819028339781703,1.299479822481483e-28,2.7785308361053467,-2.1383657455444336,-0.0,1.4802889823913574,5.557842719345846,-0.0,0.2698216438293457,-1.5454986731158655,0.0,-0.025477087125182152,1.019806981086731,0.0,-0.002917155157774687,0.754756510257721,0.0,-0.07361980527639389
976.0,970.0,-0.5312,-0.393,9.5264,-0.0254,0.0171,-0.115,-1.8818994961180628,5.648454182970518e-38,2.782275676727295,-2.1383979320526123,-0.0,1.5272910594940186,5.55788283327178,-0.0,0.2799091041088104,-1.545490566884176,0.0,-0.01534336432814598,1.0198149681091309,0.0,0.013403994031250477,0.7547605633735657,0.0,0.011316858232021332
976.0,970.0,-0.5312,-0.393,9.5264,-0.0254,0.0171,-0.115,-1.8818751774229945,1.401298464324817e-45,2.8090476989746094,-2.138409376144409,-0.0,1.4576466083526611,5.5579025624092,-0.0,0.2807648181915283,-1.5454872290240687,0.0,-0.005761126987636089,1.019775629043579,0.0,-0.013671409338712692,0.754772424697876,0.0,0.0137715432792902
976.0,970.0,-0.5312,-0.393,9.5264,-0.0254,0.0171,-0.115,-1.881883283654684,0.0,2.795159339904785,-2.138357639312744,-0.0,1.5038564205169678,5.55788670757369,-0.0,0.28223320841789246,-1.5454748312579554,0.0,-0.015523364767432213,1.0197429656982422,0.0,0.0001940278452821076,0.7547118067741394,0.0,-0.03908864036202431
976.0,970.0,-0.5312,-0.393,9.5264,-0.0254,0.0171,-0.115,-1.8819195232787074,0.0,2.7800402641296387,-2.1383907794952393,-0.0,1.5147448778152466,5.557854699879446,-0.0,0.2729673683643341,-1.5454824606524866,0.0,-0.015727359801530838,1.019806981086731,0.0,-0.012289858423173428,0.7547724843025208,0.0,-0.029301971197128296
964.0,988.0,-0.9129,0.0526,9.862,-0.0124,0.005,-0.15,-1.881911417047018,0.0,2.785398006439209,-2.1383824348449707,-0.0,1.4408375024795532,5.55787085273818,-0.0,0.27391722798347473,-1.5454748312579554,0.0,-0.001927265664562583,1.0197949409484863,0.0,0.000726259546354413,0.754740297794342,0.0,-0.010269287042319775
964.0,988.0,-0.9129,0.0526,9.862,-0.0124,0.005,-0.15,-1.8818427524962367,4.4782020268030465e-05,2.793457508087158,-2.1383659839630127,-0.0,1.4457346200942993,5.55786685922698,-0.0,0.26175814867019653,-1.5454862753497522,0.0,-0.006713460199534893,1.019775629043579,0.0,-0.007804421707987785,0.7547361850738525,0.0,0.03942234069108963
964.0,988.0,-0.9129,0.0526,9.862,-0.0124,0.005,-0.15,-1.881867071191305,4.223989526508376e-05,2.790282726287842,-2.1383421421051025,1.344608729914043e-10,1.4913411140441895,5.557854640274801,-0.0,0.27866244316101074,-1.5454824606524866,0.0,-0.021137937903404236,1.019747257232666,0.0,-0.004659220110625029,0.7547642588615417,0.0,-0.0049623544327914715
964.0,988.0,-0.9129,0.0526,9.862,-0.0124,0.005,-0.15,-1.8818632564940394,5.7922796258935705e-05,2.7874808311462402,-2.138378381729126,4.356361585261546e-18,1.4662165641784668,5.557874905854025,-0.0,0.2801870107650757,-1.545534912739889,0.0,-0.014733204618096352,1.0197958946228027,0.0,0.009529516100883484,0.7547560334205627,0.0,0.021087901666760445
964.0,988.0,-0.9129,0.0526,9.862,-0.0124,0.005,-0.15,-1.881883283654684,6.972101982682943e-05,2.807701826095581,-2.138293504714966,1.8935808694833412e-27,1.4926936626434326,5.557906615525045,-0.0,0.28321972489356995,-1.5454500357257288,0.0,-0.014740039594471455,1.0197389125823975,0.0,0.003156154416501522,0.7547523379325867,0.0,0.008011903613805771
964.0,988.0,-0.9129,0.0526,9.862,-0.0124,0.005,-0.15,-1.881883283654684,6.47322740405798e-05,2.7992804050445557,-2.13839054107666,6.134961266182915e-35,1.474097728729248,5.55789070108489,-0.0,0.28226083517074585,-1.5454824606524866,0.0,-0.011221238411962986,1.019775629043579,0.0,-0.012429559603333473,0.7547519207000732,0.0,0.012197557836771011
964.0,988.0,-0.9129,0.0526,9.862,-0.0124,0.005,-0.15,-1.881883283654684,6.0388872952898964e-05,2.8057644367218018,-2.1383585929870605,1.9870412224125906e-42,1.4544241428375244,5.557862925320425,-0.0,0.2773098945617676,-1.545462433491842,0.0,-0.01017431914806366,1.019798994064331,0.0,0.0052633811719715595,0.7547279596328735,0.0,-0.01953252963721752
964.0,988.0,-0.9129,0.0526,9.862,-0.0124,0.005,-0.15,-1.8818427524962367,5.571589645114727e-05,2.7585535049438477,-2.1383700370788574,0.00012472004164010286,1.5440301895141602,5.557850706368246,-0.0,0.2738296091556549,-1.5454781691180628,0.0,-0.017892437055706978,1.0197961330413818,0.0,0.004754201974719763,0.7547118663787842,0.0,0.0258721224963665
964.0,988.0,-0.9129,0.0526,9.862,-0.0124,0.005,-0.15,-1.88187899212026,5.246783257462084e-05,2.7718396186828613,-2.1383535861968994,0.00016054758452810347,1.4643452167510986,5.55787883976058,-0.0,0.281074583530426,-1.545483414326803,0.0,-0.01067404169589281,1.0197349786758423,0.0,-0.006452830974012613,0.754740297794342,0.0,-0.031548112630844116
964.0,988.0,-0.9129,0.0526,9.862,-0.0124,0.005,-0.15,-1.8818875751891078,4.890410855296068e-05,2.791470766067505,-2.138350248336792,0.0001623926655156538,1.467797040939331,5.557854640274801,-0.0,0.28092774748802185,-1.5455072561847132,0.0,-0.004710752982646227,1.0198272466659546,0.0,0.012904784642159939,0.754764199256897,4.148189691477455e-05,-0.04940803349018097
969.0,8190.0,-0.3368,-0.3374,9.3984,-0.0356,0.0272,-0.1254,-1.8818994961180628,4.63838005089201e-05,2.7921957969665527,-2.1383256912231445,0.00033166466164402664,1.494078516960144,5.557830858021536,-0.0,0.2845863699913025,-1.5454791227923792,0.0,-0.01430115569382906,1.0197949409484863,0.0,-0.007536523975431919,0.7547441124916077,5.696996231563389e-05,0.038385841995477676
969.0,8190.0,-0.3368,-0.3374,9.3984,-0.0356,0.0272,-0.1254,-1.8818994961180628,4.4110485760029405e-05,2.8004651069641113,-2.138361692428589,0.0004150563618168235,1.4722739458084106,5.557834791928091,-0.0,0.2738361954689026,-1.545466725026266,0.0,-0.011816657148301601,1.0197999477386475,0.0,0.0156672652810812,0.7547564506530762,-7.816842844476923e-05,0.033313531428575516
969.0,8190.0,-0.3368,-0.3374,9.3984,-0.0356,0.0272,-0.1254,-1.8819033108153285,4.156413342570886e-05,2.768381118774414,-2.138298511505127,0.0006412499933503568,1.4526610374450684,5.557834851532736,-0.0,0.27863484621047974,-1.5454986731158655,0.0,-0.013592416420578957,1.0197513103485107,0.0,-0.005662909708917141,0.7547159194946289,-5.541211066883989e-05,-0.00236217537894845
969.0,8190.0,-0.3368,-0.3374,9.3984,-0.0356,0.0272,-0.1254,-1.8818513355650843,4.964603067492135e-05,2.803499221801758,-2.1382861137390137,0.0008396735065616667,1.4915962219238281,5.557858693390646,-0.0,0.2682356536388397,-1.5454586187945765,0.0,-0.015943404287099838,1.0198630094528198,0.0,-0.005386026110500097,0.7547601461410522,-4.446106686373241e-05,0.023512735962867737
969.0,8190.0,-0.3368,-0.3374,9.3984,-0.0356,0.0272,-0.1254,-1.8818513355650843,2.157965510929047e-14,2.8355822563171387,-2.1383180618286133,0.0011797333136200905,1.4811973571777344,5.557870614319601,-0.0,0.27249833941459656,-1.5454948584186,0.0,-0.005982208997011185,1.019731044769287,0.0,-0.008037771098315716,0.7547523379325867,-5.6083979284695176e-14,-0.029582668095827103
969.0,8190.0,-0.3368,-0.3374,9.3984,-0.0356,0.0272,-0.1254,-1.8818994961180628,6.991533091535102e-22,2.80499005317688,-2.1382498741149902,0.0029427211266011,1.4295520782470703,5.5578147051628015,-0.0,0.27957260608673096,-1.545490566884176,0.0,0.0009607316460460424,1.0197312831878662,0.0,-0.012958116829395294,0.7547601461410522,-1.8170494358503013e-21,0.005922251380980015
969.0,8190.0,-0.3368,-0.3374,9.3984,-0.0356,0.0272,-0.1254,-1.8819314442076625,2.2651677586899107e-29,2.7741665840148926,-2.138218641281128,0.006201137322932482,1.482942819595337,5.557874905854025,-0.0,0.2828522324562073,-1.5454748312579554,0.0,-0.01828542724251747,1.0197999477386475,0.0,-0.004564458504319191,0.7547197341918945,-5.887008116601692e-29,0.027452124282717705
969.0,8190.0,-0.3368,-0.3374,9.3984,-0.0356,0.0272,-0.1254,-1.8819033108153285,9.846012063510214e-39,2.7859907150268555,-2.13820219039917,0.007082207594066858,1.4716198444366455,5.557866620808401,-0.0,0.29109594225883484,-1.5455105940448206,0.0,-0.012746645137667656,1.019758939743042,0.0,0.0011188349453732371,0.7547683119773865,-2.558907482327541e-38,-0.004463476594537497
969.0,8190.0,-0.3368,-0.3374,9.3984,-0.0356,0.0272,-0.1254,-1.8818713627257289,6.824500451330096e-05,2.780548572540283,-2.1381025314331055,0.008388717658817768,1.4232584238052368,5.557862686901846,-0.0,0.29299747943878174,-1.5455072561847132,0.0,-0.010860764421522617,1.0197714567184448,0.0,-0.013506297022104263,0.7547601461410522,-1.401298464324817e-45,-0.09184505045413971
969.0,8190.0,-0.3368,-0.3374,9.3984,-0.0356,0.0272,-0.1254,-1.881871839562887,0.0007598176598548889,2.797060966491699,-2.137998104095459,0.007656296715140343,1.4610023498535156,5.5578428385551355,-0.0,0.2812582850456238,-1.5454543272601526,0.0,-0.018880316987633705,1.0197715759277344,0.0,-0.007055229507386684,0.7547922730445862,0.0,0.02361120469868183
969.0,8190.0,-0.3368,-0.3374,9.3984,-0.0356,0.0272,-0.1254,-1.88185515026235,0.0006570275290869176,2.815079927444458,-2.1379265785217285,0.007764526642858982,1.5133986473083496,5.557850646763601,-0.0,0.28358155488967896,-1.5455072561847132,0.0,-0.020840207114815712,1.019798994064331,0.0,-0.0025254813954234123,0.7547762989997864,0.0,0.020531490445137024
967.0,8190.0,-0.6688,-0.4122,9.7328,-0.0345,0.0373,-0.1113,-1.8818432293333949,0.0004815227002836764,2.795279026031494,-2.1378707885742188,0.00875464640557766,1.492810845375061,5.557822870999136,-0.0,0.28744402527809143,-1.545490566884176,0.0,-0.017163347452878952,1.0197867155075073,0.0,0.000751418003346771,0.7547601461410522,0.0,0.02414296567440033
967.0,8190.0,-0.6688,-0.4122,9.7328,-0.0345,0.0373,-0.1113,-1.8818756542601527,0.0003608423285186291,2.7816035747528076,-2.137782573699951,0.008869476616382599,1.5585194826126099,5.557866620808401,-0.0,0.2830149531364441,-1.5454872290240687,0.0,-0.007845274172723293,1.0198270082473755,0.0,-0.006704672239720821,0.7548004984855652,0.0,-0.011340036988258362
967.0,8190.0,-0.6688,-0.4122,9.7328,-0.0345,0.0373,-0.1113,-1.8818956814207972,0.00030058238189667463,2.798215866088867,-2.137730836868286,0.009821646846830845,1.5362577438354492,5.557858693390646,-0.0,0.2801545262336731,-1.5454753080951136,0.0,-0.014048580080270767,1.0198432207107544,0.0,0.003562750294804573,0.754812479019165,0.0,-0.015927240252494812
967.0,8190.0,-0.6688,-0.4122,9.7328,-0.0345,0.0373,-0.1113,-1.8818637333311976,0.0002575678227003664,2.826019287109375,-2.1376757621765137,0.011025793850421906,1.51060950756073,5.557850646763601,-0.0,0.28552064299583435,-1.545450512562887,0.0,-0.011939987540245056,1.019791603088379,0.0,-0.0063606249168515205,0.7547803521156311,0.0,-0.005136957857757807
967.0,8190.0,-0.6688,-0.4122,9.7328,-0.0345,0.0373,-0.1113,-1.8818956814207972,0.00021848724281881005,2.8017022609710693,-2.1375112533569336,0.013310233131051064,1.5646076202392578,5.55783091762618,-0.0,0.2723219096660614,-1.5454347769366663,0.0,-0.010941975750029087,1.0198149681091309,0.0,-0.006456480361521244,0.7547601461410522,0.0,-0.050650227814912796
967.0,8190.0,-0.6688,-0.4122,9.7328,-0.0345,0.0373,-0.1113,-1.8819033108153285,0.00017334170115645975,2.770651340484619,-2.1373867988586426,0.017362071201205254,1.6100056171417236,5.557838785439291,-0.0,0.2701200842857361,-1.5454548040973108,0.0,-0.008606953546404839,1.01984703540802,0.0,-0.004104816820472479,0.7547280192375183,0.0,-0.05129098892211914
967.0,8190.0,-0.6688,-0.4122,9.7328,-0.0345,0.0373,-0.1113,-1.8818708858885707,5.335402238415554e-05,2.795623302459717,-2.1371991634368896,0.02490021474659443,1.643904447555542,5.557850765972891,-2.389394904156461e-09,0.27903103828430176,-1.5454142729388636,0.0,-0.0033419609535485506,1.0197349786758423,0.0,0.008785334415733814,0.7548084855079651,0.0,-0.024961967021226883
967.0,8190.0,-0.6688,-0.4122,9.7328,-0.0345,0.0373,-0.1113,-1.881883283654684,4.443712896318175e-05,2.7517433166503906,-2.136931896209717,0.03151651471853256,1.6099666357040405,5.55783902385787,-0.0009533429401926696,0.24740052223205566,-1.5454309622394007,0.0,-0.008235367015004158,1.0197755098342896,0.0,0.014601439237594604,0.754784107208252,0.0,-0.06323868036270142
967.0,8190.0,-0.6688,-0.4122,9.7328,-0.0345,0.0373,-0.1113,-1.881935258904928,2.0221677914378233e-05,2.7530369758605957,-2.1366159915924072,0.04272513836622238,1.7002050876617432,5.557762789517202,-0.002227716613560915,0.24933889508247375,-1.5454748312579554,0.0,0.001196225406602025,1.019818902015686,0.0,0.004617734812200069,0.7547920346260071,0.0005388393183238804,-0.10887010395526886
967.0,8190.0,-0.6688,-0.4122,9.7328,-0.0345,0.0373,-0.1113,-1.88187899212026,7.504288396199474e-14,2.770533323287964,-2.1361165046691895,0.06255519390106201,1.7224485874176025,5.557822751789846,-0.002544437302276492,0.24479427933692932,-1.5454548040973108,0.0001840035547502339,0.007979383692145348,1.0197795629501343,0.0,0.009285110048949718,0.7548079490661621,0.001084822230041027,-0.04791257157921791
992.0,8190.0,-0.6855,-0.539,9.9882,-0.0405,0.0516,-0.1144,-1.8819028339781703,2.431294250517538e-21,2.748055934906006,-2.1355178356170654,0.08381087332963943,1.7581514120101929,5.557771134167471,-0.0059563214890658855,0.2481483519077301,-1.5454304854022425,0.00020349489932414144,0.010585124604403973,1.019838809967041,0.0,0.01633061096072197,0.7548157572746277,0.0013100962387397885,-0.07170037925243378
992.0,8190.0,-0.6855,-0.539,9.9882,-0.0405,0.0516,-0.1144,-1.881878515283102,1.0568113630276738e-30,2.73303484916687,-2.134582996368408,0.10901088267564774,1.7803125381469727,5.557614552765646,-0.014902264811098576,0.24022147059440613,-1.5454347769366663,0.00016596326895523816,0.016178254038095474,1.0198390483856201,0.0,-0.005331269931048155,0.7548478841781616,0.0015741881215944886,-0.10652978718280792
992.0,8190.0,-0.6855,-0.539,9.9882,-0.0405,0.0516,-0.1144,-1.881906648675436,3.423934629549108e-38,2.7642087936401367,-2.133563995361328,0.13306070864200592,1.7868380546569824,5.55756704786376,-0.013956649228930473,0.24674594402313232,-1.545438591633932,0.00014462503895629197,0.010234401561319828,1.0198272466659546,0.0,0.003409554483368993,0.7548800706863403,0.0018671678844839334,-0.07921171188354492
992.0,8190.0,-0.6855,-0.539,9.9882,-0.0405,0.0516,-0.1144,-1.881906648675436,1.401298464324817e-45,2.742924690246582,-2.1324045658111572,0.1509660929441452,1.7954107522964478,5.557410347252645,-0.01113798562437296,0.24275848269462585,-1.5454748312579554,0.00012814890942536294,0.010426629334688187,1.0197190046310425,0.0,0.010821647010743618,0.75490403175354,0.001591464621014893,-0.057203128933906555
992.0,8190.0,-0.6855,-0.539,9.9882,-0.0405,0.0516,-0.1144,-1.8819309673705042,0.0,2.720010280609131,-2.1308066844940186,0.17126840353012085,1.8032324314117432,5.557338464051046,-0.004994553979486227,0.23888835310935974,-1.5454872290240687,0.00011217543215025216,0.009773774072527885,1.0197875499725342,0.0,0.006278993096202612,0.7548962235450745,0.0013564842520281672,-0.058541007339954376
992.0,8190.0,-0.6855,-0.539,9.9882,-0.0405,0.0516,-0.1144,-1.881895204583639,0.0,2.7764151096343994,-2.129344940185547,0.19533264636993408,1.8837887048721313,5.5573545573051355,-0.0016792172100394964,0.24030014872550964,-1.545483414326803,0.00010200390534009784,0.003807698143646121,1.0198272466659546,0.0,-0.003286951221525669,0.7548999190330505,0.000786258140578866,-0.08642551302909851
992.0,8190.0,-0.6855,-0.539,9.9882,-0.0405,0.0516,-0.1144,-1.881907125512594,0.0,2.7911171913146973,-2.1276516914367676,0.21823833882808685,1.9238213300704956,5.5573105094726465,-0.000879127939697355,0.2284269779920578,-1.5454548040973108,9.352385677630082e-05,-0.003375070169568062,1.0197672843933105,0.0,0.0011062362464144826,0.7548841834068298,-6.509348895633593e-05,-0.10790976881980896
992.0,8190.0,-0.6855,-0.539,9.9882,-0.0405,0.0516,-0.1144,-1.8819190464415492,0.0,2.779320240020752,-2.1253020763397217,0.2384725958108902,1.9231207370758057,5.557322490006246,-0.0017492102924734354,0.2454773187637329,-1.545466725026266,8.471992623526603e-05,0.018084518611431122,1.019798994064331,0.0,0.0020499201491475105,0.7549081444740295,-0.0002848257718142122,-0.08063926547765732
992.0,8190.0,-0.6855,-0.539,9.9882,-0.0405,0.0516,-0.1144,-1.8819190464415492,0.0,2.7210536003112793,-2.123305320739746,0.26179614663124084,1.9236106872558594,5.5572465536888025,-0.0016681448323652148,0.23770368099212646,-1.5454915205584925,7.878663745941594e-05,0.02181297354400158,1.0197999477386475,0.0,-0.01490978803485632,0.7548602223396301,-0.00045649317326024175,-0.0685594379901886
992.0,8190.0,-0.6855,-0.539,9.9882,-0.0405,0.0516,-0.1144,-1.8819190464415492,0.0,2.754530906677246,-2.120573043823242,0.2786519229412079,1.9567588567733765,5.557242500572958,-0.0039624376222491264,0.2511594891548157,-1.5454066435443323,7.244473090395331e-05,0.017996937036514282,1.019791603088379,0.0,0.009966614656150341,0.7548602223396301,-0.0013337486889213324,-0.07371649146080017
973.0,968.0,-0.7286,-0.3846,10.2383,0.0279,0.2708,-0.1228,-1.881923337975973,0.0,2.7497100830078125,-2.1181797981262207,0.29896268248558044,1.9966026544570923,5.557234632759847,-0.002779873553663492,0.22459742426872253,-1.545450512562887,7.816925790393725e-05,0.022865917533636093,1.0197875499725342,0.0,-0.007425599731504917,0.7548120021820068,-0.0005496774683706462,-0.09695936739444733
973.0,968.0,-0.7286,-0.3846,10.2383,0.0279,0.2708,-0.1228,-1.8818627796568812,0.0,2.7216920852661133,-2.115704298019409,0.32230091094970703,1.95883309841156,5.557154524117269,-0.0019050706177949905,0.230447918176651,-1.5454228560077112,7.701475260546431e-05,0.017804928123950958,1.019783616065979,0.0,0.00021248699340503663,0.7548404335975647,-0.00025578474742360413,-0.07030396908521652
973.0,968.0,-0.7286,-0.3846,10.2383,0.0279,0.2708,-0.1228,-1.881907125512594,0.0,2.786102771759033,-2.112441301345825,0.34527331590652466,2.0612597465515137,5.557134735375204,-0.007166947238147259,0.2310374677181244,-1.5454066435443323,7.188845484051853e-05,0.011114262044429779,1.0197676420211792,0.0,-0.0023825671523809433,0.7548120021820068,-0.0001735529804136604,-0.06816544383764267
973.0,968.0,-0.7286,-0.3846,10.2383,0.0279,0.2708,-0.1228,-1.8819476566710414,0.0,2.746671676635742,-2.109556198120117,0.3652874827384949,2.0289242267608643,5.55707066038207,-0.01120373047888279,0.2298932820558548,-1.5454548040973108,6.825389573350549e-05,0.024749740958213806,1.0197274684906006,0.0,0.012711485847830772,0.7548722624778748,0.00022068966063670814,-0.08095653355121613
973.0,968.0,-0.7286,-0.3846,10.2383,0.0279,0.2708,-0.1228,-1.8819595775999964,-0.00012248395069036633,2.805048942565918,-2.105769157409668,0.38877204060554504,2.085296630859375,5.55685834863738,-0.01875276118516922,0.21993862092494965,-1.5454147497760218,6.41968144918792e-05,0.022955093532800674,1.019758939743042,0.0,0.007998080924153328,0.75490403175354,0.0013256293023005128,-0.02154654636979103
973.0,968.0,-0.7286,-0.3846,10.2383,0.0279,0.2708,-0.1228,-1.8819471798338832,-0.0010961767984554172,2.75897216796875,-2.1026182174682617,0.4148435592651367,2.1884102821350098,5.556669342308798,-0.01952926628291607,0.2258215695619583,-1.5454748312579554,7.149600423872471e-05,0.02998754009604454,1.0197632312774658,0.0,0.007281678728759289,0.7549645900726318,0.001406799303367734,-0.059707093983888626
973.0,968.0,-0.7286,-0.3846,10.2383,0.0279,0.2708,-0.1228,-1.8819347820677699,-0.0008546182652935386,2.795534610748291,-2.099210500717163,0.4308496117591858,2.1039648056030273,5.556538331299581,-0.01897013746201992,0.22353555262088776,-1.5454791227923792,1.15993225335842e-06,0.03841187059879303,1.0197991132736206,0.0,0.0016656476072967052,0.7549682259559631,0.0016456287121400237,-0.07910263538360596
973.0,968.0,-0.7286,-0.3846,10.2383,0.0279,0.2708,-0.1228,-1.8820272884764613,-0.0026705130003392696,2.793349266052246,-2.0947976112365723,0.44816046953201294,2.152463674545288,5.556370007782736,-0.012794852256774902,0.21251443028450012,-1.5454428831683558,1.3764515785844034e-12,0.03104693442583084,1.0198040008544922,0.0,0.0014750321861356497,0.7549679279327393,0.0015225528040900826,-0.09629030525684357
973.0,968.0,-0.7286,-0.3846,10.2383,0.0279,0.2708,-0.1228,-1.8820229969420375,-0.0029608600307255983,2.7609925270080566,-2.091017723083496,0.4692130386829376,2.2234435081481934,5.55633025148467,-0.003730249358341098,0.22361408174037933,-1.5454066435443323,2.5016332275573835e-17,0.024547411128878593,1.0197234153747559,0.0,-0.009844811633229256,0.7549679279327393,0.0018894331296905875,-0.06047388166189194
973.0,968.0,-0.7286,-0.3846,10.2383,0.0279,0.2708,-0.1228,-1.882054945031637,-0.0015765854623168707,2.8231122493743896,-2.086089849472046,0.48313647508621216,2.2472753524780273,5.556322085648336,-0.00045437365770339966,0.22076639533042908,-1.5454266707049769,2.9686019154824506e-23,0.005602065473794937,1.0198432207107544,-0.0002919828984886408,-0.00042102165753021836,0.7549880743026733,0.0016128162387758493,-0.1280480921268463
993.0,1005.0,-0.6455,-0.2489,10.06,0.0675,0.4389,-0.1029,-1.8820749721922816,-0.0014698097947984934,2.7999215126037598,-2.082261800765991,0.4962599277496338,2.2129054069519043,5.556326019554891,-0.00029668587376363575,0.2219664603471756,-1.5454266707049769,5.395286664696792e-28,0.02866317331790924,1.0197548866271973,-0.0002796986373141408,-0.003917695954442024,0.7549476027488708,0.0021099825389683247,-0.17777395248413086
993.0,1005.0,-0.6455,-0.2489,10.06,0.0675,0.4389,-0.1029,-1.8820706806578578,-0.0007839169120416045,2.7828726768493652,-2.0783097743988037,0.514189600944519,2.225330352783203,5.556314158230581,-0.00025739509146660566,0.22510257363319397,-1.5454228560077112,9.80566677666037e-33,0.021025147289037704,1.019735336303711,-0.00026972367777489126,-0.014662979170680046,0.7550199627876282,0.00299079529941082,-0.07444179058074951
993.0,1005.0,-0.6455,-0.2489,10.06,0.0675,0.4389,-0.1029,-1.8820911846556605,-0.0006777092348784208,2.8410582542419434,-2.0731399059295654,0.5208860635757446,2.239488363265991,5.556302118092336,-0.00028392657986842096,0.21107882261276245,-1.5454109350787562,1.1636044734823379e-38,0.02099216729402542,1.0197234153747559,-0.0002590332296676934,-0.022062383592128754,0.7550563812255859,0.002138789976015687,-0.09093917161226273
993.0,1005.0,-0.6455,-0.2489,10.06,0.0675,0.4389,-0.1029,-1.8821307621397914,-0.001732668373733759,2.8176379203796387,-2.0689480304718018,0.5370741486549377,2.255364179611206,5.556298243790426,-0.0006163583602756262,0.2144383192062378,-1.5454066435443323,2.1159606811304738e-43,0.019618980586528778,1.0197274684906006,-0.0002732595312409103,-0.009961766190826893,0.7550963163375854,0.001655623666010797,-0.09138596802949905
993.0,1005.0,-0.6455,-0.2489,10.06,0.0675,0.4389,-0.1029,-1.8821188412108363,-0.0016609638696536422,2.8326187133789062,-2.0646228790283203,0.5448144674301147,2.2726635932922363,5.556302296906271,-0.0005357810296118259,0.21901823580265045,-1.5454672018634241,0.0,0.02716701477766037,1.0196995735168457,-0.00026571640046313405,-0.018575496971607208,0.7550276517868042,0.0013293829979375005,-0.08485758304595947
993.0,1005.0,-0.6455,-0.2489,10.06,0.0675,0.4389,-0.1029,-1.882195611993307,-0.0026263450272381306,2.854945421218872,-2.0590574741363525,0.5476875901222229,2.237600326538086,5.556274044304647,-0.0004960966762155294,0.22638574242591858,-1.5454109350787562,0.0,0.02036803588271141,1.0197234153747559,-0.00026612021611072123,-0.025073373690247536,0.7551361918449402,0.0015872983494773507,-0.11277902126312256
993.0,1005.0,-0.6455,-0.2489,10.06,0.0675,0.4389,-0.1029,-1.8821631870665492,-0.0011242118198424578,2.8933143615722656,-2.0546185970306396,0.5529866218566895,2.28698468208313,5.5562981245811365,-0.0003774254582822323,0.22885827720165253,-1.5454109350787562,0.0,0.026591386646032333,1.0197714567184448,-0.0002706392260733992,-0.024200517684221268,0.7551604509353638,0.0020999093540012836,-0.08548002690076828
993.0,1005.0,-0.6455,-0.2489,10.06,0.0675,0.4389,-0.1029,-1.882195611993307,-0.000499392335768789,2.8602941036224365,-2.049069881439209,0.5636829733848572,2.2273993492126465,5.556258129864492,-0.00014701728650834411,0.21539297699928284,-1.5454428831683558,0.0,0.027233971282839775,1.0196795463562012,-0.00025906661176122725,-0.02107492834329605,0.7551883459091187,0.002688207197934389,-0.13541598618030548
993.0,1005.0,-0.6455,-0.2489,10.06,0.0675,0.4389,-0.1029,-1.882183691064352,-0.0003458175924606621,2.879312515258789,-2.0446224212646484,0.5674629211425781,2.2857818603515625,5.556250202446737,-0.00016398989828303456,0.2134629487991333,-1.5454629103290003,0.0,0.037475068122148514,1.0197234153747559,-0.000224342176807113,-0.013007109053432941,0.7551639676094055,0.002949001267552376,-0.09787070751190186
993.0,1005.0,-0.6455,-0.2489,10.06,0.0675,0.4389,-0.1029,-1.8821588955321253,-0.0002644965425133705,2.864372730255127,-2.040072202682495,0.5743659734725952,2.282975196838379,5.556306051998892,-0.00013253239740151912,0.21675878763198853,-1.5454471747027796,0.0,0.02231782115995884,1.0196794271469116,-0.00022441937471739948,-0.012269318103790283,0.7552040815353394,0.0031342729926109314,-0.0898946076631546
977.0,1029.0,-1.3603,-0.0514,9.658,0.1138,0.5687,-0.0927,-1.8821670017638148,-0.00024529770598746836,2.9137725830078125,-2.034386396408081,0.5770172476768494,2.300065040588379,5.556290256768026,2.157315215356448e-08,0.22965018451213837,-1.545471493397848,0.0,0.031224742531776428,1.0196709632873535,-0.0001986512215808034,-0.030644580721855164,0.755256175994873,0.004425977822393179,-0.02078658901154995
977.0,1029.0,-1.3603,-0.0514,9.658,0.1138,0.5687,-0.0927,-1.8821631870665492,-0.00019834027625620365,2.8551506996154785,-2.029730796813965,0.5689719915390015,2.311782121658325,5.556270170002737,3.920813868886486e-13,0.21730121970176697,-1.5454471747027796,0.0,0.02386763133108616,1.0197114944458008,-0.00017241424939129502,-0.029195811599493027,0.7552314400672913,0.0048126946203410625,-0.06359881162643433
977.0,1029.0,-1.3603,-0.0514,9.658,0.1138,0.5687,-0.0927,-1.8821588955321253,-0.00021750450832769275,2.9369025230407715,-2.0240070819854736,0.5754519701004028,2.292752981185913,5.556270170002737,4.652693973227416e-19,0.24029621481895447,-1.5454428831683558,0.0,0.023377209901809692,1.0197676420211792,-0.0001446918467991054,-0.012853245250880718,0.7553198933601379,0.004750364925712347,-0.04906267300248146
977.0,1029.0,-1.3603,-0.0514,9.658,0.1138,0.5687,-0.0927,-1.882190843621725,-0.00018905571778304875,2.915027618408203,-2.019381284713745,0.5784212350845337,2.342982530593872,5.5562742231185815,8.456041434501023e-24,0.22940602898597717,-1.5454023520099085,0.0,0.035745374858379364,1.0197674036026,-0.00012820139818359166,-0.025679340586066246,0.7553844451904297,0.005295872688293457,-0.08159783482551575
977.0,1029.0,-1.3603,-0.0514,9.658,0.1138,0.5687,-0.0927,-1.8821631870665492,-0.00013333032256923616,2.9248270988464355,-2.0148165225982666,0.5839478969573975,2.2791590690612793,5.556246089726248,1.5368439473724045e-28,0.23038968443870544,-1.5454428831683558,0.0,0.026225317269563675,1.019735336303711,-0.000138101662741974,-0.021265143528580666,0.7553759217262268,0.006164119578897953,-0.08144327998161316
977.0,1029.0,-1.3603,-0.0514,9.658,0.1138,0.5687,-0.0927,-1.8821951351561488,-0.00017779713380150497,2.9761054515838623,-2.00893235206604,0.586128830909729,2.3177242279052734,5.5562981245811365,1.8237194478451658e-34,0.2246585190296173,-1.5454471747027796,0.0,0.00143910339102149,1.0197232961654663,-0.00012244436948094517,-0.021563971415162086,0.755496084690094,0.006756470538675785,-0.08970122039318085
977.0,1029.0,-1.3603,-0.0514,9.658,0.1138,0.5687,-0.0927,-1.882242818871969,-0.0011059457901865244,2.9699630737304688,-2.0042715072631836,0.5885748267173767,2.3116626739501953,5.556294011860647,3.3145206849352406e-39,0.23881034553050995,-1.5454748312579554,0.0,0.021841986104846,1.019707441329956,-0.00011226203059777617,-0.02577284164726734,0.7555119395256042,0.00860481709241867,-0.03975045308470726
977.0,1029.0,-1.3603,-0.0514,9.658,0.1138,0.5687,-0.0927,-1.882287164727682,-0.004201179835945368,2.9062960147857666,-1.9995548725128174,0.578497052192688,2.255983352661133,5.5562458513076685,-0.0005065174191258848,0.2297990620136261,-1.5454710165606897,0.0,0.01900610700249672,1.0197155475616455,-0.00010364301851950586,-0.03072844259440899,0.755595862865448,0.010412482544779778,-0.01429479755461216
977.0,1029.0,-1.3603,-0.0514,9.658,0.1138,0.5687,-0.0927,-1.8823071918883265,-0.003968851175159216,2.9260623455047607,-1.9936267137527466,0.578154444694519,2.321648597717285,5.556222009449758,-0.0007277359836734831,0.22719325125217438,-1.5454266707049769,0.0,0.012026621028780937,1.0197393894195557,-9.456756379222497e-05,-0.012041374109685421,0.7557283043861389,0.012646814808249474,-0.055128008127212524
977.0,1029.0,-1.3603,-0.0514,9.658,0.1138,0.5687,-0.0927,-1.8822952709593714,-0.001421009306795895,2.975095272064209,-1.9890016317367554,0.5791799426078796,2.3151979446411133,5.556209909706869,-0.0004414485301822424,0.2332429587841034,-1.5454266707049769,0.0,0.003522608894854784,1.0197274684906006,-8.837657514959574e-05,-0.01423843763768673,0.755848228931427,0.014503080397844315,-0.030073700472712517
977.0,1029.0,-1.3603,-0.0514,9.658,0.1138,0.5687,-0.0927,-1.8822747669615687,-0.0002179471484851092,2.959996461868286,-1.9832322597503662,0.5802995562553406,2.3417890071868896,5.556270646839895,-0.0003248649009037763,0.2246219962835312,-1.5454590956317347,0.0,0.015453269705176353,1.019707441329956,-8.169175998773426e-05,-0.005714895203709602,0.75599205493927,0.01681588590145111,-0.019831812009215355
869.0,609.0,-1.8132,-0.4086,9.2632,0.0985,0.597,-0.0791,-1.8823067150511683,-0.00029689486837014556,2.972886085510254,-1.9787362813949585,0.5761286020278931,2.2845957279205322,5.556210088520803,-0.0003276867500972003,0.2213362753391266,-1.5454309622394007,0.0,0.024693667888641357,1.019771695137024,-7.70303959143348e-05,-0.017677724361419678,0.7561725974082947,0.017248008400201797,-0.010890908539295197
869.0,609.0,-1.8132,-0.4086,9.2632,0.0985,0.597,-0.0791,-1.882322450677389,-0.0017259088344871998,3.0184059143066406,-1.9741425514221191,0.5764512419700623,2.3208298683166504,5.556198167591848,-0.0003103263443335891,0.2280304729938507,-1.5454109350787562,0.0,0.007845775224268436,1.0197114944458008,-7.287229527719319e-05,-0.01566917449235916,0.7562838792800903,0.01984417624771595,-0.07439775764942169
869.0,609.0,-1.8132,-0.4086,9.2632,0.0985,0.597,-0.0791,-1.8823710880675257,-0.0032566881272941828,2.9783577919006348,-1.9684638977050781,0.5630562901496887,2.322314500808716,5.556210088520803,-0.0014923947164788842,0.2309107482433319,-1.5454304854022425,0.0,0.027762647718191147,1.0197393894195557,-6.82661120663397e-05,-0.0033723467495292425,0.7565162777900696,0.021638993173837662,-0.05074379965662956
869.0,609.0,-1.8132,-0.4086,9.2632,0.0985,0.597,-0.0791,-1.8824311695494593,-0.003077480709180236,2.9880151748657227,-1.963861346244812,0.5611553192138672,2.3175220489501953,5.556245910912313,-0.001372557133436203,0.21904823184013367,-1.5453985373126429,0.0,0.013875989243388176,1.0197713375091553,-5.451302058645524e-05,-0.02620677463710308,0.7566718459129333,0.021619927138090134,-0.0032838359475135803
869.0,609.0,-1.8132,-0.4086,9.2632,0.0985,0.597,-0.0791,-1.8823706112303675,-0.0010347425704821944,3.00815486907959,-1.9582706689834595,0.5576100945472717,2.402974843978882,5.556190180569448,-0.0007018772885203362,0.2389744222164154,-1.5454509894000452,0.0,0.006912181619554758,1.019695520401001,-5.107702236273326e-05,-0.0032229942735284567,0.7569320797920227,0.022257748991250992,-0.047828614711761475
869.0,609.0,-1.8132,-0.4086,9.2632,0.0985,0.597,-0.0791,-1.8823586903014125,-0.0006242592353373766,3.015777111053467,-1.9538804292678833,0.5585243105888367,2.3155040740966797,5.556190180569448,-0.0003568293177522719,0.2319502830505371,-1.5454109350787562,0.0,0.005623245611786842,1.0196908712387085,-8.286518209388305e-07,-0.014176147058606148,0.7571077942848206,0.023467861115932465,0.005292760208249092
869.0,609.0,-1.8132,-0.4086,9.2632,0.0985,0.597,-0.0791,-1.8823701343932093,-0.0004470192361623049,3.037282943725586,-1.949453353881836,0.5529481768608093,2.329249620437622,5.556162166386404,-0.0004180828691460192,0.2300022840499878,-1.5454266707049769,0.0,0.0200203787535429,1.0197274684906006,-1.5060336658323514e-11,-0.0067293765023350716,0.7572519183158875,0.02301265299320221,-0.006072811782360077
869.0,609.0,-1.8132,-0.4086,9.2632,0.0985,0.597,-0.0791,-1.8823987446227015,-0.0004112863971386105,3.070857048034668,-1.9438912868499756,0.5548256039619446,2.3640925884246826,5.556174087315359,-0.0013613381888717413,0.21590809524059296,-1.5454352537738245,0.0,0.019248049706220627,1.0197193622589111,-1.7871581241342985e-17,-0.020056774839758873,0.7575276494026184,0.024442654103040695,-0.045455578714609146
869.0,609.0,-1.8132,-0.4086,9.2632,0.0985,0.597,-0.0791,-1.8824268780150355,-0.0023280575405806303,3.046849250793457,-1.9395169019699097,0.5500287413597107,2.4008798599243164,5.556154238968649,-0.003480952000245452,0.21753577888011932,-1.545455280934469,0.0,0.011662725359201431,1.0197553634643555,-3.248072047028333e-22,0.00799984484910965,0.7577398419380188,0.02572719193994999,-0.0044089993461966515
869.0,609.0,-1.8132,-0.4086,9.2632,0.0985,0.597,-0.0791,-1.8824464283385218,-0.0043602874502539635,2.963486671447754,-1.9339061975479126,0.5435764789581299,2.344005584716797,5.556105839997091,-0.005035915412008762,0.20636385679244995,-1.5454352537738245,0.0,0.012789827771484852,1.019683599472046,-3.8543744310581123e-28,-0.010044384747743607,0.7580156922340393,0.027077946811914444,-0.02184666506946087
419.0,363.0,-2.2624,-0.0054,9.7537,0.0933,0.564,-0.0719,-1.882519384423727,-0.002705181483179331,3.04306697845459,-1.9295235872268677,0.5449002981185913,2.37376070022583,5.556081998139181,-0.0035633775405585766,0.20734187960624695,-1.5454629103290003,5.280169634858112e-10,0.008288290351629257,1.019758939743042,-7.005135239798766e-33,0.005019367206841707,0.7582437992095947,0.0300739873200655,-0.06228974461555481
419.0,363.0,-2.2624,-0.0054,9.7537,0.0933,0.564,-0.0719,-1.8824745617308558,-0.0011882694670930505,3.022041082382202,-1.9251962900161743,0.544108510017395,2.3770337104797363,5.556081998139181,-0.002247848315164447,0.221285879611969,-1.5454185644732874,9.596448764489281e-15,0.01784290373325348,1.0197880268096924,-1.2731489350351725e-37,0.006960939150303602,0.7584631443023682,0.033760346472263336,-0.035308949649333954
419.0,363.0,-2.2624,-0.0054,9.7537,0.0933,0.564,-0.0719,-1.8825026951231898,-0.0007276906981132925,3.0329651832580566,-1.919883370399475,0.5432875156402588,2.418102264404297,5.556026088982382,-0.0017947677988559008,0.2106066793203354,-1.5454710165606897,1.1387771259210524e-20,0.016471417620778084,1.0197713375091553,-1.5134023414708024e-43,0.00029105087742209435,0.7588955760002136,0.03731966391205788,0.006188179366290569
419.0,363.0,-2.2624,-0.0054,9.7537,0.0933,0.564,-0.0719,-1.8825837574400843,-0.0037819829303771257,3.026876926422119,-1.9155635833740234,0.5420051217079163,2.4169363975524902,5.555989730149069,-0.0035152919590473175,0.20710249245166779,-1.545455280934469,2.069671001636918e-25,0.03160195052623749,1.0197389125823975,-0.0,-0.008850024081766605,0.7592279314994812,0.03863024339079857,-0.03203095495700836
419.0,363.0,-2.2624,-0.0054,9.7537,0.0933,0.564,-0.0719,-1.8826195202269496,-0.005288404878228903,3.010500431060791,-1.9112917184829712,0.541010856628418,2.437892436981201,5.5559900281722925,-0.003224005224183202,0.20154693722724915,-1.5454190413104456,3.761524746586096e-30,0.03634880483150482,1.019747257232666,-0.0,0.016153737902641296,0.7594751119613647,0.03996696695685387,-0.02890871837735176
419.0,363.0,-2.2624,-0.0054,9.7537,0.0933,0.564,-0.0719,-1.8826428852477015,-0.007557537406682968,2.999393939971924,-1.9058600664138794,0.5278300046920776,2.4224913120269775,5.555930006295004,-0.005450344178825617,0.2092227041721344,-1.5454233328448694,4.463671106674893e-36,0.03102932870388031,1.0197672843933105,-0.0,-0.004055820405483246,0.7598831653594971,0.04131792113184929,-0.05335622280836105
419.0,363.0,-2.2624,-0.0054,9.7537,0.0933,0.564,-0.0719,-1.8827063045897425,-0.008614408783614635,3.04180908203125,-1.9016172885894775,0.5269748568534851,2.450798988342285,5.555942046433248,-0.0033058547414839268,0.20730537176132202,-1.5454233328448694,8.112537199515663e-41,0.024478856474161148,1.0197513103485107,-0.0,-0.007475995924323797,0.76027512550354,0.04520633444190025,-0.0016217753291130066
419.0,363.0,-2.2624,-0.0054,9.7537,0.0933,0.564,-0.0719,-1.8827868900694789,-0.007298721000552177,3.027369976043701,-1.8962411880493164,0.5242782831192017,2.4363152980804443,5.555913913040914,-0.0011936002410948277,0.21572032570838928,-1.5454190413104456,0.0,0.029922138899564743,1.0197672843933105,-0.0,0.010414425283670425,0.7607471346855164,0.05075302720069885,-0.01060901116579771
419.0,363.0,-2.2624,-0.0054,9.7537,0.0933,0.564,-0.0719,-1.8828431568541468,-0.005803864914923906,3.0163121223449707,-1.8921029567718506,0.5244522094726562,2.4209847450256348,5.55589787939147,-0.00071693368954584,0.19205859303474426,-1.5454023520099085,0.0,0.024510880932211876,1.0197553634643555,-0.0,0.0018015308305621147,0.7611749172210693,0.053914934396743774,0.011245675384998322
419.0,363.0,-2.2624,-0.0054,9.7537,0.0933,0.564,-0.0719,-1.8828827343382777,-0.005635021720081568,3.0636043548583984,-1.8879873752593994,0.5181728601455688,2.449411630630493,5.555937993317404,-0.0004082190862391144,0.18838447332382202,-1.5454390684710901,0.0,0.030906151980161667,1.019779920578003,-0.0,0.0057592266239225864,0.761667013168335,0.055816639214754105,-0.02124124951660633
324.0,347.0,-2.8385,0.055,8.7811,0.0933,0.5305,-0.0516,-1.8829504452147425,-0.010267485864460468,3.0468027591705322,-1.8829458951950073,0.5133437514305115,2.378974676132202,5.555905806809225,-0.0004079048230778426,0.21136987209320068,-1.5454023520099085,0.0,0.01835033856332302,1.0197672843933105,-0.0,-0.004093100316822529,0.7622347474098206,0.056876588612794876,-0.0397653765976429
324.0,347.0,-2.8385,0.055,8.7811,0.0933,0.5305,-0.0516,-1.8830467663206996,-0.013591601513326168,3.053657054901123,-1.8788909912109375,0.5151848793029785,2.512073040008545,5.555946099549093,-0.00039642874617129564,0.1970609724521637,-1.5454233328448694,0.0,0.031085960566997528,1.0197393894195557,-0.0,0.003547180909663439,0.7627272605895996,0.05578883737325668,0.0063619003631174564
324.0,347.0,-2.8385,0.055,8.7811,0.0933,0.5305,-0.0516,-1.8831707439818324,-0.01847062073647976,3.0646605491638184,-1.873724341392517,0.5051955580711365,2.443512201309204,5.55589388588027,-0.0004406292282510549,0.20439665019512177,-1.5453746954547327,0.0,0.035187505185604095,1.019775629043579,-4.042478849441977e-06,-0.01977328211069107,0.7632509469985962,0.05327164754271507,-0.0218932144343853
324.0,347.0,-2.8385,0.055,8.7811,0.0933,0.5305,-0.0516,-1.8833629093565882,-0.02049371972680092,3.034430503845215,-1.8696287870407104,0.5030045509338379,2.4924755096435547,5.555946039944448,-0.0003541354963090271,0.2049066126346588,-1.5453899542437952,0.0,0.03695942088961601,1.0197229385375977,-7.347005642754922e-11,-0.001311969943344593,0.7637115716934204,0.054922159761190414,-0.01556297205388546
324.0,347.0,-2.8385,0.055,8.7811,0.0933,0.5305,-0.0516,-1.8834663830199183,-0.021280618384480476,3.042632579803467,-1.8656189441680908,0.49935898184776306,2.470963954925537,5.555937993317404,-0.0002959039993584156,0.20127978920936584,-1.5454509894000452,0.0,0.02297966741025448,1.0197309255599976,-1.335282008051229e-15,0.01141353603452444,0.7641801834106445,0.05954265594482422,0.041105967015028
324.0,347.0,-2.8385,0.055,8.7811,0.0933,0.5305,-0.0516,-1.8837181530394496,-0.022701404988765717,3.093503952026367,-1.86069917678833,0.49606573581695557,2.4593350887298584,5.5559260723884485,-0.00024545678752474487,0.20752035081386566,-1.5454066435443323,0.0,0.012433068826794624,1.0198153257369995,-1.584533024824319e-21,0.009346266277134418,0.7647603750228882,0.06082400679588318,0.021379906684160233
324.0,347.0,-2.8385,0.055,8.7811,0.0933,0.5305,-0.0516,-1.8839384518065394,-0.02665334939956665,3.0814194679260254,-1.8567559719085693,0.4887169897556305,2.4439773559570312,5.55587403753356,-0.00021599902538582683,0.1894729882478714,-1.5454023520099085,0.0,0.01980626955628395,1.019775629043579,-2.879810690219168e-26,0.0010837395675480366,0.7653293013572693,0.06323707848787308,0.03564751148223877
324.0,347.0,-2.8385,0.055,8.7811,0.0933,0.5305,-0.0516,-1.8842059574522914,-0.03205818682909012,3.0340843200683594,-1.852957844734192,0.4890439510345459,2.504533052444458,5.555921900063314,-0.00016233805217780173,0.1975029557943344,-1.5454266707049769,0.0,0.03677055239677429,1.0197513103485107,-5.233913047318732e-31,0.010018358007073402,0.7657729387283325,0.07227623462677002,0.019116971641778946
324.0,347.0,-2.8385,0.055,8.7811,0.0933,0.5305,-0.0516,-1.8845178089537562,-0.033292606472969055,3.061098098754883,-1.8481639623641968,0.4809054732322693,2.4686083793640137,5.555917906552114,-0.00013752764789387584,0.2094484269618988,-1.5454023520099085,0.0,0.004837759770452976,1.019798994064331,-6.210902315906742e-37,0.02294539473950863,0.766638457775116,0.08586843311786652,0.048130206763744354
324.0,347.0,-2.8385,0.055,8.7811,0.0933,0.5305,-0.0516,-1.8848463497557582,-0.033212099224328995,3.0610995292663574,-1.844270944595337,0.46519699692726135,2.41226863861084,5.555934119015493,-0.0001699039275990799,0.1978560984134674,-1.5453746954547327,0.0,0.03274936228990555,1.0197839736938477,-1.1287459130136402e-41,0.005242693237960339,0.7673269510269165,0.09023706614971161,0.023100053891539574
359.0,409.0,-3.39,0.1663,8.9378,0.0501,0.4698,-0.0382,-1.8851458034911097,-0.03691030666232109,3.0058727264404297,-1.8395799398422241,0.4567956030368805,2.422476291656494,5.555882084160604,-0.0002331170835532248,0.20540237426757812,-1.5453828016864222,0.0,0.02140129916369915,1.0197429656982422,-0.0,0.006807878613471985,0.7682798504829407,0.08834956586360931,0.031396813690662384
359.0,409.0,-3.39,0.1663,8.9378,0.0501,0.4698,-0.0382,-1.8854533634581507,-0.03752703592181206,3.029317855834961,-1.8359503746032715,0.4476724863052368,2.4558377265930176,5.555898415833273,-0.0010124013060703874,0.20585399866104126,-1.5453665892230433,0.0,0.039381206035614014,1.0197229385375977,-0.0,0.010328151285648346,0.7689557671546936,0.08889546990394592,0.007988355122506618
359.0,409.0,-3.39,0.1663,8.9378,0.0501,0.4698,-0.0382,-1.8857208691039027,-0.037385616451501846,3.030045986175537,-1.832381248474121,0.44048967957496643,2.4900426864624023,5.555909800320425,-0.0011902464320883155,0.20003405213356018,-1.5454190413104456,0.0,0.031547509133815765,1.019718885421753,-0.0,-0.002075009047985077,0.7696683406829834,0.09009777754545212,0.02333197556436062
359.0,409.0,-3.39,0.1663,8.9378,0.0501,0.4698,-0.0382,-1.8861171207823695,-0.03501638025045395,3.0484402179718018,-1.828061819076538,0.43567681312561035,2.444549083709717,5.555917906552114,-0.0007569845765829086,0.20679016411304474,-1.5454066435443323,0.0,0.028305327519774437,1.019747257232666,-0.0,0.0018788876477628946,0.7705893516540527,0.09181753545999527,-0.0022320824209600687
359.0,409.0,-3.39,0.1663,8.9378,0.0501,0.4698,-0.0382,-1.8864370785155238,-0.037252750247716904,3.0393500328063965,-1.8246879577636719,0.4243371784687042,2.3854527473449707,5.555882084160604,-0.0005788387497887015,0.1997179090976715,-1.5454233328448694,0.0,0.020620528608560562,1.0198272466659546,-0.0,0.010113033466041088,0.771394670009613,0.09731044620275497,0.043396465480327606
359.0,409.0,-3.39,0.1663,8.9378,0.0501,0.4698,-0.0382,-1.8868171177306117,-0.04386666417121887,3.083247184753418,-1.8204222917556763,0.4174942970275879,2.4172427654266357,5.555901992111959,-0.0007319082506000996,0.1998511552810669,-1.545403305684225,0.0,0.035887930542230606,1.0197632312774658,-0.0,0.013547508046030998,0.7723708152770996,0.11140548437833786,0.04918026179075241
359.0,409.0,-3.39,0.1663,8.9378,0.0501,0.4698,-0.0382,-1.8871766529478968,-0.047771502286195755,3.058230400085449,-1.8171333074569702,0.41898512840270996,2.4115872383117676,5.555902170925894,-0.0005545216845348477,0.16814538836479187,-1.5454023520099085,0.0,0.03455979377031326,1.0197553634643555,-0.0,0.01170840673148632,0.7732596397399902,0.11697041988372803,0.06626322865486145
359.0,409.0,-3.39,0.1663,8.9378,0.0501,0.4698,-0.0382,-1.8875638447203578,-0.05342095345258713,3.054326057434082,-1.8138433694839478,0.40471169352531433,2.36417555809021,5.55584608295516,-0.00041294866241514683,0.1984328031539917,-1.5453994909869593,2.229754869631506e-08,0.04319625347852707,1.019779920578003,-0.0,0.004700631834566593,0.7741686701774597,0.11540143191814423,0.028716381639242172
359.0,409.0,-3.39,0.1663,8.9378,0.0501,0.4698,-0.0382,-1.8881885013976039,-0.06345685571432114,3.049616575241089,-1.8097184896469116,0.40135201811790466,2.415060043334961,5.555918025761404,-0.00033508986234664917,0.19090156257152557,-1.545427147542135,2.645972701467887e-14,0.03749578073620796,1.0197795629501343,-0.0,0.005542335566133261,0.7752812504768372,0.10470707714557648,0.020941998809576035
359.0,409.0,-3.39,0.1663,8.9378,0.0501,0.4698,-0.0382,-1.8886877499022425,-0.07269544154405594,3.0628108978271484,-1.8065404891967773,0.3980420231819153,2.446906566619873,5.555910098343649,-0.00035483468673191965,0.19381529092788696,-1.5453951994525355,4.80892409250819e-19,0.044452689588069916,1.0197798013687134,-0.0,0.01681673526763916,0.7760655879974365,0.09943956136703491,0.01967087760567665
641.0,448.0,-3.7902,0.5486,8.5041,0.0643,0.3844,-0.0052,-1.8894592724242152,-0.07456310093402863,2.9836678504943848,-1.8025884628295898,0.38871780037879944,2.37317156791687,5.5558175323303125,-0.0011064737336710095,0.17902836203575134,-1.5454314390765589,5.70658478266613e-25,0.03911474347114563,1.0197590589523315,-0.0,0.0036812680773437023,0.7770301103591919,0.10558782517910004,0.026033304631710052
641.0,448.0,-3.7902,0.5486,8.5041,0.0643,0.3844,-0.0052,-1.8900391064085902,-0.074111208319664,3.037338972091675,-1.7994930744171143,0.387342244386673,2.4292972087860107,5.555833744793691,-0.0010793578112497926,0.1785006821155548,-1.5453670660602015,1.0371435181711845e-29,0.02793624997138977,1.0197196006774902,-0.0,0.016247950494289398,0.7778671979904175,0.10993844270706177,0.0945470780134201
641.0,448.0,-3.7902,0.5486,8.5041,0.0643,0.3844,-0.0052,-1.8906828365721644,-0.08100452274084091,3.044032573699951,-1.7965342998504639,0.37945079803466797,2.430858850479126,5.555854785233297,-0.0049001420848071575,0.17151281237602234,-1.5453632513629358,1.8849570785988673e-34,0.03393041342496872,1.0197999477386475,-0.0,0.00769965210929513,0.7787875533103943,0.11329919099807739,0.04802435263991356
641.0,448.0,-3.7902,0.5486,8.5041,0.0643,0.3844,-0.0052,-1.8915263615050257,-0.09172352403402328,3.0046541690826416,-1.7927167415618896,0.36498191952705383,2.3505663871765137,5.555733608990469,-0.013262491673231125,0.16359825432300568,-1.5453632513629358,2.236808660693846e-40,0.023879457265138626,1.019735336303711,-0.0,0.00935649685561657,0.7799610495567322,0.114080511033535,0.031778328120708466
641.0,448.0,-3.7902,0.5486,8.5041,0.0643,0.3844,-0.0052,-1.8921858272948207,-0.09136208146810532,2.9734833240509033,-1.789942979812622,0.36435583233833313,2.4184651374816895,5.555605697422781,-0.020807428285479546,0.16695047914981842,-1.5453670660602015,4.203895392974451e-45,0.02760704606771469,1.019779920578003,-0.0,0.011604784987866879,0.7809180617332458,0.10968171805143356,0.0008002505637705326
641.0,448.0,-3.7902,0.5486,8.5041,0.0643,0.3844,-0.0052,-1.8928967914977015,-0.08961189538240433,3.0607776641845703,-1.787048101425171,0.35872435569763184,2.400601863861084,5.555438148766317,-0.034386616200208664,0.1573164463043213,-1.5454228560077112,0.0,0.043261732906103134,1.0197190046310425,-0.0,-0.0004713842645287514,0.7816980481147766,0.10760589689016342,0.035533539950847626
641.0,448.0,-3.7902,0.5486,8.5041,0.0643,0.3844,-0.0052,-1.893804212609762,-0.09428298473358154,3.003938674926758,-1.7835787534713745,0.34523123502731323,2.3521130084991455,5.554909455567159,-0.07624446600675583,0.14880099892616272,-1.5453866163836878,0.0,0.03837507963180542,1.019735336303711,-0.0,-0.0048883226700127125,0.7827949523925781,0.11378072947263718,0.010012062266469002
641.0,448.0,-3.7902,0.5486,8.5041,0.0643,0.3844,-0.0052,-1.8946119747557582,-0.10111057013273239,3.039303779602051,-1.7807270288467407,0.34285709261894226,2.3955984115600586,5.554062950402059,-0.11327140778303146,0.11600631475448608,-1.5453746954547327,0.0,0.029622651636600494,1.0197352170944214,-0.0,-0.011279059574007988,0.7836915850639343,0.11472787708044052,-0.013374453410506248
641.0,448.0,-3.7902,0.5486,8.5041,0.0643,0.3844,-0.0052,-1.895515581170553,-0.0984402447938919,3.0625810623168945,-1.7773594856262207,0.3314097225666046,2.3620169162750244,5.5528947589691064,-0.11970767378807068,0.11784468591213226,-1.5453951994525355,0.0,0.033084847033023834,1.0197513103485107,-0.0,-0.007077910006046295,0.7849007248878479,0.12194149941205978,0.01613050140440464
641.0,448.0,-3.7902,0.5486,8.5041,0.0643,0.3844,-0.0052,-1.896310945550436,-0.09797905385494232,3.0665502548217773,-1.774742603302002,0.3265705704689026,2.3895559310913086,5.5520070669944666,-0.10433277487754822,0.1287725865840912,-1.5453546682940882,0.0,0.0265917107462883,1.0197151899337769,-0.0,0.0035059936344623566,0.7858412861824036,0.1207922026515007,0.05268966406583786
641.0,448.0,-3.7902,0.5486,8.5041,0.0643,0.3844,-0.0052,-1.8971749744811,-0.10538701713085175,3.040153741836548,-1.7721649408340454,0.3210641145706177,2.366191864013672,5.551138329296865,-0.11515330523252487,0.11822780966758728,-1.5454075972186487,0.0,0.042792774736881256,1.0197389125823975,-0.0,-0.012601185590028763,0.7868624925613403,0.12141206115484238,0.037324972450733185
596.0,576.0,-4.413,0.0861,9.1005,-0.0811,0.1355,0.0279,-1.898266931573385,-0.11330955475568771,3.0123016834259033,-1.7689093351364136,0.31820935010910034,2.3203721046447754,5.549873578339376,-0.13277146220207214,0.11119846999645233,-1.5453670660602015,0.0,0.03254319727420807,1.0197795629501343,-0.0,0.0051611666567623615,0.7880352139472961,0.11850262433290482,-0.03758765012025833
596.0,576.0,-4.413,0.0861,9.1005,-0.0811,0.1355,0.0279,-1.8991662464537562,-0.11385678499937057,3.050680160522461,-1.7664560079574585,0.3188725709915161,2.3692145347595215,5.548804986267843,-0.11446034908294678,0.11031460016965866,-1.5453103224383753,0.0,0.0394996777176857,1.019792079925537,-0.0,0.004637892358005047,0.7890120148658752,0.11378934234380722,0.046934012323617935
596.0,576.0,-4.413,0.0861,9.1005,-0.0811,0.1355,0.0279,-1.9002844295897425,-0.10942056775093079,3.0592782497406006,-1.7633121013641357,0.311551034450531,2.3694071769714355,5.5476122973258875,-0.14057627320289612,0.11399797350168228,-1.5454075972186487,0.0,0.02426493912935257,1.0197999477386475,-0.0,0.0146030243486166,0.7901487946510315,0.11244004964828491,0.05128210783004761
596.0,576.0,-4.413,0.0861,9.1005,-0.0811,0.1355,0.0279,-1.9012600384154261,-0.12009506672620773,3.0763638019561768,-1.7608623504638672,0.31058964133262634,2.377692937850952,5.546234655171194,-0.17226530611515045,0.10356006771326065,-1.5453508535968226,0.0,0.04450146108865738,1.019800066947937,-0.0,-0.005765778943896294,0.791077733039856,0.1122848242521286,0.010611679404973984
596.0,576.0,-4.413,0.0861,9.1005,-0.0811,0.1355,0.0279,-1.9022752247252406,-0.1386890858411789,3.01617431640625,-1.758363962173462,0.30207374691963196,2.348565101623535,5.5448505757148645,-0.17660529911518097,0.0923735648393631,-1.5453713575946253,5.293973663356155e-05,0.04183836281299591,1.0197513103485107,-0.0,0.017604950815439224,0.7919903993606567,0.11370329558849335,-0.02493608370423317
596.0,576.0,-4.413,0.0861,9.1005,-0.0811,0.1355,0.0279,-1.9037190876402796,-0.14814068377017975,3.046005964279175,-1.7553634643554688,0.31056392192840576,2.3858842849731445,5.54305778720931,-0.19534839689731598,0.07476995885372162,-1.5453346411334437,5.22245500178542e-05,0.04063994437456131,1.0197672843933105,-0.0,-0.006762686651200056,0.7930628657341003,0.10983315855264664,-0.0009658659109845757
596.0,576.0,-4.413,0.0861,9.1005,-0.0811,0.1355,0.0279,-1.904961725274557,-0.14348559081554413,3.055122137069702,-1.7528903484344482,0.31007814407348633,2.2928805351257324,5.541480707913198,-0.18339353799819946,0.07695650309324265,-1.545358959828512,4.990780507796444e-05,0.03191379830241203,1.0197110176086426,-0.0,0.006208807695657015,0.793979823589325,0.09845846146345139,0.03669464588165283
596.0,576.0,-4.413,0.0861,9.1005,-0.0811,0.1355,0.0279,-1.906229158441061,-0.14298757910728455,3.031155824661255,-1.750349521636963,0.31019771099090576,2.3724546432495117,5.5399401662643335,-0.20569127798080444,0.05571217089891434,-1.5453909079181116,1.7893750925424001e-09,0.03363356739282608,1.0198081731796265,-0.0,0.00872259121388197,0.7947519421577454,0.09493699669837952,0.03472094237804413
596.0,576.0,-4.413,0.0861,9.1005,-0.0811,0.1355,0.0279,-1.907827993432516,-0.17546792328357697,3.058382034301758,-1.7472566366195679,0.2993633449077606,2.3223390579223633,5.537891733437338,-0.2012341320514679,0.08167599141597748,-1.545387093220846,2.1233896260221263e-15,0.04387016221880913,1.0198112726211548,-0.0,-0.0077099367044866085,0.7957049012184143,0.0977916345000267,0.0005088699981570244
596.0,576.0,-4.413,0.0861,9.1005,-0.0811,0.1355,0.0279,-1.9093314609923304,-0.19921047985553741,3.056694507598877,-1.7448406219482422,0.29461735486984253,2.3762459754943848,5.5362663743789575,-0.2209368348121643,0.07345981895923615,-1.545358959828512,3.859155571668745e-20,0.0432797372341156,1.0197553634643555,-0.0,0.016361694782972336,0.7964174151420593,0.09362056106328964,-0.01158825308084488
571.0,614.0,-3.0114,1.2957,9.2106,-0.049,-0.0649,-0.0409,-1.911257883111471,-0.1788671463727951,3.059119701385498,-1.7418678998947144,0.3006596267223358,2.3486835956573486,5.534101533680715,-0.219608873128891,0.07507064938545227,-1.5453756491290491,4.579526450016919e-26,0.044486403465270996,1.0197151899337769,-0.0,-0.0029964945279061794,0.797357976436615,0.09485837072134018,-0.013923834078013897
571.0,614.0,-3.0114,1.2957,9.2106,-0.049,-0.0649,-0.0409,-1.9126926861205042,-0.16885574162006378,3.093562602996826,-1.7394016981124878,0.30561545491218567,2.423478841781616,5.532215463906088,-0.22965089976787567,0.055975206196308136,-1.5454075972186487,8.32306330071471e-31,0.04177277535200119,1.0197672843933105,-0.0,0.00286534964106977,0.7981590628623962,0.09581667184829712,0.03220333904027939
571.0,614.0,-3.0114,1.2957,9.2106,-0.049,-0.0649,-0.0409,-1.9142638645567835,-0.18654800951480865,3.0890917778015137,-1.737096905708313,0.2951987683773041,2.3520092964172363,5.53038780668334,-0.22879622876644135,0.06601321697235107,-1.5453828016864222,1.5126756931074523e-35,0.02655864506959915,1.0197672843933105,-0.0,0.0021521442104130983,0.7989070415496826,0.09479760378599167,0.062149494886398315
571.0,614.0,-3.0114,1.2957,9.2106,-0.049,-0.0649,-0.0409,-1.9162990055479945,-0.22171807289123535,3.1070590019226074,-1.7341676950454712,0.28442662954330444,2.3077023029327393,5.52796636798934,-0.2375468760728836,0.06744950264692307,-1.5453828016864222,1.7950633328000907e-41,0.028157822787761688,1.019707441329956,-0.0,0.008225983008742332,0.799832284450531,0.08514691144227982,0.01666342467069626
571.0,614.0,-3.0114,1.2957,9.2106,-0.049,-0.0649,-0.0409,-1.9178930721678675,-0.21693633496761322,3.0821375846862793,-1.7318414449691772,0.2787940800189972,2.2821474075317383,5.52603309133605,-0.2607540190219879,0.07092762738466263,-1.5453713575946253,0.0,0.03118853084743023,1.0197434425354004,-0.0,0.002081246580928564,0.8004283308982849,0.07570234686136246,-0.021908128634095192
571.0,614.0,-3.0114,1.2957,9.2106,-0.049,-0.0649,-0.0409,-1.9200316868224085,-0.2066817283630371,3.061371088027954,-1.7290527820587158,0.29033324122428894,2.3660049438476562,5.523500251560964,-0.25839662551879883,0.07061237841844559,-1.5454147497760218,0.0,0.035458073019981384,1.0197429656982422,-0.0,0.0005168267525732517,0.801096498966217,0.06446491181850433,-0.012905288487672806
571.0,614.0,-3.0114,1.2957,9.2106,-0.049,-0.0649,-0.0409,-1.9217225513853968,-0.20691078901290894,3.122652769088745,-1.726811170578003,0.2864488363265991,2.301300525665283,5.521399605065145,-0.2575191557407379,0.04727250337600708,-1.545403305684225,0.0,0.03268063813447952,1.019783616065979,-0.0,-0.0048072258941829205,0.8016531467437744,0.0644945278763771,0.02028515562415123
571.0,614.0,-3.0114,1.2957,9.2106,-0.049,-0.0649,-0.0409,-1.9234897098936976,-0.2203083485364914,3.076317548751831,-1.7246254682540894,0.2887069880962372,2.317666530609131,5.51929401138381,-0.27233627438545227,0.053119271993637085,-1.5453632513629358,0.0,0.020469732582569122,1.019735336303711,-0.0,0.0003118641907349229,0.8021533489227295,0.06924832612276077,-0.010621840134263039
571.0,614.0,-3.0114,1.2957,9.2106,-0.049,-0.0649,-0.0409,-1.9256960354247035,-0.2355538159608841,3.1151413917541504,-1.721766710281372,0.2693933844566345,2.2808854579925537,5.516657817154684,-0.2699483633041382,0.060041315853595734,-1.5453828016864222,0.0,0.033011868596076965,1.0198041200637817,-0.0,-0.006023040506988764,0.8028300404548645,0.07770145684480667,-0.006156275048851967
571.0,614.0,-3.0114,1.2957,9.2106,-0.049,-0.0649,-0.0409,-1.9274746380248011,-0.23751486837863922,3.068885326385498,-1.7195507287979126,0.26901665329933167,2.3128440380096436,5.51438324430541,-0.27351537346839905,0.0579332672059536,-1.545330826436178,0.0,0.01670122891664505,1.0197548866271973,-0.0,0.015918409451842308,0.8034788370132446,0.08020221441984177,-0.027958963066339493
590.0,568.0,-3.5623,0.3715,8.7625,-0.133,-0.1723,-0.0797,-1.9297896824278773,-0.23212826251983643,3.1076438426971436,-1.7168591022491455,0.26971495151519775,2.3053555488586426,5.511610853462972,-0.285023033618927,0.05195707082748413,-1.5453670660602015,0.0,0.024738069623708725,1.0197151899337769,-0.0,0.004693537950515747,0.8042755722999573,0.0735226422548294,0.017619842663407326
590.0,568.0,-3.5623,0.3715,8.7625,-0.133,-0.1723,-0.0797,-1.9317041836180628,-0.225274458527565,3.12241268157959,-1.7147104740142822,0.2674098014831543,2.271624803543091,5.5094414232070825,-0.2781396508216858,0.05073525756597519,-1.5453508535968226,0.0,0.014511410146951675,1.019791603088379,-0.0,-3.464636392891407e-05,0.8048277497291565,0.06662943959236145,-0.008842981420457363
590.0,568.0,-3.5623,0.3715,8.7625,-0.133,-0.1723,-0.0797,-1.9335266552367152,-0.23824670910835266,3.1814870834350586,-1.7126061916351318,0.26236850023269653,2.311455726623535,5.507218348770895,-0.26161542534828186,0.07524716109037399,-1.545342747365133,0.0,0.03136393427848816,1.0197389125823975,-0.0,-0.001911626197397709,0.8053196668624878,0.06532111018896103,0.018861856311559677
590.0,568.0,-3.5623,0.3715,8.7625,-0.133,-0.1723,-0.0797,-1.936044832269186,-0.26116684079170227,3.084404945373535,-1.7100460529327393,0.2531461715698242,2.2832531929016113,5.504463004856863,-0.2773909866809845,0.06317800283432007,-1.5453785101519983,0.0,0.03464540094137192,1.0197676420211792,-0.0,0.000789427780546248,0.8059081435203552,0.05328735336661339,0.008283130824565887
590.0,568.0,-3.5623,0.3715,8.7625,-0.133,-0.1723,-0.0797,-1.9380837879576625,-0.24952571094036102,3.133115291595459,-1.7080028057098389,0.25568923354148865,2.2277560234069824,5.502354252129354,-0.2731395661830902,0.06500735878944397,-1.545358959828512,0.0,0.016801657155156136,1.0197713375091553,-0.0,0.005522859748452902,0.8062642216682434,0.042108990252017975,0.022441351786255836
590.0,568.0,-3.5623,0.3715,8.7625,-0.133,-0.1723,-0.0797,-1.9401623211302699,-0.25181815028190613,3.094424247741699,-1.7060145139694214,0.2580355405807495,2.2399682998657227,5.500157224922933,-0.25608453154563904,0.0684436559677124,-1.5453785101519983,0.0,0.021002721041440964,1.0197713375091553,-0.0,-0.0033632777631282806,0.8066208362579346,0.0370306521654129,0.016044586896896362
590.0,568.0,-3.5623,0.3715,8.7625,-0.133,-0.1723,-0.0797,-1.9428845844664515,-0.2559063732624054,3.182401180267334,-1.7034335136413574,0.2583191692829132,2.2707786560058594,5.497511255532064,-0.25701650977134705,0.07950805127620697,-1.5454066435443323,0.0,0.011718946509063244,1.0197676420211792,-0.0,-0.0031500186305493116,0.8070093393325806,0.038062989711761475,-0.03151491656899452
590.0,568.0,-3.5623,0.3715,8.7625,-0.133,-0.1723,-0.0797,-1.9449831447997035,-0.2677547037601471,3.1049752235412598,-1.7014623880386353,0.24843645095825195,2.2536067962646484,5.495541679650106,-0.2517417073249817,0.09374164044857025,-1.5453704039203089,0.0,0.005762980319559574,1.0197553634643555,-0.0,0.0012445193715393543,0.807261049747467,0.0408921092748642,-0.06525899469852448
590.0,568.0,-3.5623,0.3715,8.7625,-0.133,-0.1723,-0.0797,-1.9476219616331996,-0.2788265645503998,3.10579252243042,-1.698957920074463,0.24690307676792145,2.2251479625701904,5.493040311127462,-0.24453365802764893,0.10959941148757935,-1.5453508535968226,0.0,0.011693969368934631,1.0197434425354004,-0.0,0.0019386522471904755,0.8077219128608704,0.04510078951716423,0.00028695352375507355
590.0,568.0,-3.5623,0.3715,8.7625,-0.133,-0.1723,-0.0797,-1.949735780755514,-0.2688277065753937,3.2095017433166504,-1.697014331817627,0.24131575226783752,2.1817712783813477,5.491046297341146,-0.25631794333457947,0.09603047370910645,-1.5454075972186487,0.0,0.008762054145336151,1.0197513103485107,-0.0,-0.0038107025902718306,0.8080539703369141,0.04440401867032051,0.014999419450759888
533.0,578.0,-3.256,0.076,8.5202,-0.1688,-0.2442,-0.0973,-1.9518982372679652,-0.26486775279045105,3.182692289352417,-1.6950422525405884,0.2424921840429306,2.2367868423461914,5.489169645100393,-0.2346048802137375,0.09929659962654114,-1.545403305684225,0.0,0.003552669659256935,1.0197839736938477,-0.0,-0.0033927783370018005,0.8083617687225342,0.044489067047834396,0.04113283008337021
533.0,578.0,-3.256,0.076,8.5202,-0.1688,-0.2442,-0.0973,-1.9544435940184535,-0.2606313228607178,3.203343391418457,-1.6927019357681274,0.2444753348827362,2.1956567764282227,5.4867716310317896,-0.21764910221099854,0.11110949516296387,-1.5453746954547327,0.0,0.004025835078209639,1.0197474956512451,-0.0,0.0016688753385096788,0.8088347315788269,0.04619329422712326,0.041422221809625626
533.0,578.0,-3.256,0.076,8.5202,-0.1688,-0.2442,-0.0973,-1.9565826855101527,-0.26568716764450073,3.18135404586792,-1.6907780170440674,0.22874745726585388,2.17807674407959,5.485093462258138,-0.22653628885746002,0.11303962022066116,-1.5453756491290491,0.0,-0.0070490762591362,1.0197513103485107,-0.0,-0.0025373538956046104,0.8092391490936279,0.04721808806061745,-0.009141441434621811
533.0,578.0,-3.256,0.076,8.5202,-0.1688,-0.2442,-0.0973,-1.9591366253294886,-0.2685546875,3.2189416885375977,-1.688454270362854,0.2273610234260559,2.2002344131469727,5.482796001225271,-0.21424616873264313,0.119746133685112,-1.5453785101519983,0.0,0.00485825864598155,1.0197476148605347,-0.0,0.006809046491980553,0.809703528881073,0.045641038566827774,0.04481823742389679
533.0,578.0,-3.256,0.076,8.5202,-0.1688,-0.2442,-0.0973,-1.9612351856627406,-0.26519080996513367,3.1713900566101074,-1.68660569190979,0.22413869202136993,2.2110540866851807,5.481097745686331,-0.21704897284507751,0.12155692279338837,-1.5453828016864222,0.0,-0.011550303548574448,1.0197393894195557,-0.0,0.0013724993914365768,0.81004399061203,0.042492303997278214,0.0007809894159436226
533.0,578.0,-3.256,0.076,8.5202,-0.1688,-0.2442,-0.0973,-1.96327604869985,-0.24761919677257538,3.235928535461426,-1.6848305463790894,0.21936219930648804,2.1818947792053223,5.47951220253066,-0.18985940515995026,0.12665532529354095,-1.545387093220846,0.0,0.0004718814743682742,1.0197312831878662,-0.0,0.008751196786761284,0.8104646801948547,0.04052184894680977,0.031556516885757446
533.0,578.0,-3.256,0.076,8.5202,-0.1688,-0.2442,-0.0973,-1.9658199749388636,-0.25565850734710693,3.294473171234131,-1.6826221942901611,0.22276052832603455,2.198774814605713,5.47754995802001,-0.19080467522144318,0.12663105130195618,-1.5453909079181116,0.0,-0.014445450156927109,1.019735336303711,-0.0,0.0024696276523172855,0.8108043074607849,0.038485873490571976,0.017932148650288582
533.0,578.0,-3.256,0.076,8.5202,-0.1688,-0.2442,-0.0973,-1.9680096111693324,-0.2577803134918213,3.2706665992736816,-1.6808909177780151,0.21580369770526886,2.2069053649902344,5.4761719582374475,-0.16288745403289795,0.16920076310634613,-1.5453746954547327,0.0,0.008746511302888393,1.0196876525878906,-0.0,0.010194119065999985,0.8110721111297607,0.03341647982597351,-0.01678110472857952
533.0,578.0,-3.256,0.076,8.5202,-0.1688,-0.2442,-0.0973,-1.9701057873167933,-0.2588822841644287,3.2741751670837402,-1.679093837738037,0.2149674892425537,2.1632144451141357,5.474976825505056,-0.1514863520860672,0.14923357963562012,-1.545358959828512,0.0,-0.003241937840357423,1.0198167562484741,-0.0,0.005385072436183691,0.8112717270851135,0.02573295310139656,0.02812003158032894
533.0,578.0,-3.256,0.076,8.5202,-0.1688,-0.2442,-0.0973,-1.9727255306639613,-0.26319754123687744,3.283167839050293,-1.6769427061080933,0.21871250867843628,2.218393564224243,5.473551678448477,-0.13522394001483917,0.16175948083400726,-1.5453994909869593,0.0,0.004034414887428284,1.0197229385375977,-0.0,-0.010615029372274876,0.811512291431427,0.015982184559106827,-0.07224404811859131
533.0,578.0,-3.256,0.076,8.5202,-0.1688,-0.2442,-0.0973,-1.9748221836485804,-0.2474469095468521,3.3566486835479736,-1.67524254322052,0.21871770918369293,2.2087502479553223,5.472657429962911,-0.10384880751371384,0.18431803584098816,-1.5453746954547327,0.0,0.0018227589316666126,1.0197553634643555,-0.0,0.004105656407773495,0.8116084933280945,0.009363952092826366,0.012892126105725765
474.0,485.0,-2.4915,0.6748,8.6847,-0.0696,-0.179,-0.1,-1.977398534814352,-0.25185057520866394,3.282341957092285,-1.6730138063430786,0.21794140338897705,2.208104133605957,5.471453356533804,-0.12186263501644135,0.18880745768547058,-1.545387093220846,0.0,-0.004131964407861233,1.019747257232666,-0.0,-0.007191909477114677,0.8116763830184937,0.005402220878750086,-0.020257506519556046
474.0,485.0,-2.4915,0.6748,8.6847,-0.0696,-0.179,-0.1,-1.9793549976744593,-0.2543269097805023,3.337674617767334,-1.6713263988494873,0.21165093779563904,2.19106388092041,5.470446157246389,-0.11875273287296295,0.18362584710121155,-1.5453785101519983,0.0,-0.01348181813955307,1.0197876691818237,-0.0,0.004989337641745806,0.8117648959159851,0.002184228738769889,-0.0016473522409796715
474.0,485.0,-2.4915,0.6748,8.6847,-0.0696,-0.179,-0.1,-1.9813605747618617,-0.2484837919473648,3.3544623851776123,-1.6696629524230957,0.2034205049276352,2.20059871673584,5.46958743312911,-0.095702163875103,0.19274015724658966,-1.5453670660602015,0.0,-0.009465506300330162,1.019710898399353,-0.0,0.0069359298795461655,0.8116640448570251,0.0007398732122965157,0.001815079478546977
474.0,485.0,-2.4915,0.6748,8.6847,-0.0696,-0.179,-0.1,-1.9837614498534144,-0.23579291999340057,3.363832473754883,-1.6675461530685425,0.212988942861557,2.1598258018493652,5.468765127449789,-0.0665305107831955,0.19716647267341614,-1.5453670660602015,0.0,0.007080419920384884,1.0197595357894897,-0.0,0.006633952725678682,0.8116722702980042,0.00024369377933908254,0.0024363044649362564
474.0,485.0,-2.4915,0.6748,8.6847,-0.0696,-0.179,-0.1,-1.9856139622130335,-0.22794809937477112,3.3710639476776123,-1.6658698320388794,0.20902469754219055,2.1758291721343994,5.468221115856924,-0.06390924006700516,0.2141244113445282,-1.5453794638263147,0.0,-0.018615370616316795,1.019695520401001,-0.0,-0.0007019515032880008,0.8116883039474487,-0.00013267416215967387,-0.043311093002557755
474.0,485.0,-2.4915,0.6748,8.6847,-0.0696,-0.179,-0.1,-1.9878460369505824,-0.2267628163099289,3.3548665046691895,-1.6638665199279785,0.20523010194301605,2.162461280822754,5.467566299229421,-0.06938468664884567,0.196031853556633,-1.5453785101519983,0.0,-0.00640756543725729,1.019763469696045,-0.0,9.341869736090302e-05,0.8116965889930725,-9.694119944470003e-05,-0.07790642976760864
474.0,485.0,-2.4915,0.6748,8.6847,-0.0696,-0.179,-0.1,-1.9896594486632289,-0.22522850334644318,3.39536452293396,-1.662306785583496,0.2090177983045578,2.216829776763916,5.467006373196401,-0.06473030149936676,0.19918674230575562,-1.5453909079181116,0.0,-0.0015681677032262087,1.0197553634643555,-0.0,-0.0008717684540897608,0.811664342880249,-0.00011962869757553563,-0.029599208384752274
474.0,485.0,-2.4915,0.6748,8.6847,-0.0696,-0.179,-0.1,-1.9914127788939417,-0.22981107234954834,3.422642707824707,-1.6605783700942993,0.2003171592950821,2.1905438899993896,5.466552185803213,-0.05127191171050072,0.2113913595676422,-1.5453713575946253,0.0,0.003900717245414853,1.0197114944458008,-0.0,0.006329255644232035,0.8116965293884277,-0.0002581120061222464,-0.036620981991291046
474.0,485.0,-2.4915,0.6748,8.6847,-0.0696,-0.179,-0.1,-1.9936419926085414,-0.21763361990451813,3.3666610717773438,-1.6585865020751953,0.2022249698638916,2.1620469093322754,5.466232883721151,-0.019956322386860847,0.21076282858848572,-1.5453713575946253,0.0,-0.01256601046770811,1.0196547508239746,-0.0,-0.0012846584431827068,0.811631977558136,-0.0002494761720299721,-0.08275511860847473
474.0,485.0,-2.4915,0.6748,8.6847,-0.0696,-0.179,-0.1,-1.995354791680807,-0.21041451394557953,3.4099626541137695,-1.6569465398788452,0.20495133101940155,2.1466188430786133,5.466145145684042,-0.0022217899095267057,0.22296756505966187,-1.545358959828512,0.0,-0.009003311395645142,1.019687294960022,-0.0,0.007556619588285685,0.8116684556007385,-0.00021056245896033943,-0.04606080800294876
390.0,382.0,-3.201,-0.2363,9.4385,-0.0478,-0.0408,-0.1147,-1.9975353680052699,-0.2269473671913147,3.4262657165527344,-1.6547669172286987,0.19948238134384155,2.1862008571624756,5.46609656789855,0.00031812916859053075,0.22144663333892822,-1.5453828016864222,0.0,0.0053475950844585896,1.0197234153747559,-0.0,0.004740079399198294,0.8116684556007385,-0.00017620685684960335,-0.00916214007884264
390.0,382.0,-3.201,-0.2363,9.4385,-0.0478,-0.0408,-0.1147,-1.9993564091124476,-0.22198531031608582,3.4101016521453857,-1.6531920433044434,0.20197701454162598,2.1629281044006348,5.466169047146597,0.00026768905809149146,0.22314418852329254,-1.5454075972186487,0.0,-0.0025620795786380768,1.0197196006774902,-0.0,-0.014163551852107048,0.8116242289543152,-0.0001558625081088394,-0.05412917584180832
390.0,382.0,-3.201,-0.2363,9.4385,-0.0478,-0.0408,-0.1147,-2.0011140308775843,-0.21927054226398468,3.434237480163574,-1.6515437364578247,0.20718689262866974,2.2394042015075684,5.466161238938131,0.0001916376204462722,0.20593994855880737,-1.5453756491290491,0.0,-0.0005465621943585575,1.0197476148605347,-0.0,0.014874115586280823,0.8116484880447388,-0.00013973010936751962,-0.058270782232284546
390.0,382.0,-3.201,-0.2363,9.4385,-0.0478,-0.0408,-0.1147,-2.0033985577025355,-0.22610867023468018,3.385014295578003,-1.6494277715682983,0.20038366317749023,2.1576874256134033,5.466153192311086,0.00013514410238713026,0.21365976333618164,-1.545403305684225,0.0,0.009644313715398312,1.01973557472229,-0.0,-0.004000227432698011,0.8116684556007385,-0.00012372287164907902,-0.1040058583021164
390.0,382.0,-3.201,-0.2363,9.4385,-0.0478,-0.0408,-0.1147,-2.0052601299681605,-0.21528743207454681,3.4656410217285156,-1.647796392440796,0.21000845730304718,2.1483469009399414,5.466133165150442,0.00011691967665683478,0.20355023443698883,-1.5453670660602015,0.0,-0.006444853730499744,1.0197393894195557,-0.0,0.0015924880281090736,0.8116483092308044,-0.00013222181587480009,-0.07077644020318985
390.0,382.0,-3.201,-0.2363,9.4385,-0.0478,-0.0408,-0.1147,-2.006932874719137,-0.2171562910079956,3.41727876663208,-1.646144986152649,0.20496822893619537,2.189821720123291,5.466113018780508,1.1899717264896026e-06,0.22653789818286896,-1.5453508535968226,0.0,0.011374358087778091,1.0197515487670898,-0.0,-0.014646049588918686,0.8116924166679382,-0.0001219845944433473,-0.09572039544582367
390.0,382.0,-3.201,-0.2363,9.4385,-0.0478,-0.0408,-0.1147,-2.009153028527731,-0.22224590182304382,3.396836757659912,-1.6441376209259033,0.1986253559589386,2.147987127304077,5.466089594155111,-0.0014270188985392451,0.19907163083553314,-1.5453756491290491,0.0,0.013179995119571686,1.0196876525878906,-0.0,-0.029988527297973633,0.811631977558136,-0.00011121742863906547,-0.04249377176165581
390.0,382.0,-3.201,-0.2363,9.4385,-0.0478,-0.0408,-0.1147,-2.0108705959715785,-0.2129625380039215,3.4463257789611816,-1.6425292491912842,0.20430909097194672,2.1958179473876953,5.46603678443984,-0.0012187715619802475,0.21065986156463623,-1.5453508535968226,3.663246559426625e-07,0.011638308875262737,1.0196629762649536,-0.0,-0.013936509378254414,0.8116804957389832,-0.00011865300621138886,-0.05357971042394638
390.0,382.0,-3.201,-0.2363,9.4385,-0.0478,-0.0408,-0.1147,-2.012907167474264,-0.20324182510375977,3.4943103790283203,-1.640526533126831,0.20743699371814728,2.197218894958496,5.466000723629751,-0.003296076552942395,0.21093648672103882,-1.5453909079181116,4.3470473531578846e-13,0.009474153630435467,1.0196473598480225,-0.0,-0.018269207328557968,0.8115838170051575,-0.0001453006116207689,-0.053905993700027466
