ramyac6/ROB537/final_project/csv/bad/bad_168.csv
tof_0,tof_1,accelx,accely,accelz,gyrox,gyroy,gyroz,shoulder_lift_joint_position,shoulder_lift_joint_velocity,shoulder_lift_joint_effort,elbow_joint_position,elbow_joint_velocity,elbow_joint_effort,wrist_1_joint_position,wrist_1_joint_velocity,wrist_1_joint_effort,wrist_2_joint_position,wrist_2_joint_velocity,wrist_2_joint_effort,wrist_3_joint_position,wrist_3_joint_velocity,wrist_3_joint_effort,shoulder_pan_joint_position,shoulder_pan_joint_velocity,shoulder_pan_joint_effort
1047.0,8190.0,-2.266,0.6646,9.6191,-0.0379,0.0182,-0.1113,-1.4270135474256058,0.0,1.5540958642959595,-1.9364287853240967,-0.0,2.148700714111328,5.052286851197042,0.0,0.2604418396949768,-1.607457462941305,-0.0,-0.012409957125782967,0.8365231156349182,-0.0,0.005471386946737766,0.7319740056991577,0.0,-0.05217833071947098
1047.0,8190.0,-2.266,0.6646,9.6191,-0.0379,0.0182,-0.1113,-1.4270135921290894,0.0,1.525755763053894,-1.9364413022994995,-0.0,2.1258931159973145,5.052286851197042,0.0,0.2521574795246124,-1.6074655691729944,-0.0,-0.0029971799813210964,0.8365310430526733,-0.0,-0.004788837395608425,0.7319537997245789,0.0,0.04063815623521805
1047.0,8190.0,-2.266,0.6646,9.6191,-0.0379,0.0182,-0.1113,-1.4269773078015824,0.0,1.46379554271698,-1.936413288116455,-0.0,2.131523609161377,5.052298772125997,0.0,0.25514641404151917,-1.6074817816363733,-7.585146399868847e-10,-0.007744008209556341,0.8365110754966736,-0.0,-0.0027873425278812647,0.7319291830062866,0.0,0.006246756762266159
1047.0,8190.0,-2.266,0.6646,9.6191,-0.0379,0.0182,-0.1113,-1.4270538103631516,0.0,1.5120959281921387,-1.9364495277404785,-0.0,2.118400812149048,5.052298831730642,0.0,0.27242952585220337,-1.6075099150287073,-0.00040115570300258696,-0.011933513917028904,0.8365429043769836,-0.0,-0.0068433452397584915,0.7319898009300232,0.0005994645180180669,0.03627283126115799
1047.0,8190.0,-2.266,0.6646,9.6191,-0.0379,0.0182,-0.1113,-1.4269814056209107,0.0,1.4859569072723389,-1.9364207983016968,-0.0,2.1114399433135986,5.052294540196218,0.0,0.2552112340927124,-1.607497517262594,-0.0008700046455487609,-0.012132767587900162,0.8365349769592285,-0.0,-0.005244581028819084,0.7319373488426208,0.0009151970152743161,-0.02646370604634285
1047.0,8190.0,-2.266,0.6646,9.6191,-0.0379,0.0182,-0.1113,-1.4270376426032563,0.0,1.4918659925460815,-1.936465859413147,-0.0,2.149170160293579,5.052319484740057,0.0,0.27714061737060547,-1.6075499693499964,-0.0011621778830885887,-0.011564446613192558,0.8365151286125183,-0.0,0.005426769144833088,0.7320220470428467,0.000860293919686228,-0.03651487082242966
1047.0,8190.0,-2.266,0.6646,9.6191,-0.0379,0.0182,-0.1113,-1.4269650441459198,0.0,1.4868147373199463,-1.9364495277404785,-0.0,2.111947774887085,5.052311169892111,0.0,0.2539154291152954,-1.607513729725973,-0.0010557156056165695,-0.015391701832413673,0.8365269899368286,-0.0,-0.011190317571163177,0.7319815754890442,0.0006559427711181343,0.014647364616394043
1047.0,8190.0,-2.266,0.6646,9.6191,-0.0379,0.0182,-0.1113,-1.4270376724055787,0.0,1.5246813297271729,-1.9364897012710571,-0.0,2.137455463409424,5.052311169892111,0.0,0.271822988986969,-1.607513729725973,-0.0009000555146485567,-0.011792592704296112,0.8365789651870728,-0.0,0.0016594459302723408,0.7319898009300232,0.0005608372739516199,0.015945084393024445
1047.0,8190.0,-2.266,0.6646,9.6191,-0.0379,0.0182,-0.1113,-1.4270257663777848,0.0,1.4860996007919312,-1.93644118309021,-0.0,2.1010189056396484,5.052323090821066,0.0,0.26397520303726196,-1.6075213591205042,-0.0006305795977823436,-0.01607811078429222,0.8365310430526733,-0.0,0.0011057961964979768,0.7319774627685547,0.00044259909191168845,0.01597430929541588
8190.0,1121.0,-2.0339,0.7382,9.4941,-0.0296,0.0044,-0.1249,-1.4270257514766236,0.0,1.5240256786346436,-1.936449408531189,-0.0,2.131154775619507,5.052274930268087,0.0,0.2737710475921631,-1.6075094381915491,-0.000529261480551213,-0.0050745634362101555,0.8365310430526733,-0.0,-0.0017901508836075664,0.7319695353507996,0.00036554186954163015,0.042399533092975616
8190.0,1121.0,-2.0339,0.7382,9.4941,-0.0296,0.0044,-0.1249,-1.4270376575044175,0.0,1.5216559171676636,-1.9364166259765625,-0.0,2.111875057220459,5.052319484740057,0.0,0.2586139142513275,-1.6075776259051722,-0.0004447509709279984,-0.012921081855893135,0.8365349769592285,-0.0,-0.0025977734476327896,0.7319815754890442,0.0003275287745054811,-0.06406822800636292
8190.0,1121.0,-2.0339,0.7382,9.4941,-0.0296,0.0044,-0.1249,-1.4270738077214737,0.0,1.540344476699829,-1.9364248514175415,-0.0,2.131356716156006,5.052294987231054,0.0,0.26380226016044617,-1.607513729725973,-0.00035658752312883735,-0.0023151191417127848,0.8365587592124939,-0.0,0.0027910196222364902,0.7320016622543335,0.0002833338803611696,0.0014702212065458298
8190.0,1121.0,-2.0339,0.7382,9.4941,-0.0296,0.0044,-0.1249,-1.4270216834596177,0.0,1.5462219715118408,-1.9364773035049438,-0.0,2.0844473838806152,5.052294540196218,0.0,0.2661718428134918,-1.6075213591205042,-0.0002976020332425833,-0.017644820734858513,0.8365151286125183,-0.0,-0.0062727490440011024,0.7320098876953125,0.00024964907788671553,0.004016365855932236
8190.0,1121.0,-2.0339,0.7382,9.4941,-0.0296,0.0044,-0.1249,-1.4270578932813187,0.0,1.4888761043548584,-1.9363969564437866,-0.0,2.1287944316864014,5.052290934115209,0.0,0.2548595070838928,-1.6075499693499964,-0.00025536713656038046,-0.004809530917555094,0.8365310430526733,-0.0,8.960394188761711e-05,0.731945276260376,0.0002231231628684327,0.02464376389980316
8190.0,1121.0,-2.0339,0.7382,9.4941,-0.0296,0.0044,-0.1249,-1.427053840165474,0.0,1.5569703578948975,-1.9364289045333862,-0.0,2.135467052459717,5.052263009339132,0.0,0.25309064984321594,-1.6075061003314417,-0.00022363294556271285,0.0014232570538297296,0.8365468978881836,-0.0,0.01157588791102171,0.7319774627685547,6.75895280437544e-05,0.010351688601076603
8190.0,1121.0,-2.0339,0.7382,9.4941,-0.0296,0.0044,-0.1249,-1.426997260456421,0.0,1.4989012479782104,-1.9364330768585205,-0.0,2.086575746536255,5.052274930268087,0.0,0.2599557936191559,-1.6075180212603968,-0.00020652386592701077,-0.008146439678966999,0.8364909887313843,-0.0,0.00037085218355059624,0.7319332361221313,6.123584898887202e-05,-0.020867714658379555
8190.0,1121.0,-2.0339,0.7382,9.4941,-0.0296,0.0044,-0.1249,-1.4270616334727784,0.0,1.535383939743042,-1.9364535808563232,-0.0,2.098083019256592,5.0522590456302545,0.0,0.27247264981269836,-1.6075218359576624,-0.00015466379409190267,-0.020011702552437782,0.8365389704704285,-0.0,-0.0034320387057960033,0.7319736480712891,5.556448013521731e-05,0.01042838953435421
8190.0,1121.0,-2.0339,0.7382,9.4941,-0.0296,0.0044,-0.1249,-1.4270376873067399,0.0,1.464881181716919,-1.93634831905365,-0.0,2.1423120498657227,5.052278983383932,0.0,0.2602160573005676,-1.6074817816363733,-0.0001399780303472653,0.004716053605079651,0.8364831209182739,-0.0,0.005063622258603573,0.7319694757461548,5.085490192868747e-05,0.05606275051832199
8190.0,1121.0,-2.0339,0.7382,9.4941,-0.0296,0.0044,-0.1249,-1.4270497125438233,0.0,1.5521888732910156,-1.9364206790924072,-0.0,2.1354129314422607,5.052206504135885,0.0,0.26612913608551025,-1.6075299421893519,-0.00012802927813027054,0.005411173216998577,0.8364909887313843,-0.0,0.00898063275963068,0.7319735884666443,2.3453605535905808e-05,0.008096883073449135
8190.0,1121.0,-2.0339,0.7382,9.4941,-0.0296,0.0044,-0.1249,-1.4270818394473572,0.0,1.516596794128418,-1.9364413022994995,-0.0,2.132145404815674,5.052247094898977,0.0,0.2688882350921631,-1.607537571583883,-0.00011796050239354372,-0.017161114141345024,0.8365111351013184,-0.0,0.001209147972986102,0.7319412231445312,2.174180008296389e-05,-0.033880144357681274
8190.0,1121.0,-2.0339,0.7382,9.4941,-0.0296,0.0044,-0.1249,-1.4270534378341218,0.0,1.5236330032348633,-1.9364452362060547,2.139920241006621e-07,2.14982271194458,5.052263068943777,0.0,0.2591673731803894,-1.607553784047262,-0.00011208382056793198,-0.011625709012150764,0.8365508317947388,-0.0,0.004398061893880367,0.7319616675376892,2.0739753381349146e-05,-0.0036826590076088905
8190.0,1121.0,-2.0339,0.7382,9.4941,-0.0296,0.0044,-0.1249,-1.4271058154157181,-0.00034774249070324004,1.4770500659942627,-1.9364495277404785,5.167655582963282e-13,2.1343026161193848,5.052202957659521,-0.0004648529284168035,0.2620929181575775,-1.607513729725973,-0.00010429057147121057,-0.005107443779706955,0.8365230560302734,-0.0,0.007072370499372482,0.7320098280906677,1.9398679796722718e-05,0.0124864112585783
8190.0,1121.0,-2.0339,0.7382,9.4941,-0.0296,0.0044,-0.1249,-1.4270616334727784,-0.00044543680269271135,1.500740885734558,-1.9364609718322754,1.2479278922845034e-18,2.1522481441497803,5.052251237421789,-0.0004988958244211972,0.25482726097106934,-1.6075180212603968,-9.751078323461115e-05,-0.021919984370470047,0.8365310430526733,-0.0,0.0010444452054798603,0.7320138812065125,1.8220509446109645e-05,-0.009005578234791756
8190.0,1121.0,-2.0339,0.7382,9.4941,-0.0296,0.0044,-0.1249,-1.4271459144404908,-0.0008495643269270658,1.5144704580307007,-1.9364495277404785,3.013599133161936e-24,2.146589756011963,5.052186536579885,-0.0006903693429194391,0.27348971366882324,-1.6075261274920862,-9.155848965747282e-05,-0.014855129644274712,0.836594820022583,-0.0,-0.009779220446944237,0.7319613099098206,3.4354383387835696e-05,0.0018141168402507901
8190.0,1121.0,-2.0339,0.7382,9.4941,-0.0296,0.0044,-0.1249,-1.4270852965167542,-0.0011381417280063033,1.5232641696929932,-1.9364413022994995,7.277488159048128e-30,2.128465175628662,5.052170920162954,-0.0006700453232042491,0.2531687617301941,-1.6075299421893519,-8.629124204162508e-05,-0.009323835372924805,0.8364831209182739,-0.0,0.021373232826590538,0.7319455146789551,3.2493993785465136e-05,-0.02158096432685852
1060.0,8190.0,-2.2911,0.6616,9.3488,-0.0235,0.0104,-0.1194,-1.4271258872798462,-0.0013503509107977152,1.5152933597564697,-1.9364898204803467,1.3099221399078973e-33,2.1389923095703125,5.052163082152166,-0.0007510427967645228,0.26706451177597046,-1.6075337568866175,-8.310397970490158e-05,-0.008455825038254261,0.8365269899368286,-0.0,0.00020729261450469494,0.7319332361221313,3.136168379569426e-05,-0.017395058646798134
1060.0,8190.0,-2.2911,0.6616,9.3488,-0.0235,0.0104,-0.1194,-1.4271415931037446,-0.0019479182083159685,1.4973335266113281,-1.9364972114562988,3.163307968948414e-39,2.1562092304229736,5.052170890360632,-0.0007176658837124705,0.26272517442703247,-1.6075261274920862,-7.874151924625039e-05,-0.014287151396274567,0.8365269899368286,-0.0,-0.0013243622379377484,0.7319815754890442,2.9803888537571765e-05,-0.002821150701493025
1060.0,8190.0,-2.2911,0.6616,9.3488,-0.0235,0.0104,-0.1194,-1.4271778625300904,-0.0028581588994711637,1.5255513191223145,-1.9364651441574097,7.006492321624085e-45,2.16341495513916,5.052142697363653,-0.0006807694444432855,0.2510231137275696,-1.6074774901019495,-7.481418288080022e-05,-0.005178019404411316,0.8365151882171631,-0.0,-0.011440254747867584,0.7319654226303101,2.8393498723744415e-05,0.03407174348831177
1060.0,8190.0,-2.2911,0.6616,9.3488,-0.0235,0.0104,-0.1194,-1.4271977555802842,-0.00358116184361279,1.4629125595092773,-1.9364166259765625,-0.0,2.1039183139801025,5.0521631119544885,-0.0004982484970241785,0.251054048538208,-1.607513729725973,-7.125997944967821e-05,-0.0040214890614151955,0.8365627527236938,-0.0,0.0031237509101629257,0.7319898009300232,2.711057459237054e-05,0.0015673469752073288
1060.0,8190.0,-2.2911,0.6616,9.3488,-0.0235,0.0104,-0.1194,-1.4272139382413407,-0.0038468895945698023,1.5109977722167969,-1.9364651441574097,-0.0,2.0829689502716064,5.052175003081121,-0.0004205613804515451,0.2525140345096588,-1.607513729725973,-6.907236092956737e-05,-0.00856485404074192,0.8364909887313843,-0.0,-0.0025962069630622864,0.7319453358650208,2.631782081152778e-05,0.04051278904080391
1060.0,8190.0,-2.2911,0.6616,9.3488,-0.0235,0.0104,-0.1194,-1.4271977257779618,-0.004190110135823488,1.5334246158599854,-1.9364691972732544,-0.0,2.1586382389068604,5.052211481123724,-0.0003408652846701443,0.25231415033340454,-1.6075018087970179,-6.603170186281204e-05,-0.00913604348897934,0.8365269899368286,-0.0,0.005108985584229231,0.732009768486023,3.781713166972622e-05,0.09477975964546204
1060.0,8190.0,-2.2911,0.6616,9.3488,-0.0235,0.0104,-0.1194,-1.4272656005671998,-0.00336278579197824,1.4933584928512573,-1.9364206790924072,-0.0,2.1182613372802734,5.0521550355251215,-0.00033410690957680345,0.24916987121105194,-1.6075099150287073,-6.324748392216861e-05,-0.01373952254652977,0.8365349769592285,-0.0,0.004515584092587233,0.73197340965271,4.790880484506488e-05,0.057895928621292114
1060.0,8190.0,-2.2911,0.6616,9.3488,-0.0235,0.0104,-0.1194,-1.4273020935109635,-0.0032335035502910614,1.4480090141296387,-1.936405062675476,-0.0,2.170130491256714,5.052167194872656,-0.0003267861029598862,0.2516099214553833,-1.6074817816363733,-6.068854781915434e-05,-0.019543351605534554,0.8365349769592285,-0.0,-0.014252088032662868,0.7320098280906677,4.651485869544558e-05,0.06993838399648666
1060.0,8190.0,-2.2911,0.6616,9.3488,-0.0235,0.0104,-0.1194,-1.4272858661464234,-0.003050329629331827,1.4659814834594727,-1.9364248514175415,-0.0,2.1755242347717285,5.052199172764578,-0.00023027355200611055,0.2547476887702942,-1.6075018087970179,-5.832866008859128e-05,-0.018142487853765488,0.8365269899368286,-0.0,0.005447334609925747,0.7319774627685547,3.3403524867026135e-05,0.07066580653190613
1060.0,8190.0,-2.2911,0.6616,9.3488,-0.0235,0.0104,-0.1194,-1.427277610903122,-0.003435240127146244,1.473374843597412,-1.9364042282104492,-0.0,2.0976319313049316,5.052102315216818,-0.00024580524768680334,0.25787895917892456,-1.607513729725973,-5.685478026862256e-05,-0.011095749214291573,0.8365428447723389,-0.0,0.003928943537175655,0.7319654226303101,4.764450204675086e-05,0.05278971791267395
1060.0,8190.0,-2.2911,0.6616,9.3488,-0.0235,0.0104,-0.1194,-1.4273458284190674,-0.003512441413477063,1.4586200714111328,-1.9364289045333862,-0.0,2.1457464694976807,5.052159148245611,-0.0002866139111574739,0.25636398792266846,-1.607485596333639,-5.477849117596634e-05,-0.006765511352568865,0.836503267288208,-0.0,0.0014686883660033345,0.731981635093689,4.582882684189826e-05,0.11864528059959412
1060.0,8190.0,-2.2911,0.6616,9.3488,-0.0235,0.0104,-0.1194,-1.4273252201131363,-0.00411936966702342,1.4526647329330444,-1.936396837234497,-0.0,2.139230966567993,5.052142846375265,-0.0005071295890957117,0.23903407156467438,-1.6074898878680628,-5.284850703901611e-05,-0.03885294497013092,0.836574912071228,-0.0,-0.002884455258026719,0.7319934964179993,5.794617027277127e-05,0.09768734127283096
1060.0,8190.0,-2.2911,0.6616,9.3488,-0.0235,0.0104,-0.1194,-1.4273898017457505,-0.004511506296694279,1.4443256855010986,-1.936457633972168,-0.0,2.1151931285858154,5.052163231163778,-0.000524294504430145,0.24912382662296295,-1.6074612776385706,-5.104995216242969e-05,-0.03259298950433731,0.8364909887313843,-0.0,0.004010612145066261,0.7319974303245544,5.5457345297327265e-05,0.0547528974711895
1060.0,8190.0,-2.2911,0.6616,9.3488,-0.0235,0.0104,-0.1194,-1.4274134647897263,-0.004586903378367424,1.4381866455078125,-1.9364330768585205,-0.0,2.150911331176758,5.052146929293432,-0.0005426579737104475,0.24555456638336182,-1.607441250477926,-6.429671884689014e-06,-0.0209026038646698,0.8365468978881836,-0.0,0.0044243414886295795,0.7319934964179993,6.641090294579044e-05,0.14308631420135498
1060.0,8190.0,-2.2911,0.6616,9.3488,-0.0235,0.0104,-0.1194,-1.4274336707643052,-0.005622451659291983,1.43654203414917,-1.9364609718322754,-0.0,2.123142957687378,5.052143174200811,-0.0005713188438676298,0.24298827350139618,-1.60746938387026,-2.7410699487973034e-08,-0.03354380279779434,0.8365151882171631,-0.0,0.0067231981083750725,0.7320217490196228,0.00025751363136805594,0.09032854437828064
1060.0,8190.0,-2.2911,0.6616,9.3488,-0.0235,0.0104,-0.1194,-1.4274576169303437,-0.006753253284841776,1.444136381149292,-1.9364970922470093,-0.0,2.1557276248931885,5.052159237652578,-0.0007084922981448472,0.2472664713859558,-1.6074817816363733,-7.629868091496572e-12,-0.034778617322444916,0.8365269899368286,-0.0,0.0022755004465579987,0.7319613099098206,0.00026376944151706994,0.16212961077690125
1060.0,8190.0,-2.2911,0.6616,9.3488,-0.0235,0.0104,-0.1194,-1.42754981041465,-0.00812629796564579,1.3751211166381836,-1.9364495277404785,-0.0,2.1459038257598877,5.052130955248632,-0.0007644635043106973,0.23476797342300415,-1.6074774901019495,-2.1238017075509655e-15,-0.019053004682064056,0.8365907073020935,-0.0,-0.0005098951514810324,0.7319976091384888,0.00026785946101881564,0.13677263259887695
8190.0,8190.0,-2.3456,0.4893,8.8475,-0.0347,-0.0024,-0.1196,-1.4276098471931,-0.00978950597345829,1.4069397449493408,-1.9364453554153442,-0.0,2.171231746673584,5.052119153528967,-0.0008344243979081511,0.23784251511096954,-1.6074898878680628,-5.911681477096907e-19,-0.036163151264190674,0.8365508317947388,-0.0,0.002388367196545005,0.7320138812065125,0.0002379796642344445,0.1432729959487915
8190.0,8190.0,-2.3456,0.4893,8.8475,-0.0347,-0.0024,-0.1196,-1.4276901346496125,-0.011070282198488712,1.387763500213623,-1.9364609718322754,-0.0,2.1616547107696533,5.052099066763677,-0.0007713448721915483,0.23773470520973206,-1.6074698607074183,-1.645538226088829e-22,-0.029716264456510544,0.8365389108657837,-0.0,-0.005219044629484415,0.7319893836975098,0.00021375469805207103,0.16281893849372864
8190.0,8190.0,-2.3456,0.4893,8.8475,-0.0347,-0.0024,-0.1196,-1.4276939195445557,-0.011739511042833328,1.4154207706451416,-1.936392903327942,-0.0,2.1708295345306396,5.05209897735671,-0.0006849995697848499,0.2323634922504425,-1.6074612776385706,-7.015187188330071e-25,-0.018728889524936676,0.8364953398704529,-0.0,-0.003908843733370304,0.7319976091384888,0.00020017086353618652,0.16311639547348022
8190.0,8190.0,-2.3456,0.4893,8.8475,-0.0347,-0.0024,-0.1196,-1.4277613771012803,-0.012581397779285908,1.403207778930664,-1.9364774227142334,-0.0,2.1861331462860107,5.052074926882543,-0.0006606272654607892,0.23419460654258728,-1.6074731985675257,-1.9527031391385135e-28,-0.032407041639089584,0.8364830613136292,-0.0,-0.005615980364382267,0.731965184211731,0.0001827508967835456,0.156009703874588
8190.0,8190.0,-2.3456,0.4893,8.8475,-0.0347,-0.0024,-0.1196,-1.427898110156395,-0.013601386919617653,1.3478031158447266,-1.9364371299743652,-0.0,2.142272710800171,5.052042531758108,-0.0007619885727763176,0.22219246625900269,-1.60744554201235,-5.435421226012962e-32,-0.031086860224604607,0.8365868330001831,-0.0,0.005955732427537441,0.7319691777229309,0.00016812050307635218,0.19666635990142822
8190.0,8190.0,-2.3456,0.4893,8.8475,-0.0347,-0.0024,-0.1196,-1.4279941779426117,-0.014346666634082794,1.3719563484191895,-1.9364691972732544,-0.0,2.1394076347351074,5.052070814162054,-0.0007413183338940144,0.21789345145225525,-1.607441250477926,-1.512969566695158e-35,-0.02011670544743538,0.836550772190094,-0.0,-0.01242099516093731,0.7320258021354675,0.0001556561328470707,0.16843639314174652
8190.0,8190.0,-2.3456,0.4893,8.8475,-0.0347,-0.0024,-0.1196,-1.4280336660197754,-0.016376493498682976,1.285027027130127,-1.9364774227142334,-0.0,2.1922261714935303,5.05203469374732,-0.0009374498040415347,0.22251079976558685,-1.6074731985675257,-4.211406352743232e-39,-0.03630433231592178,0.8365508317947388,-0.0,0.009755183011293411,0.7319332957267761,0.00014491476758848876,0.1881241649389267
8190.0,8190.0,-2.3456,0.4893,8.8475,-0.0347,-0.0024,-0.1196,-1.4281218212893982,-0.01663299649953842,1.339812994003296,-1.9364453554153442,-0.0,2.195021152496338,5.05201472619132,-0.0013358269352465868,0.22268050909042358,-1.6074774901019495,-1.7953435924929556e-41,-0.01982506923377514,0.8365428447723389,-0.0,-0.00959571823477745,0.7320057153701782,0.00013854117423761636,0.12399037927389145
8190.0,8190.0,-2.3456,0.4893,8.8475,-0.0347,-0.0024,-0.1196,-1.428229884510376,-0.01871470920741558,1.3347728252410889,-1.9364371299743652,-0.0,2.097479820251465,5.052022892027654,-0.0028937591705471277,0.22428715229034424,-1.6074817816363733,-5.605193857299268e-45,-0.02815963141620159,0.8365631103515625,-0.0,-0.02276020124554634,0.7320138812065125,0.00014636073319707066,0.13316601514816284
8190.0,8190.0,-2.3456,0.4893,8.8475,-0.0347,-0.0024,-0.1196,-1.428358183508255,-0.020584136247634888,1.3483223915100098,-1.9364609718322754,-0.0,2.1644287109375,5.0519949970538995,-0.00710401451215148,0.22261568903923035,-1.6074612776385706,-0.0,-0.02823234535753727,0.8365548253059387,-0.0,0.0059308819472789764,0.7320098280906677,0.00013987689453642815,0.12698057293891907
8190.0,8190.0,-2.3456,0.4893,8.8475,-0.0347,-0.0024,-0.1196,-1.428466187124588,-0.02285730466246605,1.3019472360610962,-1.936457633972168,-0.0,2.155639171600342,5.051946836500921,-0.012373493053019047,0.21297091245651245,-1.6074617544757288,-0.0,-0.013819960877299309,0.8364953398704529,-0.0,0.0003994349390268326,0.7320057153701782,0.00013217372179497033,0.12306785583496094
8190.0,8190.0,-2.3456,0.4893,8.8475,-0.0347,-0.0024,-0.1196,-1.42854596794162,-0.024310046806931496,1.3040168285369873,-1.9364535808563232,-0.0,2.1790192127227783,5.051878499775686,-0.009120674803853035,0.21590614318847656,-1.6074374357806605,-0.0,-0.02042246423661709,0.836554765701294,-0.0,0.004606237635016441,0.7319774627685547,0.00012749279267154634,0.15030942857265472
8190.0,8190.0,-2.3456,0.4893,8.8475,-0.0347,-0.0024,-0.1196,-1.4286976915648957,-0.027987152338027954,1.2727291584014893,-1.9364453554153442,-0.0,2.203319549560547,5.051874834090032,-0.0032299275044351816,0.21130585670471191,-1.6074655691729944,-0.0,-0.016279837116599083,0.8365151882171631,-0.0,0.0034777058754116297,0.7319976091384888,0.00012106179201509804,0.16212134063243866
8190.0,8190.0,-2.3456,0.4893,8.8475,-0.0347,-0.0024,-0.1196,-1.428910569553711,-0.03167281672358513,1.2812411785125732,-1.9364371299743652,-0.0,2.15842866897583,5.051834600954809,-0.00021422444842755795,0.2133379578590393,-1.607446018849508,-0.0,-0.03105372190475464,0.8365590572357178,-0.0,-0.001201834762468934,0.7319774627685547,0.00011524844012456015,0.1581137478351593
8190.0,8190.0,-2.3456,0.4893,8.8475,-0.0347,-0.0024,-0.1196,-1.4290255171111603,-0.03577912226319313,1.24985933303833,-1.9364051818847656,-0.0,2.145308256149292,5.0518753109271906,-0.00011947633174713701,0.20846393704414368,-1.60744554201235,-0.0,-0.020159276202321053,0.8365631103515625,-0.0,0.003355956869199872,0.7320016622543335,0.00010996793571393937,0.1538485884666443
8190.0,8190.0,-2.3456,0.4893,8.8475,-0.0347,-0.0024,-0.1196,-1.4292862874320527,-0.04017598181962967,1.2323318719863892,-1.9363926649093628,-0.0,2.1029281616210938,5.05192722657279,-8.539671398466453e-05,0.2120082676410675,-1.6074817816363733,-0.0,-0.013650413602590561,0.8365270495414734,-0.0,-0.007357028778642416,0.7320138812065125,0.00010514998575672507,0.09244897216558456
8190.0,8190.0,-2.3456,0.4893,8.8475,-0.0347,-0.0024,-0.1196,-1.429478184585907,-0.04392708092927933,1.2378392219543457,-1.936424732208252,-0.0,2.1746935844421387,5.051915305643835,-7.176313374657184e-05,0.20434153079986572,-1.6074579397784632,-0.0,-0.02334989607334137,0.836578905582428,-0.0,-0.00056114187464118,0.7320139408111572,8.40344000607729e-05,0.10305986553430557
8190.0,8190.0,-2.5454,0.1262,8.9282,-0.049,-0.0573,-0.1205,-1.4297666859677811,-0.04830450937151909,1.198289155960083,-1.93644118309021,-0.0,2.1969006061553955,5.051866996079244,-5.790257273474708e-05,0.22308802604675293,-1.6074536482440394,-0.0,-0.005766836926341057,0.8365944027900696,-0.0,0.007853042334318161,0.7319893836975098,7.744396134512499e-05,0.11938631534576416
8190.0,8190.0,-2.5454,0.1262,8.9282,-0.049,-0.0573,-0.1205,-1.4300422233394166,-0.05152313783764839,1.2297849655151367,-1.936421513557434,-0.0,2.1513686180114746,5.051866996079244,-4.853113932767883e-05,0.21237652003765106,-1.607429329548971,-0.0,-0.00656150933355093,0.8365709185600281,-0.0,0.0008821666706353426,0.7320175766944885,8.830158185446635e-05,0.08287163078784943
8190.0,8190.0,-2.5454,0.1262,8.9282,-0.049,-0.0573,-0.1205,-1.4303864699653168,-0.05628589168190956,1.1961003541946411,-1.9364051818847656,-0.0,2.1777117252349854,5.051899003773489,-6.218172347871587e-05,0.206955686211586,-1.6074536482440394,-0.0,-0.013088710606098175,0.8365152478218079,-0.0,0.0004041343927383423,0.7320098280906677,8.423483814112842e-05,0.16572222113609314
8190.0,8190.0,-2.5454,0.1262,8.9282,-0.049,-0.0573,-0.1205,-1.4307382118752976,-0.061775337904691696,1.19023597240448,-1.9364287853240967,-0.0,2.180213689804077,5.051907229214468,-7.332444511121139e-05,0.21846845746040344,-1.6074698607074183,-2.1614232537103817e-06,-0.007292804773896933,0.8365468382835388,-0.0,-0.00295151025056839,0.7319852113723755,8.046914445003495e-05,0.15018485486507416
8190.0,8190.0,-2.5454,0.1262,8.9282,-0.049,-0.0573,-0.1205,-1.431014285688736,-0.061555638909339905,1.2147529125213623,-1.936424732208252,-0.0,2.1511666774749756,5.0518908379371545,-6.780494732083753e-05,0.18200233578681946,-1.6074731985675257,-9.214486063058303e-09,-0.021560486406087875,0.8365310430526733,-0.0,0.0030404538847506046,0.7319572567939758,7.814032142050564e-05,0.21738772094249725
8190.0,8190.0,-2.5454,0.1262,8.9282,-0.049,-0.0573,-0.1205,-1.4314064395478745,-0.06508594751358032,1.2022731304168701,-1.9364453554153442,-0.0,2.2172183990478516,5.051882999926367,-6.091954855946824e-05,0.19983738660812378,-1.6074336210833948,-2.564886237427233e-12,-0.015828445553779602,0.8365749716758728,-0.0,0.0006064246408641338,0.7319651246070862,8.737013558857143e-05,0.09562231600284576
8190.0,8190.0,-2.5454,0.1262,8.9282,-0.049,-0.0573,-0.1205,-1.4317736786654969,-0.06797970831394196,1.1875983476638794,-1.9364495277404785,-0.0,2.1877622604370117,5.051842796593466,-6.887014751555398e-05,0.19708654284477234,-1.6074493567096155,-7.139455423949286e-16,-0.014345509931445122,0.8365191221237183,-1.0675481121324992e-07,0.0037071171682327986,0.7320098280906677,9.585757652530447e-05,0.14341527223587036
8190.0,8190.0,-2.5454,0.1262,8.9282,-0.049,-0.0573,-0.1205,-1.4322422456792374,-0.0703667625784874,1.1441187858581543,-1.9364815950393677,-0.0,2.1603639125823975,5.0518789170081995,-7.595019997097552e-05,0.20066314935684204,-1.6074536482440394,-1.9872935375934356e-19,-0.0060734315775334835,0.8365111351013184,-2.971559456832473e-11,0.0017587959300726652,0.7319893836975098,0.00019100955978501588,0.14536549150943756
8190.0,8190.0,-2.5454,0.1262,8.9282,-0.049,-0.0573,-0.1205,-1.4327145230821152,-0.07137887179851532,1.1567736864089966,-1.936449408531189,-0.0,2.1784281730651855,5.0518789170081995,-7.004253711784258e-05,0.19492144882678986,-1.607446018849508,-5.531704713221058e-23,-0.018404552713036537,0.8365389704704285,-8.271445289494746e-15,0.0074956947937607765,0.732013463973999,0.00020420602231752127,0.09601755440235138
8190.0,8190.0,-2.5454,0.1262,8.9282,-0.049,-0.0573,-0.1205,-1.4329864841750641,-0.0696265771985054,1.158848762512207,-1.9364124536514282,-0.0,2.182696580886841,5.051842677384176,-8.858777437126264e-05,0.1915171593427658,-1.6074374357806605,-2.3582523445039015e-25,-0.011219720356166363,0.836507260799408,-3.5262467976396704e-17,0.0007948165293782949,0.7320175766944885,0.0002110796922352165,0.1707288920879364
8190.0,8190.0,-2.5454,0.1262,8.9282,-0.049,-0.0573,-0.1205,-1.4334142965129395,-0.07062844187021255,1.2001981735229492,-1.9364084005355835,-0.0,2.1678240299224854,5.05184285619811,-6.0726979427272454e-05,0.1988389790058136,-1.6074536482440394,-6.564282446404231e-29,-0.013143980875611305,0.8365389704704285,-9.815436624066465e-21,0.004750458989292383,0.7319893836975098,0.00022929003171157092,0.1893107295036316
8190.0,8190.0,-2.5454,0.1262,8.9282,-0.049,-0.0573,-0.1205,-1.4339150500348588,-0.07535404711961746,1.2087225914001465,-1.9363731145858765,-0.0,2.2180685997009277,5.051846760302343,-0.00010217272210866213,0.2008284032344818,-1.6074493567096155,-1.8271917984644223e-32,-0.014412611722946167,0.836539089679718,-2.732162750032572e-24,0.011053590103983879,0.7319974899291992,0.0003775996738113463,0.18494772911071777
8190.0,8190.0,-2.5454,0.1262,8.9282,-0.049,-0.0573,-0.1205,-1.4343829613975068,-0.08203661441802979,1.175565242767334,-1.9364174604415894,-0.0,2.162440299987793,5.051826673537054,-0.0007964751566760242,0.18924295902252197,-1.6074617544757288,-5.086054972166281e-36,-0.022426428273320198,0.8365230560302734,-7.605075571727374e-28,0.00399379339069128,0.7319974899291992,0.0003623886441346258,0.1687966287136078
8190.0,8190.0,-2.5454,0.1262,8.9282,-0.049,-0.0573,-0.1205,-1.434886948471405,-0.08908476680517197,1.1203491687774658,-1.936413288116455,3.9184964407468215e-05,2.2112791538238525,5.051846760302343,-0.000665196857880801,0.189972385764122,-1.6074536482440394,-1.4157220294181124e-39,-0.0051679606549441814,0.8365309238433838,-2.1169007566218247e-31,0.008474609814584255,0.732013463973999,0.00030185646028257906,0.15445229411125183
8190.0,8190.0,-2.5454,0.1262,8.9282,-0.049,-0.0573,-0.1205,-1.4352348011783143,-0.09237617999315262,1.1471669673919678,-1.9363884925842285,0.00012369544128887355,2.1205058097839355,5.051846760302343,-0.0005614470574073493,0.1915450394153595,-1.6074217001544397,-6.035392485846987e-42,0.00020764628425240517,0.836554765701294,-9.024680635930527e-34,-0.006877576000988483,0.732013463973999,0.0003167238610330969,0.24104788899421692
8190.0,8190.0,-2.5454,0.1262,8.9282,-0.049,-0.0573,-0.1205,-1.4357909125140687,-0.10095486789941788,1.1295075416564941,-1.936372995376587,0.0012607116950675845,2.227522611618042,5.051842677384176,-0.00045494773075915873,0.18684570491313934,-1.6074417273150843,-1.401298464324817e-45,-0.0005762365180999041,0.8365630507469177,-2.512052826095298e-37,-0.00341422320343554,0.7320175170898438,0.00031454386771656573,0.1971997320652008
1070.0,1092.0,-1.5057,0.1735,8.8283,-0.0544,-0.1445,-0.1115,-1.4364308577826996,-0.10763903707265854,1.1185681819915771,-1.9363408088684082,0.002198843052610755,2.1644127368927,5.0518753109271906,-0.00038242258597165346,0.18317660689353943,-1.6074536482440394,-0.0,-0.010495109483599663,0.8365309238433838,-6.992339207134405e-41,-0.00516468333080411,0.7320175170898438,0.0002781003713607788,0.172323077917099
1070.0,1092.0,-1.5057,0.1735,8.8283,-0.0544,-0.1445,-0.1115,-1.437110797767975,-0.1112862378358841,1.1291687488555908,-1.9363852739334106,0.003116580191999674,2.195556879043579,5.051894920855322,-0.00028866712818853557,0.19666679203510284,-1.6074493567096155,-0.0,-0.005429139360785484,0.836555004119873,-1.961817850054744e-44,0.006504267454147339,0.7320414781570435,0.00024922078591771424,0.1791575849056244
1070.0,1092.0,-1.5057,0.1735,8.8283,-0.0544,-0.1445,-0.1115,-1.4376514715007325,-0.11203955858945847,1.1328743696212769,-1.9363656044006348,0.004259310197085142,2.2016243934631348,5.051854687720098,-0.00026438719942234457,0.19727183878421783,-1.6074698607074183,-0.0,-0.016440819948911667,0.8364706635475159,-0.0,-0.001969349104911089,0.7319811582565308,0.0002220757451141253,0.18914812803268433
1070.0,1092.0,-1.5057,0.1735,8.8283,-0.0544,-0.1445,-0.1115,-1.438359485273697,-0.10828612744808197,1.1311908960342407,-1.9363003969192505,0.003958920482546091,2.1712827682495117,5.051891314774313,-0.00023481792595703155,0.202120840549469,-1.6074579397784632,-0.0,-0.002988639520481229,0.8365226984024048,-0.0,0.00380711373873055,0.7320255041122437,0.0002321130596101284,0.18981367349624634
1070.0,1092.0,-1.5057,0.1735,8.8283,-0.0544,-0.1445,-0.1115,-1.439019338493683,-0.10550501942634583,1.1753581762313843,-1.9363127946853638,0.0020413377787917852,2.193694591522217,5.05183436253623,-0.00024033081717789173,0.2002110779285431,-1.6074617544757288,-0.0,-0.013108590617775917,0.8365673422813416,-0.0,-0.007633198983967304,0.7320456504821777,0.0005471463082358241,0.21010097861289978
1070.0,1092.0,-1.5057,0.1735,8.8283,-0.0544,-0.1445,-0.1115,-1.4397232991508027,-0.11441629379987717,1.1429636478424072,-1.9363210201263428,3.417950210859999e-06,2.214939594268799,5.051850992232122,-0.00021969762747175992,0.20476002991199493,-1.6074417273150843,-0.0,-0.011667737737298012,0.8365230560302734,-0.0,0.011989764869213104,0.7320175766944885,0.00165658094920218,0.22506213188171387
1070.0,1092.0,-1.5057,0.1735,8.8283,-0.0544,-0.1445,-0.1115,-1.440383405690529,-0.12344931811094284,1.1368296146392822,-1.9362932443618774,8.253947872405298e-12,2.1727383136749268,5.051822441607275,-0.00014621048467233777,0.18671391904354095,-1.6074698607074183,-0.0,-0.01789281889796257,0.8365948796272278,-0.0,0.008589595556259155,0.7320296168327332,0.002616749843582511,0.2205306887626648
1070.0,1092.0,-1.5057,0.1735,8.8283,-0.0544,-0.1445,-0.1115,-1.4408553701690217,-0.12976087629795074,1.1334631443023682,-1.9363408088684082,1.4856813899239395e-15,2.2005162239074707,5.051834839373388,-0.00013727422629017383,0.20580163598060608,-1.6074217001544397,-0.0,-0.022150414064526558,0.8365427851676941,-0.0,-0.010100135579705238,0.7320374250411987,0.0026309113018214703,0.23088261485099792
1070.0,1092.0,-1.5057,0.1735,8.8283,-0.0544,-0.1445,-0.1115,-1.4415390652469178,-0.1306203007698059,1.1578474044799805,-1.936293125152588,0.00043746299343183637,2.1750149726867676,5.051850992232122,-0.00010712900257203728,0.19656488299369812,-1.6074374357806605,-0.0,-0.004334744065999985,0.8365945816040039,-0.0,0.001281212898902595,0.7321019172668457,0.0023944429121911526,0.19784873723983765
1070.0,1092.0,-1.5057,0.1735,8.8283,-0.0544,-0.1445,-0.1115,-1.4423396003297348,-0.13087524473667145,1.1637729406356812,-1.9362322092056274,0.003087066113948822,2.188288688659668,5.051919388562002,-9.2829461209476e-05,0.18661969900131226,-1.607446018849508,-0.0,0.005622124299407005,0.8365833163261414,-0.0,-0.003750794567167759,0.7320572733879089,0.0023100352846086025,0.27276310324668884
1070.0,1092.0,-1.5057,0.1735,8.8283,-0.0544,-0.1445,-0.1115,-1.4431075614741822,-0.12757334113121033,1.222854733467102,-1.9362651109695435,0.004641711246222258,2.141885757446289,5.051915305643835,-6.46342959953472e-05,0.20064908266067505,-1.6074374357806605,-0.0,-0.010719574056565762,0.8365468978881836,1.5448182239197195e-05,0.005432602483779192,0.7320734262466431,0.002463351935148239,0.1702038049697876
1070.0,1092.0,-1.5057,0.1735,8.8283,-0.0544,-0.1445,-0.1115,-1.4438553613475342,-0.1182527244091034,1.1718342304229736,-1.9362940788269043,0.00335774477571249,2.198106288909912,5.051882999926367,-6.029225551174022e-05,0.18575900793075562,-1.6074536482440394,-0.0,-0.006856233812868595,0.8365230560302734,1.5191937563940883e-05,0.005812033079564571,0.7320693135261536,0.0036689138505607843,0.21594853699207306
1070.0,1092.0,-1.5057,0.1735,8.8283,-0.0544,-0.1445,-0.1115,-1.444412038927414,-0.11642854660749435,1.143707036972046,-1.9362331628799438,0.0020646716002374887,2.194002628326416,5.051866996079244,-7.566934800706804e-05,0.1940918266773224,-1.6074217001544397,-0.0,-0.0060885134153068066,0.83652263879776,1.4695938261866104e-05,0.012186485342681408,0.7321697473526001,0.00457503879442811,0.2014215737581253
1070.0,1092.0,-1.5057,0.1735,8.8283,-0.0544,-0.1445,-0.1115,-1.445135847931244,-0.12201935052871704,1.1602764129638672,-1.936221718788147,3.5394511996855726e-06,2.226252555847168,5.051850992232122,-4.3182542867725715e-05,0.1940767467021942,-1.6074579397784632,-0.0,-0.00483108963817358,0.8365750908851624,1.4009661754244007e-05,0.017927195876836777,0.7321253418922424,0.005720167886465788,0.24310007691383362
1070.0,1092.0,-1.5057,0.1735,8.8283,-0.0544,-0.1445,-0.1115,-1.4458595526269455,-0.12918975949287415,1.1714427471160889,-1.9362651109695435,-0.002092071110382676,2.1917333602905273,5.051798748760977,-8.99592341738753e-05,0.19255419075489044,-1.6074937025653284,-0.0,-0.0134779904037714,0.8365468978881836,1.3384613339439966e-05,-0.006256012246012688,0.7321856021881104,0.007584669627249241,0.25845062732696533
1070.0,1092.0,-1.5057,0.1735,8.8283,-0.0544,-0.1445,-0.1115,-1.4465914157084008,-0.14018960297107697,1.1081464290618896,-1.9362971782684326,-0.0010527055710554123,2.190793037414551,5.051863419800558,-0.0001289237552555278,0.19505757093429565,-1.6074937025653284,-0.0,-0.008230488747358322,0.8365632891654968,1.2812942259188276e-05,0.0061786281876266,0.7322454452514648,0.007455185987055302,0.25773385167121887
1070.0,1092.0,-1.5057,0.1735,8.8283,-0.0544,-0.1445,-0.1115,-1.447400302892067,-0.14311788976192474,1.1796163320541382,-1.9362773895263672,0.0006484249024651945,2.1739561557769775,5.051818328886785,-0.0003882853779941797,0.19122979044914246,-1.60744554201235,-0.0,-0.020661022514104843,0.8365070819854736,1.2288117432035506e-05,0.010895168408751488,0.7322413921356201,0.007104229182004929,0.22851723432540894
8190.0,8190.0,-2.0076,0.3194,9.1525,-0.0452,-0.1307,-0.1159,-1.4479398441365738,-0.14296281337738037,1.127380132675171,-1.9362454414367676,0.00336790201254189,2.138735294342041,5.0519030568893335,-0.0002376030315645039,0.20425482094287872,-1.6074617544757288,-0.0,-0.00015742273535579443,0.8365509510040283,1.1961485142819583e-05,0.007627848535776138,0.7323095798492432,0.00571026373654604,0.2634294331073761
8190.0,8190.0,-2.0076,0.3194,9.1525,-0.0452,-0.1307,-0.1159,-1.4487804037383576,-0.13370008766651154,1.1275157928466797,-1.9362092018127441,0.005811759270727634,2.197406530380249,5.051862913161077,0.00029181886930018663,0.20064231753349304,-1.6074417273150843,-0.0,-0.019113508984446526,0.8364785313606262,1.1502854249556549e-05,0.008104724809527397,0.7323054671287537,0.003914711996912956,0.2721450626850128
8190.0,8190.0,-2.0076,0.3194,9.1525,-0.0452,-0.1307,-0.1159,-1.4495837998441239,-0.13027042150497437,1.1400526762008667,-1.9361894130706787,0.005697969812899828,2.200497627258301,5.051887082844534,0.00025501090567559004,0.1912272423505783,-1.6074579397784632,-0.0,-0.009044386446475983,0.8365550637245178,1.1078086572524626e-05,-0.005454523488879204,0.7323088049888611,0.00308979325927794,0.2744106650352478
8190.0,8190.0,-2.0076,0.3194,9.1525,-0.0452,-0.1307,-0.1159,-1.4503635254553338,-0.13025030493736267,1.1653004884719849,-1.9361460208892822,0.002380702178925276,2.1747448444366455,5.051842826395788,8.381710358662531e-05,0.1861100196838379,-1.6074579397784632,-0.0,-0.013725122436881065,0.8365026712417603,1.0683572327252477e-05,0.008428094908595085,0.7323696613311768,0.004462430253624916,0.2268405258655548
8190.0,8190.0,-2.0076,0.3194,9.1525,-0.0452,-0.1307,-0.1159,-1.4512682643583794,-0.13856010138988495,1.1723084449768066,-1.9361937046051025,2.5561917027516756e-07,2.172682046890259,5.051842677384176,7.342209300986724e-06,0.19078297913074493,-1.6074135939227503,-0.0,-0.010285481810569763,0.8364826440811157,1.0316196494386531e-05,0.0038337470032274723,0.7324175834655762,0.005413018632680178,0.22820010781288147
8190.0,8190.0,-2.0076,0.3194,9.1525,-0.0452,-0.1307,-0.1159,-1.4517716628364106,-0.14811663329601288,1.1477564573287964,-1.9362215995788574,-0.002896424848586321,2.0720043182373047,5.051846730500021,3.130099202053316e-08,0.1964423656463623,-1.6074660460101526,-0.0,0.0032166196033358574,0.8365148901939392,1.0084997484227642e-05,0.005279827397316694,0.7324457168579102,0.006138230208307505,0.2732299268245697
8190.0,8190.0,-2.0076,0.3194,9.1525,-0.0452,-0.1307,-0.1159,-1.4526318919709702,-0.15291854739189148,1.127077341079712,-1.9361730813980103,-0.0014961600536480546,2.1785476207733154,5.051859336882391,8.712745802608168e-12,0.19398197531700134,-1.60744554201235,-0.0,-0.010942084714770317,0.836543083190918,8.387803518417059e-08,0.0080476189032197,0.7324130535125732,0.005902517586946487,0.2573869228363037
8190.0,8190.0,-2.0076,0.3194,9.1525,-0.0452,-0.1307,-0.1159,-1.4534397584250947,-0.1482088714838028,1.188742756843567,-1.9361813068389893,-1.0029707482317463e-06,2.152310848236084,5.051822411804952,2.4252249463367495e-15,0.1873781830072403,-1.607413117085592,-0.0,-0.002126263454556465,0.83652263879776,2.3347761224368213e-11,0.01572812907397747,0.7324777245521545,0.004145495593547821,0.25831571221351624
8190.0,8190.0,-2.0076,0.3194,9.1525,-0.0452,-0.1307,-0.1159,-1.4542756167105217,-0.14032281935214996,1.181609869003296,-1.936157464981079,0.003109738929197192,2.1515350341796875,5.051826673537054,6.750702146142866e-19,0.202754408121109,-1.6074579397784632,-0.0,-0.009805276058614254,0.8365230560302734,6.498935250224451e-15,0.011234265752136707,0.7324612140655518,0.0025173621252179146,0.16408619284629822
8190.0,8190.0,-2.0076,0.3194,9.1525,-0.0452,-0.1307,-0.1159,-1.45487596214328,-0.13684581220149994,1.188206434249878,-1.9361697435379028,0.0030705370008945465,2.1670308113098145,5.051883029728689,2.8779299779790833e-21,0.2045055329799652,-1.6074779669391077,-0.0,0.012740363366901875,0.8365390300750732,2.770597952046146e-17,0.009067246690392494,0.7324813604354858,0.0019168367143720388,0.1721605360507965
8190.0,8190.0,-2.0076,0.3194,9.1525,-0.0452,-0.1307,-0.1159,-1.455740326350071,-0.13337911665439606,1.2036337852478027,-1.9360727071762085,0.002576233819127083,2.2126574516296387,5.051846909313955,8.010824807065681e-25,0.19670279324054718,-1.6074259916888636,-0.0,-0.009810388088226318,0.8365509510040283,7.712061729186166e-21,-0.002160183619707823,0.732457160949707,0.0021942451130598783,0.2646104395389557
8190.0,8190.0,-2.0076,0.3194,9.1525,-0.0452,-0.1307,-0.1159,-1.4565162521651764,-0.13550978899002075,1.1862268447875977,-1.9361138343811035,0.0010841847397387028,2.1371757984161377,5.051859366684713,2.229842411835271e-28,0.21103675663471222,-1.6074298063861292,5.478439106809674e-07,0.006571453530341387,0.8365590572357178,2.1466806385845314e-24,0.00743360910564661,0.7325209975242615,0.004179699812084436,0.2409653514623642
8190.0,8190.0,-2.0076,0.3194,9.1525,-0.0452,-0.1307,-0.1159,-1.4573039722493668,-0.1414560228586197,1.1740014553070068,-1.9361376762390137,-0.0004360556195024401,2.1639347076416016,5.051879364043035,6.206848797694895e-32,0.1863037496805191,-1.6074298063861292,1.524943643582688e-10,0.008360191248357296,0.8365026712417603,5.975364245401589e-28,0.007858946919441223,0.7325533628463745,0.0057834736071527,0.22908329963684082
8190.0,8190.0,-2.0076,0.3194,9.1525,-0.0452,-0.1307,-0.1159,-1.4581640151194115,-0.14362920820713043,1.171082615852356,-1.9361014366149902,-0.0005117228138260543,2.164933204650879,5.051879334240713,1.7276990368258475e-35,0.19668936729431152,-1.607434097920553,4.244736208575475e-14,0.012811829335987568,0.8365468978881836,1.6632645562016449e-31,0.0006932583637535572,0.7325571775436401,0.006851350888609886,0.22982044517993927
8190.0,8190.0,-2.0076,0.3194,9.1525,-0.0452,-0.1307,-0.1159,-1.458768793647625,-0.14349770545959473,1.1588842868804932,-1.9361335039138794,-0.0003078278969042003,2.198289394378662,5.051855075150289,7.365451738842459e-38,0.18311871588230133,-1.6073935667621058,1.809597482744943e-16,0.001659250003285706,0.836555004119873,7.090757789135181e-34,0.011205757036805153,0.7326053977012634,0.0064505296759307384,0.2279275357723236
8190.0,8190.0,-2.0076,0.3194,9.1525,-0.0452,-0.1307,-0.1159,-1.459571861927845,-0.13941657543182373,1.1690678596496582,-1.9361138343811035,-2.4559046352123914e-08,2.1729068756103516,5.051862913161077,2.0502397831536399e-41,0.18927296996116638,-1.6074255148517054,5.037081120342143e-20,0.004282885696738958,0.8364867568016052,1.9737385279349394e-37,0.012864308431744576,0.7326211333274841,0.006167970597743988,0.18776291608810425
8190.0,8190.0,-2.0076,0.3194,9.1525,-0.0452,-0.1307,-0.1159,-1.460391880278923,-0.13616681098937988,1.2382891178131104,-1.936072587966919,-5.93072140876727e-14,2.1369547843933105,5.051846760302343,5.605193857299268e-45,0.19147545099258423,-1.6074093023883265,1.4020899762757986e-23,0.008750834502279758,0.8365271091461182,5.493930759231878e-41,0.0023391772992908955,0.7326614260673523,0.005275849252939224,0.16141241788864136
1112.0,8190.0,-1.4351,0.7621,9.1687,-0.0396,-0.1721,-0.1133,-1.4611922439983864,-0.14028523862361908,1.1825412511825562,-1.9360848665237427,0.0010243009310215712,2.157898426055908,5.0518509624298,0.0,0.19368496537208557,-1.6074093023883265,3.902768765366437e-27,-0.005249907728284597,0.8365792036056519,1.5414283107572988e-44,-0.002869885414838791,0.732681155204773,0.005381663329899311,0.24997887015342712
1112.0,8190.0,-1.4351,0.7621,9.1687,-0.0396,-0.1721,-0.1133,-1.4620887798121949,-0.14526814222335815,1.1767377853393555,-1.9360973834991455,0.0007898586336523294,2.1679723262786865,5.051842677384176,0.0,0.20171111822128296,-1.6074093023883265,1.0863501254706169e-30,0.0054208748042583466,0.8365468978881836,0.0,0.006135863717645407,0.7327535152435303,0.004893329460173845,0.22388207912445068
1112.0,8190.0,-1.4351,0.7621,9.1687,-0.0396,-0.1721,-0.1133,-1.4626682561687012,-0.14601875841617584,1.2027794122695923,-1.9361220598220825,0.0006478102877736092,2.1652450561523438,5.05187480428771,0.0,0.17036905884742737,-1.6074498335467737,4.631280601636805e-33,-0.0014477837830781937,0.8365591764450073,0.0,0.0018816286465153098,0.732761800289154,0.004714782349765301,0.24019277095794678
1112.0,8190.0,-1.4351,0.7621,9.1687,-0.0396,-0.1721,-0.1133,-1.4635436621359368,-0.14220030605793,1.1970398426055908,-1.9361220598220825,0.0005138310370966792,2.174666404724121,5.051850992232122,0.0,0.18751031160354614,-1.6074417273150843,1.2891340510851729e-36,0.014907045289874077,0.8365349769592285,0.0,0.00787802878767252,0.7327287197113037,0.004951353184878826,0.2357298731803894
1112.0,8190.0,-1.4351,0.7621,9.1687,-0.0396,-0.1721,-0.1133,-1.4643782016685982,-0.13677498698234558,1.2424393892288208,-1.9360415935516357,0.0003299447998870164,2.1606831550598145,5.051911341934957,0.0,0.17928899824619293,-1.6074298063861292,3.588347016550489e-40,1.0417657904326916e-05,0.8365107178688049,0.0,0.008733248338103294,0.732837438583374,0.006064306944608688,0.24892278015613556
1112.0,8190.0,-1.4351,0.7621,9.1687,-0.0396,-0.1721,-0.1133,-1.465294012134411,-0.13944894075393677,1.2242716550827026,-1.9361178874969482,0.00023504250566475093,2.1795942783355713,5.051903027087011,0.0,0.1938144862651825,-1.607413117085592,9.949219096706201e-44,0.01215159147977829,0.8365427255630493,0.0,0.010899245738983154,0.7328855395317078,0.006000475026667118,0.2096923291683197
1112.0,8190.0,-1.4351,0.7621,9.1687,-0.0396,-0.1721,-0.1133,-1.466141090994217,-0.14721877872943878,1.1988108158111572,-1.9361294507980347,0.00018330318562220782,2.1587741374969482,5.051826703339376,0.0,0.1795583963394165,-1.607434097920553,0.0,0.004905359353870153,0.8365026712417603,0.0,0.005477155093103647,0.7329054474830627,0.006714902352541685,0.21120674908161163
1112.0,8190.0,-1.4351,0.7621,9.1687,-0.0396,-0.1721,-0.1133,-1.4667891573956986,-0.1552271693944931,1.21889328956604,-1.9360767602920532,0.00016635993961244822,2.1346569061279297,5.051859336882391,0.0,0.18289044499397278,-1.6074379126178187,0.0,0.006570320576429367,0.8365386724472046,0.0,0.0027652238495647907,0.7329495549201965,0.006621606182307005,0.24186700582504272
1112.0,8190.0,-1.4351,0.7621,9.1687,-0.0396,-0.1721,-0.1133,-1.4677160915783425,-0.16363580524921417,1.1627082824707031,-1.9360496997833252,0.00018447873299010098,2.2206451892852783,5.051855045347967,0.0,0.19351424276828766,-1.6074379126178187,0.0,0.0040455288253724575,0.8365866541862488,0.0,0.005308826919645071,0.7328973412513733,0.006346465554088354,0.2509009838104248
1112.0,8190.0,-1.4351,0.7621,9.1687,-0.0396,-0.1721,-0.1133,-1.468703382914402,-0.1604696363210678,1.2212004661560059,-1.9360496997833252,0.0030939332209527493,2.183206796646118,5.051874834090032,0.0,0.1798694133758545,-1.607434097920553,0.0,0.006513296160846949,0.8365509510040283,0.0,0.003326116129755974,0.7329773306846619,0.004829777404665947,0.23491933941841125
1112.0,8190.0,-1.4351,0.7621,9.1687,-0.0396,-0.1721,-0.1133,-1.4696905252388497,-0.150479257106781,1.2709534168243408,-1.9360299110412598,0.0053359405137598515,2.222398281097412,5.0518469391162775,0.0,0.19918207824230194,-1.6074298063861292,0.0,0.01481611654162407,0.8365550637245178,0.0,0.005964629352092743,0.7330294847488403,0.0036509863566607237,0.23083078861236572
1112.0,8190.0,-1.4351,0.7621,9.1687,-0.0396,-0.1721,-0.1133,-1.4706056800535698,-0.14553344249725342,1.1905698776245117,-1.9360536336898804,0.004051128402352333,2.1624650955200195,5.051887559681692,0.0,0.1927458643913269,-1.6074298063861292,0.0,0.009039477445185184,0.8365468978881836,0.0,0.019097520038485527,0.7330657839775085,0.004092399962246418,0.2027079463005066
1112.0,8190.0,-1.4351,0.7621,9.1687,-0.0396,-0.1721,-0.1133,-1.4712733563831826,-0.15239804983139038,1.1997900009155273,-1.935989499092102,0.0020602585282176733,2.1821563243865967,5.051838415652075,0.0,0.18762031197547913,-1.6074417273150843,0.0,-0.011070557869970798,0.8365750312805176,0.0,-0.002727184211835265,0.7330408096313477,0.004973706789314747,0.22716659307479858
1112.0,8190.0,-1.4351,0.7621,9.1687,-0.0396,-0.1721,-0.1133,-1.472272628252842,-0.16788822412490845,1.1951323747634888,-1.935989499092102,-8.773009176366031e-05,2.172255516052246,5.05185084322051,0.0,0.1730615198612213,-1.607413117085592,0.0,-0.0026984417345374823,0.8366109132766724,0.0,0.023783177137374878,0.7330931425094604,0.006506649777293205,0.2847473919391632
1112.0,8190.0,-1.4351,0.7621,9.1687,-0.0396,-0.1721,-0.1133,-1.4732756179622193,-0.17948417365550995,1.13482666015625,-1.9360297918319702,-0.0004895910969935358,2.183786153793335,5.051818835526266,-0.0006447720807045698,0.19025114178657532,-1.6073935667621058,0.0,-0.0007581212557852268,0.8365189433097839,0.0,0.006697001866996288,0.7331333756446838,0.006793382111936808,0.26073965430259705
1112.0,8190.0,-1.4351,0.7621,9.1687,-0.0396,-0.1721,-0.1133,-1.474282794897892,-0.18364723026752472,1.1351382732391357,-1.9359781742095947,-8.449588335679437e-07,2.166318893432617,5.051867472916403,-0.0005479620303958654,0.17310911417007446,-1.6074016729937952,0.0,-0.0036563347093760967,0.836555004119873,0.0,-0.003567173145711422,0.733153223991394,0.005586272571235895,0.2467266321182251
1112.0,8190.0,-1.4351,0.7621,9.1687,-0.0396,-0.1721,-0.1133,-1.4749578473022957,-0.17509539425373077,1.1311323642730713,-1.9360215663909912,-1.5208959092127827e-10,2.1824679374694824,5.05183436253623,-0.0004554458719212562,0.17983901500701904,-1.6073773542987269,0.0,0.005677230190485716,0.8365468978881836,0.0,0.019639531150460243,0.7331573963165283,0.004146842751652002,0.2116650640964508
8190.0,1067.0,-1.9519,0.3882,9.3876,-0.0367,-0.1652,-0.1168,-1.4759728846004982,-0.16493865847587585,1.1713155508041382,-1.9359698295593262,0.003707501571625471,2.1571426391601562,5.051838415652075,-0.00036341865779832006,0.16266313195228577,-1.6074541250811976,0.0,0.01951972395181656,0.836543083190918,0.0,0.0108259292319417,0.7332093119621277,0.0025773763190954924,0.25431331992149353
8190.0,1067.0,-1.9519,0.3882,9.3876,-0.0367,-0.1652,-0.1168,-1.4770080012134095,-0.1651703119277954,1.1881266832351685,-1.9359130859375,0.004076037090271711,2.1957714557647705,5.051850813418188,-0.00030234435689635575,0.18566633760929108,-1.6074217001544397,0.0,0.005771485157310963,0.8364948034286499,0.0,0.008319765329360962,0.7332093715667725,0.002261628396809101,0.26169145107269287
8190.0,1067.0,-1.9519,0.3882,9.3876,-0.0367,-0.1652,-0.1168,-1.478039228623249,-0.17296026647090912,1.1257967948913574,-1.9359376430511475,0.0020794998854398727,2.1389169692993164,5.051802772074499,-0.00032228571944870055,0.18240010738372803,-1.6074541250811976,0.0,0.009703516028821468,0.836547315120697,0.0,0.012954046949744225,0.7332049012184143,0.0037659923546016216,0.24832946062088013
8190.0,1067.0,-1.9519,0.3882,9.3876,-0.0367,-0.1652,-0.1168,-1.4791139674237748,-0.1860145777463913,1.1729577779769897,-1.9358736276626587,0.0006473814137279987,2.119692325592041,5.051806974201956,-0.0002708119573071599,0.1794600784778595,-1.607434097920553,0.0,0.017893090844154358,0.8365227580070496,0.0,0.00631041219457984,0.7332207560539246,0.0050985501147806644,0.25367239117622375
8190.0,1067.0,-1.9519,0.3882,9.3876,-0.0367,-0.1652,-0.1168,-1.47983771682296,-0.18983833491802216,1.1563720703125,-1.9359056949615479,0.0004597565857693553,2.0971152782440186,5.051790612726965,-0.00026591779896989465,0.17636701464653015,-1.607417408620016,0.0,0.0028786370530724525,0.8365631699562073,0.0,0.013290900737047195,0.7332810759544373,0.0056198653765022755,0.24719876050949097
8190.0,1067.0,-1.9519,0.3882,9.3876,-0.0367,-0.1652,-0.1168,-1.4808846202543755,-0.18431997299194336,1.178236722946167,-1.9359697103500366,0.00029197477851994336,2.1683461666107178,5.051830756455221,-0.00023176101967692375,0.16975079476833344,-1.6073978582965296,0.0,0.01198993343859911,0.8365713953971863,0.0,0.0077628460712730885,0.733281135559082,0.004853012505918741,0.26777422428131104
8190.0,1067.0,-1.9519,0.3882,9.3876,-0.0367,-0.1652,-0.1168,-1.482011580174305,-0.181036576628685,1.1702356338500977,-1.9359138011932373,0.0024632797576487064,2.1564903259277344,5.051830756455221,-0.00020531956397462636,0.17849326133728027,-1.6073654333697718,0.0,-5.7437922805547714e-05,0.8365989923477173,0.0,0.005058330483734608,0.7333294749259949,0.003526628017425537,0.3110329508781433
8190.0,1067.0,-1.9519,0.3882,9.3876,-0.0367,-0.1652,-0.1168,-1.483138584797718,-0.17969562113285065,1.1581673622131348,-1.9358899593353271,0.0031294994987547398,2.171088695526123,5.051826673537054,-0.00018429446208756417,0.1761476993560791,-1.6074217001544397,0.0,0.01233753189444542,0.8365350365638733,0.0,0.011126860976219177,0.7333616018295288,0.00289101991802454,0.2550196349620819
8190.0,1067.0,-1.9519,0.3882,9.3876,-0.0367,-0.1652,-0.1168,-1.4841654536179085,-0.18368318676948547,1.148937463760376,-1.9359344244003296,0.0023592112120240927,2.15269136428833,5.051843064814367,-0.00016717638936825097,0.19329479336738586,-1.6074498335467737,0.0,0.008402613922953606,0.8365066647529602,0.0,0.018453342840075493,0.7333492636680603,0.0034732099156826735,0.23937544226646423
8190.0,1067.0,-1.9519,0.3882,9.3876,-0.0367,-0.1652,-0.1168,-1.4849207711270829,-0.1872154027223587,1.1551750898361206,-1.9358735084533691,0.0014858664944767952,2.174436569213867,5.051818835526266,-0.0001574277994222939,0.17513243854045868,-1.607413117085592,0.0,0.0085519477725029,0.8365510106086731,0.0,-0.0010850443504750729,0.7333811521530151,0.0038780600298196077,0.28575825691223145
8190.0,1067.0,-1.9519,0.3882,9.3876,-0.0367,-0.1652,-0.1168,-1.4860240680030365,-0.1892787516117096,1.1901594400405884,-1.9359023571014404,0.0008167823543772101,2.1538424491882324,5.051827060967245,-0.0001688651245785877,0.18601341545581818,-1.607434097920553,0.0,0.010207460261881351,0.8365110754966736,0.0,0.01674872636795044,0.733356773853302,0.004311193246394396,0.1995333731174469
8190.0,1067.0,-1.9519,0.3882,9.3876,-0.0367,-0.1652,-0.1168,-1.4871670392206688,-0.19364513456821442,1.1713552474975586,-1.9358694553375244,0.0005616904818452895,2.1638002395629883,5.051798748760977,-0.00017789135745260864,0.17626836895942688,-1.607413117085592,0.0,0.016437677666544914,0.8365349769592285,0.0,0.01723967306315899,0.7334414124488831,0.004065497312694788,0.2318427860736847
8190.0,1067.0,-1.9519,0.3882,9.3876,-0.0367,-0.1652,-0.1168,-1.4883223709515114,-0.1942022144794464,1.140880823135376,-1.9358941316604614,0.0004993599723093212,2.1420273780822754,5.051854896336355,-0.00016627396689727902,0.17522606253623962,-1.6074259916888636,2.1735804693889804e-06,0.0049744779244065285,0.836506724357605,0.0,0.015852801501750946,0.7334495186805725,0.0029816085007041693,0.2291775345802307
8190.0,1067.0,-1.9519,0.3882,9.3876,-0.0367,-0.1652,-0.1168,-1.4894208398512383,-0.1923748254776001,1.21048903465271,-1.93584144115448,0.0005215185228735209,2.1659493446350098,5.051907557040014,-0.00015550051466561854,0.16777461767196655,-1.6073978582965296,6.050241418975588e-10,0.015832427889108658,0.836594820022583,0.0,0.028021667152643204,0.7334449291229248,0.002536631189286709,0.2340410351753235
8190.0,1067.0,-1.9519,0.3882,9.3876,-0.0367,-0.1652,-0.1168,-1.49016776055608,-0.19005845487117767,1.1985609531402588,-1.9358735084533691,0.002205823315307498,2.168222427368164,5.051794695645132,-0.00014906175783835351,0.1803075671195984,-1.6074498335467737,2.579312631534325e-12,0.012408249080181122,0.8365509510040283,0.0,0.007131647784262896,0.7334453463554382,0.002533259568735957,0.23428885638713837
8190.0,1067.0,-1.9519,0.3882,9.3876,-0.0367,-0.1652,-0.1168,-1.491359607582428,-0.18815098702907562,1.2120720148086548,-1.9358021020889282,0.002511427039280534,2.1635820865631104,5.051822918444433,-0.00014034478226676583,0.17193728685379028,-1.6073692480670374,7.179611667791836e-16,0.005048988852649927,0.836551308631897,0.0,0.0020410947035998106,0.7334611415863037,0.002606614027172327,0.2850750982761383
1046.0,1029.0,-1.4345,0.3906,9.5833,-0.0452,-0.1613,-0.1063,-1.4925342065146943,-0.19689251482486725,1.2015094757080078,-1.9358184337615967,0.0021706544794142246,2.1664605140686035,5.051826673537054,-0.00013259120169095695,0.17138105630874634,-1.607462231312887,1.9984713326084412e-19,0.0027642035856842995,0.8365673422813416,0.0,0.006220144219696522,0.7335010766983032,0.0031115978490561247,0.2120225727558136
1046.0,1029.0,-1.4345,0.3906,9.5833,-0.0452,-0.1613,-0.1063,-1.4937531289509316,-0.20141586661338806,1.1961205005645752,-1.9358258247375488,0.0015621129423379898,2.1802921295166016,5.051830756455221,-0.0001256494433619082,0.17127496004104614,-1.607434097920553,5.562818649500423e-23,0.0035656236577779055,0.8365914821624756,0.0,0.007371889427304268,0.7335452437400818,0.0037415858823806047,0.22574958205223083
1046.0,1029.0,-1.4345,0.3906,9.5833,-0.0452,-0.1613,-0.1063,-1.4950122994235535,-0.20110273361206055,1.1557608842849731,-1.9357173442840576,0.0012339029926806688,2.1556508541107178,5.051830756455221,-0.00011939839168917388,0.15506340563297272,-1.6073978582965296,1.548431035252618e-26,0.014150221832096577,0.8365673422813416,0.0,0.01773345284163952,0.7335250377655029,0.003127706004306674,0.27568772435188293
1046.0,1029.0,-1.4345,0.3906,9.5833,-0.0452,-0.1613,-0.1063,-1.4957755741528054,-0.1943974792957306,1.1521601676940918,-1.9358102083206177,0.001610020874068141,2.1371471881866455,5.05185084322051,-0.00011556556273717433,0.17012622952461243,-1.607434097920553,6.601205532703672e-29,0.0013094614259898663,0.8365107178688049,0.0,0.010336030274629593,0.7335730195045471,0.002983530517667532,0.27138081192970276
1046.0,1029.0,-1.4345,0.3906,9.5833,-0.0452,-0.1613,-0.1063,-1.4969665494612237,-0.1944776326417923,1.2391172647476196,-1.9357255697250366,0.0026614691596478224,2.1591145992279053,5.051827060967245,-0.0001102564056054689,0.16680562496185303,-1.6074102560626429,1.837469586384043e-32,0.009640300646424294,0.8365346193313599,0.0,0.014031143859028816,0.7335488200187683,0.0028187951538711786,0.23749540746212006
1046.0,1029.0,-1.4345,0.3906,9.5833,-0.0452,-0.1613,-0.1063,-1.4982093435576935,-0.20245812833309174,1.1978838443756104,-1.935681939125061,0.0026092256885021925,2.176687002182007,5.051834839373388,-0.00010541368101257831,0.17268523573875427,-1.607417408620016,5.114663881613937e-36,-0.004029643721878529,0.8365510106086731,0.0,0.01698572188615799,0.7335969805717468,0.003513580420985818,0.2595767378807068
1046.0,1029.0,-1.4345,0.3906,9.5833,-0.0452,-0.1613,-0.1063,-1.4994761881283303,-0.20969539880752563,1.2247793674468994,-1.935741901397705,0.0023671872913837433,2.169466257095337,5.0518753109271906,-0.00010097851190948859,0.16750521957874298,-1.6074016729937952,1.4236856085908703e-39,-0.00037671858444809914,0.8365948796272278,0.0,0.019247543066740036,0.7335772514343262,0.00367232714779675,0.23641562461853027
1046.0,1029.0,-1.4345,0.3906,9.5833,-0.0452,-0.1613,-0.1063,-1.500731074517109,-0.20519886910915375,1.2105991840362549,-1.9356777667999268,0.0032022560480982065,2.1572911739349365,5.051842677384176,-9.690142178442329e-05,0.16982322931289673,-1.6074379126178187,3.965674654039232e-43,0.010133299045264721,0.8365148901939392,0.0,0.015116406604647636,0.733572781085968,0.0032225297763943672,0.27898913621902466
1046.0,1029.0,-1.4345,0.3906,9.5833,-0.0452,-0.1613,-0.1063,-1.5015748602202912,-0.19809307157993317,1.2221208810806274,-1.9356942176818848,0.004679444245994091,2.190913677215576,5.051830756455221,-9.436157415620983e-05,0.1692737638950348,-1.6074379126178187,1.401298464324817e-45,0.018042195588350296,0.836563229560852,0.0,-0.0067826504819095135,0.7335807085037231,0.0026627385523170233,0.259762704372406
1046.0,1029.0,-1.4345,0.3906,9.5833,-0.0452,-0.1613,-0.1063,-1.5027931791595002,-0.20085614919662476,1.2182656526565552,-1.9356735944747925,0.0045890226028859615,2.21608829498291,5.051798748760977,-9.079184383153915e-05,0.16952955722808838,-1.6074498335467737,0.0,0.010589366778731346,0.8364624381065369,0.0,-0.004095333628356457,0.7336329817771912,0.0027691898867487907,0.2622598111629486
1046.0,1029.0,-1.4345,0.3906,9.5833,-0.0452,-0.1613,-0.1063,-1.5040239256671448,-0.2103952318429947,1.2123339176177979,-1.9356424808502197,0.003222111612558365,2.196943759918213,5.051834839373388,-8.748244727030396e-05,0.17834559082984924,-1.607405964528219,0.0,0.009574033319950104,0.8365267515182495,0.0,0.0009129190584644675,0.7337096333503723,0.003358423477038741,0.23911745846271515
1046.0,1029.0,-1.4345,0.3906,9.5833,-0.0452,-0.1613,-0.1063,-1.5052665931037446,-0.21491137146949768,1.2481780052185059,-1.9356507062911987,0.0019770918879657984,2.138857364654541,5.051847147732534,-8.440584497293457e-05,0.15891246497631073,-1.6074417273150843,0.0,0.017046773806214333,0.8366077542304993,0.0,0.004563665948808193,0.7336811423301697,0.004409783985465765,0.22639310359954834
1046.0,1029.0,-1.4345,0.3906,9.5833,-0.0452,-0.1613,-0.1063,-1.5061344665339966,-0.2119588404893875,1.2045320272445679,-1.935638189315796,0.0012953627156093717,2.2025880813598633,5.051827060967245,-8.247220830526203e-05,0.18698734045028687,-1.6074016729937952,0.0,0.01035680528730154,0.8365070819854736,0.0,0.0029928642325103283,0.7336967587471008,0.004332208540290594,0.23418831825256348
1046.0,1029.0,-1.4345,0.3906,9.5833,-0.0452,-0.1613,-0.1063,-1.5073208522847672,-0.2058248221874237,1.2140636444091797,-1.9356547594070435,0.0012705426197499037,2.124929666519165,5.051786529808798,-7.973232277436182e-05,0.17744925618171692,-1.6074255148517054,0.0,0.009440172463655472,0.8365509510040283,0.0,0.006885932292789221,0.7337211966514587,0.0036449620965868235,0.23995718359947205
1046.0,1029.0,-1.4345,0.3906,9.5833,-0.0452,-0.1613,-0.1063,-1.5085840497962018,-0.20583581924438477,1.230499505996704,-1.935610294342041,0.0019100698409602046,2.152716875076294,5.051838445454397,-4.3782808489822855e-08,0.17875200510025024,-1.6073978582965296,0.0,0.016518862918019295,0.8365267515182495,0.0,0.0018751720199361444,0.7336927652359009,0.0035496396012604237,0.31879258155822754
1046.0,1029.0,-1.4345,0.3906,9.5833,-0.0452,-0.1613,-0.1063,-1.509851099257805,-0.21055413782596588,1.2594506740570068,-1.9356186389923096,0.001559243188239634,2.1620066165924072,5.051818835526266,-1.2187106358807487e-11,0.1713966727256775,-1.6073735396014612,0.0,0.02666587382555008,0.8366029858589172,0.0,0.003601020434871316,0.7338096499443054,0.003691644873470068,0.23783260583877563
1046.0,1029.0,-1.4345,0.3906,9.5833,-0.0452,-0.1613,-0.1063,-1.5110054400614281,-0.21136945486068726,1.246694803237915,-1.9355822801589966,0.0013492900179699063,2.144911050796509,5.051811086922445,-3.392326084413768e-15,0.16682283580303192,-1.6074298063861292,0.0,0.009694404900074005,0.8365591168403625,0.0,0.011758072301745415,0.7337610721588135,0.003868500702083111,0.2846797704696655
1044.0,1003.0,-1.2778,0.3446,9.414,-0.0481,-0.1721,-0.1257,-1.5118769531003018,-0.2098771333694458,1.232134222984314,-1.9356309175491333,0.0020085100550204515,2.159362554550171,5.051826673537054,-1.4462017202654535e-17,0.17894253134727478,-1.607417408620016,0.0,0.013653472065925598,0.836563229560852,0.0,-0.003180648433044553,0.7338171601295471,0.0034410268999636173,0.267866313457489
1044.0,1003.0,-1.2778,0.3446,9.414,-0.0481,-0.1721,-0.1257,-1.513075766419508,-0.20296837389469147,1.244412899017334,-1.9355502128601074,0.003597414121031761,2.1437008380889893,5.051810669689932,-4.025555634242787e-21,0.17714360356330872,-1.607434097920553,0.0,0.01742282509803772,0.8365107774734497,0.0,0.0010870773112401366,0.7338695526123047,0.0030822993721812963,0.2578914761543274
1044.0,1003.0,-1.2778,0.3446,9.414,-0.0481,-0.1721,-0.1257,-1.51430647939954,-0.2046365886926651,1.259509801864624,-1.9355418682098389,0.003998062573373318,2.1598715782165527,5.051806914597311,-3.312316403025761e-05,0.17325371503829956,-1.607361141835348,0.0,0.013834716752171516,0.836543083190918,0.0,0.011200200766324997,0.7338250875473022,0.0030190933030098677,0.2039909064769745
1044.0,1003.0,-1.2778,0.3446,9.414,-0.0481,-0.1721,-0.1257,-1.515565612619259,-0.20731976628303528,1.238403558731079,-1.9354984760284424,0.0029408689588308334,2.1375675201416016,5.051770525961675,-2.2703067870111227e-08,0.16440340876579285,-1.6074255148517054,0.0,0.007528066169470549,0.8365271091461182,0.0,0.01503903977572918,0.7338449358940125,0.0038661868311464787,0.21009814739227295
1044.0,1003.0,-1.2778,0.3446,9.414,-0.0481,-0.1721,-0.1257,-1.5166882251254101,-0.20501290261745453,1.266625165939331,-1.9354901313781738,0.0021729115396738052,2.131810188293457,5.051827060967245,-6.319482697553225e-12,0.17224019765853882,-1.607413117085592,0.0,0.018031995743513107,0.8365750908851624,0.0,0.002452780492603779,0.7338891625404358,0.004349780734628439,0.222384512424469
1044.0,1003.0,-1.2778,0.3446,9.414,-0.0481,-0.1721,-0.1257,-1.5175153736821194,-0.20635886490345,1.2971606254577637,-1.9355273246765137,0.002176375361159444,2.145331382751465,5.051822918444433,-2.6940946760804774e-14,0.17628344893455505,-1.607417408620016,0.0,0.012899937108159065,0.8365826606750488,0.0,0.01993083767592907,0.733852744102478,0.0038206949830055237,0.25887158513069153
1044.0,1003.0,-1.2778,0.3446,9.414,-0.0481,-0.1721,-0.1257,-1.5186903712204476,-0.20509175956249237,1.242762804031372,-1.9354705810546875,0.0031618434004485607,2.17090106010437,5.051810669689932,-7.49911272710673e-18,0.16817204654216766,-1.607417408620016,0.0,0.010564709082245827,0.8365509510040283,0.0,0.012798536568880081,0.7339251637458801,0.0031513667199760675,0.23399768769741058
1044.0,1003.0,-1.2778,0.3446,9.414,-0.0481,-0.1721,-0.1257,-1.5198611740818997,-0.20209699869155884,1.2537813186645508,-1.9354424476623535,0.004575362894684076,2.150477409362793,5.051762389927664,-2.0874056238553373e-21,0.15596957504749298,-1.607389275227682,0.0,0.01798989623785019,0.8365672826766968,0.0,-0.0040606544353067875,0.7339131236076355,0.002743939170613885,0.24584536254405975
1044.0,1003.0,-1.2778,0.3446,9.414,-0.0481,-0.1721,-0.1257,-1.5211085651865979,-0.1967088133096695,1.268231749534607,-1.935418725013733,0.006338754668831825,2.1755499839782715,5.051802831679144,-5.810370774623467e-25,0.17516309022903442,-1.607413117085592,0.0,0.018709709867835045,0.8365268111228943,0.0,0.018632344901561737,0.7339370846748352,0.0023630016949027777,0.23613567650318146
1044.0,1003.0,-1.2778,0.3446,9.414,-0.0481,-0.1721,-0.1257,-1.5222991791418572,-0.19444230198860168,1.3268048763275146,-1.935398817062378,0.007601637858897448,2.1542487144470215,5.051818358689108,-1.617337948656826e-28,0.16836588084697723,-1.6074016729937952,0.0,0.007227991241961718,0.8365750908851624,0.0,-0.0005188308423385024,0.7339491248130798,0.0022244483698159456,0.2694682478904724
1044.0,1003.0,-1.2778,0.3446,9.414,-0.0481,-0.1721,-0.1257,-1.523050681953766,-0.19526059925556183,1.324507236480713,-1.9353139400482178,0.007320140954107046,2.1577706336975098,5.0518348691757105,-6.89496602844874e-31,0.1826491802930832,-1.6074016729937952,0.0,0.01766417734324932,0.8365386724472046,0.0,0.011305602267384529,0.7339730858802795,0.0027686257380992174,0.1973000168800354
1044.0,1003.0,-1.2778,0.3446,9.414,-0.0481,-0.1721,-0.1257,-1.524225541656353,-0.200847789645195,1.2671329975128174,-1.9353272914886475,0.00732842180877924,2.1824822425842285,5.0518632409866235,-1.9192392693146454e-34,0.1632308065891266,-1.6074016729937952,2.4948520149337128e-05,0.02088429406285286,0.8365431427955627,0.0,0.0033544001635164022,0.7339450120925903,0.002423515310510993,0.20666901767253876
1044.0,1003.0,-1.2778,0.3446,9.414,-0.0481,-0.1721,-0.1257,-1.5254966777614136,-0.20020751655101776,1.2757205963134766,-1.9352383613586426,0.00850088894367218,2.160235643386841,5.0518188057239435,-5.342272710593089e-38,0.1653377264738083,-1.6074379126178187,6.288417608857344e-08,0.004397235345095396,0.8365346789360046,0.0,0.005267197731882334,0.7339648604393005,0.0019923720974475145,0.22538359463214874
1044.0,1003.0,-1.2778,0.3446,9.414,-0.0481,-0.1721,-0.1257,-1.526679453705885,-0.18928328156471252,1.2881792783737183,-1.9351742267608643,0.010596263222396374,2.149488687515259,5.0518023548419855,-1.487057930341496e-41,0.1652740091085434,-1.607450310383932,1.7504041618932042e-11,0.015821119770407677,0.8365349769592285,0.0,-0.007972793653607368,0.7339528203010559,0.0014626376796513796,0.18941208720207214
1044.0,1003.0,-1.2778,0.3446,9.414,-0.0481,-0.1721,-0.1257,-1.527849768554308,-0.1866527646780014,1.3170926570892334,-1.9350664615631104,0.012018512934446335,2.1697616577148438,5.051838952093878,-4.203895392974451e-45,0.1676175594329834,-1.6074217001544397,4.872314777657448e-15,0.013695216737687588,0.8365395069122314,0.0,0.0031037444714456797,0.7339767217636108,0.0010208655148744583,0.24386060237884521
1044.0,1003.0,-1.2778,0.3446,9.414,-0.0481,-0.1721,-0.1257,-1.5286456172219296,-0.1896916925907135,1.3209859132766724,-1.935070514678955,0.012097432278096676,2.162712335586548,5.051806914597311,-0.0,0.18330511450767517,-1.6074140707599085,2.077144320402116e-17,0.018677402287721634,0.8365468978881836,0.0,0.008240558207035065,0.7339972257614136,0.0009688202990218997,0.20903077721595764
1044.0,1003.0,-1.2778,0.3446,9.414,-0.0481,-0.1721,-0.1257,-1.5298286129585286,-0.20079222321510315,1.271318793296814,-1.9350072145462036,0.011145888827741146,2.178690195083618,5.051810669689932,-0.0,0.16410446166992188,-1.607389275227682,5.7818083048124e-21,0.012196112424135208,0.8365629315376282,0.0,0.0015487773343920708,0.7339649200439453,0.0012133242562413216,0.2434152364730835
1030.0,913.0,-1.1073,0.5133,9.6156,-0.0197,-0.1521,-0.1138,-1.5310559657267113,-0.202477365732193,1.2951810359954834,-1.9349110126495361,0.011673366650938988,2.1342201232910156,5.05188341715888,-0.0,0.15625041723251343,-1.6073935667621058,1.6093874760385002e-24,0.020960308611392975,0.836575448513031,0.0,-0.0018098640721291304,0.7339808940887451,0.0011405781842768192,0.21148648858070374
1030.0,913.0,-1.1073,0.5133,9.6156,-0.0197,-0.1521,-0.1138,-1.5322785948267956,-0.19084155559539795,1.3071620464324951,-1.934831142425537,0.0150679936632514,2.1725223064422607,5.051830756455221,-0.0,0.1537778377532959,-1.6074102560626429,4.479789124877514e-28,0.012679088860750198,0.8365186452865601,0.0,-0.009551390074193478,0.7339972257614136,0.0007758743013255298,0.23491062223911285
1030.0,913.0,-1.1073,0.5133,9.6156,-0.0197,-0.1521,-0.1138,-1.5330945712378998,-0.1879025101661682,1.3224380016326904,-1.934739112854004,0.017163535580039024,2.1872754096984863,5.0517946658428095,-0.0,0.14969457685947418,-1.6074102560626429,1.9098044188431076e-30,0.017462605610489845,0.8365510106086731,0.0,0.0020555653609335423,0.7339849472045898,0.0006382479914464056,0.2128237634897232
1030.0,913.0,-1.1073,0.5133,9.6156,-0.0197,-0.1521,-0.1138,-1.534228754495718,-0.19129188358783722,1.373384952545166,-1.9346468448638916,0.018331194296479225,2.176614761352539,5.0517828343208215,-0.0,0.1704639196395874,-1.607405964528219,5.316012030298038e-34,0.010461317375302315,0.8365468978881836,0.0,-0.0009820522973313928,0.7340010404586792,0.0003982410707976669,0.24471613764762878
1030.0,913.0,-1.1073,0.5133,9.6156,-0.0197,-0.1521,-0.1138,-1.5354480531862755,-0.20107853412628174,1.3042106628417969,-1.9345711469650269,0.01662709191441536,2.156987428665161,5.051835226803579,-0.00010993047908414155,0.15758804976940155,-1.6073816458331507,1.47973138145062e-37,0.016542747616767883,0.836563229560852,0.0,0.004560892935842276,0.7340050935745239,0.00043961769551970065,0.23133406043052673
1030.0,913.0,-1.1073,0.5133,9.6156,-0.0197,-0.1521,-0.1138,-1.5365946044078846,-0.20451399683952332,1.2765134572982788,-1.9345160722732544,0.016101431101560593,2.160775899887085,5.051871377020635,-0.0009891189401969314,0.1661585569381714,-1.6074021498309534,4.118836576189935e-41,0.028557533398270607,0.8365509510040283,0.0,0.0010087019763886929,0.7340092062950134,0.0005509662441909313,0.20923668146133423
1030.0,913.0,-1.1073,0.5133,9.6156,-0.0197,-0.1521,-0.1138,-1.5378019300154229,-0.19464866816997528,1.2888842821121216,-1.9343554973602295,0.018414629623293877,2.174668073654175,5.051794755249777,-0.0008651258540339768,0.166475310921669,-1.6073573271380823,1.1210387714598537e-44,0.016755307093262672,0.8365591168403625,0.0,0.002267607254907489,0.7340012788772583,0.00041391284321434796,0.26317334175109863
1030.0,913.0,-1.1073,0.5133,9.6156,-0.0197,-0.1521,-0.1138,-1.5385890503278752,-0.19116096198558807,1.3037137985229492,-1.9342881441116333,0.01945282518863678,2.153078079223633,5.051786529808798,-0.0007170395692810416,0.15234868228435516,-1.6074016729937952,0.0,0.022892851382493973,0.8365386724472046,0.0,0.008865744806826115,0.7339808940887451,0.00034958013566210866,0.20036514103412628
1030.0,913.0,-1.1073,0.5133,9.6156,-0.0197,-0.1521,-0.1138,-1.5396756821176787,-0.19053339958190918,1.3007526397705078,-1.9342000484466553,0.02122718095779419,2.1808972358703613,5.051806884794988,-0.0006684461841359735,0.1699991375207901,-1.6073573271380823,0.0,0.014797035604715347,0.8365755081176758,0.0,0.010701511055231094,0.7340455055236816,0.00028349546482786536,0.1938439905643463
1030.0,913.0,-1.1073,0.5133,9.6156,-0.0197,-0.1521,-0.1138,-1.5408021875521918,-0.19475281238555908,1.357190728187561,-1.9340115785598755,0.021486220881342888,2.155576467514038,5.0517828343208215,-0.0018936059204861522,0.14977994561195374,-1.6074016729937952,0.0,0.024078117683529854,0.8365750312805176,0.0,0.005355845205485821,0.7339887619018555,0.0002861116372514516,0.15167401731014252
1030.0,913.0,-1.1073,0.5133,9.6156,-0.0197,-0.1521,-0.1138,-1.5419857253185292,-0.1969459503889084,1.3108227252960205,-1.9339121580123901,0.022971374914050102,2.19504451751709,5.0517992852027795,-0.002576997736468911,0.14631198346614838,-1.6074217001544397,0.0,0.014561353251338005,0.836482584476471,0.0,0.00291502196341753,0.7340092062950134,0.00028800524887628853,0.17616954445838928
1030.0,913.0,-1.1073,0.5133,9.6156,-0.0197,-0.1521,-0.1138,-1.5431165930679818,-0.19019785523414612,1.3379840850830078,-1.9336957931518555,0.02477014809846878,2.1524198055267334,5.05175461152152,-0.0018113258993253112,0.16640505194664001,-1.6073897520648401,3.0396611691685393e-05,0.02247297763824463,0.8365468978881836,0.0,0.005379143171012402,0.7340133786201477,0.0002545705938246101,0.23669186234474182
1030.0,913.0,-1.1073,0.5133,9.6156,-0.0197,-0.1521,-0.1138,-1.5438919992050906,-0.1862211376428604,1.3476524353027344,-1.9336085319519043,0.02714979089796543,2.1807594299316406,5.051710682898321,-0.001384891220368445,0.14915913343429565,-1.6073816458331507,3.50626723957248e-05,0.014668247662484646,0.8364989161491394,0.0,0.004079306963831186,0.7340251803398132,9.229310671798885e-05,0.21594205498695374
1030.0,913.0,-1.1073,0.5133,9.6156,-0.0197,-0.1521,-0.1138,-1.5450309005430718,-0.18533405661582947,1.2937719821929932,-1.9334925413131714,0.030216669663786888,2.152019500732422,5.05169444063262,-0.0011039137607440352,0.14528712630271912,-1.6073978582965296,3.314999048598111e-05,0.019392654299736023,0.8365312814712524,0.0,0.001493083662353456,0.7339889407157898,7.996766362339258e-05,0.22961148619651794
1030.0,913.0,-1.1073,0.5133,9.6156,-0.0197,-0.1521,-0.1138,-1.546133903121092,-0.18988795578479767,1.3181631565093994,-1.9332118034362793,0.030332837253808975,2.2178850173950195,5.051694828062811,-0.002608724171295762,0.15565697848796844,-1.6073735396014612,3.141432534903288e-05,0.04002758860588074,0.836482584476471,0.0,-0.021741928532719612,0.7340050935745239,0.00010584374103927985,0.157193124294281
1030.0,913.0,-1.1073,0.5133,9.6156,-0.0197,-0.1521,-0.1138,-1.5472779844752331,-0.18891285359859467,1.3015508651733398,-1.9330769777297974,0.03255461901426315,2.1989097595214844,5.051698910980978,-0.0035747243091464043,0.14948904514312744,-1.6073654333697718,2.98514096357394e-05,0.016475237905979156,0.8365030288696289,0.0,0.005964786279946566,0.7340290546417236,9.470561781199649e-05,0.19108571112155914
929.0,823.0,-0.9063,0.3912,10.3167,-0.0382,-0.0887,-0.1075,-1.5484009695104142,-0.19082188606262207,1.3073583841323853,-1.9328646659851074,0.03559693694114685,2.1593804359436035,5.0516789732273,-0.002954051597043872,0.14640465378761292,-1.6073978582965296,4.259227716829628e-05,0.031926922500133514,0.8365713953971863,0.0,-0.005536670796573162,0.7339930534362793,8.5688334365841e-05,0.1970796287059784
929.0,823.0,-0.9063,0.3912,10.3167,-0.0382,-0.0887,-0.1075,-1.5490674071810027,-0.189070463180542,1.3147780895233154,-1.9326927661895752,0.037915829569101334,2.226416826248169,5.05165849903182,-0.0025260872207581997,0.1541062593460083,-1.6074102560626429,4.13481320720166e-05,0.03876064717769623,0.8365509510040283,0.0,0.007810923736542463,0.733960747718811,8.057408558670431e-05,0.15702906250953674
929.0,823.0,-0.9063,0.3912,10.3167,-0.0382,-0.0887,-0.1075,-1.5501983941397448,-0.18736328184604645,1.3008246421813965,-1.9324450492858887,0.04203752055764198,2.209925889968872,5.051670747786321,-0.0018898503622040153,0.14515869319438934,-1.6074102560626429,3.953221676056273e-05,0.025045957416296005,0.8365309238433838,0.0,-0.008743240498006344,0.7339726090431213,7.395313878078014e-05,0.17220079898834229
929.0,823.0,-0.9063,0.3912,10.3167,-0.0382,-0.0887,-0.1075,-1.551329720099904,-0.1827397346496582,1.3360426425933838,-1.9321331977844238,0.04992472380399704,2.2194321155548096,5.051699089794912,-0.001294181915000081,0.1460685431957245,-1.6074016729937952,3.786882371059619e-05,0.0352620854973793,0.8364988565444946,0.0,-0.004220504779368639,0.7339890003204346,6.833778752479702e-05,0.18898218870162964
929.0,823.0,-0.9063,0.3912,10.3167,-0.0382,-0.0887,-0.1075,-1.5524084505489846,-0.1782170683145523,1.3110520839691162,-1.9318338632583618,0.05472485348582268,2.2551469802856445,5.05165849903182,-0.0008185235783457756,0.14191341400146484,-1.6074255148517054,3.633973028627224e-05,0.03854101896286011,0.8365267515182495,0.0,-0.0033627371303737164,0.7340092062950134,6.351496995193884e-05,0.13748909533023834
929.0,823.0,-0.9063,0.3912,10.3167,-0.0382,-0.0887,-0.1075,-1.5535239328495045,-0.17852683365345,1.3509447574615479,-1.9315065145492554,0.05992380529642105,2.230631113052368,5.0516667542751215,-0.000791511032730341,0.1423913538455963,-1.6074016729937952,4.652159987017512e-05,0.029056373983621597,0.8365309238433838,0.0,-0.0037196981720626354,0.7340251803398132,5.932804197072983e-05,0.15583869814872742
929.0,823.0,-0.9063,0.3912,10.3167,-0.0382,-0.0887,-0.1075,-1.5542228513262053,-0.18289487063884735,1.2937209606170654,-1.9312989711761475,0.062219880521297455,2.2350692749023438,5.0516351638133905,-0.00120334152597934,0.14106404781341553,-1.6073816458331507,4.539770452538505e-05,0.033125028014183044,0.8365309238433838,0.0,-0.0009368089959025383,0.7340050935745239,5.6830533139873296e-05,0.15593504905700684
929.0,823.0,-0.9063,0.3912,10.3167,-0.0382,-0.0887,-0.1075,-1.555366382268705,-0.19102603197097778,1.3470232486724854,-1.930802822113037,0.06580804288387299,2.237795352935791,5.051622825651922,-0.00257843267172575,0.15490248799324036,-1.6073654333697718,4.374305353849195e-05,0.02970658615231514,0.8365230560302734,0.0,0.003620041301473975,0.7339807748794556,5.345511817722581e-05,0.12616309523582458
929.0,823.0,-0.9063,0.3912,10.3167,-0.0382,-0.0887,-0.1075,-1.556464590398111,-0.19018082320690155,1.3272491693496704,-1.9304556846618652,0.06941106170415878,2.199052333831787,5.051618861943044,-0.0020701661705970764,0.14061248302459717,-1.6073573271380823,4.220460687065497e-05,0.036582984030246735,0.8365309238433838,0.0,-0.012403877452015877,0.7339968681335449,5.045817670179531e-05,0.18875376880168915
929.0,823.0,-0.9063,0.3912,10.3167,-0.0382,-0.0887,-0.1075,-1.557595925671496,-0.1793234646320343,1.3754879236221313,-1.9300320148468018,0.07398030906915665,2.244553565979004,5.051631051092901,-0.0011397597845643759,0.15072886645793915,-1.6073859373675745,4.0770712075755e-05,0.030483264476060867,0.8365591764450073,0.0,-0.007877604104578495,0.7340210676193237,4.777951835421845e-05,0.14512450993061066
929.0,823.0,-0.9063,0.3912,10.3167,-0.0382,-0.0887,-0.1075,-1.5583677620491763,-0.17502595484256744,1.34242844581604,-1.9296724796295166,0.07940324395895004,2.252563238143921,5.051614749222555,-0.00031735579250380397,0.1349603831768036,-1.607389275227682,4.9176545871887356e-05,0.043736498802900314,0.8364825248718262,0.0,0.006945762783288956,0.7340010404586792,4.614629506249912e-05,0.13816435635089874
929.0,823.0,-0.9063,0.3912,10.3167,-0.0382,-0.0887,-0.1075,-1.559418487628438,-0.17848031222820282,1.353916883468628,-1.9292207956314087,0.08404474705457687,2.232924699783325,5.051638829499044,-0.0003039822622667998,0.1491674929857254,-1.6074016729937952,2.7182213813148337e-08,0.02980858087539673,0.8365386724472046,0.0,-0.0055246250703930855,0.7340129017829895,5.352753942133859e-05,0.20674903690814972
929.0,823.0,-0.9063,0.3912,10.3167,-0.0382,-0.0887,-0.1075,-1.560541603980102,-0.18693622946739197,1.394493818283081,-1.9286850690841675,0.08873942494392395,2.2583234310150146,5.051574486285009,-0.00027140494785271585,0.14119374752044678,-1.6073816458331507,7.566267924696835e-12,0.03919883817434311,0.8365309238433838,0.0,-0.0022870872635394335,0.7339727282524109,4.028292096336372e-05,0.14044973254203796
929.0,823.0,-0.9063,0.3912,10.3167,-0.0382,-0.0887,-0.1075,-1.5616884690574189,-0.19423554837703705,1.3464419841766357,-1.9281378984451294,0.09161052107810974,2.2769155502319336,5.051606911211767,-0.0004193081404082477,0.14671321213245392,-1.607405964528219,2.1060987189533507e-15,0.029442433267831802,0.8365309238433838,0.0,0.003945241682231426,0.734025239944458,5.392132879933342e-05,0.16196218132972717
929.0,823.0,-0.9063,0.3912,10.3167,-0.0382,-0.0887,-0.1075,-1.5628800413436075,-0.18987926840782166,1.3205018043518066,-1.9275423288345337,0.09795841574668884,2.298046588897705,5.051639216929235,-0.0007436799933202565,0.14523068070411682,-1.6073735396014612,5.862402709091943e-19,0.038429439067840576,0.8365796208381653,0.0,0.004409953486174345,0.7339930534362793,5.088217221782543e-05,0.1925266534090042
929.0,823.0,-0.9063,0.3912,10.3167,-0.0382,-0.0887,-0.1075,-1.5636024179733177,-0.18392737209796906,1.3710176944732666,-1.9271185398101807,0.10573140531778336,2.327218532562256,5.051647084742346,-0.0005589866195805371,0.14214856922626495,-1.6073859373675745,2.4992341323623412e-21,0.03911682218313217,0.8365309238433838,0.0,-0.0034760097041726112,0.7340293526649475,4.903403532807715e-05,0.1472066342830658
929.0,823.0,-0.9063,0.3912,10.3167,-0.0382,-0.0887,-0.1075,-1.564770295550563,-0.18111266195774078,1.3553946018218994,-1.9265236854553223,0.11535270512104034,2.309454917907715,5.051566856890478,-0.00048687728121876717,0.14381816983222961,-1.6073697249041956,6.956710901578301e-25,0.045041196048259735,0.8365309238433838,0.0,-0.007430491037666798,0.7339685559272766,4.650062692235224e-05,0.16428187489509583
849.0,632.0,-0.7412,0.3529,9.9673,-0.0431,-0.0163,-0.1217,-1.5659089263393362,-0.1897898018360138,1.3385608196258545,-1.9258440732955933,0.11750464886426926,2.275820255279541,5.051594990282812,-0.0005796035984531045,0.14801569283008575,-1.6073816458331507,1.9364260218429032e-28,0.03248629719018936,0.836482584476471,0.0,0.0017208002973347902,0.7340450286865234,4.421614721650258e-05,0.16051162779331207
849.0,632.0,-0.7412,0.3529,9.9673,-0.0431,-0.0163,-0.1217,-1.5670961879989882,-0.2013079822063446,1.3840324878692627,-1.9250690937042236,0.11755767464637756,2.2845089435577393,5.0515668270881555,-0.0029080011881887913,0.14786677062511444,-1.6073573271380823,5.390113559502043e-32,0.02824905887246132,0.836530864238739,0.0,-0.006897998042404652,0.7340010404586792,4.214556611259468e-05,0.14892655611038208
849.0,632.0,-0.7412,0.3529,9.9673,-0.0431,-0.0163,-0.1217,-1.5682547416402777,-0.1979116052389145,1.3753503561019897,-1.9243460893630981,0.12289641797542572,2.2870240211486816,5.051574903517523,-0.0021553628612309694,0.14409127831459045,-1.6073816458331507,1.5003578267063735e-35,0.026851940900087357,0.836563229560852,0.0,0.005138891749083996,0.7340050935745239,4.026026726933196e-05,0.16552306711673737
849.0,632.0,-0.7412,0.3529,9.9673,-0.0431,-0.0163,-0.1217,-1.5689459137250488,-0.19191254675388336,1.3798942565917969,-1.9238423109054565,0.12979340553283691,2.310112476348877,5.051550793438711,-0.0015358312521129847,0.14152950048446655,-1.6073978582965296,6.456328992499039e-05,0.03281697258353233,0.8365753889083862,0.0,-0.016139796003699303,0.7340250015258789,3.90944151149597e-05,0.14581292867660522
849.0,632.0,-0.7412,0.3529,9.9673,-0.0431,-0.0163,-0.1217,-1.5701049671373148,-0.1877637356519699,1.3684864044189453,-1.923067331314087,0.1395498663187027,2.340480327606201,5.051498579769888,-0.0010726427426561713,0.13255906105041504,-1.6073816458331507,6.226740515558049e-05,0.034796103835105896,0.8365229964256287,0.0,-0.0007880429038777947,0.733992874622345,3.746694346773438e-05,0.16995371878147125
849.0,632.0,-0.7412,0.3529,9.9673,-0.0431,-0.0163,-0.1217,-1.5712644062437953,-0.19355548918247223,1.3433490991592407,-1.9222280979156494,0.14225731790065765,2.3107924461364746,5.051478493004598,-0.003980854991823435,0.13488003611564636,-1.6073535124408167,5.9785736084450036e-05,0.04075976833701134,0.8365672826766968,0.0,0.0007893537986092269,0.7340210676193237,3.5969536838820204e-05,0.13680769503116608
849.0,632.0,-0.7412,0.3529,9.9673,-0.0431,-0.0163,-0.1217,-1.5724388561644496,-0.20079556107521057,1.4031778573989868,-1.921239972114563,0.1468374878168106,2.323514223098755,5.051510828524389,-0.005709981545805931,0.14516910910606384,-1.6073172728167933,5.749422052758746e-05,0.02494855970144272,0.8365066647529602,0.0,-0.007877776399254799,0.7340413331985474,4.5657474402105436e-05,0.14340724050998688
849.0,632.0,-0.7412,0.3529,9.9673,-0.0431,-0.0163,-0.1217,-1.5736218891539515,-0.20333440601825714,1.3736679553985596,-1.920422077178955,0.15637896955013275,2.3219711780548096,5.051482665329733,-0.004613918252289295,0.13861635327339172,-1.6073697249041956,6.64337640046142e-05,0.029941905289888382,0.8365673422813416,0.0,-0.004888166673481464,0.7340450286865234,4.440966949914582e-05,0.1658133566379547
849.0,632.0,-0.7412,0.3529,9.9673,-0.0431,-0.0163,-0.1217,-1.5744129619994105,-0.19994311034679413,1.4022749662399292,-1.9197745323181152,0.15893901884555817,2.3401215076446533,5.0514867482479,-0.003375786589458585,0.12219145148992538,-1.6073697249041956,6.485018820967525e-05,0.039997704327106476,0.836567223072052,0.0,0.005881396122276783,0.7340211272239685,4.334038749220781e-05,0.17851531505584717
849.0,632.0,-0.7412,0.3529,9.9673,-0.0431,-0.0163,-0.1217,-1.5756246052184046,-0.19574789702892303,1.371835470199585,-1.9187272787094116,0.1647501289844513,2.3155412673950195,5.051422405033865,-0.0023159063421189785,0.13419826328754425,-1.6073692480670374,6.259506335482001e-05,0.0442587286233902,0.8365796804428101,0.0,-0.0029859663918614388,0.7340372800827026,4.1829669498838484e-05,0.1139100193977356
849.0,632.0,-0.7412,0.3529,9.9673,-0.0431,-0.0163,-0.1217,-1.5767632923521937,-0.19761702418327332,1.4120615720748901,-1.9177647829055786,0.17335811257362366,2.3253040313720703,5.051402735501089,-0.0032705464400351048,0.12172045558691025,-1.6073535124408167,6.0491507611004636e-05,0.044668860733509064,0.8365509510040283,0.0,0.01096399500966072,0.7340050935745239,4.0420705772703514e-05,0.15020078420639038
849.0,632.0,-0.7412,0.3529,9.9673,-0.0431,-0.0163,-0.1217,-1.577930589715475,-0.19902364909648895,1.3579659461975098,-1.9166935682296753,0.1841086596250534,2.3892340660095215,5.051374691515722,-0.005504201166331768,0.13890433311462402,-1.6074016729937952,5.03107514759904e-07,0.04851827770471573,0.8365669846534729,0.0,0.00047405215445905924,0.7340167760848999,9.656226029619575e-05,0.15809302031993866
849.0,632.0,-0.7412,0.3529,9.9673,-0.0431,-0.0163,-0.1217,-1.5791684589781703,-0.20185010135173798,1.366990089416504,-1.9155627489089966,0.1929105669260025,2.3940134048461914,5.051326739579,-0.009018204174935818,0.13019607961177826,-1.6073535124408167,1.4004181148052908e-10,0.031189383938908577,0.836575448513031,0.0,-0.006788443308323622,0.7340009808540344,0.00012949293886777014,0.1789550483226776
849.0,632.0,-0.7412,0.3529,9.9673,-0.0431,-0.0163,-0.1217,-1.5799404583373011,-0.20763537287712097,1.3960245847702026,-1.9147799015045166,0.19429737329483032,2.368539333343506,5.051214444428243,-0.012941759079694748,0.12208010256290436,-1.6073697249041956,5.970202088777243e-13,0.04389796778559685,0.8365431427955627,0.0,-0.010885495692491531,0.7339969277381897,0.00012506727944128215,0.16087597608566284
849.0,632.0,-0.7412,0.3529,9.9673,-0.0431,-0.0163,-0.1217,-1.5811311207213343,-0.20909202098846436,1.413438081741333,-1.9135563373565674,0.19767723977565765,2.351534366607666,5.0511982319648645,-0.016589712351560593,0.12495364248752594,-1.6073535124408167,1.661827423489408e-16,0.043027788400650024,0.8365070819854736,0.0,0.005349528510123491,0.734000563621521,0.000118037591164466,0.18768653273582458
849.0,632.0,-0.7412,0.3529,9.9673,-0.0431,-0.0163,-0.1217,-1.5824061832823695,-0.20663495361804962,1.3797690868377686,-1.912353515625,0.21019716560840607,2.358438014984131,5.051102477103033,-0.021209150552749634,0.1283940225839615,-1.6073415915118616,4.6257578059319075e-20,0.03996202349662781,0.8365672826766968,0.0,-0.0033057399559766054,0.7340813875198364,0.00011175615509273484,0.18703123927116394
849.0,632.0,-0.7412,0.3529,9.9673,-0.0431,-0.0163,-0.1217,-1.5835887394347132,-0.2037871778011322,1.4470884799957275,-1.911116123199463,0.2281639128923416,2.441192626953125,5.050893801241674,-0.03133546561002731,0.12145408987998962,-1.6073816458331507,1.2875967555303745e-23,0.0291425958275795,0.8365948796272278,0.0,0.007556998636573553,0.7339807152748108,0.00010610933532007039,0.1425795555114746
816.0,631.0,-1.4285,0.326,9.719,-0.044,-0.1814,-0.1129,-1.5844165287413539,-0.20240111649036407,1.381165623664856,-1.910152792930603,0.23278851807117462,2.3996071815490723,5.050725716143408,-0.04621943086385727,0.10309950262308121,-1.6074140707599085,5.489227595519772e-26,0.04232566058635712,0.836543083190918,0.0,-0.003583631943911314,0.7340129017829895,0.00010265142191201448,0.12220218777656555
816.0,631.0,-1.4285,0.326,9.719,-0.044,-0.1814,-0.1129,-1.5856872997679652,-0.20734164118766785,1.4072768688201904,-1.908720850944519,0.23425938189029694,2.4154558181762695,5.050353336125173,-0.07886146008968353,0.09837640076875687,-1.607377831135885,1.5279466024191662e-29,0.04608782380819321,0.8366109728813171,0.0,0.0007446701056323946,0.7340492010116577,9.786752343643457e-05,0.12337742745876312
816.0,631.0,-1.4285,0.326,9.719,-0.044,-0.1814,-0.1129,-1.586954732934469,-0.21640412509441376,1.3321133852005005,-1.9072548151016235,0.24397321045398712,2.5024337768554688,5.049753325968542,-0.12291847914457321,0.0872921496629715,-1.6073415915118616,4.2530950489604894e-33,0.05630135536193848,0.8365030288696289,0.0,0.003095990978181362,0.7340047359466553,0.00010696287790779024,0.17416933178901672
816.0,631.0,-1.4285,0.326,9.719,-0.044,-0.1814,-0.1129,-1.5882445774474085,-0.21623766422271729,1.3794854879379272,-1.9057421684265137,0.26028135418891907,2.439539909362793,5.0488566038902185,-0.15395386517047882,0.0687471479177475,-1.6073821226703089,1.183864564388617e-36,0.053305450826883316,0.836563229560852,0.0,0.008069271221756935,0.734017014503479,0.00017459903028793633,0.13774539530277252
816.0,631.0,-1.4285,0.326,9.719,-0.044,-0.1814,-0.1129,-1.589532037774557,-0.20638594031333923,1.4242730140686035,-1.9041345119476318,0.27290165424346924,2.488476276397705,5.0478122411067865,-0.17058031260967255,0.05112055689096451,-1.6073616186725062,3.2953355076601696e-40,0.038296185433864594,0.8364948034286499,0.0,-0.0016276526730507612,0.7340492010116577,0.00015639394405297935,0.12232702970504761
816.0,631.0,-1.4285,0.326,9.719,-0.044,-0.1814,-0.1129,-1.5904199085631312,-0.20760107040405273,1.422047734260559,-1.9030834436416626,0.27637234330177307,2.4770917892456055,5.047084170370855,-0.18077470362186432,0.0433315671980381,-1.607337776814596,8.173927199095488e-05,0.0470181480050087,0.8365509510040283,0.0,-0.006843256298452616,0.7340050339698792,0.00014622935850638896,0.16003048419952393
816.0,631.0,-1.4285,0.326,9.719,-0.044,-0.1814,-0.1129,-1.591738840142721,-0.2161967009305954,1.387904405593872,-1.9012988805770874,0.28147178888320923,2.4503777027130127,5.045927780657568,-0.21241609752178192,0.0634998008608818,-1.6073773542987269,7.793539407430217e-05,0.04747835546731949,0.8365349769592285,0.0,-0.003140092361718416,0.7340653538703918,0.00015675468603149056,0.1677306592464447
816.0,631.0,-1.4285,0.326,9.719,-0.044,-0.1814,-0.1129,-1.5931021175780238,-0.2271137237548828,1.436964750289917,-1.899523138999939,0.29416993260383606,2.490870952606201,5.044494735985555,-0.2327495664358139,0.02321680448949337,-1.6073253790484827,7.40861360100098e-05,0.05636319890618324,0.8364989161491394,0.0,0.007256906945258379,0.7340611815452576,0.00016844409401528537,0.1490819752216339
816.0,631.0,-1.4285,0.326,9.719,-0.044,-0.1814,-0.1129,-1.5944844684996546,-0.21880091726779938,1.4194809198379517,-1.8977121114730835,0.3053424656391144,2.528398036956787,5.043042588024893,-0.25071239471435547,0.023780666291713715,-1.6073172728167933,7.059915515128523e-05,0.0524330660700798,0.8365427255630493,0.0,-0.013196722604334354,0.7340772151947021,0.00018101181194651872,0.11007159948348999
816.0,631.0,-1.4285,0.326,9.719,-0.044,-0.1814,-0.1129,-1.5958196125426234,-0.21937856078147888,1.377508521080017,-1.8958204984664917,0.3150137662887573,2.524277687072754,5.041425633221426,-0.2811146378517151,0.004763137083500624,-1.6073620955096644,6.742567347828299e-05,0.051796190440654755,0.8365312218666077,0.0,-0.003935579676181078,0.7340608239173889,0.00022299139527603984,0.08341670036315918
816.0,631.0,-1.4285,0.326,9.719,-0.044,-0.1814,-0.1129,-1.5967189274229945,-0.22344958782196045,1.4077348709106445,-1.8946123123168945,0.3219228982925415,2.567054510116577,5.040208685189047,-0.2882096767425537,0.011518606916069984,-1.6073697249041956,6.546392978634685e-05,0.05076808109879494,0.836567223072052,0.0,0.010030427947640419,0.7340571284294128,0.00024103828764054924,0.12449043989181519
816.0,631.0,-1.4285,0.326,9.719,-0.044,-0.1814,-0.1129,-1.5981618366637171,-0.2338179349899292,1.4218788146972656,-1.8926563262939453,0.32837170362472534,2.529334783554077,5.038384276419439,-0.3254493176937103,0.0008456397335976362,-1.6073897520648401,6.272645259741694e-05,0.047006890177726746,0.8365550637245178,0.0,-0.011033027432858944,0.7340649366378784,0.00025233777705579996,0.14101341366767883
816.0,631.0,-1.4285,0.326,9.719,-0.044,-0.1814,-0.1129,-1.5995365581908167,-0.2320738136768341,1.4484508037567139,-1.8905973434448242,0.34158095717430115,2.516629934310913,5.036364125996389,-0.3512501120567322,-0.013030173256993294,-1.6073210875140589,6.020864748279564e-05,0.05390824005007744,0.8365267515182495,0.0,-0.0018354436615481973,0.7340893149375916,0.0005086398450657725,0.1047370508313179
816.0,631.0,-1.4285,0.326,9.719,-0.044,-0.1814,-0.1129,-1.600936075250143,-0.22910702228546143,1.498084545135498,-1.8885128498077393,0.34963110089302063,2.5099072456359863,5.034114378481664,-0.39122945070266724,-0.03644417226314545,-1.6073740164386194,5.7885183196049184e-05,0.04329827055335045,0.8364947438240051,0.0,-0.011561635881662369,0.7340888977050781,0.0006117268931120634,0.16583049297332764
816.0,631.0,-1.4285,0.326,9.719,-0.044,-0.1814,-0.1129,-1.6023231945433558,-0.23295347392559052,1.466832160949707,-1.8864742517471313,0.35419467091560364,2.5765929222106934,5.031697737961569,-0.42229050397872925,-0.05299763381481171,-1.6073697249041956,5.5734344641678035e-05,0.04920782893896103,0.8365509510040283,0.0,-0.0031176703050732613,0.7340971231460571,0.0016212251503020525,0.1504882574081421
816.0,631.0,-1.4285,0.326,9.719,-0.044,-0.1814,-0.1129,-1.6032377682127894,-0.23861080408096313,1.4932634830474854,-1.885046362876892,0.3651869297027588,2.5950756072998047,5.029937791615286,-0.436069518327713,-0.0580587312579155,-1.6073735396014612,5.438717926153913e-05,0.03368247300386429,0.8365350365638733,0.0,-0.009532840922474861,0.734068751335144,0.0018832070054486394,0.09919719398021698
710.0,525.0,-1.8861,0.3882,10.7575,-0.0328,-0.5118,-0.0964,-1.604640623132223,-0.2420070767402649,1.470449447631836,-1.882887601852417,0.3740941286087036,2.5179641246795654,5.02709241488532,-0.4818320572376251,-0.06035197526216507,-1.6073578039752405,5.248419620329514e-05,0.05315593630075455,0.8365468382835388,0.0,-0.0005978763801977038,0.7340806722640991,0.002129834843799472,0.14776311814785004
710.0,525.0,-1.8861,0.3882,10.7575,-0.0328,-0.5118,-0.0964,-1.6060878239073695,-0.23544259369373322,1.5028550624847412,-1.88057541847229,0.38725557923316956,2.543335437774658,5.024095523148336,-0.5192387104034424,-0.07891710102558136,-1.6074226538287562,5.070990664535202e-05,0.03785621374845505,0.8365312814712524,0.0,0.007354544010013342,0.7340686917304993,0.001563300029374659,0.14968889951705933
710.0,525.0,-1.8861,0.3882,10.7575,-0.0328,-0.5118,-0.0964,-1.6074911556639613,-0.23094762861728668,1.5074431896209717,-1.8782151937484741,0.40018367767333984,2.5845236778259277,5.020846801787176,-0.5552343726158142,-0.07667212188243866,-1.6073740164386194,1.6412869854320888e-06,0.04922959953546524,0.8365914225578308,0.0,-0.00017130054766312242,0.7340887784957886,0.0009355192305520177,0.1666771024465561
710.0,525.0,-1.8861,0.3882,10.7575,-0.0328,-0.5118,-0.0964,-1.6088444195189417,-0.2359277307987213,1.5255866050720215,-1.8757929801940918,0.4021340608596802,2.5377354621887207,5.017400312214651,-0.5899228453636169,-0.07509376108646393,-1.6073210875140589,4.568583011899108e-10,0.05018414184451103,0.8365267515182495,0.0,0.005516897886991501,0.7340764403343201,0.0008372543379664421,0.115492083132267
710.0,525.0,-1.8861,0.3882,10.7575,-0.0328,-0.5118,-0.0964,-1.6098367176451625,-0.23642297089099884,1.5500679016113281,-1.8741364479064941,0.4095156192779541,2.6133878231048584,5.014980810671606,-0.6151136159896851,-0.07600285857915878,-1.6073654333697718,1.947658614248615e-12,0.03880632668733597,0.8365549445152283,0.0,-0.0037774702068418264,0.7340725064277649,0.001857664668932557,0.1502988338470459
710.0,525.0,-1.8861,0.3882,10.7575,-0.0328,-0.5118,-0.0964,-1.6112648449339808,-0.24199563264846802,1.5435359477996826,-1.8716087341308594,0.41743117570877075,2.5956759452819824,5.011163341789999,-0.6491207480430603,-0.07906756550073624,-1.607377831135885,5.421379321759578e-16,0.030930202454328537,0.8365107774734497,0.0,0.0022185228299349546,0.7341489791870117,0.003407619893550873,0.13655564188957214
710.0,525.0,-1.8861,0.3882,10.7575,-0.0328,-0.5118,-0.0964,-1.6126553020873011,-0.2426491528749466,1.5163743495941162,-1.8691214323043823,0.4217608571052551,2.6374571323394775,5.0071527538593195,-0.6824063062667847,-0.08601848036050797,-1.6073616186725062,1.509061134397434e-19,0.03713008016347885,0.8365510106086731,0.0,-6.086612120270729e-05,0.7341567873954773,0.003202256979420781,0.1388286054134369
710.0,525.0,-1.8861,0.3882,10.7575,-0.0328,-0.5118,-0.0964,-1.6140462360777796,-0.2391803115606308,1.5766541957855225,-1.8665263652801514,0.42860543727874756,2.6046690940856934,5.0030372617538355,-0.7127339839935303,-0.0801963284611702,-1.6073578039752405,4.20052749475393e-23,0.04263274371623993,0.8365309238433838,0.0,-0.004447600804269314,0.7341530919075012,0.002152953529730439,0.1286771148443222
710.0,525.0,-1.8861,0.3882,10.7575,-0.0328,-0.5118,-0.0964,-1.6149574718871058,-0.2345632165670395,1.619647741317749,-1.864686369895935,0.4344843029975891,2.664823055267334,5.000187414675512,-0.7334141731262207,-0.08425435423851013,-1.607349697743551,1.7907506164090468e-25,0.039285313338041306,0.8365873694419861,0.0,0.009109783917665482,0.7341893911361694,0.001872987486422062,0.1771765798330307
