ramyac6/ROB537/final_project/csv/bad/bad_160.csv
tof_0,tof_1,accelx,accely,accelz,gyrox,gyroy,gyroz,shoulder_lift_joint_position,shoulder_lift_joint_velocity,shoulder_lift_joint_effort,elbow_joint_position,elbow_joint_velocity,elbow_joint_effort,wrist_1_joint_position,wrist_1_joint_velocity,wrist_1_joint_effort,wrist_2_joint_position,wrist_2_joint_velocity,wrist_2_joint_effort,wrist_3_joint_position,wrist_3_joint_velocity,wrist_3_joint_effort,shoulder_pan_joint_position,shoulder_pan_joint_velocity,shoulder_pan_joint_effort
396.0,414.0,-0.3021,1.5458,9.4869,-0.0469,0.0283,-0.1187,-1.6448246441283167,0.0,2.2666006088256836,-1.984710931777954,-0.0,1.978990912437439,5.12243531921462,-0.0,0.28233712911605835,-1.7243002096759241,0.0,0.008945580571889877,0.7053824663162231,-0.0,-0.007159975823014975,0.8348939418792725,0.0,-0.03628850355744362
396.0,414.0,-0.3021,1.5458,9.4869,-0.0469,0.0283,-0.1187,-1.644860406915182,0.0,2.296370029449463,-1.984709620475769,-0.0,1.9465081691741943,5.122471082001486,-0.0,0.2823912501335144,-1.7243245283709925,0.0,0.004888996481895447,0.7053824663162231,-0.0,-0.008253904059529305,0.8348820805549622,0.0,0.027637964114546776
396.0,414.0,-0.3021,1.5458,9.4869,-0.0469,0.0283,-0.1187,-1.6448561153807582,0.0,2.254028081893921,-1.9847216606140137,-0.0,1.9578404426574707,5.122463482409277,-0.0,0.2973346710205078,-1.7243040243731897,0.0,0.003138583153486252,0.7053579688072205,-0.0,-0.0005780465435236692,0.8348537087440491,0.0,0.0011489791795611382
396.0,414.0,-0.3021,1.5458,9.4869,-0.0469,0.0283,-0.1187,-1.644820352593893,0.0,2.260697841644287,-1.9847023487091064,-0.0,1.9731719493865967,5.1223831353481195,-0.0,0.2801160216331482,-1.724316422139303,0.0,0.01465928927063942,0.7053824663162231,-0.0,0.0053953006863594055,0.8349141478538513,0.0,-0.029189476743340492
396.0,414.0,-0.3021,1.5458,9.4869,-0.0469,0.0283,-0.1187,-1.644844194451803,0.0,2.287773609161377,-1.9846817255020142,-0.0,1.9545512199401855,5.122415172844686,-0.0,0.28559520840644836,-1.724276367818014,0.0,0.012582523748278618,0.705390214920044,-0.0,0.004070701543241739,0.8348577618598938,0.0,0.02879983000457287
396.0,414.0,-0.3021,1.5458,9.4869,-0.0469,0.0283,-0.1187,-1.6448642216124476,0.0,2.257113218307495,-1.9847137928009033,-0.0,1.8965163230895996,5.1224474785621545,-0.0,0.28400903940200806,-1.7243126074420374,0.0,0.00896490179002285,0.7053783535957336,-0.0,0.004639528226107359,0.8349180817604065,0.0,0.005368169397115707
396.0,414.0,-0.3021,1.5458,9.4869,-0.0469,0.0283,-0.1187,-1.6448284588255824,0.0,2.334412097930908,-1.9846898317337036,-0.0,1.9248554706573486,5.122471707850256,-0.0,0.28192242980003357,-1.7243126074420374,0.0,0.01181042566895485,0.7054266929626465,-0.0,-0.008080584928393364,0.8348898887634277,0.0,-0.0016050110571086407
396.0,414.0,-0.3021,1.5458,9.4869,-0.0469,0.0283,-0.1187,-1.6448365650572718,0.0,2.2977871894836426,-1.98466956615448,-0.0,1.962471604347229,5.1224557040031335,-0.0,0.28944167494773865,-1.7243002096759241,0.0,0.0030455738306045532,0.7054026126861572,-0.0,-0.0035027945414185524,0.8349019289016724,0.0,0.002331363968551159
396.0,414.0,-0.3021,1.5458,9.4869,-0.0469,0.0283,-0.1187,-1.6448561153807582,0.0,2.293095827102661,-1.9846415519714355,-0.0,1.9422571659088135,5.1224394021327875,-0.0,0.28443390130996704,-1.7242644468890589,0.0,0.020278390496969223,0.7053296566009521,-0.0,0.0009262117091566324,0.8348779678344727,0.0,0.02720043435692787
399.0,405.0,-0.262,1.5571,9.4433,-0.0389,0.0273,-0.1226,-1.6448761425414027,0.0,2.258929967880249,-1.984649658203125,-0.0,1.952113151550293,5.122463482409277,-0.0,0.2771824300289154,-1.7243040243731897,0.0,0.013833614066243172,0.7053943276405334,-0.0,-0.00721993762999773,0.834841787815094,0.0,-0.0004250993952155113
399.0,405.0,-0.262,1.5571,9.4433,-0.0389,0.0273,-0.1226,-1.644872327844137,0.0,2.331864356994629,-1.9846822023391724,-0.0,1.9668408632278442,5.122459429293432,-0.0,0.2862145006656647,-1.7243002096759241,0.0,0.015341848134994507,0.705422580242157,-0.0,-0.008531946688890457,0.8349060416221619,0.0,-0.010042387060821056
399.0,405.0,-0.262,1.5571,9.4433,-0.0389,0.0273,-0.1226,-1.6448642216124476,0.0,2.2970218658447266,-1.9846539497375488,-0.0,1.9111407995224,5.122466909676351,-0.0,0.27046260237693787,-1.7242963949786585,0.0,0.0021495982073247433,0.7054026126861572,-0.0,-0.0025023315101861954,0.834854006767273,0.0,0.0014998516999185085
399.0,405.0,-0.262,1.5571,9.4433,-0.0389,0.0273,-0.1226,-1.6448403797545375,0.0,2.2849676609039307,-1.9846456050872803,-0.0,1.9440460205078125,5.1224557040031335,-0.0,0.27835237979888916,-1.724316422139303,0.0,0.005381755530834198,0.7053824067115784,-0.0,-0.013050548732280731,0.8348499536514282,0.0,-0.013750364072620869
399.0,405.0,-0.262,1.5571,9.4433,-0.0389,0.0273,-0.1226,-1.644848485986227,0.0,2.2626376152038574,-1.9847137928009033,-0.0,1.9457693099975586,5.12245540597991,-0.0,0.2909851372241974,-1.7242963949786585,0.0,0.009190370328724384,0.7054144740104675,-0.0,-0.015424796380102634,0.8348698019981384,0.0,0.025509076192975044
399.0,405.0,-0.262,1.5571,9.4433,-0.0389,0.0273,-0.1226,-1.6448880634703578,0.0,2.293614387512207,-1.9846539497375488,-0.0,1.9750831127166748,5.122463482409277,-0.0,0.27723824977874756,-1.7242963949786585,0.0,0.020169708877801895,0.7053015232086182,-0.0,-0.001098991371691227,0.8348978161811829,0.0,0.021177522838115692
399.0,405.0,-0.262,1.5571,9.4433,-0.0389,0.0273,-0.1226,-1.6448365650572718,0.0,2.274244785308838,-1.9846819639205933,-0.0,1.9411545991897583,5.1224474785621545,-0.0,0.27543774247169495,-1.7242963949786585,0.0,0.016030317172408104,0.7052933573722839,-0.0,-0.007784269284456968,0.8349060416221619,0.0,-0.018982116132974625
399.0,405.0,-0.262,1.5571,9.4433,-0.0389,0.0273,-0.1226,-1.6448685131468714,0.0,2.287734031677246,-1.9846736192703247,-0.0,2.0059072971343994,5.122491407185354,-0.0,0.29205629229545593,-1.7242844740497034,0.0,-0.0032926886342465878,0.7053579092025757,-0.0,-0.0068364255130290985,0.834841787815094,0.0,0.015028219670057297
399.0,405.0,-0.262,1.5571,9.4433,-0.0389,0.0273,-0.1226,-1.6448680363097132,0.0,2.2692747116088867,-1.984641432762146,-0.0,1.9350805282592773,5.122451591282644,-0.0,0.29543572664260864,-1.7243083159076136,0.0,0.012998560443520546,0.7054026126861572,-0.0,-0.0022071911953389645,0.8349019289016724,0.0,0.0010473676957190037
399.0,405.0,-0.262,1.5571,9.4433,-0.0389,0.0273,-0.1226,-1.6448642216124476,0.0,2.2488203048706055,-1.9846251010894775,-0.0,2.021606922149658,5.122467654734411,-0.0,0.27809810638427734,-1.7242644468890589,0.0,0.010866384953260422,0.7053947448730469,-0.0,0.0034641134552657604,0.8349062204360962,0.0,0.0266386978328228
399.0,405.0,-0.262,1.5571,9.4433,-0.0389,0.0273,-0.1226,-1.6448523006834925,0.0,2.2643213272094727,-1.9846419095993042,-0.0,1.9349486827850342,5.122391092568197,-0.0,0.2863312363624573,-1.724332634602682,0.0,0.017145629972219467,0.7053942680358887,-0.0,0.010678532533347607,0.8349382877349854,0.0,0.020257525146007538
399.0,405.0,-0.262,1.5571,9.4433,-0.0389,0.0273,-0.1226,-1.6447965107359828,0.0,2.2660839557647705,-1.9846570491790771,-0.0,1.9371229410171509,5.122499632626333,-0.0,0.27688175439834595,-1.724276367818014,0.0,0.0013089741114526987,0.7053619623184204,-0.0,0.008782908320426941,0.8348779678344727,0.0,0.02228296361863613
399.0,405.0,-0.262,1.5571,9.4433,-0.0389,0.0273,-0.1226,-1.6448961697020472,0.0,2.264995574951172,-1.9846296310424805,-0.0,1.9681365489959717,5.122407126217642,-0.0,0.2952757477760315,-1.7243126074420374,0.0,0.004220261238515377,0.7053415179252625,-0.0,-0.008900740183889866,0.8349060416221619,0.0,-0.013860052451491356
399.0,405.0,-0.262,1.5571,9.4433,-0.0389,0.0273,-0.1226,-1.644844194451803,0.0,2.2503809928894043,-1.9846500158309937,-0.0,1.9678757190704346,5.122451650887289,-0.0,0.2780385911464691,-1.7243083159076136,0.0,0.008887214586138725,0.7053943276405334,-0.0,-0.004366598092019558,0.8349262475967407,0.0,-0.0063726697117090225
399.0,405.0,-0.262,1.5571,9.4433,-0.0389,0.0273,-0.1226,-1.6448365650572718,0.0,2.2986834049224854,-1.9846210479736328,-0.0,1.9727730751037598,5.122415172844686,-0.0,0.27127689123153687,-1.724276367818014,0.0,-0.0007173118647187948,0.7053540349006653,-0.0,-0.003274634014815092,0.8349221348762512,0.0,-0.03506537899374962
399.0,405.0,-0.262,1.5571,9.4433,-0.0389,0.0273,-0.1226,-1.644844194451803,0.0,2.287083148956299,-1.9846733808517456,-0.0,1.993187665939331,5.122443395643987,-0.0,0.2847250699996948,-1.724328343068258,0.0,0.010882709175348282,0.7053701281547546,-0.0,-0.00425818283110857,0.8348817229270935,0.0,0.012485495768487453
404.0,408.0,-0.3009,1.5368,9.5444,-0.0338,0.029,-0.122,-1.6448642216124476,0.0,2.3173887729644775,-1.984649658203125,-0.0,1.9244170188903809,5.122427093773641,-0.0,0.28568702936172485,-1.724288288746969,0.0,0.006723789498209953,0.7053866386413574,-0.0,-0.001454687211662531,0.8348417282104492,0.0,0.018367785960435867
404.0,408.0,-0.3009,1.5368,9.5444,-0.0338,0.029,-0.122,-1.644844194451803,0.0,2.2429776191711426,-1.984702229499817,-0.0,1.9578514099121094,5.122418868332662,-0.0,0.28366538882255554,-1.724288288746969,0.0,0.009763350710272789,0.7053380012512207,-0.0,0.004262269474565983,0.8349100947380066,0.0,-0.018030766397714615
404.0,408.0,-0.3009,1.5368,9.5444,-0.0338,0.029,-0.122,-1.6448842487730921,0.0,2.3027560710906982,-1.9846737384796143,-0.0,1.9704129695892334,5.122455763607778,-0.0,0.28045588731765747,-1.724288288746969,0.0,0.010168923996388912,0.7053580284118652,-0.0,0.002232068683952093,0.8348857760429382,0.0,-0.004773846827447414
404.0,408.0,-0.3009,1.5368,9.5444,-0.0338,0.029,-0.122,-1.6448284588255824,0.0,2.2868080139160156,-1.9846693277359009,-0.0,1.9642243385314941,5.12245939949111,-0.0,0.2764465808868408,-1.724232021962301,0.0,0.003594475332647562,0.7053579092025757,-0.0,-0.015542220324277878,0.8348779678344727,0.0,0.016004178673028946
404.0,408.0,-0.3009,1.5368,9.5444,-0.0338,0.029,-0.122,-1.644820352593893,0.0,2.2876718044281006,-1.9846457242965698,-0.0,1.9621304273605347,5.122439372330465,-0.0,0.28596431016921997,-1.7242720762835901,0.0,0.006415694952011108,0.7054025530815125,-0.0,0.004881223198026419,0.834845781326294,0.0,0.023302827030420303
404.0,408.0,-0.3009,1.5368,9.5444,-0.0338,0.029,-0.122,-1.644832273522848,0.0,2.3015494346618652,-1.984677791595459,-0.0,1.98580002784729,5.122491407185354,-0.0,0.2768021821975708,-1.7242921034442347,0.0,0.011185001581907272,0.7053943276405334,-0.0,-0.0014566612662747502,0.8348577618598938,0.0,0.021889343857765198
404.0,408.0,-0.3009,1.5368,9.5444,-0.0338,0.029,-0.122,-1.644844194451803,0.0,2.3410696983337402,-1.9846733808517456,-0.0,1.97259521484375,5.122463482409277,-0.0,0.27865251898765564,-1.7243002096759241,0.0,0.014417058788239956,0.7054061889648438,-0.0,-0.008646182715892792,0.8349019289016724,0.0,-0.026081610471010208
404.0,408.0,-0.3009,1.5368,9.5444,-0.0338,0.029,-0.122,-1.6448680363097132,0.0,2.2701988220214844,-1.9846335649490356,-0.0,1.970036506652832,5.122467624932089,-0.0,0.27749884128570557,-1.7242887655841272,0.0,0.010928293690085411,0.705341637134552,-0.0,-0.01408444531261921,0.8349100947380066,0.0,0.011710701510310173
404.0,408.0,-0.3009,1.5368,9.5444,-0.0338,0.029,-0.122,-1.6448642216124476,0.0,2.27848744392395,-1.9846736192703247,-0.0,1.977489948272705,5.122475105315008,-0.0,0.26905107498168945,-1.724328343068258,0.0,0.011963686905801296,0.705349862575531,-0.0,0.006594695616513491,0.834889829158783,0.0,0.020025057718157768
404.0,408.0,-0.3009,1.5368,9.5444,-0.0338,0.029,-0.122,-1.6448365650572718,0.0,2.311246395111084,-1.9846653938293457,-0.0,1.9839115142822266,5.122459369688787,-0.0,0.2880743443965912,-1.7242720762835901,0.0,0.005357999354600906,0.7053906917572021,-0.0,-0.0048302155919373035,0.8348615765571594,0.0,0.003978196997195482
404.0,408.0,-0.3009,1.5368,9.5444,-0.0338,0.029,-0.122,-1.6448365650572718,0.0,2.305551528930664,-1.984657883644104,-0.0,1.9355233907699585,5.122483330755987,-0.0,0.2809525728225708,-1.7242725531207483,0.0,0.007011292967945337,0.7053420543670654,-0.0,0.000800439971499145,0.8348861336708069,0.0,-0.0023786360397934914
404.0,408.0,-0.3009,1.5368,9.5444,-0.0338,0.029,-0.122,-1.6448561153807582,0.0,2.24318790435791,-1.9846376180648804,-0.0,1.974475383758545,5.122479188233175,-0.0,0.27397021651268005,-1.724276367818014,0.0,0.013164595700800419,0.7054266333580017,-0.0,0.013637805357575417,0.834833562374115,0.0,-0.0014354968443512917
404.0,408.0,-0.3009,1.5368,9.5444,-0.0338,0.029,-0.122,-1.6448122463622035,0.0,2.28261661529541,-1.9846616983413696,-0.0,1.9789795875549316,5.122439372330465,-0.0,0.2784148156642914,-1.7242963949786585,0.0,0.0023977775126695633,0.7053782939910889,-0.0,-0.018661869689822197,0.8349060416221619,0.0,-0.010982576757669449
404.0,408.0,-0.3009,1.5368,9.5444,-0.0338,0.029,-0.122,-1.644848485986227,0.0,2.279726505279541,-1.9846419095993042,-0.0,1.9649505615234375,5.12244741895751,-0.0,0.2832314372062683,-1.7242720762835901,0.0,0.012357981875538826,0.7053942680358887,-0.0,0.00013629859313368797,0.8348940014839172,0.0,0.0015156453009694815
404.0,408.0,-0.3009,1.5368,9.5444,-0.0338,0.029,-0.122,-1.6448842487730921,0.0,2.2947802543640137,-1.984624981880188,-0.0,1.9451406002044678,5.122459816723623,-0.0,0.28138095140457153,-1.7242839972125452,0.0,0.007665412500500679,0.7053660750389099,-0.0,-0.0013727113837376237,0.8348697423934937,0.0,-0.027938783168792725
404.0,408.0,-0.3009,1.5368,9.5444,-0.0338,0.029,-0.122,-1.644820352593893,0.0,2.3201072216033936,-1.9846943616867065,-0.0,1.9917320013046265,5.122487443476476,-0.0,0.27196964621543884,-1.724276367818014,0.0,0.0058977603912353516,0.7053136825561523,-0.0,-0.011031005531549454,0.8348898887634277,0.0,0.016240272670984268
402.0,399.0,-0.3147,1.5559,9.4714,-0.0295,0.0261,-0.1206,-1.6448642216124476,0.0,2.2561123371124268,-1.9846373796463013,-0.0,1.989527940750122,5.122451650887289,-0.0,0.28687936067581177,-1.7242806593524378,0.0,0.017175067216157913,0.7053498029708862,-0.0,-0.0067929658107459545,0.8348739147186279,0.0,0.03358938917517662
402.0,399.0,-0.3147,1.5559,9.4714,-0.0295,0.0261,-0.1206,-1.6448246441283167,0.0,2.301170825958252,-1.9846210479736328,-0.0,1.9722168445587158,5.122435259609976,-0.0,0.2737252712249756,-1.7242921034442347,0.0,4.639569669961929e-05,0.7053620219230652,-0.0,0.00856008380651474,0.8348981142044067,0.0,0.0030753430910408497
402.0,399.0,-0.3147,1.5559,9.4714,-0.0295,0.0261,-0.1206,-1.6448165378966273,0.0,2.312110424041748,-1.9846539497375488,-0.0,1.9856245517730713,5.122443395643987,-0.0,0.2895786762237549,-1.7243364492999476,0.0,0.02051410637795925,0.7053743600845337,-0.0,0.005366763565689325,0.8349100947380066,0.0,0.047594498842954636
402.0,399.0,-0.3147,1.5559,9.4714,-0.0295,0.0261,-0.1206,-1.644872327844137,0.0,2.244748115539551,-1.9846733808517456,-0.0,1.9632017612457275,5.122467654734411,-0.0,0.28361642360687256,-1.7243402639972132,0.0,0.02104976400732994,0.7053496837615967,-0.0,-0.01277552917599678,0.8348898887634277,0.0,0.024154623970389366
402.0,399.0,-0.3147,1.5559,9.4714,-0.0295,0.0261,-0.1206,-1.6448642216124476,0.0,2.3132028579711914,-1.984633207321167,-0.0,2.006572723388672,5.122423398285665,-0.0,0.2924133539199829,-1.7242921034442347,0.0,0.0024950173683464527,0.7053578495979309,-0.0,-0.004956254735589027,0.8349100947380066,0.0,-0.04287242889404297
402.0,399.0,-0.3147,1.5559,9.4714,-0.0295,0.0261,-0.1206,-1.644844194451803,0.0,2.273311138153076,-1.984645962715149,-0.0,1.9701638221740723,5.122467654734411,-0.0,0.2640477120876312,-1.724288288746969,0.0,0.0045800646767020226,0.7054390907287598,-0.0,-0.0022127374541014433,0.8348618149757385,0.0,-0.016512122005224228
402.0,399.0,-0.3147,1.5559,9.4714,-0.0295,0.0261,-0.1206,-1.6448880634703578,0.0,2.2490925788879395,-1.984689712524414,-0.0,1.965586543083191,5.122439372330465,-0.0,0.27060645818710327,-1.724328343068258,0.0,0.01606142893433571,0.705402672290802,-0.0,-0.0025200580712407827,0.8348416686058044,0.0,-0.023294342681765556
402.0,399.0,-0.3147,1.5559,9.4714,-0.0295,0.0261,-0.1206,-1.644820352593893,0.0,2.3199310302734375,-1.9846378564834595,-0.0,1.9964783191680908,5.122483330755987,-0.0,0.2834750711917877,-1.7242844740497034,0.0,-0.001123793888837099,0.705406665802002,-0.0,0.0008867739234119654,0.8348535895347595,0.0,-0.024873659014701843
402.0,399.0,-0.3147,1.5559,9.4714,-0.0295,0.0261,-0.1206,-1.644832273522848,0.0,2.258406400680542,-1.9846500158309937,-0.0,1.972701072692871,5.122519421368398,-0.0,0.2689158320426941,-1.724276367818014,0.0,0.00465035205706954,0.705370306968689,-0.0,-0.01267445832490921,0.8348453640937805,0.0,0.017621856182813644
402.0,399.0,-0.3147,1.5559,9.4714,-0.0295,0.0261,-0.1206,-1.644872327844137,0.0,2.2972159385681152,-1.9846539497375488,-0.0,1.9446483850479126,5.122479158430853,-0.0,0.2726084589958191,-1.7243040243731897,0.0,0.005536368116736412,0.7054144740104675,-0.0,-0.002429068088531494,0.8349060416221619,0.0,-0.003012127708643675
402.0,399.0,-0.3147,1.5559,9.4714,-0.0295,0.0261,-0.1206,-1.6448122463622035,0.0,2.301454544067383,-1.9846733808517456,-0.0,1.9748313426971436,5.12248324134902,-0.0,0.278970867395401,-1.7242963949786585,0.0,0.0089460713788867,0.705370306968689,-0.0,0.009417852386832237,0.8349060416221619,0.0,-0.0130479596555233
402.0,399.0,-0.3147,1.5559,9.4714,-0.0295,0.0261,-0.1206,-1.6448246441283167,0.0,2.2706704139709473,-1.9846166372299194,-0.0,2.0040059089660645,5.1224750755126855,-0.0,0.2725476622581482,-1.7242720762835901,0.0,-0.009784823283553123,0.705345630645752,-0.0,-0.0012056375853717327,0.8349019289016724,0.0,-0.01173180527985096
402.0,399.0,-0.3147,1.5559,9.4714,-0.0295,0.0261,-0.1206,-1.644820352593893,0.0,2.2787413597106934,-1.984702706336975,-0.0,1.9825268983840942,5.122483360558309,-0.0,0.26773303747177124,-1.7243083159076136,0.0,0.0060639032162725925,0.7053742408752441,-0.0,-0.002303791930899024,0.8349180817604065,0.0,0.00625790748745203
402.0,399.0,-0.3147,1.5559,9.4714,-0.0295,0.0261,-0.1206,-1.644860406915182,0.0,2.2918262481689453,-1.9846208095550537,-0.0,1.9607430696487427,5.122451621084966,-0.0,0.281597375869751,-1.7242921034442347,0.0,-0.004784704186022282,0.7053539752960205,-0.0,-0.005744770169258118,0.8349060416221619,0.0,0.03847425803542137
402.0,399.0,-0.3147,1.5559,9.4714,-0.0295,0.0261,-0.1206,-1.6448284588255824,0.0,2.296921730041504,-1.9846580028533936,-0.0,1.9667439460754395,5.12245540597991,-0.0,0.29668477177619934,-1.7242963949786585,0.0,0.005745532922446728,0.7053906321525574,-0.0,0.007068762555718422,0.8349263072013855,0.0,0.04080304503440857
402.0,399.0,-0.3147,1.5559,9.4714,-0.0295,0.0261,-0.1206,-1.6448799572386683,0.0,2.264458656311035,-1.9846733808517456,-0.0,1.967170238494873,5.1225037155445,-0.0,0.277782142162323,-1.724276367818014,0.0,0.003218606114387512,0.7054102420806885,-0.0,-0.012000640854239464,0.8348615169525146,0.0,0.012185068801045418
402.0,399.0,-0.3147,1.5559,9.4714,-0.0295,0.0261,-0.1206,-1.6448403797545375,0.0,2.310441493988037,-1.9846376180648804,-0.0,1.9644815921783447,5.122418927937307,-0.0,0.2844257652759552,-1.7242644468890589,0.0,0.0008968401234596968,0.7053338885307312,-0.0,-0.008411964401602745,0.8349142670631409,0.0,0.02604307048022747
387.0,402.0,-0.3332,1.5817,9.4522,-0.0391,0.0292,-0.1232,-1.6448523006834925,0.0,2.2922284603118896,-1.9846056699752808,-0.0,1.9775605201721191,5.1224750755126855,-0.0,0.2834210693836212,-1.7242563406573694,0.0,0.003797931596636772,0.7054344415664673,-0.0,-0.003435447346419096,0.834898054599762,0.0,-0.01936016045510769
387.0,402.0,-0.3332,1.5817,9.4522,-0.0391,0.0292,-0.1232,-1.644820352593893,0.0,2.322495460510254,-1.9846817255020142,-0.0,1.9795658588409424,5.122443395643987,-0.0,0.2753363251686096,-1.724260155354635,0.0,0.0037213098257780075,0.7053342461585999,-0.0,0.0010347641073167324,0.8348937034606934,0.0,0.01547499094158411
387.0,402.0,-0.3332,1.5817,9.4522,-0.0391,0.0292,-0.1232,-1.6448403797545375,0.0,2.2870099544525146,-1.9847055673599243,-0.0,1.9400819540023804,5.122443395643987,-0.0,0.29096508026123047,-1.7242963949786585,0.0,0.0036544029135257006,0.7053136229515076,-0.0,-0.0023414338938891888,0.8348940014839172,0.0,-0.03293943032622337
387.0,402.0,-0.3332,1.5817,9.4522,-0.0391,0.0292,-0.1232,-1.644860406915182,0.0,2.2776923179626465,-1.984677791595459,-0.0,1.9515650272369385,5.122443395643987,-0.0,0.28555524349212646,-1.7243364492999476,0.0,0.02334759756922722,0.7053782939910889,-0.0,-0.016403215005993843,0.8348939418792725,0.0,-0.014404285699129105
387.0,402.0,-0.3332,1.5817,9.4522,-0.0391,0.0292,-0.1232,-1.6448523006834925,0.0,2.298269033432007,-1.9846614599227905,-0.0,1.9736757278442383,5.122487383871832,-0.0,0.2918749749660492,-1.7243002096759241,0.0,0.003048283513635397,0.7054348587989807,-0.0,-0.0038986285217106342,0.8348939418792725,0.0,0.024436186999082565
387.0,402.0,-0.3332,1.5817,9.4522,-0.0391,0.0292,-0.1232,-1.644872327844137,0.0,2.2759761810302734,-1.9847177267074585,-0.0,1.9296109676361084,5.1224474785621545,-0.0,0.28918278217315674,-1.724288288746969,0.0,0.0111768813803792,0.7054144144058228,-0.0,-0.01113791111856699,0.8348939418792725,0.0,-0.007340935058891773
387.0,402.0,-0.3332,1.5817,9.4522,-0.0391,0.0292,-0.1232,-1.6448403797545375,0.0,2.262428045272827,-1.9846817255020142,-0.0,1.9627020359039307,5.122407096415319,-0.0,0.27520066499710083,-1.7242921034442347,0.0,0.01926366612315178,0.7053177952766418,-0.0,0.006319190375506878,0.8348898887634277,0.0,-0.0017283456400036812
387.0,402.0,-0.3332,1.5817,9.4522,-0.0391,0.0292,-0.1232,-1.644832273522848,0.0,2.2503108978271484,-1.984624981880188,-0.0,1.9530792236328125,5.12245540597991,-0.0,0.27938413619995117,-1.724288288746969,0.0,0.002328699454665184,0.7053537964820862,-0.0,0.013801833614706993,0.8348535895347595,0.0,-0.03526010364294052
387.0,402.0,-0.3332,1.5817,9.4522,-0.0391,0.0292,-0.1232,-1.644848485986227,0.0,2.320472240447998,-1.9846653938293457,-0.0,1.9335339069366455,5.122451233654775,-0.0,0.27937960624694824,-1.7243083159076136,0.0,-0.0006324381101876497,0.7054026126861572,-0.0,-0.006566254422068596,0.8348336219787598,0.0,-0.009611586108803749
387.0,402.0,-0.3332,1.5817,9.4522,-0.0391,0.0292,-0.1232,-1.6448284588255824,0.0,2.3235926628112793,-1.9846817255020142,-0.0,1.9704277515411377,5.1224833009536646,-0.0,0.28141868114471436,-1.7243040243731897,0.0,0.005389663856476545,0.7053420543670654,-0.0,0.004866934847086668,0.8348898887634277,0.0,0.006248450838029385
387.0,402.0,-0.3332,1.5817,9.4522,-0.0391,0.0292,-0.1232,-1.6448284588255824,0.0,2.2730300426483154,-1.984605073928833,-0.0,1.9812102317810059,5.122407096415319,-0.0,0.27746719121932983,-1.7242806593524378,0.0,0.0005661010509356856,0.7053256034851074,-0.0,-0.004425084684044123,0.8348779678344727,0.0,0.0010489949490875006
387.0,402.0,-0.3332,1.5817,9.4522,-0.0391,0.0292,-0.1232,-1.6448084316649378,0.0,2.282169818878174,-1.984657883644104,-0.0,1.9064569473266602,5.1224394021327875,-0.0,0.28286710381507874,-1.7243083159076136,0.0,-0.003912843763828278,0.7053497433662415,-0.0,-0.0021763802506029606,0.8348816633224487,0.0,0.06216375529766083
387.0,402.0,-0.3332,1.5817,9.4522,-0.0391,0.0292,-0.1232,-1.644820352593893,0.0,2.2859840393066406,-1.9846373796463013,-0.0,1.9523403644561768,5.1225037155445,-0.0,0.2879522740840912,-1.7243207136737269,0.0,0.016882294788956642,0.7053415775299072,-0.0,0.0043567996472120285,0.8348899483680725,0.0,0.0018534439150243998
387.0,402.0,-0.3332,1.5817,9.4522,-0.0391,0.0292,-0.1232,-1.6448799572386683,0.0,2.2804126739501953,-1.9846614599227905,-0.0,1.9322497844696045,5.122479158430853,-0.0,0.27948054671287537,-1.7242887655841272,0.0,0.007928980514407158,0.705370306968689,-0.0,-0.004969186615198851,0.8349019289016724,0.0,0.03434930369257927
387.0,402.0,-0.3332,1.5817,9.4522,-0.0391,0.0292,-0.1232,-1.6448761425414027,0.0,2.270414352416992,-1.9846335649490356,-0.0,1.9885920286178589,5.1224394021327875,-0.0,0.2742392420768738,-1.7243126074420374,0.0,0.01098576094955206,0.7053379416465759,-0.0,-0.00655575143173337,0.8348698019981384,0.0,-0.004629519768059254
387.0,402.0,-0.3332,1.5817,9.4522,-0.0391,0.0292,-0.1232,-1.6448246441283167,0.0,2.290839672088623,-1.9846857786178589,-0.0,1.9998457431793213,5.122466909676351,-0.0,0.2854941189289093,-1.7243083159076136,0.0,0.019513584673404694,0.7053866386413574,-0.0,0.01402174960821867,0.834865927696228,0.0,-0.021406829357147217
378.0,402.0,-0.2255,1.5996,9.3924,-0.0432,0.0229,-0.1205,-1.6448008022704066,0.0,2.3447444438934326,-1.984677791595459,-0.0,1.9847630262374878,5.122479158430853,-0.0,0.2782647907733917,-1.7242720762835901,0.0,0.005075172521173954,0.7053375244140625,-0.0,0.0011601326987147331,0.8349060416221619,0.0,-0.038843147456645966
378.0,402.0,-0.2255,1.5996,9.3924,-0.0432,0.0229,-0.1205,-1.6448842487730921,0.0,2.2254323959350586,-1.984645962715149,-0.0,1.976609230041504,5.122459369688787,-0.0,0.2803281545639038,-1.7242844740497034,0.0,0.006832682061940432,0.7054426074028015,-0.0,-0.007882378995418549,0.8348577618598938,0.0,0.002408416010439396
378.0,402.0,-0.2255,1.5996,9.3924,-0.0432,0.0229,-0.1205,-1.6448561153807582,0.0,2.3167223930358887,-1.9846335649490356,-0.0,1.9490084648132324,5.122423100262441,-0.0,0.2768693268299103,-1.7242921034442347,0.0,0.020072922110557556,0.7053947448730469,-0.0,-0.001988499891012907,0.8348376154899597,0.0,-0.039031725376844406
378.0,402.0,-0.2255,1.5996,9.3924,-0.0432,0.0229,-0.1205,-1.644832273522848,0.0,2.331773519515991,-1.9846819639205933,-0.0,1.9680538177490234,5.12244342544631,-0.0,0.286827027797699,-1.7242806593524378,0.0,0.0012360858963802457,0.7053866386413574,-0.0,-0.004325945395976305,0.834922194480896,0.0,-0.01122889295220375
378.0,402.0,-0.2255,1.5996,9.3924,-0.0432,0.0229,-0.1205,-1.6448122463622035,0.0,2.2901816368103027,-1.984641432762146,-0.0,1.9574897289276123,5.1224311766918085,-0.0,0.27514415979385376,-1.724288288746969,0.0,0.021717462688684464,0.705390214920044,-0.0,0.012085005640983582,0.8348899483680725,0.0,0.010311199352145195
378.0,402.0,-0.2255,1.5996,9.3924,-0.0432,0.0229,-0.1205,-1.6448284588255824,0.0,2.2779335975646973,-1.9846822023391724,-0.0,1.9976048469543457,5.122471052199163,-0.0,0.2705421447753906,-1.7243159453021448,0.0,0.0011189947836101055,0.7053619623184204,-0.0,-0.0040864949114620686,0.8348857760429382,0.0,-0.01426880992949009
378.0,402.0,-0.2255,1.5996,9.3924,-0.0432,0.0229,-0.1205,-1.6448880634703578,0.0,2.2481024265289307,-1.9846817255020142,-0.0,1.9436495304107666,5.1224474785621545,-0.0,0.27064579725265503,-1.7243245283709925,0.0,0.003605677280575037,0.7054550647735596,-0.0,0.0014513214118778706,0.8349060416221619,0.0,0.008344748057425022
378.0,402.0,-0.2255,1.5996,9.3924,-0.0432,0.0229,-0.1205,-1.6448165378966273,0.0,2.2680211067199707,-1.9846254587173462,-0.0,2.003687858581543,5.12245939949111,-0.0,0.29426974058151245,-1.7242963949786585,0.0,0.007020970340818167,0.7053819298744202,-0.0,-0.0027049239724874496,0.834898054599762,0.0,0.0025041992776095867
378.0,402.0,-0.2255,1.5996,9.3924,-0.0432,0.0229,-0.1205,-1.6447965107359828,0.0,2.312817096710205,-1.984645962715149,-0.0,1.9683644771575928,5.122423100262441,-0.0,0.27628785371780396,-1.7242806593524378,0.0,-0.00127328559756279,0.7053866386413574,-0.0,0.008192389272153378,0.8348857760429382,0.0,-0.043992966413497925
378.0,402.0,-0.2255,1.5996,9.3924,-0.0432,0.0229,-0.1205,-1.6448165378966273,0.0,2.2883100509643555,-1.9846210479736328,-0.0,1.9750853776931763,5.122439461737432,-0.0,0.2881461977958679,-1.7243126074420374,0.0,0.009238838218152523,0.7053539752960205,-0.0,-0.0066247060894966125,0.8348820805549622,0.0,-0.003145442344248295
378.0,402.0,-0.2255,1.5996,9.3924,-0.0432,0.0229,-0.1205,-1.6448842487730921,0.0,2.226506233215332,-1.9847097396850586,-0.0,1.9774525165557861,5.122451650887289,-0.0,0.2757742404937744,-1.7243040243731897,0.0,0.00406930036842823,0.705406665802002,-0.0,0.007894782349467278,0.8348697423934937,0.0,-0.00459037721157074
378.0,402.0,-0.2255,1.5996,9.3924,-0.0432,0.0229,-0.1205,-1.6448365650572718,0.0,2.2754149436950684,-1.9846819639205933,-0.0,2.0000569820404053,5.122423070460119,-0.0,0.2720174789428711,-1.724344555531637,0.0,0.013705210760235786,0.7053701281547546,-0.0,-3.7891557440161705e-05,0.8349101543426514,0.0,0.034209590405225754
378.0,402.0,-0.2255,1.5996,9.3924,-0.0432,0.0229,-0.1205,-1.6448365650572718,0.0,2.2974514961242676,-1.9846657514572144,-0.0,1.9243056774139404,5.122471082001486,-0.0,0.2711237370967865,-1.724332634602682,0.0,0.006272592581808567,0.7053861021995544,-0.0,-0.0027828249149024487,0.8349060416221619,0.0,-0.024993471801280975
378.0,402.0,-0.2255,1.5996,9.3924,-0.0432,0.0229,-0.1205,-1.644820352593893,0.0,2.2764625549316406,-1.9847097396850586,-0.0,1.9812042713165283,5.122451233654775,-0.0,0.27627164125442505,-1.724316422139303,0.0,0.0043735201470553875,0.705390214920044,-0.0,-0.01839311048388481,0.834898054599762,0.0,-0.003380279988050461
378.0,402.0,-0.2255,1.5996,9.3924,-0.0432,0.0229,-0.1205,-1.6448122463622035,0.0,2.311497688293457,-1.9846943616867065,-0.0004885315429419279,1.9527068138122559,5.122455376177587,-0.0,0.2746469974517822,-1.7243402639972132,0.0,0.009613999165594578,0.7054026126861572,-0.0,-0.004078997764736414,0.8348939418792725,0.0,0.018556267023086548
378.0,402.0,-0.2255,1.5996,9.3924,-0.0432,0.0229,-0.1205,-1.6448642216124476,0.0,2.30586838722229,-1.984686017036438,-0.00029479447402991354,1.9410159587860107,5.1224474785621545,-0.0,0.2737547755241394,-1.724316422139303,0.0,0.006322293542325497,0.705370306968689,-0.0,-0.0035087792202830315,0.8349100947380066,0.0,-0.015378098003566265
378.0,402.0,-0.2255,1.5996,9.3924,-0.0432,0.0229,-0.1205,-1.6448880634703578,0.0,2.2739346027374268,-1.9846819639205933,-0.00017748826940078288,1.9775772094726562,5.122419315367498,-0.0,0.28556710481643677,-1.7243083159076136,0.0,0.010175257921218872,0.705370306968689,-0.0,-0.008984384126961231,0.8349301218986511,0.0,-0.014820324257016182
391.0,397.0,-0.1962,1.5858,9.6526,-0.0483,0.0223,-0.1196,-1.644820352593893,0.0,2.2902541160583496,-1.9846456050872803,-0.0001568521693116054,1.9513072967529297,5.122451233654775,-0.0,0.29016542434692383,-1.72424823442568,0.0,0.009436370804905891,0.7053619623184204,-0.0,-0.004940359387546778,0.8349060416221619,0.0,-0.01580280065536499
391.0,397.0,-0.1962,1.5858,9.6526,-0.0483,0.0223,-0.1196,-1.6448365650572718,0.0,2.276840925216675,-1.9846819639205933,-0.0001335706765530631,1.9610261917114258,5.122443365841665,-0.0,0.2831861078739166,-1.7243760267840784,0.0,-0.0006327410228550434,0.7053824663162231,-0.0,-0.006843130104243755,0.834913969039917,0.0,-0.014976995065808296
391.0,397.0,-0.1962,1.5858,9.6526,-0.0483,0.0223,-0.1196,-1.6448127231993617,0.0,2.2858083248138428,-1.984641432762146,-0.00011630762310232967,1.988360047340393,5.122503477125921,-0.0,0.2818503975868225,-1.7243159453021448,0.0,0.01175443734973669,0.7053701281547546,-0.0,-0.0010091252624988556,0.8349180817604065,0.0,-0.002374136820435524
391.0,397.0,-0.1962,1.5858,9.6526,-0.0483,0.0223,-0.1196,-1.6448284588255824,0.0,2.281325578689575,-1.984613060951233,9.02883693925105e-05,1.966193675994873,5.122447448759832,-0.0,0.28300756216049194,-1.7243121306048792,0.0,0.0008504403522238135,0.705406665802002,-0.0,0.003114328719675541,0.8348614573478699,0.0,0.022769154980778694
391.0,397.0,-0.1962,1.5858,9.6526,-0.0483,0.0223,-0.1196,-1.6448284588255824,0.0005154916434548795,2.229877471923828,-1.9846373796463013,0.0001504496904090047,1.9690117835998535,5.122495162277975,-0.0,0.28079208731651306,-1.7243364492999476,0.0,0.019349994137883186,0.7053661346435547,-0.0,0.0032194864470511675,0.8349342346191406,0.0,-0.0258922316133976
391.0,397.0,-0.1962,1.5858,9.6526,-0.0483,0.0223,-0.1196,-1.6448127231993617,0.0005280110635794699,2.266132354736328,-1.9846736192703247,0.00014477911463472992,1.9647778272628784,5.122471082001486,-0.0,0.2752435803413391,-1.7243202368365687,0.0,0.014577346853911877,0.7053943276405334,-0.0,0.0019242471316829324,0.8349260091781616,0.0,-0.06734319031238556
391.0,397.0,-0.1962,1.5858,9.6526,-0.0483,0.0223,-0.1196,-1.6447721920409144,0.0004278119304217398,2.3087339401245117,-1.9846570491790771,0.00012919167056679726,1.9448072910308838,5.122455346375265,-0.0,0.29012879729270935,-1.7243364492999476,0.0,0.00634713564068079,0.7053824663162231,-0.0,0.012936203740537167,0.8349019885063171,0.0,0.002247106283903122
391.0,397.0,-0.1962,1.5858,9.6526,-0.0483,0.0223,-0.1196,-1.6448246441283167,0.00023416141630150378,2.295490264892578,-1.984658122062683,0.00011663442273857072,1.9895567893981934,5.122495162277975,-0.0,0.28272396326065063,-1.7242921034442347,0.0,0.008598828688263893,0.7053782939910889,-0.0,-0.00019074493320658803,0.8348978161811829,0.0,1.6203150153160095e-05
391.0,397.0,-0.1962,1.5858,9.6526,-0.0483,0.0223,-0.1196,-1.6448046169676722,0.00014256332360673696,2.2744882106781006,-1.9846985340118408,0.00010953663877444342,1.943366527557373,5.122487413674154,-0.0,0.29194554686546326,-1.7243121306048792,0.0,-0.010446721687912941,0.7054107785224915,-0.0,-0.0014954357175156474,0.8348937034606934,0.0,-0.0022906940430402756
391.0,397.0,-0.1962,1.5858,9.6526,-0.0483,0.0223,-0.1196,-1.6448561153807582,0.00011518022074596956,2.2585694789886475,-1.9846612215042114,0.00010037436004495248,1.9591164588928223,5.122487413674154,-0.0,0.28346019983291626,-1.7243602911578577,0.0,0.00628837663680315,0.7053539752960205,-0.0,0.014028819277882576,0.8349180817604065,0.0,0.033731017261743546
391.0,397.0,-0.1962,1.5858,9.6526,-0.0483,0.0223,-0.1196,-1.6448127231993617,9.66281077126041e-05,2.2878682613372803,-1.9846248626708984,9.262641833629459e-05,1.9441847801208496,5.12247912862853,-0.0,0.2833442687988281,-1.7243641058551233,0.0,0.009973854757845402,0.7053256034851074,-0.0,5.6587159633636475e-05,0.8349180221557617,0.0,-0.03637225180864334
391.0,397.0,-0.1962,1.5858,9.6526,-0.0483,0.0223,-0.1196,-1.6448523006834925,8.725852239876986e-05,2.2779834270477295,-1.984702706336975,8.809329301584512e-05,1.941951036453247,5.122471082001486,-0.0,0.2802187204360962,-1.7243202368365687,0.0,0.01618935540318489,0.7053539752960205,-0.0,0.009391583502292633,0.8349379301071167,0.0,0.024647586047649384
391.0,397.0,-0.1962,1.5858,9.6526,-0.0483,0.0223,-0.1196,-1.644860406915182,7.617901428602636e-05,2.3021092414855957,-1.9847172498703003,8.206848724512383e-05,1.928613305091858,5.122487443476476,-0.0,0.28244858980178833,-1.7242959181415003,-0.0001131046301452443,0.007228536065667868,0.7053095698356628,-0.0,0.005454082507640123,0.8348820805549622,0.0,-0.00806049071252346
391.0,397.0,-0.1962,1.5858,9.6526,-0.0483,0.0223,-0.1196,-1.6448642216124476,6.759617826901376e-05,2.25701904296875,-1.9846694469451904,6.311660399660468e-05,1.9324826002120972,5.1224750755126855,-0.0,0.2799072861671448,-1.7243202368365687,-0.00011212155368411914,0.007597670424729586,0.7053256034851074,-0.0,0.002716370625421405,0.8349180817604065,0.0,0.029311928898096085
391.0,397.0,-0.1962,1.5858,9.6526,-0.0483,0.0223,-0.1196,-1.6447802982726039,3.0797596991760656e-05,2.2544119358062744,-1.984677791595459,5.7108809414785355e-05,1.9404680728912354,5.122451650887289,-0.0,0.29523175954818726,-1.7243483702289026,-0.00010432535054860637,0.007455907762050629,0.7053661346435547,-0.0,0.004785836208611727,0.8349263072013855,0.0,0.01701473630964756
391.0,397.0,-0.1962,1.5858,9.6526,-0.0483,0.0223,-0.1196,-1.6448561153807582,9.761333785718307e-06,2.3032736778259277,-1.9847378730773926,3.0007699024281465e-05,1.9459599256515503,5.1224311766918085,-0.0,0.28239351511001587,-1.7243645826922815,-9.970229439204559e-05,0.01567879505455494,0.705370306968689,-0.0,0.0045254710130393505,0.8349060416221619,0.0,0.001120411790907383
392.0,408.0,-0.1501,1.9627,9.1382,-0.0176,0.0153,-0.131,-1.6448365650572718,2.357247209927582e-11,2.2835824489593506,-1.9846612215042114,2.4644823497510515e-05,1.9428050518035889,5.122431146889486,-0.0,0.28518250584602356,-1.7243202368365687,-9.348811727249995e-05,0.002314773155376315,0.7053702473640442,-0.0,0.005371034611016512,0.8348739147186279,0.0,-0.02752416953444481
392.0,408.0,-0.1501,1.9627,9.1382,-0.0176,0.0153,-0.131,-1.644860406915182,5.692474995855175e-17,2.2438974380493164,-1.9847099781036377,2.2773934688302688e-05,1.9535808563232422,5.122399168997564,-0.0,0.276386022567749,-1.724328343068258,-8.800302748568356e-05,-0.004162519238889217,0.705353856086731,-0.0,-0.013990803621709347,0.8348417282104492,0.0,0.06078675389289856
392.0,408.0,-0.1501,1.9627,9.1382,-0.0176,0.0153,-0.131,-1.6448966465392054,1.3746656055590246e-22,2.3111438751220703,-1.9846901893615723,8.493935865772073e-07,1.9543933868408203,5.122419315367498,-0.0005901133408769965,0.2943499982357025,-1.7242682615863245,-6.651045987382531e-05,0.01086442917585373,0.7053583860397339,-0.0,0.0036445152945816517,0.8349021673202515,0.0,-0.057080842554569244
392.0,408.0,-0.1501,1.9627,9.1382,-0.0176,0.0153,-0.131,-1.6448642216124476,2.4743497434823765e-26,2.291450262069702,-1.9846373796463013,1.5288781352040814e-10,1.9676785469055176,5.122423398285665,-0.0015030537033453584,0.2798100411891937,-1.724288288746969,-6.413154915207997e-05,0.009503238834440708,0.7052772641181946,-0.0,-0.008192641660571098,0.8348779678344727,0.0,0.02048645168542862
392.0,408.0,-0.1501,1.9627,9.1382,-0.0176,0.0153,-0.131,-1.6448365650572718,5.97526289239787e-32,2.2839272022247314,-1.9846736192703247,3.692060710079641e-16,1.9489562511444092,5.122427928238668,-0.0015496157575398684,0.27297359704971313,-1.7242921034442347,-6.087799192755483e-05,-0.003629848128184676,0.70536208152771,-0.0,-0.003911664243787527,0.834865927696228,0.0,-0.010853152722120285
392.0,408.0,-0.1501,1.9627,9.1382,-0.0176,0.0153,-0.131,-1.6448680363097132,1.4429557045528795e-37,2.291968822479248,-1.984694242477417,8.915892248199252e-22,1.976783037185669,5.122375058918752,-0.0009637752664275467,0.2870080769062042,-1.7243002096759241,-4.370158421806991e-05,0.016049858182668686,0.7053380012512207,-0.0,-0.006388267036527395,0.834865927696228,-0.0005470594624057412,0.014912405051290989
392.0,408.0,-0.1501,1.9627,9.1382,-0.0176,0.0153,-0.131,-1.6448880634703578,3.4892331761687945e-43,2.2915027141571045,-1.984649896621704,2.1530829813060106e-27,1.978657841682434,5.122423785715856,-0.0007033348083496094,0.2851693034172058,-1.7242963949786585,-4.145261482335627e-05,0.0076315863989293575,0.7053498029708862,-0.0,0.0003207193221896887,0.8348581790924072,-0.0005223596235737205,0.03619980067014694
392.0,408.0,-0.1501,1.9627,9.1382,-0.0176,0.0153,-0.131,-1.6448122463622035,0.0,2.2623608112335205,-1.9847170114517212,3.87547345439266e-31,1.9699786901474,5.122423815518179,-0.0006025051698088646,0.27957165241241455,-1.7242563406573694,4.553334292722866e-05,0.005494162440299988,0.7053661346435547,-0.0,-0.0015260817017406225,0.8348903059959412,-0.0005104845622554421,0.010845189914107323
392.0,408.0,-0.1501,1.9627,9.1382,-0.0176,0.0153,-0.131,-1.644848485986227,0.0,2.294116735458374,-1.9847136735916138,9.358811920498138e-37,1.9914309978485107,5.122415560274877,-0.000496637774631381,0.28092992305755615,-1.7242563406573694,5.3334555559558794e-05,0.023228896781802177,0.70535808801651,-0.0,0.003108767094090581,0.834854006767273,-0.000469103833893314,0.02652702108025551
392.0,408.0,-0.1501,1.9627,9.1382,-0.0176,0.0153,-0.131,-1.644860406915182,0.0,2.2780048847198486,-1.9846857786178589,2.26029442295593e-42,1.9748971462249756,5.122391390591421,-0.00045843495172448456,0.2676502764225006,-1.7242725531207483,4.898341649095528e-05,0.013775927014648914,0.7053662538528442,-0.0,-0.0031972043216228485,0.8348903059959412,-0.0003925973433069885,0.04208877682685852
392.0,408.0,-0.1501,1.9627,9.1382,-0.0176,0.0153,-0.131,-1.6448961697020472,0.0,2.276925802230835,-1.9846737384796143,0.0,1.9799385070800781,5.122363137989797,-0.00040705333231016994,0.2776329517364502,-1.7242768446551722,4.64547956653405e-05,0.02164570987224579,0.7053096294403076,-0.0,-0.0045465705916285515,0.8348618149757385,-0.0003539890458341688,0.01582464389503002
392.0,408.0,-0.1501,1.9627,9.1382,-0.0176,0.0153,-0.131,-1.6448642216124476,0.0,2.2688350677490234,-1.984601616859436,-0.0,1.993300199508667,5.122419702797689,-0.0003480100422166288,0.27232855558395386,-1.7242725531207483,4.311640077503398e-05,0.012003974989056587,0.705410361289978,-0.0,-0.015344059094786644,0.8348217010498047,-0.0003084857598878443,0.023583319038152695
392.0,408.0,-0.1501,1.9627,9.1382,-0.0176,0.0153,-0.131,-1.6448799572386683,0.0,2.2537474632263184,-1.9846693277359009,-0.0,1.9971356391906738,5.122391479998388,-0.0002193791005993262,0.29264581203460693,-1.7242606321917933,6.016188126523048e-05,0.010946202091872692,0.705370306968689,-0.0,-0.0073930080980062485,0.8348376750946045,-0.00027334826881997287,-0.010383243672549725
392.0,408.0,-0.1501,1.9627,9.1382,-0.0176,0.0153,-0.131,-1.6448523006834925,0.0,2.231308937072754,-1.9846779108047485,-0.0,1.933337688446045,5.122451710491934,-0.0001912324078148231,0.2822372615337372,-1.7242563406573694,5.65471600566525e-05,0.02098194882273674,0.7053580284118652,-0.0,-0.002630651695653796,0.8348217010498047,-0.0002453977067489177,-0.013253575190901756
392.0,408.0,-0.1501,1.9627,9.1382,-0.0176,0.0153,-0.131,-1.644900461236471,0.0,2.1977131366729736,-1.984645962715149,-0.0,1.9872416257858276,5.122411864786901,-0.0001762495667207986,0.2861712574958801,-1.7242806593524378,5.427387077361345e-05,0.010282832197844982,0.7053498029708862,-0.0,0.004619914572685957,0.8348175883293152,-0.00022973695013206452,-0.056902192533016205
392.0,408.0,-0.1501,1.9627,9.1382,-0.0176,0.0153,-0.131,-1.6448923550047816,0.0,2.298769474029541,-1.9846497774124146,-0.0,1.9578464031219482,5.122355389385977,-0.00015771524340379983,0.2736987769603729,-1.7242563406573694,6.81736710248515e-05,0.0221402607858181,0.7053179144859314,-0.0,-0.0014126605819910765,0.8348821401596069,-0.0002096665120916441,-0.02498139627277851
395.0,390.0,-0.1854,1.663,9.2596,-0.0302,0.0257,-0.1281,-1.6448680363097132,-0.0001253178925253451,2.296363592147827,-1.9846819639205933,-0.0,1.9765963554382324,5.1224078116710565,-0.0001852403802331537,0.2714795172214508,-1.7242725531207483,7.860687765059993e-05,0.01326916366815567,0.7053866982460022,-0.0,-0.002764376113191247,0.8348779678344727,-0.00016883242642506957,-0.03023267164826393
395.0,390.0,-0.1854,1.663,9.2596,-0.0302,0.0257,-0.1281,-1.64491667369985,-0.00015945766062941402,2.253873348236084,-1.9846210479736328,-0.0,2.020709753036499,5.122395562916555,-0.0002950955822598189,0.266837477684021,-1.7242725531207483,7.659783295821398e-05,0.027451463043689728,0.7053539752960205,-0.0,-0.011958115734159946,0.8348780274391174,-5.3991698223399e-05,-0.053420960903167725
395.0,390.0,-0.1854,1.663,9.2596,-0.0302,0.0257,-0.1281,-1.644900461236471,-0.0008002468966878951,2.255591630935669,-1.984616994857788,-0.0,2.0145719051361084,5.122363555222311,-0.0009476584382355213,0.26653313636779785,-1.7242286841021937,0.00013710450730286539,0.022207321599125862,0.7053543925285339,-0.0,-0.009756890125572681,0.8348536491394043,-5.0885639211628586e-05,-0.040692150592803955
395.0,390.0,-0.1854,1.663,9.2596,-0.0302,0.0257,-0.1281,-1.6448999843993128,-0.0011840092483907938,2.218383550643921,-1.9846166372299194,-0.0,1.9928233623504639,5.122331547528066,-0.002078596968203783,0.26433491706848145,-1.7242806593524378,0.00015695704496465623,0.029964040964841843,0.7053420543670654,-0.0,-0.0009485718328505754,0.8348779678344727,-4.690742207458243e-05,-0.0732322558760643
395.0,390.0,-0.1854,1.663,9.2596,-0.0302,0.0257,-0.1281,-1.644940038720602,-0.0007825458887964487,2.2489407062530518,-1.9846166372299194,-0.0,1.9975616931915283,5.122311788588323,-0.003386981086805463,0.2610239088535309,-1.7242525259601038,0.00018375355284661055,0.032269202172756195,0.7052977681159973,-0.0,-0.027915721759200096,0.8348861932754517,-6.525907519971952e-05,-0.09701164066791534
395.0,390.0,-0.1854,1.663,9.2596,-0.0302,0.0257,-0.1281,-1.644872327844137,-0.0005700138863176107,2.198486328125,-1.984624981880188,0.0010084058158099651,1.9833133220672607,5.122299867659368,-0.004996039904654026,0.26660969853401184,-1.724208180104391,0.0005931181949563324,0.039222583174705505,0.7053220868110657,-0.0,-0.030120281502604485,0.8348577618598938,-6.08470945735462e-05,-0.13423803448677063
395.0,390.0,-0.1854,1.663,9.2596,-0.0302,0.0257,-0.1281,-1.6448966465392054,-0.0001787053915904835,2.171666383743286,-1.984633207321167,0.0017232287209481,1.9795862436294556,5.122267949372091,-0.008815811015665531,0.24530403316020966,-1.7242043654071253,0.0006148488610051572,0.049663618206977844,0.705370306968689,-0.0,-0.015956994146108627,0.8348499536514282,-5.8222900406690314e-05,-0.16903460025787354
395.0,390.0,-0.1854,1.663,9.2596,-0.0302,0.0257,-0.1281,-1.6448680363097132,-0.00013736842083744705,2.1995673179626465,-1.984560489654541,0.0018496852135285735,2.023752212524414,5.122240441828527,-0.015887748450040817,0.23340852558612823,-1.7242005507098597,0.0018610376864671707,0.048131536692380905,0.705345630645752,-0.0,-0.03322520852088928,0.8348779678344727,-5.468519157147966e-05,-0.16753843426704407
395.0,390.0,-0.1854,1.663,9.2596,-0.0302,0.0257,-0.1281,-1.644900461236471,-0.00011177235865034163,2.190603256225586,-1.9846135377883911,0.0030294053722172976,2.0219764709472656,5.122092830925741,-0.017967060208320618,0.23942087590694427,-1.724224869404928,0.0030590868555009365,0.06644630432128906,0.7052897810935974,-0.0,-0.020179761573672295,0.8348940014839172,-5.155278631718829e-05,-0.16831085085868835
395.0,390.0,-0.1854,1.663,9.2596,-0.0302,0.0257,-0.1281,-1.6448680363097132,-0.00018650256970431656,2.168333053588867,-1.984606385231018,0.0048610372468829155,2.037339448928833,5.121968972473898,-0.02016821876168251,0.21789312362670898,-1.7241891066180628,0.0031518309842795134,0.07320155948400497,0.7053621411323547,-0.0,-0.027314316481351852,0.834881603717804,-4.8759771743789315e-05,-0.24161851406097412
395.0,390.0,-0.1854,1.663,9.2596,-0.0302,0.0257,-0.1281,-1.6449123821654261,-0.00026176354731433094,2.1817526817321777,-1.9845170974731445,0.0058690812438726425,2.0671911239624023,5.1219050762946985,-0.021067796275019646,0.2212904393672943,-1.7241929213153284,0.0027061263099312782,0.09326223284006119,0.7053502798080444,-0.0,-0.01330350711941719,0.8348898887634277,3.480572922853753e-05,-0.2806933522224426
395.0,390.0,-0.1854,1.663,9.2596,-0.0302,0.0257,-0.1281,-1.6449481449522914,-0.0020490551833063364,2.107177257537842,-1.9845421314239502,0.007501350715756416,2.083712339401245,5.12171750047759,-0.022374654188752174,0.21273154020309448,-1.7241852919207972,0.0024198705796152353,0.08875403553247452,0.7053296566009521,-0.0,-0.019590267911553383,0.8349101543426514,3.122378257103264e-05,-0.2367183417081833
395.0,390.0,-0.1854,1.663,9.2596,-0.0302,0.0257,-0.1281,-1.6449557743468226,-0.002182160969823599,2.0749478340148926,-1.9844489097595215,0.007438513450324535,2.062135696411133,5.121585863619604,-0.022553855553269386,0.20615237951278687,-1.7241652647601526,0.00396953709423542,0.10684007406234741,0.7053136825561523,-0.0,-0.025238078087568283,0.8348698019981384,6.398772067761627e-10,-0.27371442317962646
395.0,390.0,-0.1854,1.663,9.2596,-0.0302,0.0257,-0.1281,-1.6449839077391566,-0.0021559037268161774,2.0924291610717773,-1.984449863433838,0.007831307128071785,2.09425687789917,5.121534693032064,-0.02221381478011608,0.21812599897384644,-1.724105183278219,0.005448599811643362,0.10269463807344437,0.7053380012512207,-0.0,-0.023465029895305634,0.8348499536514282,1.151756370398188e-13,-0.320671945810318
395.0,390.0,-0.1854,1.663,9.2596,-0.0302,0.0257,-0.1281,-1.6449600658812464,-0.0022973958402872086,2.0631346702575684,-1.9844458103179932,0.007989736273884773,2.104903221130371,5.121362852841177,-0.023281125351786613,0.18662551045417786,-1.7240656057940882,0.009446597658097744,0.12231174111366272,0.7053502798080444,-5.3295101679395884e-05,-0.025744274258613586,0.8349019289016724,2.7813557771244007e-19,-0.36141377687454224
395.0,390.0,-0.1854,1.663,9.2596,-0.0302,0.0257,-0.1281,-1.6449724636473597,-0.001744199194945395,2.005650043487549,-1.9843535423278809,0.00818557757884264,2.0994839668273926,5.121194737940588,-0.02285495214164257,0.17962172627449036,-1.7239812056170862,0.012781046330928802,0.1265135407447815,0.7053295969963074,-5.1857165090041235e-05,-0.02476394549012184,0.8348861336708069,-0.0010363453766331077,-0.41580671072006226
395.0,390.0,-0.1854,1.663,9.2596,-0.0302,0.0257,-0.1281,-1.6450044117369593,-0.0013340599834918976,1.9834654331207275,-1.984333872795105,0.009319386444985867,2.0525999069213867,5.1210277555282495,-0.022741615772247314,0.17086996138095856,-1.7239020506488245,0.014732507057487965,0.12704212963581085,0.7053383588790894,-6.0063073760829866e-05,-0.04494328051805496,0.8348820805549622,-0.001699912128970027,-0.36094796657562256
399.0,393.0,-0.2148,2.7272,9.5671,0.013,-0.0244,-0.1373,-1.6450005970396937,-0.001292435685172677,2.017570972442627,-1.984217643737793,0.00997253693640232,2.118588447570801,5.120967942267217,-0.021780122071504593,0.1826639175415039,-1.723858658467428,0.016504650935530663,0.15305766463279724,0.7052658796310425,-1.9683752725541126e-06,-0.028731275349855423,0.8348742127418518,-0.0021332395263016224,-0.42775845527648926
399.0,393.0,-0.2148,2.7272,9.5671,0.013,-0.0244,-0.1373,-1.64502014736318,-0.002092057839035988,1.9599759578704834,-1.98417329788208,0.011170834302902222,2.108412027359009,5.1208247421081445,-0.017837822437286377,0.15651115775108337,-1.7237141768084925,0.020556889474391937,0.16106098890304565,0.7053260803222656,-5.479044440370728e-10,-0.020552394911646843,0.8348376750946045,-0.0032353221904486418,-0.38276487588882446
399.0,393.0,-0.2148,2.7272,9.5671,0.013,-0.0244,-0.1373,-1.6450282535948695,-0.0031485245563089848,1.964997410774231,-1.984138011932373,0.012082201428711414,2.1040000915527344,5.120744901686468,-0.013156414963304996,0.1782463788986206,-1.7236107031451624,0.0261373333632946,0.15008212625980377,0.7053621411323547,-1.525112366040568e-13,-0.027713876217603683,0.8347856998443604,-0.0037324491422623396,-0.41301578283309937
399.0,393.0,-0.2148,2.7272,9.5671,0.013,-0.0244,-0.1373,-1.6450287304320277,-0.0033823251724243164,1.9680272340774536,-1.9840664863586426,0.012422272935509682,2.1660122871398926,5.120673048287191,-0.008641022257506847,0.16688436269760132,-1.7234109083758753,0.034271858632564545,0.1533973515033722,0.7053424119949341,-4.2452063780356504e-17,-0.028284793719649315,0.8348100781440735,-0.0038198146503418684,-0.46106597781181335
399.0,393.0,-0.2148,2.7272,9.5671,0.013,-0.0244,-0.1373,-1.6450158558287562,-0.0029145078733563423,1.9608492851257324,-1.9839897155761719,0.012563731521368027,2.1130881309509277,5.120693611889639,-0.005948987323790789,0.16546469926834106,-1.7232721487628382,0.044605791568756104,0.14596952497959137,0.7053461074829102,-1.8097981557275726e-19,-0.031075570732355118,0.8347172737121582,-0.0038296361453831196,-0.43722954392433167
399.0,393.0,-0.2148,2.7272,9.5671,0.013,-0.0244,-0.1373,-1.6450244388976039,-0.0014604356838390231,1.9200332164764404,-1.9838694334030151,0.013506962917745113,2.1124444007873535,5.120625781803884,-0.003558688797056675,0.16809186339378357,-1.722945515309469,0.07001543790102005,0.1671431064605713,0.7053097486495972,-5.03763986610369e-23,-0.02190582826733589,0.8347496390342712,-0.0028510778211057186,-0.40160876512527466
399.0,393.0,-0.2148,2.7272,9.5671,0.013,-0.0244,-0.1373,-1.6450725994505824,-0.0007382736075669527,1.9680695533752441,-1.9838542938232422,0.015177885070443153,2.1462795734405518,5.120585697680273,-0.0021726838313043118,0.15614265203475952,-1.7223551909076136,0.11378894746303558,0.15366056561470032,0.7053906917572021,-0.0001336241839453578,-0.03314372897148132,0.834761917591095,-0.0018643276998773217,-0.3983038365840912
399.0,393.0,-0.2148,2.7272,9.5671,0.013,-0.0244,-0.1373,-1.6450406513609828,-0.0004945984110236168,1.961329460144043,-1.9837298393249512,0.015180544927716255,2.110989570617676,5.120533305197515,-0.00247594085521996,0.15872904658317566,-1.7215784231769007,0.15973177552223206,0.20189860463142395,0.7053301334381104,-0.00015213756705634296,-0.034758310765028,0.8347618579864502,-0.0008999095880426466,-0.37953469157218933
399.0,393.0,-0.2148,2.7272,9.5671,0.013,-0.0244,-0.1373,-1.645036359826559,-0.0004054292803630233,1.9624583721160889,-1.9837225675582886,0.015479201450943947,2.1374123096466064,5.12061436751441,-0.0028438791632652283,0.17522060871124268,-1.7208526770221155,0.1725964993238449,0.20817402005195618,0.7053343057632446,-0.00014250953972805291,-0.036548830568790436,0.8347698450088501,-0.00043084443314000964,-0.4086354970932007
399.0,393.0,-0.2148,2.7272,9.5671,0.013,-0.0244,-0.1373,-1.6450325451292933,-0.0002553192316554487,1.930675983428955,-1.9835702180862427,0.0173787884414196,2.1365058422088623,5.120497900038519,-0.004265886731445789,0.1606426239013672,-1.7199090162860315,0.15649260580539703,0.19672062993049622,0.7053461074829102,-0.0001429193071089685,-0.05017890781164169,0.8347377181053162,-0.0002698270545806736,-0.36479583382606506
399.0,393.0,-0.2148,2.7272,9.5671,0.013,-0.0244,-0.1373,-1.6450520954527796,-0.00021051567455288023,1.9061412811279297,-1.9834498167037964,0.019881458953022957,2.1242189407348633,5.120461779623785,-0.005666571203619242,0.1547039896249771,-1.718865219746725,0.17873884737491608,0.19221104681491852,0.7053301334381104,-0.0001436996244592592,-0.030601099133491516,0.834753692150116,-0.00020757118181791157,-0.3665703535079956
399.0,393.0,-0.2148,2.7272,9.5671,0.013,-0.0244,-0.1373,-1.6450120411314906,-0.00018847115279641002,1.9193006753921509,-1.983389973640442,0.021601108834147453,2.1608145236968994,5.120462167053976,-0.006861845962703228,0.15162131190299988,-1.7180879751788538,0.20636968314647675,0.1929907202720642,0.7053584456443787,-0.000136441012728028,-0.044729504734277725,0.8347458839416504,-0.00017990315973293036,-0.40247780084609985
399.0,393.0,-0.2148,2.7272,9.5671,0.013,-0.0244,-0.1373,-1.645088335076803,-0.0001628860627533868,1.9038686752319336,-1.9831939935684204,0.023305224254727364,2.180532932281494,5.120434063463964,-0.008905317634344101,0.15829840302467346,-1.7168048063861292,0.2124517858028412,0.20225897431373596,0.7052937150001526,-0.00012682694068644196,-0.048444006592035294,0.8347500562667847,0.00012221734505146742,-0.3322163224220276
399.0,393.0,-0.2148,2.7272,9.5671,0.013,-0.0244,-0.1373,-1.6449843845763148,-0.0001434174191672355,1.9018268585205078,-1.9831383228302002,0.02497345581650734,2.116974353790283,5.1203342256839655,-0.011686155572533607,0.1507689356803894,-1.7154343763934534,0.238985076546669,0.22422640025615692,0.7053543925285339,-0.00011847848509205505,-0.03719870746135712,0.8347740173339844,0.0001526958803879097,-0.38904625177383423
399.0,393.0,-0.2148,2.7272,9.5671,0.013,-0.0244,-0.1373,-1.645036359826559,-0.00012810612679459155,1.9347079992294312,-1.9829350709915161,0.02751307748258114,2.1675658226013184,5.120258796006002,-0.0171139445155859,0.14204373955726624,-1.7137768904315394,0.2823754549026489,0.24824124574661255,0.7053261399269104,-0.00011116152018075809,-0.04264644533395767,0.8347738981246948,0.0001689759810687974,-0.3362947702407837
399.0,393.0,-0.2148,2.7272,9.5671,0.013,-0.0244,-0.1373,-1.6450239620604457,-0.00011959430412389338,1.8894691467285156,-1.9828190803527832,0.029010456055402756,2.1416683197021484,5.1201907871063135,-0.022380363196134567,0.15842708945274353,-1.7126734892474573,0.27789923548698425,0.22566211223602295,0.7053220868110657,-0.0001067657140083611,-0.047660112380981445,0.8347496390342712,0.00019377325952518731,-0.34791654348373413
390.0,392.0,-0.7549,1.8724,9.9129,-0.2482,0.0392,-0.1222,-1.6450001202025355,-8.169557258952409e-05,1.904361367225647,-1.9825983047485352,0.030460210517048836,2.138275623321533,5.120035367995062,-0.033325184136629105,0.1478981226682663,-1.710888687764303,0.31855344772338867,0.2527427077293396,0.7053502798080444,-0.00011729689867934212,-0.05179118365049362,0.8347775936126709,0.00033671603887341917,-0.3346022963523865
390.0,392.0,-0.7549,1.8724,9.9129,-0.2482,0.0392,-0.1222,-1.644951959649557,-7.478843326680362e-05,1.8777656555175781,-1.982442855834961,0.030894596129655838,2.1675658226013184,5.11975188830451,-0.05387820675969124,0.11862590909004211,-1.708916489277975,0.33619940280914307,0.25905299186706543,0.7053543925285339,-0.00011135023669339716,-0.044002264738082886,0.8348307013511658,0.0003470281371846795,-0.33933186531066895
390.0,392.0,-0.7549,1.8724,9.9129,-0.2482,0.0392,-0.1222,-1.645008226434225,-6.905038753757253e-05,1.8653401136398315,-1.9822429418563843,0.03198951110243797,2.136221170425415,5.119313019305029,-0.08620654791593552,0.10774772614240646,-1.7066176573382776,0.3828902244567871,0.24009576439857483,0.7053220272064209,-0.00010574330372037366,-0.04697064310312271,0.8347496390342712,0.0003398632979951799,-0.30566543340682983
390.0,392.0,-0.7549,1.8724,9.9129,-0.2482,0.0392,-0.1222,-1.6449924908080042,-6.569036486325786e-05,1.8776494264602661,-1.9820905923843384,0.031973499804735184,2.1489593982696533,5.11890988329009,-0.11252576857805252,0.09180933237075806,-1.7050965468036097,0.392547607421875,0.2551945447921753,0.7053543925285339,-0.00011643197649391368,-0.03592859208583832,0.8348101377487183,0.00030695635359734297,-0.32501524686813354
390.0,392.0,-0.7549,1.8724,9.9129,-0.2482,0.0392,-0.1222,-1.6449362240233363,6.212881271494552e-05,1.9142873287200928,-1.9819145202636719,0.03165469691157341,2.160017967224121,5.118116694479742,-0.13893863558769226,0.08031344413757324,-1.702505890523092,0.4280138611793518,0.25974178314208984,0.7053744792938232,-0.00011149239435326308,-0.024942409247159958,0.8347496390342712,0.0002678071614354849,-0.26961833238601685
390.0,392.0,-0.7549,1.8724,9.9129,-0.2482,0.0392,-0.1222,-1.644968648950094,8.039789099711925e-05,1.8352429866790771,-1.9817073345184326,0.03425214812159538,2.141123056411743,5.117207336216726,-0.14440806210041046,0.0706014484167099,-1.6997721830951136,0.48050883412361145,0.2830917239189148,0.7053020000457764,-0.00010829928214661777,-0.051613934338092804,0.8347899913787842,0.0002714402799028903,-0.31328439712524414
390.0,392.0,-0.7549,1.8724,9.9129,-0.2482,0.0392,-0.1222,-1.6449877224364222,7.537804776802659e-05,1.851377010345459,-1.9815032482147217,0.034580837935209274,2.119184970855713,5.116334396391668,-0.1441863775253296,0.0721447765827179,-1.6967719236956995,0.5164448022842407,0.31645649671554565,0.7052618861198425,-0.0001013114451779984,-0.05030490458011627,0.8347858190536499,0.0002438636583974585,-0.3145665228366852
390.0,392.0,-0.7549,1.8724,9.9129,-0.2482,0.0392,-0.1222,-1.6449481449522914,0.0001666102762101218,1.799302577972412,-1.9813228845596313,0.0363655649125576,2.1139676570892334,5.115764486580648,-0.15385757386684418,0.07173717767000198,-1.6945937315570276,0.5370544791221619,0.3204655051231384,0.7053060531616211,-9.694630716694519e-05,-0.044229038059711456,0.8348021507263184,0.0002283922367496416,-0.2612275779247284
390.0,392.0,-0.7549,1.8724,9.9129,-0.2482,0.0392,-0.1222,-1.6449924908080042,6.569220568053424e-05,1.837768793106079,-1.981127142906189,0.040357593446969986,2.0873842239379883,5.114651101618566,-0.17925786972045898,0.05118243396282196,-1.6911667029010218,0.5724833011627197,0.30271491408348083,0.7053020000457764,-9.1060675913468e-05,-0.037112925201654434,0.834805965423584,0.00020854589820373803,-0.265783429145813
390.0,392.0,-0.7549,1.8724,9.9129,-0.2482,0.0392,-0.1222,-1.6450044117369593,1.5863893532142015e-10,1.8465934991836548,-1.9808837175369263,0.04657211899757385,2.1708405017852783,5.1135436473186395,-0.19010819494724274,0.03660079464316368,-1.6876543203936976,0.609379768371582,0.3218480944633484,0.7052941918373108,-8.584890747442842e-05,-0.039825208485126495,0.8347418308258057,0.00017731156549416482,-0.2587684094905853
390.0,392.0,-0.7549,1.8724,9.9129,-0.2482,0.0392,-0.1222,-1.6449805698790492,3.8309439378806005e-16,1.8215006589889526,-1.9806039333343506,0.053570546209812164,2.104719638824463,5.112407970219412,-0.21138742566108704,0.037968866527080536,-1.6838167349444788,0.6451107859611511,0.293592631816864,0.7053666710853577,-9.736981155583635e-05,-0.04604709893465042,0.8347817659378052,0.0001584281853865832,-0.2584690749645233
390.0,392.0,-0.7549,1.8724,9.9129,-0.2482,0.0392,-0.1222,-1.6450001202025355,6.895563701879863e-20,1.8067104816436768,-1.9803510904312134,0.05849820375442505,2.1520538330078125,5.111454206496038,-0.24372969567775726,0.02253727987408638,-1.6811545530902308,0.6639345288276672,0.29764625430107117,0.7053385376930237,-9.404712909599766e-05,-0.03722703456878662,0.8347939252853394,0.00014800626377109438,-0.2007841169834137
390.0,392.0,-0.7549,1.8724,9.9129,-0.2482,0.0392,-0.1222,-1.6449839077391566,-0.0005368844722397625,1.8010071516036987,-1.9799354076385498,0.068741075694561,2.2134623527526855,5.109831470042028,-0.27144837379455566,-0.01935805007815361,-1.6770198980914515,0.6977279186248779,0.2928381562232971,0.7053097486495972,-8.937758684623986e-05,-0.04571933299303055,0.8347982168197632,0.00016165469423867762,-0.17586511373519897
390.0,392.0,-0.7549,1.8724,9.9129,-0.2482,0.0392,-0.1222,-1.6450001202025355,-0.0003960353205911815,1.786590576171875,-1.9795479774475098,0.07944592088460922,2.1617608070373535,5.108085411577978,-0.30448776483535767,-0.02365429885685444,-1.6727326552020472,0.7330203652381897,0.30001503229141235,0.7053261399269104,-7.096600893419236e-05,-0.03520418703556061,0.8347577452659607,0.0001483343803556636,-0.16645240783691406
390.0,392.0,-0.7549,1.8724,9.9129,-0.2482,0.0392,-0.1222,-1.64502014736318,-0.0003367448807694018,1.7954305410385132,-1.9792152643203735,0.08805253356695175,2.1419897079467773,5.106737005501547,-0.32549890875816345,-0.03350246697664261,-1.669771973286764,0.7442135214805603,0.29517310857772827,0.7053580284118652,-6.878848216729239e-05,-0.036694854497909546,0.8347377181053162,0.00016129396681208163,-0.11696355789899826
390.0,392.0,-0.7549,1.8724,9.9129,-0.2482,0.0392,-0.1222,-1.6450163326659144,-0.00027499566203914583,1.7729429006576538,-1.9786486625671387,0.09989463537931442,2.1881351470947266,5.104820179730215,-0.3579544126987457,-0.04375274479389191,-1.665187184010641,0.7717657685279846,0.31407788395881653,0.7053383588790894,-6.577219755854458e-05,-0.03766658902168274,0.8347775936126709,0.00015215850726235658,-0.13868853449821472
390.0,392.0,-0.7549,1.8724,9.9129,-0.2482,0.0392,-0.1222,-1.6450125179686488,-0.00031981145730242133,1.7789427042007446,-1.9779719114303589,0.11148001253604889,2.2198679447174072,5.102531033545294,-0.38496100902557373,-0.06192298233509064,-1.6605284849749964,0.7854939103126526,0.2859973609447479,0.7053138017654419,-6.300936365732923e-05,-0.03405018150806427,0.8348062634468079,0.00022494749282486737,-0.15658384561538696
413.0,381.0,-1.4542,2.2834,10.4853,-0.7295,-0.2013,-0.1286,-1.6450120411314906,-0.0003219148493371904,1.7146437168121338,-1.9773005247116089,0.11702866107225418,2.265598773956299,5.100183087378301,-0.4274318516254425,-0.1011943593621254,-1.6557491461383265,0.8088019490242004,0.2844175696372986,0.7053020000457764,-6.046923590474762e-05,-0.04022195190191269,0.834801971912384,0.0002743212680798024,-0.15555311739444733
413.0,381.0,-1.4542,2.2834,10.4853,-0.7295,-0.2013,-0.1286,-1.644980093041891,-0.000262847519479692,1.6886546611785889,-1.9768449068069458,0.12007240206003189,2.2510745525360107,5.098428267031469,-0.4497404992580414,-0.09455416351556778,-1.6524327437030237,0.8199079036712646,0.28921428322792053,0.7053543925285339,-5.888666782993823e-05,-0.014327711425721645,0.8347693681716919,0.00028940109768882394,-0.0957794040441513
413.0,381.0,-1.4542,2.2834,10.4853,-0.7295,-0.2013,-0.1286,-1.6450001202025355,-0.00018072730745188892,1.718172550201416,-1.9760571718215942,0.12664128839969635,2.1935741901397705,5.09558134058074,-0.49232929944992065,-0.1166095957159996,-1.6475032011615198,0.8347578048706055,0.27472367882728577,0.7053743600845337,-4.5427535951603204e-05,-0.029895752668380737,0.8348178863525391,0.0007919410709291697,-0.0778546929359436
413.0,381.0,-1.4542,2.2834,10.4853,-0.7295,-0.2013,-0.1286,-1.644951959649557,-0.00011695142893586308,1.7314878702163696,-1.9752978086471558,0.13772810995578766,2.2171967029571533,5.092488336354055,-0.5274751782417297,-0.14197933673858643,-1.6424039045916956,0.8399161696434021,0.29039499163627625,0.7053661346435547,-4.367983638076112e-05,-0.018746908754110336,0.8348178863525391,0.0012369930045679212,-0.07575158774852753
413.0,381.0,-1.4542,2.2834,10.4853,-0.7295,-0.2013,-0.1286,-1.6449123821654261,0.00017046227003447711,1.694948673248291,-1.9744826555252075,0.15068945288658142,2.2577645778656006,5.089071351080694,-0.5788097381591797,-0.13201934099197388,-1.6372974554644983,0.8581686615943909,0.2730540633201599,0.7053097486495972,-4.214569344185293e-05,-0.018762346357107162,0.8348336219787598,0.001616220106370747,-0.09856119006872177
413.0,381.0,-1.4542,2.2834,10.4853,-0.7295,-0.2013,-0.1286,-1.6449243030943812,0.00014334994193632156,1.7137067317962646,-1.9737902879714966,0.16289038956165314,2.3215959072113037,5.086610573321142,-0.6059525609016418,-0.1454915553331375,-1.633834187184469,0.8581796288490295,0.268951952457428,0.7053420543670654,-4.1181450797012076e-05,-0.012434624135494232,0.8348340392112732,0.0018961000023409724,-0.09341522306203842
413.0,381.0,-1.4542,2.2834,10.4853,-0.7295,-0.2013,-0.1286,-1.6449562511839808,0.00011570058268262073,1.7156996726989746,-1.9727219343185425,0.17633181810379028,2.3087821006774902,5.082839149027624,-0.6467186808586121,-0.15067633986473083,-1.6287325064288538,0.8555178642272949,0.2586762309074402,0.705366313457489,-3.981512054451741e-05,-0.005371576175093651,0.834850013256073,0.003923814278095961,-0.013324056752026081
413.0,381.0,-1.4542,2.2834,10.4853,-0.7295,-0.2013,-0.1286,-1.644980093041891,2.8458831735633794e-08,1.6808154582977295,-1.9716955423355103,0.1824982762336731,2.2599244117736816,5.078756499081411,-0.680782675743103,-0.15980449318885803,-1.6237109343158167,0.8627429604530334,0.24638840556144714,0.7052896618843079,-1.1082684991947644e-08,-0.004016782157123089,0.8348738551139832,0.009657594375312328,0.030702956020832062
413.0,381.0,-1.4542,2.2834,10.4853,-0.7295,-0.2013,-0.1286,-1.644980093041891,6.872472968315335e-14,1.7244160175323486,-1.9704996347427368,0.1898629069328308,2.289677143096924,5.074550914555349,-0.7217187881469727,-0.13416503369808197,-1.618683163319723,0.8484956622123718,0.2616874575614929,0.7053743600845337,-3.084905811703842e-12,-0.008508977480232716,0.8349701166152954,0.009692983701825142,0.08477818965911865
413.0,381.0,-1.4542,2.2834,10.4853,-0.7295,-0.2013,-0.1286,-1.6449958286681117,1.2370207300864099e-17,1.6824405193328857,-1.9697046279907227,0.19712083041667938,2.3363983631134033,5.071523922472753,-0.7416549324989319,-0.14343108236789703,-1.6151750723468226,0.8462214469909668,0.2311948835849762,0.7053343057632446,-1.3151437573786107e-14,-0.01422659307718277,0.8349900841712952,0.008781522512435913,0.062238164246082306
413.0,381.0,-1.4542,2.2834,10.4853,-0.7295,-0.2013,-0.1286,-1.644951959649557,2.987259422524014e-23,1.6756014823913574,-1.9684865474700928,0.2110239863395691,2.322153329849243,5.067002999573507,-0.7826069593429565,-0.15833158791065216,-1.610133473073141,0.8449247479438782,0.24115264415740967,0.7052973508834839,-3.660751080170284e-18,-0.0018335175700485706,0.8350260257720947,0.007657204754650593,0.09673428535461426
413.0,381.0,-1.4542,2.2834,10.4853,-0.7295,-0.2013,-0.1286,-1.6449963055052699,7.213879959199709e-29,1.6812818050384521,-1.9671392440795898,0.22121194005012512,2.37251615524292,5.062257933407583,-0.8245036005973816,-0.17596665024757385,-1.6050575415240687,0.8247036933898926,0.21332430839538574,0.7053296566009521,-1.0189835209855444e-21,-0.004002120811492205,0.8350542783737183,0.006234560161828995,0.14093363285064697
413.0,381.0,-1.4542,2.2834,10.4853,-0.7295,-0.2013,-0.1286,-1.6449805698790492,1.2984729535005828e-32,1.6787662506103516,-1.9662035703659058,0.2275317907333374,2.285912036895752,5.058867680817404,-0.8456471562385559,-0.16023752093315125,-1.6017373243915003,0.817037045955658,0.20985081791877747,0.7052695155143738,-4.344087005527037e-24,-0.015750709921121597,0.835098147392273,0.0054734149016439915,0.115423783659935
413.0,381.0,-1.4542,2.2834,10.4853,-0.7295,-0.2013,-0.1286,-1.644951959649557,3.135659229208514e-38,1.6771390438079834,-1.9647821187973022,0.24030077457427979,2.3858394622802734,5.053618895798483,-0.877912163734436,-0.1502830684185028,-1.5969823042498987,0.8071848154067993,0.21552059054374695,0.7053580284118652,2.1183839635341428e-05,0.0023605802562087774,0.8351143598556519,0.004711361136287451,0.1614505648612976
413.0,381.0,-1.4542,2.2834,10.4853,-0.7295,-0.2013,-0.1286,-1.6449843845763148,7.567011707354012e-44,1.7181196212768555,-1.9632625579833984,0.2511419653892517,2.3419742584228516,5.048201519041815,-0.9077216386795044,-0.15770293772220612,-1.5922296682940882,0.7852885127067566,0.1843104064464569,0.7053296566009521,2.509180376364384e-05,-0.01355111226439476,0.8351583480834961,0.005542254541069269,0.17963853478431702
413.0,381.0,-1.4542,2.2834,10.4853,-0.7295,-0.2013,-0.1286,-1.6449877224364222,0.0,1.7353346347808838,-1.9617208242416382,0.2666138708591461,2.4189634323120117,5.042491215258398,-0.9334796667098999,-0.16499391198158264,-1.5876167456256312,0.760887086391449,0.17437255382537842,0.7053260803222656,2.4085878976620734e-05,-0.007340474985539913,0.8351542353630066,0.006295749451965094,0.24411767721176147
396.0,408.0,-0.9547,-0.5049,9.7711,-0.7924,-0.6671,-0.1403,-1.644951959649557,0.0,1.7000266313552856,-1.960573673248291,0.2726026177406311,2.4200007915496826,5.038748818426885,-0.9525395631790161,-0.13512180745601654,-1.5846546331988733,0.7446978092193604,0.1846158504486084,0.7053138613700867,2.3458092982764356e-05,3.3299438655376434e-06,0.8351984024047852,0.005727593321353197,0.21234826743602753
396.0,408.0,-0.9547,-0.5049,9.7711,-0.7924,-0.6671,-0.1403,-1.6449324093260707,0.0,1.7645713090896606,-1.958979845046997,0.2821159064769745,2.4175925254821777,5.032975899964132,-0.9843298196792603,-0.13264447450637817,-1.58026630083193,0.7218785285949707,0.16929276287555695,0.705370306968689,2.2575466573471203e-05,-0.010978493839502335,0.8352142572402954,0.004942112136632204,0.27743658423423767
396.0,408.0,-0.9547,-0.5049,9.7711,-0.7924,-0.6671,-0.1403,-1.6449839077391566,0.0,1.7699861526489258,-1.9572288990020752,0.29841360449790955,2.460108518600464,5.026986378222265,-1.010343313217163,-0.1288343071937561,-1.5760510603534144,0.7060739398002625,0.17003577947616577,0.7053343057632446,2.1756852220278233e-05,-0.012915235012769699,0.8352501392364502,0.005644266959279776,0.2848699688911438
396.0,408.0,-0.9547,-0.5049,9.7711,-0.7924,-0.6671,-0.1403,-1.6449324093260707,0.0,1.7570937871932983,-1.9554269313812256,0.31015458703041077,2.4716081619262695,5.020808684616842,-1.0371830463409424,-0.14873814582824707,-1.5719793478595179,0.675285279750824,0.15847407281398773,0.7053661346435547,2.0995543309254572e-05,0.00041619851253926754,0.83527010679245,0.005963727831840515,0.3547787666320801
396.0,408.0,-0.9547,-0.5049,9.7711,-0.7924,-0.6671,-0.1403,-1.6449877224364222,0.0,1.7529199123382568,-1.9541881084442139,0.3214450776576996,2.479672431945801,5.016681152373113,-1.0504765510559082,-0.12088985741138458,-1.5692547003375452,0.6617196202278137,0.1684499979019165,0.7053543925285339,2.051691808446776e-05,-0.016758354380726814,0.8353667259216309,0.006231012288480997,0.33449018001556396
396.0,408.0,-0.9547,-0.5049,9.7711,-0.7924,-0.6671,-0.1403,-1.6449600658812464,0.0,1.7752647399902344,-1.9522335529327393,0.33436357975006104,2.5171329975128174,5.010217267065801,-1.0793858766555786,-0.1396806538105011,-1.5654872099505823,0.6300451159477234,0.15099109709262848,0.7053543329238892,5.113181487104157e-06,-0.01405288465321064,0.8353063464164734,0.006564198527485132,0.35881656408309937
396.0,408.0,-0.9547,-0.5049,9.7711,-0.7924,-0.6671,-0.1403,-1.6449600658812464,0.0,1.7843377590179443,-1.9501845836639404,0.34420058131217957,2.4719161987304688,5.003786015301504,-1.1035228967666626,-0.1307137906551361,-1.56179124513735,0.6042187213897705,0.1461118459701538,0.7053343057632446,1.4232728329233169e-09,0.0017466498538851738,0.8353582620620728,0.005467862822115421,0.3820192813873291
396.0,408.0,-0.9547,-0.5049,9.7711,-0.7924,-0.6671,-0.1403,-1.644968648950094,0.0,1.820239543914795,-1.9480352401733398,0.3632303774356842,2.5352296829223633,4.996999162226476,-1.1242127418518066,-0.12027764320373535,-1.558324162160055,0.5698378086090088,0.1379697620868683,0.7052618265151978,3.961732743078261e-13,-0.0021626907400786877,0.8354183435440063,0.004957360681146383,0.3814046382904053
396.0,408.0,-0.9547,-0.5049,9.7711,-0.7924,-0.6671,-0.1403,-1.6449958286681117,0.0,1.7885469198226929,-1.94651460647583,0.37877529859542847,2.559224843978882,4.992327499180593,-1.141498327255249,-0.12773755192756653,-1.5561531225787562,0.5515359044075012,0.14478087425231934,0.7053703665733337,1.6889486508368822e-15,-0.0055488902144134045,0.8354265689849854,0.004295660648494959,0.38473498821258545
396.0,408.0,-0.9547,-0.5049,9.7711,-0.7924,-0.6671,-0.1403,-1.644992013970846,0.0,1.8296022415161133,-1.9443022012710571,0.39147308468818665,2.5442914962768555,4.985399979143896,-1.1644748449325562,-0.1084299087524414,-1.5528963247882288,0.5203424692153931,0.13539208471775055,0.7053506970405579,4.701249992172162e-19,-0.008357205428183079,0.8354302644729614,0.003075936110690236,0.3713306188583374
396.0,408.0,-0.9547,-0.5049,9.7711,-0.7924,-0.6671,-0.1403,-1.645008226434225,0.0,1.8702608346939087,-1.9419203996658325,0.40617838501930237,2.567647695541382,4.978355812817373,-1.1836882829666138,-0.09711243212223053,-1.5498693625079554,0.48606055974960327,0.12117090076208115,0.7053343057632446,1.3086104323236518e-22,-0.014229962602257729,0.8354224562644958,0.002474360167980194,0.38696613907814026
396.0,408.0,-0.9547,-0.5049,9.7711,-0.7924,-0.6671,-0.1403,-1.644968648950094,0.0,1.8558093309402466,-1.9393104314804077,0.4163670539855957,2.5436298847198486,4.971339779883184,-1.2095156908035278,-0.09819906204938889,-1.5469792524920862,0.4582517147064209,0.10056266188621521,0.7053056955337524,3.6425661543043953e-26,-0.017438869923353195,0.8354543447494507,0.0018299012444913387,0.3536515235900879
396.0,408.0,-0.9547,-0.5049,9.7711,-0.7924,-0.6671,-0.1403,-1.6449877224364222,0.0,1.8235678672790527,-1.937567114830017,0.4249710738658905,2.548696994781494,4.966552483826437,-1.2142181396484375,-0.12089930474758148,-1.5452707449542444,0.4464704990386963,0.10050339996814728,0.7053539752960205,1.5528830919492614e-28,-0.01539514772593975,0.8353820443153381,0.0016588394064456224,0.37145256996154785
396.0,408.0,-0.9547,-0.5049,9.7711,-0.7924,-0.6671,-0.1403,-1.6449676952757777,0.0,1.8413150310516357,-1.9349795579910278,0.4437023103237152,2.64601469039917,4.9591736374195,-1.2266446352005005,-0.11195888370275497,-1.5426724592791956,0.4100399911403656,0.08868468552827835,0.7053138017654419,4.322507549566164e-32,-0.010402570478618145,0.8354502320289612,0.0017368352273479104,0.37222403287887573
396.0,408.0,-0.9547,-0.5049,9.7711,-0.7924,-0.6671,-0.1403,-1.6450001202025355,0.0,1.8362665176391602,-1.9322140216827393,0.4549811780452728,2.6262550354003906,4.9517681179340265,-1.2363288402557373,-0.10436244308948517,-1.5402925650226038,0.3814602792263031,0.09015153348445892,0.7053060531616211,1.2031857662661395e-35,-0.01771657168865204,0.8354663848876953,0.001177638885565102,0.3773215711116791
396.0,408.0,-0.9547,-0.5049,9.7711,-0.7924,-0.6671,-0.1403,-1.6450001202025355,0.0,1.8821202516555786,-1.9303776025772095,0.4640611708164215,2.6932740211486816,4.946741390019216,-1.2407355308532715,-0.073931023478508,-1.538788143788473,0.3631373941898346,0.06775178760290146,0.7053260803222656,5.129369511272519e-38,-0.01249745674431324,0.8354663848876953,0.0007737543783150613,0.3596767485141754
454.0,677.0,1.1539,-1.1336,10.4859,-0.3754,-0.823,-0.1692,-1.6449562511839808,0.0,1.9219229221343994,-1.9275033473968506,0.47763997316360474,2.659536361694336,4.939362156182089,-1.2498197555541992,-0.09724822640419006,-1.5366719404803675,0.3244570791721344,0.06989327073097229,0.7053301334381104,1.427783005300556e-41,-0.029516933485865593,0.8354465365409851,0.00030743563547730446,0.36300212144851685
454.0,677.0,1.1539,-1.1336,10.4859,-0.3754,-0.823,-0.1692,-1.6449762783446253,0.0005981225986033678,1.9196630716323853,-1.9245942831039429,0.4967363178730011,2.6754608154296875,4.931790399342336,-1.2497795820236206,-0.09776265919208527,-1.5348880926715296,0.31573963165283203,0.06286241114139557,0.7053743600845337,4.203895392974451e-45,-0.016519255936145782,0.8354423642158508,-0.00039927009493112564,0.31463760137557983
454.0,677.0,1.1539,-1.1336,10.4859,-0.3754,-0.823,-0.1692,-1.6449481449522914,0.0010635898215696216,1.9781889915466309,-1.9216175079345703,0.5180914998054504,2.716783046722412,4.92426614740447,-1.2513597011566162,-0.07164576649665833,-1.5331762472735804,0.27172741293907166,0.05791217088699341,0.7053301334381104,0.0,-0.02544049173593521,0.8354424238204956,-0.0011457661166787148,0.2899060845375061
454.0,677.0,1.1539,-1.1336,10.4859,-0.3754,-0.823,-0.1692,-1.6449881992735804,0.0007338895811699331,2.002042055130005,-1.9195022583007812,0.528373122215271,2.7302732467651367,4.919213029533186,-1.2538740634918213,-0.051907360553741455,-1.5320661703692835,0.2610894739627838,0.05366611108183861,0.7053424119949341,0.0,-0.02595917508006096,0.8354224562644958,-0.0019100029021501541,0.25959450006484985
454.0,677.0,1.1539,-1.1336,10.4859,-0.3754,-0.823,-0.1692,-1.6449877224364222,0.00039417133666574955,1.9906439781188965,-1.9163390398025513,0.539328396320343,2.686790943145752,4.911692964821615,-1.2566453218460083,-0.06780500710010529,-1.530609432850973,0.2378295511007309,0.058350421488285065,0.7053060531616211,0.0,-0.039228759706020355,0.8354467153549194,-0.0015578488819301128,0.23799461126327515
454.0,677.0,1.1539,-1.1336,10.4859,-0.3754,-0.823,-0.1692,-1.6449724636473597,-0.0002720275952015072,2.030233860015869,-1.9130222797393799,0.5540623664855957,2.6924405097961426,4.90422451773242,-1.250279188156128,-0.0628056451678276,-1.5293477217303675,0.20497101545333862,0.04293326288461685,0.7053101062774658,0.0,-0.0408254936337471,0.8353862166404724,-0.0009507283684797585,0.19817352294921875
454.0,677.0,1.1539,-1.1336,10.4859,-0.3754,-0.823,-0.1692,-1.6449758015074671,-0.0002308575640199706,2.0603556632995605,-1.9096251726150513,0.5746169686317444,2.7604894638061523,4.89661634245471,-1.2469099760055542,-0.06328564137220383,-1.5280583540545862,0.21072682738304138,0.055815666913986206,0.7053343057632446,0.0,-0.03541547432541847,0.8353903293609619,-0.0008492338238283992,0.15727049112319946
454.0,677.0,1.1539,-1.1336,10.4859,-0.3754,-0.823,-0.1692,-1.6449605427184046,-0.00019713645451702178,2.0383248329162598,-1.9074186086654663,0.5766118168830872,2.6618967056274414,4.891576322704115,-1.2472507953643799,-0.03799387440085411,-1.5272882620440882,0.2002352774143219,0.05542486160993576,0.7052863836288452,0.0,-0.046808842569589615,0.8353865146636963,-0.0008937472593970597,0.10078124701976776
454.0,677.0,1.1539,-1.1336,10.4859,-0.3754,-0.823,-0.1692,-1.64502014736318,-0.00016170847811736166,2.052755832672119,-1.903891682624817,0.5779047012329102,2.6724231243133545,4.8841034946735284,-1.2475502490997314,-0.0499982088804245,-1.5262544790851038,0.15205003321170807,0.04390041530132294,0.705245852470398,0.0,-0.041229330003261566,0.8353701829910278,-0.0015882268780842423,0.07579550892114639
454.0,677.0,1.1539,-1.1336,10.4859,-0.3754,-0.823,-0.1692,-1.6450525722899378,-0.00013707633479498327,2.0088319778442383,-1.900321125984192,0.5818083882331848,2.6732845306396484,4.876740070968427,-1.2493916749954224,-0.06666377186775208,-1.5254395643817347,0.14353610575199127,0.04918791353702545,0.7053543329238892,-0.0002679318131413311,-0.04870814457535744,0.8353984951972961,-0.0014052822953090072,0.0504220575094223
454.0,677.0,1.1539,-1.1336,10.4859,-0.3754,-0.823,-0.1692,-1.6449881992735804,-8.40006468934007e-05,2.053088665008545,-1.8966814279556274,0.5961828231811523,2.61255145072937,4.869155007391729,-1.2466669082641602,-0.06308220326900482,-1.5245421568499964,0.14469774067401886,0.05439995229244232,0.7053183317184448,-0.0002737623290158808,-0.037632644176483154,0.8354026675224304,-0.001206223969347775,0.02896193414926529
454.0,677.0,1.1539,-1.1336,10.4859,-0.3754,-0.823,-0.1692,-1.644992013970846,-3.695128907565959e-05,2.0022687911987305,-1.894258975982666,0.6078191995620728,2.659168243408203,4.864178794413366,-1.2451761960983276,-0.020255032926797867,-1.523999039326803,0.1318783015012741,0.06708087027072906,0.7053183317184448,-0.00028717087116092443,-0.055895306169986725,0.8353297710418701,-0.0013916833559051156,-0.0012984620407223701
454.0,677.0,1.1539,-1.1336,10.4859,-0.3754,-0.823,-0.1692,-1.644940038720602,-8.9233016808965e-11,2.0482168197631836,-1.8906763792037964,0.6165367960929871,2.6538281440734863,4.856706234603681,-1.241697072982788,-0.04216684401035309,-1.523376766835348,0.09378994256258011,0.046948328614234924,0.7052904367446899,-0.0002905644359998405,-0.05042227730154991,0.835326075553894,-0.0037485447246581316,-0.07433109730482101
454.0,677.0,1.1539,-1.1336,10.4859,-0.3754,-0.823,-0.1692,-1.644940038720602,0.0008793548331595957,2.095729351043701,-1.8870441913604736,0.61565762758255,2.54954195022583,4.849324720888891,-1.246206283569336,-0.07188469916582108,-1.5229256788836878,0.06748230010271072,0.057328514754772186,0.7053424715995789,-0.00035185841261409223,-0.047751329839229584,0.83530193567276,-0.0068222652189433575,-0.0864185318350792
454.0,677.0,1.1539,-1.1336,10.4859,-0.3754,-0.823,-0.1692,-1.6449881992735804,-0.00045581659651361406,2.0679397583007812,-1.8845244646072388,0.6231429576873779,2.6866421699523926,4.844431999116697,-1.2479941844940186,-0.055896129459142685,-1.5226667563067835,0.06295683979988098,0.04370633512735367,0.7052822113037109,-0.0003642388910520822,-0.04833341762423515,0.8353184461593628,-0.008552193641662598,-0.07191406190395355
454.0,677.0,1.1539,-1.1336,10.4859,-0.3754,-0.823,-0.1692,-1.6450120411314906,-0.0015489746583625674,2.026768207550049,-1.8807772397994995,0.634337306022644,2.5749118328094482,4.8368539837892435,-1.2437186241149902,-0.05029243603348732,-1.5221942106830042,0.07262177020311356,0.05930197238922119,0.7052503228187561,-0.00035418636980466545,-0.051381345838308334,0.8353064060211182,-0.007179967127740383,-0.13577768206596375
454.0,677.0,1.1539,-1.1336,10.4859,-0.3754,-0.823,-0.1692,-1.6450163326659144,-0.0008369364077225327,2.068495035171509,-1.8770049810409546,0.6437050700187683,2.6073150634765625,4.8292810944612405,-1.238648772239685,-0.024154577404260635,-1.521707836781637,0.09355222433805466,0.05855859816074371,0.7052499055862427,-0.0003462482418399304,-0.06364531069993973,0.8352261781692505,-0.005371477920562029,-0.1481366753578186
712.0,862.0,1.5852,-1.407,8.8834,-0.0777,-0.6251,-0.1695,-1.645008226434225,-0.0007281667203642428,2.0080373287200928,-1.873146653175354,0.6367817521095276,2.6332573890686035,4.821827026992597,-1.241636037826538,-0.04738985002040863,-1.5211051146136683,0.10543077439069748,0.07402481883764267,0.7052822113037109,-0.00040473564877174795,-0.050793036818504333,0.8351454734802246,-0.0041427211835980415,-0.16346685588359833
712.0,862.0,1.5852,-1.407,8.8834,-0.0777,-0.6251,-0.1695,-1.6450559101500453,-0.0005801703664474189,2.072866201400757,-1.870527982711792,0.6291176676750183,2.5767569541931152,4.8169552339013,-1.2485321760177612,-0.06426570564508438,-1.5206697622882288,0.09993024170398712,0.08707870543003082,0.7052903771400452,-0.0004108284483663738,-0.05906215310096741,0.8352063298225403,-0.004455504473298788,-0.16617554426193237
712.0,862.0,1.5852,-1.407,8.8834,-0.0777,-0.6251,-0.1695,-1.6449719868102015,-0.0005185566260479391,2.061539649963379,-1.8666075468063354,0.63665771484375,2.552349090576172,4.8095684228237054,-1.247592568397522,-0.07166283577680588,-1.520186726246969,0.06581603735685349,0.07014749199151993,0.7052180171012878,-0.0005046510486863554,-0.06518236547708511,0.8351743817329407,-0.0035233781673014164,-0.20394068956375122
712.0,862.0,1.5852,-1.407,8.8834,-0.0777,-0.6251,-0.1695,-1.644980093041891,-2.278408828715328e-06,2.04632568359375,-1.8628054857254028,0.65171217918396,2.596958875656128,4.802004705160417,-1.2394789457321167,-0.03861934319138527,-1.5199559370623987,0.022825567051768303,0.04933604598045349,0.705254077911377,-0.0006153089343570173,-0.06349501013755798,0.8351420164108276,-0.0033150457311421633,-0.19096094369888306
712.0,862.0,1.5852,-1.407,8.8834,-0.0777,-0.6251,-0.1695,-1.6449324093260707,0.002264932030811906,2.0520195960998535,-1.8589659929275513,0.6586400270462036,2.6405160427093506,4.794497179775991,-1.2357008457183838,-0.04573116824030876,-1.5199797789203089,-0.011668712832033634,0.07512710243463516,0.7052543759346008,-0.0008412680472247303,-0.07981471717357635,0.8350655436515808,-0.005513564217835665,-0.21406540274620056
712.0,862.0,1.5852,-1.407,8.8834,-0.0777,-0.6251,-0.1695,-1.6449481449522914,0.0015114336274564266,2.0333194732666016,-1.856383204460144,0.6519575715065002,2.5552499294281006,4.789546336024561,-1.2358524799346924,-0.04618906229734421,-1.51996356645693,-0.020268114283680916,0.05866634100675583,0.7052543759346008,-0.0008578798151575029,-0.06353631615638733,0.8350539803504944,-0.00744989700615406,-0.2591272294521332
712.0,862.0,1.5852,-1.407,8.8834,-0.0777,-0.6251,-0.1695,-1.6449839077391566,-0.00048300594789907336,2.0730667114257812,-1.8524479866027832,0.6499654650688171,2.555975914001465,4.782369355648317,-1.241738200187683,-0.060676880180835724,-1.5201643149005335,-0.024222375825047493,0.04557383805513382,0.7052502632141113,-0.0009536640718579292,-0.0787472128868103,0.8350341320037842,-0.008889677934348583,-0.3008338510990143
712.0,862.0,1.5852,-1.407,8.8834,-0.0777,-0.6251,-0.1695,-1.6449758015074671,-0.0019942286890000105,2.0263586044311523,-1.8485254049301147,0.6603701710700989,2.6214284896850586,4.774921315699377,-1.2328717708587646,-0.04807775467634201,-1.5202234427081507,-0.020288845524191856,0.07330933213233948,0.7052465081214905,-0.0012210970744490623,-0.08761170506477356,0.8350260853767395,-0.007841099984943867,-0.24664629995822906
712.0,862.0,1.5852,-1.407,8.8834,-0.0777,-0.6251,-0.1695,-1.6450683079161585,-0.001329739228822291,2.075376033782959,-1.8445522785186768,0.6625180244445801,2.6199071407318115,4.76747157329277,-1.2243669033050537,-0.03214544802904129,-1.5203235785113733,-0.009487170726060867,0.054578252136707306,0.705214262008667,-0.002469694009050727,-0.0822131335735321,0.8349095582962036,-0.007588483393192291,-0.28627637028694153
712.0,862.0,1.5852,-1.407,8.8834,-0.0777,-0.6251,-0.1695,-1.6450120411314906,-0.0010989389847964048,2.0740160942077637,-1.8419660329818726,0.6548948884010315,2.5685505867004395,4.762512880354681,-1.2247968912124634,-0.051083412021398544,-1.5203073660479944,-0.002941474784165621,0.07622046768665314,0.705177903175354,-0.0037715216167271137,-0.09891057014465332,0.8348738551139832,-0.007883253507316113,-0.2941940128803253
712.0,862.0,1.5852,-1.407,8.8834,-0.0777,-0.6251,-0.1695,-1.6450683079161585,-0.0031503315549343824,2.021030902862549,-1.8380166292190552,0.6390005350112915,2.5870423316955566,4.7551657287176035,-1.2335422039031982,-0.06355179846286774,-1.5203073660479944,0.0032715597189962864,0.060569606721401215,0.7051016092300415,-0.007353302091360092,-0.0985514298081398,0.8348618149757385,-0.008734984323382378,-0.3462081551551819
712.0,862.0,1.5852,-1.407,8.8834,-0.0777,-0.6251,-0.1695,-1.645048280755514,-0.0030653863213956356,2.0690360069274902,-1.8340555429458618,0.6359660625457764,2.5390892028808594,4.747811983316698,-1.2366774082183838,-0.05046776682138443,-1.5202987829791468,0.001456931116990745,0.07731189578771591,0.7051099538803101,-0.008824995718896389,-0.08427669107913971,0.8348054885864258,-0.007057243026793003,-0.3326342701911926
712.0,862.0,1.5852,-1.407,8.8834,-0.0777,-0.6251,-0.1695,-1.6450959644713343,-0.0019376312848180532,2.0509679317474365,-1.8315457105636597,0.6433852314949036,2.6158461570739746,4.742771047144689,-1.234458565711975,-0.04182075336575508,-1.52028733888735,0.0007900871569290757,0.0732274055480957,0.7050862908363342,-0.006825750228017569,-0.08836779743432999,0.8348100781440735,-0.005993582308292389,-0.3543188273906708
712.0,862.0,1.5852,-1.407,8.8834,-0.0777,-0.6251,-0.1695,-1.6450478039183558,-2.2911173402917484e-07,2.069633722305298,-1.827744722366333,0.6530044078826904,2.6183338165283203,4.7354411268378875,-1.2267544269561768,-0.05340171605348587,-1.5203354994403284,0.0006184131489135325,0.07874781638383865,0.7050461769104004,-0.0036174750421196222,-0.0963423103094101,0.8347418308258057,-0.008398345671594143,-0.41714951395988464
712.0,862.0,1.5852,-1.407,8.8834,-0.0777,-0.6251,-0.1695,-1.645008226434225,0.003195629920810461,2.102445363998413,-1.8238599300384521,0.643002450466156,2.597355842590332,4.727946985490181,-1.231544017791748,-0.06172401085495949,-1.5203197638141077,0.0005163425230421126,0.08177581429481506,0.7050302028656006,-0.001395527389831841,-0.10025867819786072,0.8346778750419617,-0.012295430526137352,-0.4163498282432556
712.0,862.0,1.5852,-1.407,8.8834,-0.0777,-0.6251,-0.1695,-1.64502014736318,5.569258428295143e-05,2.049095630645752,-1.8199487924575806,0.638515055179596,2.5158705711364746,4.72070905750201,-1.242422342300415,-0.03688059002161026,-1.5203235785113733,0.0004842393391299993,0.08508575707674026,0.7050302028656006,-0.0008975458331406116,-0.10523103177547455,0.8346460461616516,-0.011370367370545864,-0.410682737827301
685.0,805.0,2.5783,0.0879,10.2676,-0.0031,-0.5789,-0.1487,-1.6450840435423792,1.002446747833119e-08,2.042945384979248,-1.8173649311065674,0.6446340084075928,2.571911334991455,4.715778731252559,-1.2442238330841064,-0.04802592098712921,-1.5203073660479944,0.00032872462179511786,0.07829587906599045,0.7050302028656006,-0.0008033572230488062,-0.09915368258953094,0.8346422910690308,-0.01058540865778923,-0.4215281009674072
685.0,805.0,2.5783,0.0879,10.2676,-0.0031,-0.5789,-0.1487,-1.6450206242003382,-0.0012036472326144576,2.0285677909851074,-1.8134982585906982,0.6535487174987793,2.5735363960266113,4.708144350642822,-1.2363412380218506,-0.050107765942811966,-1.5202959219561976,0.0003389784833416343,0.08633554726839066,0.7049740552902222,-0.0006848914781585336,-0.11777152121067047,0.8345094919204712,-0.009231427684426308,-0.47827669978141785
685.0,805.0,2.5783,0.0879,10.2676,-0.0031,-0.5789,-0.1487,-1.6451002560057582,-0.0009630778222344816,1.9974924325942993,-1.8096895217895508,0.6446211338043213,2.5363636016845703,4.700701876277588,-1.2427897453308105,-0.06188833713531494,-1.5202472845660608,0.0006926814094185829,0.10642887651920319,0.704982340335846,-0.0020908734295517206,-0.11198993027210236,0.8344614505767822,-0.010430732741951942,-0.5034868717193604
685.0,805.0,2.5783,0.0879,10.2676,-0.0031,-0.5789,-0.1487,-1.645076414147848,-0.0023380829952657223,2.03928279876709,-1.8057752847671509,0.6327683925628662,2.5788304805755615,4.69319932043042,-1.2532907724380493,-0.07291930168867111,-1.52028733888735,0.0006235557375475764,0.08665245771408081,0.7049700021743774,-0.0025620877277106047,-0.12982603907585144,0.8343934416770935,-0.01116117648780346,-0.4793093204498291
685.0,805.0,2.5783,0.0879,10.2676,-0.0031,-0.5789,-0.1487,-1.6451040707030238,-0.0027541648596525192,1.9995636940002441,-1.803208351135254,0.628554105758667,2.523721694946289,4.688218756312988,-1.263841986656189,-0.06775109469890594,-1.5202630201922815,0.0006285439594648778,0.10328150540590286,0.7049622535705566,-0.0026876996271312237,-0.12171578407287598,0.8343938589096069,-0.011962347663939,-0.4830198287963867
685.0,805.0,2.5783,0.0879,10.2676,-0.0031,-0.5789,-0.1487,-1.6450802288451136,-0.001907098456285894,2.007577896118164,-1.7993667125701904,0.636852502822876,2.5493276119232178,4.680611296291016,-1.266909122467041,-0.06159812957048416,-1.5202510992633265,0.0007712430669926107,0.11208085715770721,0.7049703598022461,-0.003093260107561946,-0.12451761960983276,0.8342210054397583,-0.013345696963369846,-0.5152269601821899
685.0,805.0,2.5783,0.0879,10.2676,-0.0031,-0.5789,-0.1487,-1.645064493218893,-2.9891978556406684e-05,1.9829654693603516,-1.79568612575531,0.6416465640068054,2.503009796142578,4.67292754232373,-1.265213131904602,-0.07924193143844604,-1.520191494618551,0.0010462114587426186,0.1059999018907547,0.7049543857574463,-0.00347047857940197,-0.12572529911994934,0.8341652750968933,-0.01567513309419155,-0.4970678389072418
685.0,805.0,2.5783,0.0879,10.2676,-0.0031,-0.5789,-0.1487,-1.6450444660582484,-7.218560471589086e-11,1.9716312885284424,-1.7918726205825806,0.6319719552993774,2.5745067596435547,4.665261908168457,-1.2764586210250854,-0.08541026711463928,-1.5202153364764612,0.0008377184858545661,0.1268671602010727,0.7048984169960022,-0.0037981898058205843,-0.12642933428287506,0.83408123254776,-0.019262850284576416,-0.5867132544517517
685.0,805.0,2.5783,0.0879,10.2676,-0.0031,-0.5789,-0.1487,-1.6450721226134242,8.854477346176282e-05,1.9694063663482666,-1.7893362045288086,0.6254490613937378,2.542928695678711,4.660164042110107,-1.2935972213745117,-0.05929993838071823,-1.5202673117267054,0.000682036392390728,0.14028196036815643,0.7048537731170654,-0.003526494838297367,-0.13914839923381805,0.8339604735374451,-0.019661687314510345,-0.5971108675003052
685.0,805.0,2.5783,0.0879,10.2676,-0.0031,-0.5789,-0.1487,-1.6451121769347132,2.1382522141788485e-10,1.9775028228759766,-1.785555362701416,0.6305761933326721,2.554962635040283,4.652452631587646,-1.295385718345642,-0.08258338272571564,-1.5202677885638636,0.0005309982225298882,0.1207372397184372,0.7048782706260681,-0.00331768486648798,-0.1315634846687317,0.8338767290115356,-0.01943632774055004,-0.5517997741699219
685.0,805.0,2.5783,0.0879,10.2676,-0.0031,-0.5789,-0.1487,-1.6450921497740687,-0.0014752727001905441,1.9715595245361328,-1.7818235158920288,0.6289098262786865,2.5607597827911377,4.644502802486084,-1.292073130607605,-0.07840444892644882,-1.5202434698687952,0.00033605113276280463,0.12417548894882202,0.7048461437225342,-0.002652740338817239,-0.1362103670835495,0.8337967991828918,-0.01796136610209942,-0.5569471120834351
685.0,805.0,2.5783,0.0879,10.2676,-0.0031,-0.5789,-0.1487,-1.6451364956297816,-0.0027073402889072895,1.9980770349502563,-1.778110146522522,0.6188273429870605,2.500065565109253,4.636795683498047,-1.3043469190597534,-0.08889937400817871,-1.520231072102682,0.00032836326863616705,0.13477209210395813,0.7048099637031555,-0.002622640924528241,-0.1503942310810089,0.8336849808692932,-0.01988542452454567,-0.5825680494308472
685.0,805.0,2.5783,0.0879,10.2676,-0.0031,-0.5789,-0.1487,-1.6451722584166468,-0.0038834630977362394,1.9856313467025757,-1.7755928039550781,0.6101434230804443,2.542118549346924,4.631580038661621,-1.3136813640594482,-0.08442282676696777,-1.520219628010885,0.00029354161233641207,0.12908408045768738,0.7048342227935791,-0.002906026318669319,-0.13111329078674316,0.8335645198822021,-0.020758215337991714,-0.5981485843658447
685.0,805.0,2.5783,0.0879,10.2676,-0.0031,-0.5789,-0.1487,-1.6451641521849574,-0.003767404705286026,1.9656269550323486,-1.771897315979004,0.6034086346626282,2.484736442565918,4.623752756709717,-1.324903130531311,-0.08280189335346222,-1.520247761403219,0.00031497329473495483,0.13819622993469238,0.7048059701919556,-0.0026878081262111664,-0.13897323608398438,0.8334524631500244,-0.021807244047522545,-0.5623770952224731
685.0,805.0,2.5783,0.0879,10.2676,-0.0031,-0.5789,-0.1487,-1.6452118359007777,-0.002025658031925559,1.939974069595337,-1.7682406902313232,0.6073104739189148,2.4863717555999756,4.6157142358967285,-1.3231327533721924,-0.06707972288131714,-1.5202072302447718,0.0003303021367173642,0.11943400651216507,0.7048265337944031,-0.0024172808043658733,-0.1534988284111023,0.8333244919776917,-0.024496495723724365,-0.5860952138900757
685.0,805.0,2.5783,0.0879,10.2676,-0.0031,-0.5789,-0.1487,-1.6451360187926234,-0.0007263298030011356,1.9694468975067139,-1.7659155130386353,0.6133946180343628,2.562333106994629,4.610364122981689,-1.324153184890747,-0.11310377717018127,-1.520247761403219,0.0003455125552136451,0.14476561546325684,0.7047982215881348,-0.0021548557560890913,-0.14958514273166656,0.8332608342170715,-0.02724074386060238,-0.5943639278411865
685.0,805.0,2.5783,0.0879,10.2676,-0.0031,-0.5789,-0.1487,-1.6451155147948207,0.0024029307533055544,1.9529435634613037,-1.7622747421264648,0.6062663793563843,2.528341770172119,4.602503462428711,-1.328453779220581,-0.09036726504564285,-1.5202434698687952,0.0003352721396367997,0.12237277626991272,0.7047862410545349,-0.00169353315141052,-0.14690247178077698,0.833052396774292,-0.032589755952358246,-0.6022664308547974
531.0,723.0,2.409,-0.1214,7.5727,0.0234,-0.7135,-0.1924,-1.6451078854002894,0.0012161543127149343,1.9457361698150635,-1.7586004734039307,0.5997435450553894,2.5031561851501465,4.594613714809082,-1.3410940170288086,-0.06535077840089798,-1.5202515761004847,0.00029157905373722315,0.1167655885219574,0.7047903537750244,-0.0009226122056134045,-0.14838264882564545,0.8328804969787598,-0.036572325974702835,-0.587560772895813
531.0,723.0,2.409,-0.1214,7.5727,0.0234,-0.7135,-0.1924,-1.6451879940428675,3.0667027317576867e-07,2.0099101066589355,-1.7550623416900635,0.606278657913208,2.5212156772613525,4.586627169246338,-1.335790753364563,-0.10634474456310272,-1.5201910177813929,0.00025689697940833867,0.13082632422447205,0.7047379612922668,-0.0005704312934540212,-0.1392580270767212,0.8325955867767334,-0.039594195783138275,-0.6353796124458313
531.0,723.0,2.409,-0.1214,7.5727,0.0234,-0.7135,-0.1924,-1.6451484165587367,5.5199563669949825e-11,1.960113286972046,-1.7526239156723022,0.6096940636634827,2.5622098445892334,4.581209345454834,-1.325858235359192,-0.06388866156339645,-1.5202634970294397,0.000122755765914917,0.1335040181875229,0.7047982215881348,-0.00045488111209124327,-0.14406660199165344,0.832516074180603,-0.04244191572070122,-0.5828397274017334
531.0,723.0,2.409,-0.1214,7.5727,0.0234,-0.7135,-0.1924,-1.645179887811178,1.3330044688049603e-16,2.0213162899017334,-1.748997688293457,0.6066786646842957,2.5580615997314453,4.573229952449463,-1.3216438293457031,-0.05731876567006111,-1.5202434698687952,0.00010155804920941591,0.11537498235702515,0.7047498822212219,-0.000348940200638026,-0.12561891973018646,0.8321996331214905,-0.04858867824077606,-0.6021242141723633
531.0,723.0,2.409,-0.1214,7.5727,0.0234,-0.7135,-0.1924,-1.6452485523619593,-0.0007551881717517972,2.06752347946167,-1.7453560829162598,0.5905666947364807,2.601581573486328,4.565329237575195,-1.323768973350525,-0.09371201694011688,-1.5201996008502405,8.685191278345883e-05,0.12094342708587646,0.7047659158706665,-0.00028305075829848647,-0.14168940484523773,0.8318830728530884,-0.05419869348406792,-0.5919753313064575
531.0,723.0,2.409,-0.1214,7.5727,0.0234,-0.7135,-0.1924,-1.6452485523619593,-0.0017568268813192844,2.043729543685913,-1.7417529821395874,0.5880540013313293,2.5048019886016846,4.5574938493916015,-1.3204185962677002,-0.0696895569562912,-1.5202634970294397,7.586697756778449e-05,0.11051487922668457,0.7047903537750244,-0.00023810056154616177,-0.12735086679458618,0.8315752148628235,-0.0582539364695549,-0.5589178800582886
531.0,723.0,2.409,-0.1214,7.5727,0.0234,-0.7135,-0.1924,-1.6452156505980433,-0.0014723927015438676,2.018800735473633,-1.7393146753311157,0.591996431350708,2.572190761566162,4.5521461206623535,-1.3083857297897339,-0.06956885755062103,-1.5202072302447718,6.996794400038198e-05,0.12287766486406326,0.7047944664955139,-0.00021530839148908854,-0.13247516751289368,0.8313268423080444,-0.06350447237491608,-0.591170072555542
531.0,723.0,2.409,-0.1214,7.5727,0.0234,-0.7135,-0.1924,-1.6451641521849574,-3.5014420518564293e-06,2.034947156906128,-1.7358248233795166,0.5971598625183105,2.5543434619903564,4.544436140651367,-1.291980266571045,-0.07651437819004059,-1.5202115217791956,6.265973206609488e-05,0.10862211883068085,0.7047863006591797,-0.00022588552383240312,-0.12465067207813263,0.8309347033500671,-0.06797449290752411,-0.6233080625534058
