ramyac6/ROB537/final_project/csv/bad/bad_174.csv
tof_0,tof_1,accelx,accely,accelz,gyrox,gyroy,gyroz,shoulder_lift_joint_position,shoulder_lift_joint_velocity,shoulder_lift_joint_effort,elbow_joint_position,elbow_joint_velocity,elbow_joint_effort,wrist_1_joint_position,wrist_1_joint_velocity,wrist_1_joint_effort,wrist_2_joint_position,wrist_2_joint_velocity,wrist_2_joint_effort,wrist_3_joint_position,wrist_3_joint_velocity,wrist_3_joint_effort,shoulder_pan_joint_position,shoulder_pan_joint_velocity,shoulder_pan_joint_effort
185.0,252.0,-7.3388,0.4636,7.0373,-0.0353,0.0286,-0.113,-2.6205622158446253,0.0,5.768885612487793,-0.7849326729774475,-0.0,1.9971129894256592,5.623293089657583,-0.0,0.1449240744113922,-1.7283595244037073,0.0,0.015943467617034912,0.6149883270263672,0.0,0.006350189447402954,0.9227046966552734,2.727044718514593e-12,-0.006470161024481058
185.0,252.0,-7.3388,0.4636,7.0373,-0.0353,0.0286,-0.113,-2.620638986627096,0.0,5.754646301269531,-0.7849409580230713,-0.0,2.0252084732055664,5.623248564987936,-0.0,0.15424460172653198,-1.7283714453326624,0.0,0.0015831710770726204,0.6149924397468567,0.0,0.005797203164547682,0.9227166771888733,6.5854917405419105e-18,-0.04635881632566452
185.0,252.0,-7.3388,0.4636,7.0373,-0.0353,0.0286,-0.113,-2.6206265888609828,0.0,5.760162830352783,-0.7849330902099609,-0.0,1.9950182437896729,5.623321521073141,-0.0,0.14979147911071777,-1.7283514181720179,0.0,0.00811100471764803,0.6149647235870361,0.0,0.002133740345016122,0.9226563572883606,1.590318972465317e-23,0.048986367881298065
185.0,252.0,-7.3388,0.4636,7.0373,-0.0353,0.0286,-0.113,-2.6206265888609828,0.0,5.755955696105957,-0.7849853038787842,-0.0,2.003629684448242,5.623216497689047,-0.0,0.1489696502685547,-1.7283394972430628,0.0,-0.011122256517410278,0.6149286031723022,0.0,0.010308431461453438,0.9227047562599182,3.840433707526287e-29,-0.020878463983535767
185.0,252.0,-7.3388,0.4636,7.0373,-0.0353,0.0286,-0.113,-2.6206146679320277,0.0,5.766688346862793,-0.7849692702293396,-0.0,2.01065993309021,5.623301315098562,-0.0,0.14410656690597534,-1.728415314351217,0.0,0.016212960705161095,0.6149290204048157,0.0,0.015380056574940681,0.9226686358451843,9.274196416253717e-35,-0.012216048315167427
185.0,252.0,-7.3388,0.4636,7.0373,-0.0353,0.0286,-0.113,-2.620622297326559,0.0,5.750380516052246,-0.7849330902099609,-0.0,1.9893674850463867,5.623313176422872,-0.0,0.14366042613983154,-1.7283595244037073,0.0,0.00685171689838171,0.6149845123291016,0.0,0.018530789762735367,0.9226768016815186,2.2396112576224956e-40,-0.0275694839656353
185.0,252.0,-7.3388,0.4636,7.0373,-0.0353,0.0286,-0.113,-2.6206189594664515,0.0,5.750649929046631,-0.7849573493003845,-0.0,2.0079381465911865,5.623309600144186,-0.0,0.15705889463424683,-1.7283833662616175,0.0,0.006667709443718195,0.6150003671646118,0.0,-0.0010482806246727705,0.9226563572883606,0.0,-0.0021283505484461784
185.0,252.0,-7.3388,0.4636,7.0373,-0.0353,0.0286,-0.113,-2.6206189594664515,0.0,5.768159866333008,-0.7849129438400269,-0.0,1.9992339611053467,5.623305547028341,-0.0,0.15297624468803406,-1.728387180958883,0.0,-0.005382288247346878,0.6149685978889465,0.0,0.011147700250148773,0.922672688961029,0.0,-0.002792526502162218
181.0,233.0,-7.2257,0.4493,6.9876,-0.035,0.0252,-0.1139,-2.620589872399801,0.0,5.770335674285889,-0.7849491238594055,-0.0,2.06278395652771,5.6232972023780725,-0.0,0.15472044050693512,-1.7283795515643519,0.0,0.00611941609531641,0.6149725914001465,0.0,0.007029468193650246,0.9227330684661865,0.0,-0.013139085844159126
181.0,233.0,-7.2257,0.4493,6.9876,-0.035,0.0252,-0.1139,-2.6205784283080042,0.0,5.813709259033203,-0.7849207520484924,-0.0,2.0265252590179443,5.623220610409536,-0.0,0.14489221572875977,-1.7284072081195276,0.0,0.0024668355472385883,0.615016520023346,0.0,0.007650519255548716,0.9227007031440735,0.0,-0.0359388142824173
181.0,233.0,-7.2257,0.4493,6.9876,-0.035,0.0252,-0.1139,-2.6206022701659144,0.0,5.779468536376953,-0.7849289774894714,-0.0,2.0334086418151855,5.623329150467672,-0.0,0.15664279460906982,-1.7283394972430628,0.0,0.003255926538258791,0.6149210929870605,0.0,0.0036692603025585413,0.9226928353309631,0.0,0.005510582588613033
181.0,233.0,-7.2257,0.4493,6.9876,-0.035,0.0252,-0.1139,-2.6206146679320277,0.0,5.772849082946777,-0.7849005460739136,-0.0,2.0121641159057617,5.623293089657583,-0.0,0.1493545025587082,-1.728295628224508,0.0,0.01707715168595314,0.6149365901947021,0.0,4.421058110892773e-05,0.9227129220962524,0.0,0.0040962654165923595
181.0,233.0,-7.2257,0.4493,6.9876,-0.035,0.0252,-0.1139,-2.620589872399801,0.0,5.745023727416992,-0.7849170565605164,-0.0,2.067143440246582,5.6232977388198755,-0.0,0.15211738646030426,-1.7283356825457972,0.0,0.008591115474700928,0.6149765849113464,0.0,0.01711243763566017,0.9227129817008972,0.0,-0.03589446842670441
181.0,233.0,-7.2257,0.4493,6.9876,-0.035,0.0252,-0.1139,-2.6205908260741175,0.0,5.742225170135498,-0.784945011138916,-0.0,2.0236423015594482,5.623248505383291,-0.0,0.14931684732437134,-1.728375260029928,0.0,0.005379966460168362,0.6149644255638123,0.0,0.012936669401824474,0.9226846694946289,0.0,-0.02692880481481552
181.0,233.0,-7.2257,0.4493,6.9876,-0.035,0.0252,-0.1139,-2.6205741367735804,0.0,5.7496562004089355,-0.7849692106246948,-0.0,2.058819532394409,5.623272883683004,-0.0,0.14499236643314362,-1.7283833662616175,0.0,0.003993195481598377,0.6149725914001465,0.0,0.01144438050687313,0.9227088093757629,0.0,0.05532213672995567
181.0,233.0,-7.2257,0.4493,6.9876,-0.035,0.0252,-0.1139,-2.6206022701659144,0.0,5.768363952636719,-0.7849330902099609,-0.0,2.009441614151001,5.623309123307028,-0.0,0.14654171466827393,-1.7283557097064417,0.0,0.008296119049191475,0.6149402260780334,0.0,0.000256051542237401,0.9226482510566711,0.0,-0.00927349179983139
181.0,233.0,-7.2257,0.4493,6.9876,-0.035,0.0252,-0.1139,-2.6206428013243617,0.0,5.803406715393066,-0.7849692106246948,-0.0,2.018369674682617,5.623272883683004,-0.0,0.14756786823272705,-1.7283714453326624,0.0,0.016146758571267128,0.6150045990943909,0.0,0.013955012895166874,0.9226927757263184,0.0,-0.028710495680570602
181.0,233.0,-7.2257,0.4493,6.9876,-0.035,0.0252,-0.1139,-2.620627065698141,0.0,5.7540283203125,-0.7849609851837158,-0.0,2.0399856567382812,5.623264539032736,-0.0,0.15281721949577332,-1.7283514181720179,0.0,0.007481744512915611,0.6150043606758118,0.0,-0.00018479928257875144,0.9226523637771606,0.0,0.006601668894290924
181.0,233.0,-7.2257,0.4493,6.9876,-0.035,0.0252,-0.1139,-2.6205865345396937,0.0,5.796714782714844,-0.7849688529968262,-0.0,1.977158546447754,5.623281168728628,-0.0,0.16801002621650696,-1.7283995787249964,0.0,0.00048076966777443886,0.6149964928627014,0.0,-0.0056550768204033375,0.9226686358451843,0.0,-0.005836864467710257
181.0,233.0,-7.2257,0.4493,6.9876,-0.035,0.0252,-0.1139,-2.620594163934225,0.0,5.774643898010254,-0.7849895358085632,-0.0,2.0441975593566895,5.623313236027517,-0.0,0.15652494132518768,-1.7283557097064417,0.0,0.009977052919566631,0.6149443984031677,0.0,0.018999803811311722,0.9227129220962524,0.0,0.007882208563387394
181.0,233.0,-7.2257,0.4493,6.9876,-0.035,0.0252,-0.1139,-2.6206189594664515,0.0,5.755786895751953,-0.7849293947219849,-0.0,2.018178939819336,5.623264539032736,-0.0,0.14963024854660034,-1.728375260029928,0.0,0.005832425318658352,0.614968478679657,0.0,-0.0026729959063231945,0.922720730304718,0.0,-0.05285540968179703
181.0,233.0,-7.2257,0.4493,6.9876,-0.035,0.0252,-0.1139,-2.6206146679320277,0.0,5.7552571296691895,-0.784936785697937,-0.0,2.017380475997925,5.623256909638204,-0.0,0.15233707427978516,-1.7283676306353968,0.0,0.00408549141138792,0.6149964332580566,0.0,-0.0012648995034396648,0.9226805567741394,0.0,-0.03306223452091217
181.0,233.0,-7.2257,0.4493,6.9876,-0.035,0.0252,-0.1139,-2.6206146679320277,0.0,5.748176574707031,-0.7849647402763367,-0.0,2.0701286792755127,5.623305010586538,-0.0,0.1462782323360443,-1.7283595244037073,0.0,0.006925650406628847,0.6149320602416992,0.0,0.006434440612792969,0.9226768016815186,0.0,-0.03745098412036896
177.0,237.0,-7.2975,0.4313,7.1091,-0.0371,0.0324,-0.1199,-2.6205741367735804,0.0,5.769989013671875,-0.7849812507629395,-0.0,2.030492067337036,5.623268651753225,-0.0,0.1533495932817459,-1.7283714453326624,0.0,0.007476650178432465,0.6149964332580566,0.0,-8.461627294309437e-05,0.9226887226104736,0.0,0.04350458085536957
177.0,237.0,-7.2975,0.4313,7.1091,-0.0371,0.0324,-0.1199,-2.620638986627096,0.0,5.767637252807617,-0.784953236579895,-0.0,2.036909580230713,5.623317289143362,-0.0,0.14145757257938385,-1.7283514181720179,0.0,0.009441300295293331,0.6149967908859253,0.0,0.012512357905507088,0.9227088093757629,0.0,-0.03520240634679794
177.0,237.0,-7.2975,0.4313,7.1091,-0.0371,0.0324,-0.1199,-2.620610376397604,0.0,5.758819103240967,-0.7849408984184265,-0.0,1.9849567413330078,5.623281168728628,-0.0,0.14959785342216492,-1.728311840687887,0.0,0.010071615688502789,0.6149481534957886,0.0,-0.004313576500862837,0.9227247834205627,0.0,-0.022978173568844795
177.0,237.0,-7.2975,0.4313,7.1091,-0.0371,0.0324,-0.1199,-2.6205979786314906,0.0,5.7670793533325195,-0.7849692106246948,-0.0,2.081603527069092,5.623305547028341,-0.0,0.1522597074508667,-1.7283676306353968,0.0,0.0067076850682497025,0.6149402260780334,0.0,0.004769959487020969,0.922720730304718,0.0,0.00778986094519496
177.0,237.0,-7.2975,0.4313,7.1091,-0.0371,0.0324,-0.1199,-2.620610376397604,0.0,5.762000560760498,-0.7849248647689819,-0.0,2.033499240875244,5.6232977388198755,-0.0,0.143405944108963,-1.728375260029928,0.0,0.00630365451797843,0.6149522066116333,0.0,0.000630117254331708,0.9226969480514526,0.0,-0.01041820552200079
177.0,237.0,-7.2975,0.4313,7.1091,-0.0371,0.0324,-0.1199,-2.620582719842428,0.0,5.750042915344238,-0.7849006652832031,-0.0,1.9864919185638428,5.623281049519338,-0.0,0.13371522724628448,-1.728415314351217,0.0,0.008381078019738197,0.6149164438247681,0.0,0.009280096739530563,0.9226686358451843,0.0,0.0021008241456001997
177.0,237.0,-7.2975,0.4313,7.1091,-0.0371,0.0324,-0.1199,-2.620589872399801,0.0,5.779127597808838,-0.785010039806366,-0.0,2.012463331222534,5.623272883683004,-0.0,0.14457818865776062,-1.7283476034747522,0.0,0.005626143887639046,0.6149522066116333,0.0,0.00942213274538517,0.9226887226104736,0.0,-0.030163034796714783
177.0,237.0,-7.2975,0.4313,7.1091,-0.0371,0.0324,-0.1199,-2.6206065617003382,0.0,5.744858741760254,-0.7849248647689819,-0.0,2.0303311347961426,5.623260485916891,-0.0,0.14338147640228271,-1.728387180958883,0.0,-0.0007548510329797864,0.6149848103523254,0.0,0.00042181089520454407,0.9226727485656738,0.0,-0.005016113165766001
177.0,237.0,-7.2975,0.4313,7.1091,-0.0371,0.0324,-0.1199,-2.620634695092672,0.0,5.776440620422363,-0.7849408984184265,-0.0,2.0208640098571777,5.6232895133788965,-0.0,0.14692279696464539,-1.7283394972430628,0.0,0.00019161286763846874,0.6149927377700806,0.0,-0.0011248185764998198,0.9226604700088501,0.0,0.0009403867879882455
177.0,237.0,-7.2975,0.4313,7.1091,-0.0371,0.0324,-0.1199,-2.6206828556456507,0.0,5.753757476806641,-0.7849977016448975,-0.0,2.027158498764038,5.623301315098562,-0.0,0.15685290098190308,-1.7283676306353968,0.0,0.020752718672156334,0.6149603724479675,0.0,0.0031229860614985228,0.9227247834205627,0.0,-0.0032187472097575665
177.0,237.0,-7.2975,0.4313,7.1091,-0.0371,0.0324,-0.1199,-2.6206747494139613,0.0,5.794488906860352,-0.7849409580230713,-0.0,2.0251152515411377,5.623268651753225,-0.0,0.15307766199111938,-1.7283075491534632,0.0,0.020307593047618866,0.6149927377700806,0.0,-0.0048580411821603775,0.9227006435394287,0.0,-0.02327551506459713
177.0,237.0,-7.2975,0.4313,7.1091,-0.0371,0.0324,-0.1199,-2.620582719842428,0.0,5.70974063873291,-0.7849936485290527,-0.0,2.0101230144500732,5.6232895133788965,-0.0,0.16559214890003204,-1.7283394972430628,0.0,0.010573436506092548,0.6150128245353699,0.0,0.0021630162373185158,0.9226805567741394,0.0,-0.014554226770997047
177.0,237.0,-7.2975,0.4313,7.1091,-0.0371,0.0324,-0.1199,-2.620650907556051,0.0,5.718587875366211,-0.7849289774894714,-0.0,2.0424509048461914,5.6232972023780725,-0.0,0.15689617395401,-1.7283595244037073,0.0,0.005290508270263672,0.6149361729621887,0.0,0.01084847841411829,0.9226887226104736,0.0,0.044283684343099594
177.0,237.0,-7.2975,0.4313,7.1091,-0.0371,0.0324,-0.1199,-2.6206022701659144,0.0,5.783596515655518,-0.7849248647689819,-0.0,2.0183229446411133,5.623248564987936,-0.0,0.14359992742538452,-1.7283991018878382,0.0,0.0003976683074142784,0.6149480938911438,0.0,-0.0012626774841919541,0.9226202964782715,0.0,0.03843788430094719
179.0,234.0,-7.2503,0.4475,7.0427,-0.0365,0.0304,-0.111,-2.6206308803954066,0.0,5.769384384155273,-0.7849367260932922,-0.0,1.9974126815795898,5.623309659748831,-0.0,0.14871487021446228,-1.728363339100973,0.0,0.0010671104537323117,0.614948034286499,0.0,0.014271632768213749,0.9227088093757629,0.0,-0.020491603761911392
179.0,234.0,-7.2503,0.4475,7.0427,-0.0365,0.0304,-0.111,-2.6206146679320277,0.0,5.775946617126465,-0.7849252820014954,-0.0,2.017935037612915,5.6233375547225855,-0.0,0.15013495087623596,-1.7283557097064417,0.0,0.002876812592148781,0.6150045990943909,0.0,-0.002732735127210617,0.9226563572883606,0.0,0.021677706390619278
179.0,234.0,-7.2503,0.4475,7.0427,-0.0365,0.0304,-0.111,-2.6206022701659144,0.0,5.747681617736816,-0.7849491834640503,-0.0,2.064105987548828,5.623256909638204,-0.0,0.16074404120445251,-1.7283676306353968,0.0,0.004048330709338188,0.6149645447731018,0.0,0.014839783310890198,0.9226965308189392,0.0,-0.0043132109567523
179.0,234.0,-7.2503,0.4475,7.0427,-0.0365,0.0304,-0.111,-2.620594163934225,0.0,5.751476287841797,-0.7849687933921814,-0.0,2.0175201892852783,5.623301255493917,-0.0,0.1475924551486969,-1.7283557097064417,0.0,0.0037872192915529013,0.614944338798523,0.0,-0.0036178636364638805,0.9227010011672974,0.0,0.03942494094371796
179.0,234.0,-7.2503,0.4475,7.0427,-0.0365,0.0304,-0.111,-2.62066712001943,0.0,5.738307476043701,-0.7849289178848267,-0.0,2.0229644775390625,5.6232972023780725,-0.0,0.16086651384830475,-1.7283437887774866,0.0,0.007764047011733055,0.6149888634681702,0.0,0.00225775595754385,0.9227088093757629,0.0,-0.05958769842982292
179.0,234.0,-7.2503,0.4475,7.0427,-0.0365,0.0304,-0.111,-2.6205979786314906,0.0,5.752375602722168,-0.7849413752555847,-0.0,2.055762767791748,5.623309600144186,-0.0,0.15242789685726166,-1.7283714453326624,0.0,0.010597849264740944,0.6149003505706787,0.0,0.0053431373089551926,0.9226887226104736,0.0,-0.03922261297702789
179.0,234.0,-7.2503,0.4475,7.0427,-0.0365,0.0304,-0.111,-2.62064327816152,0.0,5.76219367980957,-0.7849610447883606,-0.0,1.9876188039779663,5.623301255493917,-0.0,0.16370683908462524,-1.7283676306353968,0.0,0.013620540499687195,0.61500084400177,0.0,0.008032932877540588,0.9226685762405396,0.0,-0.007763042580336332
179.0,234.0,-7.2503,0.4475,7.0427,-0.0365,0.0304,-0.111,-2.6206146679320277,0.0,5.748128890991211,-0.7849046587944031,-0.0,2.065840244293213,5.623301255493917,-0.0,0.1421852856874466,-1.7283595244037073,0.0,0.014111378230154514,0.6149927377700806,0.0,0.002687187399715185,0.9226805567741394,0.0,0.0061894007958471775
179.0,234.0,-7.2503,0.4475,7.0427,-0.0365,0.0304,-0.111,-2.620594163934225,0.0,5.77641487121582,-0.784985363483429,-0.0,2.0133397579193115,5.6232895133788965,-0.0,0.14552640914916992,-1.7283356825457972,0.0,0.01057528518140316,0.6149604320526123,0.0,0.002069507259875536,0.922728955745697,0.0,-0.07476144284009933
179.0,234.0,-7.2503,0.4475,7.0427,-0.0365,0.0304,-0.111,-2.6206146679320277,0.0,5.774975776672363,-0.7849813103675842,-0.0,2.009425163269043,5.623232590943136,-0.0,0.1507970094680786,-1.7283676306353968,0.0,0.007611129432916641,0.6150127649307251,0.0,0.005197207909077406,0.9226763844490051,0.0,0.005166243761777878
179.0,234.0,-7.2503,0.4475,7.0427,-0.0365,0.0304,-0.111,-2.6206466160216273,0.0,5.702547073364258,-0.784985363483429,-0.0,2.0340943336486816,5.623317289143362,-0.0,0.14805687963962555,-1.7283557097064417,0.0,0.008046397939324379,0.6150127649307251,0.0,0.001120801200158894,0.9226809740066528,0.0,-0.05389627069234848
179.0,234.0,-7.2503,0.4475,7.0427,-0.0365,0.0304,-0.111,-2.6206146679320277,0.0,5.7850189208984375,-0.7849894165992737,-0.0,2.0100975036621094,5.6232972023780725,-0.0,0.15599772334098816,-1.728363339100973,0.0,-0.005705003160983324,0.6149522066116333,0.0,-0.004630458541214466,0.9227167367935181,0.0,0.02438550814986229
179.0,234.0,-7.2503,0.4475,7.0427,-0.0365,0.0304,-0.111,-2.6206146679320277,0.0,5.75816011428833,-0.7849088907241821,-0.0,2.058533191680908,5.623313176422872,-0.0,0.13356119394302368,-1.7283638159381312,0.0,0.00993913970887661,0.6150485277175903,0.0,0.01685355417430401,0.9227006435394287,0.0,0.006675181910395622
179.0,234.0,-7.2503,0.4475,7.0427,-0.0365,0.0304,-0.111,-2.6206466160216273,0.0,5.729221343994141,-0.7849569320678711,-0.0,2.021655797958374,5.623272883683004,-0.0,0.1529337465763092,-1.7283318678485315,0.0,0.01274135708808899,0.6149246096611023,0.0,0.009743133559823036,0.9227047562599182,0.0,0.01441157702356577
179.0,234.0,-7.2503,0.4475,7.0427,-0.0365,0.0304,-0.111,-2.6206189594664515,0.0,5.752935409545898,-0.7850096225738525,-0.0,2.038877487182617,5.62332563379363,-0.0,0.1501944363117218,-1.7284114996539515,0.0,0.0025360386352986097,0.614956259727478,0.0,-0.003752629505470395,0.9227330088615417,0.0,0.020614277571439743
178.0,233.0,-7.2473,0.4528,6.9159,-0.0345,0.0298,-0.1145,-2.620610376397604,0.0,5.775613307952881,-0.7849687933921814,-0.0,2.022292137145996,5.623305547028341,-0.0,0.1429162472486496,-1.728391472493307,0.0,0.010525286197662354,0.6149361729621887,0.0,-0.008747910149395466,0.9226604700088501,0.0,-0.04115401953458786
178.0,233.0,-7.2473,0.4528,6.9159,-0.0345,0.0298,-0.1145,-2.6206146679320277,0.0,5.746076583862305,-0.7849450707435608,-0.0,2.025693655014038,5.623248564987936,-0.0,0.15282894670963287,-1.7283194700824183,0.0,0.004277980420738459,0.6150444149971008,0.0,0.011642157100141048,0.922672688961029,0.0,0.06227549910545349
178.0,233.0,-7.2473,0.4528,6.9159,-0.0345,0.0298,-0.1145,-2.620638986627096,0.0,5.742979049682617,-0.7849977016448975,-0.0,2.0375890731811523,5.623248564987936,-0.0,0.1612265557050705,-1.7283394972430628,0.0,0.014827853068709373,0.614956259727478,0.0,0.009279248304665089,0.922696590423584,0.0,0.009507626295089722
178.0,233.0,-7.2473,0.4528,6.9159,-0.0345,0.0298,-0.1145,-2.6205908260741175,0.0,5.769145965576172,-0.7849491238594055,-0.0,2.009126663208008,5.62322490194396,-0.0,0.1490790992975235,-1.728363339100973,0.0,0.009322247467935085,0.6149604320526123,0.0,-0.0014745257794857025,0.922741174697876,0.0,0.018649542704224586
178.0,233.0,-7.2473,0.4528,6.9159,-0.0345,0.0298,-0.1145,-2.6205622158446253,0.0,5.774146556854248,-0.7849770784378052,-0.0,2.0143485069274902,5.6232972023780725,-0.0,0.15226830542087555,-1.728387180958883,0.0,-0.006321069784462452,0.6150250434875488,0.0,0.010889140889048576,0.922640323638916,0.0,-0.003579187672585249
178.0,233.0,-7.2473,0.4528,6.9159,-0.0345,0.0298,-0.1145,-2.6205622158446253,0.0,5.747965335845947,-0.7849244475364685,-0.0,2.0456645488739014,5.623272943287649,-0.0,0.14768166840076447,-1.7283514181720179,0.0,-0.0046088434755802155,0.614956259727478,0.0,0.005338495597243309,0.9226564168930054,0.0,-0.006419078446924686
178.0,233.0,-7.2473,0.4528,6.9159,-0.0345,0.0298,-0.1145,-2.620582719842428,0.0,5.763484001159668,-0.7849730253219604,-0.0,2.0614452362060547,5.623325574188986,-0.0,0.1615813672542572,-1.728375260029928,0.0,0.006678271573036909,0.6149485111236572,0.0,0.008313985541462898,0.9226768016815186,0.0,0.018942561000585556
178.0,233.0,-7.2473,0.4528,6.9159,-0.0345,0.0298,-0.1145,-2.6206146679320277,0.0,5.790924072265625,-0.7849372029304504,-0.0,2.004469156265259,5.623305547028341,-0.0,0.14587090909481049,-1.7283476034747522,0.0,0.006562851369380951,0.6150087714195251,0.0,0.009292385540902615,0.9226645827293396,0.0,0.03780822455883026
178.0,233.0,-7.2473,0.4528,6.9159,-0.0345,0.0298,-0.1145,-2.620650907556051,0.0,5.798537254333496,-0.7849486470222473,-0.0,2.019442319869995,5.6232972023780725,-0.0,0.14794141054153442,-1.7283394972430628,0.0,0.009503989480435848,0.6149358153343201,0.0,0.003337642177939415,0.9226523041725159,0.0,0.044955067336559296
178.0,233.0,-7.2473,0.4528,6.9159,-0.0345,0.0298,-0.1145,-2.6206189594664515,0.0,5.722684383392334,-0.7849413156509399,-0.0,2.0328755378723145,5.623248564987936,-0.0,0.15833780169487,-1.728387180958883,0.0,0.014893792569637299,0.6149808764457703,0.0,0.01564381644129753,0.9226605296134949,0.0,-0.04374278336763382
178.0,233.0,-7.2473,0.4528,6.9159,-0.0345,0.0298,-0.1145,-2.6206308803954066,0.0,5.7613019943237305,-0.7849569320678711,-0.0,1.9862565994262695,5.623256909638204,-0.0,0.15181586146354675,-1.7284114996539515,0.0,0.0067904675379395485,0.6149480938911438,0.0,0.02095845714211464,0.9226686358451843,0.0,-0.0069248974323272705
178.0,233.0,-7.2473,0.4528,6.9159,-0.0345,0.0298,-0.1145,-2.6206428013243617,0.0,5.707964897155762,-0.784953236579895,-0.0,2.0225024223327637,5.623317825585165,-0.0,0.14573493599891663,-1.7283437887774866,0.0,0.018404431641101837,0.6149685382843018,1.5975448377503199e-06,0.0014942795969545841,0.9226645827293396,0.0,-0.04830428957939148
178.0,233.0,-7.2473,0.4528,6.9159,-0.0345,0.0298,-0.1145,-2.620638986627096,0.0,5.804058074951172,-0.7849289774894714,-0.0,1.9986553192138672,5.623293626099386,-0.0,0.14465278387069702,-1.728403393422262,0.0,0.017027929425239563,0.6150045990943909,4.446824852788467e-10,-0.004520829301327467,0.922720730304718,0.0,0.022474603727459908
178.0,233.0,-7.2473,0.4528,6.9159,-0.0345,0.0298,-0.1145,-2.6205979786314906,0.0,5.71087646484375,-0.78497713804245,-0.0,2.0169425010681152,5.6233375547225855,-0.0,0.14452561736106873,-1.7283514181720179,0.0,0.017851121723651886,0.6149328947067261,1.2377899811892579e-13,-0.010778515599668026,0.9226969480514526,0.0,-0.012913375161588192
178.0,233.0,-7.2473,0.4528,6.9159,-0.0345,0.0298,-0.1145,-2.6205979786314906,0.0,5.759676456451416,-0.7849046587944031,-0.0,2.0266499519348145,5.623333322792806,-0.0,0.15573664009571075,-1.7283676306353968,0.0,0.0055008335039019585,0.6150086522102356,3.4454338987712e-17,-0.0032104335259646177,0.9226887226104736,0.0,-0.010233825072646141
183.0,227.0,-7.1569,0.4319,6.9326,-0.0359,0.0199,-0.1141,-2.620650907556051,0.0,5.733060359954834,-0.7849491238594055,-0.0,1.992880940437317,5.623305487423696,-0.0,0.14615796506404877,-1.7283876577960413,0.0,0.0024527539499104023,0.6149767637252808,9.590492772859625e-21,-0.003475466975942254,0.9226970076560974,0.0,0.038243185728788376
183.0,227.0,-7.1569,0.4319,6.9326,-0.0359,0.0199,-0.1141,-2.620627065698141,0.0,5.721127510070801,-0.7849527597427368,-0.0,2.0145819187164307,5.623285281449117,-0.0,0.14905746281147003,-1.728375260029928,0.0,0.009164470247924328,0.61500084400177,2.6695490850481437e-24,0.0063105616718530655,0.9226805567741394,0.0,0.05205993354320526
183.0,227.0,-7.1569,0.4319,6.9326,-0.0359,0.0199,-0.1141,-2.620610376397604,0.0,5.751077651977539,-0.7849371433258057,-0.0,2.016723155975342,5.623228418618002,-0.0,0.15671607851982117,-1.728391472493307,0.0,-0.006164696998894215,0.614956259727478,7.4307875784450785e-28,0.01543752197176218,0.9227006435394287,0.0,0.05281337350606918
183.0,227.0,-7.1569,0.4319,6.9326,-0.0359,0.0199,-0.1141,-2.6206265888609828,0.0,5.755736827850342,-0.7849286198616028,-0.0,2.0040934085845947,5.623264539032736,-0.0,0.15596938133239746,-1.728363339100973,0.0,0.009177764877676964,0.6149409413337708,2.068387164367908e-31,0.006742910481989384,0.9226686358451843,0.0,0.03309984505176544
183.0,227.0,-7.1569,0.4319,6.9326,-0.0359,0.0199,-0.1141,-2.6206265888609828,0.0,5.731714248657227,-0.7849895358085632,-0.0,2.0344395637512207,5.623260426312246,-0.0,0.16286183893680573,-1.728323761616842,0.0,0.008625146932899952,0.6149767637252808,5.757432429139625e-35,0.008018877357244492,0.9227129817008972,0.0,0.02791108749806881
183.0,227.0,-7.1569,0.4319,6.9326,-0.0359,0.0199,-0.1141,-2.6206308803954066,0.0,5.756100177764893,-0.7849491238594055,-0.0,2.0520377159118652,5.623248564987936,-0.0,0.1547299176454544,-1.7283275763141077,0.0,0.0014097725506871939,0.6149644255638123,1.602602415606938e-38,0.0072252522222697735,0.9226403832435608,0.0,-0.011441109701991081
183.0,227.0,-7.1569,0.4319,6.9326,-0.0359,0.0199,-0.1141,-2.6205951176085414,0.0,5.756809234619141,-0.7849527597427368,-0.0,2.0057601928710938,5.623264539032736,-0.0,0.1465529054403305,-1.7283514181720179,0.0,0.008332282304763794,0.6149882674217224,4.460333011945893e-42,0.004675362724810839,0.9227170944213867,0.0,-0.009653625078499317
183.0,227.0,-7.1569,0.4319,6.9326,-0.0359,0.0199,-0.1141,-2.620610376397604,0.0,5.753927230834961,-0.7850013971328735,-0.0,2.066377639770508,5.623305547028341,-0.0,0.13852782547473907,-1.7283714453326624,0.0,0.01164624560624361,0.6149644255638123,0.0,0.004059108439832926,0.9226686358451843,0.0,-0.007280258461833
183.0,227.0,-7.1569,0.4319,6.9326,-0.0359,0.0199,-0.1141,-2.620582719842428,0.0,5.759964942932129,-0.7849408984184265,-0.0,2.0156471729278564,5.623268651753225,-0.0,0.15878607332706451,-1.7283714453326624,0.0,0.015986565500497818,0.6149485111236572,0.0,0.0038651092909276485,0.9226686358451843,0.0,0.012252045795321465
183.0,227.0,-7.1569,0.4319,6.9326,-0.0359,0.0199,-0.1141,-2.620634695092672,0.0,5.748230457305908,-0.7849248647689819,-0.0,2.011782646179199,5.623293089657583,-0.0,0.1446937471628189,-1.7283595244037073,0.0,0.017482032999396324,0.614956259727478,0.0,0.0018375054933130741,0.9226927757263184,0.0,-0.028197845444083214
183.0,227.0,-7.1569,0.4319,6.9326,-0.0359,0.0199,-0.1141,-2.6206065617003382,0.0,5.757416725158691,-0.784945011138916,-0.0,2.018603801727295,5.6232895133788965,-0.0,0.1476752907037735,-1.7283557097064417,0.0,0.006742484867572784,0.6149804592132568,0.0,0.003924059681594372,0.9227007031440735,0.0,-0.004004515707492828
183.0,227.0,-7.1569,0.4319,6.9326,-0.0359,0.0199,-0.1141,-2.620566030541891,0.0,5.781469345092773,-0.784945011138916,-0.0,2.002183198928833,5.623281168728628,-0.0,0.14671245217323303,-1.7283714453326624,0.0,-0.0012078466825187206,0.6149845123291016,0.0,0.012820325791835785,0.9226928353309631,0.0,-0.01681528240442276
183.0,227.0,-7.1569,0.4319,6.9326,-0.0359,0.0199,-0.1141,-2.6206466160216273,0.0,5.792954444885254,-0.7849527597427368,-0.0,2.036888837814331,5.623281168728628,-0.0,0.15447568893432617,-1.7283437887774866,0.0,0.0048747919499874115,0.6149968504905701,0.0,-0.003387809032574296,0.922672688961029,0.0,-0.03823588788509369
183.0,227.0,-7.1569,0.4319,6.9326,-0.0359,0.0199,-0.1141,-2.6205865345396937,0.0,5.801274299621582,-0.7849610447883606,-0.0,2.052985429763794,5.623248564987936,-0.0,0.15814286470413208,-1.7283595244037073,0.0,0.013738807290792465,0.614964485168457,0.0,0.00325349485501647,0.9226927757263184,0.0,0.008306540548801422
187.0,253.0,-7.1707,0.475,6.9488,-0.0371,0.0254,-0.1142,-2.620589872399801,0.0,5.746273040771484,-0.7849730253219604,-0.0,2.032470703125,5.623313236027517,-0.0,0.14921051263809204,-1.7283476034747522,0.0,0.016870561987161636,0.6150087714195251,0.0,-0.0028316464740782976,0.9226686954498291,0.0,-0.024328656494617462
187.0,253.0,-7.1707,0.475,6.9488,-0.0371,0.0254,-0.1142,-2.6206184826292933,0.0,5.765684127807617,-0.784928560256958,-0.0,2.0402402877807617,5.623248505383291,-0.0,0.14600339531898499,-1.7283318678485315,0.0,0.005192506592720747,0.6149803996086121,0.0,0.008809500373899937,0.9226887226104736,0.0,-0.03293589875102043
187.0,253.0,-7.1707,0.475,6.9488,-0.0371,0.0254,-0.1142,-2.620622774163717,0.0,5.786797523498535,-0.7850096225738525,-0.0,2.0507209300994873,5.623329150467672,-0.0,0.1538141369819641,-1.7283476034747522,0.0,0.007409128826111555,0.6149521470069885,0.0,0.010712431743741035,0.9227046966552734,0.0,-0.022403869777917862
187.0,253.0,-7.1707,0.475,6.9488,-0.0371,0.0254,-0.1142,-2.6206146679320277,0.0,5.801897048950195,-0.7849372029304504,-0.0,2.0089781284332275,5.623309123307028,-0.0,0.1516438126564026,-1.7283476034747522,0.0,0.01203981228172779,0.61500084400177,0.0,0.01852536015212536,0.9226809740066528,0.0,-0.009524345397949219
187.0,253.0,-7.1707,0.475,6.9488,-0.0371,0.0254,-0.1142,-2.6205784283080042,0.0,5.787505149841309,-0.7849409580230713,-0.0,2.045764207839966,5.623268651753225,-0.0,0.14960874617099762,-1.7283394972430628,0.0,0.008888096548616886,0.6149725914001465,0.0,0.007966072298586369,0.922648549079895,0.0,0.04790753126144409
187.0,253.0,-7.1707,0.475,6.9488,-0.0371,0.0254,-0.1142,-2.6206146679320277,0.0,5.758082389831543,-0.7849610447883606,-0.0,2.0130455493927,5.623248505383291,-0.0,0.15491929650306702,-1.7283676306353968,0.0,-0.0011161011643707752,0.6149644255638123,0.0,-0.004002980422228575,0.922616183757782,0.0,0.0002753743901848793
187.0,253.0,-7.1707,0.475,6.9488,-0.0371,0.0254,-0.1142,-2.6205979786314906,0.0,5.769920349121094,-0.7849491238594055,-0.0,1.975966215133667,5.62330179193572,-0.0,0.14568990468978882,-1.7283714453326624,0.0,-0.007302303798496723,0.6149481534957886,0.0,0.0031021994072943926,0.9226763844490051,0.0,0.0019988324493169785
187.0,253.0,-7.1707,0.475,6.9488,-0.0371,0.0254,-0.1142,-2.620622297326559,0.0,5.723075866699219,-0.7849688529968262,-0.0,2.0307445526123047,5.62332563379363,-0.0,0.15607412159442902,-1.7283795515643519,0.0,0.008723655715584755,0.6149845123291016,0.0,0.009514261037111282,0.9226809740066528,0.0,0.064637690782547
187.0,253.0,-7.1707,0.475,6.9488,-0.0371,0.0254,-0.1142,-2.6205908260741175,0.0,5.762794494628906,-0.7849527597427368,-0.0,2.041337251663208,5.623264539032736,-0.0,0.14294397830963135,-1.7283952871905726,0.0,0.00505416002124548,0.614968478679657,0.0,0.007516240701079369,0.9226928353309631,0.0,0.008220100775361061
187.0,253.0,-7.1707,0.475,6.9488,-0.0371,0.0254,-0.1142,-2.620594163934225,0.0,5.794828414916992,-0.7849569320678711,-0.0,2.0291426181793213,5.62325685003356,-0.0,0.15006086230278015,-1.7283557097064417,0.0,0.006104908883571625,0.6150127053260803,0.0,0.007470478303730488,0.9226927757263184,0.0,-0.037067778408527374
187.0,253.0,-7.1707,0.475,6.9488,-0.0371,0.0254,-0.1142,-2.6206146679320277,0.0,5.828283309936523,-0.7849811911582947,-0.0,2.01375150680542,5.6232895133788965,-0.0,0.15807431936264038,-1.7283952871905726,0.0,-0.002166257705539465,0.6149604320526123,0.0,0.014402111992239952,0.9226199984550476,0.0,0.008799483999609947
187.0,253.0,-7.1707,0.475,6.9488,-0.0371,0.0254,-0.1142,-2.6205860577025355,0.0,5.733209609985352,-0.7849651575088501,-0.0,2.0441441535949707,5.623272883683004,-0.0,0.15497425198554993,-1.7283795515643519,0.0,0.01241203211247921,0.6150242686271667,0.0,0.013832354918122292,0.9226564764976501,0.0,-0.015767352655529976
187.0,253.0,-7.1707,0.475,6.9488,-0.0371,0.0254,-0.1142,-2.6205979786314906,0.0,5.794568061828613,-0.7849569320678711,-0.0,2.0386483669281006,5.623309600144186,-0.0,0.15378808975219727,-1.7283275763141077,0.0,-0.001491564093157649,0.6150128245353699,0.0,0.019036732614040375,0.9226768016815186,0.0,-0.05161377787590027
187.0,253.0,-7.1707,0.475,6.9488,-0.0371,0.0254,-0.1142,-2.620650907556051,0.0,5.754541397094727,-0.7849610447883606,-0.0,2.008060932159424,5.623305547028341,-0.0,0.15836630761623383,-1.7283437887774866,0.0,0.004275019280612469,0.6150005459785461,0.0,0.007871273905038834,0.9226887226104736,0.0,-0.005628183484077454
187.0,253.0,-7.1707,0.475,6.9488,-0.0371,0.0254,-0.1142,-2.620622774163717,0.0,5.7581281661987305,-0.784945011138916,-0.0,2.020907402038574,5.62326859214858,-0.0,0.16314280033111572,-1.7283795515643519,0.0,0.0038313069380819798,0.61500084400177,0.0,0.008097747340798378,0.922672688961029,0.0,0.018476475030183792
184.0,238.0,-7.1821,0.4481,6.9398,-0.0356,0.0206,-0.11,-2.6205536327757777,0.0,5.750907897949219,-0.784993588924408,-0.0,2.0174641609191895,5.623317289143362,-0.0,0.13682299852371216,-1.7283676306353968,0.0,-0.007435344625264406,0.6149004697799683,0.0,0.015000087209045887,0.9226727485656738,0.0,0.05751008540391922
184.0,238.0,-7.1821,0.4481,6.9398,-0.0356,0.0206,-0.11,-2.6206022701659144,0.0,5.7922563552856445,-0.784968912601471,-0.0,2.038421630859375,5.6233375547225855,-0.0,0.15837973356246948,-1.7283476034747522,0.0,-0.002601779066026211,0.6149767637252808,0.0,0.016721785068511963,0.9226403832435608,0.0,0.01142481155693531
184.0,238.0,-7.1821,0.4481,6.9398,-0.0356,0.0206,-0.11,-2.6206428013243617,0.0,5.698342323303223,-0.7849811911582947,-0.0,2.036682367324829,5.623297142773428,-0.0,0.1516907811164856,-1.728363339100973,0.0,0.007730207405984402,0.6149804592132568,0.0,0.011377799324691296,0.9227129817008972,0.0,0.004936659708619118
184.0,238.0,-7.1821,0.4481,6.9398,-0.0356,0.0206,-0.11,-2.6206428013243617,0.0,5.742432594299316,-0.7849129438400269,-0.0,2.0190110206604004,5.623248564987936,-0.0,0.1546253263950348,-1.7283557097064417,0.0,0.009200900793075562,0.6149803996086121,0.0,0.010145287960767746,0.9226887226104736,0.0,-0.04250653460621834
184.0,238.0,-7.1821,0.4481,6.9398,-0.0356,0.0206,-0.11,-2.620622297326559,0.0,5.726698398590088,-0.7849935293197632,-0.0,2.025272846221924,5.623248564987936,-0.0,0.14023980498313904,-1.728375260029928,0.0,0.007134318817406893,0.6149725914001465,0.0,0.0025569340214133263,0.9226728081703186,0.0,-0.03695065900683403
184.0,238.0,-7.1821,0.4481,6.9398,-0.0356,0.0206,-0.11,-2.6206189594664515,0.0,5.791614532470703,-0.7849409580230713,-0.0,1.9961694478988647,5.623272883683004,-0.0,0.1506372094154358,-1.7283795515643519,0.0,-0.0032624390441924334,0.6150004863739014,0.0,0.016844971105456352,0.9227047562599182,0.0,0.0361776277422905
184.0,238.0,-7.1821,0.4481,6.9398,-0.0356,0.0206,-0.11,-2.620589872399801,0.0,5.749722480773926,-0.7849610447883606,-0.0,2.0328614711761475,5.623281228333273,-0.0,0.16339997947216034,-1.7283476034747522,0.0,0.011188920587301254,0.6149402260780334,0.0,0.009561773389577866,0.9227411150932312,0.0,0.0027021262794733047
184.0,238.0,-7.1821,0.4481,6.9398,-0.0356,0.0206,-0.11,-2.6205860577025355,0.0,5.754263877868652,-0.7849371433258057,-0.0,1.9961018562316895,5.6232895133788965,-0.0,0.15154147148132324,-1.7283313910113733,0.0,0.000412735651480034,0.614892303943634,0.0,0.0069569675251841545,0.9226686358451843,0.0,0.01687878742814064
184.0,238.0,-7.1821,0.4481,6.9398,-0.0356,0.0206,-0.11,-2.6205579243102015,0.0,5.7955169677734375,-0.7849408984184265,-0.0,2.056741952896118,5.623293149262228,-0.0,0.1558954119682312,-1.7283514181720179,0.0,0.01692071370780468,0.6149964332580566,0.0,-0.0047489944845438,0.9226604700088501,0.0,-0.0002708293031901121
184.0,238.0,-7.1821,0.4481,6.9398,-0.0356,0.0206,-0.11,-2.6205622158446253,0.0,5.749432563781738,-0.7849088311195374,-0.0,2.0455212593078613,5.6232972023780725,-0.0,0.15219545364379883,-1.7283714453326624,0.0,-0.005275470204651356,0.6149964332580566,0.0,0.008374248631298542,0.922672688961029,0.0,0.01711425743997097
184.0,238.0,-7.1821,0.4481,6.9398,-0.0356,0.0206,-0.11,-2.620650907556051,0.0,5.789912223815918,-0.7849491834640503,-0.0,1.983930230140686,5.623305547028341,-0.0,0.14065304398536682,-1.7283714453326624,0.0,0.004995083436369896,0.6149762868881226,0.0,0.0038775098510086536,0.9226846098899841,0.0,0.011082436889410019
184.0,238.0,-7.1821,0.4481,6.9398,-0.0356,0.0206,-0.11,-2.6206022701659144,0.0,5.7484283447265625,-0.7849249243736267,-0.0,2.0526599884033203,5.62326871135787,-0.0,0.14458462595939636,-1.7283595244037073,0.0,1.1907890439033508e-05,0.6149762272834778,0.0,0.0026861221995204687,0.9227411150932312,0.0,0.029594426974654198
184.0,238.0,-7.1821,0.4481,6.9398,-0.0356,0.0206,-0.11,-2.6205979786314906,0.0,5.734649658203125,-0.7849326729774475,-0.0,2.037832260131836,5.623264539032736,-0.0,0.16231697797775269,-1.7283476034747522,0.0,0.02126876637339592,0.6149604320526123,0.0,0.0055292523466050625,0.9227166175842285,0.0,0.009934133850038052
184.0,238.0,-7.1821,0.4481,6.9398,-0.0356,0.0206,-0.11,-2.6206184826292933,0.0,5.757923603057861,-0.784952700138092,-0.0,2.057549476623535,5.623297261982717,-0.0,0.14672647416591644,-1.7283514181720179,0.0,0.011927972547709942,0.6149767637252808,0.0,0.0026214714162051678,0.9226645827293396,0.0,-0.006021440960466862
184.0,238.0,-7.1821,0.4481,6.9398,-0.0356,0.0206,-0.11,-2.620638986627096,0.0,5.762014389038086,-0.784993588924408,-0.0,2.004055976867676,5.62326459863738,-0.0,0.14132609963417053,-1.728375260029928,0.0,0.012869616039097309,0.6150250434875488,0.0,0.00918468739837408,0.9226768016815186,0.0,0.009848704561591148
179.0,227.0,-7.1557,0.4379,7.0511,-0.0351,0.0284,-0.122,-2.6205502949156703,0.0,5.808479309082031,-0.7849330902099609,-0.0,2.073869228363037,5.62326459863738,-0.0,0.13635791838169098,-1.7283676306353968,0.0,0.0077047087252140045,0.6149480938911438,0.0,0.012378708459436893,0.9227129817008972,0.0,-0.008035867474973202
179.0,227.0,-7.1557,0.4379,7.0511,-0.0351,0.0284,-0.122,-2.6205979786314906,0.0,5.764163017272949,-0.7849249243736267,-0.0,2.043966770172119,5.623264539032736,-0.0,0.1442478597164154,-1.7284110228167933,0.0,0.005605276674032211,0.6149685382843018,0.0,-0.006355036981403828,0.922672688961029,0.0,-0.004067672416567802
179.0,227.0,-7.1557,0.4379,7.0511,-0.0351,0.0284,-0.122,-2.620610376397604,0.0,5.769981384277344,-0.7849088907241821,-0.0,2.0302908420562744,5.623285281449117,-0.0,0.15144242346286774,-1.7283714453326624,0.0,0.002107105450704694,0.6150449514389038,0.0,0.005226048640906811,0.9227006435394287,0.0,-0.0138520747423172
179.0,227.0,-7.1557,0.4379,7.0511,-0.0351,0.0284,-0.122,-2.6206308803954066,0.0,5.777848243713379,-0.7849652171134949,-0.0,2.009786605834961,5.623301315098562,-0.0,0.15146979689598083,-1.7283595244037073,0.0,-0.0013961393851786852,0.614932119846344,0.0,0.010413000360131264,0.9226645231246948,0.0,-0.01284143514931202
179.0,227.0,-7.1557,0.4379,7.0511,-0.0351,0.0284,-0.122,-2.6206189594664515,0.0,5.7913312911987305,-0.7848809957504272,-0.0,2.027073383331299,5.6232730624969385,-0.0,0.14356589317321777,-1.728363339100973,0.0,0.00727043068036437,0.6149927377700806,0.0,0.00874707568436861,0.922672688961029,0.0,-0.01602032035589218
179.0,227.0,-7.1557,0.4379,7.0511,-0.0351,0.0284,-0.122,-2.6206547222533167,0.0,5.757015228271484,-0.7849894762039185,-0.0,2.0075578689575195,5.623268651753225,-0.0,0.1513160765171051,-1.7283991018878382,0.0,0.0017947121523320675,0.6149685382843018,0.0,-0.002617652527987957,0.9226809740066528,0.0,0.02564350888133049
179.0,227.0,-7.1557,0.4379,7.0511,-0.0351,0.0284,-0.122,-2.6206308803954066,0.0,5.734574317932129,-0.784945011138916,-0.0,1.9856808185577393,5.623277115612783,-0.0,0.14412018656730652,-1.728375260029928,0.0,0.004385840147733688,0.6149808168411255,0.0,0.0033049241174012423,0.9227088093757629,0.0,-0.019303223118185997
179.0,227.0,-7.1557,0.4379,7.0511,-0.0351,0.0284,-0.122,-2.6205908260741175,0.0,5.761909484863281,-0.7849729657173157,-0.0,2.0345351696014404,5.623264539032736,-0.0,0.15810556709766388,-1.7283952871905726,0.0,0.004605292808264494,0.6149444580078125,0.0,0.003986310213804245,0.9226969480514526,0.0,-0.0018463893793523312
179.0,227.0,-7.1557,0.4379,7.0511,-0.0351,0.0284,-0.122,-2.620589872399801,0.0,5.796414375305176,-0.7849046587944031,-0.0,1.9930344820022583,5.623309659748831,-0.0,0.15314798057079315,-1.7283514181720179,0.0,0.010900606401264668,0.6150127649307251,0.0,-0.003106331918388605,0.9227010011672974,0.0,0.02176833525300026
179.0,227.0,-7.1557,0.4379,7.0511,-0.0351,0.0284,-0.122,-2.620638509789938,0.0,5.73805046081543,-0.7849574089050293,-0.0,2.0072975158691406,5.6232972023780725,-0.0,0.1546318531036377,-1.7283557097064417,0.0,-0.013143334537744522,0.6149481534957886,0.0,0.0017974248621612787,0.9226563572883606,0.0,0.006146547384560108
179.0,227.0,-7.1557,0.4379,7.0511,-0.0351,0.0284,-0.122,-2.6205865345396937,0.0,5.727108478546143,-0.7849171161651611,-0.0,2.017272472381592,5.623305547028341,-0.0,0.1502847522497177,-1.7283676306353968,0.0,0.005873794201761484,0.6149767637252808,0.0,0.018873801454901695,0.9226806163787842,0.0,-0.0035540610551834106
179.0,227.0,-7.1557,0.4379,7.0511,-0.0351,0.0284,-0.122,-2.620566030541891,0.0,5.768648147583008,-0.7849486470222473,-0.0,2.02089786529541,5.6232895133788965,-0.0,0.15542003512382507,-1.7283514181720179,0.0,-0.0027374373748898506,0.614968478679657,0.0,0.012458445504307747,0.9227412343025208,0.0,-0.051222607493400574
179.0,227.0,-7.1557,0.4379,7.0511,-0.0351,0.0284,-0.122,-2.6206146679320277,0.0,5.7437944412231445,-0.7849894165992737,-0.0,2.0286502838134766,5.623256909638204,-0.0,0.15203312039375305,-1.728323761616842,0.0,-0.0007089385762810707,0.6149725914001465,0.0,0.014916779473423958,0.9226768016815186,0.0,-0.008553785271942616
179.0,227.0,-7.1557,0.4379,7.0511,-0.0351,0.0284,-0.122,-2.620570322076315,0.0,5.811767578125,-0.7849412560462952,-0.0,2.013190269470215,5.62325685003356,-0.0,0.14873719215393066,-1.7283476034747522,0.0,0.016772722825407982,0.6149922609329224,0.0,0.0037977180909365416,0.9226726293563843,0.0,0.001898149959743023
179.0,227.0,-7.1557,0.4379,7.0511,-0.0351,0.0284,-0.122,-2.6206423244872035,0.0,5.730452537536621,-0.7849730253219604,-0.0,2.0548110008239746,5.623313236027517,-0.0,0.14451846480369568,-1.7283833662616175,0.0,0.010031871497631073,0.6149763464927673,0.0,0.022900385782122612,0.9226727485656738,0.0,0.02914983406662941
188.0,237.0,-7.1803,0.4409,6.9206,-0.0498,0.0147,-0.1179,-2.620638986627096,0.0,5.767627716064453,-0.7849171161651611,-0.0,2.0064568519592285,5.623233008175649,-0.0,0.14735575020313263,-1.7283356825457972,0.0,0.01063467562198639,0.61500084400177,0.0,0.014370651915669441,0.922672688961029,0.0,0.049651503562927246
188.0,237.0,-7.1803,0.4409,6.9206,-0.0498,0.0147,-0.1179,-2.6206065617003382,0.0,5.724871635437012,-0.7849574089050293,-0.0,1.996423602104187,5.62322490194396,-0.0,0.15688933432102203,-1.7283595244037073,0.0,0.0169991422444582,0.6150005459785461,0.0,0.011488471180200577,0.9227129220962524,0.0,0.020549844950437546
188.0,237.0,-7.1803,0.4409,6.9206,-0.0498,0.0147,-0.1179,-2.620638509789938,0.0,5.7644829750061035,-0.7849527597427368,-0.0,2.002976179122925,5.623268651753225,-0.0,0.16120953857898712,-1.7283437887774866,0.0,-0.0082912128418684,0.614968478679657,0.0,0.008386924862861633,0.9227087497711182,0.0,0.032771628350019455
188.0,237.0,-7.1803,0.4409,6.9206,-0.0498,0.0147,-0.1179,-2.620655199090475,0.0,5.780636787414551,-0.7849770784378052,-0.0,2.0770044326782227,5.623317289143362,-0.0,0.15998831391334534,-1.7283714453326624,0.0,0.006401280872523785,0.6149762272834778,0.0,0.002831600373610854,0.9226969480514526,0.0,0.0012781714322045445
188.0,237.0,-7.1803,0.4409,6.9206,-0.0498,0.0147,-0.1179,-2.62064327816152,0.0,5.764585494995117,-0.784945011138916,-0.0,2.0088725090026855,5.623224842339315,-0.0,0.1533614844083786,-1.7283952871905726,0.0,0.014518078416585922,0.6150004863739014,0.0,0.01685313507914543,0.9227047562599182,0.0,0.012220023199915886
188.0,237.0,-7.1803,0.4409,6.9206,-0.0498,0.0147,-0.1179,-2.6205979786314906,0.0,5.770493507385254,-0.7849527597427368,-0.0,2.018679618835449,5.623305547028341,-0.0,0.14754167199134827,-1.7283795515643519,0.0,-0.0014561921125277877,0.6149803996086121,0.0,-0.0005426846910268068,0.9226645827293396,0.0,-0.017353346571326256
188.0,237.0,-7.1803,0.4409,6.9206,-0.0498,0.0147,-0.1179,-2.6206065617003382,0.0,5.782521724700928,-0.784952700138092,-0.0,1.993762731552124,5.623297679215231,-0.0,0.14838248491287231,-1.7283714453326624,0.0,0.012022711336612701,0.6149725914001465,0.0,0.012533079832792282,0.9227010607719421,0.0,0.023884866386651993
188.0,237.0,-7.1803,0.4409,6.9206,-0.0498,0.0147,-0.1179,-2.6205979786314906,0.0,5.709815979003906,-0.7849371433258057,-0.0,2.0135254859924316,5.623301255493917,-0.0,0.16367575526237488,-1.728363339100973,0.0,0.007032626308500767,0.614940345287323,0.0,0.015679338946938515,0.9226727485656738,0.0,-0.03021743893623352
188.0,237.0,-7.1803,0.4409,6.9206,-0.0498,0.0147,-0.1179,-2.620634695092672,0.0,5.764051914215088,-0.7849650979042053,-0.0,2.01250958442688,5.623268651753225,-0.0,0.1509799063205719,-1.728387180958883,0.0,0.004433370195329189,0.6149885654449463,0.0,0.016535282135009766,0.9226604700088501,0.0,0.042539261281490326
188.0,237.0,-7.1803,0.4409,6.9206,-0.0498,0.0147,-0.1179,-2.620582719842428,0.0,5.7406907081604,-0.7849089503288269,-0.0,1.9927020072937012,5.62326859214858,-0.0,0.14931216835975647,-1.7283275763141077,0.0,0.0033586921636015177,0.614956259727478,0.0,0.010853491723537445,0.9227088093757629,0.0,-0.007744275499135256
188.0,237.0,-7.1803,0.4409,6.9206,-0.0498,0.0147,-0.1179,-2.6206022701659144,0.0,5.744131565093994,-0.7849774360656738,-0.0,1.976996898651123,5.623248564987936,-0.0,0.15000781416893005,-1.7283476034747522,0.0,-0.005527009256184101,0.6149685382843018,0.0,0.010418040677905083,0.9226564168930054,0.0,0.0046486444771289825
188.0,237.0,-7.1803,0.4409,6.9206,-0.0498,0.0147,-0.1179,-2.6206466160216273,0.0,5.7506303787231445,-0.7849491238594055,-0.0,2.003349781036377,5.623268651753225,-0.0,0.14611956477165222,-1.7283437887774866,0.0,0.011934733018279076,0.6149762868881226,0.0,0.015292152762413025,0.9226768016815186,0.0,0.036763355135917664
188.0,237.0,-7.1803,0.4409,6.9206,-0.0498,0.0147,-0.1179,-2.6206022701659144,0.0,5.757038593292236,-0.784985363483429,-0.0,2.0680789947509766,5.6232972023780725,-0.0,0.15292620658874512,-1.728363339100973,0.0,0.02226230874657631,0.6150085926055908,0.0,0.0033602998591959476,0.9227006435394287,0.0,-0.0037360871210694313
188.0,237.0,-7.1803,0.4409,6.9206,-0.0498,0.0147,-0.1179,-2.6206146679320277,0.0,5.755194664001465,-0.7850220203399658,-0.0,2.017000675201416,5.623285281449117,-0.0,0.14640167355537415,-1.728363339100973,0.0,0.023453205823898315,0.6149725914001465,0.0,0.013038069941103458,0.9226523041725159,0.0,-0.02080700173974037
182.0,239.0,-7.2473,0.4463,7.0128,-0.0377,0.0254,-0.1084,-2.620634695092672,0.0,5.76220703125,-0.7849688529968262,-0.0,2.047621011734009,5.623313236027517,-0.0,0.14644987881183624,-1.7283833662616175,0.0,0.018293088302016258,0.6149803996086121,0.0,0.014632802456617355,0.9227047562599182,0.0,0.05049401521682739
182.0,239.0,-7.2473,0.4463,7.0128,-0.0377,0.0254,-0.1084,-2.620662828485006,0.0,5.718050003051758,-0.7849610447883606,-0.0,2.00136137008667,5.623260426312246,-0.0,0.15656235814094543,-1.7283394972430628,0.0,0.009780601598322392,0.6149964332580566,0.0,0.012904739007353783,0.9226809740066528,0.0,0.0033899694681167603
182.0,239.0,-7.2473,0.4463,7.0128,-0.0377,0.0254,-0.1084,-2.6206146679320277,0.0,5.78662633895874,-0.7849286198616028,-0.0,2.050196409225464,5.623313176422872,-0.0,0.15560445189476013,-1.7283514181720179,0.0,0.00627225823700428,0.6149845123291016,0.0,-0.0026651769876480103,0.922672688961029,0.0,0.049880146980285645
182.0,239.0,-7.2473,0.4463,7.0128,-0.0377,0.0254,-0.1084,-2.620634695092672,0.0,5.768575191497803,-0.784936785697937,-0.0,2.0162782669067383,5.623293626099386,-0.0,0.15716195106506348,-1.7283952871905726,0.0,-0.003186263609677553,0.6149886250495911,0.0,0.011777971871197224,0.9227088689804077,0.0,-0.02255769446492195
182.0,239.0,-7.2473,0.4463,7.0128,-0.0377,0.0254,-0.1084,-2.620622774163717,0.0,5.79804801940918,-0.7849289774894714,-0.0,1.9892044067382812,5.6232895133788965,-0.0,0.16415531933307648,-1.7283476034747522,0.0,0.008317778818309307,0.6150088310241699,0.0,-0.010599388740956783,0.9226523041725159,0.0,0.01751575618982315
182.0,239.0,-7.2473,0.4463,7.0128,-0.0377,0.0254,-0.1084,-2.6206265888609828,0.0,5.7616119384765625,-0.7849491238594055,-0.0,2.047344923019409,5.6232972023780725,-0.0,0.15738871693611145,-1.728363339100973,0.0,0.007817493751645088,0.6149804592132568,0.0,-0.003834590781480074,0.9226805567741394,0.0,0.004771733656525612
182.0,239.0,-7.2473,0.4463,7.0128,-0.0377,0.0254,-0.1084,-2.6206189594664515,0.0,5.743930339813232,-0.7849130034446716,-0.0,1.987007975578308,5.623281168728628,-0.0,0.15426266193389893,-1.7283514181720179,0.0,0.003947695717215538,0.6150168180465698,0.0,0.01208401657640934,0.9226928353309631,0.0,-0.02197493240237236
182.0,239.0,-7.2473,0.4463,7.0128,-0.0377,0.0254,-0.1084,-2.620610376397604,0.0,5.765612602233887,-0.7849408984184265,-0.0,2.0294830799102783,5.623268651753225,-0.0,0.15652243793010712,-1.7283833662616175,0.0,0.005288282409310341,0.6149886250495911,0.0,-0.007238490041345358,0.9226927757263184,0.0,-0.030762571841478348
182.0,239.0,-7.2473,0.4463,7.0128,-0.0377,0.0254,-0.1084,-2.6206466160216273,0.0,5.719692230224609,-0.7849931716918945,-0.0,2.005603313446045,5.62331377246932,-0.0,0.15329709649085999,-1.7283557097064417,0.0,0.0036249568220227957,0.6150045990943909,0.0,0.012384261004626751,0.9226886630058289,0.0,-0.0357494056224823
182.0,239.0,-7.2473,0.4463,7.0128,-0.0377,0.0254,-0.1084,-2.6206265888609828,0.0,5.713493347167969,-0.7850137948989868,-0.0,2.000563621520996,5.62326459863738,-0.0,0.14431099593639374,-1.728387180958883,0.0,0.00865759514272213,0.6149361729621887,0.0,0.0016903347568586469,0.9227010607719421,0.0,-0.0030387858860194683
182.0,239.0,-7.2473,0.4463,7.0128,-0.0377,0.0254,-0.1084,-2.620634695092672,0.0,5.768801689147949,-0.7849327325820923,-0.0,2.067854881286621,5.623293089657583,-0.0,0.1459682285785675,-1.7283795515643519,0.0,0.008922498673200607,0.6149444580078125,0.0,-0.0022313944064080715,0.9226646423339844,0.0,0.021799132227897644
182.0,239.0,-7.2473,0.4463,7.0128,-0.0377,0.0254,-0.1084,-2.620589872399801,0.0,5.7719550132751465,-0.7849936485290527,-0.0,2.016314744949341,5.623268651753225,-0.0,0.1675437092781067,-1.728375260029928,0.0,-0.000939727877266705,0.614968478679657,0.0,-0.006141060031950474,0.9226686358451843,0.0,-0.015703558921813965
182.0,239.0,-7.2473,0.4463,7.0128,-0.0377,0.0254,-0.1084,-2.620594163934225,0.0,5.766056537628174,-0.7849569320678711,-0.0,2.024143934249878,5.623265075474539,-0.0,0.15395784378051758,-1.728391472493307,0.0,0.01618526317179203,0.6149522066116333,0.0,0.006373994052410126,0.9227006435394287,0.0,0.06409516930580139
182.0,239.0,-7.2473,0.4463,7.0128,-0.0377,0.0254,-0.1084,-2.6206308803954066,0.0,5.7748613357543945,-0.7849082946777344,-0.0,1.9675393104553223,5.6233375547225855,-0.0,0.1329837292432785,-1.728375260029928,0.0,0.0065416195429861546,0.6149725914001465,0.0,0.014017635956406593,0.9227006435394287,0.0,0.026320498436689377
182.0,239.0,-7.2473,0.4463,7.0128,-0.0377,0.0254,-0.1084,-2.6205979786314906,0.0,5.714170455932617,-0.7849527597427368,-0.0,1.9829387664794922,5.623301315098562,-0.0,0.15412618219852448,-1.7283714453326624,0.0,-9.036506526172161e-05,0.6149922609329224,0.0,0.01727963238954544,0.922741174697876,0.0,0.019972946494817734
180.0,240.0,-7.0511,0.4636,6.9876,-0.037,0.009,-0.1129,-2.620634695092672,0.0,5.779644966125488,-0.784945011138916,-0.0,2.003183603286743,5.6232526181037805,-0.0,0.1458749771118164,-1.728391472493307,0.0,0.004528889898210764,0.6149968504905701,0.0,0.00972940493375063,0.9227047562599182,1.7468908264373084e-10,0.027261054143309593
180.0,240.0,-7.0511,0.4636,6.9876,-0.037,0.009,-0.1129,-2.620622774163717,1.568771224036425e-10,5.778922080993652,-0.7848891615867615,-0.0,2.0013909339904785,5.6232895133788965,-0.0,0.15258315205574036,-1.7283833662616175,0.0,0.0013558057835325599,0.6149480938911438,0.0,-0.003966022748500109,0.9227288961410522,4.2185348325389396e-16,-0.017779074609279633
180.0,240.0,-7.0511,0.4636,6.9876,-0.037,0.009,-0.1129,-2.6205908260741175,3.788398002335609e-16,5.734728813171387,-0.7849211692810059,4.3463607712901364e-10,2.0263755321502686,5.62324087598876,-0.0,0.14534476399421692,-1.7283476034747522,0.0,0.017725162208080292,0.6150085926055908,0.0,0.013687223196029663,0.922732949256897,1.018726339708668e-21,0.013126637786626816
180.0,240.0,-7.0511,0.4636,6.9876,-0.037,0.009,-0.1129,-2.6205908260741175,9.148536795479791e-22,5.812532424926758,-0.7849569916725159,1.0495949473595355e-15,2.0012943744659424,5.623309123307028,-0.0,0.15112972259521484,-1.7283714453326624,0.0,0.010582394897937775,0.6150087714195251,0.0,0.01537720300257206,0.9227530360221863,2.4601045256115185e-27,-0.034770868718624115
180.0,240.0,-7.0511,0.4636,6.9876,-0.037,0.009,-0.1129,-2.620570322076315,2.2092637059347474e-27,5.764509201049805,-0.7849535942077637,2.5346486101308347e-21,2.0463361740112305,5.623276996403494,-0.0,0.14034351706504822,-1.728387180958883,0.0,0.015603050589561462,0.6149204969406128,0.0,0.020547060295939445,0.922732949256897,5.940862858373422e-33,-0.03195905312895775
180.0,240.0,-7.0511,0.4636,6.9876,-0.037,0.009,-0.1129,-2.620627065698141,5.33511261963745e-33,5.790060043334961,-0.7849293351173401,6.120877689756772e-27,2.0164289474487305,5.62324087598876,-0.0,0.15695887804031372,-1.7283676306353968,0.0,0.004648159723728895,0.6149845123291016,0.0,0.017805013805627823,0.9226805567741394,1.434648526996669e-38,-0.0034289653412997723
180.0,240.0,-7.0511,0.4636,6.9876,-0.037,0.009,-0.1129,-2.6205460033812464,1.2883669803058015e-38,5.783622741699219,-0.7849289774894714,1.4781200817169067e-32,2.0437278747558594,5.623301315098562,-0.0,0.13733984529972076,-1.7283714453326624,0.0,0.005167650058865547,0.6149922609329224,0.0,0.011022528633475304,0.9227288961410522,3.5032461608120427e-44,-0.02399732545018196
180.0,240.0,-7.0511,0.4636,6.9876,-0.037,0.009,-0.1129,-2.6206065617003382,0.0,5.749610900878906,-0.78497713804245,4.788923488845419e-40,2.0343923568725586,5.623268651753225,-0.0,0.1473568081855774,-1.728375260029928,0.0,0.010189313441514969,0.6150045990943909,0.0,0.0038019537460058928,0.9227165579795837,0.0,-0.016562234610319138
180.0,240.0,-7.0511,0.4636,6.9876,-0.037,0.009,-0.1129,-2.6205908260741175,0.0,5.758070945739746,-0.7849170565605164,0.00014206973719410598,2.038997173309326,5.623249041825094,-0.0,0.15672345459461212,-1.728375260029928,0.0,-0.0007095033070072532,0.6149845123291016,0.0,0.0062414975836873055,0.9227206707000732,0.0,0.029547076672315598
180.0,240.0,-7.0511,0.4636,6.9876,-0.037,0.009,-0.1129,-2.6205908260741175,0.0,5.757315635681152,-0.7849170565605164,0.00024949817452579737,2.0666913986206055,5.623268651753225,-0.0,0.14672444760799408,-1.7283514181720179,0.0,-0.01021638698875904,0.6149964332580566,0.0,-0.00015982954937499017,0.922724723815918,0.0,0.011311856098473072
180.0,240.0,-7.0511,0.4636,6.9876,-0.037,0.009,-0.1129,-2.6205741367735804,0.00014851416926831007,5.7674760818481445,-0.784885048866272,0.0007073459564708173,2.0193772315979004,5.6232895133788965,-0.0,0.15261392295360565,-1.728387180958883,0.0,-0.0016200465615838766,0.6150209307670593,0.0,0.009112048894166946,0.9227083921432495,0.0,0.019632738083600998
180.0,240.0,-7.0511,0.4636,6.9876,-0.037,0.009,-0.1129,-2.6205622158446253,0.00018884673772845417,5.801057815551758,-0.7848932147026062,0.0007727618212811649,2.0401194095611572,5.62325685003356,-0.0,0.1486688256263733,-1.7283991018878382,0.0,0.009332281537353992,0.614976704120636,0.0,0.014769265428185463,0.9226965308189392,0.0,-0.04348423704504967
180.0,240.0,-7.0511,0.4636,6.9876,-0.037,0.009,-0.1129,-2.620582719842428,0.0005218335427343845,5.794544219970703,-0.784885048866272,0.0009419097914360464,2.0519979000091553,5.623260485916891,-0.0,0.15889985859394073,-1.7284110228167933,0.0,0.008362368680536747,0.6149886250495911,0.0,0.0030165184289216995,0.9227288961410522,0.0,-0.00448159035295248
180.0,240.0,-7.0511,0.4636,6.9876,-0.037,0.009,-0.1129,-2.6205865345396937,0.0005760508356615901,5.764557361602783,-0.7849335074424744,0.0010154548799619079,2.0306549072265625,5.623256909638204,-0.0,0.14271429181098938,-1.728391472493307,0.0,0.010274605825543404,0.6150242686271667,0.0,0.0027521983720362186,0.9227489829063416,0.0,0.012379657477140427
180.0,240.0,-7.0511,0.4636,6.9876,-0.037,0.009,-0.1129,-2.6205226383604945,0.0005174378165975213,5.800144195556641,-0.7848249077796936,0.0012085795169696212,2.034877061843872,5.623281168728628,-0.0,0.13989591598510742,-1.7283833662616175,0.0,0.0024992290418595076,0.6149964332580566,0.0,0.0010564259719103575,0.922736644744873,0.0,0.030828993767499924
181.0,236.0,-7.3789,0.4534,7.1037,-0.0338,0.0374,-0.1103,-2.620538373986715,0.00047139893285930157,5.7760467529296875,-0.7849056124687195,0.0014468675944954157,1.9654579162597656,5.623277115612783,-0.0,0.14024829864501953,-1.728323761616842,0.0,-0.005563241429626942,0.6149361729621887,0.0,0.010888415388762951,0.9226883053779602,0.0,0.0008190781809389591
181.0,236.0,-7.3789,0.4534,7.1037,-0.0338,0.0374,-0.1103,-2.6205626926817835,0.0003586424281820655,5.732902526855469,-0.7848931550979614,0.0013935294700786471,2.0120768547058105,5.623293626099386,-0.0,0.1680271178483963,-1.728375260029928,0.0,0.007646722253412008,0.6150202751159668,0.0,0.010137215256690979,0.9227006435394287,0.0,-0.007713343016803265
181.0,236.0,-7.3789,0.4534,7.1037,-0.0338,0.0374,-0.1103,-2.6205741367735804,0.00028942618519067764,5.763671875,-0.7848771214485168,0.001158136292360723,2.038924217224121,5.623281049519338,-0.0,0.15624183416366577,-1.7283676306353968,0.0,0.009239043109118938,0.6149804592132568,0.0,0.0012756066862493753,0.9227125644683838,0.0,-0.0069084083661437035
181.0,236.0,-7.3789,0.4534,7.1037,-0.0338,0.0374,-0.1103,-2.6205908260741175,0.0002426083810860291,5.756711483001709,-0.7848290205001831,0.0007055471069179475,2.032041549682617,5.623281049519338,-0.0,0.15040910243988037,-1.728363339100973,0.0,0.01059863530099392,0.614956259727478,0.0,0.011096145026385784,0.9227330088615417,0.0,-0.01822611875832081
181.0,236.0,-7.3789,0.4534,7.1037,-0.0338,0.0374,-0.1103,-2.620582719842428,0.00020882852550130337,5.723038196563721,-0.7848528623580933,0.0005067739402875304,2.046492099761963,5.6232449291046045,-0.0,0.13508135080337524,-1.7283833662616175,0.0,0.004281890578567982,0.6150044798851013,0.0,0.008443335071206093,0.9226842522621155,0.0,-0.010658408515155315
181.0,236.0,-7.3789,0.4534,7.1037,-0.0338,0.0374,-0.1103,-2.6205741367735804,0.00018330711463931948,5.747847557067871,-0.7849013805389404,0.0003954119747504592,2.026827812194824,5.623285281449117,-0.0,0.14650532603263855,-1.7283833662616175,0.0,0.011226571165025234,0.6149725914001465,0.0,0.0245798472315073,0.9227125644683838,0.0,-0.007539225742220879
181.0,236.0,-7.3789,0.4534,7.1037,-0.0338,0.0374,-0.1103,-2.6205464802184046,0.00016334479732904583,5.731050968170166,-0.7848005294799805,0.00028881619800813496,1.990990161895752,5.6233136532600305,-0.0,0.14725106954574585,-1.7283833662616175,0.0,0.0069305370561778545,0.6150366067886353,0.0,0.007198460400104523,0.9227288961410522,0.0,0.010696846060454845
181.0,236.0,-7.3789,0.4534,7.1037,-0.0338,0.0374,-0.1103,-2.620622774163717,0.00014263427874539047,5.725268363952637,-0.7848972082138062,0.00021783646661788225,1.9916353225708008,5.623293626099386,-0.0,0.14281708002090454,-1.728391472493307,0.0,0.005680783186107874,0.6149964332580566,0.0,0.017149275168776512,0.9226965308189392,0.0,0.02763763815164566
181.0,236.0,-7.3789,0.4534,7.1037,-0.0338,0.0374,-0.1103,-2.6205951176085414,0.00013024879444856197,5.739769458770752,-0.7848848700523376,0.00019021112530026585,2.020772933959961,5.623244988709249,-0.0,0.14425140619277954,-1.728363339100973,0.0,-0.0023640855215489864,0.6149522066116333,0.0,0.0035425787791609764,0.9226883053779602,6.117782322689891e-05,-0.011199633590877056
181.0,236.0,-7.3789,0.4534,7.1037,-0.0338,0.0374,-0.1103,-2.6205340824522914,0.00011984227603534237,5.762820243835449,-0.7848890423774719,0.00016880454495549202,2.015852689743042,5.62324087598876,-0.0,0.15004771947860718,-1.7283952871905726,0.0,0.011892801150679588,0.6150290966033936,0.0,-0.0088154012337327,0.9227206110954285,7.040314812911674e-05,0.014819630421698093
181.0,236.0,-7.3789,0.4534,7.1037,-0.0338,0.0374,-0.1103,-2.620542188683981,0.00011097590322606266,5.742062568664551,-0.7848894596099854,0.00015172871644608676,2.063688039779663,5.623269128590383,-0.0,0.1581571400165558,-1.7283514181720179,0.0,-0.0019075830932706594,0.6150004863739014,0.0,0.005391144193708897,0.9226961731910706,7.920012285467237e-05,-0.012934067286550999
181.0,236.0,-7.3789,0.4534,7.1037,-0.0338,0.0374,-0.1103,-2.6205584011473597,0.00010333099635317922,5.785715103149414,-0.7848652005195618,0.00016210690955631435,2.0236804485321045,5.623257207661428,-0.0,0.14788775146007538,-1.7284272352801722,0.0,0.002120118821039796,0.6149844527244568,0.0,0.006229101680219173,0.9227769374847412,0.0004634301585610956,-0.03467273339629173
181.0,236.0,-7.3789,0.4534,7.1037,-0.0338,0.0374,-0.1103,-2.620566507379049,9.66716033872217e-05,5.773459434509277,-0.7849211096763611,0.0001514375035185367,2.070970296859741,5.62322490194396,-0.0,0.1552547663450241,-1.728403393422262,0.0,0.0034014680422842503,0.6150127649307251,0.0,0.0015556528232991695,0.9227403402328491,0.0010946671245619655,-0.0374409519135952
181.0,236.0,-7.3789,0.4534,7.1037,-0.0338,0.0374,-0.1103,-2.620622774163717,9.081856842385605e-05,5.7794084548950195,-0.7848812341690063,0.00013968533312436193,1.9872419834136963,5.623209225922384,-0.0,0.1664140224456787,-1.7283909956561487,-6.88953321059671e-07,-0.004726343788206577,0.6149122714996338,0.0,-0.0032459544017910957,0.9227604866027832,0.0014921692200005054,0.011794490739703178
178.0,237.0,-7.4046,0.67,7.1749,-0.0376,0.0444,-0.1206,-2.6205622158446253,8.563383744331077e-05,5.769130229949951,-0.7848528623580933,0.0001296259870287031,2.019277572631836,5.623273181706228,-0.0,0.14422912895679474,-1.728375260029928,-1.9177268106851386e-10,0.016217222437262535,0.6149882674217224,0.0,0.004048823844641447,0.9227645993232727,0.001830870984122157,0.02604888379573822
178.0,237.0,-7.4046,0.67,7.1749,-0.0376,0.0444,-0.1206,-2.6205784283080042,8.100913692032918e-05,5.74839448928833,-0.7848652005195618,0.00012091823009541258,2.0393688678741455,5.623257207661428,-0.0,0.13877516984939575,-1.728403393422262,-5.338063297595161e-14,0.004294966347515583,0.6150045990943909,0.0,-0.002444255631417036,0.9227964878082275,0.0025326248724013567,-0.028955865651369095
178.0,237.0,-7.4046,0.67,7.1749,-0.0376,0.0444,-0.1206,-2.6205622158446253,7.685844320803881e-05,5.716801643371582,-0.7848807573318481,0.00011330657434882596,2.0482699871063232,5.623229253083029,-0.0,0.14945772290229797,-1.7283514181720179,-1.4858696628488014e-17,0.00604783371090889,0.6149603128433228,0.0,0.0077870506793260574,0.922804594039917,0.003243688028305769,0.003758377395570278
178.0,237.0,-7.4046,0.67,7.1749,-0.0376,0.0444,-0.1206,-2.6205865345396937,7.31122272554785e-05,5.743022918701172,-0.7848083972930908,0.00014141800056677312,2.021000862121582,5.623221146851339,-0.0,0.14092092216014862,-1.728387180958883,-4.135972533011896e-21,-0.0009289917070418596,0.6149083375930786,0.0,0.0006226528203114867,0.9227923154830933,0.0038176155649125576,0.013268426060676575
178.0,237.0,-7.4046,0.67,7.1749,-0.0376,0.0444,-0.1206,-2.6205502949156703,6.971431866986677e-05,5.767943382263184,-0.7848083972930908,0.00013954623136669397,2.0594348907470703,5.623176920204916,-0.0,0.1539059430360794,-1.7283833662616175,-1.151263210649092e-24,0.007243086583912373,0.6149885654449463,0.0,0.0056544519029557705,0.922844409942627,0.0029071473982185125,0.016323989257216454
178.0,237.0,-7.4046,0.67,7.1749,-0.0376,0.0444,-0.1206,-2.620570798913473,7.994173211045563e-05,5.752679824829102,-0.7848413586616516,0.002660161815583706,2.0300211906433105,5.623245286732473,-0.0,0.1470680832862854,-1.7283676306353968,-3.2045827604501154e-28,-0.002133319852873683,0.6149723529815674,0.0,0.007810626644641161,0.9228081107139587,0.0018869776977226138,0.015634894371032715
178.0,237.0,-7.4046,0.67,7.1749,-0.0376,0.0444,-0.1206,-2.6205302677550257,7.440541958203539e-05,5.760381698608398,-0.7847606539726257,0.004925891291350126,2.019174814224243,5.623273181706228,-0.0,0.1406666338443756,-1.7283595244037073,-8.920073724258638e-32,0.007672015577554703,0.6149927377700806,0.0,0.006116945296525955,0.9228610396385193,0.0010339735308662057,0.01585056446492672
178.0,237.0,-7.4046,0.67,7.1749,-0.0376,0.0444,-0.1206,-2.6205350361266078,0.0017794657032936811,5.7654619216918945,-0.7847491502761841,0.007238743826746941,2.0671753883361816,5.623221146851339,-0.0,0.14706896245479584,-1.7283795515643519,-2.4829353596510473e-35,0.007449624594300985,0.6150004863739014,0.0,0.01724427193403244,0.9228086471557617,0.0007658413960598409,0.01799582503736019
178.0,237.0,-7.4046,0.67,7.1749,-0.0376,0.0444,-0.1206,-2.620462556878561,0.008746749721467495,5.7972259521484375,-0.78459233045578,0.0116090327501297,2.0947318077087402,5.623189019947805,-0.0,0.14052322506904602,-1.7283795515643519,-4.512615457649852e-40,0.007301653735339642,0.6150283813476562,0.0,0.001843408914282918,0.9228081703186035,0.00018275072216056287,0.04384271800518036
178.0,237.0,-7.4046,0.67,7.1749,-0.0376,0.0444,-0.1206,-2.620298048058981,0.01927967369556427,5.820198059082031,-0.7845323085784912,0.013743774965405464,2.088557004928589,5.623168337136068,-0.0,0.14944517612457275,-1.7283356825457972,-1.2611686178923354e-43,0.016995811834931374,0.6150127649307251,0.0,0.00926231499761343,0.9228406548500061,2.4404369469266385e-05,0.0509207658469677
178.0,237.0,-7.4046,0.67,7.1749,-0.0376,0.0444,-0.1206,-2.620242258111471,0.02164579927921295,5.800316333770752,-0.7844239473342896,0.013083524070680141,2.0278801918029785,5.623261260777273,-0.0,0.15387499332427979,-1.7283714453326624,-0.0,0.01952105574309826,0.61504065990448,0.0,-0.0026994377840310335,0.9228045344352722,5.893367738263322e-11,0.02865077741444111
178.0,237.0,-7.4046,0.67,7.1749,-0.0376,0.0444,-0.1206,-2.6201144657530726,0.019457982853055,5.8371477127075195,-0.7844005823135376,0.01180727407336235,2.0289463996887207,5.623184668808737,-0.0012550117680802941,0.15220433473587036,-1.728323761616842,-0.0,0.009862735867500305,0.6150005459785461,0.0,0.00471548130735755,0.9228129386901855,-0.001691868412308395,0.009741636924445629
178.0,237.0,-7.4046,0.67,7.1749,-0.0376,0.0444,-0.1206,-2.619958063165182,0.018366340547800064,5.7887420654296875,-0.784292459487915,0.010846021585166454,2.0068256855010986,5.623137223511495,-0.0049286214634776115,0.15239697694778442,-1.7283476034747522,-0.0,-0.00200120871886611,0.6149480938911438,0.0,0.0023803741205483675,0.9227444529533386,-0.0023385779932141304,-0.0248299241065979
178.0,237.0,-7.4046,0.67,7.1749,-0.0376,0.0444,-0.1206,-2.6198302708067835,0.02017248049378395,5.813547611236572,-0.784212052822113,0.011344484984874725,2.0419206619262695,5.623109268933096,-0.007655330002307892,0.1528608649969101,-1.7283514181720179,-0.0,0.006006064359098673,0.6149845123291016,0.0,0.0072520761750638485,0.9227567315101624,-0.0029298467561602592,0.019556744024157524
178.0,237.0,-7.4046,0.67,7.1749,-0.0376,0.0444,-0.1206,-2.619694849053854,0.025021877139806747,5.851224899291992,-0.7841483950614929,0.014674708247184753,2.0278687477111816,5.623001146107473,-0.008324147202074528,0.13648104667663574,-1.7282760779010218,-0.0,0.009450443089008331,0.6149603128433228,0.0,0.007942487485706806,0.922720730304718,-0.004584948532283306,0.00955970585346222
177.0,226.0,-7.4931,0.2506,7.3041,-0.0519,0.1185,-0.1407,-2.6194902859129847,0.02999546006321907,5.83620548248291,-0.7840850949287415,0.01854654774069786,2.018087863922119,5.622977185040273,-0.007012260612100363,0.14888395369052887,-1.7283676306353968,-0.0,0.006446107756346464,0.6150283813476562,0.0,0.005365878809243441,0.9225718975067139,-0.007163013331592083,0.01083948090672493
177.0,226.0,-7.4931,0.2506,7.3041,-0.0519,0.1185,-0.1407,-2.619298597375387,0.03392345458269119,5.878422737121582,-0.7839887738227844,0.022045506164431572,2.0515496730804443,5.622957455902853,-0.00470639206469059,0.1574803590774536,-1.7283676306353968,-0.0,-0.0032867956906557083,0.6150402426719666,0.0,0.012160098180174828,0.9225847125053406,-0.007491829339414835,-0.03666224703192711
177.0,226.0,-7.4931,0.2506,7.3041,-0.0519,0.1185,-0.1407,-2.619150777856344,0.03318709135055542,5.882293224334717,-0.7838286757469177,0.024182066321372986,2.036233425140381,5.62290500381545,-0.0028835947159677744,0.13306750357151031,-1.7283356825457972,-0.0,0.013110456056892872,0.6150004863739014,0.0,0.015584046021103859,0.9225646257400513,-0.0064652180299162865,-0.0008886884897947311
177.0,226.0,-7.4931,0.2506,7.3041,-0.0519,0.1185,-0.1407,-2.6189266643919886,0.03276057913899422,5.814759254455566,-0.7836728096008301,0.028339751064777374,2.061255693435669,5.622849213867941,-0.005019414704293013,0.14597010612487793,-1.7283080259906214,-0.0,0.015598367899656296,0.6149722933769226,0.0,0.010045042261481285,0.9224569201469421,-0.007966693490743637,-0.03456997871398926
177.0,226.0,-7.4931,0.2506,7.3041,-0.0519,0.1185,-0.1407,-2.6187507114806117,0.03171364963054657,5.869553565979004,-0.7835163474082947,0.030167100951075554,2.131704330444336,5.622873472958364,-0.0043631065636873245,0.14464259147644043,-1.7283199469195765,-0.0,0.004236494656652212,0.6149842739105225,0.0,-0.000858774408698082,0.9224614500999451,-0.009571553207933903,-0.11291661858558655
177.0,226.0,-7.4931,0.2506,7.3041,-0.0519,0.1185,-0.1407,-2.618486543694967,0.03278151527047157,5.892498016357422,-0.7832440137863159,0.035365957766771317,2.0929901599884033,5.622809099942007,-0.007530896924436092,0.12944412231445312,-1.7283476034747522,-0.0,0.015509221702814102,0.615044355392456,0.0,0.008451257832348347,0.9223447442054749,-0.011411013081669807,-0.035917602479457855
177.0,226.0,-7.4931,0.2506,7.3041,-0.0519,0.1185,-0.1407,-2.618354936639303,0.035389747470617294,5.880867958068848,-0.7830523252487183,0.040849268436431885,2.0918920040130615,5.6227698204811,-0.008023200556635857,0.13706262409687042,-1.7283437887774866,-0.0,0.026175010949373245,0.6150127649307251,0.0,0.008889840915799141,0.9222404360771179,-0.012596333399415016,-0.09552711993455887
177.0,226.0,-7.4931,0.2506,7.3041,-0.0519,0.1185,-0.1407,-2.6179825268187464,0.04141586646437645,5.926196098327637,-0.7826675176620483,0.047540560364723206,2.1439287662506104,5.622721123486318,-0.005303798243403435,0.12546581029891968,-1.7283437887774866,-0.0,0.016033796593546867,0.6150087118148804,1.8944588191516232e-06,0.013546815142035484,0.9221888184547424,-0.013314447365701199,-0.13708746433258057
177.0,226.0,-7.4931,0.2506,7.3041,-0.0519,0.1185,-0.1407,-2.6178113422789515,0.04627605527639389,6.028438568115234,-0.782352089881897,0.05138884484767914,2.1321678161621094,5.622741746693411,-0.0023899939842522144,0.12747123837471008,-1.7282879988299769,-0.0,0.020179452374577522,0.6149645447731018,5.273295689001145e-10,0.004700673744082451,0.9220648407936096,-0.01275740284472704,-0.17380434274673462
177.0,226.0,-7.4931,0.2506,7.3041,-0.0519,0.1185,-0.1407,-2.6175509891905726,0.044818539172410965,5.9665985107421875,-0.782051682472229,0.05416063219308853,2.1317358016967773,5.622729825764456,-0.001365149044431746,0.1390485018491745,-1.7283156553851526,9.210094140144065e-05,0.025669168680906296,0.6149439811706543,1.467841283632823e-13,-0.0005761883221566677,0.9220173358917236,-0.011519167572259903,-0.15336138010025024
177.0,226.0,-7.4931,0.2506,7.3041,-0.0519,0.1185,-0.1407,-2.6172715626158656,0.04456751421093941,5.964998245239258,-0.7817878723144531,0.05680323764681816,2.1852188110351562,5.622689950257101,-0.0008418272482231259,0.12417986989021301,-1.7283356825457972,0.0001259360578842461,0.041183944791555405,0.6149963736534119,4.085790476023206e-17,0.007760168053209782,0.9219932556152344,-0.010113573633134365,-0.17115113139152527
177.0,226.0,-7.4931,0.2506,7.3041,-0.0519,0.1185,-0.1407,-2.6169711552061976,0.044027309864759445,5.94378137588501,-0.7813385128974915,0.061274945735931396,2.1716277599334717,5.622714328556814,-0.0018810543697327375,0.13679902255535126,-1.7282798925982874,0.00013744542957283556,0.031130485236644745,0.6150168180465698,1.1372948247257059e-20,0.011128528043627739,0.921885073184967,-0.008235098794102669,-0.12231782078742981
177.0,226.0,-7.4931,0.2506,7.3041,-0.0519,0.1185,-0.1407,-2.616747041741842,0.04596647992730141,5.997962474822998,-0.7810197472572327,0.06647882610559464,2.190720319747925,5.622621881752767,-0.0034240614622831345,0.11699648946523666,-1.7283037344561976,0.00014859998191241175,0.04334321990609169,0.6150005459785461,3.1657019680955413e-24,0.011265338398516178,0.9218932390213013,-0.008125490508973598,-0.14031371474266052
177.0,226.0,-7.4931,0.2506,7.3041,-0.0519,0.1185,-0.1407,-2.6164351902403773,0.050633132457733154,5.979898452758789,-0.7806106209754944,0.06963197141885757,2.1459362506866455,5.622598397522726,-0.005291499197483063,0.12234433740377426,-1.7283318678485315,0.0003625185927376151,0.03775308281183243,0.6150322556495667,8.811848830405833e-28,0.015283474698662758,0.9218776822090149,-0.006896321661770344,-0.2271033078432083
177.0,226.0,-7.4931,0.2506,7.3041,-0.0519,0.1185,-0.1407,-2.616171499291891,0.05624283105134964,6.060797691345215,-0.780146598815918,0.0724572092294693,2.2131052017211914,5.622594642430105,-0.007323742378503084,0.11347799003124237,-1.7282918135272425,0.0003506498469505459,0.03995310142636299,0.6150004863739014,2.452810727609412e-31,0.013069563545286655,0.921837568283081,-0.005329892039299011,-0.2193378210067749
173.0,192.0,-7.3017,0.3954,6.8345,-0.0554,0.1171,-0.1339,-2.6158510647215785,0.05996479466557503,6.021198272705078,-0.7797626852989197,0.07204227894544601,2.230936050415039,5.622514414578237,-0.010229839012026787,0.10738620162010193,-1.7283080259906214,0.0003420296707190573,0.036401309072971344,0.6150362491607666,0.0001743225584505126,0.01546684093773365,0.9218055605888367,-0.002899190178140998,-0.21061372756958008
173.0,192.0,-7.3017,0.3954,6.8345,-0.0554,0.1171,-0.1339,-2.615467687646383,0.061603277921676636,5.99530029296875,-0.7792948484420776,0.07051429897546768,2.1880035400390625,5.622450637608328,-0.013601173646748066,0.11112379282712936,-1.7283156553851526,0.00032550658215768635,0.03393302857875824,0.6149883270263672,0.00016588963626418263,0.018203720450401306,0.9218457341194153,-0.0012362285051494837,-0.26516059041023254
173.0,192.0,-7.3017,0.3954,6.8345,-0.0554,0.1171,-0.1339,-2.6150833568968714,0.061616722494363785,6.053526878356934,-0.7788701057434082,0.06933742016553879,2.1980974674224854,5.622358786850729,-0.01583036407828331,0.09940230846405029,-1.7282641569720667,0.0002951200003735721,0.04005977883934975,0.6150121092796326,0.00017922703409567475,0.009080762974917889,0.921825647354126,-0.0006768618477508426,-0.2442965805530548
173.0,192.0,-7.3017,0.3954,6.8345,-0.0554,0.1171,-0.1339,-2.614740034142965,0.05916484072804451,6.063920974731445,-0.7784629464149475,0.07091730833053589,2.2005577087402344,5.622250783234396,-0.0167845468968153,0.10393930971622467,-1.7282560507403772,0.00026190251810476184,0.042378783226013184,0.6150603890419006,0.00016301029245369136,-0.006711142137646675,0.921833872795105,-0.0004662764258682728,-0.21858572959899902
173.0,192.0,-7.3017,0.3954,6.8345,-0.0554,0.1171,-0.1339,-2.6144000492491664,0.05758776515722275,6.071718692779541,-0.777974009513855,0.07438957691192627,2.2340171337127686,5.622154938965597,-0.016267990693449974,0.10277575254440308,-1.7282522360431116,0.00022332226217258722,0.05994896590709686,0.6150085926055908,0.00014947273302823305,0.004456037655472755,0.9218215346336365,-0.00035566979204304516,-0.20761778950691223
173.0,192.0,-7.3017,0.3954,6.8345,-0.0554,0.1171,-0.1339,-2.614040037194723,0.056907057762145996,6.021047592163086,-0.7775617837905884,0.07923208177089691,2.262436866760254,5.622063147812643,-0.014789427630603313,0.08362392336130142,-1.7282879988299769,0.00019437572336755693,0.05172678828239441,0.6150202751159668,0.00016100623179227114,-0.002989327535033226,0.9218617677688599,-0.0002874874626286328,-0.23359845578670502
173.0,192.0,-7.3017,0.3954,6.8345,-0.0554,0.1171,-0.1339,-2.613688131371969,0.05797327682375908,6.08018684387207,-0.7770297527313232,0.08441373705863953,2.228879451751709,5.621938991337576,-0.013703363947570324,0.07778127491474152,-1.7283557097064417,0.00020632919040508568,0.057442523539066315,0.6150402426719666,0.00014954635116737336,0.010143923573195934,0.9218540191650391,-0.0001987366413231939,-0.25317689776420593
173.0,192.0,-7.3017,0.3954,6.8345,-0.0554,0.1171,-0.1339,-2.6132570705809535,0.05642998591065407,6.089051246643066,-0.776301383972168,0.09407296776771545,2.3098807334899902,5.6218352792556665,-0.014740200713276863,0.07587073743343353,-1.7282560507403772,0.00017909145390149206,0.05123548209667206,0.6150444149971008,0.00013657774252351373,0.013782784342765808,0.9218453168869019,-0.00011937769158976153,-0.1839161217212677
173.0,192.0,-7.3017,0.3954,6.8345,-0.0554,0.1171,-0.1339,-2.6129685841002406,0.05206001549959183,6.1192121505737305,-0.7757328152656555,0.10028290748596191,2.3703432083129883,5.621723401337423,-0.01793927326798439,0.08157582581043243,-1.728323761616842,0.00018996800645254552,0.060142479836940765,0.6150362491607666,0.0001282371231354773,0.013381398282945156,0.9218174815177917,0.00011051640467485413,-0.1835837960243225
173.0,192.0,-7.3017,0.3954,6.8345,-0.0554,0.1171,-0.1339,-2.612636228600973,0.04617029055953026,6.118117332458496,-0.775084912776947,0.10460516810417175,2.3109793663024902,5.621627914696493,-0.02452007681131363,0.0697045847773552,-1.7282879988299769,0.00017426036356482655,0.05992097407579422,0.6149922609329224,0.00012085670459782705,0.0008083570282906294,0.9218694567680359,0.00016956291801761836,-0.23110157251358032
173.0,192.0,-7.3017,0.3954,6.8345,-0.0554,0.1171,-0.1339,-2.612420698205465,0.04106491059064865,6.114696502685547,-0.7744122743606567,0.10747504234313965,2.3164796829223633,5.62142031171874,-0.033766377717256546,0.060234665870666504,-1.7282760779010218,0.00018311027088202536,0.04610757529735565,0.6149562001228333,0.00011427963909227401,0.007080020383000374,0.92188960313797,0.0008431438473053277,-0.2700381875038147
173.0,192.0,-7.3017,0.3954,6.8345,-0.0554,0.1171,-0.1339,-2.6121608219542445,0.039604101330041885,6.066323757171631,-0.7738326191902161,0.10898429900407791,2.318136215209961,5.621192502766409,-0.04600399732589722,0.055954016745090485,-1.7282522360431116,0.00017080559337045997,0.052757248282432556,0.6149842143058777,0.00010838159505510703,0.0030143107287585735,0.9218695163726807,0.0009262128151021898,-0.24730929732322693
173.0,192.0,-7.3017,0.3954,6.8345,-0.0554,0.1171,-0.1339,-2.611924787560934,0.0408603735268116,6.1419172286987305,-0.7731360793113708,0.11500044167041779,2.3381521701812744,5.620896506100454,-0.062019772827625275,0.03915775567293167,-1.7282722632037562,0.00015960473683662713,0.06968942284584045,0.6150239109992981,0.00010306235344614834,0.0059885866940021515,0.9218534827232361,0.0008121732389554381,-0.221441850066185
173.0,192.0,-7.3017,0.3954,6.8345,-0.0554,0.1171,-0.1339,-2.6117006740965785,0.04216495528817177,6.171497821807861,-0.7723590731620789,0.12354104965925217,2.3489439487457275,5.620440709381857,-0.08930661529302597,0.03062571957707405,-1.728243652974264,0.00014261354226619005,0.054893940687179565,0.6149882674217224,9.824095468502492e-05,0.004417954012751579,0.9218895435333252,0.0006091991090215743,-0.2713909149169922
146.0,174.0,-8.2899,0.0664,6.1693,-0.0492,-0.0767,-0.1136,-2.6114732227721156,0.0399879515171051,6.144893169403076,-0.7716877460479736,0.13024534285068512,2.3773107528686523,5.619773793011465,-0.12075667083263397,0.02801559492945671,-1.7282722632037562,0.00013023005158174783,0.058259136974811554,0.6150522828102112,9.385045268572867e-05,0.00995558500289917,0.9218654036521912,0.0004858421452809125,-0.2576892375946045
146.0,174.0,-8.2899,0.0664,6.1693,-0.0492,-0.0767,-0.1136,-2.6113010845580042,0.03298867493867874,6.109829902648926,-0.7708553075790405,0.13666130602359772,2.3690848350524902,5.618942963867941,-0.14490309357643127,0.00446282560005784,-1.7282641569720667,0.0001198260288219899,0.04903457313776016,0.6150004863739014,8.983557199826464e-05,0.005854061804711819,0.9218932390213013,0.00038126984145492315,-0.27057647705078125
146.0,174.0,-8.2899,0.0664,6.1693,-0.0492,-0.0767,-0.1136,-2.6111494503416957,0.025329304859042168,6.064916610717773,-0.7699664831161499,0.13634072244167328,2.3633196353912354,5.618028628617086,-0.15689121186733246,-0.0017590229399502277,-1.7282879988299769,0.00011096139496657997,0.062338687479496,0.6149964332580566,8.615013939561322e-05,0.013964405283331871,0.9218648672103882,0.00037312565837055445,-0.3047642111778259
146.0,174.0,-8.2899,0.0664,6.1693,-0.0492,-0.0767,-0.1136,-2.6109653911986292,0.020606113597750664,6.032704830169678,-0.7691704630851746,0.13370339572429657,2.3883960247039795,5.616973745613851,-0.19405773282051086,-0.00690473522990942,-1.7282918135272425,0.00010331813246011734,0.04963036999106407,0.6150127649307251,8.27551557449624e-05,-0.007151391357183456,0.9218891859054565,0.00036213474231772125,-0.27245333790779114
146.0,174.0,-8.2899,0.0664,6.1693,-0.0492,-0.0767,-0.1136,-2.610861917535299,0.020001349970698357,6.058139801025391,-0.7683985233306885,0.13139672577381134,2.4029386043548584,5.615607666760244,-0.23241542279720306,-0.029945779591798782,-1.7282679716693323,0.00011345402162987739,0.053517941385507584,0.6150482296943665,7.96176609583199e-05,-0.008099931292235851,0.921913743019104,0.00040391870425082743,-0.2256108820438385
146.0,174.0,-8.2899,0.0664,6.1693,-0.0492,-0.0767,-0.1136,-2.6107379398741664,0.024657363072037697,6.05344295501709,-0.7675619125366211,0.135049968957901,2.390997886657715,5.614190804749288,-0.24726396799087524,-0.019794175401329994,-1.7282398382769983,0.00010896918684011325,0.06796188652515411,0.6150168180465698,7.670933700865135e-05,0.003009301843121648,0.921901524066925,0.00031854870030656457,-0.27937746047973633
146.0,174.0,-8.2899,0.0664,6.1693,-0.0492,-0.0767,-0.1136,-2.6105252705016078,0.02651301398873329,6.0872297286987305,-0.766721785068512,0.14402206242084503,2.394620895385742,5.612564611225881,-0.28225281834602356,-0.048276886343955994,-1.7282760779010218,0.00010274937085341662,0.052979759871959686,0.6150202751159668,7.400606409646571e-05,0.00512709841132164,0.9219256043434143,0.0002627408830448985,-0.26985087990760803
146.0,174.0,-8.2899,0.0664,6.1693,-0.0492,-0.0767,-0.1136,-2.610417505303854,0.023694822564721107,6.049799919128418,-0.7658447623252869,0.1490628719329834,2.3628034591674805,5.610671448498525,-0.30562350153923035,-0.061095476150512695,-1.7282560507403772,9.720083471620455e-05,0.05530723184347153,0.615008533000946,7.148682198021561e-05,-0.0018852754728868604,0.921881377696991,0.0002680712495930493,-0.2487802803516388
146.0,174.0,-8.2899,0.0664,6.1693,-0.0492,-0.0767,-0.1136,-2.610325952569479,0.011285544373095036,6.0412983894348145,-0.7646852135658264,0.15046724677085876,2.412760019302368,5.6078951237495325,-0.3714640438556671,-0.07601655274629593,-1.7282841841327112,9.067227802006528e-05,0.05740908533334732,0.6149759888648987,1.159780708803737e-06,0.0046845958568155766,0.921905517578125,0.00022380762675311416,-0.29894959926605225
146.0,174.0,-8.2899,0.0664,6.1693,-0.0492,-0.0767,-0.1136,-2.6102658710875453,0.0031301146373152733,5.926977634429932,-0.7637972831726074,0.14666540920734406,2.401589870452881,5.605447280197897,-0.4138779640197754,-0.10769233852624893,-1.7282798925982874,9.883016173262149e-05,0.07526673376560211,0.6150085926055908,3.228291800549954e-10,0.002713700057938695,0.9219415783882141,0.00023223024618346244,-0.1982177048921585
146.0,174.0,-8.2899,0.0664,6.1693,-0.0492,-0.0767,-0.1136,-2.610269685784811,0.0012706959387287498,5.971893310546875,-0.7628565430641174,0.14548440277576447,2.375182867050171,5.602967786579885,-0.4442746043205261,-0.11501095443964005,-1.7282279173480433,0.00010629546159179881,0.07043837010860443,0.6149922609329224,8.986069538214486e-14,0.0008173338137567043,0.9219095706939697,0.0002091064234264195,-0.287153422832489
146.0,174.0,-8.2899,0.0664,6.1693,-0.0492,-0.0767,-0.1136,-2.610197683373922,0.0031217148061841726,5.990986347198486,-0.7619560360908508,0.15143105387687683,2.400374412536621,5.60019992569045,-0.47228971123695374,-0.1185702383518219,-1.7282360235797327,0.00011267378431512043,0.07112109661102295,0.6150045990943909,2.5013056640348125e-17,0.016994044184684753,0.921913743019104,7.737544365227222e-05,-0.30284494161605835
146.0,174.0,-8.2899,0.0664,6.1693,-0.0492,-0.0767,-0.1136,-2.610197683373922,0.005147406831383705,6.007022857666016,-0.7610965371131897,0.1594536304473877,2.4051451683044434,5.597284483700552,-0.5070658326148987,-0.12481853365898132,-1.7281721274005335,0.00014565372839570045,0.07219588756561279,0.615028440952301,6.962476958880434e-21,-0.00018729956354945898,0.9218732118606567,4.046504272992024e-06,-0.3843733072280884
146.0,174.0,-8.2899,0.0664,6.1693,-0.0492,-0.0767,-0.1136,-2.6102096043028773,0.0028174552135169506,6.015622615814209,-0.7600997686386108,0.16868112981319427,2.3656373023986816,5.594070184021749,-0.5438255667686462,-0.13277745246887207,-1.7282198111163538,0.0005654598353430629,0.06821434199810028,0.6150525808334351,1.938031070673326e-24,0.006532703991979361,0.9218735694885254,9.771830913885005e-12,-0.383833110332489
146.0,174.0,-8.2899,0.0664,6.1693,-0.0492,-0.0767,-0.1136,-2.6102262936034144,7.799960440024734e-05,5.981648921966553,-0.7590270042419434,0.17376494407653809,2.4164958000183105,5.590678739338674,-0.5696256160736084,-0.15196573734283447,-1.7281797567950647,0.0006649901624768972,0.07731728255748749,0.6150045990943909,5.394580811372174e-28,0.010710974223911762,0.9218814373016357,2.3597825058525025e-17,-0.3763391971588135
144.0,177.0,-7.614,0.9242,6.6526,0.0434,-0.5108,-0.0472,-2.6102100811400355,1.8835988324639175e-10,6.0187530517578125,-0.7580111622810364,0.1663585752248764,2.4480953216552734,5.587257194309988,-0.5972405672073364,-0.12285628914833069,-1.7282317320453089,0.0007751351222395897,0.06882930546998978,0.6150085926055908,1.5016014042206275e-31,-0.00741956103593111,0.9219096899032593,-0.001289732288569212,-0.4115023612976074
144.0,177.0,-7.614,0.9242,6.6526,0.0434,-0.5108,-0.0472,-2.6102620563902796,4.548670158896039e-16,5.964434623718262,-0.7570063471794128,0.16185230016708374,2.381082057952881,5.58362357595519,-0.6164830923080444,-0.13173170387744904,-1.7282121817218226,0.0009229577844962478,0.0852142795920372,0.6150127649307251,4.1797631769785723e-35,0.0008617069106549025,0.9218531847000122,-0.0016360526205971837,-0.44896501302719116
144.0,177.0,-7.614,0.9242,6.6526,0.0434,-0.5108,-0.0472,-2.610310216943258,-0.0007408346864394844,5.958438873291016,-0.7560703158378601,0.1596328765153885,2.3736255168914795,5.579789924412527,-0.6320075988769531,-0.12190375477075577,-1.728204075490133,0.001672379206866026,0.09070838987827301,0.6149882674217224,1.1634524325989586e-38,-0.009217767976224422,0.9218292832374573,-0.002392480382695794,-0.4556381106376648
144.0,177.0,-7.614,0.9242,6.6526,0.0434,-0.5108,-0.0472,-2.610269685784811,-0.0005144104361534119,5.970811367034912,-0.7551184296607971,0.15812039375305176,2.40848708152771,5.575916218548574,-0.6519677042961121,-0.11649973690509796,-1.7281759420977991,0.005350676365196705,0.08026213943958282,0.614956259727478,3.238400751054652e-42,0.010293900035321712,0.921833336353302,-0.0026161535643041134,-0.45938020944595337
144.0,177.0,-7.614,0.9242,6.6526,0.0434,-0.5108,-0.0472,-2.6102620563902796,-0.00038299820153042674,5.994499206542969,-0.7541171312332153,0.16070713102817535,2.4438652992248535,5.571914660721578,-0.6687679290771484,-0.12756627798080444,-1.7280924955951136,0.02416251040995121,0.0933813750743866,0.6149882674217224,1.401298464324817e-45,0.005119203589856625,0.9218215346336365,-0.002502791117876768,-0.4826853275299072
144.0,177.0,-7.614,0.9242,6.6526,0.0434,-0.5108,-0.0472,-2.6102940044798792,-0.0002440662356093526,5.983598709106445,-0.7532416582107544,0.15783976018428802,2.402054786682129,5.567894506245413,-0.6823605298995972,-0.1359683871269226,-1.7279451529132288,0.022472480311989784,0.09839297831058502,0.6150321960449219,0.0,-0.00960239302366972,0.9218094944953918,-0.002421713201329112,-0.5172252058982849
144.0,177.0,-7.614,0.9242,6.6526,0.0434,-0.5108,-0.0472,-2.6102458439269007,-0.0001521364611107856,6.013485431671143,-0.7522809505462646,0.157617449760437,2.407867431640625,5.563789295941152,-0.690376341342926,-0.12655703723430634,-1.727833096181051,0.01148192211985588,0.09299430251121521,0.6150407195091248,0.0,0.002607305534183979,0.9217938780784607,-0.0025727064348757267,-0.5500335693359375
144.0,177.0,-7.614,0.9242,6.6526,0.0434,-0.5108,-0.0472,-2.610258241693014,0.0001710834912955761,5.979311943054199,-0.7512804865837097,0.1579255312681198,2.3702752590179443,5.559564578324117,-0.6963484287261963,-0.10814566165208817,-1.7277897039996546,0.0013735642423853278,0.08431266993284225,0.6150402426719666,0.0,0.013356886804103851,0.9217938780784607,-0.003252458991482854,-0.4902241826057434
144.0,177.0,-7.614,0.9242,6.6526,0.0434,-0.5108,-0.0472,-2.6102377376952113,0.00013801651948597282,5.96861457824707,-0.7500325441360474,0.16373519599437714,2.412600517272949,5.554025816708364,-0.6964132189750671,-0.14333370327949524,-1.727837387715475,-0.001234597060829401,0.09345898032188416,0.614919900894165,0.0,0.008773171342909336,0.9217536449432373,-0.003887896193191409,-0.5332561731338501
144.0,177.0,-7.614,0.9242,6.6526,0.0434,-0.5108,-0.0472,-2.610302587548727,0.00011966390593443066,6.008031845092773,-0.7489555478096008,0.16956472396850586,2.408402442932129,5.549947368889608,-0.6884528398513794,-0.12326721101999283,-1.7277897039996546,-0.00016012706328183413,0.08967513591051102,0.6150444149971008,0.0,0.0064357793889939785,0.9217698574066162,-0.0042394367046654224,-0.5713145136833191
144.0,177.0,-7.614,0.9242,6.6526,0.0434,-0.5108,-0.0472,-2.6102458439269007,8.251176041085273e-05,6.040313720703125,-0.7480398416519165,0.168816477060318,2.4401557445526123,5.545816707402029,-0.684082567691803,-0.11603090167045593,-1.7278416792498987,-0.00011167883349116892,0.09067264199256897,0.6150444149971008,0.0,-0.007240759674459696,0.9217252731323242,-0.004214421845972538,-0.5467164516448975
144.0,177.0,-7.614,0.9242,6.6526,0.0434,-0.5108,-0.0472,-2.6102458439269007,6.301767280092463e-05,5.972199440002441,-0.7469475269317627,0.1714831441640854,2.4309661388397217,5.5417478559310815,-0.6706461310386658,-0.11424461752176285,-1.7278855482684534,-7.724227180005983e-05,0.09780881553888321,0.6150085926055908,0.0,-0.008015990257263184,0.9217215180397034,-0.004627950955182314,-0.6051124930381775
144.0,177.0,-7.614,0.9242,6.6526,0.0434,-0.5108,-0.0472,-2.610282083550924,2.8514576115412638e-05,6.028655052185059,-0.7459027171134949,0.17238271236419678,2.4944512844085693,5.537742960243978,-0.6570912599563599,-0.11170829832553864,-1.7278416792498987,-6.141472113085911e-05,0.09425969421863556,0.6150045990943909,1.1624038620539068e-08,-0.0017975815571844578,0.9217182397842407,-0.004788433667272329,-0.65531325340271
144.0,177.0,-7.614,0.9242,6.6526,0.0434,-0.5108,-0.0472,-2.6103340588011683,1.706026875325506e-09,5.99420166015625,-0.744841992855072,0.171535924077034,2.4186506271362305,5.533952998905935,-0.6435877680778503,-0.11570711433887482,-1.7278454939471644,-5.097395114717074e-05,0.08224480599164963,0.6150087714195251,3.2355938674871743e-12,-0.012007959187030792,0.9216371178627014,-0.004992261528968811,-0.6134316325187683
144.0,177.0,-7.614,0.9242,6.6526,0.0434,-0.5108,-0.0472,-2.6103464565672816,4.119854329513511e-15,6.029873847961426,-0.7438183426856995,0.1705225259065628,2.4354515075683594,5.530055510788717,-0.6254300475120544,-0.1266409307718277,-1.727837387715475,-8.703151979716495e-05,0.07854792475700378,0.6150085926055908,9.006394390245385e-16,-0.010306289419531822,0.9216539263725281,-0.004797725938260555,-0.5681487321853638
138.0,207.0,-5.2187,0.8584,7.1904,0.0397,-0.345,-0.0687,-2.6103297672667445,9.948964092889124e-21,6.037128448486328,-0.7427735328674316,0.16452032327651978,2.4019935131073,5.526468026428976,-0.6065179109573364,-0.11750882863998413,-1.7278097311602991,-7.60844923206605e-05,0.09272174537181854,0.6150086522102356,2.506963165834369e-19,-0.007882553152740002,0.921621561050415,-0.004474620334804058,-0.6196660995483398
138.0,207.0,-5.2187,0.8584,7.1904,0.0397,-0.345,-0.0687,-2.6102777920165003,2.4025578544290246e-26,6.0147809982299805,-0.7417769432067871,0.1645973175764084,2.37367582321167,5.523055124073782,-0.5820827484130859,-0.11804508417844772,-1.7278335730182093,-6.75207338645123e-05,0.07657262682914734,0.6150525808334351,6.978224440084171e-23,-0.02512243390083313,0.9215856194496155,-0.003671139245852828,-0.6213399767875671
138.0,207.0,-5.2187,0.8584,7.1904,0.0397,-0.345,-0.0687,-2.610269685784811,5.801894520319669e-32,5.980471134185791,-0.7408170700073242,0.16639015078544617,2.462932586669922,5.519717979222097,-0.5568746328353882,-0.10899098217487335,-1.7277739683734339,-6.0689977544825524e-05,0.08144085109233856,0.6149246692657471,1.9424145180416306e-26,-0.00377000798471272,0.9215694069862366,-0.003146118950098753,-0.5487135648727417
138.0,207.0,-5.2187,0.8584,7.1904,0.0397,-0.345,-0.0687,-2.610297819177145,1.4010891663861855e-37,5.97108268737793,-0.7398049235343933,0.1676531434059143,2.3838863372802734,5.5165002820785425,-0.5219681859016418,-0.10833106935024261,-1.72784930864443,-5.511452764039859e-05,0.07402176409959793,0.6150045990943909,5.406782751183427e-30,-0.021573694422841072,0.9215293526649475,-0.0023502351250499487,-0.5292425751686096
138.0,207.0,-5.2187,0.8584,7.1904,0.0397,-0.345,-0.0687,-2.6103059254088343,3.377129299022809e-43,5.964301109313965,-0.7387608885765076,0.1690341830253601,2.4344875812530518,5.513478386193075,-0.49700912833213806,-0.10059787333011627,-1.727861229573385,-5.047739250585437e-05,0.08158566057682037,0.6149804592132568,1.5049977233142599e-33,-0.0013168067671358585,0.9215214848518372,-0.0018675557803362608,-0.5151201486587524
138.0,207.0,-5.2187,0.8584,7.1904,0.0397,-0.345,-0.0687,-2.6102777920165003,0.0,6.019289016723633,-0.7377596497535706,0.16439011693000793,2.4102468490600586,5.510646152287283,-0.46377140283584595,-0.07995063066482544,-1.7278016249286097,-4.65601151518058e-05,0.06949543952941895,0.6150045990943909,4.189216511300956e-37,-0.021003350615501404,0.9215497970581055,-0.0012985412031412125,-0.5551159381866455
138.0,207.0,-5.2187,0.8584,7.1904,0.0397,-0.345,-0.0687,-2.6103183231749476,0.0,6.010068893432617,-0.7367760539054871,0.16253435611724854,2.42087459564209,5.507977592736044,-0.4261711835861206,-0.07417741417884827,-1.7278135458575647,-4.320705193094909e-05,0.08579942584037781,0.6150168180465698,1.1660905170878965e-40,-0.010738599114120007,0.9215297698974609,-0.0010534912580624223,-0.5702232718467712
138.0,207.0,-5.2187,0.8584,7.1904,0.0397,-0.345,-0.0687,-2.6103297672667445,0.0,6.042620658874512,-0.735543429851532,0.16571053862571716,2.443774700164795,5.504820513516226,-0.3809056878089905,-0.051869649440050125,-1.7278178373919886,-3.9421785913873464e-05,0.07828408479690552,0.6150045990943909,2.802596928649634e-45,-0.01753867417573929,0.9215214848518372,-0.0009622100042179227,-0.5497103929519653
138.0,207.0,-5.2187,0.8584,7.1904,0.0397,-0.345,-0.0687,-2.610321661035055,0.0,5.99384880065918,-0.7344909310340881,0.16755899786949158,2.4217538833618164,5.502735721855917,-0.33829331398010254,-0.045109521597623825,-1.727861229573385,-3.699124863487668e-05,0.07497237622737885,0.6149722337722778,0.0,-0.007632937282323837,0.9214854836463928,-0.000760952359996736,-0.5968351364135742
138.0,207.0,-5.2187,0.8584,7.1904,0.0397,-0.345,-0.0687,-2.6103297672667445,0.0,5.97265625,-0.7335025668144226,0.16622775793075562,2.4295198917388916,5.500839817314901,-0.2913098931312561,-0.017395759001374245,-1.72784930864443,-3.4843051253119484e-05,0.06977449357509613,0.6150285005569458,0.0,-0.006770852021872997,0.9215580224990845,-0.0006383644067682326,-0.6110377311706543
138.0,207.0,-5.2187,0.8584,7.1904,0.0397,-0.345,-0.0687,-2.6103021107115687,-0.0005094789084978402,5.983270645141602,-0.7325826287269592,0.16020183265209198,2.4176995754241943,5.499219882279196,-0.26080310344696045,0.004588385112583637,-1.7278335730182093,-3.293065674370155e-05,0.07708115130662918,0.6149803996086121,0.0,-0.02016209065914154,0.921562135219574,-0.0005270364927127957,-0.5603702664375305
138.0,207.0,-5.2187,0.8584,7.1904,0.0397,-0.345,-0.0687,-2.6103421650328578,-0.0011251122923567891,5.978277206420898,-0.7316626310348511,0.15307243168354034,2.405360221862793,5.497712480812826,-0.2131103277206421,0.015092786401510239,-1.7277777830706995,-3.1217299692798406e-05,0.07681465148925781,0.6149644255638123,0.0,-0.011011505499482155,0.9215056300163269,-0.0005428942386060953,-0.5474013090133667
138.0,207.0,-5.2187,0.8584,7.1904,0.0397,-0.345,-0.0687,-2.6103421650328578,-0.0006920290179550648,5.984340667724609,-0.7308109998703003,0.15120351314544678,2.4000673294067383,5.49669103601531,-0.1646532118320465,0.049346305429935455,-1.7278617064105433,-2.9673408789676614e-05,0.07406887412071228,0.6149968504905701,0.0,-0.014649378135800362,0.9215097427368164,-0.0005084803560748696,-0.6150320768356323
138.0,207.0,-5.2187,0.8584,7.1904,0.0397,-0.345,-0.0687,-2.6103021107115687,-0.0004997705691494048,5.96380615234375,-0.7298581004142761,0.1515551060438156,2.3871264457702637,5.495788025646963,-0.13899832963943481,0.06263568252325058,-1.727861229573385,-2.8275040676817298e-05,0.07339208573102951,0.6149845123291016,0.0,0.0013642797712236643,0.9215137958526611,-0.00037970865378156304,-0.5341331362724304
138.0,207.0,-5.2187,0.8584,7.1904,0.0397,-0.345,-0.0687,-2.6103421650328578,-0.00032594642834737897,6.00755500793457,-0.7289339900016785,0.15756015479564667,2.3748443126678467,5.495077121048727,-0.10863156616687775,0.07823751866817474,-1.7278254667865198,-2.7002550268662162e-05,0.07861687988042831,0.6149399876594543,0.0,-0.009741337969899178,0.9214974045753479,-0.0003029892686754465,-0.5311232209205627
126.0,196.0,-6.7352,0.5031,7.069,-0.0796,0.299,-0.1396,-2.6103340588011683,-0.0002677523298189044,6.008335113525391,-0.7280211448669434,0.15801289677619934,2.4353151321411133,5.494585859566488,-0.07011806219816208,0.09242525696754456,-1.727837387715475,-2.583964669611305e-05,0.08375334739685059,0.6149804592132568,0.0,-0.013621835969388485,0.9215497970581055,-0.0002520662092138082,-0.53290855884552
126.0,196.0,-6.7352,0.5031,7.069,-0.0796,0.299,-0.1396,-2.6103021107115687,-0.00022719288244843483,5.981821060180664,-0.7270329594612122,0.15198978781700134,2.425213098526001,5.49433051326827,-0.022408373653888702,0.10093578696250916,-1.7278454939471644,-2.4772789402049966e-05,0.0634087324142456,0.6149845123291016,0.0,-0.007173491176217794,0.9215781092643738,-0.00021579783060587943,-0.5713829398155212
126.0,196.0,-6.7352,0.5031,7.069,-0.0796,0.299,-0.1396,-2.6103135548033656,-0.00015803557471372187,6.019259452819824,-0.7261286377906799,0.15020568668842316,2.3960156440734863,5.49433051326827,0.016829323023557663,0.14780065417289734,-1.7278454939471644,-2.3790524210198782e-05,0.07631389796733856,0.6149439811706543,0.0,-0.01620354875922203,0.921533465385437,-0.0001886551035568118,-0.5824697613716125
126.0,196.0,-6.7352,0.5031,7.069,-0.0796,0.299,-0.1396,-2.6102897129454554,-0.00013949486310593784,6.047207832336426,-0.7251712679862976,0.1482522040605545,2.3727779388427734,5.494474696903982,0.03385334089398384,0.15025310218334198,-1.7278097311602991,-2.2883190467837267e-05,0.07471145689487457,0.6149964332580566,0.0,-0.016370734199881554,0.921541690826416,-0.00020103839051444083,-0.5819298028945923
126.0,196.0,-6.7352,0.5031,7.069,-0.0796,0.299,-0.1396,-2.610269685784811,-9.373157081427053e-05,5.993288993835449,-0.7242668867111206,0.15379200875759125,2.4509572982788086,5.494674789696493,0.033785752952098846,0.1548212766647339,-1.7278254667865198,-2.2042537239030935e-05,0.0782480537891388,0.6149964332580566,0.0,-0.014912625774741173,0.9215216636657715,-0.00018088464275933802,-0.57403963804245
126.0,196.0,-6.7352,0.5031,7.069,-0.0796,0.299,-0.1396,-2.6103183231749476,-8.488532330375165e-05,6.058844089508057,-0.7233588695526123,0.16202567517757416,2.3838860988616943,5.49479894617156,0.020862923935055733,0.14236760139465332,-1.727797810231344,-2.126144499925431e-05,0.09067465364933014,0.6150685548782349,0.0,-0.02451932802796364,0.9215097427368164,-0.00016436654550489038,-0.5807476043701172
126.0,196.0,-6.7352,0.5031,7.069,-0.0796,0.299,-0.1396,-2.610281606713766,-7.756910054013133e-05,5.983254432678223,-0.7224145531654358,0.16367362439632416,2.4046213626861572,5.494838225632467,0.0050499350763857365,0.13049796223640442,-1.7278016249286097,-2.0533818315016106e-05,0.0764055922627449,0.6150004863739014,0.0,-0.018565300852060318,0.9215298295021057,-0.00015061329759191722,-0.5633081197738647
