ramyac6/ROB537/final_project/csv/bad/bad_46.csv
tof_0,tof_1,accelx,accely,accelz,gyrox,gyroy,gyroz,shoulder_lift_joint_position,shoulder_lift_joint_velocity,shoulder_lift_joint_effort,elbow_joint_position,elbow_joint_velocity,elbow_joint_effort,wrist_1_joint_position,wrist_1_joint_velocity,wrist_1_joint_effort,wrist_2_joint_position,wrist_2_joint_velocity,wrist_2_joint_effort,wrist_3_joint_position,wrist_3_joint_velocity,wrist_3_joint_effort,shoulder_pan_joint_position,shoulder_pan_joint_velocity,shoulder_pan_joint_effort
330.0,511.0,-0.9547,0.5384,9.4421,-0.0359,0.0223,-0.1113,-1.8820749721922816,0.0,3.2140212059020996,-1.8143943548202515,-0.0,1.915715217590332,5.276323902397909,0.0,0.26161980628967285,-1.6216371695147913,0.0,-0.005871002562344074,0.3797728419303894,0.0,-0.01391145121306181,1.1967852115631104,0.0,-0.009924480691552162
330.0,511.0,-0.9547,0.5384,9.4421,-0.0359,0.0223,-0.1113,-1.8820511303343714,0.0,3.2031636238098145,-1.8142776489257812,-0.0,1.8648587465286255,5.276380109577932,0.0,0.2761770486831665,-1.6216657797442835,0.0,-0.0027143731713294983,0.37986481189727783,0.0,-0.015132474713027477,1.1967933177947998,0.0,0.004763149656355381
330.0,511.0,-0.9547,0.5384,9.4421,-0.0359,0.0223,-0.1113,-1.8820954761900843,0.0,3.1865086555480957,-1.8143171072006226,-0.0,1.9402458667755127,5.276371943741598,0.0,0.2738151252269745,-1.6216538588153284,0.0,-0.010089554823935032,0.379820853471756,0.0,-0.027871524915099144,1.1967852115631104,0.0,-0.007974471896886826
330.0,511.0,-0.9547,0.5384,9.4421,-0.0359,0.0223,-0.1113,-1.882043024102682,0.0,3.2229466438293457,-1.8143656253814697,-0.0,1.9057629108428955,5.276392388134756,0.0,0.2660883367061615,-1.6216614882098597,0.0,-0.0032443206291645765,0.3798007667064667,0.0,-0.015265882946550846,1.1967532634735107,0.0,-0.015516567043960094
330.0,511.0,-0.9547,0.5384,9.4421,-0.0359,0.0223,-0.1113,-1.882043024102682,0.0,3.192892074584961,-1.8143541812896729,-0.0,1.8942248821258545,5.276371943741598,0.0,0.2620507776737213,-1.621685806904928,0.0,0.0020776998717337847,0.3797926902770996,0.0,-0.017276588827371597,1.1968096494674683,0.0,0.02381116896867752
330.0,511.0,-0.9547,0.5384,9.4421,-0.0359,0.0223,-0.1113,-1.8820749721922816,0.0,3.275967597961426,-1.8144067525863647,-0.0,1.8985838890075684,5.276355969696798,0.0,0.2816365659236908,-1.621617619191305,0.0,-0.004875534679740667,0.3798167407512665,0.0,-0.025165684521198273,1.1967450380325317,0.0,-0.0647173672914505
330.0,511.0,-0.9547,0.5384,9.4421,-0.0359,0.0223,-0.1113,-1.8820468387999476,0.0,3.2058169841766357,-1.8143458366394043,-0.0,1.911259412765503,5.276315438538351,0.0,0.26499900221824646,-1.621645752583639,0.0,-0.009146999567747116,0.3798607289791107,0.0,-0.025871437042951584,1.1968055963516235,0.0,-0.024433091282844543
330.0,511.0,-0.9547,0.5384,9.4421,-0.0359,0.0223,-0.1113,-1.8820630512633265,0.0,3.236661434173584,-1.8143622875213623,-0.0,1.8452805280685425,5.276332127838888,0.0,0.2691025137901306,-1.621645752583639,0.0,-0.007086210884153843,0.37982502579689026,0.0,-0.027529073879122734,1.196740984916687,0.0,-0.05095397308468819
330.0,511.0,-0.9547,0.5384,9.4421,-0.0359,0.0223,-0.1113,-1.8820349178709925,0.0,3.2175261974334717,-1.8143179416656494,-0.0,1.9206626415252686,5.2763640759284876,0.0,0.28764787316322327,-1.6216095129596155,0.0,-0.003025745041668415,0.37982437014579773,0.0,-0.013648062944412231,1.196748971939087,0.0,0.024589989334344864
346.0,514.0,-0.9218,0.4822,9.5827,-0.0345,0.0206,-0.1112,-1.8820706806578578,0.0,3.2090649604797363,-1.814377784729004,-0.0,1.9028844833374023,5.276364135533132,0.0,0.27001261711120605,-1.621673885975973,0.0,0.001548616448417306,0.3797408938407898,0.0,-0.014326019212603569,1.1967369318008423,0.0,-0.018679268658161163
346.0,514.0,-0.9218,0.4822,9.5827,-0.0345,0.0206,-0.1112,-1.882083078423971,0.0,3.2085886001586914,-1.8143582344055176,-0.0,1.9079678058624268,5.276375996857443,0.0,0.2643256187438965,-1.6216734091388147,0.0,-0.006030502263456583,0.37978851795196533,0.0,-0.018475636839866638,1.196789264678955,0.0,-0.005829514469951391
346.0,514.0,-0.9218,0.4822,9.5827,-0.0345,0.0206,-0.1112,-1.8821155033507289,0.0,3.1831140518188477,-1.8143376111984253,-0.0,1.885551929473877,5.276344048767843,0.0,0.2691204845905304,-1.6216371695147913,0.0,-0.007226393558084965,0.379768431186676,0.0,-0.016590416431427002,1.1967732906341553,0.0,-0.0718032494187355
346.0,514.0,-0.9218,0.4822,9.5827,-0.0345,0.0206,-0.1112,-1.8820954761900843,0.0,3.2056779861450195,-1.8143943548202515,-0.0,1.9486641883850098,5.276388156204977,0.0,0.2655770480632782,-1.621617619191305,0.0,0.006323200650513172,0.3797721266746521,0.0,-0.022702524438500404,1.196789264678955,0.0,-0.01152443140745163
346.0,514.0,-0.9218,0.4822,9.5827,-0.0345,0.0206,-0.1112,-1.882083078423971,0.0,3.206294536590576,-1.8143458366394043,-0.0,1.8700109720230103,5.276375996857443,0.0,0.26049962639808655,-1.6216371695147913,0.0,0.0012233617017045617,0.3797967731952667,0.0,-0.026616685092449188,1.1967852115631104,0.0,-0.013444310054183006
346.0,514.0,-0.9218,0.4822,9.5827,-0.0345,0.0206,-0.1112,-1.8820673427977503,0.0,3.199826240539551,-1.8143614530563354,-0.0,1.9456145763397217,5.276351797371664,0.0,0.2657105326652527,-1.6216939131366175,0.0,0.006793094798922539,0.3798525333404541,0.0,-0.021958334371447563,1.19677734375,0.0,-0.036699727177619934
346.0,514.0,-0.9218,0.4822,9.5827,-0.0345,0.0206,-0.1112,-1.8820587597289027,0.0,3.1911308765411377,-1.8144336938858032,-0.0,1.8780837059020996,5.276355910092153,0.0,0.27414557337760925,-1.6216657797442835,0.0,-0.008143572136759758,0.3797766864299774,0.0,-0.037436749786138535,1.1967650651931763,0.0,-0.01726238802075386
346.0,514.0,-0.9218,0.4822,9.5827,-0.0345,0.0206,-0.1112,-1.8820873699583949,0.0,3.196906328201294,-1.8143541812896729,-0.0,1.8744697570800781,5.276328313141622,0.0,0.26710566878318787,-1.6216371695147913,0.0,-0.016860470175743103,0.37981677055358887,0.0,-0.017415061593055725,1.1967769861221313,0.0,-0.056989628821611404
346.0,514.0,-0.9218,0.4822,9.5827,-0.0345,0.0206,-0.1112,-1.88209929088735,0.0,3.2146034240722656,-1.8143818378448486,-0.0,1.873927354812622,5.276360022812643,0.0,0.26409491896629333,-1.6216138044940394,0.0,0.0023753363639116287,0.37980902194976807,0.0,-0.022120460867881775,1.1968055963516235,0.0,-0.036944903433322906
346.0,514.0,-0.9218,0.4822,9.5827,-0.0345,0.0206,-0.1112,-1.882043024102682,0.0,3.2240631580352783,-1.8143986463546753,-0.0,1.931519865989685,5.276383805065908,0.0,0.26513755321502686,-1.6216614882098597,0.0,-0.012470416724681854,0.3797844350337982,0.0,-0.03135434910655022,1.1967692375183105,0.0,-0.0046169087290763855
346.0,514.0,-0.9218,0.4822,9.5827,-0.0345,0.0206,-0.1112,-1.8820673427977503,0.0,3.2312960624694824,-1.8143179416656494,-0.0,1.8050673007965088,5.276380109577932,0.0,0.2638375461101532,-1.6216700712787073,0.0,-0.004801543895155191,0.3797603249549866,0.0,-0.024293644353747368,1.1967692375183105,0.0,-0.029775239527225494
346.0,514.0,-0.9218,0.4822,9.5827,-0.0345,0.0206,-0.1112,-1.882083078423971,0.0,3.1977148056030273,-1.814349889755249,-0.0,1.8929251432418823,5.276411878853597,0.0,0.26418960094451904,-1.6216939131366175,0.0,-0.003134615020826459,0.3798448145389557,0.0,-0.0181603841483593,1.1967573165893555,0.0,-0.04107639938592911
346.0,514.0,-0.9218,0.4822,9.5827,-0.0345,0.0206,-0.1112,-1.8820749721922816,0.0,3.2104227542877197,-1.8143458366394043,-0.0,1.8534085750579834,5.276396024018087,0.0,0.26956915855407715,-1.6216414610492151,0.0,0.0027912980876863003,0.3797603249549866,0.0,-0.03496912121772766,1.196789264678955,0.0,-0.006976543925702572
346.0,514.0,-0.9218,0.4822,9.5827,-0.0345,0.0206,-0.1112,-1.8820668659605921,0.0,3.202500820159912,-1.814377784729004,-0.0,1.8831088542938232,5.2764198062713525,0.0,0.27396905422210693,-1.6216819922076624,0.0,-0.005296170245856047,0.37977251410484314,0.0,-0.0234236903488636,1.1967692375183105,0.0,0.01545698568224907
346.0,514.0,-0.9218,0.4822,9.5827,-0.0345,0.0206,-0.1112,-1.8820706806578578,0.0,3.19136905670166,-1.8143292665481567,-0.0,1.9040255546569824,5.276371943741598,0.0,0.26415586471557617,-1.6216414610492151,0.0,0.0121830515563488,0.37977632880210876,0.0,-0.023861881345510483,1.1967613697052002,0.0,0.023783905431628227
346.0,514.0,-0.9218,0.4822,9.5827,-0.0345,0.0206,-0.1112,-1.8820630512633265,0.0,3.206740617752075,-1.8143458366394043,-0.0,1.876296877861023,5.276392030506887,0.0,0.25608739256858826,-1.621697727833883,0.0,-0.006458318326622248,0.379820853471756,0.0,-0.023839734494686127,1.1967532634735107,0.0,-0.028890062123537064
346.0,514.0,-0.9218,0.4822,9.5827,-0.0345,0.0206,-0.1112,-1.882043024102682,0.0,3.1942296028137207,-1.8143582344055176,-0.0,1.8822650909423828,5.276375877648153,0.0,0.2717714309692383,-1.6216581503497522,0.0,0.005568035878241062,0.3798407316207886,0.0,-0.030606262385845184,1.1967532634735107,0.0,-0.00099148228764534
346.0,514.0,-0.9218,0.4822,9.5827,-0.0345,0.0206,-0.1112,-1.8821317158141078,0.0,3.2052865028381348,-1.8143501281738281,-0.0,1.8510479927062988,5.276328313141622,0.0,0.26587533950805664,-1.6216290632831019,0.0,-0.00841571856290102,0.37978851795196533,0.0,-0.01701454445719719,1.1967769861221313,0.0,-0.027767810970544815
330.0,521.0,-1.066,0.5019,9.6395,-0.0373,0.015,-0.1107,-1.8820997677245082,0.0,3.2246012687683105,-1.8143664598464966,-0.0,1.918661117553711,5.276344167977133,0.0,0.2669171690940857,-1.6216495672809046,0.0,-0.006402478087693453,0.3797725439071655,0.0,-0.026592299342155457,1.1968138217926025,0.0,0.003245091997087002
330.0,521.0,-1.066,0.5019,9.6395,-0.0373,0.015,-0.1107,-1.8820916614928187,0.0,3.23616886138916,-1.8143417835235596,-0.0,1.8461940288543701,5.276336180954733,0.0,0.25563764572143555,-1.6216371695147913,0.0,-0.003999133128672838,0.37982502579689026,0.0,-0.015598505735397339,1.1967655420303345,0.0,-0.010356147773563862
330.0,521.0,-1.066,0.5019,9.6395,-0.0373,0.015,-0.1107,-1.8820954761900843,0.0,3.170064926147461,-1.8144067525863647,-0.0,1.925762414932251,5.276367950230398,0.0,0.27547791600227356,-1.6216777006732386,0.0,-0.0029686815105378628,0.3797647953033447,0.0,-0.01873515173792839,1.196781039237976,0.0,-0.02613113820552826
330.0,521.0,-1.066,0.5019,9.6395,-0.0373,0.015,-0.1107,-1.882083078423971,0.0,3.201406478881836,-1.814325213432312,-0.0,1.8720955848693848,5.276332306652822,0.0,0.27738797664642334,-1.6216900984393519,0.0,-0.0015212716534733772,0.3797725737094879,0.0,-0.02779684215784073,1.1968097686767578,0.0,0.028919555246829987
330.0,521.0,-1.066,0.5019,9.6395,-0.0373,0.015,-0.1107,-1.882054945031637,0.0,3.195608615875244,-1.8143377304077148,-0.0,1.8717901706695557,5.276363956719198,0.0,0.26399126648902893,-1.6216371695147913,0.0,-0.004068441689014435,0.3797524869441986,0.0,-0.015895675867795944,1.1967692375183105,0.0,-0.0316472090780735
330.0,521.0,-1.066,0.5019,9.6395,-0.0373,0.015,-0.1107,-1.8820229969420375,0.0,3.216653347015381,-1.814377784729004,-0.0,1.9214506149291992,5.276344167977133,0.0,0.27493828535079956,-1.6216657797442835,0.0,0.004952359013259411,0.3797967731952667,0.0,-0.015932103618979454,1.196748971939087,0.0,-0.005986914504319429
330.0,521.0,-1.066,0.5019,9.6395,-0.0373,0.015,-0.1107,-1.8820706806578578,0.0,3.223048210144043,-1.8143292665481567,-0.0,1.8860085010528564,5.276371943741598,0.0,0.27597543597221375,-1.6216657797442835,0.0,-0.006823296658694744,0.3797926902770996,0.0,-0.02725876122713089,1.1967933177947998,0.0,-0.002378319390118122
330.0,521.0,-1.066,0.5019,9.6395,-0.0373,0.015,-0.1107,-1.8820349178709925,0.0,3.17825984954834,-1.814377784729004,-0.0,1.8837697505950928,5.276387917786398,0.0,0.25687670707702637,-1.6216333548175257,0.0,0.005597628187388182,0.379852831363678,0.0,-0.03168671950697899,1.196789264678955,0.0,-0.018920375034213066
330.0,521.0,-1.066,0.5019,9.6395,-0.0373,0.015,-0.1107,-1.8820706806578578,0.0,3.1851916313171387,-1.8143582344055176,-0.0,1.839827537536621,5.276367890625753,0.0,0.27167755365371704,-1.621685806904928,0.0,-0.005397820379585028,0.37978851795196533,0.0,-0.018385857343673706,1.1967852115631104,0.0,-0.018690848723053932
330.0,521.0,-1.066,0.5019,9.6395,-0.0373,0.015,-0.1107,-1.8820668659605921,0.0,3.218700885772705,-1.814377784729004,-0.0,1.9070340394973755,5.276375877648153,0.0,0.2854521572589874,-1.6216700712787073,0.0,0.002391169546172023,0.3798331618309021,0.0,-0.020264804363250732,1.1967532634735107,0.0,0.011467359028756618
330.0,521.0,-1.066,0.5019,9.6395,-0.0373,0.015,-0.1107,-1.8820706806578578,0.0,3.2431812286376953,-1.8143696784973145,-0.0,1.8929474353790283,5.276371943741598,0.0,0.26066941022872925,-1.6216734091388147,0.0,-0.0010736377444118261,0.3797844350337982,0.0,-0.016968853771686554,1.1968055963516235,0.0,-0.03629961982369423
330.0,521.0,-1.066,0.5019,9.6395,-0.0373,0.015,-0.1107,-1.882054945031637,0.0,3.2048487663269043,-1.8143292665481567,-0.0,1.8524525165557861,5.276388096600332,0.0,0.266265332698822,-1.621645752583639,0.0,-0.009983507916331291,0.3798048496246338,0.0,-0.010473104193806648,1.19677734375,0.0,-0.01876741647720337
330.0,521.0,-1.066,0.5019,9.6395,-0.0373,0.015,-0.1107,-1.8821073971190394,0.0,3.2401537895202637,-1.8143458366394043,-0.0,1.9147274494171143,5.276375877648153,0.0,0.26022574305534363,-1.6216495672809046,0.0,-0.005188581999391317,0.3798171877861023,0.0,-0.008997011929750443,1.1968096494674683,0.0,-0.01416871789842844
330.0,521.0,-1.066,0.5019,9.6395,-0.0373,0.015,-0.1107,-1.8820630512633265,0.0,3.217925786972046,-1.8143582344055176,-0.0,1.894151210784912,5.276360022812643,0.0,0.2746022343635559,-1.6216414610492151,0.0,-0.015208295546472073,0.37986481189727783,0.0,-0.02437663823366165,1.1967253684997559,0.0,-0.0033773246686905622
330.0,521.0,-1.066,0.5019,9.6395,-0.0373,0.015,-0.1107,-1.8820630512633265,0.0,3.2292821407318115,-1.8143656253814697,-0.0,1.8727867603302002,5.276324319630422,0.0,0.26356375217437744,-1.6216657797442835,0.0,-0.0035030595026910305,0.3798525631427765,0.0,-0.02506835386157036,1.1968138217926025,0.0,0.00844892580062151
330.0,521.0,-1.066,0.5019,9.6395,-0.0373,0.015,-0.1107,-1.882083078423971,0.0,3.213351249694824,-1.814325213432312,-0.0,1.8728554248809814,5.276348101883688,0.0,0.2583088278770447,-1.6216252485858362,0.0,0.002591584576293826,0.3798130750656128,0.0,-0.014632068574428558,1.1967852115631104,0.0,-0.04126076400279999
330.0,521.0,-1.066,0.5019,9.6395,-0.0373,0.015,-0.1107,-1.882043024102682,0.0,3.2269492149353027,-1.8143417835235596,-0.0,1.939194917678833,5.276328313141622,0.0,0.27055445313453674,-1.6216495672809046,0.0,-0.00026064133271574974,0.3797926902770996,0.0,-0.016987407580018044,1.1967610120773315,0.0,-0.05082177370786667
330.0,521.0,-1.066,0.5019,9.6395,-0.0373,0.015,-0.1107,-1.882043024102682,0.0,3.2402501106262207,-1.8143819570541382,-0.0,1.893506407737732,5.276371943741598,0.0,0.26455551385879517,-1.6216614882098597,0.0,0.0022996722254902124,0.37982502579689026,0.0,-0.01726778969168663,1.1967973709106445,0.0,-0.015360143966972828
336.0,511.0,-1.0415,0.4965,9.5079,-0.0379,0.0214,-0.1202,-1.8820954761900843,0.0,3.210574150085449,-1.8143130540847778,-0.0,1.9397242069244385,5.276360022812643,0.0,0.26569944620132446,-1.621697727833883,0.0,-0.015526927076280117,0.3797644078731537,0.0,-0.02752363309264183,1.1968015432357788,0.0,-0.0045531271025538445
336.0,511.0,-1.0415,0.4965,9.5079,-0.0379,0.0214,-0.1202,-1.882054945031637,0.0,3.2373223304748535,-1.8143417835235596,-0.0,1.8744239807128906,5.276375877648153,0.0,0.2758238911628723,-1.6216371695147913,0.0,0.00200494471937418,0.3798048496246338,0.0,-0.03147508576512337,1.1967769861221313,0.0,0.008989356458187103
336.0,511.0,-1.0415,0.4965,9.5079,-0.0379,0.0214,-0.1202,-1.8820916614928187,0.0,3.189746141433716,-1.8143622875213623,-0.0,1.885221004486084,5.276407944947042,0.0,0.2814638614654541,-1.6216166655169886,0.0,-0.006814032793045044,0.3797926902770996,0.0,-0.012948410585522652,1.196789264678955,0.0,0.018877403810620308
336.0,511.0,-1.0415,0.4965,9.5079,-0.0379,0.0214,-0.1202,-1.8821035824217738,0.0,3.1840009689331055,-1.8143211603164673,-0.0,1.9133129119873047,5.276371943741598,0.0,0.25807255506515503,-1.621673885975973,0.0,-0.003512939438223839,0.3798048794269562,0.0,-0.022486742585897446,1.19677734375,0.0,-0.029304541647434235
336.0,511.0,-1.0415,0.4965,9.5079,-0.0379,0.0214,-0.1202,-1.8820916614928187,0.0,3.2035179138183594,-1.814325213432312,-0.0,1.8928179740905762,5.276352035790243,0.0,0.27025872468948364,-1.6216900984393519,0.0,-0.00032888809801079333,0.37982502579689026,0.0,-0.012702180072665215,1.1967613697052002,0.0,-0.011023219674825668
336.0,511.0,-1.0415,0.4965,9.5079,-0.0379,0.0214,-0.1202,-1.882054945031637,0.0,3.1942360401153564,-1.8143737316131592,-0.0,1.8616621494293213,5.276379811554708,0.0,0.2765800356864929,-1.621673885975973,0.0,-0.008153553120791912,0.379821240901947,0.0,-0.022461257874965668,1.196817398071289,0.0,-0.04921209067106247
336.0,511.0,-1.0415,0.4965,9.5079,-0.0379,0.0214,-0.1202,-1.8821073971190394,0.0,3.194871425628662,-1.8143541812896729,-0.0,1.9023734331130981,5.276371943741598,0.0,0.26377418637275696,-1.6216290632831019,0.0,-0.007221972569823265,0.3798403739929199,0.0,-0.029343945905566216,1.1967933177947998,0.0,-0.06156633049249649
336.0,511.0,-1.0415,0.4965,9.5079,-0.0379,0.0214,-0.1202,-1.8820468387999476,0.0,3.186903953552246,-1.8143374919891357,-0.0,1.8489172458648682,5.276379811554708,0.0,0.2650263011455536,-1.6216700712787073,0.0,0.00038377149030566216,0.379740834236145,0.0,-0.022884123027324677,1.1967692375183105,0.0,0.020061252638697624
336.0,511.0,-1.0415,0.4965,9.5079,-0.0379,0.0214,-0.1202,-1.8820349178709925,0.0,3.2211451530456543,-1.81440269947052,-0.0,1.8588440418243408,5.276379811554708,0.0,0.26986563205718994,-1.621657673512594,0.0,0.0008789739804342389,0.3798089921474457,0.0,-0.017398126423358917,1.1967852115631104,0.0,-0.02966374158859253
336.0,511.0,-1.0415,0.4965,9.5079,-0.0379,0.0214,-0.1202,-1.882083078423971,0.0,3.1847472190856934,-1.8143374919891357,-0.0,1.871742606163025,5.276387858181753,0.0,0.27870479226112366,-1.621624771748678,0.0,0.0019142053788527846,0.3798365294933319,0.0,-0.0297551192343235,1.1967532634735107,0.0,-0.02665148675441742
336.0,511.0,-1.0415,0.4965,9.5079,-0.0379,0.0214,-0.1202,-1.8821073971190394,0.0,3.187004566192627,-1.8143459558486938,-0.0,1.8619840145111084,5.276363956719198,0.0,0.25765183568000793,-1.6216538588153284,0.0,-0.011008687317371368,0.37978851795196533,0.0,-0.016567742452025414,1.1967852115631104,0.0,-0.04349152743816376
336.0,511.0,-1.0415,0.4965,9.5079,-0.0379,0.0214,-0.1202,-1.8820706806578578,0.0,3.187098979949951,-1.8143664598464966,-0.0,1.8464250564575195,5.276344167977133,0.0,0.2741338014602661,-1.6216781775103968,0.0,-0.008951646275818348,0.37981677055358887,0.0,-0.015709705650806427,1.1967732906341553,0.0,-0.042011041194200516
336.0,511.0,-1.0415,0.4965,9.5079,-0.0379,0.0214,-0.1202,-1.8820468387999476,0.0,3.2329177856445312,-1.8143901824951172,-0.0,1.8870015144348145,5.276356088906088,0.0,0.27011406421661377,-1.621673885975973,0.0,0.003287164494395256,0.37978848814964294,0.0,-0.024889808148145676,1.1967692375183105,0.0,-0.0035318648442626
336.0,511.0,-1.0415,0.4965,9.5079,-0.0379,0.0214,-0.1202,-1.8821236095824183,0.0,3.211599588394165,-1.8143377304077148,-0.0,1.859483003616333,5.276320326119222,0.0,0.27635449171066284,-1.6216538588153284,0.0,0.006694717798382044,0.379820853471756,0.0,-0.023021411150693893,1.1967692375183105,0.0,-0.07173101603984833
336.0,511.0,-1.0415,0.4965,9.5079,-0.0379,0.0214,-0.1202,-1.8820873699583949,0.0,3.204495429992676,-1.814333438873291,-0.0,1.8782713413238525,5.276375877648153,0.0,0.265208899974823,-1.6216777006732386,0.0,-0.0008351147407665849,0.37978851795196533,0.0,-0.01288467925041914,1.1967573165893555,0.0,-0.03202854469418526
336.0,511.0,-1.0415,0.4965,9.5079,-0.0379,0.0214,-0.1202,-1.8820511303343714,0.0,3.2090537548065186,-1.814301609992981,-0.0,1.8785827159881592,5.276344167977133,0.0,0.27248838543891907,-1.621645752583639,0.0,0.0011869536247104406,0.3798607587814331,0.0,-0.005643265321850777,1.1967732906341553,0.0,-0.042495377361774445
336.0,511.0,-1.0415,0.4965,9.5079,-0.0379,0.0214,-0.1202,-1.882083078423971,0.0,3.1941328048706055,-1.8144105672836304,-0.0,1.9133490324020386,5.276367890625753,0.0,0.26939478516578674,-1.6216414610492151,0.0,0.0009781995322555304,0.379820853471756,0.0,-0.016420360654592514,1.196781039237976,0.0,-0.06269805133342743
336.0,511.0,-1.0415,0.4965,9.5079,-0.0379,0.0214,-0.1202,-1.8820511303343714,0.0,3.24931001663208,-1.8143664598464966,-0.0,1.8747940063476562,5.276399957924642,0.0,0.2766581177711487,-1.6216500441180628,0.0,-0.0002652839757502079,0.3797603249549866,0.0,-0.017199452966451645,1.1968095302581787,0.0,-0.00824160035699606
338.0,527.0,-1.0217,0.4977,9.5665,-0.035,0.0292,-0.1179,-1.8820749721922816,0.0,3.2501847743988037,-1.8143582344055176,-0.0,1.8994438648223877,5.276371943741598,0.0,0.2694661021232605,-1.621673885975973,0.0,-0.007068973034620285,0.3797483742237091,0.0,-0.02220698446035385,1.1967933177947998,0.0,-0.009777726605534554
338.0,527.0,-1.0217,0.4977,9.5665,-0.035,0.0292,-0.1179,-1.8820916614928187,0.0,3.2118067741394043,-1.814377784729004,-0.0,1.9333837032318115,5.276371943741598,0.0,0.2663213908672333,-1.621645752583639,0.0,0.004640611354261637,0.3797644078731537,0.0,-0.016536472365260124,1.1967532634735107,0.0,-0.011960160918533802
338.0,527.0,-1.0217,0.4977,9.5665,-0.035,0.0292,-0.1179,-1.8820587597289027,0.0,3.172379493713379,-1.8143417835235596,-0.0,1.8867993354797363,5.276360022812643,0.0,0.26002737879753113,-1.6216371695147913,0.0,0.006477819290012121,0.3798448443412781,0.0,-0.022724267095327377,1.1968297958374023,0.0,0.02895394340157509
338.0,527.0,-1.0217,0.4977,9.5665,-0.035,0.0292,-0.1179,-1.882083078423971,0.0,3.2330236434936523,-1.8143458366394043,-0.0,1.921728253364563,5.276344167977133,0.0,0.25580912828445435,-1.6216734091388147,0.0,-0.00772307813167572,0.37977635860443115,0.0,-0.030516669154167175,1.1967450380325317,0.0,-0.05163668096065521
338.0,527.0,-1.0217,0.4977,9.5665,-0.035,0.0292,-0.1179,-1.8820511303343714,0.0,3.2103257179260254,-1.8143582344055176,-0.0,1.8716752529144287,5.276371943741598,0.0,0.26460587978363037,-1.6216657797442835,0.0,-0.0038494833279401064,0.3798324763774872,0.0,-0.026794692501425743,1.196789264678955,0.0,0.02127186767756939
338.0,527.0,-1.0217,0.4977,9.5665,-0.035,0.0292,-0.1179,-1.8820511303343714,0.0,3.2108571529388428,-1.8143417835235596,-0.0,1.8729331493377686,5.276387858181753,0.0,0.2691307067871094,-1.6216252485858362,0.0,0.014026707038283348,0.3797926902770996,0.0,-0.02250390499830246,1.196781039237976,0.0,-0.05437052994966507
338.0,527.0,-1.0217,0.4977,9.5665,-0.035,0.0292,-0.1179,-1.8820468387999476,0.0,3.2012853622436523,-1.814333438873291,-0.0,1.926209568977356,5.276375877648153,0.0,0.27509522438049316,-1.6216414610492151,0.0,0.008586082607507706,0.37980908155441284,0.0,-0.02676560916006565,1.196789264678955,0.0,-0.038047946989536285
338.0,527.0,-1.0217,0.4977,9.5665,-0.035,0.0292,-0.1179,-1.8821116886534632,0.0,3.1695799827575684,-1.8143292665481567,-0.0,1.8978735208511353,5.276348101883688,0.0,0.28035426139831543,-1.6216657797442835,0.0,0.006094997748732567,0.3798365592956543,0.0,-0.0321764312684536,1.1967852115631104,0.0,-0.049232419580221176
338.0,527.0,-1.0217,0.4977,9.5665,-0.035,0.0292,-0.1179,-1.8820387325682582,0.0,3.2607004642486572,-1.8143458366394043,-0.0,1.9413191080093384,5.276360022812643,0.0,0.2570667266845703,-1.6216700712787073,0.0,-0.0031213867478072643,0.3797804117202759,0.0,-0.013036325573921204,1.196781039237976,0.0,-0.021216711029410362
338.0,527.0,-1.0217,0.4977,9.5665,-0.035,0.0292,-0.1179,-1.8820749721922816,0.0,3.1805763244628906,-1.8142942190170288,-0.0,1.8786144256591797,5.276371943741598,0.0,0.2773853838443756,-1.6216495672809046,0.0,-0.006870480254292488,0.379792720079422,0.0,-0.015265841037034988,1.1968055963516235,0.0,-0.047779954969882965
338.0,527.0,-1.0217,0.4977,9.5665,-0.035,0.0292,-0.1179,-1.8820916614928187,0.0,3.2072229385375977,-1.8143901824951172,-0.0,1.9090228080749512,5.276351976185598,0.0,0.2725673317909241,-1.6216414610492151,0.0,0.009249260649085045,0.3798048794269562,0.0,-0.020822258666157722,1.1967369318008423,0.0,-0.022018883377313614
338.0,527.0,-1.0217,0.4977,9.5665,-0.035,0.0292,-0.1179,-1.8820792637267054,0.0,3.2161903381347656,-1.8143737316131592,-0.0,1.8687052726745605,5.276388156204977,0.0,0.26601970195770264,-1.6216781775103968,0.0,-0.0027610701508820057,0.3798290491104126,0.0,-0.017496567219495773,1.1968297958374023,0.0,0.01574559509754181
338.0,527.0,-1.0217,0.4977,9.5665,-0.035,0.0292,-0.1179,-1.8820916614928187,0.0,3.2403934001922607,-1.814377784729004,-0.0,1.889357328414917,5.276356088906088,0.0,0.2625885009765625,-1.6216538588153284,0.0,0.0010409741662442684,0.37981680035591125,0.0,-0.024156831204891205,1.1967490911483765,0.0,-0.003055938519537449
338.0,527.0,-1.0217,0.4977,9.5665,-0.035,0.0292,-0.1179,-1.8820630512633265,0.0,3.161879062652588,-1.8143336772918701,-0.0,1.8978800773620605,5.276392090111532,0.0,0.2714676856994629,-1.6215933004962366,0.0,0.0014582750154659152,0.37978437542915344,0.0,-0.034098077565431595,1.1968015432357788,0.0,-0.04111238196492195
338.0,527.0,-1.0217,0.4977,9.5665,-0.035,0.0292,-0.1179,-1.882043024102682,0.0,3.200969934463501,-1.8143377304077148,-0.0,1.8647818565368652,5.276360022812643,0.0,0.269892156124115,-1.6216495672809046,0.0,-0.010850242339074612,0.3797766864299774,0.0,-0.018934642896056175,1.1967655420303345,0.0,-0.04647048935294151
338.0,527.0,-1.0217,0.4977,9.5665,-0.035,0.0292,-0.1179,-1.8820749721922816,0.0,3.1874356269836426,-1.8143582344055176,-0.0,1.8484923839569092,5.276392090111532,0.0,0.2651897668838501,-1.6216819922076624,0.0,-0.004748264327645302,0.3797725439071655,0.0,-0.02452189475297928,1.1967852115631104,0.0,-0.06571441888809204
338.0,527.0,-1.0217,0.4977,9.5665,-0.035,0.0292,-0.1179,-1.8820792637267054,0.0,3.179737091064453,-1.8143737316131592,-0.0,1.8627756834030151,5.276375937252798,0.0,0.26797765493392944,-1.6216657797442835,0.0,-0.000158567912876606,0.37978047132492065,0.0,-0.02095092460513115,1.1967852115631104,0.0,-0.023285064846277237
338.0,527.0,-1.0217,0.4977,9.5665,-0.035,0.0292,-0.1179,-1.8821073971190394,0.0,3.2201833724975586,-1.8143664598464966,-0.0,1.8471121788024902,5.276344167977133,0.0,0.2771655321121216,-1.6216290632831019,0.0,0.007386265322566032,0.3798607587814331,0.0,-0.01711951568722725,1.1967450380325317,0.0,-0.018303170800209045
325.0,527.0,-1.0164,0.5557,9.5707,-0.031,0.0257,-0.1159,-1.8820749721922816,0.0,3.2061502933502197,-1.8144149780273438,-0.0,1.92174232006073,5.276375877648153,0.0,0.27542123198509216,-1.6216252485858362,0.0,-0.014435511082410812,0.37982502579689026,0.0,-0.014027995988726616,1.1967613697052002,0.0,-0.062965989112854
325.0,527.0,-1.0164,0.5557,9.5707,-0.031,0.0257,-0.1159,-1.8820587597289027,0.0,3.206963539123535,-1.8143377304077148,-0.0,1.88995361328125,5.276352035790243,0.0,0.2683052122592926,-1.621697727833883,0.0,-0.0030820202082395554,0.37980085611343384,0.0,-0.015298253856599331,1.1967852115631104,0.0,-0.05821739882230759
325.0,527.0,-1.0164,0.5557,9.5707,-0.031,0.0257,-0.1159,-1.8820873699583949,0.0,3.181682586669922,-1.8143179416656494,-0.0,1.915000081062317,5.276324260025778,0.0,0.266647607088089,-1.6216614882098597,0.0,-0.008943415246903896,0.3797524571418762,0.0,-0.010645165108144283,1.1967815160751343,0.0,-0.02685137838125229
325.0,527.0,-1.0164,0.5557,9.5707,-0.031,0.0257,-0.1159,-1.8820954761900843,0.0,3.248555898666382,-1.814394235610962,-0.0,1.894550085067749,5.276356088906088,0.0,0.2593618631362915,-1.6216262022601526,0.0,-0.01022137701511383,0.37980085611343384,0.0,-0.01946837827563286,1.1967692375183105,0.0,-0.053478505462408066
325.0,527.0,-1.0164,0.5557,9.5707,-0.031,0.0257,-0.1159,-1.8820387325682582,0.0,3.1719634532928467,-1.814386010169983,-0.0,1.839505910873413,5.276356088906088,0.0,0.26214098930358887,-1.6216495672809046,0.0,-0.007163983304053545,0.37982845306396484,0.0,-0.02012907713651657,1.1967692375183105,0.0,-1.657521352171898e-05
325.0,527.0,-1.0164,0.5557,9.5707,-0.031,0.0257,-0.1159,-1.8820873699583949,0.0,3.2141640186309814,-1.8143696784973145,-0.0,1.9095571041107178,5.276336180954733,0.0,0.2631548345088959,-1.6216219107257288,0.0,0.014541620388627052,0.37978047132492065,0.0,-0.024178488180041313,1.1967650651931763,0.0,-0.01849549449980259
325.0,527.0,-1.0164,0.5557,9.5707,-0.031,0.0257,-0.1159,-1.8820792637267054,0.0,3.204979419708252,-1.8143614530563354,-0.0,1.86625337600708,5.276348101883688,0.0,0.2661491632461548,-1.6216538588153284,0.0,-0.0007143266266211867,0.3798130452632904,0.0,-0.023212596774101257,1.196781039237976,0.0,-0.008950570598244667
325.0,527.0,-1.0164,0.5557,9.5707,-0.031,0.0257,-0.1159,-1.8820873699583949,0.0,3.2154953479766846,-1.8143737316131592,-0.0,1.889268159866333,5.276360082417288,0.0,0.27156519889831543,-1.621685806904928,0.0,0.0038527725264430046,0.3798331618309021,0.0,-0.023218613117933273,1.1968055963516235,0.0,0.0024733804166316986
325.0,527.0,-1.0164,0.5557,9.5707,-0.031,0.0257,-0.1159,-1.882083078423971,0.0,3.214332103729248,-1.814358115196228,-0.0,1.9004403352737427,5.276408004551687,0.0,0.2728961706161499,-1.6216819922076624,0.0,0.0017151469364762306,0.3798089623451233,0.0,-0.023897485807538033,1.1967613697052002,0.0,-0.0558495819568634
325.0,527.0,-1.0164,0.5557,9.5707,-0.031,0.0257,-0.1159,-1.8820749721922816,0.0,3.2112693786621094,-1.814333438873291,-0.0,1.920042634010315,5.2764237997825525,0.0,0.2759472131729126,-1.6216452757464808,0.0,0.004217586014419794,0.3798447251319885,0.0,-0.013494288548827171,1.1967732906341553,0.0,-0.037181705236434937
325.0,527.0,-1.0164,0.5557,9.5707,-0.031,0.0257,-0.1159,-1.8820673427977503,0.0,3.2284188270568848,-1.8143458366394043,-0.0,1.8978466987609863,5.276360082417288,0.0,0.26075780391693115,-1.6216414610492151,0.0,-0.0006706410204060376,0.3797927498817444,0.0,-0.022873660549521446,1.1967933177947998,0.0,-0.07937861979007721
325.0,527.0,-1.0164,0.5557,9.5707,-0.031,0.0257,-0.1159,-1.8820587597289027,0.0,3.198225498199463,-1.814394235610962,-0.0,1.8874564170837402,5.276356088906088,0.0,0.2585943639278412,-1.621702019368307,0.0,-0.0016843697521835566,0.3798331320285797,0.0,-0.023661792278289795,1.196797490119934,0.0,-0.012216949835419655
325.0,527.0,-1.0164,0.5557,9.5707,-0.031,0.0257,-0.1159,-1.8820587597289027,0.0,3.2097713947296143,-1.8144067525863647,-0.0,1.8689438104629517,5.276348101883688,0.0,0.2694531977176666,-1.6216414610492151,0.0,-0.0016210919711738825,0.3798089921474457,0.0,-0.027224406599998474,1.1967613697052002,0.0,-0.03079114854335785
325.0,527.0,-1.0164,0.5557,9.5707,-0.031,0.0257,-0.1159,-1.882083078423971,0.0,3.2379751205444336,-1.8143417835235596,-0.0,1.9195327758789062,5.276340174465933,0.0,0.2620520293712616,-1.6216819922076624,0.0,-0.0007190968026407063,0.37977665662765503,0.0,-0.02646869793534279,1.1968133449554443,0.0,-0.01658407412469387
325.0,527.0,-1.0164,0.5557,9.5707,-0.031,0.0257,-0.1159,-1.8820387325682582,0.0,3.182729721069336,-1.8143500089645386,-0.0,1.8902742862701416,5.276360022812643,0.0,0.2892117500305176,-1.6216657797442835,0.0,-0.0006019026041030884,0.37976059317588806,0.0,-0.017928265035152435,1.1967532634735107,0.0,-0.03891612961888313
325.0,527.0,-1.0164,0.5557,9.5707,-0.031,0.0257,-0.1159,-1.8820511303343714,0.0,3.1920058727264404,-1.8143417835235596,-0.0,1.909530758857727,5.276404011040487,0.0,0.2641768157482147,-1.621673885975973,0.0,0.005065799690783024,0.3797684907913208,0.0,-0.02595767378807068,1.19677734375,0.0,-0.044062383472919464
325.0,527.0,-1.0164,0.5557,9.5707,-0.031,0.0257,-0.1159,-1.8820997677245082,0.0,3.208911418914795,-1.8143984079360962,-0.0,1.8701062202453613,5.276344167977133,0.0,0.26753467321395874,-1.6216371695147913,0.0,0.007746722083538771,0.379792720079422,0.0,-0.01925637759268284,1.1968015432357788,0.0,-0.006570734083652496
325.0,527.0,-1.0164,0.5557,9.5707,-0.031,0.0257,-0.1159,-1.8820587597289027,0.0,3.2092604637145996,-1.8143417835235596,-0.0,1.8800331354141235,5.276375877648153,0.0,0.2660056948661804,-1.6216333548175257,0.0,-0.0017428880091756582,0.3798048198223114,0.0,-0.016131212934851646,1.1967252492904663,0.0,-0.006545730400830507
337.0,510.0,-1.002,0.478,9.6,-0.0296,0.0203,-0.1124,-1.8821116886534632,0.0,3.190751791000366,-1.8143417835235596,-0.0,1.8696818351745605,5.276348101883688,0.0,0.27035099267959595,-1.6216777006732386,0.0,-0.010591880418360233,0.3798086941242218,0.0,-0.019937068223953247,1.1967532634735107,0.0,0.009127406403422356
337.0,510.0,-1.002,0.478,9.6,-0.0296,0.0203,-0.1124,-1.882054945031637,0.0,3.175966262817383,-1.8143541812896729,-0.0,1.90850830078125,5.276348101883688,0.0,0.27220484614372253,-1.6216290632831019,0.0,-0.0036466671153903008,0.379792720079422,0.0,-0.02062133699655533,1.196789264678955,0.0,-0.0678178146481514
337.0,510.0,-1.002,0.478,9.6,-0.0296,0.0203,-0.1124,-1.8820349178709925,0.0,3.2347068786621094,-1.8143861293792725,-0.0,1.89580237865448,5.276320266514578,0.0,0.27072709798812866,-1.6216333548175257,0.0,0.011221161112189293,0.3797684907913208,0.0,-0.020429886877536774,1.196789264678955,0.0,-0.025316745042800903
337.0,510.0,-1.002,0.478,9.6,-0.0296,0.0203,-0.1124,-1.8820468387999476,0.0,3.2624897956848145,-1.8143377304077148,-0.0,1.893334150314331,5.276356088906088,0.0,0.26442673802375793,-1.6216695944415491,0.0,-0.0016785134794190526,0.37980082631111145,0.0,-0.015256350859999657,1.1968175172805786,0.0,-0.009497717022895813
337.0,510.0,-1.002,0.478,9.6,-0.0296,0.0203,-0.1124,-1.8821073971190394,0.0,3.251336097717285,-1.8143900632858276,-0.0,1.892529845237732,5.276360022812643,0.0,0.2707786560058594,-1.6216614882098597,0.0,-0.0086725614964962,0.3797885477542877,0.0,-0.02680892124772072,1.196797490119934,0.0,-0.018949516117572784
337.0,510.0,-1.002,0.478,9.6,-0.0296,0.0203,-0.1124,-1.8820792637267054,0.0,3.184947967529297,-1.8143622875213623,-0.0,1.8788809776306152,5.276340174465933,0.0,0.27512505650520325,-1.6216495672809046,0.0,-0.006021881476044655,0.37982499599456787,0.0,-0.032505813986063004,1.196781039237976,0.0,-0.014519154094159603
337.0,510.0,-1.002,0.478,9.6,-0.0296,0.0203,-0.1124,-1.8820353947081507,0.0,3.2520265579223633,-1.8143664598464966,-0.0,1.88922917842865,5.276383805065908,0.0,0.27463462948799133,-1.6216819922076624,0.0,0.00019042205531150103,0.3797844648361206,0.0,-0.034115470945835114,1.1967369318008423,0.0,0.00976510625332594
337.0,510.0,-1.002,0.478,9.6,-0.0296,0.0203,-0.1124,-1.8820630512633265,0.0,3.2153005599975586,-1.8143901824951172,-0.0,1.8828632831573486,5.276408064156332,5.532851901079994e-07,0.25867167115211487,-1.6216700712787073,0.0,0.005842135287821293,0.3798364996910095,0.0,-0.01708681508898735,1.1967326402664185,0.0,-0.03406302630901337
337.0,510.0,-1.002,0.478,9.6,-0.0296,0.0203,-0.1124,-1.8820873699583949,0.0,3.1963887214660645,-1.8143737316131592,-0.0,1.9068233966827393,5.276387917786398,0.00023728063388261944,0.2670775055885315,-1.6216619650470179,0.0,0.003308401443064213,0.3797926902770996,0.0,-0.02018430456519127,1.1967933177947998,0.0,-0.017153307795524597
337.0,510.0,-1.002,0.478,9.6,-0.0296,0.0203,-0.1124,-1.8820706806578578,0.0,3.1920111179351807,-1.814386010169983,-0.0,1.8548493385314941,5.276363956719198,1.3082810255582444e-05,0.27445268630981445,-1.6216452757464808,0.0,0.009095188230276108,0.3798290491104126,0.0,-0.019859785214066505,1.196789264678955,5.60076330202719e-07,-0.07249069213867188
337.0,510.0,-1.002,0.478,9.6,-0.0296,0.0203,-0.1124,-1.8820511303343714,0.0,3.182455062866211,-1.8143943548202515,-0.0,1.9136791229248047,5.276356088906088,3.641648538277309e-09,0.28407591581344604,-1.6216414610492151,0.0,-0.013321871869266033,0.37982499599456787,0.0,-0.028122493997216225,1.1968052387237549,1.352518357727872e-12,-0.052481237798929214
337.0,510.0,-1.002,0.478,9.6,-0.0296,0.0203,-0.1124,-1.8820706806578578,0.0,3.231781482696533,-1.8143417835235596,-0.0,1.902334213256836,5.276356088906088,1.552491815659529e-11,0.27384209632873535,-1.6216414610492151,0.0,-0.009043101221323013,0.3798048496246338,2.6130267087864922e-06,-0.011143321171402931,1.1968133449554443,0.0010747765190899372,-0.03283271938562393
337.0,510.0,-1.002,0.478,9.6,-0.0296,0.0203,-0.1124,-1.8820954761900843,0.0,3.2478981018066406,-1.8143458366394043,-0.0,1.8626558780670166,5.276360022812643,4.321418101290407e-15,0.26325660943984985,-1.6216581503497522,0.0,-0.008428758941590786,0.3797926902770996,7.273455171485921e-10,-0.015557218343019485,1.1968412399291992,0.0028487378731369972,-0.009451581165194511
337.0,510.0,-1.002,0.478,9.6,-0.0296,0.0203,-0.1124,-1.8820506534972132,0.0,3.2098536491394043,-1.8143622875213623,-0.0,1.9327917098999023,5.276348042279043,1.2028827380521626e-18,0.27601608633995056,-1.621645752583639,0.0,-0.0036680069752037525,0.3798047602176666,2.024593193832372e-13,-0.009899222292006016,1.196800708770752,0.004373725038021803,0.018799299374222755
337.0,510.0,-1.002,0.478,9.6,-0.0296,0.0203,-0.1124,-1.8820511303343714,0.0,3.225235939025879,-1.8143622875213623,-0.0,1.8765140771865845,5.276415872364797,5.128077126954085e-21,0.2656956613063812,-1.621657673512594,0.0,0.0014828318962827325,0.37980079650878906,8.631158265216138e-16,-0.030713768675923347,1.1968810558319092,0.005379009526222944,0.013983350247144699
337.0,510.0,-1.002,0.478,9.6,-0.0296,0.0203,-0.1124,-1.882127424279684,0.0,3.219672679901123,-1.8143458366394043,-0.0,1.8964836597442627,5.276360022812643,1.4274189588789064e-24,0.26921558380126953,-1.6216495672809046,0.0,-0.004991235211491585,0.3797926604747772,2.4025148113933567e-19,-0.03226807713508606,1.1969051361083984,0.006368323229253292,0.009212294593453407
337.0,510.0,-1.002,0.478,9.6,-0.0296,0.0203,-0.1124,-1.8820749721922816,0.0,3.2130942344665527,-1.814333438873291,-0.0,1.8802924156188965,5.276367950230398,6.085311156287784e-27,0.26674702763557434,-1.6216900984393519,0.0,0.004803180228918791,0.37986069917678833,1.0242297363060773e-21,-0.03071785718202591,1.1969571113586426,0.005670548882335424,-0.05664011463522911
337.0,510.0,-1.002,0.478,9.6,-0.0296,0.0203,-0.1124,-1.8820949993529261,0.0,3.2214927673339844,-1.8143622875213623,-0.0,1.8840138912200928,5.276375877648153,1.693868551625303e-30,0.2525368928909302,-1.6216619650470179,0.0,0.00031339749693870544,0.37978076934814453,2.850981768437866e-25,-0.016723573207855225,1.1969727277755737,0.005548105575144291,-0.015336206182837486
339.0,508.0,-0.9248,0.4415,9.6012,-0.044,0.0278,-0.1158,-1.8820706806578578,0.0,3.2191948890686035,-1.8143984079360962,-0.0,1.9239627122879028,5.276384103089132,7.221227100994397e-33,0.2604706287384033,-1.6216700712787073,0.0,-0.0025350945070385933,0.3797844350337982,1.2154179878268356e-27,-0.01432646531611681,1.1969972848892212,0.005412163212895393,0.01585557870566845
339.0,508.0,-0.9248,0.4415,9.6012,-0.044,0.0278,-0.1158,-1.8820792637267054,0.0,3.228422164916992,-1.8143705129623413,-0.0,1.8847508430480957,5.276367950230398,2.0100548031441357e-36,0.2645355761051178,-1.621685806904928,0.0,0.00921724084764719,0.3798089921474457,3.383160903742855e-31,-0.02268506959080696,1.1970809698104858,0.005094317719340324,-0.02313072979450226
339.0,508.0,-0.9248,0.4415,9.6012,-0.044,0.0278,-0.1158,-1.882054945031637,0.0,3.201948642730713,-1.8143622875213623,-0.0,1.8641175031661987,5.276344108372488,8.569178330085192e-39,0.2675875425338745,-1.6216581503497522,0.0,-0.008762848563492298,0.37986481189727783,1.442294466918499e-33,-0.014548631384968758,1.197016716003418,0.004284309688955545,-0.008914883248507977
339.0,508.0,-0.9248,0.4415,9.6012,-0.044,0.0278,-0.1158,-1.8820997677245082,0.0,3.209911346435547,-1.8142735958099365,-0.0,1.8991888761520386,5.276344167977133,2.3850099862808387e-42,0.26917698979377747,-1.6216538588153284,0.0,-0.008256671950221062,0.3797764182090759,4.014679742894828e-37,-0.016565721482038498,1.1970806121826172,0.002842737827450037,-0.01259586587548256
339.0,508.0,-0.9248,0.4415,9.6012,-0.044,0.0278,-0.1158,-1.8820873699583949,0.0,3.1928415298461914,-1.8143622875213623,-0.0,1.8788704872131348,5.276392090111532,9.80908925027372e-45,0.26510563492774963,-1.621702019368307,0.0,-0.0023754893336445093,0.3797804117202759,1.7115207209539737e-39,-0.016789063811302185,1.1970605850219727,0.0020822936203330755,-0.021052489057183266
339.0,508.0,-0.9248,0.4415,9.6012,-0.044,0.0278,-0.1158,-1.8820468387999476,0.0,3.1999783515930176,-1.8143335580825806,-0.0,1.8944064378738403,5.276336121350088,0.0,0.2665092945098877,-1.6216700712787073,0.0,-0.0003049008082598448,0.37982845306396484,4.764414778704378e-43,-0.014671377837657928,1.1970646381378174,0.001324932207353413,-0.004741476383060217
339.0,508.0,-0.9248,0.4415,9.6012,-0.044,0.0278,-0.1158,-1.8820792637267054,0.0,3.2129077911376953,-1.8143622875213623,-0.0,1.8883856534957886,5.276363956719198,0.0,0.27374696731567383,-1.6216700712787073,0.0,0.005046783946454525,0.3798488974571228,1.401298464324817e-45,-0.005267483182251453,1.197092890739441,0.0009683180251158774,0.0013068986590951681
339.0,508.0,-0.9248,0.4415,9.6012,-0.044,0.0278,-0.1158,-1.8820506534972132,0.0,3.1764259338378906,-1.8143664598464966,-0.0,1.9472413063049316,5.276367890625753,0.0,0.2627791464328766,-1.621702019368307,0.0,-0.010902853682637215,0.37982842326164246,0.0,-0.005330192390829325,1.1970605850219727,0.0006036029080860317,-0.004947935231029987
339.0,508.0,-0.9248,0.4415,9.6012,-0.044,0.0278,-0.1158,-1.8820997677245082,0.0,3.178112506866455,-1.8143737316131592,-0.0,1.899052619934082,5.276332187443533,0.0,0.2609975337982178,-1.621685806904928,0.0,-0.003472604090347886,0.3798403739929199,0.0,-0.014339971356093884,1.1970323324203491,0.0005064964643679559,0.003772841766476631
339.0,508.0,-0.9248,0.4415,9.6012,-0.044,0.0278,-0.1158,-1.8820630512633265,0.0,3.15144681930542,-1.8143664598464966,-0.0,1.8661165237426758,5.276344108372488,0.0,0.2660655379295349,-1.621645752583639,0.0,0.015166527591645718,0.37988483905792236,0.0,-0.026403918862342834,1.197008490562439,0.00040805572643876076,0.03779331594705582
339.0,508.0,-0.9248,0.4415,9.6012,-0.044,0.0278,-0.1158,-1.882043024102682,0.0,3.1674108505249023,-1.8143497705459595,-0.0,1.8649876117706299,5.276356088906088,0.0,0.2708145081996918,-1.6216538588153284,0.0,-0.0007243284489959478,0.3797561526298523,0.0,-0.019112445414066315,1.1970969438552856,0.00036125059705227613,-0.021575510501861572
339.0,508.0,-0.9248,0.4415,9.6012,-0.044,0.0278,-0.1158,-1.882083078423971,0.0,3.1939632892608643,-1.8143622875213623,-0.0,1.8816187381744385,5.276363956719198,0.0,0.2633792757987976,-1.621713940297262,0.0,0.0015972083201631904,0.3798730671405792,0.0,-0.01686546951532364,1.1971009969711304,0.00030822260305285454,0.034372590482234955
339.0,508.0,-0.9248,0.4415,9.6012,-0.044,0.0278,-0.1158,-1.8820587597289027,0.0,3.192727565765381,-1.8143458366394043,-0.0,1.8874905109405518,5.276340174465933,0.0,0.26014554500579834,-1.6216700712787073,0.0,0.0009028466884046793,0.37978851795196533,0.0,-0.019967619329690933,1.1970605850219727,0.00015459769929293543,-0.034112729132175446
339.0,508.0,-0.9248,0.4415,9.6012,-0.044,0.0278,-0.1158,-1.8820792637267054,0.0,3.1938562393188477,-1.8143501281738281,6.128200169541742e-09,1.8745046854019165,5.276344167977133,0.0,0.2774467468261719,-1.6216900984393519,0.0,-0.0026661804877221584,0.37986889481544495,0.0,-0.006859065033495426,1.1970728635787964,3.845164610538632e-05,0.016004621982574463
339.0,508.0,-0.9248,0.4415,9.6012,-0.044,0.0278,-0.1158,-1.8820387325682582,0.0,3.1857099533081055,-1.8143417835235596,1.1030543882808996e-12,1.9282252788543701,5.276356029301443,0.0,0.2745180130004883,-1.6216657797442835,0.0,-0.0073760924860835075,0.37981677055358887,0.0,-0.022521622478961945,1.1970125436782837,2.005618604528081e-08,-0.047083619982004166
339.0,508.0,-0.9248,0.4415,9.6012,-0.044,0.0278,-0.1158,-1.882083078423971,0.0,3.2138280868530273,-1.814333438873291,2.6637463587522104e-18,1.8275814056396484,5.276307749539175,0.0,0.26641714572906494,-1.621645752583639,0.0,0.0024175469297915697,0.3797804117202759,0.0,-0.016015496104955673,1.197012186050415,4.843333037147374e-14,-0.04227606952190399
339.0,508.0,-0.9248,0.4415,9.6012,-0.044,0.0278,-0.1158,-1.8820749721922816,0.0,3.221707820892334,-1.8143458366394043,4.794649628932231e-22,1.9147602319717407,5.276344048767843,0.0,0.2534358501434326,-1.621697727833883,0.0,0.006632978096604347,0.3798407316207886,0.0,-0.017603125423192978,1.197028636932373,8.71782852926377e-18,-0.01398519054055214
343.0,517.0,-0.853,0.7041,9.5617,-0.0359,0.0136,-0.1139,-1.882043024102682,0.0,3.1744205951690674,-1.8143655061721802,1.1578515566031123e-27,1.899285078048706,5.276360022812643,0.0,0.26335811614990234,-1.6216333548175257,0.0,0.004996957257390022,0.379829078912735,0.0,-0.026671871542930603,1.1970367431640625,2.1052528192859447e-23,-0.05419498309493065
343.0,517.0,-0.853,0.7041,9.5617,-0.0359,0.0136,-0.1139,-1.8820749721922816,0.0,3.240281581878662,-1.814333438873291,2.084091768894894e-31,1.8893803358078003,5.276356029301443,0.0,0.26415199041366577,-1.6216700712787073,0.0,-0.0011321277124807239,0.37976476550102234,0.0,-0.01895611360669136,1.1970367431640625,3.7893807954486054e-27,-0.02864072471857071
343.0,517.0,-0.853,0.7041,9.5617,-0.0359,0.0136,-0.1139,-1.8820349178709925,0.0,3.2298097610473633,-1.8143458366394043,5.032836302142725e-37,1.9138269424438477,5.276371943741598,0.0,0.26249176263809204,-1.6216581503497522,0.0,-0.005473522935062647,0.37978044152259827,0.0,-0.016242600977420807,1.1970404386520386,9.150909076412663e-33,-0.012905601412057877
343.0,517.0,-0.853,0.7041,9.5617,-0.0359,0.0136,-0.1139,-1.8821197948851527,0.0,3.202411651611328,-1.8143137693405151,9.058974182320645e-41,1.915266990661621,5.276375937252798,0.0,0.26668286323547363,-1.621673885975973,0.0,-0.007603979669511318,0.37978440523147583,0.0,-0.017293177545070648,1.196988821029663,1.64713114620135e-36,0.018861128017306328
343.0,517.0,-0.853,0.7041,9.5617,-0.0359,0.0136,-0.1139,-1.882043024102682,0.0,3.1754674911499023,-1.8143664598464966,0.0,1.8900361061096191,5.276360022812643,0.0,0.2736453413963318,-1.6216781775103968,0.0,-0.005840700585395098,0.3798407316207886,0.0,-0.017228445038199425,1.197016716003418,3.9782863402181557e-42,0.007569151930510998
343.0,517.0,-0.853,0.7041,9.5617,-0.0359,0.0136,-0.1139,-1.882043024102682,0.0,3.220325231552124,-1.8143211603164673,-0.0,1.8845798969268799,5.276371943741598,0.0,0.2682945132255554,-1.621685806904928,0.0,-0.003315181005746126,0.3798089921474457,0.0,-0.01583903655409813,1.1970486640930176,0.0,-0.048582278192043304
343.0,517.0,-0.853,0.7041,9.5617,-0.0359,0.0136,-0.1139,-1.8820587597289027,0.0,3.226078510284424,-1.8143705129623413,-0.0,1.885151743888855,5.276351976185598,0.0,0.2688288390636444,-1.6216939131366175,0.0,0.00389202032238245,0.37981677055358887,0.0,-0.013802073895931244,1.1970446109771729,-6.0556118114618585e-05,-0.01674039661884308
343.0,517.0,-0.853,0.7041,9.5617,-0.0359,0.0136,-0.1139,-1.8820873699583949,0.0,3.176608085632324,-1.8142982721328735,-0.0,1.9131243228912354,5.276379871159353,0.0,0.27296024560928345,-1.6216657797442835,0.0,0.003267355030402541,0.3797684609889984,0.0,-0.011707017198204994,1.1970367431640625,-5.031378896092065e-05,0.03602646663784981
343.0,517.0,-0.853,0.7041,9.5617,-0.0359,0.0136,-0.1139,-1.8820911846556605,0.0,3.2339577674865723,-1.8143705129623413,-0.0,1.8521153926849365,5.276396083622732,0.0,0.2582733929157257,-1.6216538588153284,0.0,-0.0020122849382460117,0.3798488974571228,0.0,-0.029495205730199814,1.1970407962799072,-4.525334952631965e-05,-0.0018833177164196968
343.0,517.0,-0.853,0.7041,9.5617,-0.0359,0.0136,-0.1139,-1.8821236095824183,0.0,3.1798360347747803,-1.81440269947052,-0.0,1.8847215175628662,5.276367890625753,0.0,0.26527971029281616,-1.6216538588153284,0.0,-0.014148460701107979,0.3797968327999115,0.0,-0.02263706736266613,1.1970044374465942,-7.80913615017198e-05,-0.06917194277048111
343.0,517.0,-0.853,0.7041,9.5617,-0.0359,0.0136,-0.1139,-1.882083078423971,0.0,3.2053422927856445,-1.8143500089645386,-0.0,1.879729151725769,5.276344108372488,0.0,0.28571513295173645,-1.6216414610492151,0.0,-0.006184219382703304,0.3797968029975891,0.0,-0.02454778179526329,1.1970527172088623,-0.00010797860886668786,0.023337550461292267
343.0,517.0,-0.853,0.7041,9.5617,-0.0359,0.0136,-0.1139,-1.882054945031637,0.0,3.218484401702881,-1.8143417835235596,-0.0,1.8411685228347778,5.276324260025778,0.0,0.26843440532684326,-1.6216538588153284,0.0,0.00475666718557477,0.3798048794269562,0.0,-0.019045215100049973,1.1970490217208862,-0.00012907911150250584,-0.03294290229678154
343.0,517.0,-0.853,0.7041,9.5617,-0.0359,0.0136,-0.1139,-1.8820954761900843,0.0,3.2035279273986816,-1.814333438873291,-0.0,1.9217662811279297,5.276336121350088,0.0,0.2586806118488312,-1.621673885975973,0.0,0.002342410385608673,0.3798407018184662,0.0,-0.014215690083801746,1.1970125436782837,-0.0002742295619100332,-0.03071937896311283
343.0,517.0,-0.853,0.7041,9.5617,-0.0359,0.0136,-0.1139,-1.8820706806578578,0.0,3.203789472579956,-1.8144067525863647,-0.0,1.8657304048538208,5.276392149716177,0.0,0.2739908993244171,-1.6216700712787073,0.0,-0.009482712484896183,0.3798131048679352,0.0,-0.02230227179825306,1.1969928741455078,-0.00020374525047373027,-0.024895302951335907
343.0,517.0,-0.853,0.7041,9.5617,-0.0359,0.0136,-0.1139,-1.8820587597289027,0.0,3.2352294921875,-1.8143458366394043,-0.0,1.8808608055114746,5.276400017529287,0.0,0.25556284189224243,-1.6216581503497522,0.0,-0.009978721849620342,0.3797926902770996,0.0,-0.0159765537828207,1.1970289945602417,-0.00014262575132306665,-0.022200390696525574
343.0,517.0,-0.853,0.7041,9.5617,-0.0359,0.0136,-0.1139,-1.8820792637267054,0.0,3.239215850830078,-1.8143696784973145,-0.0,1.9117852449417114,5.276356029301443,0.0,0.2663394808769226,-1.6216333548175257,0.0,-0.0024141266476362944,0.3798249661922455,0.0,-0.012558938935399055,1.197056770324707,-9.663976379670203e-05,0.0036275540478527546
343.0,517.0,-0.853,0.7041,9.5617,-0.0359,0.0136,-0.1139,-1.8820468387999476,0.0,3.219928741455078,-1.814377784729004,-0.0,1.8510756492614746,5.276371943741598,0.0,0.27177202701568604,-1.6216414610492151,0.0,-0.012499724514782429,0.37981677055358887,0.0,-0.020605653524398804,1.197064995765686,-7.95480445958674e-05,-0.0025343908928334713
343.0,517.0,-0.853,0.7041,9.5617,-0.0359,0.0136,-0.1139,-1.8820587597289027,0.0,3.2252612113952637,-1.8143861293792725,-0.0,1.8773988485336304,5.276356029301443,0.0,0.27031204104423523,-1.621645752583639,0.0,-0.0068129971623420715,0.3798009157180786,0.0,-0.018680207431316376,1.1970289945602417,-0.00012483715545386076,-0.011072393506765366
338.0,522.0,-1.3119,0.7789,9.527,-0.0322,0.026,-0.113,-1.8820468387999476,0.0,3.1977531909942627,-1.814325213432312,-0.0,1.8613240718841553,5.276360022812643,0.0,0.25960391759872437,-1.6217101255999964,0.0,-0.00787636823952198,0.37975651025772095,0.0,-0.01606123149394989,1.197008490562439,-0.00011032653856091201,-0.036502838134765625
338.0,522.0,-1.3119,0.7789,9.527,-0.0322,0.026,-0.113,-1.8820587597289027,0.0,3.245598316192627,-1.814325213432312,-0.0,1.8450591564178467,5.276379871159353,0.0,0.26476502418518066,-1.621685806904928,0.0,-0.01490678358823061,0.3798767924308777,0.0,-0.01590925268828869,1.1970490217208862,-9.318909724242985e-05,-0.010271472856402397
338.0,522.0,-1.3119,0.7789,9.527,-0.0322,0.026,-0.113,-1.8820349178709925,0.0,3.239881992340088,-1.8143137693405151,-0.0,1.9021713733673096,5.276332127838888,0.0,0.2584690451622009,-1.6216657797442835,0.0,-0.0037647243589162827,0.3797644078731537,0.0,-0.02076295204460621,1.197008490562439,-0.00011212790559511632,0.04480765759944916
338.0,522.0,-1.3119,0.7789,9.527,-0.0322,0.026,-0.113,-1.88209929088735,0.0,3.1990342140197754,-1.814325213432312,-0.0,1.856372594833374,5.276367890625753,0.0,0.26524823904037476,-1.6216657797442835,0.0,0.0006471146480180323,0.3797766864299774,0.0,-0.023578878492116928,1.197028636932373,-0.00011103813449153677,-0.02340696007013321
338.0,522.0,-1.3119,0.7789,9.527,-0.0322,0.026,-0.113,-1.882054945031637,0.0,3.2549116611480713,-1.8143943548202515,-0.0,1.8779677152633667,5.276351976185598,0.0,0.2634294629096985,-1.6216371695147913,0.0,-0.006487990263849497,0.3798365592956543,0.0,-0.007899079471826553,1.1969887018203735,-0.00010259886767016724,-0.0005574570968747139
338.0,522.0,-1.3119,0.7789,9.527,-0.0322,0.026,-0.113,-1.8820473156371058,0.0,3.1654052734375,-1.8143295049667358,-0.0,1.8743019104003906,5.276324260025778,0.0,0.27553045749664307,-1.6216657797442835,0.0,-0.009690957143902779,0.3797844648361206,0.0,-0.0231158509850502,1.1970126628875732,-7.09789092070423e-05,0.03239452838897705
338.0,522.0,-1.3119,0.7789,9.527,-0.0322,0.026,-0.113,-1.8821073971190394,0.0,3.1554858684539795,-1.8143696784973145,-0.0,1.8852730989456177,5.276396083622732,0.0,0.2653394639492035,-1.6216290632831019,0.0,-0.00829402171075344,0.37985286116600037,0.0,-0.014798855409026146,1.1970289945602417,-6.570333789568394e-05,0.015248239040374756
338.0,522.0,-1.3119,0.7789,9.527,-0.0322,0.026,-0.113,-1.8820387325682582,0.0,3.243105411529541,-1.8143541812896729,-0.0,1.890891194343567,5.276356029301443,0.0,0.265464186668396,-1.6216700712787073,0.0,-0.004383324179798365,0.37975627183914185,0.0,-0.01863524690270424,1.1970248222351074,-5.921846968703903e-05,-0.016498589888215065
338.0,522.0,-1.3119,0.7789,9.527,-0.0322,0.026,-0.113,-1.8820630512633265,0.0,3.210918664932251,-1.814377784729004,-0.0,1.939253568649292,5.276340174465933,0.0,0.26124435663223267,-1.6216734091388147,0.0,-0.005005144514143467,0.379820853471756,0.0,-0.018820960074663162,1.1970407962799072,-5.556246469495818e-05,-0.0298603568226099
338.0,522.0,-1.3119,0.7789,9.527,-0.0322,0.026,-0.113,-1.8820916614928187,0.0,3.1995363235473633,-1.8143541812896729,-0.0,1.8636693954467773,5.2763282535369775,0.0,0.26683366298675537,-1.6216939131366175,0.0,-0.00876309908926487,0.3797766864299774,0.0,-0.01242211926728487,1.1969727277755737,-5.08531738887541e-05,0.01950037106871605
338.0,522.0,-1.3119,0.7789,9.527,-0.0322,0.026,-0.113,-1.8820587597289027,0.0,3.165128707885742,-1.8144108057022095,-0.0,1.8932769298553467,5.276392149716177,0.0,0.2724043130874634,-1.621702019368307,0.0,0.00033822283148765564,0.3797844350337982,0.0,-0.015468022786080837,1.1969850063323975,-4.813344276044518e-05,0.002677038311958313
338.0,522.0,-1.3119,0.7789,9.527,-0.0322,0.026,-0.113,-1.8820587597289027,0.0,3.192983627319336,-1.8143458366394043,-0.0,1.881035566329956,5.276371943741598,0.0,0.26954004168510437,-1.6216581503497522,0.0,-0.0032792415004223585,0.3797967731952667,0.0,-0.010747716762125492,1.197005033493042,-4.4558822992257774e-05,-0.012465675361454487
338.0,522.0,-1.3119,0.7789,9.527,-0.0322,0.026,-0.113,-1.8820706806578578,0.0,3.180962562561035,-1.8143501281738281,-0.0,1.8633241653442383,5.276340174465933,0.0,0.2792368233203888,-1.6216581503497522,0.0,-0.02002241276204586,0.37986478209495544,0.0,-0.016920603811740875,1.1970126628875732,-4.245674062985927e-05,0.002024076646193862
338.0,522.0,-1.3119,0.7789,9.527,-0.0322,0.026,-0.113,-1.8820792637267054,0.0,3.2432327270507812,-1.8143459558486938,-0.0,1.8871309757232666,5.276371943741598,0.0,0.26783865690231323,-1.6217096487628382,0.0,-0.00471083028241992,0.37978851795196533,0.0,-0.02216280996799469,1.1970248222351074,-3.9651047700317577e-05,-0.02936970815062523
338.0,522.0,-1.3119,0.7789,9.527,-0.0322,0.026,-0.113,-1.8820306263365687,0.0,3.1863059997558594,-1.8142818212509155,-0.0,1.9150581359863281,5.276367950230398,0.0,0.2769487202167511,-1.6216819922076624,0.0,-0.01596556045114994,0.37978047132492065,0.0,-0.026344873011112213,1.1970126628875732,-3.797779936576262e-05,0.03214195370674133
338.0,522.0,-1.3119,0.7789,9.527,-0.0322,0.026,-0.113,-1.8821116886534632,0.0,3.185197353363037,-1.8143459558486938,-0.0,1.8979928493499756,5.276371943741598,0.0,0.266685426235199,-1.6216290632831019,0.0,0.007784392684698105,0.3798447549343109,0.0,-0.02680564671754837,1.1970207691192627,-3.571710840333253e-05,-0.035305459052324295
338.0,522.0,-1.3119,0.7789,9.527,-0.0322,0.026,-0.113,-1.8820630512633265,0.0,3.1675829887390137,-1.8143943548202515,-0.0,1.8529415130615234,5.276348101883688,0.0,0.27300718426704407,-1.6216619650470179,0.0,-0.007813205942511559,0.3797844648361206,0.0,-0.01356654241681099,1.1970126628875732,-3.371037382748909e-05,0.025332102552056313
338.0,522.0,-1.3119,0.7789,9.527,-0.0322,0.026,-0.113,-1.8820587597289027,0.0,3.227372169494629,-1.81440269947052,-0.0,1.9335817098617554,5.276400017529287,0.0,0.29176509380340576,-1.6216495672809046,0.0,0.004518419504165649,0.3797844648361206,0.0,-0.026709385216236115,1.197008490562439,-3.249332439736463e-05,-0.044715046882629395
347.0,518.0,-0.8584,0.6724,9.6203,-0.0183,0.0191,-0.1066,-1.8820587597289027,0.0,3.1855669021606445,-1.8143582344055176,-0.0,1.877783179283142,5.276348101883688,0.0,0.273282915353775,-1.6216371695147913,0.0,-0.009060502983629704,0.3797684609889984,0.0,-0.02627304196357727,1.1970490217208862,-3.082406328758225e-05,0.011148993857204914
347.0,518.0,-0.8584,0.6724,9.6203,-0.0183,0.0191,-0.1066,-1.8820630512633265,0.0,3.176772117614746,-1.8143171072006226,-0.0,1.9034960269927979,5.276340114861288,0.0,0.2528773844242096,-1.6216538588153284,0.0,-0.007485512178391218,0.37980902194976807,0.0,-0.009918569587171078,1.1969482898712158,-2.9803348297718912e-05,0.030301222577691078
347.0,518.0,-0.8584,0.6724,9.6203,-0.0183,0.0191,-0.1066,-1.8820554218687953,0.0,3.1699862480163574,-1.8142982721328735,-0.0,1.9088165760040283,5.276400017529287,0.0,0.2705124020576477,-1.621645752583639,0.0,-0.0006582794012501836,0.3798127770423889,0.0,-0.02330845594406128,1.1969969272613525,-2.839300941559486e-05,-0.014988332986831665
347.0,518.0,-0.8584,0.6724,9.6203,-0.0183,0.0191,-0.1066,-1.8820630512633265,0.0,3.2225723266601562,-1.8143582344055176,-0.0,1.9094583988189697,5.276332187443533,0.0,0.2749785780906677,-1.6216734091388147,0.0,-0.0037581175565719604,0.3797532618045807,0.0,-0.009941748343408108,1.1970371007919312,-2.7524692995939404e-05,0.0012982820626348257
347.0,518.0,-0.8584,0.6724,9.6203,-0.0183,0.0191,-0.1066,-1.8820706806578578,0.0,3.2155842781066895,-1.8143129348754883,-0.0,1.8846008777618408,5.276328193932333,0.0,0.265031099319458,-1.621697727833883,0.0,-0.0011739915935322642,0.3798525631427765,0.0,-0.01072741486132145,1.1970371007919312,-2.6317406081943773e-05,-0.027945753186941147
347.0,518.0,-0.8584,0.6724,9.6203,-0.0183,0.0191,-0.1066,-1.8821116886534632,0.0,3.2176647186279297,-1.8143171072006226,-0.0,1.8805689811706543,5.276332187443533,0.0,0.26115161180496216,-1.6217177549945276,0.0,-0.0033206159714609385,0.37980085611343384,0.0,-0.011280830949544907,1.1970289945602417,-2.5569708668626845e-05,0.04260490462183952
347.0,518.0,-0.8584,0.6724,9.6203,-0.0183,0.0191,-0.1066,-1.8820506534972132,0.0,3.2360105514526367,-1.814333438873291,-0.0,1.8833906650543213,5.276367890625753,0.0,0.2730449438095093,-1.6216495672809046,0.0,-0.009942845441401005,0.37977632880210876,0.0,-0.02198728173971176,1.1970248222351074,-2.452460103086196e-05,-0.016094187274575233
347.0,518.0,-0.8584,0.6724,9.6203,-0.0183,0.0191,-0.1066,-1.8820511303343714,0.0,3.2336573600769043,-1.8143540620803833,-0.0,1.874427080154419,5.276344108372488,0.0,0.2642061412334442,-1.6216781775103968,0.0,0.004241599701344967,0.3798403739929199,0.0,-0.011036790907382965,1.1969928741455078,-2.3874055841588415e-05,-0.020048096776008606
347.0,518.0,-0.8584,0.6724,9.6203,-0.0183,0.0191,-0.1066,-1.882083078423971,0.0,3.2260401248931885,-1.8143292665481567,-0.0,1.8872687816619873,5.276375996857443,0.0,0.2634560167789459,-1.6217058340655726,0.0,-0.00025046011433005333,0.3798007667064667,0.0,-0.024166453629732132,1.1969928741455078,-3.4439970477251336e-05,-0.03122016414999962
347.0,518.0,-0.8584,0.6724,9.6203,-0.0183,0.0191,-0.1066,-1.882071157495016,0.0,3.214416265487671,-1.8143622875213623,-0.0,1.8738197088241577,5.276356088906088,0.0,0.27166539430618286,-1.6216614882098597,0.0,-0.008681725710630417,0.37981677055358887,0.0,-0.01986316591501236,1.1969928741455078,-9.562827472109348e-07,-0.0012697074562311172
347.0,518.0,-0.8584,0.6724,9.6203,-0.0183,0.0191,-0.1066,-1.882014890710348,0.0,3.2059555053710938,-1.8143582344055176,-0.0,1.8585679531097412,5.276368009835043,0.0,0.27454516291618347,-1.6216896216021937,0.0,0.0076845139265060425,0.37983712553977966,0.0,-0.02804974466562271,1.197008490562439,3.0275130484369583e-05,-0.05476032942533493
347.0,518.0,-0.8584,0.6724,9.6203,-0.0183,0.0191,-0.1066,-1.882043024102682,0.0,3.195624828338623,-1.8143861293792725,-0.0,1.8984501361846924,5.276360022812643,0.0,0.2706811726093292,-1.6216777006732386,0.0,-0.0014576753601431847,0.37977248430252075,0.0,-0.020279135555028915,1.1970527172088623,5.699011671822518e-05,-0.059359319508075714
347.0,518.0,-0.8584,0.6724,9.6203,-0.0183,0.0191,-0.1066,-1.8821193180479945,0.0,3.239323616027832,-1.8143458366394043,-0.0,1.9208828210830688,5.276360022812643,0.0,0.25828662514686584,-1.621725861226217,0.0,0.010972654446959496,0.3798167407512665,0.0,-0.024891868233680725,1.1970887184143066,0.000655829906463623,0.006912921089679003
347.0,518.0,-0.8584,0.6724,9.6203,-0.0183,0.0191,-0.1066,-1.882054945031637,0.0,3.212646007537842,-1.8143622875213623,-0.0,1.883100152015686,5.276375937252798,0.0,0.26370877027511597,-1.6216896216021937,0.0,-0.00785857904702425,0.3797927796840668,0.0,-0.012693915516138077,1.1970407962799072,0.0007036837050691247,-0.04378863424062729
347.0,518.0,-0.8584,0.6724,9.6203,-0.0183,0.0191,-0.1066,-1.8820954761900843,0.0,3.16290545463562,-1.8144067525863647,-0.0,1.9072585105895996,5.276344108372488,0.0,0.2737772464752197,-1.6217096487628382,0.0,0.008256076835095882,0.3798607289791107,0.0,-0.02142179384827614,1.1970407962799072,0.0005448895390145481,-0.028708040714263916
347.0,518.0,-0.8584,0.6724,9.6203,-0.0183,0.0191,-0.1066,-1.8820668659605921,0.0,3.2072176933288574,-1.8143573999404907,-0.0,1.87288236618042,5.276332187443533,0.0,0.2718103528022766,-1.6216815153705042,0.0,0.008507944643497467,0.37981677055358887,0.0,-0.012644033879041672,1.1970044374465942,0.0004141899407841265,-0.019650990143418312
347.0,518.0,-0.8584,0.6724,9.6203,-0.0183,0.0191,-0.1066,-1.882083078423971,0.0,3.194718360900879,-1.8143696784973145,-0.0,1.97214937210083,5.276356088906088,0.0,0.2565380334854126,-1.6216939131366175,0.0,-0.002139646327123046,0.3797968327999115,0.0,0.006675782613456249,1.1970728635787964,0.0003458767896518111,0.01859998144209385
347.0,518.0,-0.8584,0.6724,9.6203,-0.0183,0.0191,-0.1066,-1.8820954761900843,0.0,3.2107481956481934,-1.8143696784973145,-0.0,1.8681226968765259,5.276384162693777,0.0,0.2791805863380432,-1.6216853300677698,0.0,0.007651003077626228,0.37980905175209045,0.0,-0.01602288708090782,1.1970486640930176,0.00013109607971273363,-0.0077019017189741135
339.0,527.0,-1.0229,0.4391,9.6443,-0.0385,0.027,-0.1205,-1.882031103173727,0.0,3.193747043609619,-1.8143095970153809,-0.0,1.858791470527649,5.276344108372488,0.0,0.2774108052253723,-1.6216815153705042,0.0,0.0016426058718934655,0.3798364996910095,0.0,-0.031359702348709106,1.1970407962799072,0.00010584556730464101,0.005871250759810209
339.0,527.0,-1.0229,0.4391,9.6443,-0.0385,0.027,-0.1205,-1.8820954761900843,0.0,3.2062203884124756,-1.8143292665481567,-0.0,1.8587809801101685,5.276344167977133,0.0,0.27264636754989624,-1.6216533819781702,0.0,0.009899571537971497,0.37981316447257996,0.0,-0.01779879629611969,1.1970207691192627,9.470592340221629e-05,-0.08157006651163101
339.0,527.0,-1.0229,0.4391,9.6443,-0.0385,0.027,-0.1205,-1.8820630512633265,0.0,3.1841959953308105,-1.8144181966781616,-0.0,1.870395541191101,5.276371943741598,0.0,0.25842395424842834,-1.6216939131366175,0.0,0.0006727371364831924,0.37984469532966614,0.0,-0.020970070734620094,1.1970728635787964,0.00012249319115653634,-0.035564158111810684
339.0,527.0,-1.0229,0.4391,9.6443,-0.0385,0.027,-0.1205,-1.8820630512633265,0.0,3.2330472469329834,-1.8143210411071777,-0.0,1.8769984245300293,5.276332187443533,0.0,0.26500555872917175,-1.6216734091388147,0.0,-0.0017391250003129244,0.3798364996910095,0.0,-0.012273730710148811,1.197068691253662,0.00014977820683270693,-0.0630413144826889
339.0,527.0,-1.0229,0.4391,9.6443,-0.0385,0.027,-0.1205,-1.8821116886534632,0.0,3.195180654525757,-1.8143573999404907,-0.0,1.8648195266723633,5.276363956719198,0.0,0.27554014325141907,-1.6217015425311487,0.0,-0.002312399446964264,0.37982505559921265,0.0,-0.007496242877095938,1.1970446109771729,0.00013330005458556116,0.03880196809768677
339.0,527.0,-1.0229,0.4391,9.6443,-0.0385,0.027,-0.1205,-1.882026811639303,0.0,3.187530517578125,-1.8143374919891357,-0.0,1.9023644924163818,5.276344108372488,0.0,0.25079789757728577,-1.6217296759234827,0.0,0.0017187895718961954,0.3797644376754761,0.0,-0.013647057116031647,1.1970125436782837,0.00012410886120051146,-0.0076648397371172905
339.0,527.0,-1.0229,0.4391,9.6443,-0.0385,0.027,-0.1205,-1.8820916614928187,0.0,3.200671672821045,-1.8143622875213623,-0.0,1.8638166189193726,5.276360022812643,0.0,0.26572027802467346,-1.6216657797442835,0.0,0.002569634933024645,0.37982088327407837,0.0,-0.0163551215082407,1.1970367431640625,-1.9171181975252694e-06,0.01457223016768694
339.0,527.0,-1.0229,0.4391,9.6443,-0.0385,0.027,-0.1205,-1.8820387325682582,0.0,3.2148118019104004,-1.8143374919891357,-0.0,1.907724380493164,5.276356029301443,0.0,0.2719839811325073,-1.6216495672809046,0.0,8.2777114585042e-06,0.3798365592956543,0.0,-0.01553865522146225,1.1970044374465942,-0.00012169689580332488,-0.04179137945175171
339.0,527.0,-1.0229,0.4391,9.6443,-0.0385,0.027,-0.1205,-1.8820468387999476,0.0,3.170562744140625,-1.814325213432312,-0.0,1.8464224338531494,5.276360022812643,0.0,0.27159738540649414,-1.6216695944415491,0.0,-0.017355341464281082,0.3798208236694336,0.0,-0.028026441112160683,1.1970329284667969,-0.00014947452291380614,-0.06649817526340485
339.0,527.0,-1.0229,0.4391,9.6443,-0.0385,0.027,-0.1205,-1.88209929088735,0.0,3.2107720375061035,-1.8143384456634521,-0.0,1.8893251419067383,5.276348340302267,0.0,0.2726767063140869,-1.6216939131366175,0.0,0.003689615288749337,0.37982499599456787,0.0,-0.023359784856438637,1.1969727277755737,-0.0005488173919729888,0.012738707475364208
339.0,527.0,-1.0229,0.4391,9.6443,-0.0385,0.027,-0.1205,-1.8820916614928187,0.0,3.252580165863037,-1.8142669200897217,0.005322723183780909,1.8807711601257324,5.276348101883688,0.0,0.28262388706207275,-1.6216777006732386,0.0,-0.005110804457217455,0.37982437014579773,0.0,-0.030474528670310974,1.197016716003418,-0.00044117175275459886,-0.011548305861651897
339.0,527.0,-1.0229,0.4391,9.6443,-0.0385,0.027,-0.1205,-1.882083078423971,0.0,3.1895196437835693,-1.8141263723373413,0.015233752317726612,1.9451712369918823,5.276295769005575,0.0,0.2701911926269531,-1.6216777006732386,0.0,0.020284613594412804,0.3797643780708313,0.0,-0.015750976279377937,1.1970490217208862,-0.0003854043607134372,-0.029314503073692322
339.0,527.0,-1.0229,0.4391,9.6443,-0.0385,0.027,-0.1205,-1.8821155033507289,0.0,3.247432231903076,-1.814094066619873,0.016908055171370506,1.9218270778656006,5.276307868748464,0.0,0.2594231069087982,-1.6216653029071253,0.0,-0.002701749559491873,0.3797644078731537,0.0,-0.02619904652237892,1.1970126628875732,-0.00035521798417903483,0.009428401477634907
339.0,527.0,-1.0229,0.4391,9.6443,-0.0385,0.027,-0.1205,-1.882127424279684,-0.0003051206876989454,3.2194972038269043,-1.8140661716461182,0.009696714580059052,1.8786036968231201,5.276315855770864,-0.0015828923787921667,0.2616990804672241,-1.621685806904928,0.0,-0.002046667505055666,0.3798403739929199,0.0,-0.014983187429606915,1.1970329284667969,-0.0003953144478145987,-0.005123808979988098
339.0,527.0,-1.0229,0.4391,9.6443,-0.0385,0.027,-0.1205,-1.8821350536742152,-0.00026880070799961686,3.182778835296631,-1.8139584064483643,0.006721118930727243,1.9209322929382324,5.276263820915975,-0.0012656126637011766,0.27335482835769653,-1.621685806904928,0.0,0.0015900873113423586,0.3797844648361206,0.0,-0.022331729531288147,1.1970207691192627,-0.0003563932841643691,0.001218539196997881
339.0,527.0,-1.0229,0.4391,9.6443,-0.0385,0.027,-0.1205,-1.8820377788939417,-0.00018235882453154773,3.2544493675231934,-1.8139469623565674,0.007681234739720821,1.8486461639404297,5.27631567695693,0.0008910339674912393,0.27163854241371155,-1.6217501799212855,0.0,-0.0022990601137280464,0.3797927498817444,0.0,-0.006360556930303574,1.1970329284667969,-0.0003103089693468064,-0.008421815931797028
339.0,527.0,-1.0229,0.4391,9.6443,-0.0385,0.027,-0.1205,-1.882127424279684,-0.0001242550351889804,3.186206817626953,-1.8139147758483887,0.009339841082692146,1.9093682765960693,5.27628784158782,0.0005246541113592684,0.2553604543209076,-1.6216777006732386,0.0,0.004323940724134445,0.3797644078731537,0.0,-0.021076183766126633,1.1970411539077759,-0.0002499799011275172,-0.011827042326331139
339.0,527.0,-1.0229,0.4391,9.6443,-0.0385,0.027,-0.1205,-1.8820625744261683,0.00015436892863363028,3.207901954650879,-1.8138506412506104,0.0086647504940629,1.8747507333755493,5.276340293675222,0.0003623038064688444,0.26773589849472046,-1.6216333548175257,0.0,-0.005101111717522144,0.37981677055358887,0.0,-0.02424578182399273,1.1969809532165527,-0.0002540007699280977,-0.04583655297756195
332.0,496.0,-1.4572,1.4195,9.6526,-0.026,0.0229,-0.1153,-1.8820544681944789,0.00013180202222429216,3.161524772644043,-1.8137781620025635,0.0074170720763504505,1.9367859363555908,5.276303756027975,0.000301534280879423,0.2808974087238312,-1.6216819922076624,0.0,-0.0012799979886040092,0.3797767460346222,0.0,-0.010843273252248764,1.1970449686050415,-0.0002383869286859408,0.00785027164965868
332.0,496.0,-1.4572,1.4195,9.6526,-0.026,0.0229,-0.1153,-1.8821035824217738,5.625997073366307e-05,3.2038562297821045,-1.8137305974960327,0.00747250858694315,1.8772079944610596,5.276327776699819,0.00024094244872685522,0.2718738913536072,-1.6216777006732386,0.0,-0.009997674264013767,0.379804790019989,0.0,-0.023387955501675606,1.1969932317733765,-0.0002168476057704538,-3.531016409397125e-05
332.0,496.0,-1.4572,1.4195,9.6526,-0.026,0.0229,-0.1153,-1.882111211816305,4.823785639018752e-05,3.205627679824829,-1.8136993646621704,0.008458307012915611,1.9098949432373047,5.276323783188619,0.00021248469420243055,0.2599690854549408,-1.6216777006732386,0.0,0.004819379188120365,0.3797967731952667,0.0,-0.01631302386522293,1.1970411539077759,-0.0002045275323325768,-0.01968538388609886
332.0,496.0,-1.4572,1.4195,9.6526,-0.026,0.0229,-0.1153,-1.8821474514403285,3.3773750462984253e-10,3.232130527496338,-1.8137240409851074,0.009438827633857727,1.9748940467834473,5.276271807938375,0.00010593648767098784,0.2727227807044983,-1.621624771748678,0.0,-0.009688488207757473,0.3798048794269562,0.0,-0.02983146719634533,1.196968674659729,-0.00018496958364266902,-0.007375689223408699
332.0,496.0,-1.4572,1.4195,9.6526,-0.026,0.0229,-0.1153,-1.88212313274526,6.079156140070471e-14,3.2302675247192383,-1.8137074708938599,0.008626453578472137,1.8874809741973877,5.276295947819509,5.368065831135027e-05,0.26795390248298645,-1.6216290632831019,0.0,0.0065629989840090275,0.3798566460609436,0.0,-0.017315611243247986,1.1969727277755737,-0.000885038694832474,0.007637107744812965
332.0,496.0,-1.4572,1.4195,9.6526,-0.026,0.0229,-0.1153,-1.8821188412108363,1.4680446082421679e-19,3.2162513732910156,-1.8136318922042847,0.007609168998897076,1.8951005935668945,5.276271807938375,1.934133990744158e-07,0.27634626626968384,-1.6216777006732386,0.0,-0.00239253300242126,0.379820853471756,0.0,-0.002990465145558119,1.1969932317733765,-0.0017397295450791717,-0.03050605207681656
332.0,496.0,-1.4572,1.4195,9.6526,-0.026,0.0229,-0.1153,-1.882183691064352,-0.0005842819227837026,3.2175700664520264,-1.8135470151901245,0.006522439420223236,1.8647840023040771,5.276280033379354,8.2455164918116e-10,0.27020829916000366,-1.6216819922076624,0.0,-0.013883370906114578,0.37982502579689026,0.0,-0.011970574036240578,1.1969572305679321,-0.001905855257064104,-0.014058876782655716
332.0,496.0,-1.4572,1.4195,9.6526,-0.026,0.0229,-0.1153,-1.882151266137594,-0.00036576707498170435,3.1920270919799805,-1.8135881423950195,0.007964481599628925,1.8807209730148315,5.276284026890554,2.2951698050791003e-13,0.2656761109828949,-1.621645752583639,0.0,-0.0055963885970413685,0.3797565698623657,0.0,-0.009586264379322529,1.1969407796859741,-0.0011061230907216668,-0.041484735906124115
332.0,496.0,-1.4572,1.4195,9.6526,-0.026,0.0229,-0.1153,-1.8821312389769496,-0.00028346155886538327,3.2360754013061523,-1.8134516477584839,0.011132150888442993,1.9077773094177246,5.276263940125265,9.784669438006317e-16,0.25836384296417236,-1.621685806904928,0.0,-0.0009190022828988731,0.3797926604747772,0.0,-0.010635573416948318,1.1969449520111084,-0.0008889883756637573,-0.02438906952738762
332.0,496.0,-1.4572,1.4195,9.6526,-0.026,0.0229,-0.1153,-1.882111211816305,-0.0001719669671729207,3.2369723320007324,-1.8134121894836426,0.015108403749763966,1.894580364227295,5.276295947819509,2.72359866633471e-19,0.27245214581489563,-1.6216614882098597,0.0,-0.014604663476347923,0.37988075613975525,0.0,-0.015355641022324562,1.1969166994094849,-0.0005950257182121277,-0.032720327377319336
332.0,496.0,-1.4572,1.4195,9.6526,-0.026,0.0229,-0.1153,-1.88212313274526,0.00015175933367572725,3.20717716217041,-1.8132838010787964,0.01875847950577736,1.9306957721710205,5.276311981468954,1.1611127796058314e-21,0.27511924505233765,-1.6216896216021937,0.0,-0.002224673517048359,0.3798365592956543,0.0,-0.02579953335225582,1.197009563446045,-0.000487529527163133,-0.016463428735733032
332.0,496.0,-1.4572,1.4195,9.6526,-0.026,0.0229,-0.1153,-1.882054945031637,0.00018184604414273053,3.2164602279663086,-1.8131521940231323,0.02809775248169899,1.935176134109497,5.276255833893575,3.2320005995834834e-25,0.27622202038764954,-1.621697727833883,0.0,0.0003238723147660494,0.3798484802246094,0.0,-0.01721741072833538,1.196976900100708,-0.00038359995232895017,-0.021626796573400497
332.0,496.0,-1.4572,1.4195,9.6526,-0.026,0.0229,-0.1153,-1.882127424279684,0.00016025957302190363,3.1780221462249756,-1.813008189201355,0.0327339731156826,1.9575068950653076,5.276288020401754,1.3778523637839134e-27,0.26671522855758667,-1.6216777006732386,0.0,-0.0034921036567538977,0.37982845306396484,0.0,-0.012852353975176811,1.1969490051269531,-0.00027990477974526584,0.0248686745762825
332.0,496.0,-1.4572,1.4195,9.6526,-0.026,0.0229,-0.1153,-1.88209929088735,0.00013603339903056622,3.199232578277588,-1.8128091096878052,0.04217659682035446,1.930973768234253,5.276303934841909,3.8353023455465293e-31,0.27006423473358154,-1.6216777006732386,0.0,-0.008698108606040478,0.3797926604747772,0.0,-0.018126143142580986,1.1969367265701294,-0.00018877886759582907,-0.06068013980984688
332.0,496.0,-1.4572,1.4195,9.6526,-0.026,0.0229,-0.1153,-1.8820911846556605,8.239462476922199e-05,3.2061777114868164,-1.8126040697097778,0.04805489629507065,1.9571254253387451,5.276292073517599,1.635049275501453e-33,0.26000121235847473,-1.6216538588153284,0.0,0.003801476676017046,0.37978851795196533,0.0,-0.006337874568998814,1.1969890594482422,-4.8961868742480874e-05,0.03761269897222519
332.0,496.0,-1.4572,1.4195,9.6526,-0.026,0.0229,-0.1153,-1.8821631870665492,3.639371061581187e-05,3.2550878524780273,-1.8122366666793823,0.05736460164189339,1.9781290292739868,5.27628384807662,-4.7085603000596166e-05,0.2778130769729614,-1.6216700712787073,0.0,-0.00022273793001659214,0.3797968327999115,0.0,-0.01055465079843998,1.1969449520111084,-2.4147819743802756e-08,-0.013596382923424244
332.0,496.0,-1.4572,1.4195,9.6526,-0.026,0.0229,-0.1153,-1.8821469746031703,5.520587365026586e-08,3.2321667671203613,-1.8119930028915405,0.06101078540086746,1.9561396837234497,5.27627985456542,-3.56516866304446e-05,0.2784762978553772,-1.621673885975973,0.0,-0.0065959664061665535,0.3798048794269562,0.0,-0.018766773864626884,1.1969530582427979,-4.34652227404575e-12,-0.0014725974760949612
332.0,496.0,-1.4572,1.4195,9.6526,-0.026,0.0229,-0.1153,-1.8821307621397914,1.3331570819074406e-13,3.1610665321350098,-1.8116302490234375,0.06788001954555511,1.9375884532928467,5.276267933636465,-3.183571243425831e-05,0.28408512473106384,-1.6216614882098597,0.0,-0.016627149656414986,0.37982437014579773,0.0,-0.019248122349381447,1.1969530582427979,-1.0496339638146684e-17,-0.012149724178016186
338.0,515.0,-0.6323,0.0718,10.1773,-0.0721,0.0011,-0.1364,-1.8820907078185023,3.2194174463414716e-19,3.2393877506256104,-1.8112353086471558,0.07071957737207413,1.9848650693893433,5.27627985456542,-2.8781108994735405e-05,0.28030821681022644,-1.6216657797442835,0.0,-0.0067786555737257,0.37987715005874634,0.0,-0.010696162469685078,1.1969972848892212,-2.534742459335007e-23,0.02008490450680256
338.0,515.0,-0.6323,0.0718,10.1773,-0.0721,0.0011,-0.1364,-1.8821312389769496,5.794837787855303e-23,3.206141471862793,-1.810887336730957,0.0709085687994957,1.9740451574325562,5.276292073517599,-2.7050797143601812e-05,0.26979994773864746,-1.6216376463519495,0.0,-0.012034919112920761,0.37982505559921265,0.0,-0.025066206231713295,1.1970173120498657,-4.5624471491956975e-27,0.027259526774287224
338.0,515.0,-0.6323,0.0718,10.1773,-0.0721,0.0011,-0.1364,-1.88212313274526,1.399384910563519e-28,3.2455546855926514,-1.8104604482650757,0.07347270101308823,1.997012972831726,5.276288020401754,-2.4813227355480194e-05,0.26779770851135254,-1.6216777006732386,0.0,-0.009240197017788887,0.37992140650749207,0.0,-0.02241467870771885,1.1969609260559082,-1.1017774837774895e-32,-0.02088332176208496
338.0,515.0,-0.6323,0.0718,10.1773,-0.0721,0.0011,-0.1364,-1.8821312389769496,2.518843711343831e-32,3.2353615760803223,-1.8101651668548584,0.07699999213218689,2.0255250930786133,5.276311862259664,-2.3516424334957264e-05,0.27400141954421997,-1.6216657797442835,0.0,-0.004152453504502773,0.37977224588394165,0.0,-0.02443818375468254,1.1969486474990845,-1.9831604552351017e-36,-0.010292856954038143
338.0,515.0,-0.6323,0.0718,10.1773,-0.0721,0.0011,-0.1364,-1.8821193180479945,6.082712092909693e-38,3.206509828567505,-1.8097100257873535,0.08279384672641754,1.9889991283416748,5.27624403217391,-2.1806932636536658e-05,0.2732788622379303,-1.621713940297262,0.0,-0.007962821051478386,0.3797804117202759,0.0,-0.01602977141737938,1.1969727277755737,-4.789638151062225e-42,0.00834703166037798
338.0,515.0,-0.6323,0.0718,10.1773,-0.0721,0.0011,-0.1364,-1.88212313274526,1.0948344901769796e-41,3.255868911743164,-1.8093341588974,0.08701911568641663,1.9972556829452515,5.27622406461791,-4.020779306301847e-05,0.26308566331863403,-1.6216819922076624,0.0,-0.0032954488415271044,0.3797808587551117,0.0,-0.019817616790533066,1.1969608068466187,-1.401298464324817e-45,-0.05465221405029297
338.0,515.0,-0.6323,0.0718,10.1773,-0.0721,0.0011,-0.1364,-1.8821350536742152,0.0,3.214259624481201,-1.8088151216506958,0.08870117366313934,1.9705641269683838,5.27627186754302,-7.260635175043717e-05,0.27520665526390076,-1.6216700712787073,0.0,-0.011478293687105179,0.3798607289791107,0.0,-0.027895236387848854,1.1970256567001343,0.0,-0.014369264245033264
338.0,515.0,-0.6323,0.0718,10.1773,-0.0721,0.0011,-0.1364,-1.8821798763670863,0.0,3.2201571464538574,-1.808448314666748,0.09164053201675415,2.069040298461914,5.276236104756155,-0.0001984813716262579,0.28279033303260803,-1.6216734091388147,0.0,0.00120701570995152,0.379792720079422,0.0,-0.023966748267412186,1.1970092058181763,0.0,-0.005527337081730366
338.0,515.0,-0.6323,0.0718,10.1773,-0.0721,0.0011,-0.1364,-1.8821875057616175,0.0,3.23348331451416,-1.80793297290802,0.09323371201753616,2.035041332244873,5.276207673340597,-0.0012754863128066063,0.2649366557598114,-1.6216939131366175,0.0,-0.0013060917844995856,0.3797926902770996,0.0,-0.02495657652616501,1.1970009803771973,0.00032063102116808295,-0.04650741070508957
338.0,515.0,-0.6323,0.0718,10.1773,-0.0721,0.0011,-0.1364,-1.8822351894774378,-0.0012385414447635412,3.2031524181365967,-1.8075932264328003,0.09423843026161194,2.061516761779785,5.276207911759176,-0.001234005088917911,0.25760799646377563,-1.621645752583639,0.0,-0.0008199408184736967,0.37982499599456787,0.0,-0.028385739773511887,1.1969932317733765,0.00028834110707975924,-0.009037094190716743
338.0,515.0,-0.6323,0.0718,10.1773,-0.0721,0.0011,-0.1364,-1.8821822605528773,-0.002840982284396887,3.249952793121338,-1.8069592714309692,0.09606008976697922,2.0104825496673584,5.276203858643331,-0.0010364757617935538,0.2787322402000427,-1.6216939131366175,0.0,-0.001757927588187158,0.37982502579689026,0.0,-0.021240584552288055,1.1969609260559082,0.0002418470394331962,0.02413208968937397
338.0,515.0,-0.6323,0.0718,10.1773,-0.0721,0.0011,-0.1364,-1.8822351894774378,-0.002985433442518115,3.2458677291870117,-1.8065509796142578,0.09673640131950378,1.9886106252670288,5.276179778366842,-0.0008034633938223124,0.27120137214660645,-1.621645752583639,0.0,-0.006348639726638794,0.3798167407512665,0.0,-0.02946363016963005,1.1969972848892212,0.00017477109213359654,0.010805929079651833
338.0,515.0,-0.6323,0.0718,10.1773,-0.0721,0.0011,-0.1364,-1.8821870289244593,-0.002093519549816847,3.2245006561279297,-1.8059605360031128,0.09734538942575455,2.008103132247925,5.276195692806997,-0.0005809271824546158,0.27754271030426025,-1.6216900984393519,0.0,0.012329422868788242,0.3797725737094879,0.0,-0.02119274064898491,1.196976900100708,0.00015249545685946941,-0.02273479290306568
338.0,515.0,-0.6323,0.0718,10.1773,-0.0721,0.0011,-0.1364,-1.8822070560851039,-0.0013108733110129833,3.2144126892089844,-1.8055615425109863,0.09800408035516739,2.006175994873047,5.276179778366842,-0.0004903951194137335,0.2817152142524719,-1.6216657797442835,0.0,0.006708797067403793,0.3798086941242218,0.0,-0.01862367056310177,1.1970009803771973,0.00014058461238164455,0.02916223742067814
338.0,515.0,-0.6323,0.0718,10.1773,-0.0721,0.0011,-0.1364,-1.8821708164610804,-0.0007578541990369558,3.1957359313964844,-1.804998755455017,0.10054168105125427,2.017793893814087,5.276219773083486,-0.00039750486030243337,0.2713600993156433,-1.6216939131366175,0.0,-0.0025624765548855066,0.3798365592956543,0.0,-0.016475088894367218,1.1969727277755737,0.00012584120850078762,-0.02808009833097458
338.0,515.0,-0.6323,0.0718,10.1773,-0.0721,0.0011,-0.1364,-1.8821708164610804,-0.0005051215994171798,3.2417092323303223,-1.8045265674591064,0.10568690299987793,2.0118486881256104,5.276175546437063,-0.0003529444511514157,0.26811814308166504,-1.6216657797442835,0.0,0.0009904915932565928,0.37973684072494507,0.0,-0.010192441754043102,1.1969646215438843,5.088936086394824e-05,-0.03411605954170227
338.0,515.0,-0.6323,0.0718,10.1773,-0.0721,0.0011,-0.1364,-1.8822113476195277,-0.00037102942587807775,3.1595346927642822,-1.803828239440918,0.11290527880191803,2.060598373413086,5.276179778366842,-0.00030214572325348854,0.2746867537498474,-1.621685806904928,0.0,-0.0024366627912968397,0.3798525929450989,0.0,-0.02356930822134018,1.1969890594482422,8.696186705492437e-05,-0.05315841734409332
338.0,515.0,-0.6323,0.0718,10.1773,-0.0721,0.0011,-0.1364,-1.8822070560851039,-0.0003184942761436105,3.2322468757629395,-1.8034528493881226,0.11643943190574646,2.034391403198242,5.276187646179952,-0.0002756946487352252,0.2617873251438141,-1.621657673512594,0.0,-0.0031596713233739138,0.3798524737358093,0.0,-0.014443903230130672,1.1970009803771973,0.00014494841161649674,-0.06918312609195709
338.0,479.0,-1.2497,0.5252,9.5659,-0.0718,0.1245,-0.118,-1.8822232685484828,-0.00031524195219390094,3.2159924507141113,-1.8027101755142212,0.12243051826953888,2.0724925994873047,5.276135968952932,-0.00024369510356336832,0.257104754447937,-1.621697727833883,0.0,-0.01457097940146923,0.379848450422287,0.0,-0.010614464059472084,1.1970207691192627,0.0005468596355058253,-0.06290141493082047
338.0,479.0,-1.2497,0.5252,9.5659,-0.0718,0.1245,-0.118,-1.882242818871969,-0.0002822816604748368,3.213223934173584,-1.8021659851074219,0.12910403311252594,2.080470561981201,5.276159691601553,-0.000226192845730111,0.26834753155708313,-1.6216853300677698,0.0,-0.004753601737320423,0.3798365294933319,0.0,-0.00984807126224041,1.197016716003418,0.0010013339342549443,0.033098746091127396
338.0,479.0,-1.2497,0.5252,9.5659,-0.0718,0.1245,-0.118,-1.8822394810118617,-0.00027067921473644674,3.258676528930664,-1.8013837337493896,0.13599376380443573,2.0516719818115234,5.276199686318197,-0.00020419599604792893,0.2714060842990875,-1.6217339674579065,0.0,-0.0003808124456554651,0.37984439730644226,2.7839326399714537e-09,-0.011149601079523563,1.1969927549362183,0.0009334664209745824,0.0003574574366211891
338.0,479.0,-1.2497,0.5252,9.5659,-0.0718,0.1245,-0.118,-1.8822714291014613,-0.0002855498460121453,3.1781234741210938,-1.8009452819824219,0.13595721125602722,2.0664188861846924,5.276179778366842,-0.00019176374189555645,0.26740556955337524,-1.6216538588153284,0.0,0.0001988604199141264,0.3798045516014099,1.1868342246479369e-11,0.006030027288943529,1.1970248222351074,0.0007300054421648383,0.007183201611042023
338.0,479.0,-1.2497,0.5252,9.5659,-0.0718,0.1245,-0.118,-1.8822266064085902,-0.00023519560636486858,3.2003304958343506,-1.8000586032867432,0.13918514549732208,2.073765993118286,5.2761438367660425,-0.0002008114825002849,0.27206963300704956,-1.621697250996725,0.0,-0.00912613794207573,0.37982845306396484,3.303596842090038e-15,-0.007516740821301937,1.197008490562439,0.0005920922267250717,0.022518400102853775
338.0,479.0,-1.2497,0.5252,9.5659,-0.0718,0.1245,-0.118,-1.8822266064085902,-0.00026344420621171594,3.1990785598754883,-1.799451231956482,0.14354188740253448,2.087678909301758,5.276163863926687,-0.000190207822015509,0.2902800142765045,-1.6216614882098597,0.0,-0.02162696048617363,0.37987270951271057,1.408375247161771e-17,-0.010623453184962273,1.1970851421356201,0.000470711529487744,0.03278343379497528
338.0,479.0,-1.2497,0.5252,9.5659,-0.0718,0.1245,-0.118,-1.8822914562621058,-0.001030639512464404,3.256934642791748,-1.7985893487930298,0.15390460193157196,2.081512928009033,5.276167857437887,-0.00012064155453117564,0.27082112431526184,-1.621645752583639,0.0,0.0006941061001271009,0.37989673018455505,0.00032979086972773075,-0.006087619345635176,1.1970486640930176,0.0003394608211237937,0.03503571078181267
338.0,479.0,-1.2497,0.5252,9.5659,-0.0718,0.1245,-0.118,-1.882247110406393,-0.0010637243976816535,3.204759120941162,-1.7979415655136108,0.15803605318069458,2.1342430114746094,5.276187765389242,-0.00017368663975503296,0.2791695296764374,-1.6216490904437464,0.0,0.007017513271421194,0.3798607885837555,0.00039625706267543137,-0.018191399052739143,1.197068691253662,0.0003538395103532821,-0.017734915018081665
338.0,479.0,-1.2497,0.5252,9.5659,-0.0718,0.1245,-0.118,-1.8822747669615687,-0.0025306816678494215,3.239227771759033,-1.7970679998397827,0.16413164138793945,2.1752467155456543,5.2761356113250635,-0.0021949505899101496,0.277789831161499,-1.6216657797442835,0.0,-0.010083901695907116,0.37983623147010803,0.0004061490762978792,-0.006864518392831087,1.1970248222351074,0.00029577428358606994,0.03656946122646332
338.0,479.0,-1.2497,0.5252,9.5659,-0.0718,0.1245,-0.118,-1.8823758564391078,-0.0052495296113193035,3.189255714416504,-1.7959896326065063,0.1663980334997177,2.1242809295654297,5.276135670929708,-0.002506042132154107,0.269985556602478,-1.6216414610492151,0.0,-0.01380951888859272,0.37986448407173157,0.0006522391922771931,0.003945608157664537,1.1970486640930176,0.0002122856822097674,0.03808270022273064
338.0,479.0,-1.2497,0.5252,9.5659,-0.0718,0.1245,-0.118,-1.8823391399779261,-0.006545410491526127,3.208739995956421,-1.7953110933303833,0.16782160103321075,2.190966844558716,5.2761196968849084,-0.0023321369662880898,0.2770289182662964,-1.6216495672809046,-4.055133558722446e-06,0.0038587229792028666,0.37988045811653137,0.0006526651559397578,-0.012028399854898453,1.1969969272613525,0.00019348440400790423,0.04567743465304375
338.0,479.0,-1.2497,0.5252,9.5659,-0.0718,0.1245,-0.118,-1.8823868236937464,-0.007517753168940544,3.202847480773926,-1.7942522764205933,0.17185381054878235,2.194223403930664,5.276115822582998,-0.0019893967546522617,0.2879655361175537,-1.6216452757464808,-1.12876119562344e-09,0.0022179267834872007,0.37992843985557556,0.0007765439804643393,-0.014054672792553902,1.1969887018203735,0.0001371042017126456,0.07135583460330963
338.0,479.0,-1.2497,0.5252,9.5659,-0.0718,0.1245,-0.118,-1.8823868236937464,-0.007025899365544319,3.1717073917388916,-1.793594241142273,0.17731623351573944,2.16705322265625,5.276051926403799,-0.0018032181542366743,0.26241829991340637,-1.6216452757464808,-4.812086493166667e-12,-0.017427824437618256,0.37986820936203003,0.0007330277585424483,-0.007594690192490816,1.1970411539077759,9.58500531851314e-05,-0.0030893520452082157
338.0,479.0,-1.2497,0.5252,9.5659,-0.0718,0.1245,-0.118,-1.8824264011778773,-0.006791111081838608,3.1546630859375,-1.792520523071289,0.18699921667575836,2.150808811187744,5.276043641358175,-0.0035268585197627544,0.25363534688949585,-1.6216142813311976,-1.339462115645929e-15,-0.010747184976935387,0.3798845410346985,0.0007375712739303708,0.0003111779224127531,1.1969608068466187,-0.00020583947480190545,0.04051338881254196
338.0,479.0,-1.2497,0.5252,9.5659,-0.0718,0.1245,-0.118,-1.8824664554991664,-0.006823497824370861,3.176737070083618,-1.7917609214782715,0.19158558547496796,2.1924870014190674,5.276011454849996,-0.005425049923360348,0.2761217951774597,-1.6215980688678187,-5.7103367204123386e-18,-0.01160141360014677,0.37985217571258545,0.0007667478057555854,0.0009138607420027256,1.1969890594482422,-0.0009001049329526722,-0.0013277335092425346
338.0,479.0,-1.2497,0.5252,9.5659,-0.0718,0.1245,-0.118,-1.8825189075865687,-0.008631533943116665,3.210752487182617,-1.790610909461975,0.19646099209785461,2.2155749797821045,5.275939512043752,-0.008083143271505833,0.2738049626350403,-1.6215656439410608,-1.5894930792737612e-21,-0.004061311949044466,0.37990808486938477,0.001001175376586616,-0.004166069906204939,1.197005033493042,-0.0006768350140191615,0.06048183888196945
338.0,479.0,-1.2497,0.5252,9.5659,-0.0718,0.1245,-0.118,-1.8826075992979945,-0.009872367605566978,3.155811309814453,-1.7898929119110107,0.19763001799583435,2.176804542541504,5.275911140232839,-0.010424003005027771,0.25667038559913635,-1.621617619191305,-6.776258377863315e-24,-0.002884938381612301,0.37993255257606506,0.0015284016262739897,-0.0017839320935308933,1.1969850063323975,-0.0005411006859503686,0.03126242756843567
316.0,393.0,-0.8656,0.3631,9.5157,-0.0846,0.1382,-0.1368,-1.8826190433897914,-0.011127308942377567,3.1690149307250977,-1.7886587381362915,0.2007746547460556,2.1828219890594482,5.27585135677413,-0.013376262038946152,0.25156131386756897,-1.6216018835650843,-1.886196661483566e-27,0.005949797108769417,0.3799322545528412,0.004222041927278042,0.007163899950683117,1.196964979171753,-0.0004853176942560822,0.06049596518278122
316.0,393.0,-0.8656,0.3631,9.5157,-0.0846,0.1382,-0.1368,-1.8826834164061488,-0.011517464183270931,3.1811509132385254,-1.787844181060791,0.20681925117969513,2.1945855617523193,5.275779175549307,-0.014306370168924332,0.2681954503059387,-1.6215737501727503,-8.041152483918586e-30,-0.015264569781720638,0.3799563944339752,0.009693160653114319,-0.0005064769648015499,1.196976900100708,-0.00047339912271127105,-0.026745999231934547
316.0,393.0,-0.8656,0.3631,9.5157,-0.0846,0.1382,-0.1368,-1.8827587566771449,-0.013237628154456615,3.1287713050842285,-1.7866102457046509,0.21622252464294434,2.2921929359436035,5.275687205582418,-0.017116863280534744,0.2533572316169739,-1.6215818564044397,-2.238283956326665e-33,0.017164355143904686,0.38000738620758057,0.018383484333753586,0.007143187336623669,1.196976900100708,-0.0003467907081358135,0.001638391986489296
316.0,393.0,-0.8656,0.3631,9.5157,-0.0846,0.1382,-0.1368,-1.8828636608519496,-0.01535360049456358,3.1512866020202637,-1.785792589187622,0.21701808273792267,2.2576684951782227,5.275611030846395,-0.020067065954208374,0.24862590432167053,-1.6216142813311976,0.00014286066289059818,0.0034304377622902393,0.3800835907459259,0.016766995191574097,0.015584642067551613,1.196976900100708,-0.0002784099488053471,-0.042724594473838806
316.0,393.0,-0.8656,0.3631,9.5157,-0.0846,0.1382,-0.1368,-1.882923265496725,-0.01968269981443882,3.128974437713623,-1.7844377756118774,0.21391832828521729,2.262777328491211,5.275483119278707,-0.02590096741914749,0.23328551650047302,-1.6215422789203089,0.00041049637366086245,0.01894398219883442,0.38013094663619995,0.010303666815161705,0.005807407200336456,1.197024941444397,-0.0003125385846942663,-0.13993124663829803
316.0,393.0,-0.8656,0.3631,9.5157,-0.0846,0.1382,-0.1368,-1.8830272159972132,-0.02236749790608883,3.1144728660583496,-1.7835685014724731,0.21399205923080444,2.241957426071167,5.275362360268392,-0.02848864533007145,0.24591395258903503,-1.6215499083148401,0.00041630634223110974,0.029024958610534668,0.38014650344848633,0.005656552966684103,0.00783367920666933,1.196976900100708,-0.00029767013620585203,-0.09951074421405792
316.0,393.0,-0.8656,0.3631,9.5157,-0.0846,0.1382,-0.1368,-1.8831993542113246,-0.02785341627895832,3.066481590270996,-1.7822593450546265,0.22025234997272491,2.276683807373047,5.275178539543905,-0.03434062376618385,0.23459401726722717,-1.6215699354754847,0.0005650795646943152,0.031339868903160095,0.38021913170814514,0.0016314979875460267,0.008297350257635117,1.1969527006149292,-0.0002979569835588336,-0.1071041077375412
316.0,393.0,-0.8656,0.3631,9.5157,-0.0846,0.1382,-0.1368,-1.883263727227682,-0.029327020049095154,3.0813984870910645,-1.7813907861709595,0.225559800863266,2.315291166305542,5.275014447956838,-0.03978453576564789,0.27489304542541504,-1.6215580145465296,0.0006258194916881621,0.020499063655734062,0.3801990747451782,0.0008458921802230179,0.0035119852982461452,1.196956753730774,-0.000413187692174688,-0.11683395504951477
316.0,393.0,-0.8656,0.3631,9.5157,-0.0846,0.1382,-0.1368,-1.8834310970702113,-0.03193267062306404,3.0423169136047363,-1.7799900770187378,0.22914667427539825,2.285445213317871,5.274741279869833,-0.05294153094291687,0.22675520181655884,-1.6215580145465296,0.0006893218960613012,0.03937826678156853,0.3802028000354767,0.0005392436287365854,-0.0012613150756806135,1.196964979171753,-0.0011458790395408869,-0.14054535329341888
316.0,393.0,-0.8656,0.3631,9.5157,-0.0846,0.1382,-0.1368,-1.8835307560362757,-0.03525592386722565,3.11808443069458,-1.77903151512146,0.22829830646514893,2.3276004791259766,5.27453778961257,-0.06555966287851334,0.222915381193161,-1.6215418020831507,0.0007525829714722931,0.044553499668836594,0.38023072481155396,0.0004348413203842938,-0.002634585602208972,1.1969809532165527,-0.0011438052169978619,-0.16326916217803955
316.0,393.0,-0.8656,0.3631,9.5157,-0.0846,0.1382,-0.1368,-1.8837582073607386,-0.03791097551584244,3.038123369216919,-1.7776843309402466,0.23206296563148499,2.339935302734375,5.274088251381674,-0.08333878219127655,0.21442945301532745,-1.6215384642230433,0.001223123399540782,0.05063233897089958,0.38019871711730957,0.0004042648943141103,0.005908538121730089,1.196956753730774,-0.0012847715988755226,-0.15839098393917084
316.0,393.0,-0.8656,0.3631,9.5157,-0.0846,0.1382,-0.1368,-1.8839389286436976,-0.04017864912748337,3.0344223976135254,-1.7767702341079712,0.23630373179912567,2.362680673599243,5.2737125037010095,-0.09476365149021149,0.20437826216220856,-1.6215298811541956,0.0031620729714632034,0.05474117025732994,0.38019871711730957,0.00035171970375813544,0.008230673149228096,1.196956753730774,-0.0014356855535879731,-0.16470110416412354
316.0,393.0,-0.8656,0.3631,9.5157,-0.0846,0.1382,-0.1368,-1.8841377697386683,-0.04223949462175369,3.0044095516204834,-1.7753052711486816,0.2404400110244751,2.321608781814575,5.27307556846694,-0.10377039760351181,0.20030450820922852,-1.621486012135641,0.01653057150542736,0.06172459200024605,0.3802790939807892,0.00029420331702567637,-0.00017372379079461098,1.1969329118728638,-0.004305304028093815,-0.2518044114112854
316.0,393.0,-0.8656,0.3631,9.5157,-0.0846,0.1382,-0.1368,-1.8843943081297816,-0.04448967054486275,3.0463263988494873,-1.774336338043213,0.23647832870483398,2.3075103759765625,5.272655415325918,-0.10358712077140808,0.18898463249206543,-1.6214264074908655,0.02796292118728161,0.05726213753223419,0.3801346719264984,0.00026528703165240586,0.00111031299456954,1.1970055103302002,-0.0062079476192593575,-0.28760606050491333
316.0,393.0,-0.8656,0.3631,9.5157,-0.0846,0.1382,-0.1368,-1.8846622906126917,-0.047959063202142715,3.082447052001953,-1.7728638648986816,0.2388484627008438,2.367276430130005,5.272089886456289,-0.09908560663461685,0.19552749395370483,-1.6212709585772913,0.027625305578112602,0.07674788683652878,0.3802388906478882,0.00023120247351471335,0.013541748747229576,1.1968728303909302,-0.006756821647286415,-0.2791142165660858
316.0,393.0,-0.8656,0.3631,9.5157,-0.0846,0.1382,-0.1368,-1.884874006310934,-0.04822874441742897,3.0370635986328125,-1.771898865699768,0.24052338302135468,2.319481134414673,5.271685051708975,-0.10487029701471329,0.1925783008337021,-1.621167008076803,0.022968636825680733,0.06290660053491592,0.3802150785923004,0.00021296243357937783,0.004182026721537113,1.19684898853302,-0.004927621688693762,-0.34166014194488525
316.0,393.0,-0.8656,0.3631,9.5157,-0.0846,0.1382,-0.1368,-1.8851376972594203,-0.05083112046122551,2.9901113510131836,-1.7705020904541016,0.2458927035331726,2.381545066833496,5.270933437138357,-0.1334829181432724,0.19204217195510864,-1.621047321950094,0.011812522076070309,0.06748658418655396,0.38021498918533325,0.00019042872008867562,0.010091658681631088,1.1968249082565308,-0.0023894081823527813,-0.2930978536605835
316.0,393.0,-0.8656,0.3631,9.5157,-0.0846,0.1382,-0.1368,-1.8854028187193812,-0.05075124278664589,3.0145959854125977,-1.769497036933899,0.24528488516807556,2.3686161041259766,5.270340370922842,-0.1512717604637146,0.16390986740589142,-1.6210435072528284,0.004243512637913227,0.07067494094371796,0.38017451763153076,0.00017788093828130513,-0.00475343270227313,1.1968733072280884,-0.0017246718052774668,-0.28836700320243835
280.0,315.0,-1.4674,-0.195,9.3021,-0.1225,0.1759,-0.1303,-1.8856502972044886,-0.05117018520832062,2.992079734802246,-1.7679802179336548,0.24654895067214966,2.3936588764190674,5.269397961884298,-0.1600997895002365,0.15880952775478363,-1.621063534413473,-0.0007281261496245861,0.07538773119449615,0.3801864981651306,0.00016188205336220562,-0.010211575776338577,1.1968331336975098,-0.0016115644248202443,-0.34624576568603516
280.0,315.0,-1.4674,-0.195,9.3021,-0.1225,0.1759,-0.1303,-1.8859459362425746,-0.05146190896630287,3.037053108215332,-1.7665553092956543,0.2481125146150589,2.3400015830993652,5.26841430643157,-0.16005998849868774,0.17412468791007996,-1.6210272947894495,-0.00029463222017511725,0.049648746848106384,0.38024675846099854,0.0001485233224229887,-0.005661141127347946,1.1968331336975098,-0.0014103730209171772,-0.37245211005210876
280.0,315.0,-1.4674,-0.195,9.3021,-0.1225,0.1759,-0.1303,-1.8861900768675746,-0.053317174315452576,3.0132241249084473,-1.7655460834503174,0.2515389919281006,2.4324207305908203,5.267836379795828,-0.17057077586650848,0.15631389617919922,-1.6210234800921839,-0.00021843306603841484,0.06803035736083984,0.38015809655189514,0.00014077873493079096,-0.0003949844976887107,1.1968168020248413,-0.001109495060518384,-0.3983198404312134
280.0,315.0,-1.4674,-0.195,9.3021,-0.1225,0.1759,-0.1303,-1.8865095577635707,-0.057029977440834045,2.9962000846862793,-1.76400625705719,0.25038397312164307,2.3695120811462402,5.266648757248678,-0.19722649455070496,0.1499207764863968,-1.6210477987872522,-0.00016005145153030753,0.07433910667896271,0.3801945447921753,0.00013056618627160788,-0.00035514263436198235,1.1968252658843994,-0.001347455894574523,-0.35811352729797363
280.0,315.0,-1.4674,-0.195,9.3021,-0.1225,0.1759,-0.1303,-1.886761327783102,-0.05862762778997421,3.0261919498443604,-1.7630889415740967,0.2492186278104782,2.3137192726135254,5.2658323524291895,-0.20568183064460754,0.13949814438819885,-1.6210592428790491,-7.723434100626037e-05,0.07985478639602661,0.38025081157684326,0.0001245433377334848,0.007263776380568743,1.1968092918395996,-0.0024475816171616316,-0.3924371600151062
