ramyac6/ROB537/final_project/csv/bad/bad_106.csv
tof_0,tof_1,accelx,accely,accelz,gyrox,gyroy,gyroz,shoulder_lift_joint_position,shoulder_lift_joint_velocity,shoulder_lift_joint_effort,elbow_joint_position,elbow_joint_velocity,elbow_joint_effort,wrist_1_joint_position,wrist_1_joint_velocity,wrist_1_joint_effort,wrist_2_joint_position,wrist_2_joint_velocity,wrist_2_joint_effort,wrist_3_joint_position,wrist_3_joint_velocity,wrist_3_joint_effort,shoulder_pan_joint_position,shoulder_pan_joint_velocity,shoulder_pan_joint_effort
870.0,911.0,1.5458,0.4421,9.35,-0.0414,0.029,-0.1225,-1.799429555932516,0.0,2.611316442489624,-2.1333043575286865,-0.0,1.5917611122131348,5.277364778309622,-0.0,0.2831970751285553,-1.6043217817889612,0.0,-0.011680526658892632,0.7356699705123901,-0.0,-0.004723684396594763,0.8220641016960144,0.0,-0.0027471864596009254
870.0,911.0,1.5458,0.4421,9.35,-0.0414,0.029,-0.1225,-1.7993608913817347,0.0,2.6209616661071777,-2.1333529949188232,-0.0,1.6133339405059814,5.2773897526557825,-0.0,0.29454904794692993,-1.6043499151812952,0.0,0.0052770874463021755,0.7356379628181458,-0.0,-0.011191258206963539,0.8221404552459717,0.0,-0.013405446894466877
870.0,911.0,1.5458,0.4421,9.35,-0.0414,0.029,-0.1225,-1.7993809185423792,0.0,2.5569045543670654,-2.133316993713379,-0.0,1.6378569602966309,5.277385639935293,-0.0,0.2811722159385681,-1.6043294111834925,0.0,-0.003091139253228903,0.7356863021850586,-0.0,-0.001281428849324584,0.8221244812011719,0.0,0.029698578640818596
870.0,911.0,1.5458,0.4421,9.35,-0.0414,0.029,-0.1225,-1.7993489704527796,0.0,2.5606095790863037,-2.1333086490631104,-0.0,1.6579055786132812,5.2773897526557825,-0.0,0.2932228446006775,-1.6043217817889612,0.0,0.005101105663925409,0.7357179522514343,-0.0,-0.004281660541892052,0.8221244812011719,0.0,0.03183441236615181
870.0,911.0,1.5458,0.4421,9.35,-0.0414,0.029,-0.1225,-1.7994252643980921,0.0,2.5747292041778564,-2.1333250999450684,-0.0,1.6185462474822998,5.277361202030935,-0.0,0.2892057001590729,-1.6043217817889612,0.0,-0.011078523471951485,0.7357299327850342,-0.0,-0.002469530561938882,0.8221244812011719,0.0,-0.0050118835642933846
870.0,911.0,1.5458,0.4421,9.35,-0.0414,0.029,-0.1225,-1.7994128666319789,0.0,2.594170331954956,-2.1332931518554688,-0.0,1.6121970415115356,5.277357089310446,-0.0,0.29833757877349854,-1.6043337027179163,0.0,-0.014171560294926167,0.7356298565864563,-0.0,-0.009508667513728142,0.8221404552459717,0.0,-0.0043297987431287766
870.0,911.0,1.5458,0.4421,9.35,-0.0414,0.029,-0.1225,-1.7993809185423792,0.0,2.5804615020751953,-2.133329153060913,-0.0,1.5895416736602783,5.2773897526557825,-0.0,0.29543623328208923,-1.6043060461627405,0.0,-0.010500820353627205,0.7357262372970581,-0.0,0.00014870264567434788,0.8221567869186401,0.0,-0.0007830420508980751
870.0,911.0,1.5458,0.4421,9.35,-0.0414,0.029,-0.1225,-1.799429555932516,0.0,2.60681414604187,-2.133300304412842,-0.0,1.553762674331665,5.277405786305227,-0.0,0.29898980259895325,-1.6043017546283167,0.0,4.585541319102049e-06,0.7356458902359009,-0.0,-0.008803436532616615,0.8221083283424377,0.0,-0.06357944756746292
892.0,943.0,1.5159,0.3673,9.3476,-0.035,0.0223,-0.1187,-1.7993766270079554,0.0,2.609370231628418,-2.1333374977111816,-0.0,1.6196894645690918,5.277381408005514,-0.0,0.281901091337204,-1.6043737570392054,0.0,0.003521684557199478,0.7356498837471008,-0.0,0.01085973996669054,0.8221244812011719,0.0,0.0022861016914248466
892.0,943.0,1.5159,0.3673,9.3476,-0.035,0.0223,-0.1187,-1.7994128666319789,0.0,2.621530055999756,-2.133312702178955,-0.0,1.6099631786346436,5.277377176075735,-0.0,0.27869683504104614,-1.6043294111834925,0.0,-0.00982083473354578,0.7356220483779907,-0.0,-0.0036437977105379105,0.8221445679664612,0.0,-0.06682088226079941
892.0,943.0,1.5159,0.3673,9.3476,-0.035,0.0223,-0.1187,-1.7994009457030238,0.0,2.6002118587493896,-2.13334584236145,-0.0,1.6016522645950317,5.2773446319396875,-0.0,0.2812373638153076,-1.6043174902545374,0.0,-0.005982663948088884,0.7356986403465271,-0.0,-0.0015923134051263332,0.8221691250801086,0.0,-0.03285042569041252
892.0,943.0,1.5159,0.3673,9.3476,-0.035,0.0223,-0.1187,-1.7993689976134242,0.0,2.616649866104126,-2.1333696842193604,-0.0,1.6110098361968994,5.277353036194601,-0.0,0.27582836151123047,-1.6043379942523401,0.0,-0.0055911969393491745,0.7356699705123901,-0.0,-0.0025683161802589893,0.8221728205680847,0.0,-0.00034914127900265157
892.0,943.0,1.5159,0.3673,9.3476,-0.035,0.0223,-0.1187,-1.7993728123106898,0.0,2.5824966430664062,-2.1333250999450684,-0.0,1.613886833190918,5.277413415699758,-0.0,0.2933301031589508,-1.6043379942523401,0.0,0.0014704675413668156,0.7356986999511719,-0.0,-0.009790182113647461,0.8221691250801086,0.0,0.006240254733711481
892.0,943.0,1.5159,0.3673,9.3476,-0.035,0.0223,-0.1187,-1.7993809185423792,0.0,2.5808563232421875,-2.1332848072052,-0.0,1.678570032119751,5.277357089310446,-0.0,0.28572604060173035,-1.6042936483966272,0.0,-0.013655784539878368,0.7356658577919006,-0.0,-0.0018813284114003181,0.8221404552459717,0.0,-0.013671294786036015
892.0,943.0,1.5159,0.3673,9.3476,-0.035,0.0223,-0.1187,-1.799357076684469,0.0,2.601924180984497,-2.133333444595337,-0.0,1.6049189567565918,5.277385639935293,-0.0,0.2831161618232727,-1.6043461004840296,0.0,-0.001141415792517364,0.7357023358345032,-0.0,0.004199545364826918,0.8221204280853271,0.0,-0.007249996066093445
892.0,943.0,1.5159,0.3673,9.3476,-0.035,0.0223,-0.1187,-1.7993933163084925,0.0,2.620659828186035,-2.133329153060913,-0.0,1.5949046611785889,5.277352976589956,-0.0,0.2956591844558716,-1.6043217817889612,0.0,-0.0002420102246105671,0.7356462478637695,-0.0,0.004177772905677557,0.8220599889755249,0.0,-0.012488022446632385
892.0,943.0,1.5159,0.3673,9.3476,-0.035,0.0223,-0.1187,-1.7994090519347132,0.0,2.5786659717559814,-2.1333043575286865,-0.0,1.5959954261779785,5.277381408005514,-0.0,0.2915452718734741,-1.6043575445758265,0.0,-0.011220995336771011,0.7356822490692139,-0.0,-0.002869236748665571,0.822076141834259,0.0,0.019237784668803215
892.0,943.0,1.5159,0.3673,9.3476,-0.035,0.0223,-0.1187,-1.7994128666319789,0.0,2.604006290435791,-2.1333084106445312,-0.0,1.6236660480499268,5.2773892162139795,-0.0,0.2828903794288635,-1.604361359273092,0.0,-0.010684818960726261,0.7356379628181458,-0.0,-0.010510359890758991,0.8220884799957275,0.0,-0.008244780823588371
892.0,943.0,1.5159,0.3673,9.3476,-0.035,0.0223,-0.1187,-1.799324174920553,0.0,2.5846848487854004,-2.133312702178955,-0.0,1.6282224655151367,5.277369010239401,-0.0,0.2851748466491699,-1.6043017546283167,0.0,-0.016350915655493736,0.7356581091880798,-0.0,-0.005049580708146095,0.8221083283424377,0.0,0.05871241167187691
892.0,943.0,1.5159,0.3673,9.3476,-0.035,0.0223,-0.1187,-1.7994171581664027,0.0,2.6190476417541504,-2.133312702178955,-0.0,1.642810583114624,5.277341055661001,-0.0,0.2824976444244385,-1.6043337027179163,0.0,-0.01278332807123661,0.7356539368629456,-0.0,-0.003159196814522147,0.822116494178772,0.0,0.03589058667421341
892.0,943.0,1.5159,0.3673,9.3476,-0.035,0.0223,-0.1187,-1.7993728123106898,0.0,2.59492564201355,-2.1333539485931396,-0.0,1.623971939086914,5.277348744660177,-0.0,0.2965129017829895,-1.6043699423419397,0.0,-0.007323889993131161,0.7356986403465271,-0.0,0.0018039168789982796,0.8221608996391296,0.0,-0.02731189876794815
892.0,943.0,1.5159,0.3673,9.3476,-0.035,0.0223,-0.1187,-1.7993489704527796,0.0,2.6102967262268066,-2.133329391479492,-0.0,1.6404807567596436,5.2773897526557825,-0.0,0.29237455129623413,-1.6043017546283167,0.0,0.011659434996545315,0.7356945872306824,-0.0,-0.003652784042060375,0.8221527338027954,0.0,-0.020815346390008926
873.0,939.0,1.6068,0.4217,9.3452,-0.0315,0.0241,-0.1194,-1.7993890247740687,0.0,2.608086347579956,-2.1333539485931396,-0.0,1.5877490043640137,5.277369427471914,-0.0,0.29099470376968384,-1.6043418089496058,1.7870679380749266e-09,-0.011178486049175262,0.7356782555580139,-0.0,0.0014827079139649868,0.8220803141593933,0.0,-0.016491364687681198
873.0,939.0,1.6068,0.4217,9.3452,-0.0315,0.0241,-0.1194,-1.7993971310057582,0.0,2.6459884643554688,-2.1333043575286865,-0.0,1.59873366355896,5.2773446319396875,-0.0,0.2976488173007965,-1.6043060461627405,4.974368898562342e-13,0.005847804713994265,0.7356781959533691,-0.0,-0.009250383824110031,0.8221046328544617,0.0,0.04637722298502922
873.0,939.0,1.6068,0.4217,9.3452,-0.0315,0.0241,-0.1194,-1.7993608913817347,0.0,2.6230721473693848,-2.133296251296997,-0.0,1.6482298374176025,5.2774215815360925,-0.0,0.2939113676548004,-1.6043055693255823,1.384633906266968e-16,0.007149852812290192,0.7356782555580139,-0.0,-0.013217726722359657,0.8221367001533508,0.0,0.015073858201503754
873.0,939.0,1.6068,0.4217,9.3452,-0.0315,0.0241,-0.1194,-1.7993728123106898,0.0,2.6005382537841797,-2.133312702178955,-0.0,1.6545960903167725,5.277308749943533,-0.0,0.28802987933158875,-1.604321304951803,2.5165037490816948e-21,-0.006089082919061184,0.7357027530670166,-0.0,-0.005346379242837429,0.8221288919448853,0.0,-0.004357335157692432
873.0,939.0,1.6068,0.4217,9.3452,-0.0315,0.0241,-0.1194,-1.7993928394713343,0.0,2.5322227478027344,-2.1333043575286865,-0.0,1.5703437328338623,5.277348744660177,-0.0,0.3001407980918884,-1.6043017546283167,7.004780633876009e-25,-0.005207092501223087,0.7356863021850586,-0.0,-0.0012809013715013862,0.8221527338027954,0.0,0.028240542858839035
873.0,939.0,1.6068,0.4217,9.3452,-0.0315,0.0241,-0.1194,-1.7993689976134242,0.0,2.5810956954956055,-2.1332848072052,-0.0,1.6147661209106445,5.2773897526557825,-0.0,0.284589558839798,-1.6043418089496058,1.9498067812433981e-28,-0.00943827722221613,0.7356699705123901,-0.0,-0.002647453686222434,0.8221445679664612,0.0,0.008281714282929897
873.0,939.0,1.6068,0.4217,9.3452,-0.0315,0.0241,-0.1194,-1.799312253991598,0.0,2.586613655090332,-2.1333696842193604,-0.0,1.623077392578125,5.277425873070516,-0.0,0.29358744621276855,-1.6043294111834925,5.427358510260672e-32,-0.01575002819299698,0.7356699705123901,-0.0,-0.0005252719856798649,0.8221124410629272,0.0,0.04107192903757095
873.0,939.0,1.6068,0.4217,9.3452,-0.0315,0.0241,-0.1194,-1.799385210076803,0.0,2.651684284210205,-2.1332805156707764,-0.0,1.6369966268539429,5.2773897526557825,-0.0,0.29379183053970337,-1.6043217817889612,1.5107250497718715e-35,-0.011132020503282547,0.7356581687927246,-0.0,0.00028998288325965405,0.8220882415771484,0.0,0.022336101159453392
873.0,939.0,1.6068,0.4217,9.3452,-0.0315,0.0241,-0.1194,-1.7993885479369105,0.0,2.584442377090454,-2.1333086490631104,-0.0,1.5832535028457642,5.2773897526557825,-0.0,0.2955605089664459,-1.6043017546283167,2.745662172044117e-40,-0.005233429837971926,0.7356622815132141,-0.0,-0.0025750163476914167,0.8221083283424377,0.0,-0.01471314299851656
873.0,939.0,1.6068,0.4217,9.3452,-0.0315,0.0241,-0.1194,-1.7993766270079554,0.0,2.54691219329834,-2.1332898139953613,-0.0,1.60574209690094,5.277337002545156,-0.0,0.29012638330459595,-1.6043341795550745,7.707141553786494e-44,-0.008182273246347904,0.7357065081596375,-0.0,-0.0012614198494702578,0.8221285939216614,0.0,0.022919774055480957
873.0,939.0,1.6068,0.4217,9.3452,-0.0315,0.0241,-0.1194,-1.7994047604002894,0.0,2.570002555847168,-2.13334584236145,-0.0,1.6137341260910034,5.277364778309622,-0.0,0.29269954562187195,-1.6042855421649378,0.0,-0.016167515888810158,0.7356904745101929,-0.0,0.0037601112853735685,0.8221083283424377,0.0,0.006286725401878357
873.0,939.0,1.6068,0.4217,9.3452,-0.0315,0.0241,-0.1194,-1.7993971310057582,0.0,2.606818199157715,-2.133349895477295,-0.0,1.617608904838562,5.277393328934469,-0.0,0.28638437390327454,-1.6043537298785608,0.0,0.002940588630735874,0.7355732321739197,-0.0,0.008613409474492073,0.822084367275238,0.0,-0.029838496819138527
873.0,939.0,1.6068,0.4217,9.3452,-0.0315,0.0241,-0.1194,-1.7993971310057582,0.0,2.6192033290863037,-2.133316993713379,-0.0,1.6120448112487793,5.277369010239401,-0.0,0.29309985041618347,-1.6043298880206507,0.0,-0.010070142336189747,0.7356622219085693,-0.0,-0.0022872639819979668,0.8220964670181274,0.0,0.03498368710279465
873.0,939.0,1.6068,0.4217,9.3452,-0.0315,0.0241,-0.1194,-1.7993885479369105,0.0,2.585236072540283,-2.133312702178955,-0.0,1.6599535942077637,5.2773897526557825,-0.0,0.29817795753479004,-1.6043379942523401,0.0,-0.001436647493392229,0.7357343435287476,-0.0,-0.01147717610001564,0.8221244812011719,0.0,-0.008043662644922733
905.0,933.0,1.4267,0.3799,9.326,-0.0333,0.0101,-0.1141,-1.7993766270079554,0.0,2.586413621902466,-2.1333489418029785,-0.0,1.5559154748916626,5.277361202030935,-0.0,0.2947455644607544,-1.6043456236468714,0.0,-0.00762598030269146,0.7356699705123901,-0.0,-0.004858644679188728,0.8221042156219482,0.0,0.011856311932206154
905.0,933.0,1.4267,0.3799,9.326,-0.0333,0.0101,-0.1141,-1.7993971310057582,0.0,2.5926101207733154,-2.133329153060913,-0.0,1.6143280267715454,5.2773446319396875,-0.0,0.28691619634628296,-1.6043499151812952,0.0,-0.0010699983686208725,0.735621988773346,-0.0,-0.006821751594543457,0.822144627571106,0.0,-0.0348646380007267
905.0,933.0,1.4267,0.3799,9.326,-0.0333,0.0101,-0.1141,-1.799373289147848,0.0,2.6126317977905273,-2.1333694458007812,-0.0,1.5907678604125977,5.277360665589132,-0.0,0.2938692569732666,-1.6043737570392054,0.0,0.016265861690044403,0.7356860637664795,-0.0,0.005070234648883343,0.8221285939216614,0.0,-0.006590460892766714
905.0,933.0,1.4267,0.3799,9.326,-0.0333,0.0101,-0.1141,-1.7993766270079554,0.0,2.5632004737854004,-2.1333250999450684,-0.0,1.5828936100006104,5.277348744660177,-0.0,0.3016375005245209,-1.6043337027179163,0.0,-0.01347370631992817,0.7356699705123901,-0.0,0.007121921516954899,0.8221204280853271,0.0,0.004646774381399155
905.0,933.0,1.4267,0.3799,9.326,-0.0333,0.0101,-0.1141,-1.7994052372374476,0.0,2.596160411834717,-2.1333858966827393,-0.0,1.6124615669250488,5.2773974416549585,-0.0,0.2866147756576538,-1.6043456236468714,0.0,-0.005643060430884361,0.7356904745101929,-0.0,-0.0004617732483893633,0.8221527338027954,0.0,0.031321845948696136
905.0,933.0,1.4267,0.3799,9.326,-0.0333,0.0101,-0.1141,-1.7994052372374476,0.0,2.579751491546631,-2.1333210468292236,-0.0,1.648583173751831,5.2773446319396875,-0.0,0.29083800315856934,-1.6043136755572718,0.0,-0.007293031085282564,0.7356823086738586,-0.0,0.009571217000484467,0.8221083283424377,0.0,0.0043063536286354065
905.0,933.0,1.4267,0.3799,9.326,-0.0333,0.0101,-0.1141,-1.7994009457030238,0.0,2.5875802040100098,-2.1333818435668945,-0.0,1.6039104461669922,5.277348744660177,-0.0,0.29351523518562317,-1.6042898336993616,0.0,-0.004980511963367462,0.7357302904129028,-0.0,0.0025762240402400494,0.822108268737793,0.0,-0.03808354586362839
905.0,933.0,1.4267,0.3799,9.326,-0.0333,0.0101,-0.1141,-1.799380441705221,0.0,2.5918498039245605,-2.133329153060913,-0.0,1.6010712385177612,5.277357089310446,-0.0,0.28616324067115784,-1.6043456236468714,0.0,-0.0155129199847579,0.7356781959533691,-0.0,-0.008419517427682877,0.8221404552459717,0.0,0.018577193841338158
905.0,933.0,1.4267,0.3799,9.326,-0.0333,0.0101,-0.1141,-1.7993689976134242,0.0,2.6036815643310547,-2.133333444595337,-0.0,1.5695621967315674,5.27736114242629,-0.0,0.3066293001174927,-1.604333225880758,0.0,-0.00040044146589934826,0.735690176486969,-0.0,-0.007997337728738785,0.8221285939216614,0.0,0.034068405628204346
905.0,933.0,1.4267,0.3799,9.326,-0.0333,0.0101,-0.1141,-1.7994171581664027,0.0,2.5866875648498535,-2.133373737335205,-0.0,1.6264421939849854,5.277361202030935,-0.0,0.29419711232185364,-1.6043255964862269,0.0,-0.003942692186683416,0.7356863021850586,-0.0,0.0017267584335058928,0.8221650123596191,0.0,-0.006742898840457201
905.0,933.0,1.4267,0.3799,9.326,-0.0333,0.0101,-0.1141,-1.7994214497008265,0.0,2.547884464263916,-2.1333489418029785,-0.00025864309282042086,1.6015450954437256,5.277308749943533,-0.0,0.3024754524230957,-1.6043532530414026,0.0,-0.008152433671057224,0.7357069253921509,-0.0,-0.006598521489650011,0.822100043296814,0.0,0.010124551132321358
905.0,933.0,1.4267,0.3799,9.326,-0.0333,0.0101,-0.1141,-1.7994009457030238,0.0,2.600393772125244,-2.1333696842193604,-0.00035131382173858583,1.6261959075927734,5.2773533938224695,-0.0,0.3059334456920624,-1.6043413321124476,0.0,-0.008738361299037933,0.7356699705123901,-0.0,0.0025688116438686848,0.8221608996391296,0.0,-0.017903117462992668
905.0,933.0,1.4267,0.3799,9.326,-0.0333,0.0101,-0.1141,-1.7993928394713343,0.0,2.5761868953704834,-2.133390188217163,-0.0006550275138579309,1.58062744140625,5.277377176075735,-0.0,0.2941923141479492,-1.6043780485736292,0.0,-0.01079054269939661,0.7356298565864563,-0.0,-0.008531751111149788,0.8220918774604797,1.7324495615866908e-07,-0.0018879976123571396
905.0,933.0,1.4267,0.3799,9.326,-0.0333,0.0101,-0.1141,-1.7993728123106898,0.0,2.622997283935547,-2.133344888687134,-0.0004559577791951597,1.6024668216705322,5.2773292539413355,-5.300427652343842e-09,0.2819475829601288,-1.6043532530414026,0.0,-0.02275351621210575,0.7356945276260376,-0.0,-0.004245198331773281,0.82216876745224,4.1836613383708365e-13,-0.009533153846859932
905.0,933.0,1.4267,0.3799,9.326,-0.0333,0.0101,-0.1141,-1.7994090519347132,-1.241069558233221e-08,2.5914146900177,-2.13337779045105,-0.0003039705625269562,1.6328091621398926,5.277373540192404,-1.4753933751804338e-12,0.2816528081893921,-1.604333225880758,0.0,-0.01545577310025692,0.7356781959533691,-0.0,-0.006932372227311134,0.8221849203109741,1.0103050618848906e-18,0.013906491920351982
899.0,917.0,1.4847,0.463,9.3129,-0.0351,0.0134,-0.1197,-1.7994333706297816,-4.0209077522635264e-16,2.5965089797973633,-2.133357286453247,-0.00021337986981961876,1.6448943614959717,5.277305054455557,-0.0005764276720583439,0.3017473816871643,-1.6043699423419397,0.0,0.00557337049394846,0.7356659173965454,-0.0,-0.00043660582741722465,0.8221322298049927,0.0004298522253520787,0.011469591408967972
899.0,917.0,1.4847,0.463,9.3129,-0.0351,0.0134,-0.1197,-1.7994047604002894,-9.710020977218713e-22,2.623032808303833,-2.1333210468292236,-0.00018116184219252318,1.5916379690170288,5.277289080410757,-0.00044438711483962834,0.2830340266227722,-1.6043575445758265,0.0,-0.0005377614870667458,0.7356942296028137,-0.0,-0.005125265568494797,0.8221121430397034,0.0004009620752185583,0.04172820970416069
899.0,917.0,1.4847,0.463,9.3129,-0.0351,0.0134,-0.1197,-1.7993365726866664,-2.3448555295884253e-27,2.5783610343933105,-2.133373737335205,-0.00015739818627480417,1.6257177591323853,5.277325200825491,-0.0003563483478501439,0.28241032361984253,-1.604365650807516,0.0,-0.01107729971408844,0.7357105016708374,-0.0,0.000208923127502203,0.8221563696861267,0.000279783271253109,0.010024754330515862
899.0,917.0,1.4847,0.463,9.3129,-0.0351,0.0134,-0.1197,-1.799368520776266,-5.6625502444788446e-33,2.5843124389648438,-2.1333489418029785,-0.0001391459081787616,1.6238360404968262,5.277325200825491,-0.0002974353265017271,0.3040233552455902,-1.6043575445758265,0.0,-0.003785839769989252,0.7356459498405457,-0.0,-0.00311840046197176,0.8221563696861267,0.00023114241776056588,0.02737325243651867
899.0,917.0,1.4847,0.463,9.3129,-0.0351,0.0134,-0.1197,-1.7994047604002894,-1.3674395901805687e-38,2.564662218093872,-2.13334584236145,-0.00012468754721339792,1.618883490562439,5.277289020806112,-0.000297021382721141,0.2945992946624756,-1.604333225880758,0.0,-0.0038972096517682076,0.7357298731803894,-0.0,0.000141373006044887,0.8220918774604797,0.00020027783466503024,0.01797003485262394
899.0,917.0,1.4847,0.463,9.3129,-0.0351,0.0134,-0.1197,-1.7994252643980921,-0.0,2.5442607402801514,-2.1333932876586914,-0.00010951449075946584,1.6505317687988281,5.277357506542959,-0.0002504259755369276,0.2968063950538635,-1.604365650807516,0.0,-0.008283517323434353,0.7357179522514343,-0.0,0.0025918937753885984,0.8221889138221741,0.00017000992374960333,0.0026869340799748898
899.0,917.0,1.4847,0.463,9.3129,-0.0351,0.0134,-0.1197,-1.7993885479369105,0.0,2.6283631324768066,-2.1333653926849365,-0.00010035589366452768,1.588620901107788,5.277353453427114,-0.00022374038235284388,0.28492414951324463,-1.604349438344137,0.0,0.0028992679435759783,0.7356860041618347,-0.0,-0.009130867198109627,0.8221926093101501,0.0001527021813672036,-0.00031693466007709503
899.0,917.0,1.4847,0.463,9.3129,-0.0351,0.0134,-0.1197,-1.7993928394713343,0.0,2.5875661373138428,-2.1333696842193604,-9.261073864763603e-05,1.5903916358947754,5.277292656689443,-0.00020219570433255285,0.2834365665912628,-1.6043413321124476,0.0,-0.010142175480723381,0.7356982231140137,-0.0,-0.006464959122240543,0.8221645355224609,0.00013859271712135524,-0.013156266883015633
899.0,917.0,1.4847,0.463,9.3129,-0.0351,0.0134,-0.1197,-1.799429555932516,0.0,2.583361864089966,-2.1333489418029785,-6.448180647566915e-05,1.6697964668273926,5.277325200825491,-0.00021072258823551238,0.2880657911300659,-1.6043742338763636,0.0,0.0034712341148406267,0.7356982231140137,-0.0,0.00014387816190719604,0.8221204280853271,0.00012687033449765295,0.0190653707832098
899.0,917.0,1.4847,0.463,9.3129,-0.0351,0.0134,-0.1197,-1.7993885479369105,0.0,2.6005046367645264,-2.1333975791931152,-6.0170626966282725e-05,1.5956131219863892,5.277289080410757,-0.0001465852838009596,0.28611889481544495,-1.6043294111834925,0.0,-0.008030129596590996,0.7356742024421692,-0.0,-0.0009588731918483973,0.8221403956413269,0.00011697640002239496,0.043786052614450455
899.0,917.0,1.4847,0.463,9.3129,-0.0351,0.0134,-0.1197,-1.7994252643980921,0.0,2.5538244247436523,-2.133344888687134,-5.524597145267762e-05,1.6283504962921143,5.27726041057662,-0.00016481027705594897,0.2919401526451111,-1.6043255964862269,0.0,0.0015089509543031454,0.7357016801834106,-0.0,-0.0008955873781815171,0.8221403956413269,0.00010595887579256669,-0.02266036905348301
899.0,917.0,1.4847,0.463,9.3129,-0.0351,0.0134,-0.1197,-1.7994214497008265,0.0,2.569333553314209,-2.133329153060913,-5.2050880185561255e-05,1.5897281169891357,5.277313279896536,-0.0004642263811547309,0.30023670196533203,-1.6043899695025843,0.0,-0.0061205183155834675,0.7356700301170349,-0.0,-0.006221180781722069,0.8221162557601929,9.89679028862156e-05,-0.004449994303286076
899.0,917.0,1.4847,0.463,9.3129,-0.0351,0.0134,-0.1197,-1.7994004688658656,0.0,2.574159860610962,-2.133344888687134,-4.920519859297201e-05,1.6167198419570923,5.277280914574423,-0.0004963446990586817,0.28701478242874146,-1.6043379942523401,0.0,-0.0024759015068411827,0.7357180118560791,-0.0,-0.014225549064576626,0.8221564292907715,9.284238331019878e-05,0.06059357151389122
899.0,917.0,1.4847,0.463,9.3129,-0.0351,0.0134,-0.1197,-1.7994290790953578,0.0,2.6222548484802246,-2.1333210468292236,-4.665448432206176e-05,1.6335076093673706,5.277289259224691,-0.0005163896130397916,0.28178757429122925,-1.6043980757342737,0.0,-0.0004188837483525276,0.7356822490692139,-0.0,-0.005202192813158035,0.8221807479858398,8.743088255869225e-05,0.018489278852939606
855.0,917.0,1.6229,0.32,9.4469,-0.0434,0.0218,-0.1142,-1.7994290790953578,-8.76433914527297e-05,2.603834629058838,-2.133316993713379,-4.435520531842485e-05,1.5773234367370605,5.277285086899557,-0.0005592333036474884,0.29306676983833313,-1.6043136755572718,0.0,-0.00505225220695138,0.7357064485549927,-0.0,-0.003755657933652401,0.8221404552459717,8.261547918664292e-05,-0.008805645629763603
855.0,917.0,1.6229,0.32,9.4469,-0.0434,0.0218,-0.1142,-1.7994286022581996,-8.435038034804165e-05,2.5709547996520996,-2.1332848072052,-4.162036202615127e-05,1.5919952392578125,5.27730559089736,-0.00046901009045541286,0.29515862464904785,-1.6043461004840296,0.0,-0.005510506220161915,0.7356540560722351,-0.0,0.005266730673611164,0.822136402130127,6.157193274702877e-05,0.023999691009521484
855.0,917.0,1.6229,0.32,9.4469,-0.0434,0.0218,-0.1142,-1.7994491062560023,-7.98595865489915e-05,2.6133244037628174,-2.1333818435668945,-3.978073800681159e-05,1.609320044517517,5.277260470181265,-0.000438137911260128,0.30361059308052063,-1.6043136755572718,0.0,-0.0037248358130455017,0.735637903213501,-0.0,0.012447490356862545,0.8221083283424377,4.3932457629125565e-05,-0.0389859676361084
855.0,917.0,1.6229,0.32,9.4469,-0.0434,0.0218,-0.1142,-1.7993966541686,-9.097911242861301e-05,2.601609230041504,-2.1333250999450684,2.4754563128226437e-05,1.6361863613128662,5.277277040272512,-0.0003711623139679432,0.30254942178726196,-1.6043017546283167,0.0,0.004198668524622917,0.7356622219085693,-0.0,0.010591321624815464,0.822144627571106,-5.876348586753011e-05,-0.022072244435548782
855.0,917.0,1.6229,0.32,9.4469,-0.0434,0.0218,-0.1142,-1.7994333706297816,-8.660947787575424e-05,2.592092275619507,-2.1333446502685547,2.6173087462666444e-05,1.5935747623443604,5.277268755226888,-0.0002988147607538849,0.2871580123901367,-1.6042855421649378,0.0,-0.016335491091012955,0.7357179522514343,-0.0,0.0024031540378928185,0.8221165537834167,-7.635952351847664e-05,-0.015051286667585373
855.0,917.0,1.6229,0.32,9.4469,-0.0434,0.0218,-0.1142,-1.7994333706297816,-8.263356721727178e-05,2.609236240386963,-2.133312702178955,2.507912904547993e-05,1.5637915134429932,5.2772490856941126,-0.0002858899242710322,0.2932790517807007,-1.6042535940753382,1.7540058252052404e-05,-0.02414323017001152,0.73564213514328,-0.0,-0.007304812781512737,0.8221445679664612,-0.0007238131365738809,-0.039354387670755386
855.0,917.0,1.6229,0.32,9.4469,-0.0434,0.0218,-0.1142,-1.7994610271849574,-0.00010230878979200497,2.5628225803375244,-2.1333210468292236,3.5577690141508356e-05,1.6030077934265137,5.277265119343557,-0.00027488922933116555,0.2867478132247925,-1.6042898336993616,0.0004566941352095455,-0.005652337800711393,0.7356338500976562,-0.0,0.00044380524195730686,0.8221450448036194,-0.0007655023946426809,-0.05296950414776802
855.0,917.0,1.6229,0.32,9.4469,-0.0434,0.0218,-0.1142,-1.799424787560934,-0.00018751199240796268,2.588552236557007,-2.133333444595337,4.524637188296765e-05,1.66690993309021,5.277265119343557,-0.0002824925468303263,0.28877753019332886,-1.604297939931051,0.0006302078836597502,-0.00259296759031713,0.7357586026191711,-0.0,-0.006277351640164852,0.822104275226593,-0.0006247218698263168,-0.017287081107497215
855.0,917.0,1.6229,0.32,9.4469,-0.0434,0.0218,-0.1142,-1.7994209728636683,-0.00020122509158682078,2.5984947681427,-2.1333167552948,0.00019371455709915608,1.6123108863830566,5.277256893902578,-0.0002566696784924716,0.2938588261604309,-1.6042450110064905,0.0005434835329651833,-0.007497331127524376,0.7357023358345032,-0.0,-0.004810689948499203,0.8221326470375061,-0.00048799923388287425,-0.0027159960009157658
855.0,917.0,1.6229,0.32,9.4469,-0.0434,0.0218,-0.1142,-1.7994405231871546,-0.00018099593580700457,2.5964088439941406,-2.133288860321045,0.0003168682160321623,1.611224889755249,5.277265059738912,-0.00023484305711463094,0.28746744990348816,-1.6042779127704065,0.000485752709209919,-0.008353697136044502,0.7356219291687012,-0.0,-0.002585712820291519,0.8221005201339722,-0.0003959634923376143,-0.01418259833008051
855.0,917.0,1.6229,0.32,9.4469,-0.0434,0.0218,-0.1142,-1.7994452915587367,-0.00016445860092062503,2.581062078475952,-2.1333374977111816,0.000985155114904046,1.6265041828155518,5.277265119343557,-0.00024364549608435482,0.29347801208496094,-1.6042898336993616,0.00044976460048928857,-0.0035102167166769505,0.7356986999511719,-0.0,0.00024007540196180344,0.8221650123596191,-0.00013220641994848847,0.011156139895319939
855.0,917.0,1.6229,0.32,9.4469,-0.0434,0.0218,-0.1142,-1.7994410000243128,-0.00014659964654128999,2.609219551086426,-2.13323712348938,0.0012248284183442593,1.6834076642990112,5.277240919857778,-0.00024079512513708323,0.2907522916793823,-1.604302231465475,0.00033415117650292814,0.0068838465958833694,0.7356863021850586,-0.0,0.0006133168935775757,0.8221445679664612,-0.0001021571151795797,-0.03465179353952408
855.0,917.0,1.6229,0.32,9.4469,-0.0434,0.0218,-0.1142,-1.7994610271849574,-0.00013555909390561283,2.574162721633911,-2.1332898139953613,0.0015464031603187323,1.599047064781189,5.2772490856941126,-0.0002160239382646978,0.29307085275650024,-1.604302231465475,0.0002677059965208173,0.0023967227898538113,0.7356982231140137,-0.0,-0.007296823896467686,0.8221404552459717,-4.364647975307889e-05,-0.03433772176504135
855.0,917.0,1.6229,0.32,9.4469,-0.0434,0.0218,-0.1142,-1.7994047604002894,-0.00012606485688593239,2.5723876953125,-2.1332733631134033,0.002147400053218007,1.6501548290252686,5.277233052044668,-0.00019587208225857466,0.27256399393081665,-1.6042936483966272,0.00027215832960791886,0.012783351354300976,0.7356498837471008,-0.0,-0.007987115532159805,0.8221285939216614,-8.884293856148417e-10,-0.07260498404502869
888.0,903.0,2.0459,0.8495,9.5653,-0.0232,-0.0008,-0.1116,-1.799452920953268,-0.00013744906755164266,2.5744307041168213,-2.133277177810669,0.0030548053327947855,1.660874366760254,5.2772490856941126,-0.00017916002252604812,0.27619698643684387,-1.6042493025409144,0.00023672115639783442,5.208305083215237e-05,0.7356982231140137,-0.0,-0.007236403413116932,0.8221526741981506,-2.145452293199259e-15,0.006887346506118774
888.0,903.0,2.0459,0.8495,9.5653,-0.0232,-0.0008,-0.1116,-1.7995053730406703,-0.0002067029126919806,2.5916762351989746,-2.133208990097046,0.0030800262466073036,1.6468548774719238,5.277256893902578,-0.00016507567488588393,0.28083714842796326,-1.6042373816119593,0.0002092027134494856,0.016174789518117905,0.7356945872306824,-0.0,-0.0013734787935391068,0.8221527338027954,-5.181015070570345e-21,-0.0378430001437664
888.0,903.0,2.0459,0.8495,9.5653,-0.0232,-0.0008,-0.1116,-1.7995454273619593,-0.0026101532857865095,2.5814642906188965,-2.133225440979004,0.0034053840208798647,1.6424064636230469,5.277289318829336,-0.0001494147873017937,0.275784432888031,-1.6043060461627405,0.00018112959514837712,-0.0006173812435008585,0.7357022762298584,-0.0,-0.009329941123723984,0.8221725225448608,0.001078983535990119,-0.03448374569416046
888.0,903.0,2.0459,0.8495,9.5653,-0.0232,-0.0008,-0.1116,-1.7995168171324671,-0.005489640403538942,2.556708812713623,-2.133168935775757,0.004279754590243101,1.623326301574707,5.277228998928823,-0.00013948944979347289,0.28805702924728394,-1.6042693297015589,0.00016456772573292255,-0.007647240534424782,0.7356622815132141,-0.0,3.740270039997995e-05,0.8222246170043945,0.0014496565563604236,-0.036516398191452026
888.0,903.0,2.0459,0.8495,9.5653,-0.0232,-0.0008,-0.1116,-1.799589296380514,-0.013205806724727154,2.5679678916931152,-2.1331613063812256,0.004707407206296921,1.5921709537506104,5.277269172459402,-0.0001308010396314785,0.29240503907203674,-1.6042898336993616,0.0001507813431089744,-0.004290641285479069,0.7356577515602112,-0.0,-0.008631212636828423,0.8222737312316895,0.0034664871636778116,-0.05673367530107498
888.0,903.0,2.0459,0.8495,9.5653,-0.0232,-0.0008,-0.1116,-1.7996694050230921,-0.015416357666254044,2.565051317214966,-2.1331260204315186,0.0068999058566987514,1.6612110137939453,5.277268755226888,-0.0001231313799507916,0.28705230355262756,-1.6042936483966272,0.00013912607391830534,0.0008565513417124748,0.7356863021850586,-0.0,-0.005569906439632177,0.8222525715827942,0.0058180601336061954,0.030737947672605515
888.0,903.0,2.0459,0.8495,9.5653,-0.0232,-0.0008,-0.1116,-1.799749036828512,-0.011011103168129921,2.536766529083252,-2.133073329925537,0.009587252512574196,1.6669418811798096,5.277281093388357,-0.0001163114866358228,0.27489855885505676,-1.6042574087726038,0.00012914366379845887,-0.006296102423220873,0.7356982231140137,-0.0,-0.00731287058442831,0.8222678899765015,0.00674431910738349,-0.026710156351327896
888.0,903.0,2.0459,0.8495,9.5653,-0.0232,-0.0008,-0.1116,-1.7998691997923792,-0.008454347960650921,2.5464742183685303,-2.132997512817383,0.011088255792856216,1.6258864402770996,5.2772490856941126,-0.00010831272084033117,0.29327696561813354,-1.6042373816119593,0.00011786770483013242,-0.0020307470113039017,0.7356699705123901,-0.0,0.009713269770145416,0.8223526477813721,0.005751106888055801,-0.06419119238853455
888.0,903.0,2.0459,0.8495,9.5653,-0.0232,-0.0008,-0.1116,-1.7999745808043421,-0.009725348092615604,2.569606304168701,-2.132930278778076,0.01090010441839695,1.6322212219238281,5.277256893902578,-0.00010300016583641991,0.2960362434387207,-1.6042330900775355,0.00012905013863928616,0.0015892211813479662,0.7357462644577026,-0.0,-0.006788823753595352,0.8223886489868164,0.005029024090617895,-0.05189095437526703
888.0,903.0,2.0459,0.8495,9.5653,-0.0232,-0.0008,-0.1116,-1.800042291680807,-0.0116703100502491,2.5202627182006836,-2.132814407348633,0.010205632075667381,1.60005784034729,5.277261006623068,-9.818439866648987e-05,0.28656548261642456,-1.604229752217428,0.00012158810568507761,-0.012286794371902943,0.7356658577919006,-0.0,0.010316950269043446,0.8224049210548401,0.0034838945139199495,-0.023334071040153503
888.0,903.0,2.0459,0.8495,9.5653,-0.0232,-0.0008,-0.1116,-1.8000661335387171,-0.011729315854609013,2.531320571899414,-2.132734537124634,0.010090835392475128,1.6676009893417358,5.277281093388357,-9.379887342220172e-05,0.2883366346359253,-1.6042617003070276,0.00013120942458044738,0.016751646995544434,0.7357146739959717,-0.0,-0.0017185523174703121,0.8224208950996399,0.001867123181000352,-0.04998062178492546
888.0,903.0,2.0459,0.8495,9.5653,-0.0232,-0.0008,-0.1116,-1.800121923486227,-0.008935523219406605,2.5278120040893555,-2.1326818466186523,0.012043152935802937,1.6581568717956543,5.277289259224691,-8.978832920547575e-05,0.2759360074996948,-1.6042898336993616,0.00015604167128913105,0.01585625670850277,0.7356821894645691,-0.0,0.008552505634725094,0.8223883509635925,0.0009877028642222285,-0.021682199090719223
888.0,903.0,2.0459,0.8495,9.5653,-0.0232,-0.0008,-0.1116,-1.8001576862730921,-0.004604951478540897,2.513599395751953,-2.1325418949127197,0.014372110366821289,1.7016191482543945,5.277301418572225,-8.494578651152551e-05,0.2675289809703827,-1.6042621771441858,0.0019225046271458268,0.023077446967363358,0.7356782555580139,-0.0,-0.00022637308575212955,0.8223403096199036,1.542285872346838e-06,-0.0414583794772625
888.0,903.0,2.0459,0.8495,9.5653,-0.0232,-0.0008,-0.1116,-1.8001905880370082,-0.003186107613146305,2.49285888671875,-2.1324899196624756,0.014280949719250202,1.6544044017791748,5.27723257520751,-8.164318569470197e-05,0.25900113582611084,-1.6042097250567835,0.00412945868447423,0.012926708906888962,0.7356498837471008,-0.0,-0.001321704126894474,0.8223444819450378,3.724438726177004e-12,-0.10592322051525116
885.0,924.0,1.465,0.3846,9.749,-0.0234,0.0608,-0.1292,-1.800230165521139,-0.003558692056685686,2.573470115661621,-2.1324462890625,0.014686557464301586,1.6850740909576416,5.277280914574423,-7.858792378101498e-05,0.2601158618927002,-1.6041696707354944,0.012094425968825817,0.02149977535009384,0.7356581091880798,-0.0,-0.012134348973631859,0.8223526477813721,-0.0010136808268725872,-0.13592572510242462
885.0,924.0,1.465,0.3846,9.749,-0.0234,0.0608,-0.1292,-1.8002263508238734,-0.004685977939516306,2.526876926422119,-2.132314920425415,0.014388315379619598,1.6941795349121094,5.277309167176046,-7.575306517537683e-05,0.2531560957431793,-1.6040614287005823,0.02233104407787323,0.03595655411481857,0.7356945872306824,-0.0,-0.011434448882937431,0.8223968744277954,-0.0008719224133528769,-0.06610241532325745
885.0,924.0,1.465,0.3846,9.749,-0.0234,0.0608,-0.1292,-1.8002501926817835,-0.00560495862737298,2.5011279582977295,-2.1321864128112793,0.0158007200807333,1.6821997165679932,5.27730559089736,-7.311562512768432e-05,0.24565672874450684,-1.6038768927203577,0.022858912125229836,0.04366356134414673,0.735609769821167,-0.0,-0.01197765115648508,0.8223323822021484,-0.0006763141136616468,-0.10983539372682571
885.0,924.0,1.465,0.3846,9.749,-0.0234,0.0608,-0.1292,-1.80035462001943,-0.0058187637478113174,2.5171539783477783,-2.132070302963257,0.017092663794755936,1.680717945098877,5.277289259224691,-6.98720250511542e-05,0.2376568764448166,-1.6037572065936487,0.012246728874742985,0.044577617198228836,0.7356859445571899,-0.0,-0.010871736332774162,0.8223686218261719,-0.0007722377777099609,-0.19976824522018433
885.0,924.0,1.465,0.3846,9.749,-0.0234,0.0608,-0.1292,-1.8003303013243617,-0.004639001563191414,2.459324836730957,-2.131962776184082,0.019649548456072807,1.7225604057312012,5.277301418572225,-3.836812823010405e-08,0.2417793571949005,-1.6037738958941858,0.0030201920308172703,0.05496743321418762,0.7357339859008789,-0.0,-0.007868408225476742,0.8223446607589722,-0.0013927932595834136,-0.15641483664512634
885.0,924.0,1.465,0.3846,9.749,-0.0234,0.0608,-0.1292,-1.8003260097899378,-0.0034218388609588146,2.470747947692871,-2.1318392753601074,0.023049769923090935,1.699726939201355,5.277285086899557,-1.0679910948663274e-11,0.24899744987487793,-1.6037214438067835,-0.00036503185401670635,0.04508291184902191,0.7356619238853455,-0.0,-0.009037087671458721,0.8223084807395935,-0.0016925575910136104,-0.17574945092201233
885.0,924.0,1.465,0.3846,9.749,-0.0234,0.0608,-0.1292,-1.8003784618773402,-0.0034974359441548586,2.475511312484741,-2.13173246383667,0.02742643654346466,1.7148041725158691,5.27730559089736,-5.3139276133151725e-05,0.23712436854839325,-1.603757683430807,-0.00014351883146446198,0.049365654587745667,0.7356498837471008,-0.0,-0.0178849957883358,0.8222761750221252,-0.0018018418923020363,-0.19871780276298523
885.0,924.0,1.465,0.3846,9.749,-0.0234,0.0608,-0.1292,-1.8004433117308558,-0.00429580407217145,2.4554567337036133,-2.131584405899048,0.03309585899114609,1.7360031604766846,5.277268755226888,-7.204098073998466e-05,0.23223397135734558,-1.603757683430807,-9.689379658084363e-05,0.04143165796995163,0.7357503175735474,-0.0,-0.005862900987267494,0.8223166465759277,-0.0013786643976345658,-0.19008544087409973
885.0,924.0,1.465,0.3846,9.749,-0.0234,0.0608,-0.1292,-1.8004185161986292,-0.0051755839958786964,2.476109743118286,-2.1312239170074463,0.041584908962249756,1.7542582750320435,5.277228998928823,-0.0006874842802062631,0.23637743294239044,-1.6037381331073206,-6.770344771211967e-05,0.06715011596679688,0.7357340455055237,-0.0,0.001304922392591834,0.822288453578949,-0.0008708522072993219,-0.1654995083808899
885.0,924.0,1.465,0.3846,9.749,-0.0234,0.0608,-0.1292,-1.8004824123778285,-0.006206006743013859,2.453188896179199,-2.130859375,0.04832995682954788,1.749082088470459,5.277293371945181,-0.0005837057251483202,0.23143033683300018,-1.6037581602679651,-1.9741739833989413e-06,0.06503577530384064,0.735657811164856,-0.0,0.004392814356833696,0.8223166465759277,-0.0006154535221867263,-0.22952796518802643
885.0,924.0,1.465,0.3846,9.749,-0.0234,0.0608,-0.1292,-1.8005391559996546,-0.006173959467560053,2.4688515663146973,-2.130584716796875,0.056886106729507446,1.7765253782272339,5.277281093388357,-0.0005219512968324125,0.22774183750152588,-1.6037176291095179,-5.495185972925754e-10,0.052492544054985046,0.7356736660003662,-0.0,-0.008271918632090092,0.8223409652709961,-0.0004759215225931257,-0.2227524220943451
885.0,924.0,1.465,0.3846,9.749,-0.0234,0.0608,-0.1292,-1.800546785394186,-0.006223578471690416,2.4411120414733887,-2.130204439163208,0.06619522720575333,1.7823792695999146,5.277260947018423,-0.00040595830068923533,0.23652175068855286,-1.603741470967428,-1.529605299843348e-13,0.05703628808259964,0.7356821894645691,-0.0,-0.010542985051870346,0.8223166465759277,-0.00013375940034165978,-0.18486140668392181
885.0,924.0,1.465,0.3846,9.749,-0.0234,0.0608,-0.1292,-1.800586839715475,-0.007134472019970417,2.442716598510742,-2.1297528743743896,0.07799304276704788,1.778123378753662,5.277244496136465,-0.0003194378805346787,0.2392580807209015,-1.6037219206439417,-4.257712687152962e-17,0.054826103150844574,0.7357259392738342,-0.0,0.011072302237153053,0.8223327994346619,-5.463737034006044e-05,-0.20103013515472412
885.0,924.0,1.465,0.3846,9.749,-0.0234,0.0608,-0.1292,-1.8006307087340296,-0.009362599812448025,2.4326071739196777,-2.129086494445801,0.09582922607660294,1.8203603029251099,5.277285086899557,-0.00029827968683093786,0.23335614800453186,-1.6037176291095179,-7.738181229302396e-22,0.05671365559101105,0.7357259392738342,-0.0,-0.007085220422595739,0.8223446607589722,-4.3960040784440935e-05,-0.2804141044616699
885.0,924.0,1.465,0.3846,9.749,-0.0234,0.0608,-0.1292,-1.8007551632323207,-0.011389556340873241,2.4076361656188965,-2.128451347351074,0.10716802626848221,1.777805209159851,5.277285086899557,-0.0002972170477733016,0.23048415780067444,-1.6037138144122522,-2.153951175117501e-25,0.04833026975393295,0.7357176542282104,-0.0,0.0017173830419778824,0.8223365545272827,-1.5612981769663747e-06,-0.20105135440826416
879.0,924.0,1.5015,0.1753,9.8207,-0.0556,0.2054,-0.1242,-1.8008352718748988,-0.013187438249588013,2.4200422763824463,-2.127756118774414,0.1177520826458931,1.7885146141052246,5.277272927552023,-0.00026150670601055026,0.22673526406288147,-1.6037581602679651,-5.995602880222182e-29,0.06386353075504303,0.7357823848724365,-0.0,-0.005396656226366758,0.8223649859428406,-3.770351652415682e-12,-0.19590933620929718
879.0,924.0,1.5015,0.1753,9.8207,-0.0556,0.2054,-0.1242,-1.8009315929808558,-0.013300797902047634,2.4009878635406494,-2.127025604248047,0.1255730539560318,1.7596805095672607,5.27729748466567,-0.00023254398547578603,0.22946986556053162,-1.6037619749652308,-1.6688982598147546e-32,0.05802382528781891,0.7357462644577026,-0.0,-0.00500298198312521,0.8223727941513062,-9.1049565005641e-18,-0.2064962089061737
879.0,924.0,1.5015,0.1753,9.8207,-0.0556,0.2054,-0.1242,-1.8009678326048792,-0.011721541173756123,2.4678144454956055,-2.1262826919555664,0.13142146170139313,1.889162302017212,5.277321624546804,-0.00020935745851602405,0.2327566146850586,-1.6037581602679651,-4.645440458502073e-36,0.07456234842538834,0.7357259392738342,-0.0,-0.01728907600045204,0.8223526477813721,-2.1987399363027816e-23,-0.22138699889183044
879.0,924.0,1.5015,0.1753,9.8207,-0.0556,0.2054,-0.1242,-1.801035543481344,-0.008589381352066994,2.4194324016571045,-2.125164031982422,0.14493827521800995,1.8816094398498535,5.27730147817687,-0.00020434409088920802,0.2140125185251236,-1.6037901083575647,0.0002148516068700701,0.0599236935377121,0.7357099056243896,-0.0,-0.004218848422169685,0.8223323822021484,-7.123637295502901e-31,-0.24990835785865784
879.0,924.0,1.5015,0.1753,9.8207,-0.0556,0.2054,-0.1242,-1.8011075458922328,-0.007060402538627386,2.475100517272949,-2.124269485473633,0.15286444127559662,1.872807502746582,5.277293371945181,-0.0001941065420396626,0.22951346635818481,-1.6037219206439417,0.0002242169575765729,0.06987302750349045,0.7357462644577026,-0.0,-0.010027269832789898,0.8223164677619934,-1.7202745315671214e-36,-0.17717310786247253
879.0,924.0,1.5015,0.1753,9.8207,-0.0556,0.2054,-0.1242,-1.8011037311949671,-0.0073855239897966385,2.4542598724365234,-2.1232337951660156,0.1676887422800064,1.8973076343536377,5.277285086899557,-0.00014242780162021518,0.21255356073379517,-1.60374623933901,0.00020041095558553934,0.05678648501634598,0.735713541507721,-0.0,-0.004625145811587572,0.8223246335983276,-4.1548499467230826e-42,-0.2524820566177368
879.0,924.0,1.5015,0.1753,9.8207,-0.0556,0.2054,-0.1242,-1.8011757336058558,-0.008444848470389843,2.432860851287842,-2.122255563735962,0.17839382588863373,1.9058966636657715,5.277249026089468,-0.00015593231364618987,0.21794897317886353,-1.6037300268756312,0.00021024786110501736,0.06895001232624054,0.7356659173965454,-0.0,-0.009243014268577099,0.8223890662193298,-0.0,-0.21163171529769897
879.0,924.0,1.5015,0.1753,9.8207,-0.0556,0.2054,-0.1242,-1.8012639484801234,-0.00886843167245388,2.435251235961914,-2.1210813522338867,0.1822706162929535,1.9565129280090332,5.277297425061025,-0.00019062125647906214,0.21659719944000244,-1.6036928335772913,0.00021830009063705802,0.057683221995830536,0.7356658577919006,-0.0,-0.0018173940479755402,0.8223567605018616,0.0,-0.2180236577987671
879.0,924.0,1.5015,0.1753,9.8207,-0.0556,0.2054,-0.1242,-1.8013283214964808,-0.0076690553687512875,2.486130714416504,-2.1196236610412598,0.1950587034225464,1.9197320938110352,5.277261006623068,-0.00041556271025910974,0.22228467464447021,-1.6037300268756312,0.00027886105817742646,0.07124871015548706,0.7357057929039001,-0.0,0.006830406375229359,0.8224130272865295,0.0,-0.20701131224632263
879.0,924.0,1.5015,0.1753,9.8207,-0.0556,0.2054,-0.1242,-1.801251073876852,-0.006129962857812643,2.450739860534668,-2.118356227874756,0.20824410021305084,1.9281871318817139,5.277244972973623,-0.00035019993083551526,0.21659763157367706,-1.6037138144122522,0.00031298340763896704,0.0684906467795372,0.7357259392738342,-0.0,0.003979789558798075,0.8224050402641296,0.0,-0.22210492193698883
879.0,924.0,1.5015,0.1753,9.8207,-0.0556,0.2054,-0.1242,-1.8013235531248988,-0.004240673501044512,2.4403936862945557,-2.1170217990875244,0.21859203279018402,1.9770824909210205,5.27724854925231,-0.0003878398856613785,0.2126847803592682,-1.6036976019488733,0.000517979555297643,0.05144466459751129,0.7356742024421692,-0.0,0.010155584663152695,0.8223364949226379,0.0,-0.21655385196208954
879.0,924.0,1.5015,0.1753,9.8207,-0.0556,0.2054,-0.1242,-1.801380296746725,-0.00440670782700181,2.4159460067749023,-2.115764856338501,0.22800248861312866,1.969761610031128,5.2772490856941126,-0.0005604592151939869,0.21814164519309998,-1.6036813894854944,0.0004653937357943505,0.07210826128721237,0.7356976270675659,-0.0,0.011912934482097626,0.8223686218261719,0.0,-0.24300721287727356
879.0,924.0,1.5015,0.1753,9.8207,-0.0556,0.2054,-0.1242,-1.8013512096800746,-0.004805905744433403,2.439332962036133,-2.1142868995666504,0.24189689755439758,2.041316032409668,5.277253198414602,-0.0009319696691818535,0.2202860414981842,-1.6037262121783655,0.00039972845115698874,0.06834081560373306,0.7357259392738342,-0.0,0.0018127788789570332,0.8223526477813721,0.0,-0.23269744217395782
879.0,924.0,1.5015,0.1753,9.8207,-0.0556,0.2054,-0.1242,-1.8014360866942347,-0.005774103105068207,2.448995351791382,-2.1123294830322266,0.25426551699638367,2.0215189456939697,5.277225005417623,-0.0008908757590688765,0.22317731380462646,-1.6036856810199183,0.0003386212047189474,0.070148766040802,0.7357176542282104,-0.0,0.010751220397651196,0.8223526477813721,0.0,-0.2363254427909851
949.0,931.0,1.2766,0.3021,9.2734,-0.062,0.3538,-0.1345,-1.801483770410055,-0.006637477781623602,2.435994863510132,-2.110767126083374,0.2608729600906372,2.0034806728363037,5.277277040272512,-0.001416873768903315,0.22523394227027893,-1.6036813894854944,0.0002915882505476475,0.07604476809501648,0.7357422709465027,-0.0,-0.00440666638314724,0.8223767876625061,0.0,-0.22769424319267273
949.0,931.0,1.2766,0.3021,9.2734,-0.062,0.3538,-0.1345,-1.8015200100340785,-0.005698073655366898,2.4334468841552734,-2.109194278717041,0.2743551433086395,2.0507330894470215,5.277220833092489,-0.0015382725978270173,0.23949652910232544,-1.6037138144122522,0.00025602985988371074,0.07583732157945633,0.7356859445571899,-0.0,0.0027845175936818123,0.8223603963851929,0.0,-0.217219740152359
949.0,931.0,1.2766,0.3021,9.2734,-0.062,0.3538,-0.1345,-1.8015481434264125,-0.0061191897839307785,2.4544997215270996,-2.1074721813201904,0.2859598398208618,2.052773952484131,5.277220833092489,-0.003377330955117941,0.2139926552772522,-1.6036933104144495,0.0002441733668092638,0.06303875893354416,0.7357659935951233,-0.0,0.0073039596900343895,0.8223890662193298,0.0,-0.24143728613853455
949.0,931.0,1.2766,0.3021,9.2734,-0.062,0.3538,-0.1345,-1.8016487560667933,-0.006641095038503408,2.494084119796753,-2.105813980102539,0.2886088490486145,2.059028387069702,5.277201163559713,-0.008976484648883343,0.20778107643127441,-1.6037300268756312,0.00023523205891251564,0.060536645352840424,0.7357500195503235,-0.0,0.0007076244801282883,0.8223444223403931,0.0,-0.18940040469169617
949.0,931.0,1.2766,0.3021,9.2734,-0.062,0.3538,-0.1345,-1.801680704156393,-0.007896343246102333,2.4960405826568604,-2.1034505367279053,0.3104100227355957,2.107279062271118,5.277088629990377,-0.006860344670712948,0.2173292338848114,-1.6037018934832972,0.00020804529776796699,0.06347861886024475,0.735754132270813,-0.0,-0.0022253161296248436,0.8223767280578613,0.0,-0.2275124192237854
949.0,931.0,1.2766,0.3021,9.2734,-0.062,0.3538,-0.1345,-1.8017078838744105,-0.007920857518911362,2.4632601737976074,-2.101583480834961,0.3197665810585022,2.0553243160247803,5.277129459172048,-0.0027107500936836004,0.2134631723165512,-1.6037099997149866,0.00019144834368489683,0.06679004430770874,0.735782265663147,-0.0,0.010404983535408974,0.8223767280578613,0.0,-0.2523883581161499
949.0,931.0,1.2766,0.3021,9.2734,-0.062,0.3538,-0.1345,-1.801744123498434,-0.010715999640524387,2.4739160537719727,-2.099642753601074,0.32116714119911194,2.098703384399414,5.277084874897756,-0.001206708257086575,0.23314587771892548,-1.6037052313434046,0.0001773036055965349,0.065452441573143,0.7357176542282104,-7.878051633269934e-07,0.004593641497194767,0.8223603963851929,6.851476791780442e-05,-0.22562000155448914
949.0,931.0,1.2766,0.3021,9.2734,-0.062,0.3538,-0.1345,-1.8018399677672328,-0.01343539822846651,2.427440643310547,-2.0975852012634277,0.33270952105522156,2.1596157550811768,5.277072417526998,-0.0007652315543964505,0.22974185645580292,-1.6037018934832972,0.00016510557907167822,0.0748976394534111,0.7357696890830994,-2.1928843463303593e-10,0.016337117180228233,0.8223444223403931,6.939442391740158e-05,-0.2096865028142929
949.0,931.0,1.2766,0.3021,9.2734,-0.062,0.3538,-0.1345,-1.8019405804076136,-0.015435311011970043,2.4875497817993164,-2.0955517292022705,0.3374090790748596,2.204176664352417,5.277048694878378,-0.0005606122431345284,0.22931504249572754,-1.6036976019488733,0.00015447814075741917,0.06641010195016861,0.7357779145240784,-6.103974205425022e-14,0.01233084686100483,0.8223927021026611,7.958878268254921e-05,-0.19466304779052734
949.0,931.0,1.2766,0.3021,9.2734,-0.062,0.3538,-0.1345,-1.802072664300436,-0.018282974138855934,2.46653413772583,-2.0927741527557373,0.3485138714313507,2.1493375301361084,5.277056383877554,-0.0004724060127045959,0.22110648453235626,-1.6036456266986292,0.00014226800703909248,0.07737521827220917,0.7357016801834106,-1.1093671780684755e-18,0.028055116534233093,0.8223282694816589,9.97144088614732e-05,-0.2176741659641266
949.0,931.0,1.2766,0.3021,9.2734,-0.062,0.3538,-0.1345,-1.8021613560118617,-0.0184086412191391,2.4758031368255615,-2.090618133544922,0.3607679307460785,2.1390633583068848,5.277044641762533,-0.00039468295290134847,0.22696903347969055,-1.6036933104144495,9.746234718477353e-05,0.07326330989599228,0.7357779145240784,-3.0879640803982074e-22,0.022771412506699562,0.8223809003829956,0.00033919556881301105,-0.19976504147052765
949.0,931.0,1.2766,0.3021,9.2734,-0.062,0.3538,-0.1345,-1.8022729359068812,-0.021044880151748657,2.466486930847168,-2.088434934616089,0.36034801602363586,2.192751884460449,5.277068841248312,-0.0003389272897038609,0.22047632932662964,-1.6037176291095179,9.137270535575226e-05,0.0632932037115097,0.7357537746429443,-8.595462935952748e-26,0.03946436941623688,0.8223603367805481,0.00033207578235305846,-0.18792180716991425
949.0,931.0,1.2766,0.3021,9.2734,-0.062,0.3538,-0.1345,-1.802469869653219,-0.025674885138869286,2.475886821746826,-2.086195945739746,0.36731237173080444,2.1640331745147705,5.277076649456777,-0.00029697807622142136,0.2202799916267395,-1.6036933104144495,7.334490510402247e-05,0.07335364073514938,0.7357299327850342,-2.3925784064772328e-29,0.016329288482666016,0.8223927021026611,0.0003109605750069022,-0.21408894658088684
949.0,931.0,1.2766,0.3021,9.2734,-0.062,0.3538,-0.1345,-1.8026138744749964,-0.031463928520679474,2.46557879447937,-2.083967685699463,0.3746291697025299,2.1861231327056885,5.277141380101003,-0.0002642711333464831,0.22816725075244904,-1.6037138144122522,8.149290806613863e-05,0.06491237878799438,0.7357582449913025,-6.659830835508842e-33,0.019087953492999077,0.8223685622215271,0.0003228531568311155,-0.17250129580497742
978.0,946.0,0.6903,0.3476,9.396,-0.0634,0.3867,-0.126,-1.8028460941710414,-0.03730108216404915,2.4620251655578613,-2.08091402053833,0.3846217691898346,2.1789660453796387,5.2770606754119775,-0.0002304350637132302,0.22387802600860596,-1.6036894957171839,2.878520311000443e-09,0.057546257972717285,0.7357738614082336,-1.2103911667390613e-37,0.017819035798311234,0.8224208950996399,0.000361521786544472,-0.22921523451805115
978.0,946.0,0.6903,0.3476,9.396,-0.0634,0.3867,-0.126,-1.803115030328268,-0.042653243988752365,2.4635097980499268,-2.0786542892456055,0.3893146812915802,2.1508865356445312,5.277044582157888,-0.0002102461294271052,0.22275011241436005,-1.6036976019488733,8.012466016192599e-13,0.06137332320213318,0.7357979416847229,-3.3691418977761577e-41,0.0061163813807070255,0.8224329352378845,0.0003027920611202717,-0.21094833314418793
978.0,946.0,0.6903,0.3476,9.396,-0.0634,0.3867,-0.126,-1.8033791981139125,-0.04906044900417328,2.445985794067383,-2.0762946605682373,0.3979722857475281,2.2029857635498047,5.277129459172048,-0.00019331020303070545,0.2251073122024536,-1.6037300268756312,2.2302994247070447e-16,0.08198335766792297,0.7357662916183472,-9.80908925027372e-45,0.03146155923604965,0.8223564028739929,0.00025918736355379224,-0.16216853260993958
978.0,946.0,0.6903,0.3476,9.396,-0.0634,0.3867,-0.126,-1.8037158451476039,-0.05700670927762985,2.443932056427002,-2.073928117752075,0.3999849855899811,2.184314727783203,5.277080762177267,-0.00017889990704134107,0.22214840352535248,-1.6036656538592737,6.208119744181184e-20,0.05837833136320114,0.7357298731803894,-0.0,0.023581577464938164,0.8223804831504822,0.000264300819253549,-0.2015865445137024
978.0,946.0,0.6903,0.3476,9.396,-0.0634,0.3867,-0.126,-1.8041249714293421,-0.0638856589794159,2.5108656883239746,-2.071544885635376,0.41672977805137634,2.2450878620147705,5.277072477131643,-0.0001664889423409477,0.22774431109428406,-1.6036337057696741,1.7280529821116383e-23,0.07307825982570648,0.7357659935951233,-0.0,0.018356425687670708,0.8223966360092163,0.0002681483165360987,-0.19422580301761627
978.0,946.0,0.6903,0.3476,9.396,-0.0634,0.3867,-0.126,-1.8046618900694789,-0.07022129744291306,2.403636932373047,-2.0682201385498047,0.4213801920413971,2.2193098068237305,5.277080762177267,-0.00010483428195584565,0.22483468055725098,-1.6037300268756312,3.140651275204938e-28,0.06698771566152573,0.7357537746429443,-0.0,0.02639191597700119,0.8223886489868164,0.00024076923727989197,-0.2242126166820526
978.0,946.0,0.6903,0.3476,9.396,-0.0634,0.3867,-0.126,-1.8050819836058558,-0.07780420035123825,2.474381923675537,-2.0655689239501953,0.4269581437110901,2.300711154937744,5.27709715345458,-0.00012340961256995797,0.2096112072467804,-1.6037176291095179,8.742117985476354e-32,0.0823068842291832,0.7358021140098572,-0.0,0.017091281712055206,0.8223767280578613,0.0001659750414546579,-0.1711680293083191
978.0,946.0,0.6903,0.3476,9.396,-0.0634,0.3867,-0.126,-1.8056065044798792,-0.0857558473944664,2.459066867828369,-2.0629994869232178,0.4262665808200836,2.2225875854492188,5.277072953968801,-0.0005944742006249726,0.20898467302322388,-1.60374623933901,2.4334007279530544e-35,0.05300215631723404,0.7356970906257629,-0.0,0.0423150360584259,0.8223883509635925,0.00014580468996427953,-0.18470387160778046
978.0,946.0,0.6903,0.3476,9.396,-0.0634,0.3867,-0.126,-1.8061720333495082,-0.08943502604961395,2.441455841064453,-2.060420513153076,0.4375385344028473,2.297834634780884,5.277032422810354,-0.00046491887769661844,0.2333841770887375,-1.6037619749652308,6.773460590902261e-39,0.06722927838563919,0.7358261942863464,-0.0,0.03322860598564148,0.8223845362663269,0.00013000746548641473,-0.19755417108535767
978.0,946.0,0.6903,0.3476,9.396,-0.0634,0.3867,-0.126,-1.8067571125426234,-0.09433113038539886,2.443258762359619,-2.0578017234802246,0.4385945796966553,2.236943006515503,5.2770652053649805,-0.00042076202225871384,0.2365611493587494,-1.6036494413958948,1.884746434516879e-42,0.07704555988311768,0.7357417941093445,-0.0,0.028207993134856224,0.8224249482154846,0.00011729908874258399,-0.20324546098709106
978.0,946.0,0.6903,0.3476,9.396,-0.0634,0.3867,-0.126,-1.8074890575804652,-0.10251473635435104,2.4233033657073975,-2.054231643676758,0.43781042098999023,2.334057092666626,5.277012753277578,-0.0005024962592869997,0.22221361100673676,-1.6036818663226526,0.0,0.06864868849515915,0.7357979416847229,-0.0,0.03255675360560417,0.8223804235458374,-7.582623948110268e-05,-0.25334712862968445
978.0,946.0,0.6903,0.3476,9.396,-0.0634,0.3867,-0.126,-1.808179040948385,-0.11064786463975906,2.4235570430755615,-2.051637649536133,0.44529959559440613,2.3105220794677734,5.277064728527822,-0.00046264129923656583,0.21993377804756165,-1.6036537329303187,0.0,0.07590974122285843,0.7357901334762573,-0.0,0.02768748812377453,0.8223724961280823,-0.0001103825998143293,-0.20783522725105286
978.0,946.0,0.6903,0.3476,9.396,-0.0634,0.3867,-0.126,-1.8088399372496546,-0.11976997554302216,2.4203648567199707,-2.048919677734375,0.45386746525764465,2.328404426574707,5.277032363205709,-0.00037913836422376335,0.21654511988162994,-1.6036737600909632,9.58429227466695e-05,0.0672333836555481,0.7357054352760315,-0.0,0.03291916474699974,0.8223809003829956,-0.00010951935109915212,-0.2120143473148346
978.0,946.0,0.6903,0.3476,9.396,-0.0634,0.3867,-0.126,-1.809584756890768,-0.1291128545999527,2.4159457683563232,-2.046208381652832,0.46011608839035034,2.348858118057251,5.277040588646688,-0.000321136845741421,0.2067629098892212,-1.603657070790426,0.0001280222786590457,0.06731623411178589,0.7357697486877441,-0.0,0.03613288700580597,0.822404682636261,-0.00013002785271964967,-0.2092035412788391
978.0,946.0,0.6903,0.3476,9.396,-0.0634,0.3867,-0.126,-1.8104587994017542,-0.13793131709098816,2.382878541946411,-2.0434134006500244,0.4600348174571991,2.2884278297424316,5.277064788132467,-0.000307922950014472,0.21146832406520844,-1.6036694685565394,0.00013952082372270525,0.07919353246688843,0.7358267307281494,-0.0,0.031278885900974274,0.8223767876625061,-0.00014680072490591556,-0.18481901288032532
974.0,980.0,0.1496,0.67,10.349,-0.0492,0.3335,-0.1158,-1.8115917644896449,-0.1458185613155365,2.4015066623687744,-2.039673328399658,0.4807836711406708,2.4071011543273926,5.277088928013601,-0.00027047842741012573,0.2188906967639923,-1.6036575476275843,0.00042291590943932533,0.08325810730457306,0.7357901334762573,-0.0,0.041640669107437134,0.8223444223403931,-0.00012985717330593616,-0.1745426058769226
974.0,980.0,0.1496,0.67,10.349,-0.0492,0.3335,-0.1158,-1.8125573597350062,-0.1449299156665802,2.447356700897217,-2.036835193634033,0.48483917117118835,2.2998571395874023,5.277052807598867,-0.00024307958665303886,0.21869191527366638,-1.6036737600909632,0.00045337912160903215,0.06549178808927536,0.7357500195503235,-0.0,0.0389232262969017,0.8223767280578613,-9.572151611791924e-05,-0.2119520604610443
974.0,980.0,0.1496,0.67,10.349,-0.0492,0.3335,-0.1158,-1.8135553799071253,-0.15647438168525696,2.47743558883667,-2.0339438915252686,0.4845372438430786,2.370728015899658,5.277008998184957,-0.0016368295764550567,0.2149180769920349,-1.6037057081805628,0.00038489833241328597,0.07564777135848999,0.7357175946235657,-0.0,0.05355618894100189,0.8223886489868164,-8.855321357259527e-05,-0.23850661516189575
974.0,980.0,0.1496,0.67,10.349,-0.0492,0.3335,-0.1158,-1.814512392083639,-0.18062105774879456,2.379520893096924,-2.031003713607788,0.47872957587242126,2.31620717048645,5.2769645927246,-0.00530198821797967,0.21420696377754211,-1.6036418120013636,0.00037171278381720185,0.09638898074626923,0.7357778549194336,-0.0,0.04348400607705116,0.8224129676818848,-8.246758079621941e-05,-0.2241804301738739
974.0,980.0,0.1496,0.67,10.349,-0.0492,0.3335,-0.1158,-1.815707346002096,-0.1989208459854126,2.3749427795410156,-2.028078317642212,0.48672348260879517,2.377100944519043,5.277025031834402,-0.003104187548160553,0.2108861804008484,-1.603678051625387,0.00034433603286743164,0.07069608569145203,0.7357655763626099,-0.0,0.05961793661117554,0.8223808407783508,-7.716463005635887e-05,-0.24058446288108826
974.0,980.0,0.1496,0.67,10.349,-0.0492,0.3335,-0.1158,-1.8172646961607875,-0.20198661088943481,2.3996009826660156,-2.0240559577941895,0.4993220269680023,2.4142141342163086,5.277004766255178,-0.0003885225160047412,0.20949751138687134,-1.603661839162008,0.0003693949547596276,0.0748080462217331,0.7357454895973206,-0.0,0.04890326038002968,0.8223485946655273,-0.00012106799113098532,-0.21679705381393433
974.0,980.0,0.1496,0.67,10.349,-0.0492,0.3335,-0.1158,-1.8184181652464808,-0.1881706267595291,2.3942439556121826,-2.021101236343384,0.5046679973602295,2.367140769958496,5.276996600418844,-0.0002352170558879152,0.2099270522594452,-1.6036575476275843,0.00035915180342271924,0.08068044483661652,0.7357574105262756,-0.0,0.04983150213956833,0.8223608136177063,-0.0001765724882716313,-0.18224433064460754
974.0,980.0,0.1496,0.67,10.349,-0.0492,0.3335,-0.1158,-1.8197008572020472,-0.18858374655246735,2.3894882202148438,-2.0180318355560303,0.509224534034729,2.384697914123535,5.276944029122152,-0.00016888423124328256,0.20039699971675873,-1.603649918233053,0.0003124343929812312,0.06832104176282883,0.7357819080352783,-0.0,0.042078614234924316,0.8223522901535034,-0.0002895304933190346,-0.27305829524993896
974.0,980.0,0.1496,0.67,10.349,-0.0492,0.3335,-0.1158,-1.820902486840719,-0.20766426622867584,2.386148452758789,-2.0150492191314697,0.511515200138092,2.4090793132781982,5.277004825859823,-0.0001810706889955327,0.2167094647884369,-1.6036298910724085,0.0003147680836264044,0.08090384304523468,0.7357655763626099,-0.0,0.035765208303928375,0.8223685026168823,-2.2951205380650208e-08,-0.20619195699691772
974.0,980.0,0.1496,0.67,10.349,-0.0492,0.3335,-0.1158,-1.8221680126585902,-0.2324092835187912,2.397000312805176,-2.011963367462158,0.5085740089416504,2.3931500911712646,5.276961016445913,-0.003835478099063039,0.2177402675151825,-1.603661839162008,0.00026020323275588453,0.08644185960292816,0.7357738614082336,-0.0,0.04058454558253288,0.8223965764045715,-5.542446249130403e-14,-0.209203839302063
974.0,980.0,0.1496,0.67,10.349,-0.0492,0.3335,-0.1158,-1.8239952526488246,-0.23591266572475433,2.3745322227478027,-2.007882833480835,0.5189964175224304,2.3738954067230225,5.2769285319145105,-0.002507410477846861,0.20415225625038147,-1.6036542097674769,0.00024791568284854293,0.07715065032243729,0.7357979416847229,-0.0,0.05611956864595413,0.8223042488098145,-0.00024174535064958036,-0.19192668795585632
974.0,980.0,0.1496,0.67,10.349,-0.0492,0.3335,-0.1158,-1.8253733120360316,-0.23071607947349548,2.5008773803710938,-2.0047032833099365,0.5255418419837952,2.41217303276062,5.2769605992134,-0.0010551108280196786,0.20962360501289368,-1.603649918233053,0.00025800825096666813,0.06804561614990234,0.7357455492019653,-0.0,0.04434323310852051,0.8223286271095276,-0.0009076425922103226,-0.24715343117713928
974.0,980.0,0.1496,0.67,10.349,-0.0492,0.3335,-0.1158,-1.826726575891012,-0.22830817103385925,2.4291446208953857,-2.001538038253784,0.5277800559997559,2.401123285293579,5.276900338917532,-0.0006641626241616905,0.19051110744476318,-1.603666130696432,0.00023079519451130182,0.07233425974845886,0.7357537746429443,-0.0,0.04420258849859238,0.8223444819450378,-0.001051208470016718,-0.1988719403743744
974.0,980.0,0.1496,0.67,10.349,-0.0492,0.3335,-0.1158,-1.8281933269896449,-0.23091742396354675,2.4020471572875977,-1.9982486963272095,0.5300455093383789,2.4384350776672363,5.2769166705902,-0.0005656410939991474,0.2103123962879181,-1.6036422888385218,0.000207939840038307,0.07626079767942429,0.7357455492019653,-0.0,0.05334150418639183,0.8223686218261719,-0.0006515333661809564,-0.19077138602733612
967.0,968.0,0.143,0.259,9.4971,-0.0472,0.3012,-0.1196,-1.8296314678587855,-0.24429702758789062,2.4650940895080566,-1.9950649738311768,0.5317134857177734,2.367980480194092,5.276900517731466,-0.0005047810263931751,0.20814871788024902,-1.603666130696432,0.00021610954718198627,0.08438386023044586,0.7358061671257019,-0.0,0.03904770314693451,0.8223324418067932,-1.1903186532435939e-05,-0.1786077618598938
967.0,968.0,0.143,0.259,9.4971,-0.0472,0.3012,-0.1196,-1.8315702877440394,-0.25845998525619507,2.403620719909668,-1.9906916618347168,0.5305487513542175,2.371708631515503,5.276941406517782,-0.0011698841117322445,0.19925719499588013,-1.6036418120013636,0.0001930403377627954,0.08756768703460693,0.7357697486877441,-0.0,0.04598899930715561,0.8223645687103271,-3.856481648779886e-13,-0.21475981175899506
967.0,968.0,0.143,0.259,9.4971,-0.0472,0.3012,-0.1196,-1.833019872704977,-0.2607799470424652,2.448404312133789,-1.9875831604003906,0.5347853302955627,2.4427061080932617,5.2768921730811975,-0.0011213608086109161,0.20607280731201172,-1.6036337057696741,0.00016361396410502493,0.07814622670412064,0.7357738614082336,-0.0,0.050803862512111664,0.8223205208778381,-9.312949411229333e-19,-0.19975979626178741
967.0,968.0,0.143,0.259,9.4971,-0.0472,0.3012,-0.1196,-1.8345586262144984,-0.2587394416332245,2.481348991394043,-1.9843801259994507,0.5366939306259155,2.362637996673584,5.276933181076803,-0.0007665666053071618,0.2119808793067932,-1.6036298910724085,0.00014341063797473907,0.07202868163585663,0.7357978820800781,6.585854134755209e-05,0.046368759125471115,0.8223645687103271,-2.2489674989991087e-24,-0.19699567556381226
967.0,968.0,0.143,0.259,9.4971,-0.0472,0.3012,-0.1196,-1.8360802135863246,-0.26062098145484924,2.4132235050201416,-1.981166958808899,0.5371956825256348,2.3782968521118164,5.2769449827964685,-0.0005808144924230874,0.22044725716114044,-1.6036337057696741,0.00013089361891616136,0.06294485181570053,0.7358623147010803,6.339637911878526e-05,0.04273410141468048,0.822316586971283,-5.430992292437482e-30,-0.27063417434692383
967.0,968.0,0.143,0.259,9.4971,-0.0472,0.3012,-0.1196,-1.8377262554564417,-0.25584083795547485,2.418586015701294,-1.9779760837554932,0.5446192622184753,2.432676076889038,5.276929008751669,-0.0004675769596360624,0.2201513648033142,-1.603649918233053,0.00012038769637001678,0.07224702090024948,0.735809862613678,6.082574691390619e-05,0.04770475998520851,0.8223890066146851,-1.3115209442385413e-35,-0.1967839002609253
967.0,968.0,0.143,0.259,9.4971,-0.0472,0.3012,-0.1196,-1.8398081264891566,-0.26312321424484253,2.5044026374816895,-1.9737114906311035,0.5480025410652161,2.3737401962280273,5.276949155121603,-0.00027658705948852,0.20378606021404266,-1.6036742369281214,0.00010874942381633446,0.08145270496606827,0.7358139157295227,5.7705678045749664e-05,0.045697227120399475,0.8223931193351746,0.0001811688271118328,-0.20753926038742065
967.0,968.0,0.143,0.259,9.4971,-0.0472,0.3012,-0.1196,-1.8414627514281214,-0.280936598777771,2.5047402381896973,-1.9704525470733643,0.5398447513580322,2.3531224727630615,5.276929008751669,-0.0003446110640652478,0.22349998354911804,-1.603621784840719,0.00010139788355445489,0.07882221043109894,0.7357814908027649,5.5568023526575416e-05,0.050139643251895905,0.8223808407783508,0.00014169022324495018,-0.2211553454399109
967.0,968.0,0.143,0.259,9.4971,-0.0472,0.3012,-0.1196,-1.8432179890074671,-0.28817906975746155,2.4993326663970947,-1.967160701751709,0.5370909571647644,2.4449777603149414,5.2769449827964685,-0.0007421074551530182,0.22711697220802307,-1.6036699453936976,9.49772002059035e-05,0.07277257740497589,0.7358139157295227,6.425273750210181e-05,0.051582612097263336,0.8223808407783508,0.00011461729445727542,-0.22469475865364075
967.0,968.0,0.143,0.259,9.4971,-0.0472,0.3012,-0.1196,-1.844997068444723,-0.28808268904685974,2.4747314453125,-1.9638327360153198,0.5428770184516907,2.3870816230773926,5.276908504753866,-0.0005264196661300957,0.2160933017730713,-1.6036861578570765,8.932139462558553e-05,0.07709246128797531,0.735809862613678,6.208188278833404e-05,0.0671766847372055,0.8223324418067932,9.623155347071588e-05,-0.19797296822071075
967.0,968.0,0.143,0.259,9.4971,-0.0472,0.3012,-0.1196,-1.846731802026266,-0.2947656214237213,2.4809560775756836,-1.9605934619903564,0.5463205575942993,2.429611921310425,5.276920723706045,-0.00040720394463278353,0.20494328439235687,-1.603666130696432,8.430132584180683e-05,0.06782486289739609,0.7357737421989441,6.001208384986967e-05,0.05592031031847,0.8224049806594849,0.0001243911247001961,-0.2021540105342865
967.0,968.0,0.143,0.259,9.4971,-0.0472,0.3012,-0.1196,-1.8491746387877406,-0.2947482466697693,2.502577304840088,-1.9562492370605469,0.5488113760948181,2.4100472927093506,5.2769166705902,-0.0003127976378891617,0.2228853702545166,-1.6036861578570765,7.070251740515232e-05,0.0855422168970108,0.7358339428901672,4.244845808187847e-09,0.06446631252765656,0.8223808407783508,0.0001399902830598876,-0.17710858583450317
967.0,968.0,0.143,0.259,9.4971,-0.0472,0.3012,-0.1196,-1.8509890041747035,-0.2931314706802368,2.493163585662842,-1.9529763460159302,0.5496087074279785,2.37791109085083,5.276920902519979,-0.00026647388585843146,0.23208406567573547,-1.6036375204669397,5.96245881752111e-05,0.06568308174610138,0.7357938289642334,1.181568406484479e-12,0.05621502175927162,0.8224208950996399,0.0001567577855894342,-0.19861741364002228
967.0,968.0,0.143,0.259,9.4971,-0.0472,0.3012,-0.1196,-1.8527995548644007,-0.30808940529823303,2.550246000289917,-1.9496960639953613,0.5457900166511536,2.399670124053955,5.2768927095230005,-0.000232103921007365,0.22484230995178223,-1.6036418120013636,5.680020694853738e-05,0.058297619223594666,0.7358138561248779,3.2889397310311905e-16,0.0698462724685669,0.8223845362663269,0.00025972770527005196,-0.1901683211326599
963.0,957.0,-0.0227,0.2602,8.6895,-0.0606,0.2184,-0.1362,-1.8546797237791957,-0.3216913342475891,2.5647034645080566,-1.946463704109192,0.5500075817108154,2.4091503620147705,5.276920902519979,-0.0002735018788371235,0.2236451655626297,-1.6036337057696741,5.4233125410974026e-05,0.06860305368900299,0.7357619404792786,9.154883467976575e-20,0.06447195261716843,0.8224048018455505,0.0008330600103363395,-0.15460249781608582
963.0,957.0,-0.0227,0.2602,8.6895,-0.0606,0.2184,-0.1362,-1.8565651379027308,-0.3236631155014038,2.5252888202667236,-1.9431684017181396,0.5478611588478088,2.4233217239379883,5.276888596802511,-0.0002460150863043964,0.22067074477672577,-1.6036418120013636,5.188810609979555e-05,0.053921885788440704,0.7357737421989441,2.548295247458885e-23,0.06399909406900406,0.822400689125061,0.0007655199151486158,-0.14763370156288147
963.0,957.0,-0.0227,0.2602,8.6895,-0.0606,0.2184,-0.1362,-1.859140535394186,-0.3258131742477417,2.561323404312134,-1.9387763738632202,0.5428865551948547,2.4058074951171875,5.276872622757711,-0.00021643088257405907,0.22066761553287506,-1.6036575476275843,4.9059624871006235e-05,0.05049193277955055,0.7358139157295227,4.6314002560296215e-28,0.061424724757671356,0.8223968148231506,4.167146471445449e-05,-0.14466145634651184
963.0,957.0,-0.0227,0.2602,8.6895,-0.0606,0.2184,-0.1362,-1.8611232242979945,-0.32463833689689636,2.5196759700775146,-1.935378074645996,0.544363260269165,2.397434949874878,5.276953267842092,-0.00019852672994602472,0.22233548760414124,-1.603649918233053,4.713270391221158e-05,0.04911138117313385,0.7357938289642334,1.2891672406343745e-31,0.06241580843925476,0.8224209547042847,1.0063167660279149e-10,-0.13412773609161377
963.0,957.0,-0.0227,0.2602,8.6895,-0.0606,0.2184,-0.1362,-1.8630830250182093,-0.32771724462509155,2.56571102142334,-1.9321075677871704,0.5459433197975159,2.424760103225708,5.2768921730811975,-0.0001833581627579406,0.22368572652339935,-1.603649918233053,4.535142579698004e-05,0.06096642464399338,0.7357855439186096,3.5884441747387337e-35,0.06316667795181274,0.8224291205406189,2.4301367315791996e-16,-0.15648069977760315
963.0,957.0,-0.0227,0.2602,8.6895,-0.0606,0.2184,-0.1362,-1.865061422387594,-0.3313215374946594,2.58160400390625,-1.9288772344589233,0.5448071956634521,2.41624116897583,5.276896345406332,-0.00017034370102919638,0.22052904963493347,-1.6036375204669397,4.3699903471861035e-05,0.0477721206843853,0.7357979416847229,9.988566156285978e-39,0.0649615228176117,0.8224048018455505,5.868494046120151e-22,-0.1318749338388443
963.0,957.0,-0.0227,0.2602,8.6895,-0.0606,0.2184,-0.1362,-1.8670484028258265,-0.3425333499908447,2.540950298309326,-1.9256408214569092,0.5413793921470642,2.346107244491577,5.276888596802511,-0.0001590540341567248,0.22893774509429932,-1.6036818663226526,4.216445086058229e-05,0.05214199796319008,0.7358344793319702,7.93275612522848e-05,0.07170676440000534,0.8224127292633057,1.4171721495285232e-27,-0.1519932597875595
963.0,957.0,-0.0227,0.2602,8.6895,-0.0606,0.2184,-0.1362,-1.8697735271849574,-0.34647515416145325,2.604691982269287,-1.9213238954544067,0.5399457812309265,2.4083924293518066,5.276884543686666,-0.00014614018436986953,0.21783329546451569,-1.6036818663226526,4.027749309898354e-05,0.05301174521446228,0.7358261346817017,7.564126281067729e-05,0.07119960337877274,0.8223403692245483,4.5914574014659645e-35,-0.15345102548599243
963.0,957.0,-0.0227,0.2602,8.6895,-0.0606,0.2184,-0.1362,-1.871908803979391,-0.35133859515190125,2.5879721641540527,-1.9181160926818848,0.5371099710464478,2.3948798179626465,5.276941346913137,-0.0001377519074594602,0.23273470997810364,-1.6036656538592737,3.3499219398436253e-07,0.05998508259654045,0.7357897162437439,7.200993422884494e-05,0.07232072949409485,0.8223363161087036,1.1087774098970115e-40,-0.1710089147090912
963.0,957.0,-0.0227,0.2602,8.6895,-0.0606,0.2184,-0.1362,-1.8740679226317347,-0.3543741703033447,2.5522680282592773,-1.9148401021957397,0.5460419654846191,2.4218196868896484,5.276912736683645,-0.0001302745658904314,0.22750063240528107,-1.6036251227008265,9.324630650953125e-11,0.04714450240135193,0.7358659505844116,6.871127698104829e-05,0.08461727201938629,0.8224127292633057,0.0,-0.1616247594356537
963.0,957.0,-0.0227,0.2602,8.6895,-0.0606,0.2184,-0.1362,-1.8762666187682093,-0.35050952434539795,2.623051643371582,-1.911628007888794,0.5474612712860107,2.424879550933838,5.276900517731466,-0.00012356713705230504,0.21817687153816223,-1.603666130696432,2.5955449337662813e-14,0.06285955756902695,0.7358458638191223,7.87843091529794e-05,0.0665154978632927,0.8224127292633057,0.0,-0.14042404294013977
963.0,957.0,-0.0227,0.2602,8.6895,-0.0606,0.2184,-0.1362,-1.8792087040343226,-0.3691571056842804,2.602269172668457,-1.9072877168655396,0.5394019484519958,2.3893351554870605,5.2768603442008875,-8.824146061670035e-05,0.22817005217075348,-1.6036418120013636,4.717274548588846e-19,0.053124718368053436,0.7357532382011414,7.449153054039925e-05,0.06452877819538116,0.8223645091056824,0.0,-0.09471573680639267
963.0,957.0,-0.0227,0.2602,8.6895,-0.0606,0.2184,-0.1362,-1.8814393482603968,-0.3747907280921936,2.6482930183410645,-1.9039559364318848,0.5366933345794678,2.391889810562134,5.276912677079,-6.084748019929975e-05,0.2239101529121399,-1.6036213080035608,1.3130707149906438e-22,0.05440463870763779,0.7357974648475647,7.153126352932304e-05,0.05930853635072708,0.8223845362663269,0.0,-0.16924268007278442
963.0,957.0,-0.0227,0.2602,8.6895,-0.0606,0.2184,-0.1362,-1.8836900196471156,-0.38394784927368164,2.629629135131836,-1.900732398033142,0.5354101061820984,2.374246835708618,5.276876675873556,-5.700825931853615e-05,0.2424750179052353,-1.6036456266986292,3.654980852800311e-26,0.05656798556447029,0.7357614636421204,6.879725697217509e-05,0.07830072939395905,0.8224129676818848,0.0,-0.1507568657398224
957.0,901.0,-0.2883,0.2901,8.3749,-0.0469,0.192,-0.1364,-1.8859812221922816,-0.3872426450252533,2.5795528888702393,-1.8975495100021362,0.5333909392356873,2.38942289352417,5.276880371361532,-5.4422598623204976e-05,0.2287440448999405,-1.6036818663226526,1.0173773831790568e-29,0.04468393325805664,0.7358261942863464,6.626459799008444e-05,0.06707081943750381,0.8223767280578613,0.0,-0.14286231994628906
957.0,901.0,-0.2883,0.2901,8.3749,-0.0469,0.192,-0.1364,-1.8881827793517054,-0.3837113380432129,2.6328938007354736,-1.8942900896072388,0.533559262752533,2.4008524417877197,5.276933181076803,-5.20614194101654e-05,0.22523567080497742,-1.6036337057696741,2.8319076851369585e-33,0.04260675981640816,0.7358261942863464,6.391174247255549e-05,0.06380024552345276,0.8223645687103271,-6.252284947549924e-05,-0.16435812413692474
957.0,901.0,-0.2883,0.2901,8.3749,-0.0469,0.192,-0.1364,-1.8912369213499964,-0.37547147274017334,2.6679930686950684,-1.8900398015975952,0.538865864276886,2.4461965560913086,5.276965248375692,-4.92145809403155e-05,0.2448280155658722,-1.603678051625387,5.14685155039405e-38,0.051677338778972626,0.7357778549194336,6.102283805375919e-05,0.06483626365661621,0.8223645091056824,-8.295108273159713e-05,-0.16597339510917664
957.0,901.0,-0.2883,0.2901,8.3749,-0.0469,0.192,-0.1364,-1.8935090504088343,-0.3738440275192261,2.605757713317871,-1.886900782585144,0.5342317819595337,2.3561058044433594,5.276920962124624,-4.727574560092762e-05,0.22705069184303284,-1.6036456266986292,1.432687549925693e-41,0.034813523292541504,0.7357454895973206,3.8962953112786636e-06,0.06911633908748627,0.8223604559898376,-7.595069473609328e-05,-0.15508390963077545
957.0,901.0,-0.2883,0.2901,8.3749,-0.0469,0.192,-0.1364,-1.895759721795553,-0.3766235411167145,2.6995458602905273,-1.8837255239486694,0.5393179059028625,2.4322471618652344,5.27692078331069,-4.54838591394946e-05,0.2299812138080597,-1.6036537329303187,4.203895392974451e-45,0.04262101650238037,0.7357299327850342,1.0845480069576752e-09,0.06779773533344269,0.8223645687103271,-4.673105649999343e-05,-0.1197240799665451
957.0,901.0,-0.2883,0.2901,8.3749,-0.0469,0.192,-0.1364,-1.8979689083495082,-0.3837781846523285,2.69166898727417,-1.8805510997772217,0.5378460884094238,2.3715639114379883,5.276937234192648,-4.382284532766789e-05,0.2298993170261383,-1.603661839162008,0.0,0.054928943514823914,0.7358220219612122,3.018879905173494e-13,0.0645766407251358,0.8223886489868164,-3.497812528507893e-08,-0.10013530403375626
957.0,901.0,-0.2883,0.2901,8.3749,-0.0469,0.192,-0.1364,-1.9002267322936,-0.38538122177124023,2.728623390197754,-1.8773435354232788,0.5330225229263306,2.4339759349823,5.276933181076803,-4.227891258778982e-05,0.23592670261859894,-1.603678051625387,0.0,0.04087931290268898,0.7357660531997681,8.403165715526148e-17,0.06613990664482117,0.8223927021026611,-8.446806351158215e-14,-0.0802241787314415
957.0,901.0,-0.2883,0.2901,8.3749,-0.0469,0.192,-0.1364,-1.9033457241454066,-0.3860751688480377,2.7018957138061523,-1.8729963302612305,0.5310454368591309,2.391591787338257,5.276981043606558,-3.160144478897564e-05,0.22149011492729187,-1.6036537329303187,2.1754820167529942e-08,0.05475164204835892,0.7357537746429443,1.5272340056885078e-21,0.05338726192712784,0.822400689125061,-2.736657990281718e-21,-0.11873820424079895
957.0,901.0,-0.2883,0.2901,8.3749,-0.0469,0.192,-0.1364,-1.9056765041747035,-0.38015374541282654,2.7413196563720703,-1.8697607517242432,0.5340821743011475,2.452099084854126,5.276972758560934,7.442514470312744e-05,0.24736136198043823,-1.603678051625387,6.055534546023367e-12,0.04722416400909424,0.735729992389679,4.251112253668141e-25,0.05193644016981125,0.8223767280578613,-6.608706885392315e-27,-0.14904038608074188
957.0,901.0,-0.2883,0.2901,8.3749,-0.0469,0.192,-0.1364,-1.907966753045553,-0.37334170937538147,2.805288791656494,-1.866505742073059,0.5382250547409058,2.3752951622009277,5.276981043606558,7.05035199644044e-05,0.2360924482345581,-1.6036537329303187,1.685580318443007e-15,0.03135881945490837,0.7357012629508972,1.1833126634315275e-28,0.041798390448093414,0.8223604559898376,-1.5959248929468516e-32,-0.11914493888616562
957.0,901.0,-0.2883,0.2901,8.3749,-0.0469,0.192,-0.1364,-1.910360952416891,-0.3795521855354309,2.7321152687072754,-1.8632067441940308,0.5397356748580933,2.376396656036377,5.276944565563955,6.538195884786546e-05,0.23587146401405334,-1.6036980787860315,4.691874933904639e-19,0.029530685395002365,0.7357418537139893,3.2937942395951784e-32,0.03387533128261566,0.8223645687103271,-3.853970987734658e-38,-0.10496696829795837
957.0,901.0,-0.2883,0.2901,8.3749,-0.0469,0.192,-0.1364,-1.912671228448385,-0.37684908509254456,2.850635051727295,-1.860062599182129,0.5386545062065125,2.39933443069458,5.276948678284445,6.095378194004297e-05,0.24789951741695404,-1.6036737600909632,1.306000628013691e-22,0.03787849470973015,0.7357578277587891,9.168397476397866e-36,0.030372515320777893,0.8223362565040588,-9.248569864543793e-44,-0.11636606603860855
957.0,901.0,-0.2883,0.2901,8.3749,-0.0469,0.192,-0.1364,-1.9157239399352015,-0.387337327003479,2.7705793380737305,-1.855831503868103,0.5323104858398438,2.408642292022705,5.276956844120779,5.590518412645906e-05,0.24852174520492554,-1.6036537329303187,2.373591752509644e-27,0.036950498819351196,0.7357578277587891,1.6663120298979265e-40,0.020486436784267426,0.8223363161087036,0.0,-0.15224036574363708
957.0,901.0,-0.2883,0.2901,8.3749,-0.0469,0.192,-0.1364,-1.9179908237852992,-0.39031657576560974,2.821406841278076,-1.852624773979187,0.5332651138305664,2.455216646194458,5.276929008751669,5.2635576139437035e-05,0.24130740761756897,-1.6036456266986292,6.606980256847567e-31,0.02017039805650711,0.7357136011123657,-2.6027239073300734e-05,0.04242611676454544,0.8223886489868164,0.0,-0.061382390558719635
957.0,901.0,-0.2883,0.2901,8.3749,-0.0469,0.192,-0.1364,-1.9202891788878382,-0.3895144462585449,2.842069149017334,-1.8494004011154175,0.5333858728408813,2.384551763534546,5.276964711933889,4.972727401764132e-05,0.2399228811264038,-1.6036418120013636,1.8390772126620368e-34,0.031671538949012756,0.7356818914413452,-3.742008630069904e-05,0.014878536574542522,0.8223808407783508,0.0,-0.09738469123840332
932.0,907.0,-0.5234,0.2459,9.4343,-0.0438,0.2138,-0.1222,-1.9225641689696253,-0.3800046443939209,2.8586721420288086,-1.8462470769882202,0.5323836207389832,2.3589468002319336,5.276964711933889,4.712353984359652e-05,0.2333005666732788,-1.603649918233053,5.119139471963562e-38,0.02970680221915245,0.7357381582260132,-3.5976816434413195e-05,0.0256931334733963,0.8223406076431274,-0.00017656842828728259,-0.14094774425029755
932.0,907.0,-0.5234,0.2459,9.4343,-0.0438,0.2138,-0.1222,-1.9248181782164515,-0.3713011145591736,2.858053684234619,-1.8430113792419434,0.528823733329773,2.410400867462158,5.276976930886068,5.7753073633648455e-05,0.24389132857322693,-1.6036894957171839,1.4249804083719065e-41,0.026702191680669785,0.7357175946235657,-4.5738532207906246e-05,0.018490895628929138,0.8223364949226379,-0.00022791886294726282,-0.1490502655506134
932.0,907.0,-0.5234,0.2459,9.4343,-0.0438,0.2138,-0.1222,-1.9277473888792933,-0.3669426143169403,2.8484933376312256,-1.8387889862060547,0.5299383401870728,2.408869743347168,5.276964711933889,5.5990803957683966e-05,0.24979278445243835,-1.603666130696432,0.0,0.022863544523715973,0.7357138991355896,-4.387657463666983e-05,0.008430421352386475,0.8223808407783508,0.00036096051917411387,-0.16142936050891876
932.0,907.0,-0.5234,0.2459,9.4343,-0.0438,0.2138,-0.1222,-1.9299994907774867,-0.3719634711742401,2.836014747619629,-1.8356151580810547,0.526244580745697,2.395341157913208,5.276985096722402,5.349477578420192e-05,0.24434100091457367,-1.603678051625387,0.0,0.034459665417671204,0.7357422709465027,-5.290804983815178e-05,0.012376420199871063,0.8223567605018616,0.0005233636475168169,-0.023826228454709053
932.0,907.0,-0.5234,0.2459,9.4343,-0.0438,0.2138,-0.1222,-1.9321729145445765,-0.3692401945590973,2.847729206085205,-1.8323866128921509,0.5236441493034363,2.4590816497802734,5.276956426888265,5.121182039147243e-05,0.2471073567867279,-1.603649918233053,0.0,0.02246839366853237,0.7357099056243896,-5.114000305184163e-05,0.014126027002930641,0.8223564028739929,0.00028113072039559484,-0.11570541560649872
932.0,907.0,-0.5234,0.2459,9.4343,-0.0438,0.2138,-0.1222,-1.9343153438963832,-0.36933574080467224,2.8973443508148193,-1.8292655944824219,0.5272796154022217,2.4241786003112793,5.276972758560934,6.145008228486404e-05,0.25204533338546753,-1.6036337057696741,0.0,0.025128506124019623,0.7356781959533691,-0.0001839909964473918,0.004367230460047722,0.8223444819450378,0.00019132836314383894,-0.11910893023014069
932.0,907.0,-0.5234,0.2459,9.4343,-0.0438,0.2138,-0.1222,-1.9365817509093226,-0.36176007986068726,2.9464564323425293,-1.826083779335022,0.533760666847229,2.3954529762268066,5.276972758560934,0.00010494231537450105,0.24212606251239777,-1.6036298910724085,0.0,0.032337114214897156,0.7356618642807007,-0.0001639204128878191,0.0099562369287014,0.8223727345466614,8.12799044069834e-05,-0.15498526394367218
932.0,907.0,-0.5234,0.2459,9.4343,-0.0438,0.2138,-0.1222,-1.939467569390768,-0.3503277003765106,2.9701058864593506,-1.821750521659851,0.5385221838951111,2.4112017154693604,5.277017283230581,0.00011486907169455662,0.24182525277137756,-1.6036537329303187,0.0,0.03500887751579285,0.7356782555580139,-0.00017166815814562142,0.003987928852438927,0.8223848938941956,5.4844254918862134e-05,-0.13196644186973572
932.0,907.0,-0.5234,0.2459,9.4343,-0.0438,0.2138,-0.1222,-1.9416471920409144,-0.35548388957977295,2.9672884941101074,-1.81858491897583,0.5411167740821838,2.40632700920105,5.276968705445089,0.00010827038931893185,0.2381977140903473,-1.603678051625387,0.0,0.030453084036707878,0.7356821894645691,-0.0001567342842463404,0.01348288357257843,0.8223848938941956,0.00013887249224353582,-0.1664436310529709
932.0,907.0,-0.5234,0.2459,9.4343,-0.0438,0.2138,-0.1222,-1.9438125095763148,-0.35631391406059265,2.997483730316162,-1.8154027462005615,0.5409271717071533,2.439209461212158,5.2769605992134,8.623888425063342e-05,0.23558351397514343,-1.6036213080035608,0.0,0.034227583557367325,0.7356901168823242,-0.0001619849499547854,0.01804632693529129,0.8223685622215271,0.00012047775089740753,-0.10776688158512115
932.0,907.0,-0.5234,0.2459,9.4343,-0.0438,0.2138,-0.1222,-1.9460035763182582,-0.3645235598087311,2.993410587310791,-1.8121191263198853,0.5326735377311707,2.4636716842651367,5.276976930886068,8.053693454712629e-05,0.24197980761528015,-1.6036542097674769,0.0,0.028069935739040375,0.7356539964675903,-0.00015573196287732571,0.007097269874066114,0.8223808407783508,0.00010625340655678883,-0.12357498705387115
932.0,907.0,-0.5234,0.2459,9.4343,-0.0438,0.2138,-0.1222,-1.948141714135641,-0.3697478473186493,2.9595863819122314,-1.808882236480713,0.5325429439544678,2.370879650115967,5.276964711933889,7.643287244718522e-05,0.25113964080810547,-1.6036980787860315,0.0,0.028510384261608124,0.7357023358345032,-0.00014498141536023468,0.01712939888238907,0.8223564028739929,9.503334149485454e-05,-0.16088540852069855
932.0,907.0,-0.5234,0.2459,9.4343,-0.0438,0.2138,-0.1222,-1.9510070286192835,-0.3652237355709076,2.9980857372283936,-1.8045903444290161,0.5351827144622803,2.400629997253418,5.276988792210378,7.157025538617745e-05,0.25078627467155457,-1.6036542097674769,0.0,0.02916378527879715,0.7356945872306824,-0.00015168293612077832,0.016760164871811867,0.822324275970459,8.330445416504517e-05,-0.11460990458726883
932.0,907.0,-0.5234,0.2459,9.4343,-0.0438,0.2138,-0.1222,-1.9530650577940882,-0.35451969504356384,2.9835805892944336,-1.801384687423706,0.5376608967781067,2.46327805519104,5.27702550867156,6.831093924120069e-05,0.24879290163516998,-1.6036542097674769,0.0,0.022545138373970985,0.7356261014938354,-0.00014270392421167344,0.006140388548374176,0.8223726749420166,7.624701538588852e-05,-0.14621210098266602
924.0,888.0,-0.6724,0.3936,9.3284,-0.049,0.2579,-0.1261,-1.9551769695677699,-0.34415000677108765,3.0405688285827637,-1.798185110092163,0.5405896902084351,2.434662342071533,5.276968645840444,6.533544365083799e-05,0.23984113335609436,-1.6036737600909632,0.0,0.025109684094786644,0.7356904745101929,-0.00013469465193338692,0.006911400705575943,0.8223444819450378,-2.682186459423974e-05,-0.136875182390213
924.0,888.0,-0.6724,0.3936,9.3284,-0.049,0.2579,-0.1261,-1.9572836361327113,-0.33907392621040344,2.970353841781616,-1.794932246208191,0.5410208702087402,2.3916850090026855,5.276956426888265,6.260850932449102e-05,0.25510919094085693,-1.603637997304098,0.0,0.016697660088539124,0.7356461882591248,-0.00012892366794403642,-0.005248065106570721,0.8223364949226379,-3.396164629521081e-07,-0.12887105345726013
924.0,888.0,-0.6724,0.3936,9.3284,-0.049,0.2579,-0.1261,-1.959325452844137,-0.3406743109226227,3.0305135250091553,-1.791745901107788,0.5412559509277344,2.4170289039611816,5.276968765049734,6.009999196976423e-05,0.2581478953361511,-1.6036623159991663,0.0,0.02184191159904003,0.7356220483779907,-0.00013649890024680644,0.00329821789637208,0.8223685622215271,-8.201337829347177e-13,-0.13779857754707336
924.0,888.0,-0.6724,0.3936,9.3284,-0.049,0.2579,-0.1261,-1.9620148144164027,-0.3520549237728119,3.043257713317871,-1.7873930931091309,0.5403308868408203,2.447113513946533,5.276989209442892,5.705213698092848e-05,0.2532307207584381,-1.603649918233053,0.0,0.02586936578154564,0.7357027530670166,-0.00012902103480882943,-0.009037552401423454,0.8223804831504822,-2.6571290172493627e-20,-0.09978026896715164
924.0,888.0,-0.6724,0.3936,9.3284,-0.049,0.2579,-0.1261,-1.9640919170775355,-0.3476094603538513,3.0620062351226807,-1.7842068672180176,0.5411627888679504,2.447165012359619,5.2769605992134,5.4961725254543126e-05,0.24297910928726196,-1.6035893599139612,0.0,0.028189752250909805,0.73564213514328,-0.00014043344708625227,-0.011360934935510159,0.8223727345466614,-6.416653767635602e-26,-0.10452698171138763
924.0,888.0,-0.6724,0.3936,9.3284,-0.049,0.2579,-0.1261,-1.966196676293844,-0.3499322533607483,3.062150478363037,-1.7809306383132935,0.5365259051322937,2.418877601623535,5.277017104416647,5.3019102779217064e-05,0.2432149350643158,-1.6036818663226526,0.0,0.03858440741896629,0.7357152104377747,-0.000140901465783827,-0.0062279775738716125,0.8223283886909485,-1.549546057208746e-31,-0.1176832914352417
924.0,888.0,-0.6724,0.3936,9.3284,-0.049,0.2579,-0.1261,-1.9682895145811976,-0.33682000637054443,3.1028389930725098,-1.7776399850845337,0.5419138073921204,2.4539053440093994,5.276952373772421,6.142820348031819e-05,0.23512977361679077,-1.6036742369281214,0.0,0.02681731805205345,0.7356544137001038,-0.00014157919213175774,-0.010126686654984951,0.8223767280578613,-3.741971591402173e-37,-0.12679274380207062
924.0,888.0,-0.6724,0.3936,9.3284,-0.049,0.2579,-0.1261,-1.9703742466368617,-0.33017563819885254,3.0749995708465576,-1.7743552923202515,0.5493897795677185,2.4437637329101562,5.2770089385803125,3.0119705115794204e-05,0.24235692620277405,-1.6036904493915003,0.0,0.03669991344213486,0.7356301546096802,-0.00022566955885849893,-0.0019646829459816217,0.8223365545272827,-9.03837509489507e-43,-0.09818135201931
924.0,888.0,-0.6724,0.3936,9.3284,-0.049,0.2579,-0.1261,-1.9731341801085414,-0.3352334499359131,3.052595615386963,-1.770004153251648,0.5468413233757019,2.3969736099243164,5.276948320656576,5.474107833691733e-10,0.24261534214019775,-1.6036213080035608,0.0,0.027221783995628357,0.7356220483779907,-0.0001882890792330727,-0.009008047170937061,0.8224088549613953,0.0,-0.16314491629600525
924.0,888.0,-0.6724,0.3936,9.3284,-0.049,0.2579,-0.1261,-1.9751507244505824,-0.33325010538101196,3.1122450828552246,-1.7667237520217896,0.5475502610206604,2.4078867435455322,5.276976930886068,1.5237381397869426e-13,0.24118798971176147,-1.603666130696432,0.0,0.03441227972507477,0.7356786727905273,-0.00020058875088579953,-0.003955082036554813,0.8223767280578613,0.0,-0.09050565958023071
924.0,888.0,-0.6724,0.3936,9.3284,-0.049,0.2579,-0.1261,-1.97719206432485,-0.33920273184776306,3.0912561416625977,-1.7634679079055786,0.5456949472427368,2.4406983852386475,5.276980984001913,4.24138116401096e-17,0.25355085730552673,-1.6036461035357874,0.0,0.02592303231358528,0.7356383800506592,-0.00020866538397967815,-0.011392309330403805,0.8223485946655273,0.0,-0.14530238509178162
924.0,888.0,-0.6724,0.3936,9.3284,-0.049,0.2579,-0.1261,-1.979196687737936,-0.34142687916755676,3.1713883876800537,-1.7601653337478638,0.5453493595123291,2.458059549331665,5.276981043606558,1.1806039498033224e-20,0.24820451438426971,-1.6036737600909632,0.0,0.027013540267944336,0.7356303334236145,-0.0001914839376695454,-0.005126114934682846,0.8224008679389954,0.0,-0.16066211462020874
924.0,888.0,-0.6724,0.3936,9.3284,-0.049,0.2579,-0.1261,-1.9812380276122035,-0.3345099985599518,3.175044298171997,-1.756913661956787,0.545940637588501,2.402276039123535,5.2769203064735315,3.2862545083400585e-24,0.24773886799812317,-1.6036422888385218,0.0,0.03710998594760895,0.7355818748474121,-0.00019886705558747053,-0.018470417708158493,0.8223645687103271,0.0,-0.15085366368293762
924.0,888.0,-0.6724,0.3936,9.3284,-0.049,0.2579,-0.1261,-1.9838539562621058,-0.3265179991722107,3.17887544631958,-1.752680778503418,0.5478955507278442,2.455754280090332,5.276940870075979,5.972604869273768e-29,0.23952752351760864,-1.603649918233053,0.0,0.031958065927028656,0.7355573177337646,-0.0001804445928428322,-0.007995673455297947,0.8224049210548401,0.0,-0.19169747829437256
911.0,893.0,-0.4373,0.2812,9.3392,-0.0504,0.2677,-0.1193,-1.9857984981932582,-0.32068702578544617,3.1421141624450684,-1.7491940259933472,0.5445993542671204,2.4719364643096924,5.276972758560934,1.6624963706433825e-32,0.24650171399116516,-1.603666130696432,0.0,0.023167772218585014,0.7355859875679016,-0.0001812459377106279,-0.027722911909222603,0.8223968148231506,-0.0001783261395758018,-0.1220647394657135
911.0,893.0,-0.4373,0.2812,9.3392,-0.0504,0.2677,-0.1193,-1.987723012963766,-0.3197234570980072,3.1796703338623047,-1.7459940910339355,0.5413597822189331,2.4242076873779297,5.276948261051931,4.6276189912613197e-36,0.24781353771686554,-1.6036055723773401,0.0,0.0351128876209259,0.7356544137001038,-0.00016218790551647544,-0.017579833045601845,0.8224008679389954,-0.00016534495807718486,-0.18063820898532867
911.0,893.0,-0.4373,0.2812,9.3392,-0.0504,0.2677,-0.1193,-1.9895764789977015,-0.3179301917552948,3.181565761566162,-1.7426774501800537,0.5438165068626404,2.4507083892822266,5.2769446251686,1.2881141860628373e-39,0.23959434032440186,-1.6036012808429163,0.0,0.014472630806267262,0.7356666922569275,-0.00017549937183503062,-0.024964574724435806,0.8223686218261719,-0.000126199985970743,-0.11809433996677399
911.0,893.0,-0.4373,0.2812,9.3392,-0.0504,0.2677,-0.1193,-1.9915310345091761,-0.32024499773979187,3.164839267730713,-1.739446759223938,0.5391847491264343,2.429147481918335,5.276952314167776,3.587324068671532e-43,0.23307934403419495,-1.603694264088766,0.0,0.022437460720539093,0.7356020212173462,-0.00017976945673581213,-0.01642962545156479,0.8223526477813721,-0.00011640217417152599,-0.19506540894508362
911.0,893.0,-0.4373,0.2812,9.3392,-0.0504,0.2677,-0.1193,-1.993937154809469,-0.3113926351070404,3.1893224716186523,-1.735135555267334,0.5398906469345093,2.4756946563720703,5.277045714646139,0.0,0.2651819884777069,-1.6036298910724085,0.0,0.024678638204932213,0.7355941534042358,-0.0001669021148700267,-0.024028759449720383,0.8223406672477722,-0.00014045965508557856,-0.15897445380687714
911.0,893.0,-0.4373,0.2812,9.3392,-0.0504,0.2677,-0.1193,-1.9957872829832972,-0.30433687567710876,3.268218517303467,-1.7318764925003052,0.5413370132446289,2.4632482528686523,5.276992964535513,0.0,0.24280117452144623,-1.6036213080035608,0.0,0.034662190824747086,0.7356544137001038,-0.0001766753994161263,-0.01909024640917778,0.8223165273666382,-0.0001379791065119207,-0.17914819717407227
911.0,893.0,-0.4373,0.2812,9.3392,-0.0504,0.2677,-0.1193,-1.9976688824095667,-0.30283984541893005,3.1910953521728516,-1.7286224365234375,0.5477073788642883,2.478062152862549,5.276988792210378,0.0,0.23856735229492188,-1.6036055723773401,0.0,0.03677094727754593,0.7356060743331909,-0.00019313696247991174,-0.02404119074344635,0.8223406076431274,-0.000129472347907722,-0.1461927592754364
911.0,893.0,-0.4373,0.2812,9.3392,-0.0504,0.2677,-0.1193,-1.9994689426817835,-0.2950054705142975,3.250706195831299,-1.7253501415252686,0.5478591322898865,2.417111873626709,5.276980626374044,0.0,0.23834794759750366,-1.603649918233053,0.0,0.027679702267050743,0.7355942130088806,-0.00019492603314574808,-0.03773695230484009,0.8223485946655273,-0.00012195354793220758,-0.19752785563468933
911.0,893.0,-0.4373,0.2812,9.3392,-0.0504,0.2677,-0.1193,-2.0012699566283167,-0.2954970896244049,3.286377429962158,-1.7221598625183105,0.5493749976158142,2.482985496520996,5.276952314167776,0.0,0.2262832522392273,-1.6036179701434534,0.0,0.03447970002889633,0.7356142997741699,-0.0001725112524582073,-0.02559632994234562,0.8223446607589722,-0.00011526009620865807,-0.2364024817943573
911.0,893.0,-0.4373,0.2812,9.3392,-0.0504,0.2677,-0.1193,-2.003782888452047,-0.31060928106307983,3.2785282135009766,-1.7177150249481201,0.541853129863739,2.4849371910095215,5.2769645927246,0.0,0.22548294067382812,-1.6036461035357874,0.0,0.04553498327732086,0.7355902194976807,-0.00017948496679309756,-0.028640873730182648,0.822344183921814,-0.00011749906843760982,-0.12305015325546265
911.0,893.0,-0.4373,0.2812,9.3392,-0.0504,0.2677,-0.1193,-2.0056001148619593,-0.30672892928123474,3.2799644470214844,-1.7144341468811035,0.5377188920974731,2.432236909866333,5.276972758560934,0.0,0.24160981178283691,-1.6036093870746058,0.0,0.03294800966978073,0.7356549501419067,-0.00018947893113363534,-0.03560364246368408,0.8224048614501953,-0.00011677150905597955,-0.17979343235492706
911.0,893.0,-0.4373,0.2812,9.3392,-0.0504,0.2677,-0.1193,-2.0074454746642054,-0.3055320680141449,3.2466697692871094,-1.7111790180206299,0.5426278114318848,2.4883251190185547,5.2769605992134,0.0,0.2354714572429657,-1.6036542097674769,0.0,0.035927798599004745,0.7356225252151489,-0.00017458021466154605,-0.03003973513841629,0.8223685622215271,-0.00011135366366943344,-0.22698384523391724
911.0,893.0,-0.4373,0.2812,9.3392,-0.0504,0.2677,-0.1193,-2.0091620884337367,-0.30044126510620117,3.3056721687316895,-1.7079942226409912,0.5423645377159119,2.5118086338043213,5.276968645840444,0.0,0.24646681547164917,-1.6036337057696741,0.0,0.03453092277050018,0.7356385588645935,-0.00016118003986775875,-0.02643623575568199,0.8223771452903748,-0.00011403369717299938,-0.20680677890777588
911.0,893.0,-0.4373,0.2812,9.3392,-0.0504,0.2677,-0.1193,-2.011012216607565,-0.29259729385375977,3.2769596576690674,-1.704771637916565,0.5409862995147705,2.4585680961608887,5.276972758560934,0.0,0.24278488755226135,-1.6036422888385218,0.0,0.043262943625450134,0.7355943322181702,-0.00016826220962684602,-0.031829528510570526,0.8223126530647278,-0.00012717729259748012,-0.2001558095216751
899.0,880.0,-0.5892,0.2542,9.9452,-0.0564,0.2637,-0.1214,-2.013308187524313,-0.29092833399772644,3.3076210021972656,-1.7005767822265625,0.5378361344337463,2.4816651344299316,5.276940452843466,0.0,0.23790383338928223,-1.6036704222308558,0.0,0.04188619926571846,0.7356791496276855,-0.00015622592763975263,-0.04301077499985695,0.8223205208778381,-0.00011622846795944497,-0.14560845494270325
899.0,880.0,-0.5892,0.2542,9.9452,-0.0564,0.2637,-0.1214,-2.015045305291647,-0.2903207540512085,3.318510055541992,-1.6972450017929077,0.5394765734672546,2.4870846271514893,5.276984679489889,0.0,0.24353396892547607,-1.6035617033587855,0.0,0.04376889765262604,0.7356065511703491,-0.0001466776739107445,-0.03596470132470131,0.8223645687103271,-0.00010917866893578321,-0.1856486201286316
899.0,880.0,-0.5892,0.2542,9.9452,-0.0564,0.2637,-0.1214,-2.01674284557485,-0.29186177253723145,3.3573691844940186,-1.694095492362976,0.5375842452049255,2.479705333709717,5.276952731400289,0.0,0.2420765906572342,-1.6036666075335901,0.0,0.042791299521923065,0.7356303334236145,-0.00014006331912241876,-0.027911454439163208,0.8223446607589722,-0.00010293525701854378,-0.1887349784374237
899.0,880.0,-0.5892,0.2542,9.9452,-0.0564,0.2637,-0.1214,-2.018468042413229,-0.2892458736896515,3.3485496044158936,-1.6908187866210938,0.5384381413459778,2.474358081817627,5.2770047066505334,0.0,0.22378170490264893,-1.6036461035357874,0.0,0.036076053977012634,0.7355741858482361,-0.00012829925981350243,-0.034886427223682404,0.8223446607589722,-9.736721403896809e-05,-0.24185703694820404
899.0,880.0,-0.5892,0.2542,9.9452,-0.0564,0.2637,-0.1214,-2.02013697246694,-0.2855173349380493,3.4385018348693848,-1.6875865459442139,0.5332023501396179,2.5056777000427246,5.276924419194021,0.0,0.23663675785064697,-1.6036179701434534,0.0,0.05421242490410805,0.7355741858482361,-0.00014161838043946773,-0.03638284653425217,0.8223205804824829,-0.00010776292037917301,-0.2340627908706665
899.0,880.0,-0.5892,0.2542,9.9452,-0.0564,0.2637,-0.1214,-2.022377153436178,-0.28711429238319397,3.302672863006592,-1.6832637786865234,0.5291270613670349,2.5101120471954346,5.276948678284445,0.0,0.22182559967041016,-1.6036012808429163,0.0,0.04116056486964226,0.7355778217315674,-0.00013885631051380187,-0.04887035861611366,0.8223286867141724,-0.00011527375318109989,-0.18582358956336975
