ramyac6/ROB537/final_project/csv/bad/bad_64.csv
tof_0,tof_1,accelx,accely,accelz,gyrox,gyroy,gyroz,shoulder_lift_joint_position,shoulder_lift_joint_velocity,shoulder_lift_joint_effort,elbow_joint_position,elbow_joint_velocity,elbow_joint_effort,wrist_1_joint_position,wrist_1_joint_velocity,wrist_1_joint_effort,wrist_2_joint_position,wrist_2_joint_velocity,wrist_2_joint_effort,wrist_3_joint_position,wrist_3_joint_velocity,wrist_3_joint_effort,shoulder_pan_joint_position,shoulder_pan_joint_velocity,shoulder_pan_joint_effort
238.0,229.0,-3.533,-0.7729,9.1131,-0.0255,0.0183,-0.108,-2.1593200169005335,0.0,4.222403526306152,-1.5460809469223022,-0.0,1.8861416578292847,5.536029565125265,-1.615028304513544e-05,0.22357770800590515,-1.638000790272848,-0.0,0.0017092287307605147,0.1285283863544464,-0.0,0.03536100313067436,1.003161072731018,0.0,0.03919140249490738
238.0,229.0,-3.533,-0.7729,9.1131,-0.0255,0.0183,-0.108,-2.159271379510397,0.0,4.232877731323242,-1.5460127592086792,-0.0,1.8512096405029297,5.53601365068511,-6.885118608579432e-08,0.22804781794548035,-1.6379645506488245,-0.0,-0.00561174051836133,0.12849605083465576,-0.0,0.03189409151673317,1.0031406879425049,0.0,-0.027447383850812912
238.0,229.0,-3.533,-0.7729,9.1131,-0.0255,0.0183,-0.108,-2.159316202203268,0.0,4.2728657722473145,-1.546048879623413,-0.0,1.8416385650634766,5.535989451199331,-2.9352340003008237e-10,0.21611246466636658,-1.6380537191974085,-0.0,-0.01205151155591011,0.1285206377506256,-0.0,0.024841751903295517,1.0031205415725708,0.0,-0.030352074652910233
238.0,229.0,-3.533,-0.7729,9.1131,-0.0255,0.0183,-0.108,-2.15928377727651,0.0,4.262796401977539,-1.5460046529769897,-0.0,1.8866196870803833,5.535993504315176,-8.17033208666898e-14,0.21826331317424774,-1.6379812399493616,-0.0,-0.0036633338313549757,0.12848787009716034,-0.0,0.03748428076505661,1.003188967704773,0.0,0.03731556609272957
238.0,229.0,-3.533,-0.7729,9.1131,-0.0255,0.0183,-0.108,-2.1592632732787074,0.0,4.295564651489258,-1.546065330505371,-0.0,1.8436462879180908,5.53600953796462,-3.483140298337164e-16,0.2346351146697998,-1.637993637715475,-0.0,0.00014852103777229786,0.12848787009716034,-0.0,0.03747432678937912,1.003104567527771,0.0,0.04581012204289436
238.0,229.0,-3.533,-0.7729,9.1131,-0.0255,0.0183,-0.108,-2.159328123132223,0.0,4.2109856605529785,-1.5460572242736816,-0.0,1.8288261890411377,5.53601365068511,-1.4849174125276304e-18,0.22344717383384705,-1.6380088965045374,-0.0,-0.0060914382338523865,0.12851612269878387,-0.0,0.0152521263808012,1.003116488456726,0.0,0.003165958449244499
238.0,229.0,-3.533,-0.7729,9.1131,-0.0255,0.0183,-0.108,-2.159295698205465,0.0,4.183396339416504,-1.5460727214813232,-0.0,1.8640531301498413,5.536029565125265,-4.133321909883255e-22,0.22436687350273132,-1.6379645506488245,-0.0,-0.002756573259830475,0.12849196791648865,-0.0,0.03148676082491875,1.0031688213348389,0.0,-0.0013820216991007328
238.0,229.0,-3.533,-0.7729,9.1131,-0.0255,0.0183,-0.108,-2.159316202203268,0.0,4.215152740478516,-1.546069622039795,-0.0,1.8612051010131836,5.536021458893575,-1.7621001004518413e-24,0.2228448987007141,-1.6380131880389612,-0.0,-0.0021558518055826426,0.12856453657150269,-0.0,0.023450251668691635,1.0031808614730835,0.0,-0.001680139102973044
238.0,229.0,-3.533,-0.7729,9.1131,-0.0255,0.0183,-0.108,-2.159316202203268,0.0,4.232551574707031,-1.5460209846496582,-0.0,1.8455514907836914,5.535981225758352,-4.904870271070457e-28,0.21454393863677979,-1.6379688421832483,-0.0,-0.011491081677377224,0.1285325586795807,-0.0,0.03000997006893158,1.0031487941741943,0.0,0.015831174328923225
238.0,229.0,-3.533,-0.7729,9.1131,-0.0255,0.0183,-0.108,-2.1593200169005335,0.0,4.2399187088012695,-1.5460448265075684,-0.0,1.8239238262176514,5.536017703800955,-2.0910229537850825e-30,0.21623843908309937,-1.638000790272848,-0.0,-0.0021520182490348816,0.12849193811416626,-0.0,0.035437121987342834,1.0031487941741943,0.0,0.00903331208974123
249.0,226.0,-3.4762,-0.7831,9.0526,-0.0434,0.0293,-0.1184,-2.159316202203268,0.0,4.2460222244262695,-1.5460293292999268,-0.0,1.8328171968460083,5.535981583386221,-8.914357001357002e-33,0.23058050870895386,-1.6380255858050745,-0.0,0.002865450456738472,0.1285042017698288,-0.0,0.030210860073566437,1.0031406879425049,0.0,0.013166617602109909
249.0,226.0,-3.4762,-0.7831,9.0526,-0.0434,0.0293,-0.1184,-2.159328123132223,0.0,4.2491135597229,-1.5460407733917236,-0.0,1.8287795782089233,5.5359529731567285,-2.481343986820944e-36,0.23373892903327942,-1.6379964987384241,-0.0,-0.0039279707707464695,0.1285082995891571,-0.0,0.02654029056429863,1.003152847290039,0.0,0.042855098843574524
249.0,226.0,-3.4762,-0.7831,9.0526,-0.0434,0.0293,-0.1184,-2.159288068810934,0.0,4.227245807647705,-1.546048879623413,-0.0,1.870522379875183,5.53602962472991,-1.057835866693565e-38,0.22144165635108948,-1.6379850546466272,-0.0,0.005528011359274387,0.12852022051811218,-0.0,0.025578903034329414,1.0031651258468628,0.0,0.030584588646888733
249.0,226.0,-3.4762,-0.7831,9.0526,-0.0434,0.0293,-0.1184,-2.159328123132223,0.0,4.264188289642334,-1.5460809469223022,-0.0,1.8886802196502686,5.536017703800955,-2.9441280735464407e-42,0.2154676616191864,-1.6379769484149378,-0.0,-0.006342804990708828,0.1285165548324585,-0.0,0.01634693332016468,1.0031447410583496,0.0,0.02450202777981758
249.0,226.0,-3.4762,-0.7831,9.0526,-0.0434,0.0293,-0.1184,-2.1593038044371546,0.0,4.266256332397461,-1.5460736751556396,-0.0,1.7822859287261963,5.53602551200942,-1.2611686178923354e-44,0.21428543329238892,-1.6379883925067347,-0.0,0.00010918197222054005,0.12850022315979004,-0.0,0.037227291613817215,1.0031729936599731,0.0,-0.027178723365068436
249.0,226.0,-3.4762,-0.7831,9.0526,-0.0434,0.0293,-0.1184,-2.1593076191344203,0.0,4.263706207275391,-1.5460727214813232,-0.0,1.8452463150024414,5.53600953796462,-0.0,0.22755302488803864,-1.6379850546466272,-0.0,-0.013310658745467663,0.12850432097911835,-0.0,0.03323635458946228,1.003152847290039,0.0,0.018498403951525688
249.0,226.0,-3.4762,-0.7831,9.0526,-0.0434,0.0293,-0.1184,-2.1592799625792445,0.0,4.2149271965026855,-1.5460611581802368,-0.0,1.8449149131774902,5.535997259407797,-0.0,0.21917442977428436,-1.638000790272848,-0.0,0.008114294148981571,0.12856876850128174,-0.0,0.02554815448820591,1.0031365156173706,0.0,0.011107892729341984
249.0,226.0,-3.4762,-0.7831,9.0526,-0.0434,0.0293,-0.1184,-2.159295698205465,0.0,4.2469353675842285,-1.5460050106048584,-0.0,1.8894336223602295,5.5359447477157495,-0.0,0.22809115052223206,-1.6379926840411585,-0.0,-0.006220788229256868,0.12849196791648865,-0.0,0.026117801666259766,1.0031365156173706,0.0,0.06531362235546112
249.0,226.0,-3.4762,-0.7831,9.0526,-0.0434,0.0293,-0.1184,-2.159288068810934,0.0,4.246674537658691,-1.546008586883545,-0.0,1.8599889278411865,5.536021458893575,-0.0,0.21821463108062744,-1.6380050818072718,-0.0,-0.007222291082143784,0.128483846783638,-0.0,0.017423812299966812,1.0031565427780151,0.0,0.039068058133125305
249.0,226.0,-3.4762,-0.7831,9.0526,-0.0434,0.0293,-0.1184,-2.159255643884176,0.0,4.270570755004883,-1.5460046529769897,-0.0,1.8136796951293945,5.536033737450399,-0.0,0.21306326985359192,-1.638017479573385,-0.0,-0.0004898193292319775,0.1285041868686676,-0.0,0.03549399971961975,1.003092646598816,0.0,-0.0007005929946899414
249.0,226.0,-3.4762,-0.7831,9.0526,-0.0434,0.0293,-0.1184,-2.1593200169005335,0.0,4.207298278808594,-1.5460375547409058,-0.0,1.842600703239441,5.536050009518423,-0.0,0.2248193919658661,-1.6380537191974085,-0.0,-0.0023657523561269045,0.12855271995067596,-0.0,0.034401047974824905,1.003152847290039,0.0,0.03733750060200691
249.0,226.0,-3.4762,-0.7831,9.0526,-0.0434,0.0293,-0.1184,-2.159299989739889,0.0,4.213906288146973,-1.546085000038147,-0.0,1.8471349477767944,5.536029565125265,-0.0,0.22197222709655762,-1.6380046049701136,-0.0,-0.0018470524810254574,0.12852837145328522,-0.0,0.03261812403798103,1.0031406879425049,0.0,0.0018077734857797623
249.0,226.0,-3.4762,-0.7831,9.0526,-0.0434,0.0293,-0.1184,-2.159304281274313,0.0,4.2433671951293945,-1.5459967851638794,-0.0,1.8482760190963745,5.536081659584799,-0.0,0.22708070278167725,-1.6379402319537562,-0.0,-0.00027050822973251343,0.12848004698753357,-0.0,0.03829767554998398,1.003152847290039,0.0,-0.00020150234922766685
249.0,226.0,-3.4762,-0.7831,9.0526,-0.0434,0.0293,-0.1184,-2.1592513523497523,0.0,4.269183158874512,-1.5460366010665894,-0.0,1.8231135606765747,5.53601365068511,-0.0,0.2218686044216156,-1.638000790272848,-0.0,0.0009920804295688868,0.12846820056438446,-0.0,0.027880556881427765,1.003152847290039,0.0,0.029296599328517914
249.0,226.0,-3.4762,-0.7831,9.0526,-0.0434,0.0293,-0.1184,-2.1593319378294886,0.0,4.221684455871582,-1.5460375547409058,-0.0,1.811995506286621,5.536005484848776,-0.0,0.2298600673675537,-1.637972656880514,-0.0,0.005893632769584656,0.1285165548324585,-0.0,0.010220833122730255,1.0031287670135498,0.0,-0.01295551285147667
249.0,226.0,-3.4762,-0.7831,9.0526,-0.0434,0.0293,-0.1184,-2.159299989739889,0.0,4.24092960357666,-1.5460612773895264,-0.0,1.863213062286377,5.53600953796462,-0.0,0.2154250144958496,-1.638000790272848,-0.0,0.0020778647158294916,0.1285444051027298,-0.0,0.0169291440397501,1.003152847290039,0.0,0.05343436449766159
249.0,226.0,-3.4762,-0.7831,9.0526,-0.0434,0.0293,-0.1184,-2.159316202203268,0.0,4.179734706878662,-1.5460293292999268,-0.0,1.8547323942184448,5.53602551200942,-0.0,0.23161771893501282,-1.6380212942706507,-0.0,-0.006229190155863762,0.12851238250732422,-0.0,0.021529342979192734,1.0031406879425049,0.0,0.06265538930892944
249.0,226.0,-3.4762,-0.7831,9.0526,-0.0434,0.0293,-0.1184,-2.159288068810934,0.0,4.229426860809326,-1.5459885597229004,-0.0,1.7822890281677246,5.536021458893575,-0.0,0.22279831767082214,-1.6379812399493616,-0.0,-0.009913519956171513,0.12847594916820526,-0.0,0.03746800869703293,1.0031766891479492,0.0,-0.03307493031024933
249.0,226.0,-3.4762,-0.7831,9.0526,-0.0434,0.0293,-0.1184,-2.159304281274313,0.0,4.283414840698242,-1.5459927320480347,-0.0,1.8088724613189697,5.535997199803152,-0.0,0.22544249892234802,-1.6379850546466272,-0.0,0.012525789439678192,0.12848787009716034,-0.0,0.021804824471473694,1.0031447410583496,0.0,0.026602793484926224
230.0,222.0,-3.5563,-0.7334,9.1179,-0.0345,0.0199,-0.1038,-2.1592923603453578,0.0,4.240966796875,-1.5460448265075684,-0.0,1.8399815559387207,5.535973536759176,-0.0,0.20988458395004272,-1.6379964987384241,-0.0,-0.010206416249275208,0.12855222821235657,-0.0,0.02729252353310585,1.003152847290039,0.0,0.028776321560144424
230.0,222.0,-3.5563,-0.7334,9.1179,-0.0345,0.0199,-0.1038,-2.159271856347555,0.0,4.195740699768066,-1.5460407733917236,-0.0,1.8510777950286865,5.536045896797933,-0.0,0.21652281284332275,-1.6380046049701136,-0.0,-0.003402706002816558,0.12848421931266785,-0.0,0.03903397172689438,1.0031570196151733,0.0,0.0027612363919615746
230.0,222.0,-3.5563,-0.7334,9.1179,-0.0345,0.0199,-0.1038,-2.1593080959715785,0.0,4.231122970581055,-1.5460975170135498,-0.0,1.8648747205734253,5.535977530270376,-0.0,0.2253885567188263,-1.637993637715475,-0.0,0.002551907440647483,0.12850825488567352,-0.0,0.027020353823900223,1.0031406879425049,0.0,-0.008651050738990307
230.0,222.0,-3.5563,-0.7334,9.1179,-0.0345,0.0199,-0.1038,-2.1593080959715785,0.0,4.215231418609619,-1.5460251569747925,-0.0,1.8285441398620605,5.53602962472991,-0.0,0.2209952175617218,-1.6380131880389612,-0.0,0.005411271005868912,0.12852022051811218,-0.0,0.0311111006885767,1.0031328201293945,0.0,-0.03357137367129326
230.0,222.0,-3.5563,-0.7334,9.1179,-0.0345,0.0199,-0.1038,-2.159239431420797,0.0,4.228397369384766,-1.546065330505371,-0.0,1.8179237842559814,5.535973477154531,-0.0,0.23263533413410187,-1.6379812399493616,-0.0,0.009595638141036034,0.1285206377506256,-0.0,0.013535425998270512,1.0031770467758179,0.0,0.05195191875100136
230.0,222.0,-3.5563,-0.7334,9.1179,-0.0345,0.0199,-0.1038,-2.159311910668844,0.0,4.269646644592285,-1.546093225479126,-0.0,1.8245043754577637,5.536045956402578,-0.0,0.22940784692764282,-1.638000790272848,-0.0,-0.001038861577399075,0.12856866419315338,-0.0,0.02700112573802471,1.003124713897705,0.0,0.027982866391539574
230.0,222.0,-3.5563,-0.7334,9.1179,-0.0345,0.0199,-0.1038,-2.1592799625792445,0.0,4.2399702072143555,-1.546016812324524,-0.0,1.867313265800476,5.536037730961599,-0.0,0.2360699325799942,-1.6380332151996058,-0.0,0.005611947271972895,0.1285366714000702,-0.0,0.024181656539440155,1.0031365156173706,0.0,0.01292718481272459
230.0,222.0,-3.5563,-0.7334,9.1179,-0.0345,0.0199,-0.1038,-2.1593362293639125,0.0,4.220242023468018,-1.5459848642349243,-0.0,1.8304638862609863,5.536041843682089,-0.0,0.23328489065170288,-1.637972656880514,-0.0,0.012445520609617233,0.12853622436523438,-0.0,0.03365876153111458,1.0031688213348389,0.0,0.00801409687846899
230.0,222.0,-3.5563,-0.7334,9.1179,-0.0345,0.0199,-0.1038,-2.15928377727651,0.0,4.229120254516602,-1.5460211038589478,-0.0,1.8563474416732788,5.53602551200942,-0.0,0.2153482437133789,-1.6380131880389612,-0.0,-0.006831897422671318,0.1285242885351181,-0.0,0.021896742284297943,1.0031205415725708,0.0,0.012089768424630165
230.0,222.0,-3.5563,-0.7334,9.1179,-0.0345,0.0199,-0.1038,-2.1592799625792445,0.0,4.210214614868164,-1.5460333824157715,-0.0,1.8529877662658691,5.536005484848776,-0.0,0.22957679629325867,-1.6379688421832483,-0.0,-2.1163723431527615e-05,0.12845219671726227,-0.0,0.03798941150307655,1.003152847290039,0.0,-0.01040721870958805
230.0,222.0,-3.5563,-0.7334,9.1179,-0.0345,0.0199,-0.1038,-2.159351964990133,0.0,4.2407612800598145,-1.5460008382797241,-0.0,1.8381054401397705,5.535985278874197,-0.0,0.23461571335792542,-1.6380294005023401,-0.0,-0.00014315894804894924,0.1285284161567688,-0.0,0.02882394939661026,1.0031406879425049,0.0,-0.02762601524591446
230.0,222.0,-3.5563,-0.7334,9.1179,-0.0345,0.0199,-0.1038,-2.1592594585814417,0.0,4.265168190002441,-1.5460169315338135,-0.0,1.8378400802612305,5.536081599980154,-0.0,0.22379595041275024,-1.6379488150226038,-0.0,-0.00514316326007247,0.1285082846879959,-3.9273089669222827e-07,0.03191098943352699,1.0031287670135498,0.0,0.035934798419475555
230.0,222.0,-3.5563,-0.7334,9.1179,-0.0345,0.0199,-0.1038,-2.1593200169005335,0.0,4.213878154754639,-1.5460209846496582,-0.0,1.8116693496704102,5.53602962472991,-0.0,0.2261483073234558,-1.638017479573385,-0.0,-0.009432814083993435,0.12856455147266388,-1.0931808236414042e-10,0.02720280922949314,1.0031688213348389,0.0,0.03302454575896263
230.0,222.0,-3.5563,-0.7334,9.1179,-0.0345,0.0199,-0.1038,-2.1592961750426234,0.0,4.217255592346191,-1.5460407733917236,-0.0,1.860375165939331,5.535997617035665,-0.0,0.23191717267036438,-1.6379964987384241,-0.0,-0.0075712259858846664,0.1285325437784195,-4.6604012966453e-13,0.021037252619862556,1.0031406879425049,0.0,0.007704366929829121
230.0,222.0,-3.5563,-0.7334,9.1179,-0.0345,0.0199,-0.1038,-2.159299989739889,0.0,4.20903205871582,-1.5460087060928345,-0.0,1.8523300886154175,5.536021458893575,-0.0,0.20890268683433533,-1.6379812399493616,-0.0,-0.009208505041897297,0.12847952544689178,-1.9868021751455814e-15,0.03592333197593689,1.0031487941741943,0.0,0.01627405174076557
230.0,222.0,-3.5563,-0.7334,9.1179,-0.0345,0.0199,-0.1038,-2.1593362293639125,0.0,4.276837348937988,-1.546048879623413,-0.0,1.8794230222702026,5.536073851376333,-0.0,0.22809310257434845,-1.6379769484149378,-0.0,0.009025207720696926,0.1285526603460312,-5.530336739049242e-19,0.035318925976753235,1.0031406879425049,0.0,0.038205765187740326
230.0,222.0,-3.5563,-0.7334,9.1179,-0.0345,0.0199,-0.1038,-2.1592918835081996,0.0,4.207650661468506,-1.546048879623413,-0.0,1.8370885848999023,5.535985278874197,-0.0,0.22894880175590515,-1.6380131880389612,-0.0,-0.007705645635724068,0.12848012149333954,-2.3576695214453498e-21,0.035493843257427216,1.003152847290039,0.0,0.024108920246362686
230.0,222.0,-3.5563,-0.7334,9.1179,-0.0345,0.0199,-0.1038,-2.1593243084349574,0.0,4.221558570861816,-1.546016812324524,-0.0,1.8807761669158936,5.536005484848776,-0.0,0.2294139862060547,-1.637993637715475,-0.0,-0.0033743525855243206,0.12851659953594208,-1.0051115029414288e-23,0.02910371497273445,1.003180742263794,0.0,0.026556363329291344
230.0,222.0,-3.5563,-0.7334,9.1179,-0.0345,0.0199,-0.1038,-2.1592756710448207,0.0,4.233760833740234,-1.5460654497146606,-0.0,1.8520963191986084,5.536013591080465,-0.0,0.21919482946395874,-1.6380255858050745,-0.0,-0.011854181066155434,0.1285242885351181,-2.7977649190303052e-27,0.02596413716673851,1.003188967704773,0.0,0.021008526906371117
236.0,230.0,-3.478,-0.7842,9.0957,-0.0394,0.0308,-0.1093,-2.159295698205465,0.0,4.21575927734375,-1.546048879623413,-0.0,1.8558189868927002,5.536037790566244,-0.0,0.2267044484615326,-1.6379645506488245,-0.0,-0.010083155706524849,0.1285042017698288,-1.1927309724347226e-29,0.033414676785469055,1.003152847290039,0.0,-0.03416232392191887
236.0,230.0,-3.478,-0.7842,9.0957,-0.0394,0.0308,-0.1093,-2.1593195400633753,0.0,4.233900547027588,-1.5460293292999268,-0.0,1.8734302520751953,5.536041843682089,-0.0,0.23003828525543213,-1.637993637715475,-0.0,-0.003386294934898615,0.12850011885166168,-3.320010408480805e-33,0.040012966841459274,1.0031287670135498,0.0,0.003641916671767831
236.0,230.0,-3.478,-0.7842,9.0957,-0.0394,0.0308,-0.1093,-2.1593481502928675,0.0,4.242745399475098,-1.546053171157837,-0.0,1.8440046310424805,5.535997259407797,-0.0,0.23058250546455383,-1.6380088965045374,-0.0,-0.001472062082029879,0.1285123974084854,-1.415372397603992e-35,0.03107462450861931,1.003104567527771,0.0,0.04117006063461304
236.0,230.0,-3.478,-0.7842,9.0957,-0.0394,0.0308,-0.1093,-2.159288068810934,0.0,4.269686222076416,-1.5460293292999268,-0.0,1.7965880632400513,5.535993563919821,-0.0,0.22292712330818176,-1.63794452348818,-0.0,-0.00300733488984406,0.1285243034362793,-6.033955314141976e-38,0.035217415541410446,1.0031287670135498,0.0,0.021407905966043472
236.0,230.0,-3.478,-0.7842,9.0957,-0.0394,0.0308,-0.1093,-2.159288068810934,0.0,4.234780311584473,-1.5460695028305054,-0.0,1.867053747177124,5.53602551200942,-0.0,0.23102259635925293,-1.6380375067340296,-0.0,-0.005993407219648361,0.12852470576763153,-1.6795963393397257e-41,0.029306713491678238,1.0031487941741943,0.0,0.021631211042404175
236.0,230.0,-3.478,-0.7842,9.0957,-0.0394,0.0308,-0.1093,-2.1593243084349574,0.0,4.274460315704346,-1.5460407733917236,-0.0,1.8686237335205078,5.535989510803976,-0.0,0.22791586816310883,-1.6379688421832483,-0.0,0.002301778644323349,0.12855635583400726,-7.146622168056567e-44,0.034837547689676285,1.0031570196151733,0.0,0.011410397477447987
236.0,230.0,-3.478,-0.7842,9.0957,-0.0394,0.0308,-0.1093,-2.159311910668844,0.0,4.257535457611084,-1.5460045337677002,-0.0,1.8831164836883545,5.536001312523641,-0.0,0.2264668494462967,-1.638000790272848,-0.0,0.003150432836264372,0.12849591672420502,-0.0,0.031071381643414497,1.0031688213348389,0.0,0.060588955879211426
236.0,230.0,-3.478,-0.7842,9.0957,-0.0394,0.0308,-0.1093,-2.159304281274313,0.0,4.192455768585205,-1.5460374355316162,-0.0,1.8622758388519287,5.53602551200942,-0.0,0.22484439611434937,-1.6380375067340296,-0.0,-0.01203966699540615,0.1285325586795807,-0.0,0.032182782888412476,1.0031688213348389,0.0,0.024211697280406952
236.0,230.0,-3.478,-0.7842,9.0957,-0.0394,0.0308,-0.1093,-2.1592918835081996,0.0,4.247037887573242,-1.5460127592086792,-0.0,1.852238416671753,5.535989451199331,-0.0,0.223911851644516,-1.6379964987384241,-0.0,-0.0008844579569995403,0.12853214144706726,-0.0,0.021210260689258575,1.0031487941741943,0.0,0.0041709179058671
236.0,230.0,-3.478,-0.7842,9.0957,-0.0394,0.0308,-0.1093,-2.1592799625792445,0.0,4.259314060211182,-1.5460333824157715,-0.0,1.787585735321045,5.536033677845754,-0.0,0.23129677772521973,-1.6380375067340296,-0.0,0.002572636352851987,0.12849605083465576,-0.0,0.029156379401683807,1.0031651258468628,0.0,0.04671918600797653
236.0,230.0,-3.478,-0.7842,9.0957,-0.0394,0.0308,-0.1093,-2.159288068810934,0.0,4.234033584594727,-1.5460169315338135,-0.0,1.8552212715148926,5.536005484848776,-0.0,0.22636330127716064,-1.6380131880389612,-0.0,-0.004602576605975628,0.12851238250732422,-0.0,0.029514487832784653,1.0031647682189941,0.0,-0.001265471801161766
236.0,230.0,-3.478,-0.7842,9.0957,-0.0394,0.0308,-0.1093,-2.159288068810934,0.0,4.240590572357178,-1.5460407733917236,-0.0,1.8289086818695068,5.536065625935354,-0.0,0.239050030708313,-1.6379645506488245,-0.0,-0.005527561064809561,0.12848789989948273,-0.0,0.02561865746974945,1.0031086206436157,0.0,0.030498214066028595
236.0,230.0,-3.478,-0.7842,9.0957,-0.0394,0.0308,-0.1093,-2.159316202203268,0.0,4.233119487762451,-1.5460448265075684,-0.0,1.831836223602295,5.535989451199331,-0.0,0.23145955801010132,-1.637989346181051,-0.0,0.001999886007979512,0.1284475475549698,-0.0,0.02566526085138321,1.0031447410583496,0.0,0.02325814589858055
236.0,230.0,-3.478,-0.7842,9.0957,-0.0394,0.0308,-0.1093,-2.159288068810934,0.0,4.222962379455566,-1.5460808277130127,-0.0,1.8579132556915283,5.536005484848776,-0.0,0.2276785671710968,-1.6379645506488245,-0.0,0.001575135625898838,0.12855634093284607,-0.0,0.019197802990674973,1.003161072731018,0.0,-0.0027718842029571533
236.0,230.0,-3.478,-0.7842,9.0957,-0.0394,0.0308,-0.1093,-2.159327646295065,0.0,4.231112480163574,-1.5460366010665894,-0.0,1.8280556201934814,5.536021458893575,-0.0,0.23480677604675293,-1.6379688421832483,-0.0,-0.004557359032332897,0.12847185134887695,-0.0,0.02442610263824463,1.0031087398529053,0.0,0.014233293011784554
236.0,230.0,-3.478,-0.7842,9.0957,-0.0394,0.0308,-0.1093,-2.1592799625792445,0.0,4.251656532287598,-1.546085000038147,-0.0,1.7862508296966553,5.535969304829397,-0.0,0.23087143898010254,-1.638017479573385,-0.0,0.00829249620437622,0.1285082995891571,-0.0,0.03064008429646492,1.0031570196151733,0.0,0.007936641573905945
236.0,230.0,-3.478,-0.7842,9.0957,-0.0394,0.0308,-0.1093,-2.1593200169005335,0.0,4.261146068572998,-1.5460530519485474,-0.0,1.8278437852859497,5.535989451199331,-0.0,0.21654675900936127,-1.6380332151996058,-0.0,0.003057831432670355,0.12843981385231018,-0.0,0.032027795910835266,1.0031365156173706,0.0,0.02076258882880211
236.0,230.0,-3.478,-0.7842,9.0957,-0.0394,0.0308,-0.1093,-2.159311910668844,0.0,4.2185468673706055,-1.5460612773895264,-0.0,1.8623135089874268,5.536005425244131,-0.0,0.21581396460533142,-1.6380494276629847,-0.0,-0.0036949156783521175,0.12855637073516846,-0.0,0.028205398470163345,1.003152847290039,0.0,0.01661696657538414
236.0,230.0,-3.478,-0.7842,9.0957,-0.0394,0.0308,-0.1093,-2.159243246118063,0.0,4.250134468078613,-1.5460407733917236,-0.0,1.828077793121338,5.536021339684286,-0.0,0.22559854388237,-1.6380375067340296,-0.0,-0.0014135335804894567,0.1285284161567688,-0.0,0.027462907135486603,1.0031284093856812,0.0,-0.01570579968392849
253.0,229.0,-3.5324,-0.8004,9.1424,-0.0308,0.026,-0.1148,-2.1593319378294886,0.0,4.252237319946289,-1.5460251569747925,-0.0,1.8615894317626953,5.535989391594686,-0.0,0.2220439314842224,-1.637993637715475,-0.0,0.006483243778347969,0.12853214144706726,-0.0,0.034991659224033356,1.0031406879425049,0.0,0.024083323776721954
253.0,229.0,-3.5324,-0.8004,9.1424,-0.0308,0.026,-0.1148,-2.1593080959715785,0.0,4.210322380065918,-1.5460530519485474,-0.0,1.79568350315094,5.536013591080465,-0.0,0.23061907291412354,-1.6379964987384241,-0.0,-0.0006667638663202524,0.12847186625003815,-0.0,0.027408190071582794,1.0031447410583496,0.0,-0.008630793541669846
253.0,229.0,-3.5324,-0.8004,9.1424,-0.0308,0.026,-0.1148,-2.159299512902731,0.0,4.277621746063232,-1.5460407733917236,-0.0,1.8363823890686035,5.536005484848776,-0.0,0.23157356679439545,-1.6379883925067347,-0.0,-0.005261074285954237,0.12849606573581696,-0.0,0.04151403158903122,1.0031570196151733,0.0,0.07820223271846771
253.0,229.0,-3.5324,-0.8004,9.1424,-0.0308,0.026,-0.1148,-2.1593076191344203,0.0,4.266740322113037,-1.5460448265075684,-0.0,1.8896383047103882,5.536001252918997,-0.0,0.23300597071647644,-1.6379850546466272,-0.0,0.001644734526053071,0.12852062284946442,-0.0,0.035537198185920715,1.003116488456726,0.0,0.015284220688045025
253.0,229.0,-3.5324,-0.8004,9.1424,-0.0308,0.026,-0.1148,-2.159368177453512,0.0,4.249626159667969,-1.5460407733917236,-0.0,1.8798086643218994,5.53602962472991,-0.0,0.22713643312454224,-1.6380255858050745,-0.0,-0.0045230998657643795,0.1285165399312973,-0.0,0.021824868395924568,1.0031487941741943,0.0,0.02798650413751602
253.0,229.0,-3.5324,-0.8004,9.1424,-0.0308,0.026,-0.1148,-2.159299989739889,0.0,4.2609686851501465,-1.5460572242736816,-0.0,1.875420331954956,5.536005425244131,-0.0,0.22657647728919983,-1.6379688421832483,-2.6632127614334422e-08,-0.00869684386998415,0.12848791480064392,-0.0,0.03535456955432892,1.0031205415725708,0.0,0.020116418600082397
253.0,229.0,-3.5324,-0.8004,9.1424,-0.0308,0.026,-0.1148,-2.1593319378294886,0.0,4.221695899963379,-1.5460611581802368,-0.0,1.8209031820297241,5.536045956402578,-0.0,0.22148706018924713,-1.6379964987384241,-1.1353694373550383e-10,-0.008148469030857086,0.12854044139385223,-0.0,0.017856469377875328,1.0031365156173706,0.0,0.052158549427986145
253.0,229.0,-3.5324,-0.8004,9.1424,-0.0308,0.026,-0.1148,-2.159304281274313,0.0,4.22635555267334,-1.5460654497146606,-0.0,1.854905605316162,5.535977530270376,-0.0,0.23708845674991608,-1.6380294005023401,-4.840258510836748e-13,-0.007157486863434315,0.12851586937904358,-0.0,0.04009615629911423,1.0031688213348389,0.0,0.024280764162540436
253.0,229.0,-3.5324,-0.8004,9.1424,-0.0308,0.026,-0.1148,-2.159304281274313,0.0,4.240565776824951,-1.5460809469223022,-0.0,1.877403974533081,5.535973477154531,-0.0,0.23836182057857513,-1.637972656880514,-1.347303973141389e-16,-0.014231703244149685,0.1285485327243805,-0.0,0.016940319910645485,1.0031365156173706,0.0,0.02124137058854103
253.0,229.0,-3.5324,-0.8004,9.1424,-0.0308,0.026,-0.1148,-2.159271856347555,0.0,4.252544403076172,-1.5460211038589478,-0.0,1.8497422933578491,5.53602962472991,-0.0,0.21989160776138306,-1.6379850546466272,-5.743767948651705e-19,-0.0016749852802604437,0.12850022315979004,-0.0,0.029128888621926308,1.003188967704773,0.0,0.04420783370733261
253.0,229.0,-3.5324,-0.8004,9.1424,-0.0308,0.026,-0.1148,-2.159323831597799,0.0,4.2348527908325195,-1.546036720275879,-0.0,1.8356177806854248,5.536021399288931,-0.0,0.23686066269874573,-1.6380255858050745,-1.5987989116520807e-22,-0.005379076581448317,0.1285283863544464,-0.0,0.028452575206756592,1.003104567527771,0.0,0.0020560838747769594
253.0,229.0,-3.5324,-0.8004,9.1424,-0.0308,0.026,-0.1148,-2.1592875919737757,0.0,4.207112789154053,-1.546016812324524,-0.0,1.818049430847168,5.536005484848776,-0.0,0.22877773642539978,-1.637989346181051,-6.815930784432559e-25,-0.0038854044396430254,0.1284838318824768,-0.0,0.02670496329665184,1.0031688213348389,0.0,-0.00989884790033102
253.0,229.0,-3.5324,-0.8004,9.1424,-0.0308,0.026,-0.1148,-2.1593319378294886,0.0,4.2574310302734375,-1.5460375547409058,-0.0,1.8442118167877197,5.53602551200942,-0.0,0.22889132797718048,-1.638017479573385,-2.9057381369094924e-27,-0.00813316274434328,0.12853214144706726,-0.0,0.030631761997938156,1.0031365156173706,0.0,0.05633225291967392
253.0,229.0,-3.5324,-0.8004,9.1424,-0.0308,0.026,-0.1148,-2.159316202203268,0.0,4.213248252868652,-1.546048879623413,-0.0,1.7669315338134766,5.535997259407797,-0.0,0.23354429006576538,-1.6380375067340296,-8.088229622075798e-31,0.0015762171242386103,0.1285165399312973,-0.0,0.02245105803012848,1.0031570196151733,0.0,0.037738148123025894
253.0,229.0,-3.5324,-0.8004,9.1424,-0.0308,0.026,-0.1148,-2.159288068810934,0.0,4.243284225463867,-1.5460045337677002,-0.0,1.8409359455108643,5.535993504315176,-0.0,0.22586679458618164,-1.6379769484149378,-3.4481389253784495e-33,0.0021792887710034847,0.1285325437784195,-0.0,0.020269036293029785,1.003152847290039,0.0,0.019963178783655167
253.0,229.0,-3.5324,-0.8004,9.1424,-0.0308,0.026,-0.1148,-2.159304281274313,0.0,4.196974754333496,-1.5460572242736816,-0.0,1.8571422100067139,5.536005425244131,-0.0,0.21780337393283844,-1.6379883925067347,-9.598020967214275e-37,-0.011447954922914505,0.12852837145328522,-0.0,0.027956802397966385,1.0031487941741943,0.0,0.036574870347976685
253.0,229.0,-3.5324,-0.8004,9.1424,-0.0308,0.026,-0.1148,-2.159299989739889,0.0,4.232893943786621,-1.5460612773895264,-0.0,1.837928056716919,5.536037790566244,-0.0,0.2288418710231781,-1.6379812399493616,-4.091787311933073e-39,0.005652859341353178,0.12852054834365845,-0.0,0.018108295276761055,1.0031651258468628,0.0,0.005181699525564909
253.0,229.0,-3.5324,-0.8004,9.1424,-0.0308,0.026,-0.1148,-2.159267564813131,0.0,4.242918968200684,-1.5460375547409058,-0.0,1.8447206020355225,5.536021458893575,-0.0,0.22750192880630493,-1.6380332151996058,-1.7443363283915323e-41,-0.0017199821304529905,0.12850430607795715,-0.0,0.017274048179388046,1.003152847290039,0.0,0.003361469367519021
238.0,216.0,-3.5833,-0.7478,9.1502,-0.0388,0.0188,-0.1142,-2.159351964990133,0.0,4.235160827636719,-1.5460933446884155,-0.0,1.803373098373413,5.536025571614065,-0.0,0.22829867899417877,-1.638000790272848,-4.203895392974451e-45,-0.0014219136210158467,0.12849606573581696,-0.0,0.02015017718076706,1.0031324625015259,0.0,0.024741556495428085
238.0,216.0,-3.5833,-0.7478,9.1502,-0.0388,0.0188,-0.1142,-2.1593481502928675,0.0,4.268135070800781,-1.54607355594635,-0.0,1.853832483291626,5.536005425244131,-0.0,0.22463589906692505,-1.6379926840411585,-0.0,0.004662840161472559,0.12854072451591492,-0.0,0.019576864317059517,1.0031324625015259,0.0,0.01583154685795307
238.0,216.0,-3.5833,-0.7478,9.1502,-0.0388,0.0188,-0.1142,-2.1592875919737757,0.0,4.232548713684082,-1.546016812324524,-0.0,1.8513953685760498,5.536005484848776,-0.0,0.22630402445793152,-1.638000790272848,-0.0,-0.0031960830092430115,0.1284879446029663,-0.0,0.025306208059191704,1.003104567527771,0.0,0.020599933341145515
238.0,216.0,-3.5833,-0.7478,9.1502,-0.0388,0.0188,-0.1142,-2.1592799625792445,0.0,4.230849266052246,-1.5460127592086792,-0.0,1.8708854913711548,5.5360296843345544,-0.0,0.23112201690673828,-1.6379964987384241,-0.0,-0.000591327203437686,0.1285083144903183,-0.0,0.023883730173110962,1.0031487941741943,0.0,0.06174607574939728
238.0,216.0,-3.5833,-0.7478,9.1502,-0.0388,0.0188,-0.1142,-2.159295698205465,0.0,4.251699924468994,-1.5460695028305054,-0.0,1.846602201461792,5.53601365068511,-0.0,0.23354271054267883,-1.6380208174334925,-0.0,-0.00524356123059988,0.12854884564876556,-0.0,0.032232917845249176,1.0031365156173706,0.0,0.03222738206386566
238.0,216.0,-3.5833,-0.7478,9.1502,-0.0388,0.0188,-0.1142,-2.159344335595602,0.0,4.243226051330566,-1.5460407733917236,-0.0,1.8445820808410645,5.535989451199331,-0.0,0.23114147782325745,-1.6379964987384241,-0.0,-0.005320695694535971,0.12851668894290924,-0.0,0.021186817437410355,1.0031005144119263,0.0,-0.0340995118021965
238.0,216.0,-3.5833,-0.7478,9.1502,-0.0388,0.0188,-0.1142,-2.1593243084349574,0.0,4.216264247894287,-1.5460209846496582,-0.0,1.7906725406646729,5.53603361824111,-0.0,0.22948452830314636,-1.6379812399493616,-0.0,0.0068408045917749405,0.12848791480064392,-0.0,0.021064981818199158,1.003161072731018,0.0,0.04270943999290466
238.0,216.0,-3.5833,-0.7478,9.1502,-0.0388,0.0188,-0.1142,-2.159304281274313,0.0,4.24643611907959,-1.546048879623413,-0.0,1.8366389274597168,5.536037790566244,-0.0,0.2256651073694229,-1.6379964987384241,-0.0,0.005228783003985882,0.12852059304714203,-0.0,0.02565181255340576,1.0031365156173706,0.0,0.04454381763935089
238.0,216.0,-3.5833,-0.7478,9.1502,-0.0388,0.0188,-0.1142,-2.159328123132223,0.0,4.24686861038208,-1.546025276184082,-0.0,1.8698742389678955,5.536057817726888,-0.0,0.23903410136699677,-1.638017479573385,-0.0,-0.007211126387119293,0.12854400277137756,-0.0,0.03228665515780449,1.0031688213348389,0.0,0.03929511457681656
238.0,216.0,-3.5833,-0.7478,9.1502,-0.0388,0.0188,-0.1142,-2.1592961750426234,0.0,4.2419915199279785,-1.5460209846496582,-0.0,1.8144874572753906,5.535985219269552,-0.0,0.2300170660018921,-1.6380332151996058,-0.0,-0.012261830270290375,0.12846410274505615,-0.0,0.017332009971141815,1.003116488456726,0.0,0.026813112199306488
238.0,216.0,-3.5833,-0.7478,9.1502,-0.0388,0.0188,-0.1142,-2.159299989739889,0.0,4.23492956161499,-1.546048879623413,-0.0,1.8047754764556885,5.536045896797933,-0.0,0.22294524312019348,-1.6379769484149378,-0.0,-0.017017776146531105,0.12848009169101715,-0.0,0.026646099984645844,1.0031810998916626,0.0,-0.0014385553076863289
238.0,216.0,-3.5833,-0.7478,9.1502,-0.0388,0.0188,-0.1142,-2.159288068810934,0.0,4.274470329284668,-1.5460087060928345,-0.0,1.8472156524658203,5.536049651890554,-0.0,0.21611861884593964,-1.6380332151996058,-0.0,-0.00242872117087245,0.12848828732967377,-0.0,0.023757975548505783,1.0031406879425049,0.0,0.021910173818469048
238.0,216.0,-3.5833,-0.7478,9.1502,-0.0388,0.0188,-0.1142,-2.15928377727651,0.0,4.182216644287109,-1.546057105064392,-0.0,1.818461537361145,5.536045956402578,-0.0,0.21150654554367065,-1.638017479573385,-0.0,-0.009147957898676395,0.12853215634822845,-0.0,0.029467307031154633,1.0031487941741943,0.0,-0.003494563512504101
238.0,216.0,-3.5833,-0.7478,9.1502,-0.0388,0.0188,-0.1142,-2.159304281274313,0.0,4.218024253845215,-1.5460211038589478,-0.0,1.8600983619689941,5.536054181843557,-0.0,0.2422524094581604,-1.6380255858050745,-0.0,0.004219958558678627,0.12843213975429535,-0.0,0.028076276183128357,1.003116488456726,0.0,0.08980084955692291
238.0,216.0,-3.5833,-0.7478,9.1502,-0.0388,0.0188,-0.1142,-2.1593038044371546,0.0,4.2388224601745605,-1.5460293292999268,-0.0,1.854569435119629,5.535981583386221,-0.0,0.23817232251167297,-1.6379964987384241,-0.0,-0.0036671652924269438,0.12852059304714203,-0.0,0.021754678338766098,1.003161072731018,0.0,0.05007560923695564
238.0,216.0,-3.5833,-0.7478,9.1502,-0.0388,0.0188,-0.1142,-2.1592799625792445,0.0,4.218837738037109,-1.5460448265075684,-0.0,1.8324278593063354,5.535981225758352,-0.0,0.2293359786272049,-1.6380255858050745,-0.0,-0.005892444401979446,0.12853658199310303,-0.0,0.027804382145404816,1.003116488456726,0.0,-0.018707556650042534
238.0,216.0,-3.5833,-0.7478,9.1502,-0.0388,0.0188,-0.1142,-2.159304281274313,0.0,4.226834297180176,-1.5460087060928345,-0.0,1.8652150630950928,5.536045956402578,-0.0,0.22828079760074615,-1.6379645506488245,-0.0,-0.003370428690686822,0.12846790254116058,-0.0,0.02242298796772957,1.0031365156173706,0.0,0.02918076515197754
238.0,216.0,-3.5833,-0.7478,9.1502,-0.0388,0.0188,-0.1142,-2.159311910668844,0.0,4.239890098571777,-1.5460375547409058,-0.0,1.8866991996765137,5.536021458893575,-0.0,0.23964610695838928,-1.6379607359515589,-0.0,-0.0017754904692992568,0.12853622436523438,-0.0,0.026210682466626167,1.0031406879425049,0.0,0.0367073118686676
238.0,216.0,-3.5833,-0.7478,9.1502,-0.0388,0.0188,-0.1142,-2.1593362293639125,0.0,4.232455253601074,-1.5460090637207031,-0.0,1.8414428234100342,5.535989510803976,-0.0,0.22345039248466492,-1.6380050818072718,-0.0,-0.0076857516542077065,0.1285325139760971,-0.0,0.028969742357730865,1.0031005144119263,0.0,0.032748542726039886
240.0,223.0,-3.5097,-0.7717,9.0604,-0.0353,0.0231,-0.11,-2.1592756710448207,0.0,4.2132697105407715,-1.5460375547409058,-0.0,1.845238447189331,5.536050069123068,-0.0,0.223075270652771,-1.6379769484149378,-0.0,-0.004197567701339722,0.12848423421382904,-0.0,0.01723913848400116,1.003152847290039,0.0,0.03463790938258171
240.0,223.0,-3.5097,-0.7717,9.0604,-0.0353,0.0231,-0.11,-2.159328123132223,0.0,4.2591938972473145,-1.5460209846496582,-0.0,1.8818473815917969,5.5359816429908655,-0.0,0.22464416921138763,-1.6380050818072718,-0.0,-0.01431039348244667,0.1285243034362793,-0.0,0.01991051621735096,1.0031729936599731,0.0,0.04452035576105118
240.0,223.0,-3.5097,-0.7717,9.0604,-0.0353,0.0231,-0.11,-2.1592632732787074,0.0,4.270604133605957,-1.5460407733917236,-0.0,1.8896081447601318,5.536037790566244,-0.0,0.227446049451828,-1.6379974524127405,-0.0,-0.013940119184553623,0.12851238250732422,-0.0,0.01537633128464222,1.0031205415725708,0.0,-0.03285728767514229
240.0,223.0,-3.5097,-0.7717,9.0604,-0.0353,0.0231,-0.11,-2.15928377727651,0.0,4.19559907913208,-1.5460686683654785,-0.0,1.8448412418365479,5.536005008011617,-0.0,0.22505196928977966,-1.638000790272848,-0.0,0.00036821948015131056,0.12852026522159576,-0.0,0.029087763279676437,1.0031405687332153,0.0,0.07731866836547852
240.0,223.0,-3.5097,-0.7717,9.0604,-0.0353,0.0231,-0.11,-2.1592799625792445,0.0,4.220523357391357,-1.5460087060928345,-0.0,1.8481972217559814,5.536017286568441,-0.0,0.2177160382270813,-1.637993637715475,-0.0,0.006037815939635038,0.12853211164474487,-0.0,0.0119369737803936,1.003161072731018,0.0,0.03799936920404434
240.0,223.0,-3.5097,-0.7717,9.0604,-0.0353,0.0231,-0.11,-2.1592799625792445,0.0,4.254472255706787,-1.5460572242736816,-0.0,1.8436150550842285,5.536013591080465,-0.0,0.2355627715587616,-1.6379812399493616,-0.0,-0.021750163286924362,0.1285562813282013,-0.0,0.013003380037844181,1.0031406879425049,0.0,-0.006809369195252657
240.0,223.0,-3.5097,-0.7717,9.0604,-0.0353,0.0231,-0.11,-2.159299989739889,0.0,4.2896728515625,-1.546053171157837,-0.0,1.8593130111694336,5.53603361824111,-0.0,0.22876426577568054,-1.6380255858050745,-0.0,-0.015379974618554115,0.12844812870025635,-0.0,0.027585510164499283,1.003104567527771,0.0,0.0182114839553833
240.0,223.0,-3.5097,-0.7717,9.0604,-0.0353,0.0231,-0.11,-2.1592475376524867,0.0,4.263206958770752,-1.5460333824157715,-0.0,1.8223514556884766,5.536013591080465,-0.0,0.23392826318740845,-1.638000790272848,-0.0,-0.0022864118218421936,0.12843921780586243,-0.0,0.022517770528793335,1.0031365156173706,0.0,-0.017612894997000694
240.0,223.0,-3.5097,-0.7717,9.0604,-0.0353,0.0231,-0.11,-2.1592799625792445,0.0,4.247451305389404,-1.546069622039795,-0.0,1.8229329586029053,5.536017346173086,-0.0,0.22379890084266663,-1.638000790272848,-0.0,-0.0015485212206840515,0.12850427627563477,-0.0,0.02447642758488655,1.0031607151031494,0.0,0.026277311146259308
240.0,223.0,-3.5097,-0.7717,9.0604,-0.0353,0.0231,-0.11,-2.159288068810934,0.0,4.217752933502197,-1.5460768938064575,-0.0,1.8295300006866455,5.535989451199331,-0.0,0.2128211408853531,-1.638000790272848,-0.0,-0.0033888572361320257,0.12850020825862885,-0.0,0.02610562928020954,1.0031365156173706,0.0,0.007104950957000256
240.0,223.0,-3.5097,-0.7717,9.0604,-0.0353,0.0231,-0.11,-2.159288068810934,0.0,4.270989894866943,-1.546093463897705,-0.0,1.8433395624160767,5.53602551200942,-0.0,0.21672016382217407,-1.6380131880389612,-0.0,0.00681191636249423,0.12841622531414032,-0.0,0.02088256925344467,1.003124713897705,0.0,-0.000976958079263568
240.0,223.0,-3.5097,-0.7717,9.0604,-0.0353,0.0231,-0.11,-2.1593319378294886,0.0,4.244367599487305,-1.5460087060928345,-0.0,1.872661828994751,5.53602551200942,-0.0,0.22703811526298523,-1.638017479573385,-0.0,-0.011400394141674042,0.1285325139760971,-0.0,0.02347789704799652,1.0031570196151733,0.0,0.03618237376213074
240.0,223.0,-3.5097,-0.7717,9.0604,-0.0353,0.0231,-0.11,-2.159316202203268,0.0,4.228385925292969,-1.5460087060928345,-0.0,1.900782823562622,5.536037790566244,-0.0,0.2336065173149109,-1.638000790272848,-0.0,-0.005906333681195974,0.1285165548324585,-0.0,0.023668281733989716,1.003104567527771,0.0,-0.014243780635297298
240.0,223.0,-3.5097,-0.7717,9.0604,-0.0353,0.0231,-0.11,-2.1592756710448207,0.0,4.199406623840332,-1.5460211038589478,-0.0,1.8775430917739868,5.536053764611044,-0.0,0.21831852197647095,-1.6379650274859827,-0.0,-0.011419687420129776,0.1285325139760971,-0.0,0.02792033553123474,1.0031930208206177,0.0,0.029956519603729248
240.0,223.0,-3.5097,-0.7717,9.0604,-0.0353,0.0231,-0.11,-2.1592756710448207,0.0,4.232701778411865,-1.546048879623413,-0.0,1.86883544921875,5.53604148605422,-0.0,0.23309050500392914,-1.6379964987384241,-0.0,-0.014611545950174332,0.12855656445026398,-0.0,0.024398375302553177,1.0031487941741943,0.0,0.007125130854547024
240.0,223.0,-3.5097,-0.7717,9.0604,-0.0353,0.0231,-0.11,-2.159288068810934,0.0,4.261561393737793,-1.5460375547409058,-0.0,1.8297131061553955,5.53600953796462,-0.0,0.22137080132961273,-1.638017479573385,-0.0,-0.0025916462764143944,0.12852835655212402,-0.0,0.021957021206617355,1.0031208992004395,0.0,0.020995961502194405
240.0,223.0,-3.5097,-0.7717,9.0604,-0.0353,0.0231,-0.11,-2.159316202203268,0.0,4.228981018066406,-1.546025037765503,-0.0,1.8791046142578125,5.53603361824111,-0.0,0.22774550318717957,-1.6379964987384241,-0.0,-0.008191103115677834,0.12847600877285004,-0.0,0.028187820687890053,1.0031487941741943,0.0,-0.01572236604988575
240.0,223.0,-3.5097,-0.7717,9.0604,-0.0353,0.0231,-0.11,-2.159328123132223,0.0,4.246066093444824,-1.5460251569747925,-0.0,1.7991106510162354,5.535989451199331,-0.0,0.2091134786605835,-1.6379812399493616,-0.0,-0.0025779271963983774,0.12847201526165009,-0.0,0.02272176183760166,1.003161072731018,0.0,0.01943846046924591
240.0,223.0,-3.5097,-0.7717,9.0604,-0.0353,0.0231,-0.11,-2.1593123875060023,0.0,4.224348068237305,-1.5460407733917236,-0.0,1.7996935844421387,5.536050009518423,-0.0,0.21921135485172272,-1.6379964987384241,-0.0,-0.01216115616261959,0.12855729460716248,-0.0,0.03683032467961311,1.0031570196151733,0.0,-0.009912854060530663
244.0,223.0,-3.5222,-0.7669,8.9827,-0.038,0.024,-0.11,-2.159344335595602,0.0,4.243584632873535,-1.5460333824157715,-0.0,1.8367546796798706,5.536037790566244,-0.0,0.2252119779586792,-1.6380332151996058,-0.0,0.007563031278550625,0.12850022315979004,-0.0,0.03461500629782677,1.0031688213348389,0.0,0.0348612479865551
244.0,223.0,-3.5222,-0.7669,8.9827,-0.038,0.024,-0.11,-2.159299989739889,0.0,4.201203346252441,-1.5460375547409058,-0.0,1.8402252197265625,5.536001312523641,-0.0,0.22495150566101074,-1.638017479573385,-0.0,-2.4730543373152614e-05,0.1285286694765091,-0.0,0.026987271383404732,1.0031487941741943,0.0,-0.060670092701911926
244.0,223.0,-3.5222,-0.7669,8.9827,-0.038,0.024,-0.11,-2.1593200169005335,0.0,4.228291034698486,-1.5460530519485474,-0.0,1.836228370666504,5.536033677845754,-0.0,0.22604432702064514,-1.638045612965719,-0.0,-0.007625178899616003,0.12855251133441925,-0.0,0.023850098252296448,1.003180742263794,0.0,0.015534710139036179
244.0,223.0,-3.5222,-0.7669,8.9827,-0.038,0.024,-0.11,-2.1592632732787074,0.0,4.264604568481445,-1.546069622039795,-0.0,1.825495958328247,5.53602551200942,-0.0,0.23528707027435303,-1.6379688421832483,-0.0,-0.00137712259311229,0.12852056324481964,-0.0,0.029402825981378555,1.0031406879425049,0.0,0.02035181038081646
244.0,223.0,-3.5222,-0.7669,8.9827,-0.038,0.024,-0.11,-2.159288068810934,0.0,4.243751525878906,-1.5460654497146606,-0.0,1.8230007886886597,5.535969304829397,-0.0,0.2198694348335266,-1.6379769484149378,-0.0,-0.00020007809507660568,0.12849609553813934,-0.0,0.028790008276700974,1.003197193145752,0.0,0.008405405096709728
244.0,223.0,-3.5222,-0.7669,8.9827,-0.038,0.024,-0.11,-2.159288068810934,0.0,4.205068588256836,-1.5460572242736816,-0.0,1.8610656261444092,5.535989451199331,-0.0,0.22481247782707214,-1.6380294005023401,-0.0,-0.004609869327396154,0.1285083293914795,-8.126397332830493e-09,0.02290218323469162,1.0031729936599731,0.0,0.04674692824482918
244.0,223.0,-3.5222,-0.7669,8.9827,-0.038,0.024,-0.11,-2.159295698205465,0.0,4.2320098876953125,-1.5460456609725952,-0.0,1.814848780632019,5.53600953796462,-0.0,0.22694146633148193,-1.637989346181051,-0.0,-0.004428783897310495,0.1284756362438202,-3.464410702758158e-11,0.011951709166169167,1.0031447410583496,0.0,0.044580504298210144
244.0,223.0,-3.5222,-0.7669,8.9827,-0.038,0.024,-0.11,-2.1592756710448207,0.0,4.206047058105469,-1.546016812324524,-0.0,1.8286936283111572,5.535997199803152,-0.0,0.21550145745277405,-1.638000790272848,-0.0,-0.00872948206961155,0.1285683810710907,-1.4769327254249287e-13,0.02178332582116127,1.0031447410583496,0.0,0.018681157380342484
244.0,223.0,-3.5222,-0.7669,8.9827,-0.038,0.024,-0.11,-2.159288068810934,0.0,4.259095668792725,-1.5460644960403442,-0.0,1.8639891147613525,5.536021458893575,-0.0,0.22942985594272614,-1.6379964987384241,-0.0,0.0013948772102594376,0.12851238250732422,-4.111096577939163e-17,0.023732729256153107,1.0031847953796387,0.0,-1.292908564209938e-06
244.0,223.0,-3.5222,-0.7669,8.9827,-0.038,0.024,-0.11,-2.159288068810934,0.0,4.2275824546813965,-1.5460736751556396,-0.0,1.8268911838531494,5.535985278874197,-0.0,0.21811339259147644,-1.6380413214312952,-0.0,-0.005755667574703693,0.12852834165096283,-1.7526249827515559e-19,0.014081919565796852,1.003152847290039,0.0,0.03323356807231903
244.0,223.0,-3.5222,-0.7669,8.9827,-0.038,0.024,-0.11,-2.1593200169005335,0.0,4.240697860717773,-1.5460448265075684,-0.0,1.8437412977218628,5.535997199803152,-0.0,0.23458832502365112,-1.6380375067340296,-0.0,-0.008203200995922089,0.12851667404174805,-4.8784966448062137e-23,0.024296049028635025,1.0031847953796387,0.0,0.06152578070759773
244.0,223.0,-3.5222,-0.7669,8.9827,-0.038,0.024,-0.11,-2.159304281274313,0.0,4.240896701812744,-1.546048879623413,-0.0,1.8394527435302734,5.536005902081289,-0.0,0.2316669523715973,-1.638000790272848,-0.0,-0.002648651832714677,0.12850426137447357,-2.0797797610992596e-25,0.0423799566924572,1.0031570196151733,0.0,0.02693876065313816
244.0,223.0,-3.5222,-0.7669,8.9827,-0.038,0.024,-0.11,-2.1592756710448207,0.0,4.212315082550049,-1.5460695028305054,-0.0,1.8655033111572266,5.536017346173086,-0.0,0.2288377285003662,-1.6379645506488245,-0.0,-0.016611777245998383,0.12850022315979004,-8.866427759099823e-28,0.02826337330043316,1.0031406879425049,0.0,-0.01011551171541214
244.0,223.0,-3.5222,-0.7669,8.9827,-0.038,0.024,-0.11,-2.159316202203268,0.0,4.2318267822265625,-1.5460333824157715,-0.0,1.877769947052002,5.536005484848776,-0.0,0.22728389501571655,-1.6379645506488245,-0.0,-0.0036350609734654427,0.12853655219078064,-2.4680030516983095e-31,0.02030613273382187,1.0031487941741943,0.0,0.015155855566263199
244.0,223.0,-3.5222,-0.7669,8.9827,-0.038,0.024,-0.11,-2.159299989739889,0.0,4.222476482391357,-1.546016812324524,-0.0,1.8590455055236816,5.535985278874197,-0.0,0.2213844209909439,-1.6380298773394983,-0.0,-0.0007422144990414381,0.12848426401615143,-1.0521482592225664e-33,0.02878432534635067,1.0031365156173706,0.0,0.004756981506943703
244.0,223.0,-3.5222,-0.7669,8.9827,-0.038,0.024,-0.11,-2.159316202203268,0.0,4.260089874267578,-1.5460293292999268,-0.0,1.8303096294403076,5.536049592285909,-0.0,0.23894102871418,-1.637956444417135,-0.0,-0.012062160298228264,0.12850020825862885,-4.485472351237431e-36,0.027960482984781265,1.003152847290039,0.0,0.05706571415066719
244.0,223.0,-3.5222,-0.7669,8.9827,-0.038,0.024,-0.11,-2.1593243084349574,0.0,4.211567401885986,-1.5460128784179688,-0.0,1.8379772901535034,5.536037790566244,-0.0,0.2256992757320404,-1.638017479573385,-0.0,0.010010136291384697,0.12854842841625214,-1.248548523922626e-39,0.021268226206302643,1.0031570196151733,0.0,0.067578986287117
244.0,223.0,-3.5222,-0.7669,8.9827,-0.038,0.024,-0.11,-2.1592875919737757,0.0,4.248566627502441,-1.5460045337677002,-0.0,1.8505442142486572,5.536053764611044,-0.0,0.23362383246421814,-1.6380088965045374,-0.0,-0.010764914564788342,0.1284637600183487,-5.322131567505655e-42,0.03504127264022827,1.0031570196151733,0.0,-0.021647587418556213
244.0,223.0,-3.5222,-0.7669,8.9827,-0.038,0.024,-0.11,-2.159316202203268,0.0,4.263408660888672,-1.5460448265075684,-0.0,1.8241029977798462,5.536041843682089,-0.0,0.22960570454597473,-1.6380332151996058,-0.0,-0.0021230983547866344,0.1285402923822403,-1.401298464324817e-45,0.02083427831530571,1.0031287670135498,0.0,0.03867269679903984
252.0,236.0,-3.4678,-0.7597,9.0479,-0.0359,0.0192,-0.1136,-2.159288068810934,0.0,4.256237506866455,-1.5460695028305054,-0.0,1.8741974830627441,5.53603361824111,-0.0,0.224214106798172,-1.637989346181051,-0.0,-0.014452198520302773,0.12853246927261353,-0.0,0.021218853071331978,1.003152847290039,0.0,-0.011954966001212597
252.0,236.0,-3.4678,-0.7597,9.0479,-0.0359,0.0192,-0.1136,-2.159288068810934,0.0,4.242048263549805,-1.5460612773895264,-0.0,1.847061038017273,5.535993504315176,-0.0,0.22346824407577515,-1.6380050818072718,-0.0,-0.009472934529185295,0.12851238250732422,-0.0,0.023748893290758133,1.0031570196151733,0.0,0.024976110085844994
252.0,236.0,-3.4678,-0.7597,9.0479,-0.0359,0.0192,-0.1136,-2.159316202203268,0.0,4.236496448516846,-1.5460727214813232,-0.0,1.8521461486816406,5.536049651890554,-0.0,0.2302713394165039,-1.6379812399493616,-0.0,-0.0006208706181496382,0.12850426137447357,-0.0,0.025385551154613495,1.00311279296875,0.0,-0.008886601775884628
252.0,236.0,-3.4678,-0.7597,9.0479,-0.0359,0.0192,-0.1136,-2.159267564813131,0.0,4.225701808929443,-1.5460407733917236,-0.0,1.859832763671875,5.535997617035665,-0.0,0.21689096093177795,-1.638000790272848,-0.0,-0.008017203770577908,0.12846830487251282,-0.0,0.03877720981836319,1.0031447410583496,0.0,0.024097347632050514
252.0,236.0,-3.4678,-0.7597,9.0479,-0.0359,0.0192,-0.1136,-2.159304281274313,0.0,4.226192474365234,-1.546008825302124,-0.0,1.8416504859924316,5.535993563919821,-0.0,0.21937960386276245,-1.6379964987384241,-0.0,-0.014251139014959335,0.12844012677669525,-0.0,0.016385618597269058,1.003124713897705,0.0,-0.014258350245654583
252.0,236.0,-3.4678,-0.7597,9.0479,-0.0359,0.0192,-0.1136,-2.1592756710448207,0.0,4.26772928237915,-1.5460572242736816,-0.0,1.8257250785827637,5.53603361824111,-0.0,0.23297595977783203,-1.6380255858050745,-0.0,0.0006741532124578953,0.12850834429264069,-0.0,0.023678358644247055,1.0031365156173706,0.0,0.04309532418847084
252.0,236.0,-3.4678,-0.7597,9.0479,-0.0359,0.0192,-0.1136,-2.1593200169005335,0.0,4.281200408935547,-1.546048879623413,-0.0,1.879056692123413,5.536061930447378,-0.0,0.23474133014678955,-1.6380170027362269,-0.0,-0.019403105601668358,0.12849614024162292,-0.0,0.028932955116033554,1.003152847290039,0.0,0.04692956432700157
252.0,236.0,-3.4678,-0.7597,9.0479,-0.0359,0.0192,-0.1136,-2.1592594585814417,0.0,4.211296558380127,-1.546065330505371,-0.0,1.8468352556228638,5.536089825421133,-0.0,0.22897125780582428,-1.6379688421832483,-0.0,-0.007101478986442089,0.12851238250732422,-0.0,0.03140219673514366,1.0031365156173706,0.0,0.039770349860191345
252.0,236.0,-3.4678,-0.7597,9.0479,-0.0359,0.0192,-0.1136,-2.159267564813131,0.0,4.257874488830566,-1.5460612773895264,-0.0,1.847470760345459,5.53603361824111,-0.0,0.231637641787529,-1.6380050818072718,-0.0,0.0017813930753618479,0.12852083146572113,-0.0,0.02838677167892456,1.003188967704773,0.0,-0.009397076442837715
252.0,236.0,-3.4678,-0.7597,9.0479,-0.0359,0.0192,-0.1136,-2.159316202203268,0.0,4.190885066986084,-1.546048879623413,-0.0,1.869152307510376,5.536013591080465,-0.0,0.22298899292945862,-1.6380131880389612,-0.0,-0.00025545665994286537,0.1284482181072235,-0.0,0.02630683034658432,1.0031406879425049,0.0,0.022040974348783493
252.0,236.0,-3.4678,-0.7597,9.0479,-0.0359,0.0192,-0.1136,-2.1593362293639125,0.0,4.247845649719238,-1.5460572242736816,-0.0,1.8208963871002197,5.536037790566244,-0.0,0.23101761937141418,-1.638017479573385,-0.0,0.006585109978914261,0.1285082995891571,-0.0,0.01239742711186409,1.003180742263794,0.0,-0.04504877328872681
252.0,236.0,-3.4678,-0.7597,9.0479,-0.0359,0.0192,-0.1136,-2.1593076191344203,0.0,4.218388080596924,-1.5460572242736816,-0.0,1.8423824310302734,5.536037850170889,-0.0,0.2325020730495453,-1.637989346181051,-0.0,0.005984092131257057,0.12851651012897491,-0.0,0.024556849151849747,1.0031284093856812,0.0,0.019964881241321564
252.0,236.0,-3.4678,-0.7597,9.0479,-0.0359,0.0192,-0.1136,-2.1592356167235316,0.0,4.270389080047607,-1.546076774597168,-0.0,1.8646676540374756,5.536061990052023,-0.0,0.23697906732559204,-1.6379688421832483,-0.0,0.005230576731264591,0.12848426401615143,-0.0,0.03412894904613495,1.0031647682189941,0.0,0.02520551159977913
252.0,236.0,-3.4678,-0.7597,9.0479,-0.0359,0.0192,-0.1136,-2.1593481502928675,0.0,4.236367225646973,-1.5460612773895264,-0.0,1.8559348583221436,5.536049592285909,-0.0,0.22668865323066711,-1.6380294005023401,-0.0,-0.00967482477426529,0.12848013639450073,-0.0,0.019848009571433067,1.0031770467758179,0.0,0.020744750276207924
252.0,236.0,-3.4678,-0.7597,9.0479,-0.0359,0.0192,-0.1136,-2.159304281274313,0.0,4.239143371582031,-1.54598069190979,-0.0,1.8244704008102417,5.53601764419631,-0.0,0.22873662412166595,-1.638017479573385,-0.0,0.0009159119799733162,0.12849609553813934,-0.0,0.02005278877913952,1.0031365156173706,0.0,0.005676633678376675
252.0,236.0,-3.4678,-0.7597,9.0479,-0.0359,0.0192,-0.1136,-2.159299989739889,0.0,4.2455925941467285,-1.546069622039795,-0.0,1.843367576599121,5.53600953796462,-0.0,0.21315781772136688,-1.6380255858050745,-0.0,-0.0023846167605370283,0.12857654690742493,-0.0,0.02350209280848503,1.0031688213348389,0.0,0.00400888966396451
252.0,236.0,-3.4678,-0.7597,9.0479,-0.0359,0.0192,-0.1136,-2.1593600712218226,0.0,4.269115447998047,-1.5460686683654785,-0.0,1.8294790983200073,5.53601365068511,-0.0,0.2256963551044464,-1.6380251089679163,-0.0,-0.0021834939252585173,0.1285245418548584,-0.0,0.028125744313001633,1.003152847290039,0.0,0.015152630396187305
252.0,236.0,-3.4678,-0.7597,9.0479,-0.0359,0.0192,-0.1136,-2.159271379510397,0.0,4.228121280670166,-1.5460087060928345,-0.0,1.810261845588684,5.536077606468954,-0.0,0.2181256115436554,-1.6380088965045374,-0.0,0.00479830102995038,0.12850424647331238,-0.0,0.023938443511724472,1.0031487941741943,0.0,0.0205867737531662
252.0,236.0,-3.4678,-0.7597,9.0479,-0.0359,0.0192,-0.1136,-2.159316202203268,0.0,4.2465901374816895,-1.5460209846496582,-0.0,1.825162649154663,5.536077904492178,-0.0,0.2234828621149063,-1.6379812399493616,-0.0,0.005394008941948414,0.12852054834365845,-0.0,0.025556916370987892,1.0031365156173706,0.0,-0.029771100729703903
244.0,234.0,-3.4528,-0.6239,9.1316,-0.0431,0.0209,-0.1122,-2.1593200169005335,0.0,4.2587127685546875,-1.5460448265075684,-0.0,1.8837803602218628,5.536001312523641,-0.0,0.2197456806898117,-1.6380088965045374,-0.0,-0.010021286085247993,0.12849612534046173,-0.0,0.018782760947942734,1.003152847290039,0.0,0.0006407259497791529
244.0,234.0,-3.4528,-0.6239,9.1316,-0.0431,0.0209,-0.1122,-2.1593200169005335,0.0,4.253497123718262,-1.5460612773895264,-0.0,1.8734302520751953,5.536005425244131,-0.0,0.22592957317829132,-1.6380088965045374,-0.0,-0.00859057530760765,0.12846018373966217,-0.0,0.020682483911514282,1.00311279296875,0.0,0.019709983840584755
244.0,234.0,-3.4528,-0.6239,9.1316,-0.0431,0.0209,-0.1122,-2.159271379510397,0.0,4.263056755065918,-1.5460375547409058,-0.0,1.8098078966140747,5.535997140198507,-0.0,0.21913717687129974,-1.6379850546466272,-0.0,-0.005554609466344118,0.12850022315979004,-0.0,0.02212621085345745,1.0031570196151733,0.0,0.033061593770980835
244.0,234.0,-3.4528,-0.6239,9.1316,-0.0431,0.0209,-0.1122,-2.1592799625792445,0.0,4.258158206939697,-1.5460008382797241,-0.0,1.84746515750885,5.536061990052023,-0.0,0.22481176257133484,-1.6380294005023401,-0.0,0.005230039358139038,0.12851238250732422,-0.0,0.02798345685005188,1.00311279296875,0.0,0.0916285514831543
244.0,234.0,-3.4528,-0.6239,9.1316,-0.0431,0.0209,-0.1122,-2.1592923603453578,0.0,4.261670112609863,-1.546025037765503,-0.0,1.8889045715332031,5.536017346173086,-0.0,0.2293948233127594,-1.6380375067340296,-0.0,-0.006729342509061098,0.12853647768497467,-0.0,0.03167985379695892,1.0031570196151733,0.0,0.0026289564557373524
244.0,234.0,-3.4528,-0.6239,9.1316,-0.0431,0.0209,-0.1122,-2.1593362293639125,0.0,4.269594192504883,-1.5460293292999268,-0.0,1.8784456253051758,5.536065625935354,-0.0,0.22491726279258728,-1.6379964987384241,-0.0,-0.0052863978780806065,0.12853647768497467,-0.0,0.012059196829795837,1.0031930208206177,0.0,-0.0383342020213604
244.0,234.0,-3.4528,-0.6239,9.1316,-0.0431,0.0209,-0.1122,-2.159295698205465,3.164718140324929e-11,4.2591023445129395,-1.5460209846496582,-0.0,1.8669155836105347,5.535989451199331,-0.0,0.2243770956993103,-1.6380046049701136,-0.0,0.008667136542499065,0.1284523755311966,-0.0,0.03349202126264572,1.0031447410583496,0.0,0.05311606824398041
244.0,234.0,-3.4528,-0.6239,9.1316,-0.0431,0.0209,-0.1122,-2.1593038044371546,5.696381697096369e-15,4.2805328369140625,-1.546076774597168,-0.0,1.8585556745529175,5.53603361824111,-0.0,0.20869523286819458,-1.6379964987384241,-0.0,-0.00580168841406703,0.12851238250732422,-0.0,0.007460915483534336,1.0031201839447021,0.0,-0.027480918914079666
244.0,234.0,-3.4528,-0.6239,9.1316,-0.0431,0.0209,-0.1122,-2.1593481502928675,1.3756091134939277e-20,4.229008197784424,-1.5459890365600586,0.0003956668952014297,1.8206303119659424,5.535993146687307,-0.0,0.23163804411888123,-1.6379688421832483,-0.0,-0.0035584201104938984,0.128468319773674,-0.0,0.021566424518823624,1.003152847290039,0.0,0.033731840550899506
244.0,234.0,-3.4528,-0.6239,9.1316,-0.0431,0.0209,-0.1122,-2.1592594585814417,2.4760478158846713e-24,4.198296546936035,-1.5460612773895264,0.00048253138083964586,1.8955374956130981,5.535989451199331,-0.0,0.22475874423980713,-1.638017479573385,-0.0,-0.00827784277498722,0.12852051854133606,-0.0,0.030262261629104614,1.003152847290039,0.0,0.014131160452961922
244.0,234.0,-3.4528,-0.6239,9.1316,-0.0431,0.0209,-0.1122,-2.1593200169005335,4.456798817648877e-28,4.209525108337402,-1.5459723472595215,0.0009187797550112009,1.8041210174560547,5.536029565125265,-0.0,0.23999258875846863,-1.6379688421832483,-0.0,-0.012922660447657108,0.1285243034362793,-0.0,0.03186222165822983,1.0031729936599731,0.0,0.01806849241256714
244.0,234.0,-3.4528,-0.6239,9.1316,-0.0431,0.0209,-0.1122,-2.159304281274313,1.0762644441846472e-33,4.219123840332031,-1.546049952507019,0.0006849708152003586,1.9040950536727905,5.536077546864309,-0.0,0.2393105924129486,-1.6380451361285608,-0.0,-0.008564324118196964,0.12850432097911835,-0.0,0.03695470467209816,1.0031688213348389,0.0,0.02417866140604019
244.0,234.0,-3.4528,-0.6239,9.1316,-0.0431,0.0209,-0.1122,-2.159316202203268,1.9372381781594694e-37,4.217540740966797,-1.546025037765503,0.0006368605536408722,1.892867922782898,5.535997140198507,-0.0,0.23162522912025452,-1.6380050818072718,-0.0,-0.003066418692469597,0.12849611043930054,-0.0,0.0206026379019022,1.0031243562698364,0.0,-0.003424635622650385
244.0,234.0,-3.4528,-0.6239,9.1316,-0.0431,0.0209,-0.1122,-2.1592961750426234,4.680336870844889e-43,4.211583137512207,-1.5459444522857666,0.0005583898164331913,1.85483717918396,5.536065149098196,-0.0,0.2293168306350708,-1.6379964987384241,-0.0,-0.007210943382233381,0.1285524219274521,-0.0,0.01648930087685585,1.0031287670135498,0.0,-0.001401509391143918
244.0,234.0,-3.4528,-0.6239,9.1316,-0.0431,0.0209,-0.1122,-2.159295698205465,0.0,4.221169471740723,-1.5460538864135742,0.0004836578737013042,1.8251194953918457,5.536090123444357,-0.0,0.2281476855278015,-1.6380413214312952,-0.0,-0.012321237474679947,0.1284920871257782,-0.0,0.011393897235393524,1.0031766891479492,0.0,0.001479191705584526
244.0,234.0,-3.4528,-0.6239,9.1316,-0.0431,0.0209,-0.1122,-2.1592756710448207,0.0,4.2729172706604,-1.5459692478179932,0.0003730809548869729,1.8658676147460938,5.536017286568441,0.0002612841490190476,0.21972323954105377,-1.6380451361285608,-0.0,0.0002629283117130399,0.1285243034362793,-0.0,0.026675600558519363,1.0031647682189941,0.0,-0.012375702150166035
244.0,234.0,-3.4528,-0.6239,9.1316,-0.0431,0.0209,-0.1122,-2.159295698205465,0.0,4.217836380004883,-1.5460290908813477,0.00031678631785325706,1.899401307106018,5.536065625935354,0.00022596777125727385,0.22556333243846893,-1.6380494276629847,-0.0,-0.004804601892828941,0.1285243183374405,-0.0,0.013787790201604366,1.0032165050506592,0.0,0.031256940215826035
244.0,234.0,-3.4528,-0.6239,9.1316,-0.0431,0.0209,-0.1122,-2.159328123132223,0.0,4.2490105628967285,-1.5459805727005005,0.0002878370287362486,1.8476063013076782,5.53602950552062,0.00020534043142106384,0.22913005948066711,-1.6380088965045374,-0.0,0.000652716844342649,0.1284961849451065,-0.0,0.023641211912035942,1.0031603574752808,0.0005767023540101945,-0.004857318475842476
244.0,234.0,-3.4528,-0.6239,9.1316,-0.0431,0.0209,-0.1122,-2.159311910668844,5.652844993164763e-05,4.243733882904053,-1.545997142791748,0.0002637357683852315,1.817924976348877,5.536005067616262,0.0001881642238004133,0.23122641444206238,-1.6380088965045374,-5.701152190340508e-07,-0.009317624382674694,0.12842828035354614,-0.0,0.015060171484947205,1.0031886100769043,0.0007005902007222176,0.028783896937966347
243.0,227.0,-3.6598,-0.3553,9.0006,-0.0165,0.0232,-0.099,-2.159267564813131,5.355233952286653e-05,4.209049224853516,-1.5459610223770142,0.00023430799774359912,1.8139218091964722,5.536045896797933,0.00016718778351787478,0.21484440565109253,-1.637984577809469,-1.5869366931653417e-10,-0.0003935124259442091,0.12846043705940247,-0.0,0.03376477211713791,1.0032202005386353,0.0007499039638787508,0.0014405585825443268
243.0,227.0,-3.6598,-0.3553,9.0006,-0.0165,0.0232,-0.099,-2.1593195400633753,5.054478606325574e-05,4.208747386932373,-1.545997142791748,0.00021808552264701575,1.8195863962173462,5.5360615132148645,0.00015562256157863885,0.22694173455238342,-1.6380646864520472,-6.76535921468463e-13,0.0010358786676079035,0.12848016619682312,-0.0,0.04329035058617592,1.0032284259796143,0.0006095113349147141,-0.0012635532766580582
243.0,227.0,-3.6598,-0.3553,9.0006,-0.0165,0.0232,-0.099,-2.1593195400633753,2.331322684767656e-05,4.272364616394043,-1.5459405183792114,0.00019756767142098397,1.8352785110473633,5.53603361824111,0.00014099291001912206,0.22783103585243225,-1.63808519044985,-1.883162558911775e-16,-0.00489816814661026,0.12851649522781372,-0.0,0.018885869532823563,1.00318443775177,0.0004333215765655041,0.04641840606927872
243.0,227.0,-3.6598,-0.3553,9.0006,-0.0165,0.0232,-0.099,-2.1593314609923304,7.588777862110874e-06,4.222805500030518,-1.5460090637207031,0.00018590729450806975,1.8149762153625488,5.5360373733337305,0.0001196545927086845,0.21573759615421295,-1.6380770842181605,-8.028216427782013e-19,0.0002971834037452936,0.12848830223083496,-0.0,0.03469930961728096,1.0032366514205933,0.0003633234300650656,0.025594517588615417
243.0,227.0,-3.6598,-0.3553,9.0006,-0.0165,0.0232,-0.099,-2.159351964990133,1.3659532394072471e-09,4.23607873916626,-1.545972466468811,0.00020062012481503189,1.7951223850250244,5.53603361824111,0.00010028922406490892,0.22644296288490295,-1.6379883925067347,-3.422554700182268e-21,0.005407623015344143,0.12848016619682312,-0.0,0.028636008501052856,1.003192663192749,0.000312800460960716,0.015075958333909512
243.0,227.0,-3.6598,-0.3553,9.0006,-0.0165,0.0232,-0.099,-2.159340044061178,3.2986167118766565e-15,4.233023166656494,-1.5459527969360352,0.00013448719982989132,1.8256152868270874,5.536017286568441,9.250458242604509e-05,0.22042235732078552,-1.6380251089679163,-9.526806911798647e-25,-0.008412468247115612,0.12855243682861328,-2.2914475721336203e-06,0.023867353796958923,1.0031967163085938,0.0002588176284916699,0.042545150965452194
243.0,227.0,-3.6598,-0.3553,9.0006,-0.0165,0.0232,-0.099,-2.1593600712218226,5.937393869450235e-19,4.207564830780029,-1.5460013151168823,9.950886305887252e-05,1.8632287979125977,5.536017286568441,8.798272756393999e-05,0.22655443847179413,-1.6380532423602503,-4.0614272593710466e-27,0.007171600591391325,0.12852832674980164,-9.76879910297157e-09,0.038966141641139984,1.003192663192749,0.00023211482039187104,0.02726113796234131
243.0,227.0,-3.6598,-0.3553,9.0006,-0.0165,0.0232,-0.099,-2.159351488152975,1.4338108029710728e-24,4.247246742248535,-1.5460090637207031,8.946347224991769e-05,1.8818522691726685,5.53602551200942,6.217544432729483e-05,0.23531806468963623,-1.6380370298968714,-1.1305132601519141e-30,0.0005984234157949686,0.1285083144903183,-2.71918121699799e-12,0.01868918351829052,1.0032528638839722,0.00017464073607698083,0.012037363834679127
243.0,227.0,-3.6598,-0.3553,9.0006,-0.0165,0.0232,-0.099,-2.159323354760641,2.5808089589433317e-28,4.205881118774414,-1.5459650754928589,8.522742427885532e-05,1.8596041202545166,5.536041843682089,5.8804344007512555e-05,0.2357669174671173,-1.6380332151996058,-4.8195551237041954e-33,-0.008400954306125641,0.12855617702007294,-1.1592296404478591e-14,0.03453267365694046,1.003220558166504,0.00014761979400645941,0.04335983842611313
243.0,227.0,-3.6598,-0.3553,9.0006,-0.0165,0.0232,-0.099,-2.159351964990133,4.6453647137327855e-32,4.2524495124816895,-1.5460290908813477,8.137460827128962e-05,1.8073344230651855,5.53598569610671,-2.6485184207558632e-05,0.23115792870521545,-1.6380413214312952,-2.0546520572334533e-35,-0.007544896565377712,0.12849612534046173,-4.941977665680508e-17,0.02414702996611595,1.0031607151031494,0.00013642845442518592,0.008458386175334454
243.0,227.0,-3.6598,-0.3553,9.0006,-0.0165,0.0232,-0.099,-2.1593357525267542,1.121800853616692e-37,4.2417120933532715,-1.545997142791748,7.173452468123287e-05,1.8182741403579712,5.535993981152334,-9.808503091335297e-05,0.22304216027259827,-1.6380413214312952,-5.7191992964613424e-39,-0.0017442954704165459,0.12848828732967377,-1.3756176761057373e-20,0.01747708022594452,1.0031201839447021,9.188131662085652e-05,0.04754380136728287
243.0,227.0,-3.6598,-0.3553,9.0006,-0.0165,0.0232,-0.099,-2.1592756710448207,2.0192710870920614e-41,4.259186267852783,-1.5460213422775269,0.00010224838479189202,1.8532202243804932,5.53602962472991,-9.606693492969498e-05,0.22465261816978455,-1.6380613485919397,-2.438119198078749e-41,0.005582698155194521,0.12852028012275696,-5.864474010947145e-23,0.022663092240691185,1.0031688213348389,-6.807136378483847e-05,0.03674772009253502
243.0,227.0,-3.6598,-0.3553,9.0006,-0.0165,0.0232,-0.099,-2.159271856347555,0.0,4.234415054321289,-1.5459413528442383,0.00020290461543481797,1.882812261581421,5.536005484848776,-0.00011119135888293386,0.21887187659740448,-1.6380251089679163,-7.006492321624085e-45,0.0020564203150570393,0.12849612534046173,-1.6323977289680128e-26,0.03985685110092163,1.0031205415725708,-0.00012221377983223647,-0.0020732018165290356
243.0,227.0,-3.6598,-0.3553,9.0006,-0.0165,0.0232,-0.099,-2.1592875919737757,0.0,4.2384562492370605,-1.5460094213485718,0.0007931273430585861,1.8936257362365723,5.535969364434042,-0.00010596100764814764,0.23230908811092377,-1.6380294005023401,-0.0,0.0032466044649481773,0.12848813831806183,-6.959168501817206e-29,0.028082896023988724,1.003192663192749,-0.0001440238847862929,0.04039774090051651
243.0,227.0,-3.6598,-0.3553,9.0006,-0.0165,0.0232,-0.099,-2.159295698205465,0.0,4.205904006958008,-1.5459288358688354,0.00143510103225708,1.8527792692184448,5.535965251713552,-0.00010119524085894227,0.23032760620117188,-1.6380651632892054,-0.0,0.012198753654956818,0.1284642517566681,-2.966802450373692e-31,0.02803293988108635,1.0031770467758179,-0.0005207691574469209,0.028628647327423096
243.0,227.0,-3.6598,-0.3553,9.0006,-0.0165,0.0232,-0.099,-2.1592632732787074,0.0,4.239265441894531,-1.5459288358688354,0.0017063248669728637,1.8251893520355225,5.535957562714376,-9.479953587288037e-05,0.22186654806137085,-1.6380494276629847,-0.0,-0.001702721230685711,0.12857243418693542,-8.25820252913048e-35,0.0271296426653862,1.0031284093856812,-0.0004750937514472753,-0.01597040891647339
243.0,227.0,-3.6598,-0.3553,9.0006,-0.0165,0.0232,-0.099,-2.159295698205465,0.0,4.194024085998535,-1.5459650754928589,0.0018809016328305006,1.8356763124465942,5.535961615830221,-0.0002577269042376429,0.23733103275299072,-1.6380251089679163,-0.0,0.0041215140372514725,0.12853623926639557,-3.5206009620330127e-37,0.026791710406541824,1.003116488456726,-0.0004635496297851205,0.03263425827026367
243.0,227.0,-3.6598,-0.3553,9.0006,-0.0165,0.0232,-0.099,-2.159299989739889,0.0,4.262306213378906,-1.5459251403808594,0.0038683644961565733,1.8311872482299805,5.53598170259551,-0.00026378329494036734,0.22132354974746704,-1.6380088965045374,-0.0,0.0029909394215792418,0.12853242456912994,-9.799700550562743e-41,0.02362683415412903,1.0030722618103027,-0.0004393712733872235,-0.015978632494807243
243.0,227.0,-3.6598,-0.3553,9.0006,-0.0165,0.0232,-0.099,-2.159299989739889,0.0,4.265329360961914,-1.5459210872650146,0.006858162581920624,1.8435640335083008,5.536009955197134,-0.0002713236608542502,0.22226886451244354,-1.6380613485919397,-0.0,-0.00586537504568696,0.1285364329814911,-4.175869423687955e-43,0.025406744331121445,1.003121018409729,-0.0004744825419038534,0.02670552209019661
235.0,228.0,-3.5641,-0.7418,9.2279,-0.0388,0.0173,-0.1206,-2.159311910668844,0.0,4.244992256164551,-1.545840859413147,0.009872044436633587,1.8577308654785156,5.535945641785421,-0.0002906891459133476,0.23400022089481354,-1.6379926840411585,-0.0,0.0070944675244390965,0.12851238250732422,-1.401298464324817e-45,0.032968468964099884,1.0031365156173706,-0.000494442239869386,0.049772731959819794
235.0,228.0,-3.5641,-0.7418,9.2279,-0.0388,0.0173,-0.1206,-2.1593319378294886,0.0,4.175393581390381,-1.5458292961120605,0.009483356028795242,1.8895387649536133,5.5359330652053735,-0.00038274002145044506,0.22371268272399902,-1.6380651632892054,-0.0,-0.006345052272081375,0.1284792572259903,-0.0,0.021623937413096428,1.0031208992004395,-0.0007219490362331271,0.03566841408610344
235.0,228.0,-3.5641,-0.7418,9.2279,-0.0388,0.0173,-0.1206,-2.1593195400633753,-2.4341587050003e-05,4.2676873207092285,-1.5458054542541504,0.009108759462833405,1.8821049928665161,5.535928952484884,-0.00032903096871450543,0.24008691310882568,-1.6380131880389612,-0.0,-0.010225975885987282,0.12850424647331238,-0.0,0.022034794092178345,1.0031168460845947,-0.0006569100078195333,0.015266458503901958
235.0,228.0,-3.5641,-0.7418,9.2279,-0.0388,0.0173,-0.1206,-2.159311910668844,-2.308277544216253e-05,4.253798484802246,-1.5457371473312378,0.008104310370981693,1.8394129276275635,5.535912978440084,-0.0002870391181204468,0.2267301231622696,-1.6380170027362269,-3.2051400921773165e-05,0.004400591365993023,0.12852028012275696,-0.0,0.03088446334004402,1.0031447410583496,-0.0006150861154310405,0.027094846591353416
235.0,228.0,-3.5641,-0.7418,9.2279,-0.0388,0.0173,-0.1206,-2.1593357525267542,-2.1433628717204556e-05,4.218168258666992,-1.5457171201705933,0.00693897670134902,1.8366265296936035,5.535937356739797,-0.00028886989457532763,0.23907792568206787,-1.638017479573385,-3.0776056519243866e-05,-0.02040819637477398,0.12851238250732422,-0.0,0.011768132448196411,1.0031208992004395,-0.0005432278849184513,0.07339068502187729
235.0,228.0,-3.5641,-0.7418,9.2279,-0.0388,0.0173,-0.1206,-2.1593357525267542,-2.0459137886064127e-05,4.252560615539551,-1.545705795288086,0.005924304947257042,1.8222428560256958,5.535949694901266,-0.00026112989871762693,0.23321151733398438,-1.638017479573385,-2.975853203679435e-05,0.0005001737736165524,0.12852028012275696,-0.0,0.0335085503757,1.0031570196151733,-0.000601273262873292,0.023017708212137222
235.0,228.0,-3.5641,-0.7418,9.2279,-0.0388,0.0173,-0.1206,-2.1593038044371546,-1.915297980303876e-05,4.268299102783203,-1.5456980466842651,0.004719637334346771,1.8527817726135254,5.535985934525289,-0.0002660350000951439,0.22700253129005432,-1.6380088965045374,-2.8352345907478593e-05,-0.009250317700207233,0.1285003274679184,-0.0,0.039716385304927826,1.0031049251556396,-0.0009940753225237131,-0.02008802443742752
235.0,228.0,-3.5641,-0.7418,9.2279,-0.0388,0.0173,-0.1206,-2.159311910668844,-1.8371072656009346e-05,4.22381591796875,-1.545626163482666,0.005106578581035137,1.8633921146392822,5.535941409855642,-0.0002712339337449521,0.23797652125358582,-1.6379769484149378,-2.748639599303715e-05,-0.0040509807877242565,0.1285402476787567,-0.0,0.01997784897685051,1.0031168460845947,-0.0009797195671126246,0.02929689921438694
235.0,228.0,-3.5641,-0.7418,9.2279,-0.0388,0.0173,-0.1206,-2.159311910668844,-1.7650501831667498e-05,4.2605695724487305,-1.5455857515335083,0.005215139128267765,1.8251018524169922,5.535966145783224,-0.00026006868574768305,0.22979013621807098,-1.6379964987384241,-2.6671847081161104e-05,-0.009665858000516891,0.1284921020269394,-0.0,0.029532454907894135,1.0031050443649292,-0.00118902453687042,0.01609773002564907
235.0,228.0,-3.5641,-0.7418,9.2279,-0.0388,0.0173,-0.1206,-2.1592756710448207,-1.6669740944053046e-05,4.218264102935791,-1.5455496311187744,0.0067883990705013275,1.8156369924545288,5.535901534348287,-0.0002209346421295777,0.23161667585372925,-1.6380131880389612,-2.553663398430217e-05,0.004078169818967581,0.12852810323238373,-0.0,0.02807190641760826,1.0030570030212402,-0.002078353427350521,0.01686921902000904
235.0,228.0,-3.5641,-0.7418,9.2279,-0.0388,0.0173,-0.1206,-2.159384389916891,-1.6074291124823503e-05,4.231785297393799,-1.5455505847930908,0.008080311119556427,1.8522706031799316,5.535933542042532,-0.00024068017955869436,0.23513230681419373,-1.6379926840411585,-2.4832061171764508e-05,0.00011718494351953268,0.12852050364017487,-0.0,0.043976783752441406,1.0030697584152222,-0.002577098086476326,-0.06029420718550682
235.0,228.0,-3.5641,-0.7418,9.2279,-0.0388,0.0173,-0.1206,-2.1593438587584437,-1.5256820006470662e-05,4.201374530792236,-1.5454779863357544,0.008768877945840359,1.871474027633667,5.535885202675619,-0.00026552300550974905,0.22825413942337036,-1.6379812399493616,-2.384518666076474e-05,-0.01077093742787838,0.12854424118995667,-0.0,0.039181239902973175,1.002996802330017,-0.003080186201259494,-0.026729563251137733
235.0,228.0,-3.5641,-0.7418,9.2279,-0.0388,0.0173,-0.1206,-2.159351964990133,-1.4756529708392918e-05,4.234214782714844,-1.5454336404800415,0.009826939553022385,1.8747109174728394,5.535877036839285,-0.00037479004822671413,0.22141507267951965,-1.6379688421832483,-2.3229735234053805e-05,0.001307845115661621,0.12848830223083496,-0.0,0.018421538174152374,1.0030049085617065,-0.0035825390368700027,0.0007561300881206989
235.0,228.0,-3.5641,-0.7418,9.2279,-0.0388,0.0173,-0.1206,-2.159323831597799,-1.4288002603279892e-05,4.228785514831543,-1.545418381690979,0.010842368006706238,1.868924856185913,5.5359495160873315,-0.00040911618270911276,0.2142823040485382,-1.637989346181051,-1.1372137123544235e-05,0.0034674040507525206,0.12852028012275696,-0.0,0.025462785735726357,1.003044843673706,-0.003742846427485347,0.029404424130916595
235.0,228.0,-3.5641,-0.7418,9.2279,-0.0388,0.0173,-0.1206,-2.1593476734557093,-2.261757072119508e-05,4.271090507507324,-1.5453262329101562,0.011699977330863476,1.8849105834960938,5.535901534348287,-0.00044578537927009165,0.22541138529777527,-1.6380131880389612,-1.0910840501310304e-05,0.010356583632528782,0.1285402625799179,-0.0,0.029714485630393028,1.0030090808868408,-0.0035880538634955883,-0.050764523446559906
235.0,228.0,-3.5641,-0.7418,9.2279,-0.0388,0.0173,-0.1206,-2.159299512902731,-2.6473715479369275e-05,4.250726222991943,-1.5452821254730225,0.012505875900387764,1.8658521175384521,5.535869228630819,-0.00044266413897275925,0.23519134521484375,-1.6380088965045374,-1.0652536730049178e-05,-0.009009260684251785,0.12850023806095123,-0.0,0.04024437814950943,1.0029971599578857,-0.003030981170013547,0.02925218641757965
235.0,228.0,-3.5641,-0.7418,9.2279,-0.0388,0.0173,-0.1206,-2.1593157253661097,-2.535576277296059e-05,4.207015037536621,-1.545177698135376,0.014450037851929665,1.857611060142517,5.535881507187643,-0.0004467536346055567,0.23332829773426056,-1.6380088965045374,-1.028725819196552e-05,-0.01237723883241415,0.12853683531284332,-0.0,0.04485764354467392,1.0029492378234863,-0.002096075564622879,-0.00017951754853129387
235.0,228.0,-3.5641,-0.7418,9.2279,-0.0388,0.0173,-0.1206,-2.1593882046141566,-2.4660992494318634e-05,4.239387512207031,-1.545122742652893,0.015513623133301735,1.9016172885894775,5.535877454071798,-0.00048460179823450744,0.22870568931102753,-1.6379812399493616,-1.0057345207314938e-05,0.0003758478269446641,0.1285364031791687,-0.0,0.038588158786296844,1.0029852390289307,-0.0016271998174488544,0.05682244896888733
239.0,226.0,-3.3888,-1.1348,9.1932,-0.0619,0.0316,-0.1254,-2.159351964990133,-2.4003302314667962e-05,4.233013153076172,-1.5450459718704224,0.01653178781270981,1.8852949142456055,5.535849559098043,-0.0004958886420354247,0.2306884080171585,-1.637993637715475,-6.494153694802662e-07,0.002025246387347579,0.12850436568260193,-0.0,0.029588501900434494,1.0029611587524414,-0.0012405809247866273,0.04444342106580734
239.0,226.0,-3.3888,-1.1348,9.1932,-0.0619,0.0316,-0.1254,-2.1593433819212855,-3.461994128883816e-05,4.263989448547363,-1.5449745655059814,0.018586086109280586,1.8489573001861572,5.5358372805412195,-0.0005290284752845764,0.2194133996963501,-1.6379688421832483,-1.8076715124770715e-10,-0.0016797425923869014,0.12856824696063995,-0.0,0.025875551626086235,1.0029771327972412,-0.000817921943962574,0.00045715924352407455
239.0,226.0,-3.3888,-1.1348,9.1932,-0.0619,0.0316,-0.1254,-2.1593595943846644,-3.375438609509729e-05,4.219964027404785,-1.5448905229568481,0.0198068767786026,1.8792321681976318,5.535853612213888,-0.0005157653940841556,0.21906322240829468,-1.6379688421832483,-7.706387069282561e-13,-0.00015674158930778503,0.12861302495002747,-0.0,0.02863144502043724,1.0029733180999756,-0.0005843571270816028,0.005369160324335098
239.0,226.0,-3.3888,-1.1348,9.1932,-0.0619,0.0316,-0.1254,-2.1593314609923304,-3.253421891713515e-05,4.231141567230225,-1.544763207435608,0.02172061800956726,1.8669724464416504,5.535885619908132,-0.0004713968373835087,0.22547395527362823,-1.6380131880389612,-2.145101409800859e-16,-0.005195435602217913,0.12850022315979004,-0.0,0.03726949915289879,1.0030052661895752,-0.00045636133290827274,-0.030659697949886322
239.0,226.0,-3.3888,-1.1348,9.1932,-0.0619,0.0316,-0.1254,-2.159351964990133,-4.112431270186789e-05,4.255956649780273,-1.5446677207946777,0.024462291970849037,1.8585203886032104,5.535833227425375,-0.00046884751645848155,0.2244916409254074,-1.638000790272848,-9.144903533886123e-19,-0.002611169358715415,0.12856438755989075,-0.0,0.031238775700330734,1.002981185913086,-0.00013246096204966307,0.029773851856589317
239.0,226.0,-3.3888,-1.1348,9.1932,-0.0619,0.0316,-0.1254,-2.159355779687399,-4.1384122596355155e-05,4.208676338195801,-1.544583797454834,0.026533443480730057,1.8915927410125732,5.535853612213888,-0.0005320615018717945,0.21857532858848572,-1.6380255858050745,-3.8986157219585754e-21,-0.00946209765970707,0.12853221595287323,-0.0,0.02186805196106434,1.0030090808868408,-7.746529445284978e-05,0.014362787827849388
239.0,226.0,-3.3888,-1.1348,9.1932,-0.0619,0.0316,-0.1254,-2.1593076191344203,-4.000470653409138e-05,4.235692024230957,-1.5444118976593018,0.029957707971334457,1.8765736818313599,5.535857784539022,-0.0008541016140952706,0.2260761260986328,-1.6380170027362269,-1.085194039076956e-24,0.00474264333024621,0.1285243034362793,-0.0,0.04788057506084442,1.0029771327972412,-4.8292022256646305e-05,0.02018953301012516
239.0,226.0,-3.3888,-1.1348,9.1932,-0.0619,0.0316,-0.1254,-2.159327646295065,-1.8115240152383194e-07,4.287476539611816,-1.5442678928375244,0.03484334796667099,1.9462666511535645,5.535829531937399,-0.0009485879563726485,0.22777199745178223,-1.6380131880389612,-4.626352586238377e-27,-0.00411103805527091,0.1285521537065506,-0.0,0.04949698597192764,1.0030332803726196,-4.3611300498014316e-05,0.06541135907173157
239.0,226.0,-3.3888,-1.1348,9.1932,-0.0619,0.0316,-0.1254,-2.15933956722402,-3.260678879679624e-11,4.206434726715088,-1.5441077947616577,0.03683041036128998,1.9084105491638184,5.535780894547262,-0.0010058878688141704,0.21655218303203583,-1.6379974524127405,-1.972286476295529e-29,0.0015190890990197659,0.1285361349582672,-0.0,0.03534391149878502,1.0029852390289307,-3.9757866034051403e-05,0.07424993813037872
239.0,226.0,-3.3888,-1.1348,9.1932,-0.0619,0.0316,-0.1254,-2.15933956722402,-7.082929369062185e-05,4.191633701324463,-1.5438679456710815,0.04120812565088272,1.9584777355194092,5.535801577358999,-0.001288027036935091,0.22241589426994324,-1.6379850546466272,-5.489932572480438e-33,-0.011185051873326302,0.12854023277759552,-0.0,0.040155332535505295,1.0030415058135986,-3.5105236747767776e-05,0.08659663796424866
239.0,226.0,-3.3888,-1.1348,9.1932,-0.0619,0.0316,-0.1254,-2.159367700616354,-8.401515515288338e-05,4.194413661956787,-1.5437166690826416,0.04413650184869766,1.928133487701416,5.535789716034689,-0.0017835259204730392,0.22226876020431519,-1.6379812399493616,-2.3404445517560102e-35,-0.014642608352005482,0.12852029502391815,-0.0,0.03562437742948532,1.0030250549316406,-3.2564716093475e-05,0.027777595445513725
239.0,226.0,-3.3888,-1.1348,9.1932,-0.0619,0.0316,-0.1254,-2.159367700616354,-0.0001031025531119667,4.176917552947998,-1.5434731245040894,0.047733124345541,1.9589552879333496,5.535818147450247,-0.0029925331473350525,0.22384637594223022,-1.6380131880389612,-6.514713632061612e-39,-0.0045103393495082855,0.12854832410812378,-0.0,0.03730466961860657,1.0029852390289307,-2.9375860322033986e-05,0.05064740404486656
239.0,226.0,-3.3888,-1.1348,9.1932,-0.0619,0.0316,-0.1254,-2.1593638859190882,-0.0005258168675936759,4.22954797744751,-1.5432488918304443,0.05012035742402077,1.9698458909988403,5.535725223809042,-0.004330602008849382,0.20191717147827148,-1.637993637715475,-2.7773735562917874e-41,0.005909387953579426,0.12856438755989075,-0.0,0.04209810122847557,1.0030250549316406,-2.7575670173973776e-05,0.04906882345676422
239.0,226.0,-3.3888,-1.1348,9.1932,-0.0619,0.0316,-0.1254,-2.1594001255431117,-0.0005540066631510854,4.18710470199585,-1.543046236038208,0.05169384181499481,1.9534976482391357,5.535705017834463,-0.005690502468496561,0.2071908712387085,-1.637989346181051,-1.1770907100328463e-43,0.006030500400811434,0.12853622436523438,-0.0,0.04915276914834976,1.00304114818573,-8.907234587240964e-06,0.0683354064822197
239.0,226.0,-3.3888,-1.1348,9.1932,-0.0619,0.0316,-0.1254,-2.1593882046141566,-0.0004968781722709537,4.225275993347168,-1.5427830219268799,0.05298447236418724,1.9253394603729248,5.535677838116445,-0.008150576613843441,0.19818955659866333,-1.6379488150226038,-0.0,-0.008476968854665756,0.12856438755989075,-0.0,0.05040848255157471,1.0030369758605957,-2.1509922315532393e-11,0.07294999063014984
239.0,226.0,-3.3888,-1.1348,9.1932,-0.0619,0.0316,-0.1254,-2.1594320736327113,-0.0004291755030862987,4.194872856140137,-1.54252290725708,0.054100401699543,1.9830856323242188,5.535641479283132,-0.009212874807417393,0.20694276690483093,-1.6379693190204065,-0.0,-0.01791788637638092,0.12853221595287323,-0.0,0.04776372015476227,1.0030131340026855,-3.871710521901207e-15,0.03945321589708328
239.0,226.0,-3.3888,-1.1348,9.1932,-0.0619,0.0316,-0.1254,-2.159351488152975,-0.0003563389473129064,4.218100070953369,-1.5422111749649048,0.051600825041532516,1.9170448780059814,5.535609531193533,-0.008700398728251457,0.20508380234241486,-1.6379573980914515,-0.0,-0.006881832145154476,0.12856425344944,-0.0,0.04603838548064232,1.0030452013015747,-9.34972343788274e-21,0.07081689685583115
239.0,226.0,-3.3888,-1.1348,9.1932,-0.0619,0.0316,-0.1254,-2.1593433819212855,-0.0003201216459274292,4.16804838180542,-1.5419676303863525,0.05134040489792824,1.9806641340255737,5.535573529988088,-0.00718548521399498,0.21130752563476562,-1.6379531065570276,-0.0,-0.013812776654958725,0.12854023277759552,-0.0,0.048103079199790955,1.0029971599578857,-1.682917398229377e-24,0.07507810741662979
239.0,226.0,-3.3888,-1.1348,9.1932,-0.0619,0.0316,-0.1254,-2.15933956722402,-0.0002905870205722749,4.1731157302856445,-1.5417841672897339,0.050103940069675446,1.9227311611175537,5.535529124527731,-0.006482166238129139,0.19954752922058105,-1.6379531065570276,-0.0,-0.007591100409626961,0.12855231761932373,-0.0,0.04855155944824219,1.0029971599578857,-3.0291916907921725e-28,0.10716080665588379
233.0,219.0,-3.3637,-0.9135,8.7428,-0.0712,0.0664,-0.1206,-2.15933956722402,-0.00010870347614400089,4.15164041519165,-1.5414692163467407,0.047939494252204895,1.9413833618164062,5.535513567715444,-0.004714053589850664,0.19447076320648193,-1.6379411856280726,-0.0,-0.010313921608030796,0.12854424118995667,-0.0,0.05731534957885742,1.002972960472107,-7.315140375252962e-34,0.0535733699798584
233.0,219.0,-3.3637,-0.9135,8.7428,-0.0712,0.0664,-0.1206,-2.1593638859190882,-9.204646630678326e-05,4.150828838348389,-1.541297197341919,0.04625136777758598,1.9579732418060303,5.535468864231863,-0.0031123915687203407,0.18685707449913025,-1.6379650274859827,-0.0,-0.003965254873037338,0.1285123974084854,-0.0,0.038952507078647614,1.002993106842041,-1.3166994976443535e-37,0.10253995656967163
233.0,219.0,-3.3637,-0.9135,8.7428,-0.0712,0.0664,-0.1206,-2.159311433831686,-7.980207010405138e-05,4.140157699584961,-1.5411021709442139,0.04443371295928955,1.9514251947402954,5.535473334580221,-0.0018245176179334521,0.1965586543083191,-1.6379769484149378,-0.0,-0.01768719218671322,0.1285720318555832,-0.0,0.04493563622236252,1.0030529499053955,-3.1809475140173348e-43,0.09469099342823029
233.0,219.0,-3.3637,-0.9135,8.7428,-0.0712,0.0664,-0.1206,-2.1593638859190882,-7.330199878197163e-05,4.166980743408203,-1.5408542156219482,0.044090017676353455,1.8932607173919678,5.535433220654287,-0.0013549304567277431,0.1811518669128418,-1.6379573980914515,-0.0,-0.01705167442560196,0.12852813303470612,-0.0,0.04289267212152481,1.0030090808868408,0.0007697564433328807,0.12694264948368073
233.0,219.0,-3.3637,-0.9135,8.7428,-0.0712,0.0664,-0.1206,-2.159380098382467,-6.778114038752392e-05,4.182880878448486,-1.5406785011291504,0.04489228129386902,1.972543478012085,5.535441326885977,-0.0009433836676180363,0.1848660707473755,-1.6379531065570276,-0.0,-0.017246805131435394,0.12856030464172363,-0.0,0.056496232748031616,1.003032922744751,0.0006906577036716044,0.055047135800123215
233.0,219.0,-3.3637,-0.9135,8.7428,-0.0712,0.0664,-0.1206,-2.1594158611693324,-6.090104579925537e-05,4.125471115112305,-1.5404185056686401,0.046308714896440506,1.9825654029846191,5.535477506905355,-0.0013064710656180978,0.19883106648921967,-1.6379850546466272,-0.0,-0.019394174218177795,0.12861193716526031,-0.0,0.04367668554186821,1.002984881401062,0.0004990682355128229,0.07038938999176025
233.0,219.0,-3.3637,-0.9135,8.7428,-0.0712,0.0664,-0.1206,-2.1594282589354457,-8.542611612938344e-05,4.169468879699707,-1.5402144193649292,0.0478455051779747,1.9592337608337402,5.535457360535421,-0.0021897447295486927,0.19165287911891937,-1.6379688421832483,-0.0,-0.008870241232216358,0.1285163164138794,-0.0,0.05350466072559357,1.003024697303772,0.00042118848068639636,0.15873822569847107
233.0,219.0,-3.3637,-0.9135,8.7428,-0.0712,0.0664,-0.1206,-2.1593719921507777,-0.0001040545612340793,4.144996643066406,-1.5398746728897095,0.049146268516778946,1.9478328227996826,5.535417246609487,-0.0038849818520247936,0.1882690191268921,-1.6379650274859827,-0.0,-0.013880858197808266,0.12855638563632965,-0.0,0.07218606024980545,1.0030652284622192,0.0003413061785977334,0.06916540861129761
233.0,219.0,-3.3637,-0.9135,8.7428,-0.0712,0.0664,-0.1206,-2.159407754937643,-9.22077233553864e-05,4.169764041900635,-1.5397398471832275,0.05188113823533058,1.979218602180481,5.535413551121511,-0.005469443742185831,0.16516846418380737,-1.6379454771624964,-0.0,-0.013486022129654884,0.1285918653011322,-0.0,0.04261048138141632,1.0029726028442383,0.0003029978252016008,0.06082475185394287
233.0,219.0,-3.3637,-0.9135,8.7428,-0.0712,0.0664,-0.1206,-2.1593882046141566,-0.00012401102867443115,4.136528968811035,-1.5394477844238281,0.05109301954507828,1.9727636575698853,5.5353367803390405,-0.007528554182499647,0.17284278571605682,-1.637921158467428,-0.0,-0.0057863472029566765,0.12859588861465454,-0.0,0.03852716088294983,1.0030169486999512,0.0002724234072957188,0.06979535520076752
233.0,219.0,-3.3637,-0.9135,8.7428,-0.0712,0.0664,-0.1206,-2.159347196618551,-0.00018092113896273077,4.159038066864014,-1.5392569303512573,0.05327439680695534,1.9431467056274414,5.535288858204641,-0.011010143905878067,0.17972390353679657,-1.6379168669330042,-0.0,0.00391726940870285,0.12851224839687347,-0.0,0.04631074145436287,1.0030369758605957,0.0001971826422959566,0.0434407964348793
233.0,219.0,-3.3637,-0.9135,8.7428,-0.0712,0.0664,-0.1206,-2.159391542474264,-0.0005878592492081225,4.179189682006836,-1.539005160331726,0.055108558386564255,1.9320697784423828,5.535253155022421,-0.012696249410510063,0.1721261590719223,-1.6379049460040491,-0.0,-0.01035649050027132,0.12851224839687347,-0.0,0.046386782079935074,1.003005027770996,0.00018128706142306328,0.06212449446320534
233.0,219.0,-3.3637,-0.9135,8.7428,-0.0712,0.0664,-0.1206,-2.1594277820982875,-0.0005735128070227802,4.071536540985107,-1.5387648344039917,0.05719346925616264,1.9595075845718384,5.535184907704153,-0.014024261385202408,0.1777433604001999,-1.6379249731646937,-0.0,-0.01416434533894062,0.12853223085403442,-0.0,0.054122477769851685,1.0029971599578857,0.0001342342293355614,0.03409832715988159
233.0,219.0,-3.3637,-0.9135,8.7428,-0.0712,0.0664,-0.1206,-2.1594516239561976,-0.00043518110760487616,4.101863384246826,-1.5384421348571777,0.060963213443756104,1.950270175933838,5.535117018013754,-0.01731938123703003,0.1571250855922699,-1.6379368940936487,-0.0,-0.00998692773282528,0.1285281628370285,-0.0,0.05469713360071182,1.00304114818573,0.00012071349192410707,0.059044189751148224
233.0,219.0,-3.3637,-0.9135,8.7428,-0.0712,0.0664,-0.1206,-2.159415384332174,-0.0004155843926128,4.14189338684082,-1.5382227897644043,0.06331274658441544,1.9489257335662842,5.53502910116271,-0.02070692740380764,0.16817517578601837,-1.6379011313067835,-0.0,-0.0007026712992228568,0.12847618758678436,-0.0,0.046246569603681564,1.003021001815796,8.598670683568344e-05,0.021851062774658203
233.0,219.0,-3.3637,-0.9135,8.7428,-0.0712,0.0664,-0.1206,-2.159435888329977,-0.0003618667251430452,4.1207427978515625,-1.5378592014312744,0.0678839311003685,1.9560227394104004,5.534880685597219,-0.027383780106902122,0.16972661018371582,-1.637933079396383,-0.0,-0.009445165283977985,0.12854021787643433,-0.0,0.054107628762722015,1.0030171871185303,7.753547833999619e-05,0.018541252240538597
233.0,219.0,-3.3637,-0.9135,8.7428,-0.0712,0.0664,-0.1206,-2.159367700616354,-0.00032457488123327494,4.128138065338135,-1.5375995635986328,0.0698164850473404,1.9805420637130737,5.534756648331442,-0.035221513360738754,0.16967159509658813,-1.6379249731646937,-0.0,-0.005487313959747553,0.12857693433761597,-0.0,0.04800289869308472,1.003005027770996,7.3324037657585e-05,-0.008923042565584183
233.0,219.0,-3.3637,-0.9135,8.7428,-0.0712,0.0664,-0.1206,-2.1593595943846644,-0.0002942523860838264,4.135467529296875,-1.5372437238693237,0.07067225873470306,1.9479795694351196,5.5346648571784876,-0.04668533056974411,0.16041432321071625,-1.637893025075094,-0.0,-0.004079521168023348,0.12856437265872955,-0.0,0.05045284330844879,1.0030250549316406,-5.0799502787413076e-05,0.02704041451215744
233.0,219.0,-3.3637,-0.9135,8.7428,-0.0712,0.0664,-0.1206,-2.1594001255431117,-0.0002580868895165622,4.112876892089844,-1.5368406772613525,0.0702497735619545,1.9711893796920776,5.534308838635244,-0.07477309554815292,0.1560496985912323,-1.637937370930807,-0.0,-0.004325171932578087,0.12858396768569946,-0.0,0.064192034304142,1.0029488801956177,-6.956052675377578e-05,0.008152036927640438
245.0,203.0,-5.2313,-1.8317,9.4211,-0.0644,0.0664,-0.1107,-2.159391542474264,-0.00023854152823332697,4.107088565826416,-1.5365407466888428,0.06829502433538437,2.0043411254882812,5.533896136074819,-0.09722470492124557,0.14194099605083466,-1.637949291859762,-0.0,-0.0092838816344738,0.1285243034362793,-0.0,0.04965384304523468,1.002981185913086,-9.069123188965023e-05,-0.02337063103914261
245.0,203.0,-5.2313,-1.8317,9.4211,-0.0644,0.0664,-0.1107,-2.1594277820982875,-8.433663606410846e-05,4.070840358734131,-1.5361857414245605,0.06482699513435364,1.982229232788086,5.533203112870016,-0.12108524143695831,0.11947579681873322,-1.6379254500018519,-0.0,0.010985731147229671,0.12858396768569946,-0.0,0.05874061957001686,1.002972960472107,-0.0003625857934821397,-0.0210991483181715
245.0,203.0,-5.2313,-1.8317,9.4211,-0.0644,0.0664,-0.1107,-2.1593719921507777,-4.053068914799951e-05,4.086077690124512,-1.5359587669372559,0.060460370033979416,1.96968674659729,5.532714891224661,-0.1276427060365677,0.12922769784927368,-1.6379173437701624,-0.0,0.012429053895175457,0.12852030992507935,-0.0,0.05416913330554962,1.0029852390289307,-0.0004918083432130516,-0.07796114683151245
245.0,203.0,-5.2313,-1.8317,9.4211,-0.0644,0.0664,-0.1107,-2.1593638859190882,-3.354413274792023e-05,4.111670970916748,-1.5356708765029907,0.06017589569091797,1.9442243576049805,5.532146262913503,-0.13025739789009094,0.11122685670852661,-1.6378849188434046,0.00020892531028948724,0.006059547886252403,0.12852030992507935,-0.0,0.06474519520998001,1.0029809474945068,-0.0005310029373504221,-0.07507167756557465
245.0,203.0,-5.2313,-1.8317,9.4211,-0.0644,0.0664,-0.1107,-2.1593719921507777,-3.0169885576469824e-05,4.155945301055908,-1.5353754758834839,0.056718919426202774,1.909792423248291,5.531386601715841,-0.12579351663589478,0.12464877218008041,-1.637937370930807,0.0002596791891846806,0.0031169294379651546,0.12853208184242249,-0.0,0.04790657013654709,1.0030332803726196,-0.0004508096899371594,-0.10632748901844025
245.0,203.0,-5.2313,-1.8317,9.4211,-0.0644,0.0664,-0.1107,-2.1594039402403773,-2.8274271244299598e-05,4.091246128082275,-1.5350909233093262,0.056424207985401154,1.9880746603012085,5.5308501599128626,-0.1296970099210739,0.12613317370414734,-1.6379178206073206,0.0002658758021425456,0.004413457587361336,0.1285802572965622,-0.0,0.04644480347633362,1.0030090808868408,-0.0004006339586339891,-0.10965339839458466
245.0,203.0,-5.2313,-1.8317,9.4211,-0.0644,0.0664,-0.1107,-2.159395834008688,-6.865412433398888e-05,4.108668804168701,-1.5348196029663086,0.05611235648393631,1.995675802230835,5.529993700772085,-0.1476108580827713,0.10539659857749939,-1.6379254500018519,0.0002465838333591819,0.02148100733757019,0.1285281628370285,-0.0,0.04410165548324585,1.0030012130737305,-0.0003433175152167678,-0.16388586163520813
245.0,203.0,-5.2313,-1.8317,9.4211,-0.0644,0.0664,-0.1107,-2.1594721279540003,-9.487222268944606e-05,4.115056991577148,-1.534551978111267,0.05502171441912651,1.9953787326812744,5.529381441860952,-0.16091656684875488,0.10278642922639847,-1.6379454771624964,0.0003911729727406055,0.033238232135772705,0.12854814529418945,-0.0,0.044987794011831284,1.002984881401062,-0.0003134244179818779,-0.1795581728219986
245.0,203.0,-5.2313,-1.8317,9.4211,-0.0644,0.0664,-0.1107,-2.159407754937643,-0.00014164185267873108,4.0977888107299805,-1.5343436002731323,0.053301140666007996,1.966907262802124,5.528664874821462,-0.1687433272600174,0.08670522272586823,-1.6379335562335413,0.000366965658031404,0.024035301059484482,0.12851223349571228,-0.0,0.045062702149152756,1.0030169486999512,-0.0002769658458419144,-0.14215821027755737
245.0,203.0,-5.2313,-1.8317,9.4211,-0.0644,0.0664,-0.1107,-2.1594559154906214,-0.0028771727811545134,4.043941020965576,-1.5340803861618042,0.04931037127971649,1.9429677724838257,5.527580249100485,-0.1760890632867813,0.09032559394836426,-1.6378973166095179,0.0003684663097374141,0.026802215725183487,0.12851229310035706,-0.0,0.04061569273471832,1.0029971599578857,-0.00032528184237889946,-0.17926156520843506
245.0,203.0,-5.2313,-1.8317,9.4211,-0.0644,0.0664,-0.1107,-2.1594883404173792,-0.005152826197445393,4.057142734527588,-1.5338845252990723,0.047189392149448395,1.9828317165374756,5.52682791927413,-0.20368719100952148,0.06884025037288666,-1.6379097143756312,0.000341316859703511,0.017707912251353264,0.12853634357452393,-0.0,0.037725575268268585,1.0029488801956177,-0.000858275918290019,-0.19121849536895752
245.0,203.0,-5.2313,-1.8317,9.4211,-0.0644,0.0664,-0.1107,-2.159515996972555,-0.00984407402575016,4.06178617477417,-1.5335602760314941,0.04474161937832832,1.955777645111084,5.525482761650839,-0.23751437664031982,0.0653357282280922,-1.6379097143756312,0.0003758539678528905,0.026851020753383636,0.12852828204631805,-0.0,0.06412780284881592,1.002924919128418,-0.0019192956387996674,-0.16274398565292358
245.0,203.0,-5.2313,-1.8317,9.4211,-0.0644,0.0664,-0.1107,-2.159532209435934,-0.013200071640312672,4.060356140136719,-1.5334529876708984,0.0452825091779232,1.966092824935913,5.524498331337728,-0.24905671179294586,0.05061991512775421,-1.6378691832171839,0.0003910172381438315,0.029719427227973938,0.12859585881233215,-0.0,0.041526079177856445,1.0029292106628418,-0.0029088295996189117,-0.16666628420352936
245.0,203.0,-5.2313,-1.8317,9.4211,-0.0644,0.0664,-0.1107,-2.159628530541891,-0.010514635592699051,4.003978729248047,-1.5332447290420532,0.046427421271800995,1.95523202419281,5.523485171585836,-0.26402103900909424,0.0336628332734108,-1.6378610769854944,0.00040003820322453976,0.041928671300411224,0.1285242885351181,-0.0,0.041636496782302856,1.0029414892196655,-0.004092255607247353,-0.22036325931549072
245.0,203.0,-5.2313,-1.8317,9.4211,-0.0644,0.0664,-0.1107,-2.1596723995604457,-0.004552018363028765,4.013999938964844,-1.5329127311706543,0.04879532381892204,1.9569768905639648,5.5217928169067285,-0.29350170493125916,0.019532836973667145,-1.6378815809832972,0.00038400181801989675,0.040699608623981476,0.1285683810710907,-0.0,0.03730320930480957,1.0029127597808838,-0.00541981216520071,-0.2318217158317566
245.0,203.0,-5.2313,-1.8317,9.4211,-0.0644,0.0664,-0.1107,-2.1596275768675746,-0.002170374384149909,4.037412166595459,-1.5326968431472778,0.0511862151324749,1.985496163368225,5.520616459637441,-0.3030880093574524,0.01662488467991352,-1.6378896872149866,0.0003473426040727645,0.05144624412059784,0.12859182059764862,-0.0,0.048153284937143326,1.002893090248108,-0.00590262096375227,-0.27406051754951477
245.0,203.0,-5.2313,-1.8317,9.4211,-0.0644,0.0664,-0.1107,-2.15963139156484,-0.0013109011342749,4.057541847229004,-1.5324963331222534,0.05308762565255165,2.039661407470703,5.519347357540884,-0.331564724445343,0.005036605056375265,-1.6378734747516077,0.0003167714748997241,0.041507866233587265,0.12856435775756836,-0.0,0.039200544357299805,1.0029217004776,-0.005405559204518795,-0.24066081643104553
245.0,203.0,-5.2313,-1.8317,9.4211,-0.0644,0.0664,-0.1107,-2.159630914727682,-0.0012903197202831507,4.078742980957031,-1.5322134494781494,0.05204455554485321,1.9939630031585693,5.517177927284994,-0.35206732153892517,0.009131601080298424,-1.6378453413592737,0.0002933178038801998,0.03947897255420685,0.12857232987880707,-0.0,0.053301677107810974,1.0028817653656006,-0.004775820765644312,-0.25800877809524536
245.0,203.0,-5.2313,-1.8317,9.4211,-0.0644,0.0664,-0.1107,-2.159715791741842,-0.0038221401628106833,4.057094573974609,-1.5320097208023071,0.052242837846279144,1.952775001525879,5.515721070557394,-0.3790661692619324,-0.00978431012481451,-1.63786489168276,0.0002717216848395765,0.03968412056565285,0.1285758912563324,-0.0,0.054228976368904114,1.0028297901153564,-0.0047072675079107285,-0.2624194025993347
239.0,214.0,-4.1521,-0.9147,8.8863,0.1561,-0.2414,-0.1106,-2.1596957645811976,-0.005139546003192663,4.023622512817383,-1.5316734313964844,0.05000472813844681,1.9869391918182373,5.513375866204061,-0.40511834621429443,-0.03401162847876549,-1.6378539244281214,0.0002300828491570428,0.04897717386484146,0.12851238250732422,-0.0,0.06372880190610886,1.0027810335159302,-0.005720831453800201,-0.2535342276096344
239.0,214.0,-4.1521,-0.9147,8.8863,0.1561,-0.2414,-0.1106,-2.1597520313658656,-0.004795425571501255,4.043292045593262,-1.5314576625823975,0.04743862524628639,2.001678228378296,5.511650967388906,-0.4359353184700012,-0.05058832839131355,-1.6379178206073206,0.0002476194640621543,0.03437422215938568,0.1285242736339569,-0.0,0.04457180202007294,1.0028257369995117,-0.006465748883783817,-0.33808326721191406
239.0,214.0,-4.1521,-0.9147,8.8863,0.1561,-0.2414,-0.1106,-2.1597115002074183,-0.003020749194547534,4.047589302062988,-1.5312819480895996,0.046830568462610245,1.967947006225586,5.509938227921285,-0.4443645179271698,-0.04351114109158516,-1.6378496328936976,0.00022919682669453323,0.035840168595314026,0.12853214144706726,-0.0,0.04965541139245033,1.002761960029602,-0.007882927544414997,-0.3066432476043701
239.0,214.0,-4.1521,-0.9147,8.8863,0.1561,-0.2414,-0.1106,-2.159703393975729,-0.0005643469630740583,4.0539231300354,-1.5310343503952026,0.043627750128507614,1.9630577564239502,5.507192599564352,-0.4644731879234314,-0.05863182246685028,-1.6379135290728968,0.0002033143537119031,0.04502718150615692,0.1285683512687683,-0.0,0.04863815754652023,1.0026615858078003,-0.008967012166976929,-0.32961565256118774
239.0,214.0,-4.1521,-0.9147,8.8863,0.1561,-0.2414,-0.1106,-2.1597639522948207,-0.0001661754649830982,4.032354831695557,-1.5308504104614258,0.04240982607007027,1.9819167852401733,5.505339908390798,-0.48738521337509155,-0.06088533252477646,-1.6378496328936976,0.0002200319868279621,0.04038463905453682,0.1285524219274521,-0.0,0.050660982728004456,1.0026781558990479,-0.008921160362660885,-0.37566250562667847
