ramyac6/ROB537/final_project/csv/bad/bad_78.csv
tof_0,tof_1,accelx,accely,accelz,gyrox,gyroy,gyroz,shoulder_lift_joint_position,shoulder_lift_joint_velocity,shoulder_lift_joint_effort,elbow_joint_position,elbow_joint_velocity,elbow_joint_effort,wrist_1_joint_position,wrist_1_joint_velocity,wrist_1_joint_effort,wrist_2_joint_position,wrist_2_joint_velocity,wrist_2_joint_effort,wrist_3_joint_position,wrist_3_joint_velocity,wrist_3_joint_effort,shoulder_pan_joint_position,shoulder_pan_joint_velocity,shoulder_pan_joint_effort
167.0,191.0,5.4084,-0.7651,7.4285,-0.0354,0.0278,-0.1203,-1.7554618320860804,0.0,2.944908380508423,-1.3089572191238403,-0.0,2.1909351348876953,3.984801931972168,0.0,0.29065245389938354,-1.4376495520221155,0.0,-0.030140643939375877,0.7257835865020752,-0.0,-0.0022657765075564384,1.3680872917175293,0.0,-0.019673766568303108
167.0,191.0,5.4084,-0.7651,7.4285,-0.0354,0.0278,-0.1203,-1.7554213009276332,0.0,2.975762367248535,-1.3089613914489746,-0.0,2.166963577270508,3.984841509456299,0.0,0.2798641324043274,-1.4376738707171839,0.0,-0.023916207253932953,0.725787878036499,-0.0,-0.00303891533985734,1.3680992126464844,0.0,0.04650812968611717
167.0,191.0,5.4084,-0.7651,7.4285,-0.0354,0.0278,-0.1203,-1.755441804925436,0.0,2.967397451400757,-1.308905005455017,-0.0,2.22944712638855,3.9848663049885253,0.0,0.2823227643966675,-1.4376376310931605,0.0,-0.02660515159368515,0.7258156538009644,-0.0,0.0031512193381786346,1.3680909872055054,0.0,-0.03160853311419487
167.0,191.0,5.4084,-0.7651,7.4285,-0.0354,0.0278,-0.1203,-1.755425592462057,0.0,2.9819531440734863,-1.308896780014038,-0.0,2.199215888977051,3.984853907222412,0.0,0.27548497915267944,-1.4376614729510706,0.0,-0.016667142510414124,0.7258315086364746,-0.0,-0.004957676399499178,1.3681230545043945,0.0,-0.008774970658123493
167.0,191.0,5.4084,-0.7651,7.4285,-0.0354,0.0278,-0.1203,-1.7554742298521937,0.0,2.961376667022705,-1.308953046798706,-0.0,2.221325159072876,3.9848057466694335,0.0,0.2864432632923126,-1.4376896063434046,0.0,-0.024348661303520203,0.7257918119430542,-0.0,-0.008953547105193138,1.3681070804595947,0.0,-0.016924403607845306
167.0,191.0,5.4084,-0.7651,7.4285,-0.0354,0.0278,-0.1203,-1.7554131946959437,0.0,2.9737939834594727,-1.3089452981948853,-0.0,2.197439670562744,3.984813852901123,0.0,0.2754993438720703,-1.4376218954669397,0.0,-0.0014129944611340761,0.7257795333862305,-0.0,-0.008114795200526714,1.3680909872055054,0.0,-0.025372521951794624
168.0,197.0,5.3515,-0.7992,7.5075,-0.0385,0.0157,-0.1162,-1.7554661236205042,0.0,2.9902870655059814,-1.3088358640670776,-0.0,2.188455581665039,3.9848624902912597,0.0,0.28574565052986145,-1.4376495520221155,0.0,-0.02197303995490074,0.7257755994796753,-0.0,-0.016894329339265823,1.3681312799453735,0.0,-0.0036451094783842564
168.0,197.0,5.3515,-0.7992,7.5075,-0.0385,0.0157,-0.1162,-1.755437513391012,0.0,3.0036323070526123,-1.308920979499817,-0.0,2.1852951049804688,3.9848343568989257,0.0,0.2876296043395996,-1.4376495520221155,0.0,-0.03303784877061844,0.7257518768310547,-0.0,-0.012079291045665741,1.3681111335754395,0.0,0.022766895592212677
168.0,197.0,5.3515,-0.7992,7.5075,-0.0385,0.0157,-0.1162,-1.7554174862303675,0.0,3.00376558303833,-1.3088806867599487,-0.0,2.1869003772735596,3.984813852901123,0.0,0.2743927240371704,-1.4375861326800745,0.0,-0.02613690122961998,0.7258315086364746,-0.0,-0.010542702861130238,1.3680869340896606,0.0,0.04122757911682129
168.0,197.0,5.3515,-0.7992,7.5075,-0.0385,0.0157,-0.1162,-1.755409379998678,0.0,2.9964218139648438,-1.3088724613189697,-0.0,2.18746280670166,3.984842463130615,0.0,0.27589917182922363,-1.4376533667193812,0.0,-0.021864967420697212,0.7258555889129639,-0.0,0.0028902110643684864,1.3681230545043945,0.0,-0.02508433908224106
168.0,197.0,5.3515,-0.7992,7.5075,-0.0385,0.0157,-0.1162,-1.755425592462057,0.0,2.9661312103271484,-1.3088927268981934,-0.0,2.1689071655273438,3.984830065364502,0.0,0.28414130210876465,-1.4376338163958948,0.0,-0.029544834047555923,0.7258076667785645,-0.0,-0.003386378288269043,1.3681234121322632,0.0,-0.021416474133729935
168.0,197.0,5.3515,-0.7992,7.5075,-0.0385,0.0157,-0.1162,-1.7554661236205042,0.0,3.032559394836426,-1.3089168071746826,-0.0,2.2407495975494385,3.9848386484333496,0.0,0.2790301442146301,-1.4376652876483362,0.0,-0.008679024875164032,0.7257677316665649,-0.0,0.005732718389481306,1.3681193590164185,0.0,-0.020050616934895515
168.0,197.0,5.3515,-0.7992,7.5075,-0.0385,0.0157,-0.1162,-1.7554623089232386,0.0,2.980060338973999,-1.308912754058838,-0.0,2.18106746673584,3.984830065364502,0.0,0.27992066740989685,-1.43764573732485,0.0,-0.0067812735214829445,0.7258516550064087,-0.0,-0.0117888692766428,1.3681395053863525,0.0,-0.0016211632173508406
168.0,197.0,5.3515,-0.7992,7.5075,-0.0385,0.0157,-0.1162,-1.755481859246725,0.0,2.985910415649414,-1.3089045286178589,-0.0,2.211596965789795,3.9848100382038574,0.0,0.27914759516716003,-1.4376652876483362,0.0,-0.025987714529037476,0.7257717251777649,-0.0,-0.0022300181444734335,1.368103265762329,0.0,0.005551932379603386
168.0,197.0,5.3515,-0.7992,7.5075,-0.0385,0.0157,-0.1162,-1.7554899654784144,0.0,3.001378297805786,-1.3088724613189697,-0.0,2.2065701484680176,3.9848782259174804,0.0,0.28826582431793213,-1.4376533667193812,0.0,-0.013830812647938728,0.7258354425430298,-0.0,0.0017163134180009365,1.3681353330612183,0.0,0.021394401788711548
168.0,197.0,5.3515,-0.7992,7.5075,-0.0385,0.0157,-0.1162,-1.7554332218565882,0.0,3.007977247238159,-1.3088724613189697,-0.0,2.173321485519409,3.9847819048115234,0.0,0.2802514135837555,-1.437657658253805,0.0,-0.030198752880096436,0.7258753180503845,-0.0,-0.0074307722970843315,1.3681151866912842,0.0,0.00357979629188776
168.0,197.0,5.3515,-0.7992,7.5075,-0.0385,0.0157,-0.1162,-1.755437513391012,0.0,3.004315137863159,-1.3088724613189697,-0.0,2.206740140914917,3.984813852901123,0.0,0.2839442193508148,-1.437629524861471,0.0,-0.020276594907045364,0.725791871547699,-0.0,-0.018736785277724266,1.368086814880371,0.0,0.026379074901342392
168.0,197.0,5.3515,-0.7992,7.5075,-0.0385,0.0157,-0.1162,-1.75549378017568,0.0,2.970942974090576,-1.308912754058838,-0.0,2.205820083618164,3.9848100382038574,0.0,0.2874140739440918,-1.4376218954669397,0.0,-0.018240785226225853,0.7257757186889648,-0.0,-0.006913520861417055,1.3681029081344604,0.0,-0.018743060529232025
169.0,193.0,5.385,-0.8034,7.5559,-0.0318,0.0284,-0.1196,-1.7554661236205042,0.0,2.9699788093566895,-1.3088724613189697,-0.0,2.1529128551483154,3.9848458009907226,0.0,0.29118621349334717,-1.437641445790426,0.0,-0.02865869179368019,0.7258314490318298,-0.0,-0.017405718564987183,1.3681836128234863,0.0,0.022759927436709404
169.0,193.0,5.385,-0.8034,7.5559,-0.0318,0.0284,-0.1196,-1.755397459069723,0.0,2.983029365539551,-1.3089410066604614,-0.0,2.20263671875,3.9848458009907226,0.0,0.28178542852401733,-1.4376652876483362,0.0,-0.004649705719202757,0.7257756590843201,-0.0,-0.008029975928366184,1.368091106414795,0.0,-0.007261916995048523
169.0,193.0,5.385,-0.8034,7.5559,-0.0318,0.0284,-0.1196,-1.755481859246725,0.0,2.980506420135498,-1.3088765144348145,-0.0,2.236055612564087,3.9848663049885253,0.0,0.2803724408149719,-1.437641445790426,0.0,-0.027509910985827446,0.7257717251777649,-0.0,-0.009146198630332947,1.3681111335754395,0.0,-0.018649540841579437
169.0,193.0,5.385,-0.8034,7.5559,-0.0318,0.0284,-0.1196,-1.7554618320860804,0.0,2.9931530952453613,-1.3088971376419067,-0.0,2.1534907817840576,3.9848052698322753,0.0,0.28336408734321594,-1.4376533667193812,0.0,-0.02376481331884861,0.7258355021476746,-0.0,-0.006890719756484032,1.3680750131607056,0.0,0.005731290206313133
169.0,193.0,5.385,-0.8034,7.5559,-0.0318,0.0284,-0.1196,-1.7554213009276332,0.0,2.959467887878418,-1.308944821357727,-0.0,2.2265777587890625,3.98488633214917,0.0,0.2684701681137085,-1.4376533667193812,0.0,-0.021104417741298676,0.7257997393608093,-0.0,-0.006010889075696468,1.3680909872055054,0.0,-0.06607372313737869
169.0,193.0,5.385,-0.8034,7.5559,-0.0318,0.0284,-0.1196,-1.7554174862303675,0.0,3.0066566467285156,-1.308905005455017,-0.0,2.167898654937744,3.9848386484333496,0.0,0.2863549590110779,-1.437617603932516,0.0,-0.010370568372309208,0.7258155941963196,-0.0,-0.0003050460945814848,1.3681434392929077,0.0,-0.010114816948771477
169.0,193.0,5.385,-0.8034,7.5559,-0.0318,0.0284,-0.1196,-1.7554980717101039,0.0,2.9950029850006104,-1.308876633644104,-0.0,2.1863245964050293,3.9848100382038574,0.0,0.2919415831565857,-1.4376376310931605,0.0,-0.013068939559161663,0.7257438898086548,-0.0,-0.004550120793282986,1.3681234121322632,0.0,-0.004678202327340841
169.0,193.0,5.385,-0.8034,7.5559,-0.0318,0.0284,-0.1196,-1.7554332218565882,0.0,2.9888052940368652,-1.3089410066604614,-0.0,2.226722240447998,3.984853907222412,0.0,0.2845792770385742,-1.437629524861471,0.0,-0.02528601884841919,0.7257835865020752,-0.0,-0.006935933604836464,1.3681033849716187,0.0,0.053867071866989136
169.0,193.0,5.385,-0.8034,7.5559,-0.0318,0.0284,-0.1196,-1.7554456196227015,0.0,2.9412190914154053,-1.308912754058838,-0.0,2.1839613914489746,3.984801931972168,0.0,0.2843339145183563,-1.437629524861471,0.0,-0.013844937086105347,0.7258195877075195,-0.0,-0.017607348039746284,1.3680951595306396,0.0,0.0026229904033243656
169.0,193.0,5.385,-0.8034,7.5559,-0.0318,0.0284,-0.1196,-1.755437513391012,0.0,2.9765501022338867,-1.3088847398757935,-0.0,2.185147285461426,3.9848500925251464,0.0,0.2744021415710449,-1.4376218954669397,0.0,-0.00858538132160902,0.7258195877075195,-0.0,0.006233526393771172,1.3681474924087524,0.0,5.396828055381775e-05
169.0,193.0,5.385,-0.8034,7.5559,-0.0318,0.0284,-0.1196,-1.7554542026915492,0.0,2.994079113006592,-1.3088847398757935,-0.0,2.185748815536499,3.9848262506672363,0.0,0.28564533591270447,-1.4376495520221155,0.0,-0.018735235556960106,0.7258076667785645,-0.0,-0.016218097880482674,1.3681153059005737,0.0,0.011351997964084148
164.0,197.0,5.3916,-0.8471,7.5565,-0.0362,0.0217,-0.1219,-1.7554213009276332,0.0,2.982323169708252,-1.3089407682418823,-0.0,2.1591973304748535,3.984858198756836,0.0,0.28327107429504395,-1.437657658253805,0.0,-0.02657262235879898,0.7257878184318542,-0.0,0.0009474866092205048,1.368139386177063,0.0,-0.009704314172267914
164.0,197.0,5.3916,-0.8471,7.5565,-0.0362,0.0217,-0.1219,-1.7554055653014125,0.0,3.0014381408691406,-1.3089087009429932,-0.0,2.190234661102295,3.984785719508789,0.0,0.27699241042137146,-1.4376376310931605,0.0,-0.02187136560678482,0.7258595824241638,-0.0,-0.004713610280305147,1.3681230545043945,0.0,-0.02348260208964348
164.0,197.0,5.3916,-0.8471,7.5565,-0.0362,0.0217,-0.1219,-1.7554623089232386,0.0,3.007387638092041,-1.3089205026626587,-0.0,2.1723453998565674,3.984813852901123,0.0,0.2843624949455261,-1.437617603932516,0.0,-0.022993940860033035,0.7258155941963196,-0.0,-0.019492167979478836,1.3680872917175293,0.0,0.01850038766860962
164.0,197.0,5.3916,-0.8471,7.5565,-0.0362,0.0217,-0.1219,-1.7554213009276332,0.0,2.9979710578918457,-1.3088765144348145,-0.0,2.2238709926605225,3.9848176675983886,0.0,0.2863371670246124,-1.4376495520221155,0.0,-0.02992502972483635,0.7258477210998535,-0.0,-0.007831169292330742,1.368147611618042,0.0,0.04485459625720978
164.0,197.0,5.3916,-0.8471,7.5565,-0.0362,0.0217,-0.1219,-1.7554174862303675,0.0,3.0105643272399902,-1.3089531660079956,-0.0,2.177431344985962,3.9848825174519042,0.0,0.27784547209739685,-1.4375980536090296,0.0,-0.01995297148823738,0.7257916331291199,-0.0,-0.013894197531044483,1.3681111335754395,0.0,0.017837492749094963
164.0,197.0,5.3916,-0.8471,7.5565,-0.0362,0.0217,-0.1219,-1.7554055653014125,0.0,3.0200021266937256,-1.308916449546814,-0.0,2.1835532188415527,3.9848343568989257,0.0,0.28833436965942383,-1.437641445790426,0.0,-0.01956106722354889,0.725767195224762,-0.0,-0.0029068011790513992,1.3681111335754395,0.0,-0.019285770133137703
164.0,197.0,5.3916,-0.8471,7.5565,-0.0362,0.0217,-0.1219,-1.755441804925436,0.0,2.959780216217041,-1.3088440895080566,-0.0,2.1988184452056885,3.984813852901123,0.0,0.28448912501335144,-1.4376733938800257,0.0,-0.013273521326482296,0.7257916927337646,-0.0,-0.009386086836457253,1.3680827617645264,0.0,-0.00872613862156868
164.0,197.0,5.3916,-0.8471,7.5565,-0.0362,0.0217,-0.1219,-1.7554055653014125,0.0,2.983875036239624,-1.3089205026626587,-0.0,2.1894776821136475,3.9848500925251464,0.0,0.2926573157310486,-1.43766957918276,0.0,-0.010948551818728447,0.725803554058075,-0.0,-0.00994902290403843,1.368147611618042,0.0,0.0032967410515993834
164.0,197.0,5.3916,-0.8471,7.5565,-0.0362,0.0217,-0.1219,-1.7554332218565882,0.0,2.981800079345703,-1.3088558912277222,-0.0,2.202580690383911,3.9848219591328125,0.0,0.2894218862056732,-1.4376376310931605,0.0,-0.02709665521979332,0.7258037328720093,-0.0,0.0057217334397137165,1.3681074380874634,0.0,0.008053767494857311
164.0,197.0,5.3916,-0.8471,7.5565,-0.0362,0.0217,-0.1219,-1.7554055653014125,0.0,2.981563091278076,-1.3089288473129272,-0.0,2.2222084999084473,3.984797640437744,0.0,0.28526169061660767,-1.437641445790426,0.0,-0.01584576815366745,0.7258076071739197,-0.0,-0.005795462988317013,1.3680791854858398,0.0,0.02865493856370449
164.0,197.0,5.3916,-0.8471,7.5565,-0.0362,0.0217,-0.1219,-1.755441804925436,0.0,2.990339517593384,-1.3089008331298828,-0.0,2.1816904544830322,3.984830065364502,0.0,0.2800312042236328,-1.43764573732485,0.0,-0.018416546285152435,0.7258315682411194,-0.0,0.002513774437829852,1.3681352138519287,0.0,0.019851261749863625
168.0,188.0,5.342,-0.8417,7.4955,-0.0325,0.0267,-0.1174,-1.755437513391012,0.0,2.9994454383850098,-1.3089287281036377,-0.0,2.2154595851898193,3.9848100382038574,0.0,0.28938499093055725,-1.4376218954669397,0.0,-0.0127405421808362,0.7257999181747437,-0.0,-0.0029265510383993387,1.3681188821792603,0.0,0.021153125911951065
168.0,188.0,5.342,-0.8417,7.4955,-0.0325,0.0267,-0.1174,-1.7554012737669886,0.0,2.9547853469848633,-1.3089087009429932,-0.0,2.1765122413635254,3.984785719508789,0.0,0.27693453431129456,-1.43766957918276,0.0,-0.026537515223026276,0.7258114218711853,-0.0,-0.018091659992933273,1.3681230545043945,0.0,0.04016835615038872
168.0,188.0,5.342,-0.8417,7.4955,-0.0325,0.0267,-0.1174,-1.7554661236205042,0.0,2.9985451698303223,-1.308896780014038,-0.0,2.173060178756714,3.9848458009907226,0.0,0.2858656346797943,-1.437657658253805,0.0,-0.006316210143268108,0.7258277535438538,-0.0,-0.006079545244574547,1.3680791854858398,0.0,0.005096506327390671
168.0,188.0,5.342,-0.8417,7.4955,-0.0325,0.0267,-0.1174,-1.7554332218565882,0.0,2.9886884689331055,-1.3089087009429932,-0.0,2.1828668117523193,3.984846754665039,0.0,0.28482288122177124,-1.437629524861471,0.0,-0.024751752614974976,0.7258437275886536,-0.0,-0.009687003679573536,1.3681271076202393,0.0,-0.0055076745338737965
168.0,188.0,5.342,-0.8417,7.4955,-0.0325,0.0267,-0.1174,-1.755441804925436,0.0,2.9918057918548584,-1.3088682889938354,-0.0,2.2252838611602783,3.9848663049885253,0.0,0.2985731363296509,-1.4376733938800257,0.0,-0.010035442188382149,0.7258240580558777,-0.0,-0.009583557024598122,1.3681111335754395,0.0,0.007441418245434761
168.0,188.0,5.342,-0.8417,7.4955,-0.0325,0.0267,-0.1174,-1.7554780445494593,0.0,2.97428035736084,-1.308896780014038,-0.0,2.2081356048583984,3.9848458009907226,0.0,0.28765758872032166,-1.4376533667193812,0.0,-0.011148126795887947,0.7257835268974304,-0.0,-0.0028626476414501667,1.3681111335754395,0.0,-0.0006472351960837841
168.0,188.0,5.342,-0.8417,7.4955,-0.0325,0.0267,-0.1174,-1.7554213009276332,0.0,2.9939799308776855,-1.308912754058838,-0.0,2.194359302520752,3.984858198756836,0.0,0.2787720561027527,-1.4376218954669397,0.0,-0.02209305390715599,0.7257794141769409,-0.0,-0.0025831609964370728,1.3680992126464844,0.0,-0.008456490933895111
168.0,188.0,5.342,-0.8417,7.4955,-0.0325,0.0267,-0.1174,-1.7554456196227015,0.0,2.9643547534942627,-1.308905005455017,-0.0,2.200289726257324,3.9848262506672363,0.0,0.2953296899795532,-1.4376533667193812,0.0,-0.026517082005739212,0.7258356213569641,-0.0,-0.015851017087697983,1.3681111335754395,0.0,0.024028491228818893
168.0,188.0,5.342,-0.8417,7.4955,-0.0325,0.0267,-0.1174,-1.7554174862303675,0.0,2.986734628677368,-1.3089287281036377,-0.0,2.218080997467041,3.984841509456299,0.0,0.2849491834640503,-1.437641445790426,0.0,-0.01744646206498146,0.7258355617523193,-0.0,-0.008453432470560074,1.368131160736084,0.0,0.004736286122351885
168.0,188.0,5.342,-0.8417,7.4955,-0.0325,0.0267,-0.1174,-1.755470415154928,0.0,2.920050859451294,-1.308912754058838,-0.0,2.185229539871216,3.984853907222412,0.0,0.2847084403038025,-1.4376376310931605,0.0,-0.028924252837896347,0.7258920669555664,-0.0,0.008188171312212944,1.3681312799453735,0.0,-0.006546735297888517
168.0,188.0,5.342,-0.8417,7.4955,-0.0325,0.0267,-0.1174,-1.7554499111571253,0.0,2.9620888233184814,-1.3088806867599487,-0.0,2.1780991554260254,3.9847938257404785,0.0,0.2870180010795593,-1.4376338163958948,0.0,-0.017791496589779854,0.7257753014564514,-0.0,-0.018196890130639076,1.368091106414795,0.0,0.036853231489658356
168.0,188.0,5.342,-0.8417,7.4955,-0.0325,0.0267,-0.1174,-1.7554456196227015,0.0,2.9510655403137207,-1.3089531660079956,-0.0,2.146918535232544,3.984853907222412,0.0,0.2985021471977234,-1.4376137892352503,0.0,-0.024564456194639206,0.7257794141769409,-0.0,-0.005115820094943047,1.3681188821792603,0.0,-0.04190968722105026
165.0,189.0,5.3318,-0.8118,7.483,-0.0283,0.0226,-0.1213,-1.7554499111571253,0.0,3.0125222206115723,-1.308920979499817,-0.0,2.2030885219573975,3.9848057466694335,0.0,0.2798057794570923,-1.4376257101642054,0.0,-0.02048937976360321,0.7257630228996277,-0.0,-0.010188465937972069,1.3680791854858398,0.0,-0.05232022702693939
165.0,189.0,5.3318,-0.8118,7.483,-0.0283,0.0226,-0.1213,-1.755409379998678,0.0,2.973806381225586,-1.308953046798706,-0.0,2.2238006591796875,3.984841509456299,0.0,0.28727251291275024,-1.4376614729510706,0.0,-0.030711762607097626,0.7258195877075195,-0.0,0.007888407446444035,1.368103265762329,0.0,0.04856296628713608
165.0,189.0,5.3318,-0.8118,7.483,-0.0283,0.0226,-0.1213,-1.7554213009276332,0.0,2.9875710010528564,-1.308924674987793,-0.0,2.2001166343688965,3.9848262506672363,0.0,0.28584960103034973,-1.4375937620746058,0.0,-0.017040863633155823,0.7258236408233643,-0.0,-0.003656808752566576,1.368103265762329,0.0,-0.024145832285284996
165.0,189.0,5.3318,-0.8118,7.483,-0.0283,0.0226,-0.1213,-1.7554294071593226,0.0,2.9685494899749756,-1.3088197708129883,-0.0,2.228285789489746,3.9848176675983886,0.0,0.27935606241226196,-1.43766957918276,0.0,-0.02397514134645462,0.7258236408233643,-0.0,0.0034278188832104206,1.3681151866912842,0.0,0.002748347818851471
165.0,189.0,5.3318,-0.8118,7.483,-0.0283,0.0226,-0.1213,-1.755409379998678,0.0,2.9531943798065186,-1.3089369535446167,-0.0,2.172070026397705,3.9848386484333496,0.0,0.2766762375831604,-1.43766957918276,0.0,-0.022355809807777405,0.7258114218711853,-0.0,-0.010959548875689507,1.3681111335754395,0.0,0.0017728614620864391
165.0,189.0,5.3318,-0.8118,7.483,-0.0283,0.0226,-0.1213,-1.7554499111571253,0.0,2.9578638076782227,-1.3088847398757935,-0.0,2.2195241451263428,3.9847981172749023,0.0,0.28216755390167236,-1.437617603932516,-1.2116095626790724e-10,-0.01554698497056961,0.7258355617523193,-0.0,-0.01809573546051979,1.3680790662765503,0.0,-0.030087696388363838
165.0,189.0,5.3318,-0.8118,7.483,-0.0283,0.0226,-0.1213,-1.7554332218565882,0.0,2.960175037384033,-1.3088642358779907,-0.0,2.1859993934631348,3.9847656923481445,0.0,0.28112661838531494,-1.4376333395587366,1.0236542948405258e-05,-0.009787133894860744,0.7258195877075195,-0.0,0.000654744915664196,1.3681271076202393,0.0,-0.007142207585275173
165.0,189.0,5.3318,-0.8118,7.483,-0.0283,0.0226,-0.1213,-1.7554499111571253,0.0,2.951714038848877,-1.308905005455017,-0.0,2.137289524078369,3.984813852901123,0.0,0.2930447459220886,-1.437657658253805,1.8604411067268956e-10,-0.01483065914362669,0.7258560657501221,-0.0,-0.01781315915286541,1.3681474924087524,0.0,-0.03666581213474274
165.0,189.0,5.3318,-0.8118,7.483,-0.0283,0.0226,-0.1213,-1.7553774319090785,0.0,3.0243730545043945,-1.3089691400527954,-0.0,2.175541877746582,3.984851046199463,0.0,0.29065415263175964,-1.437641445790426,3.3812593871996536e-15,-0.02639056369662285,0.725831925868988,-0.0,-4.0947459638118744e-05,1.368131160736084,0.0,0.009407032281160355
165.0,189.0,5.3318,-0.8118,7.483,-0.0283,0.0226,-0.1213,-1.7554542026915492,0.0,2.9815268516540527,-1.3088889122009277,-0.0,2.200446128845215,3.9848176675983886,0.0,0.285001277923584,-1.437617603932516,6.145272112203054e-20,-0.0224916934967041,0.7257671356201172,-0.0,-0.0014052512124180794,1.3680869340896606,0.0,0.015584052540361881
165.0,189.0,5.3318,-0.8118,7.483,-0.0283,0.0226,-0.1213,-1.7553736172118128,0.0,3.0100760459899902,-1.3088847398757935,-0.0,2.229271173477173,3.984818144435547,0.0,0.28707772493362427,-1.4376338163958948,1.1168729180935952e-24,-0.019996456801891327,0.7257875800132751,-0.0,-0.012156380340456963,1.3681434392929077,0.0,0.027171600610017776
169.0,193.0,5.327,-0.7998,7.654,-0.0264,0.0179,-0.1168,-1.7554542026915492,0.0,3.0173232555389404,-1.3089488744735718,-0.0,2.1907312870025635,3.9848219591328125,0.0,0.28209128975868225,-1.4376533667193812,2.0298615501298778e-29,-0.017104292288422585,0.7258559465408325,-0.0,-0.002852093894034624,1.3680992126464844,0.0,0.018395133316516876
169.0,193.0,5.327,-0.7998,7.654,-0.0264,0.0179,-0.1168,-1.7554336986937464,0.0,2.9182772636413574,-1.3089008331298828,-0.0,2.2049734592437744,3.984801931972168,0.0,0.2847822904586792,-1.437641445790426,3.6891733073305903e-34,-0.02428022027015686,0.7258076667785645,-0.0,-0.0029907147400081158,1.3681352138519287,0.0,-0.012969870120286942
169.0,193.0,5.327,-0.7998,7.654,-0.0264,0.0179,-0.1168,-1.755441804925436,0.0,2.985640525817871,-1.3089087009429932,-0.0,2.21492862701416,3.9848100382038574,0.0,0.2752823233604431,-1.437629524861471,6.70488945184899e-39,-0.029170654714107513,0.7257633805274963,-0.0,0.007943613454699516,1.3681148290634155,0.0,0.0020188891794532537
169.0,193.0,5.327,-0.7998,7.654,-0.0264,0.0179,-0.1168,-1.7554174862303675,0.0,2.9694466590881348,-1.3088563680648804,-0.0,2.1941323280334473,3.9848500925251464,0.0,0.27486148476600647,-1.4376533667193812,1.2191296639625909e-43,-0.01645464263856411,0.725803554058075,-0.0,-0.004476114641875029,1.3681111335754395,0.0,-0.0395195409655571
169.0,193.0,5.327,-0.7998,7.654,-0.0264,0.0179,-0.1168,-1.7554089031615199,0.0,2.947877883911133,-1.3088806867599487,-0.0,2.203004837036133,3.984874411220215,0.0,0.28680288791656494,-1.4376376310931605,0.0,-0.019336845725774765,0.7258400321006775,-0.0,-0.0006213334854692221,1.368103265762329,0.0,-0.001631763530895114
169.0,193.0,5.327,-0.7998,7.654,-0.0264,0.0179,-0.1168,-1.7554580173888148,0.0,2.9876739978790283,-1.3089045286178589,-0.0,2.1983795166015625,3.9848386484333496,0.0,0.2746868133544922,-1.4376338163958948,0.0,-0.029000146314501762,0.7258036136627197,-0.0,-0.0022130096331238747,1.3681193590164185,0.0,0.0060903881676495075
169.0,193.0,5.327,-0.7998,7.654,-0.0264,0.0179,-0.1168,-1.7554332218565882,0.0,2.9779462814331055,-1.3088642358779907,-0.0,2.1979198455810547,3.984858198756836,0.0,0.27958011627197266,-1.4376533667193812,0.0,-0.021234437823295593,0.7258478999137878,-0.0,-0.0006884557660669088,1.368139386177063,0.0,-0.044039368629455566
169.0,193.0,5.327,-0.7998,7.654,-0.0264,0.0179,-0.1168,-1.755437513391012,0.0,2.999083995819092,-1.308941125869751,-0.0,2.1577932834625244,3.9848624902912597,0.0,0.29878365993499756,-1.437657658253805,0.0,-0.005973790772259235,0.725831925868988,-0.0,-0.009580439887940884,1.3681353330612183,0.0,-0.013244458474218845
169.0,193.0,5.327,-0.7998,7.654,-0.0264,0.0179,-0.1168,-1.7554499111571253,0.0,2.9834423065185547,-1.3088806867599487,-0.0,2.2056477069854736,3.9848262506672363,0.0,0.2717377245426178,-1.4376533667193812,0.0,-0.01644786074757576,0.7258195877075195,-0.0,0.0028218626976013184,1.368091106414795,0.0,0.012698769569396973
169.0,193.0,5.327,-0.7998,7.654,-0.0264,0.0179,-0.1168,-1.7554055653014125,0.0,3.0010972023010254,-1.308961272239685,-0.0,2.1874332427978516,3.9848500925251464,0.0,0.2870670557022095,-1.43764573732485,0.0,-0.012286870740354061,0.725868284702301,-0.0,-0.0054857973009347916,1.3681271076202393,0.0,-0.013622907921671867
169.0,193.0,5.327,-0.7998,7.654,-0.0264,0.0179,-0.1168,-1.755413671533102,0.0,3.0121800899505615,-1.308932900428772,-0.0,2.1996312141418457,3.984858198756836,0.0,0.29753732681274414,-1.437657658253805,0.0,-0.028621047735214233,0.7258195877075195,-0.0,-0.006178381387144327,1.368103265762329,0.0,-0.025434885174036026
168.0,195.0,5.3366,-0.7801,7.5308,-0.0345,0.0228,-0.1199,-1.7554542026915492,0.0,2.96063232421875,-1.3088682889938354,-0.0,2.214812755584717,3.9848176675983886,0.0,0.28394439816474915,-1.4376218954669397,0.0,-0.0231001153588295,0.7258277535438538,-0.0,-0.007949629798531532,1.3680709600448608,0.0,-0.019245238974690437
168.0,195.0,5.3366,-0.7801,7.5308,-0.0345,0.0228,-0.1199,-1.7554785213866175,0.0,2.978341579437256,-1.3089287281036377,-0.0,2.1819543838500977,3.984853907222412,0.0,0.2850843071937561,-1.4376218954669397,0.0,-0.025412999093532562,0.7258356213569641,-0.0,-0.0003086347132921219,1.3681188821792603,0.0,0.013821100816130638
168.0,195.0,5.3366,-0.7801,7.5308,-0.0345,0.0228,-0.1199,-1.755441804925436,0.0,2.9733169078826904,-1.3089697360992432,-0.0,2.1909098625183105,3.9848782259174804,0.0,0.2816821038722992,-1.437641445790426,0.0,-0.023878734558820724,0.7258155345916748,-0.0,-0.01896371878683567,1.3681312799453735,0.0,-0.009083523415029049
168.0,195.0,5.3366,-0.7801,7.5308,-0.0345,0.0228,-0.1199,-1.7554580173888148,0.0,2.969876527786255,-1.3088966608047485,-0.0,2.216491937637329,3.9848386484333496,0.0,0.2872411608695984,-1.437657658253805,0.0,-0.02817509137094021,0.7258437275886536,-0.0,0.0012250076979398727,1.3681714534759521,0.0,0.012489927932620049
168.0,195.0,5.3366,-0.7801,7.5308,-0.0345,0.0228,-0.1199,-1.7554298839964808,0.0,2.9845900535583496,-1.3089613914489746,-0.0,2.231924057006836,3.9848057466694335,0.0,0.2697145640850067,-1.437641445790426,0.0,-0.01963398978114128,0.7258355617523193,-0.0,-0.003071540966629982,1.3680951595306396,0.0,0.01667560636997223
168.0,195.0,5.3366,-0.7801,7.5308,-0.0345,0.0228,-0.1199,-1.7554456196227015,0.0,2.9438581466674805,-1.3088887929916382,-0.0,2.2122607231140137,3.984813852901123,0.0,0.27763277292251587,-1.4376815001117151,0.0,-0.019205991178750992,0.7257753610610962,-0.0,-0.0009307507425546646,1.368103265762329,0.0,-0.019760681316256523
168.0,195.0,5.3366,-0.7801,7.5308,-0.0345,0.0228,-0.1199,-1.7554460964598597,0.0,2.987399101257324,-1.3089288473129272,-0.0,2.1847212314605713,3.9848500925251464,0.0,0.29121261835098267,-1.4376533667193812,0.0,-0.028604112565517426,0.7258437871932983,-0.0,-0.012791326269507408,1.3681151866912842,0.0,-0.006294987630099058
168.0,195.0,5.3366,-0.7801,7.5308,-0.0345,0.0228,-0.1199,-1.7554899654784144,0.0,2.982728958129883,-1.3089327812194824,-0.0,2.1732001304626465,3.9848620134541015,0.0,0.28150421380996704,-1.43766957918276,0.0,-0.01387056801468134,0.725831925868988,-0.0,-0.009445810690522194,1.3680750131607056,0.0,0.026591524481773376
168.0,195.0,5.3366,-0.7801,7.5308,-0.0345,0.0228,-0.1199,-1.7553893528380335,0.0,2.9563145637512207,-1.308932900428772,-0.0,2.167907238006592,3.9848386484333496,0.0,0.27449938654899597,-1.43766957918276,0.0,-0.021356182172894478,0.7258076071739197,-0.0,-0.003924370743334293,1.3680946826934814,0.0,-0.019343141466379166
168.0,195.0,5.3366,-0.7801,7.5308,-0.0345,0.0228,-0.1199,-1.7554699383177699,0.0,2.9796600341796875,-1.308896780014038,-0.0,2.1954259872436523,3.9848219591328125,0.0,0.2920030951499939,-1.43764573732485,0.0,-0.011861816048622131,0.7257875800132751,-0.0,-0.013115123845636845,1.368086814880371,0.0,-0.006166709586977959
168.0,195.0,5.3366,-0.7801,7.5308,-0.0345,0.0228,-0.1199,-1.7553769550719203,0.0,2.9878387451171875,-1.308936595916748,-0.0,2.2098169326782227,3.9848176675983886,0.0,0.2884874641895294,-1.4376257101642054,0.0,-0.00970142986625433,0.7257875204086304,-0.0,-0.005879927426576614,1.3681230545043945,0.0,0.049177657812833786
168.0,195.0,5.3366,-0.7801,7.5308,-0.0345,0.0228,-0.1199,-1.755369325677389,0.0,2.9994475841522217,-1.3089169263839722,-0.0,2.2204370498657227,3.984813852901123,0.0,0.2737232744693756,-1.437629524861471,0.0,-0.008037708699703217,0.7258236408233643,-0.0,-0.005406815558671951,1.3681594133377075,0.0,0.022806011140346527
170.0,199.0,5.3085,-1.014,7.5302,-0.0426,0.0064,-0.1055,-1.7553893528380335,0.0,2.9934842586517334,-1.308944821357727,-0.0,2.1949214935302734,3.984785719508789,0.0,0.29130932688713074,-1.437657658253805,0.0,-0.02612156979739666,0.7258396744728088,-0.0,-0.004098376724869013,1.3681188821792603,0.0,0.0021709809079766273
170.0,199.0,5.3085,-1.014,7.5302,-0.0426,0.0064,-0.1055,-1.7554298839964808,0.0,3.014878511428833,-1.3089008331298828,-0.0,2.2003602981567383,3.9848386484333496,0.0,0.2771386504173279,-1.4376376310931605,0.0,-0.028650596737861633,0.7257995009422302,-0.0,-0.009785270318388939,1.3680988550186157,0.0,0.02275799959897995
170.0,199.0,5.3085,-1.014,7.5302,-0.0426,0.0064,-0.1055,-1.7554055653014125,0.0,2.964110851287842,-1.308896780014038,-0.0,2.1439380645751953,3.9848458009907226,0.0,0.28906798362731934,-1.4376099745379847,0.0,-0.01868462562561035,0.7258036136627197,-0.0,-0.012830695137381554,1.3680951595306396,0.0,-0.03704920411109924
170.0,199.0,5.3085,-1.014,7.5302,-0.0426,0.0064,-0.1055,-1.7554542026915492,0.0,3.004446029663086,-1.3089090585708618,-0.0,2.194613218307495,3.984870596522949,0.0,0.27633845806121826,-1.437617603932516,0.0,-0.02891966700553894,0.7257634401321411,-0.0,-0.003922631032764912,1.368131160736084,0.0,0.024903206154704094
170.0,199.0,5.3085,-1.014,7.5302,-0.0426,0.0064,-0.1055,-1.755441804925436,0.0,2.9301443099975586,-1.3089251518249512,-0.0,2.1597580909729004,3.9848343568989257,0.0,0.27844515442848206,-1.437657658253805,0.0,-0.022297974675893784,0.7258195281028748,-0.0,-0.00467122346162796,1.3681312799453735,0.0,0.004510452970862389
170.0,199.0,5.3085,-1.014,7.5302,-0.0426,0.0064,-0.1055,-1.7554623089232386,0.0,2.9950501918792725,-1.308868169784546,-0.0,2.196401596069336,3.9848500925251464,0.0,0.285836398601532,-1.4376218954669397,0.0,-0.01334710419178009,0.7257835268974304,-0.0,-0.00774635374546051,1.3681635856628418,0.0,-0.016421472653746605
170.0,199.0,5.3085,-1.014,7.5302,-0.0426,0.0064,-0.1055,-1.7554332218565882,0.0,2.9708921909332275,-1.3088806867599487,-0.0,2.1368486881256104,3.984837694759033,0.0,0.2864420711994171,-1.4376218954669397,0.0,-0.02181469276547432,0.725823700428009,-0.0,-0.0030778252985328436,1.3681111335754395,0.0,-0.011242859996855259
170.0,199.0,5.3085,-1.014,7.5302,-0.0426,0.0064,-0.1055,-1.7554131946959437,0.0,2.981876850128174,-1.308912754058838,-0.0,2.189868927001953,3.984830065364502,0.0,0.2716038227081299,-1.437629524861471,0.0,-0.01740436628460884,0.7257753610610962,-0.0,-0.0005970846395939589,1.368091106414795,0.0,0.006147655658423901
170.0,199.0,5.3085,-1.014,7.5302,-0.0426,0.0064,-0.1055,-1.7554699383177699,0.0,3.003261089324951,-1.3088682889938354,-0.0,2.225433111190796,3.9848496156879882,0.0,0.29463890194892883,-1.4376338163958948,0.0,-0.014731572940945625,0.7257753014564514,-0.0,-0.00910094566643238,1.3681188821792603,0.0,-0.05534685403108597
170.0,199.0,5.3085,-1.014,7.5302,-0.0426,0.0064,-0.1055,-1.7554499111571253,0.0,2.9713282585144043,-1.3088281154632568,-0.0,2.2034809589385986,3.984813852901123,0.0,0.2737398147583008,-1.4376376310931605,0.0,-0.009834283962845802,0.7258158326148987,-0.0,-0.0015669282292947173,1.3681271076202393,0.0,0.011131925508379936
170.0,199.0,5.3085,-1.014,7.5302,-0.0426,0.0064,-0.1055,-1.7554055653014125,0.0,2.9942421913146973,-1.3089045286178589,-0.0,2.1852807998657227,3.9848500925251464,0.0,0.28561556339263916,-1.4376533667193812,0.0,-0.004231706727296114,0.7257672548294067,-0.0,0.0019578742794692516,1.3681230545043945,0.0,-0.022139545530080795
170.0,193.0,5.2792,-0.9338,7.7252,-0.0205,-0.0064,-0.1289,-1.7554580173888148,0.0,2.9816842079162598,-1.308905005455017,-0.0,2.2144222259521484,3.9848458009907226,0.0,0.27149152755737305,-1.437657658253805,0.0,-0.02657850831747055,0.725860059261322,-0.0,-0.004529058933258057,1.3680951595306396,0.0,-0.03191559016704559
170.0,193.0,5.2792,-0.9338,7.7252,-0.0205,-0.0064,-0.1289,-1.755413671533102,0.0,3.0141468048095703,-1.308912754058838,-0.0,2.1755852699279785,3.984870596522949,0.0,0.2825663685798645,-1.437685791646139,0.0,-0.019136393442749977,0.7257835865020752,-0.0,-0.005191076546907425,1.3681352138519287,0.0,-0.05922865495085716
170.0,193.0,5.2792,-0.9338,7.7252,-0.0205,-0.0064,-0.1289,-1.7553774319090785,0.0,2.957472085952759,-1.3089168071746826,-0.0,2.153315305709839,3.9848057466694335,0.0,0.27264896035194397,-1.437617603932516,0.0,-0.02631218731403351,0.7258155345916748,-0.0,-0.012719701044261456,1.3681353330612183,0.0,0.02901649847626686
170.0,193.0,5.2792,-0.9338,7.7252,-0.0205,-0.0064,-0.1289,-1.755437513391012,0.0,2.9884212017059326,-1.3089488744735718,-0.0,2.19176983833313,3.9848262506672363,0.0,0.28388693928718567,-1.4376018683062952,0.0,-0.010807015001773834,0.7258036136627197,-0.0,-0.008978031575679779,1.3681111335754395,0.0,-0.04641281068325043
170.0,193.0,5.2792,-0.9338,7.7252,-0.0205,-0.0064,-0.1289,-1.7554174862303675,0.0,2.99619722366333,-1.3089008331298828,-0.0,2.208683967590332,3.9848057466694335,0.0,0.28571659326553345,-1.437629524861471,0.0,-0.010274494998157024,0.7258355617523193,-0.0,-0.011493988335132599,1.3681271076202393,0.0,0.04271223396062851
170.0,193.0,5.2792,-0.9338,7.7252,-0.0205,-0.0064,-0.1289,-1.7554742298521937,0.0,2.9869251251220703,-1.308860182762146,-0.0,2.227703332901001,3.9848663049885253,0.0,0.2778357267379761,-1.4376652876483362,0.0,-0.005036506801843643,0.7258356213569641,-0.0,-0.003894414287060499,1.3681230545043945,0.0,-0.018701301887631416
170.0,193.0,5.2792,-0.9338,7.7252,-0.0205,-0.0064,-0.1289,-1.7554213009276332,0.0,2.9813570976257324,-1.308941125869751,-0.0,2.2068088054656982,3.9848458009907226,0.0,0.28261128067970276,-1.4376376310931605,0.0,-0.03809776529669762,0.7258117198944092,-0.0,-0.00830951426178217,1.3681151866912842,0.0,-0.013362047262489796
170.0,193.0,5.2792,-0.9338,7.7252,-0.0205,-0.0064,-0.1289,-1.7554780445494593,0.0,2.9248781204223633,-1.3089570999145508,-0.0,2.188650131225586,3.984853907222412,0.0,0.2746207118034363,-1.4376614729510706,0.0,-0.019697703421115875,0.725731372833252,-0.0,-0.007299932651221752,1.3680992126464844,0.0,-0.008920656517148018
170.0,193.0,5.2792,-0.9338,7.7252,-0.0205,-0.0064,-0.1289,-1.7554298839964808,0.0,2.9843289852142334,-1.3089407682418823,-0.0,2.2058377265930176,3.984813852901123,0.0,0.27741581201553345,-1.437641445790426,0.0,-0.027609677985310555,0.7257753610610962,-0.0,-0.0044405204243958,1.3680790662765503,0.0,-0.027250833809375763
170.0,193.0,5.2792,-0.9338,7.7252,-0.0205,-0.0064,-0.1289,-1.7554213009276332,0.0,2.9512622356414795,-1.3088642358779907,-0.0,2.1828975677490234,3.984797640437744,0.0,0.2884365916252136,-1.43764573732485,0.0,-0.013401545584201813,0.7257916927337646,-0.0,-0.01755550131201744,1.3681718111038208,0.0,0.008447461761534214
170.0,193.0,5.2792,-0.9338,7.7252,-0.0205,-0.0064,-0.1289,-1.755441804925436,0.0,2.97629714012146,-1.3089855909347534,-0.0,2.2298951148986816,3.984801931972168,0.0,0.2824922502040863,-1.4376495520221155,0.0,-0.00897359848022461,0.7258277535438538,-0.0,0.0028769143391400576,1.3681271076202393,0.0,-0.046222127974033356
169.0,192.0,5.4455,-1.0504,7.5757,-0.046,0.1352,-0.1309,-1.7554899654784144,0.0,2.9575538635253906,-1.3089008331298828,-0.0,2.1631364822387695,3.984870596522949,0.0,0.2831381857395172,-1.43764573732485,0.0,-0.027227800339460373,0.725820004940033,-0.0,-0.01249381247907877,1.3681594133377075,0.0,0.03621647134423256
169.0,192.0,5.4455,-1.0504,7.5757,-0.046,0.1352,-0.1309,-1.755470415154928,0.0,3.0247085094451904,-1.3088518381118774,-0.0,2.1671457290649414,3.984813852901123,0.0,0.2939019203186035,-1.437641445790426,0.0,-0.01066496316343546,0.7257753610610962,-0.0,-0.009264947846531868,1.3681434392929077,0.0,0.01083136722445488
169.0,192.0,5.4455,-1.0504,7.5757,-0.046,0.1352,-0.1309,-1.755397459069723,0.0,3.0119614601135254,-1.3089287281036377,-0.0,2.1772820949554443,3.984841509456299,0.0,0.2767016589641571,-1.4376733938800257,0.0,-0.025596316903829575,0.7258155345916748,-0.0,0.0002237074077129364,1.3681474924087524,0.0,-0.017030764371156693
169.0,192.0,5.4455,-1.0504,7.5757,-0.046,0.1352,-0.1309,-1.7554623089232386,0.0,2.945619583129883,-1.3088927268981934,-0.0,2.2100915908813477,3.984813852901123,0.0,0.2833543121814728,-1.4376533667193812,0.0,-0.017887642607092857,0.7257434129714966,-0.0,0.007562598679214716,1.3681271076202393,0.0,-0.052772361785173416
169.0,192.0,5.4455,-1.0504,7.5757,-0.046,0.1352,-0.1309,-1.7554580173888148,0.0,3.003613233566284,-1.308912754058838,-0.0,2.184929609298706,3.9848057466694335,0.0,0.27880382537841797,-1.4376137892352503,0.0,-0.02468922734260559,0.7257592678070068,-0.0,-0.0028566331602633,1.3681553602218628,0.0,0.0015906018670648336
169.0,192.0,5.4455,-1.0504,7.5757,-0.046,0.1352,-0.1309,-1.7554213009276332,0.0,2.980562448501587,-1.308888554573059,-0.0,2.212445020675659,3.984853907222412,0.0,0.2854914963245392,-1.4375980536090296,0.0,-0.010312787257134914,0.7258437871932983,-0.0,-0.001577362883836031,1.3680791854858398,0.0,-0.0031632445752620697
169.0,192.0,5.4455,-1.0504,7.5757,-0.046,0.1352,-0.1309,-1.7553893528380335,0.0,3.0378942489624023,-1.308920979499817,-0.0,2.1835412979125977,3.98488633214917,0.0,0.29194405674934387,-1.437629524861471,0.0,-0.012795235961675644,0.7258239984512329,-0.0,0.004445919767022133,1.3681230545043945,0.0,-0.0060013532638549805
169.0,192.0,5.4455,-1.0504,7.5757,-0.046,0.1352,-0.1309,-1.7554499111571253,0.0,2.9617366790771484,-1.308896780014038,-0.0,2.19919490814209,3.9848100382038574,0.0,0.2864551246166229,-1.4376614729510706,0.0,-0.022274406626820564,0.7258076667785645,-0.0,-0.015857189893722534,1.3680992126464844,0.0,0.019719775766134262
169.0,192.0,5.4455,-1.0504,7.5757,-0.046,0.1352,-0.1309,-1.7554580173888148,0.0,2.9689488410949707,-1.3088196516036987,-0.0,2.228177070617676,3.9848782259174804,0.0,0.28704261779785156,-1.4376533667193812,0.0,-0.004264295566827059,0.7258195877075195,-0.0,-0.011923257261514664,1.3681029081344604,0.0,0.014810092747211456
169.0,192.0,5.4455,-1.0504,7.5757,-0.046,0.1352,-0.1309,-1.7554336986937464,0.0,2.971616744995117,-1.3089168071746826,3.2474922750935775e-10,2.2403523921966553,3.984837694759033,0.0,0.29174667596817017,-1.4377010504352015,0.0,-0.01584148034453392,0.7258036136627197,-0.0,0.001088026911020279,1.3681029081344604,0.0,-0.020481768995523453
169.0,192.0,5.4455,-1.0504,7.5757,-0.046,0.1352,-0.1309,-1.7554336986937464,0.0,3.0187954902648926,-1.3088847398757935,0.0007978658541105688,2.175868511199951,3.984874411220215,0.0,0.2794414758682251,-1.43764573732485,0.0,-0.01844852790236473,0.7258036136627197,-0.0,0.012368994764983654,1.3681151866912842,0.0,-0.01424044743180275
169.0,192.0,5.4455,-1.0504,7.5757,-0.046,0.1352,-0.1309,-1.7553774319090785,0.0007716408581472933,3.0190038681030273,-1.3088403940200806,0.00046718682278878987,2.193129539489746,3.9848624902912597,0.0,0.27297115325927734,-1.4376652876483362,0.0,-0.025226198136806488,0.7258155345916748,-0.0,-0.011120607145130634,1.3681631088256836,0.0,-0.03704281896352768
167.0,196.0,5.5155,-0.7567,7.2054,-0.0264,0.0057,-0.1173,-1.7553817234435023,0.0014850870938971639,3.014155149459839,-1.3088278770446777,0.0003300662210676819,2.1629703044891357,3.984830065364502,0.0,0.2877289950847626,-1.4376099745379847,0.0,-0.016889769583940506,0.725827693939209,-0.0,-0.006640608422458172,1.3681467771530151,0.0,0.014194998890161514
167.0,196.0,5.5155,-0.7567,7.2054,-0.0264,0.0057,-0.1173,-1.7553655109801234,0.0011099972762167454,2.9484517574310303,-1.308896780014038,0.00025518261827528477,2.220552921295166,3.9848663049885253,0.0,0.293815016746521,-1.43764573732485,0.0,-0.017179349437355995,0.7258355021476746,-0.0,-0.0063382103107869625,1.3680987358093262,0.0003591228451114148,0.006161825731396675
167.0,196.0,5.5155,-0.7567,7.2054,-0.0264,0.0057,-0.1173,-1.75535311321401,0.0007106672273948789,2.949261426925659,-1.3088889122009277,0.00013912715076003224,2.1793100833892822,3.984853907222412,0.0,0.2805885672569275,-1.437692944203512,0.0,-0.017910409718751907,0.7257995009422302,-0.0,0.005085986573249102,1.3681590557098389,0.0002836617932189256,0.012737097218632698
167.0,196.0,5.5155,-0.7567,7.2054,-0.0264,0.0057,-0.1173,-1.7553898296751917,0.00018617585010360926,2.952878475189209,-1.3088806867599487,-8.367610280402005e-05,2.2146785259246826,3.984870596522949,0.0,0.28163719177246094,-1.4376700560199183,0.0,-0.014744197949767113,0.7258113622665405,-0.0,-0.012507755309343338,1.368139386177063,0.00023440485529135913,-0.010709688998758793
167.0,196.0,5.5155,-0.7567,7.2054,-0.0264,0.0057,-0.1173,-1.7553731403746546,7.250209455378354e-05,2.945852756500244,-1.3088724613189697,-0.00010584713163552806,2.1750001907348633,3.984858198756836,0.0,0.27599745988845825,-1.437641445790426,0.0,-0.016454799100756645,0.725831925868988,-0.0,0.0034388292115181684,1.3681789636611938,0.00019972417794633657,0.011584479361772537
167.0,196.0,5.5155,-0.7567,7.2054,-0.0264,0.0057,-0.1173,-1.755413671533102,5.0263479351997375e-05,2.9813642501831055,-1.3088889122009277,-0.00012157449964433908,2.165883779525757,3.9848500925251464,0.0,0.280461847782135,-1.43764573732485,0.0,-0.013089308515191078,0.7258273363113403,-0.0,-0.008022420108318329,1.3681230545043945,0.00017398355703335255,-0.016036055982112885
167.0,196.0,5.5155,-0.7567,7.2054,-0.0264,0.0057,-0.1173,-1.7554012737669886,4.1084571421379223e-05,2.988617420196533,-1.3088641166687012,-0.00010743468737928197,2.1598849296569824,3.9848381715961914,0.0,0.28554069995880127,-1.4376652876483362,0.0,-0.02651268243789673,0.7258117198944092,-0.0,0.006937501486390829,1.3680988550186157,0.00015412064385600388,-0.0077469972893595695
167.0,196.0,5.5155,-0.7567,7.2054,-0.0264,0.0057,-0.1173,-1.7553607426085414,3.4740551200229675e-05,2.9790735244750977,-1.3089008331298828,-9.597752068657428e-05,2.167721748352051,3.9848663049885253,0.0,0.27226388454437256,-1.437657658253805,0.0,-0.033792831003665924,0.7258195877075195,-0.0,-0.0034808176569640636,1.368139386177063,0.00013832836702931672,0.019217494875192642
167.0,196.0,5.5155,-0.7567,7.2054,-0.0264,0.0057,-0.1173,-1.7553898296751917,3.009389365615789e-05,2.974465847015381,-1.3088806867599487,-8.139436249621212e-05,2.1743133068084717,3.98483054220166,0.0,0.2874828279018402,-1.4376733938800257,0.0,-0.024925418198108673,0.7257672548294067,-0.0,0.0008655930869281292,1.3681312799453735,0.00012548299855552614,-0.026611464098095894
167.0,196.0,5.5155,-0.7567,7.2054,-0.0264,0.0057,-0.1173,-1.7554379902281703,2.6543564672465436e-05,2.977224826812744,-1.3088806867599487,-0.00010336848208680749,2.207059144973755,3.9848500925251464,0.0,0.28865310549736023,-1.4376533667193812,0.0,-0.022336700931191444,0.7258076667785645,-0.0,-0.020257771015167236,1.3681230545043945,0.00011480192915769294,-0.05368402972817421
167.0,196.0,5.5155,-0.7567,7.2054,-0.0264,0.0057,-0.1173,-1.7553650341429652,2.3742575649521314e-05,3.018366813659668,-1.3088806867599487,-8.965542656369507e-05,2.19162917137146,3.9848663049885253,0.0,0.2803654372692108,-1.43766957918276,0.0,-0.01123344898223877,0.7257957458496094,-0.0,-0.004233755171298981,1.3681029081344604,0.00010580447997199371,0.08536724746227264
166.0,191.0,5.1852,-0.8865,7.5547,-0.0521,0.0218,-0.1229,-1.755413671533102,3.461293829332135e-08,2.974628448486328,-1.3088806867599487,6.507099169539288e-05,2.1329150199890137,3.9848500925251464,0.0,0.283011257648468,-1.43764573732485,0.0,-0.014351679012179375,0.7259162068367004,-0.0,-0.007327960804104805,1.3681352138519287,9.811499330680817e-05,0.01476149633526802
166.0,191.0,5.1852,-0.8865,7.5547,-0.0521,0.0218,-0.1229,-1.755409379998678,1.1214151885945828e-15,2.9736573696136475,-1.308920979499817,1.7566781362887696e-11,2.1582093238830566,3.9848458009907226,0.0,0.285749614238739,-1.4376819769488733,0.0,-0.027043089270591736,0.7258478403091431,-0.0,-0.0016349353827536106,1.3681352138519287,9.146743832388893e-05,0.0009214282035827637
166.0,191.0,5.1852,-0.8865,7.5547,-0.0521,0.0218,-0.1229,-1.7554179630675257,3.633243102768844e-23,2.950430393218994,-1.3088926076889038,5.691414136719576e-19,2.205364942550659,3.9848496156879882,0.0,0.27002397179603577,-1.437657658253805,0.0,-0.017826851457357407,0.7258036136627197,-0.0,-0.01175424363464117,1.3681188821792603,8.566347241867334e-05,0.009870858862996101
166.0,191.0,5.1852,-0.8865,7.5547,-0.0521,0.0218,-0.1229,-1.7554179630675257,1.1771243383089117e-30,3.0418238639831543,-1.3088560104370117,1.8439460340681867e-26,2.165337562561035,3.984797640437744,0.0,0.2741565704345703,-1.437617603932516,0.0,-0.014806058257818222,0.7257916331291199,-0.0,-0.0037463349290192127,1.3681635856628418,8.055219223024324e-05,-0.03898738697171211
166.0,191.0,5.1852,-0.8865,7.5547,-0.0521,0.0218,-0.1229,-1.7554098568358363,3.8137332628509567e-38,3.0100667476654053,-1.3088889122009277,5.97415019515932e-34,2.2264347076416016,3.9848458009907226,0.0,0.2870456278324127,-1.437641445790426,0.0,-0.030615681782364845,0.725831925868988,-0.0,0.00018745765555649996,1.368139386177063,7.601648394484073e-05,0.06023217737674713
166.0,191.0,5.1852,-0.8865,7.5547,-0.0521,0.0218,-0.1229,-1.7553731403746546,1.401298464324817e-45,2.9823708534240723,-1.3089572191238403,1.9356135687718698e-41,2.199167490005493,3.9848663049885253,0.0,0.2919626832008362,-1.4376338163958948,0.0,-0.020947229117155075,0.7257590293884277,-0.0,-0.000259248074144125,1.368131160736084,7.196438673418015e-05,0.032649874687194824
166.0,191.0,5.1852,-0.8865,7.5547,-0.0521,0.0218,-0.1229,-1.755385538140768,0.0,2.963949203491211,-1.3089370727539062,-0.0,2.19905424118042,3.9848458009907226,0.0,0.2710205316543579,-1.4376495520221155,0.0,-0.032289888709783554,0.725831925868988,-0.0,-0.005530642811208963,1.368106722831726,6.832239159848541e-05,-0.009890330955386162
166.0,191.0,5.1852,-0.8865,7.5547,-0.0521,0.0218,-0.1229,-1.7553817234435023,0.0,2.986431121826172,-1.3088805675506592,-0.0,2.1699652671813965,3.9847895342060546,0.0,0.28015220165252686,-1.4376652876483362,0.0,-0.026675553992390633,0.7258277535438538,-0.0,-0.002001581247895956,1.3681870698928833,6.503126496681944e-05,0.02061763033270836
166.0,191.0,5.1852,-0.8865,7.5547,-0.0521,0.0218,-0.1229,-1.7553731403746546,0.0,2.9653537273406982,-1.3089090585708618,-0.0,2.2049009799957275,3.984797640437744,0.0,0.2870696187019348,-1.4376819769488733,0.0,-0.020678602159023285,0.725831925868988,-0.0,-0.003115044441074133,1.3680946826934814,6.204266537679359e-05,0.0009642243385314941
166.0,191.0,5.1852,-0.8865,7.5547,-0.0521,0.0218,-0.1229,-1.75541414837026,0.0,2.972783088684082,-1.3089369535446167,-0.0,2.172407865524292,3.9848057466694335,0.0,0.28782185912132263,-1.4376495520221155,0.0,-0.020617878064513206,0.7258039116859436,-0.0,-0.0057939328253269196,1.3680946826934814,6.908512659720145e-06,-0.011069594882428646
166.0,191.0,5.1852,-0.8865,7.5547,-0.0521,0.0218,-0.1229,-1.7553774319090785,0.0004996528732590377,2.9499878883361816,-1.3089168071746826,-0.0,2.216008186340332,3.9848500925251464,0.0,0.28369230031967163,-1.4376614729510706,0.0,-0.014766687527298927,0.7258236408233643,-0.0,-0.007504785433411598,1.3681511878967285,2.238270604016518e-13,-0.04535914584994316
166.0,191.0,5.1852,-0.8865,7.5547,-0.0521,0.0218,-0.1229,-1.7553616962828578,0.001017538015730679,3.0176467895507812,-1.308920979499817,-0.0,2.200662612915039,3.9848176675983886,0.0,0.2732243239879608,-1.4376257101642054,0.0,-0.011636652052402496,0.7257956862449646,-0.0,-0.004365547560155392,1.368139386177063,7.251711484493398e-21,-0.0064038680866360664
166.0,195.0,5.3892,-1.0618,7.538,-0.029,0.0273,-0.1043,-1.7553535900511683,0.002666305284947157,2.966250419616699,-1.3089410066604614,-0.0,2.2241365909576416,3.9848458009907226,0.0,0.28971031308174133,-1.4376853148089808,0.0,-0.016213521361351013,0.7258195877075195,-0.0,-0.015538495033979416,1.3681148290634155,2.349461920681162e-28,-0.03274436295032501
166.0,195.0,5.3892,-1.0618,7.538,-0.029,0.0273,-0.1043,-1.7552854023375453,0.006893566809594631,2.9827585220336914,-1.3089008331298828,-0.0,2.196451187133789,3.9848343568989257,0.0,0.28549253940582275,-1.4376819769488733,0.0,-0.017270509153604507,0.72581547498703,-0.0,-0.0030720157083123922,1.3681511878967285,5.168951702216873e-06,-0.006253845989704132
166.0,195.0,5.3892,-1.0618,7.538,-0.029,0.0273,-0.1043,-1.7552529774107875,0.008101031184196472,2.9950337409973145,-1.3088560104370117,-0.0,2.1505837440490723,3.9847895342060546,0.0,0.28408461809158325,-1.4376533667193812,0.0,-0.03060392662882805,0.7258478403091431,-0.0,0.006141985766589642,1.3681390285491943,1.6746745320778827e-13,0.030053745955228806
166.0,195.0,5.3892,-1.0618,7.538,-0.029,0.0273,-0.1043,-1.7551971874632777,0.005074898712337017,2.9893455505371094,-1.3088889122009277,-0.0,2.1620750427246094,3.984830065364502,0.0,0.298353910446167,-1.43766957918276,0.0,-0.015719659626483917,0.7258076071739197,-0.0,-0.010380055755376816,1.3681508302688599,5.42573249660568e-21,-0.02705974504351616
166.0,195.0,5.3892,-1.0618,7.538,-0.029,0.0273,-0.1043,-1.7551452122130335,0.004127828404307365,2.963886260986328,-1.3089168071746826,-0.0,2.1733317375183105,3.984886808986328,0.0,0.2914546728134155,-1.4376495520221155,0.0,-0.036875322461128235,0.7257916331291199,-0.0,-0.0010756737319752574,1.3681583404541016,0.0004037180042359978,0.009280604310333729
166.0,195.0,5.3892,-1.0618,7.538,-0.029,0.0273,-0.1043,-1.7551332912840785,0.006041259970515966,2.9888672828674316,-1.3088847398757935,-0.0,2.165208578109741,3.9848343568989257,0.0,0.2901086211204529,-1.4376657644854944,0.0,-0.01839601993560791,0.7257713079452515,-0.0,-0.009582286700606346,1.3681992292404175,0.00032525716233067214,-0.02960124984383583
166.0,195.0,5.3892,-1.0618,7.538,-0.029,0.0273,-0.1043,-1.7550937137999476,0.005874022841453552,3.0215203762054443,-1.3089293241500854,-0.0,2.192826747894287,3.9848458009907226,0.0,0.2810136079788208,-1.4376776854144495,0.0,-0.022452399134635925,0.7258199453353882,-0.0,0.001314567169174552,1.3681665658950806,0.0003057838184759021,0.03573223203420639
166.0,195.0,5.3892,-1.0618,7.538,-0.029,0.0273,-0.1043,-1.7550488911070765,0.003678508335724473,2.9929797649383545,-1.3088889122009277,-0.0,2.199735641479492,3.9848219591328125,0.0,0.2872138023376465,-1.437641445790426,0.0,-0.027321623638272285,0.7258036136627197,-0.0,-0.013629874214529991,1.3681190013885498,0.00029264730983413756,0.025632483884692192
166.0,195.0,5.3892,-1.0618,7.538,-0.029,0.0273,-0.1043,-1.7550975284972132,0.0019644806161522865,2.9850378036499023,-1.3089087009429932,-0.0,2.2536799907684326,3.984874411220215,0.0,0.2847333252429962,-1.4376533667193812,0.0,-0.00203615240752697,0.725803554058075,-0.0,-0.0025780124124139547,1.3681508302688599,0.00025345178437419236,-0.02589782327413559
166.0,195.0,5.3892,-1.0618,7.538,-0.029,0.0273,-0.1043,-1.7550250492491664,0.0008949348120950162,2.9865834712982178,-1.3089090585708618,-0.0,2.1630382537841797,3.9848500925251464,0.0,0.2899076044559479,-1.437641445790426,0.0,-0.020761532709002495,0.7258076667785645,-0.0,-0.011314244009554386,1.368182897567749,0.00020684658375103027,-0.027408238500356674
166.0,195.0,5.3892,-1.0618,7.538,-0.029,0.0273,-0.1043,-1.7550250492491664,0.0005705311778001487,3.0194201469421387,-1.3089287281036377,-0.0,2.182377338409424,3.9848944383808593,0.0,0.2921081483364105,-1.4376376310931605,0.0,-0.02297455444931984,0.7257713079452515,-0.0,-0.01488586887717247,1.3681590557098389,0.00017471984028816223,0.05224205553531647
167.0,195.0,5.2744,-0.9081,7.5679,-0.0528,0.0305,-0.1243,-1.7550250492491664,0.00047857585013844073,2.985222578048706,-1.3088889122009277,-0.0,2.2284345626831055,3.9848386484333496,0.0,0.2710421085357666,-1.437641445790426,0.0,-0.027443481609225273,0.7258723974227905,-0.0,-0.008934528566896915,1.3681830167770386,0.0001512317539891228,-0.02201722376048565
167.0,195.0,5.2744,-0.9081,7.5679,-0.0528,0.0305,-0.1243,-1.755016943017477,0.00037807031185366213,2.9448962211608887,-1.3089250326156616,-0.0,2.2032082080841064,3.984785719508789,0.0,0.285948783159256,-1.4376853148089808,0.0,-0.02368231490254402,0.7258597016334534,-0.0,-0.006709414534270763,1.3681467771530151,0.00013331073569133878,0.016260065138339996
167.0,195.0,5.2744,-0.9081,7.5679,-0.0528,0.0305,-0.1243,-1.7550412617125453,0.0003124398645013571,2.985643148422241,-1.3088481426239014,-0.0,2.176691770553589,3.9848782259174804,0.0,0.279818058013916,-1.437657658253805,0.0,-0.01576443575322628,0.72581547498703,-0.0,-0.0033927010372281075,1.3681467771530151,0.00016590295126661658,-0.011526932939887047
167.0,195.0,5.2744,-0.9081,7.5679,-0.0528,0.0305,-0.1243,-1.7550488911070765,0.00023294783022720367,3.000619649887085,-1.308941125869751,-0.0,2.2018401622772217,3.984830065364502,0.0,0.2826688587665558,-1.4376772085772913,0.0,-0.018307333812117577,0.7258277535438538,-0.0,-0.006964968051761389,1.3681707382202148,0.00027499848511070013,-0.011441558599472046
167.0,195.0,5.2744,-0.9081,7.5679,-0.0528,0.0305,-0.1243,-1.7550693951048792,3.071142782573588e-05,2.980678081512451,-1.308912754058838,-0.0,2.1744794845581055,3.9848782259174804,0.0,0.29754766821861267,-1.437657658253805,0.0,-0.015339496545493603,0.7257470488548279,-0.0,0.007821897976100445,1.3682591915130615,0.0013482938520610332,0.03864547237753868
167.0,195.0,5.2744,-0.9081,7.5679,-0.0528,0.0305,-0.1243,-1.7550693951048792,2.889643385683982e-12,2.9464879035949707,-1.308912754058838,-0.0,2.2140750885009766,3.984813852901123,0.0,0.27697548270225525,-1.4376853148089808,0.0,-0.024382812902331352,0.7258478403091431,-0.0,0.008223319426178932,1.3682067394256592,0.0014210742665454745,0.06590554863214493
167.0,195.0,5.2744,-0.9081,7.5679,-0.0528,0.0305,-0.1243,-1.7550727329649867,9.362076701784623e-20,2.978257894515991,-1.308896780014038,-0.0,2.2067837715148926,3.9848343568989257,0.0,0.2824636399745941,-1.4377453962909144,0.0,-0.007548780646175146,0.7258437275886536,-0.0,-0.006060002371668816,1.3681902885437012,0.001625116216018796,-0.01996464468538761
167.0,195.0,5.2744,-0.9081,7.5679,-0.0528,0.0305,-0.1243,-1.7550851307311,3.0331938695131064e-27,2.9988396167755127,-1.3089287281036377,-0.0,2.1772584915161133,3.984797640437744,0.0,0.28292152285575867,-1.4376772085772913,-8.206806523958221e-05,-0.027271097525954247,0.7258315086364746,-0.0,0.003980513196438551,1.3682628870010376,0.0019162605749443173,0.0381590873003006
167.0,195.0,5.2744,-0.9081,7.5679,-0.0528,0.0305,-0.1243,-1.7550813160338343,9.827161471466873e-35,2.9711532592773438,-1.3088642358779907,-0.0,2.1509361267089844,3.9848500925251464,0.0,0.28040415048599243,-1.4376700560199183,-7.650650513824075e-05,-0.02134917862713337,0.7258477807044983,-0.0,-0.00921010971069336,1.3682587146759033,0.002210543490946293,0.0017845025286078453
167.0,195.0,5.2744,-0.9081,7.5679,-0.0528,0.0305,-0.1243,-1.7551094494261683,3.1837501109459844e-42,2.944347381591797,-1.308924674987793,-0.0,2.244011163711548,3.984801931972168,0.0,0.2863917946815491,-1.4376896063434046,-7.163490954553708e-05,-0.022658705711364746,0.725827693939209,-0.0,0.009869882836937904,1.3682386875152588,0.001714163925498724,0.0017956076189875603
167.0,195.0,5.2744,-0.9081,7.5679,-0.0528,0.0305,-0.1243,-1.755056997338766,0.0,2.951437473297119,-1.3089287281036377,-0.0,2.1870503425598145,3.984874411220215,0.0,0.28856414556503296,-1.4377015272723597,-6.734655471518636e-05,-0.019481102004647255,0.7258597016334534,-0.0,0.004759464878588915,1.368270993232727,0.0010173205519095063,-0.02344977855682373
167.0,189.0,5.6345,-0.3165,7.6881,-0.0211,-0.0015,-0.121,-1.7551175556578578,-0.00018349511083215475,2.969761848449707,-1.308888554573059,-0.0,2.1743476390838623,3.984841509456299,0.0,0.28947097063064575,-1.4376934210406702,-6.35427059023641e-05,-0.024493103846907616,0.7258478403091431,-0.0,-0.00873967818915844,1.3682869672775269,0.0005095835658721626,-0.021457118913531303
167.0,189.0,5.6345,-0.3165,7.6881,-0.0211,-0.0015,-0.121,-1.7551175556578578,-0.00018931481463368982,2.9655966758728027,-1.308905005455017,-0.0,2.206439256668091,3.9848334032246093,0.0,0.28862181305885315,-1.437657658253805,-4.891245407634415e-05,-0.02813926711678505,0.7258355617523193,-0.0,-0.01806488260626793,1.3682267665863037,0.00028053781716153026,0.016851555556058884
167.0,189.0,5.6345,-0.3165,7.6881,-0.0211,-0.0015,-0.121,-1.75510897258901,-0.00014784822997171432,2.9979286193847656,-1.3089573383331299,-0.0,2.1789705753326416,3.9848343568989257,0.0,0.2738942503929138,-1.4376376310931605,-4.5674576540477574e-05,-0.021754372864961624,0.7257916927337646,-0.0,-0.0026780159678310156,1.3682271242141724,0.00021386078151408583,0.007014633156359196
167.0,189.0,5.6345,-0.3165,7.6881,-0.0211,-0.0015,-0.121,-1.7551056347289027,-0.00012320639507379383,2.9791340827941895,-1.3088724613189697,-0.0,2.1769042015075684,3.9848219591328125,0.0,0.2790452837944031,-1.4376772085772913,-3.2604562875349075e-05,-0.023863408714532852,0.7258518934249878,-0.0,-0.009427867829799652,1.368270993232727,0.00017279552412219346,-0.003583026584237814
167.0,189.0,5.6345,-0.3165,7.6881,-0.0211,-0.0015,-0.121,-1.7550727329649867,-8.883616101229563e-05,2.992367744445801,-1.3089205026626587,-0.0,2.1824002265930176,3.984809561366699,0.0,0.2891000509262085,-1.4376257101642054,5.0172853661933914e-05,-0.023657292127609253,0.725799560546875,-0.0,-0.003934038802981377,1.3682188987731934,0.00012117969163227826,0.025010552257299423
167.0,189.0,5.6345,-0.3165,7.6881,-0.0211,-0.0015,-0.121,-1.7550975284972132,-8.085506851784885e-05,2.9747116565704346,-1.308912754058838,-0.0,2.2132110595703125,3.9848386484333496,0.0,0.2882464528083801,-1.437578026448385,6.923375622136518e-05,-0.021687645465135574,0.7257916927337646,-0.0,-0.0064595723524689674,1.3682467937469482,9.36384531087242e-05,-0.025994133204221725
167.0,189.0,5.6345,-0.3165,7.6881,-0.0211,-0.0015,-0.121,-1.7551094494261683,-7.419004396069795e-05,3.0047805309295654,-1.308905005455017,8.846392302075401e-05,2.163618803024292,3.9848100382038574,0.0,0.292929083108902,-1.4375861326800745,9.950722596840933e-05,-0.017289169132709503,0.7257835865020752,-0.0,0.011914015747606754,1.368186593055725,-4.8211903049377725e-05,0.026034491136670113
167.0,189.0,5.6345,-0.3165,7.6881,-0.0211,-0.0015,-0.121,-1.755097051660055,-2.9255867048050277e-05,2.985156297683716,-1.3089287281036377,8.609129520387171e-10,2.1631741523742676,3.9847580629536132,0.0,0.2765433192253113,-1.4376137892352503,0.000402648322051391,-0.011105197481811047,0.7258232831954956,-0.0,-0.004644846078008413,1.368202567100525,-8.480767428409308e-05,-0.011376354843378067
167.0,189.0,5.6345,-0.3165,7.6881,-0.0211,-0.0015,-0.121,-1.75510897258901,-6.878726708237082e-05,2.9541544914245605,-1.308924674987793,2.789248393317379e-17,2.170822858810425,3.9847699838825683,-6.948778172954917e-05,0.2828948199748993,-1.4375503698932093,0.0007834864663891494,-0.015431266278028488,0.7258437275886536,-0.0,-0.0007851398549973965,1.3681707382202148,-0.000575185171328485,-0.043026406317949295
167.0,189.0,5.6345,-0.3165,7.6881,-0.0211,-0.0015,-0.121,-1.7551013431944789,-9.286400745622814e-05,2.9366841316223145,-1.3088963031768799,9.03680891874901e-25,2.18109393119812,3.984746142024658,-7.777563587296754e-05,0.2717439532279968,-1.437554184590475,0.00105910818092525,-0.010435743257403374,0.7257794141769409,-0.0,-0.009177646599709988,1.3681511878967285,-0.0015225816750898957,-0.04285670816898346
167.0,189.0,5.6345,-0.3165,7.6881,-0.0211,-0.0015,-0.121,-1.7550889454283656,-0.0003142994537483901,2.9200439453125,-1.3090016841888428,2.9278117141799395e-32,2.147933006286621,3.9847661691853027,-9.060440788744017e-05,0.26825278997421265,-1.4375184218036097,0.0013342915335670114,-0.025499600917100906,0.7258597016334534,-0.0,-0.000987485283985734,1.3681029081344604,-0.004825855605304241,-0.0955769345164299
167.0,189.0,5.6345,-0.3165,7.6881,-0.0211,-0.0015,-0.121,-1.7551051578917445,-0.000245656818151474,2.9357504844665527,-1.3089531660079956,-0.0003049856168217957,2.119102716445923,3.984761877650879,-8.660809544380754e-05,0.2627509534358978,-1.4374702612506312,0.0011001832317560911,0.0007350158412009478,0.7258436679840088,-0.0,-0.004668327514082193,1.3680193424224854,-0.013471987098455429,-0.14735805988311768
167.0,193.0,5.7996,0.055,7.3645,-0.0354,0.0098,-0.1413,-1.7551094494261683,-0.0001613002532394603,2.9058046340942383,-1.3089531660079956,-0.00028788932831957936,2.1082022190093994,3.984786196345947,-0.00019556739425752312,0.26295211911201477,-1.4374664465533655,0.0007652121712453663,-0.004078968893736601,0.7258599996566772,-0.0,-0.014082473702728748,1.3677953481674194,-0.02030138298869133,-0.20728790760040283
167.0,193.0,5.7996,0.055,7.3645,-0.0354,0.0098,-0.1413,-1.7551456890501917,-0.00010258801921736449,2.8834047317504883,-1.3090016841888428,-0.0002766620018519461,2.146578788757324,3.9847985941120605,-0.00019530898134689778,0.26406437158584595,-1.4374383131610315,0.0008457292569801211,0.023515231907367706,0.7258759140968323,-0.0,-0.012112880125641823,1.3676401376724243,-0.028638165444135666,-0.25764840841293335
167.0,193.0,5.7996,0.055,7.3645,-0.0354,0.0098,-0.1413,-1.7550813160338343,9.135957952821627e-05,2.9232659339904785,-1.3089241981506348,-0.0002690803084988147,2.154984474182129,3.9847537714191894,-0.0001664137380430475,0.24573493003845215,-1.4374187628375452,0.0013279743725433946,0.01676354371011257,0.72581547498703,-0.0,-0.004059167113155127,1.3673646450042725,-0.04105103015899658,-0.35454481840133667
167.0,193.0,5.7996,0.055,7.3645,-0.0354,0.0098,-0.1413,-1.7550851307311,7.594114140374586e-05,2.941187620162964,-1.3089489936828613,-0.00027937866980209947,2.133045196533203,3.984757586116455,-0.0001449670671718195,0.25104305148124695,-1.4374426046954554,0.0010275370441377163,0.02918321266770363,0.7257875800132751,-0.0,-0.009593687020242214,1.3669497966766357,-0.057986948639154434,-0.4605785012245178
167.0,193.0,5.7996,0.055,7.3645,-0.0354,0.0098,-0.1413,-1.7550651035704554,4.364360211184248e-05,2.9016828536987305,-1.3089489936828613,-0.00027455968665890396,2.1341750621795654,3.984774275416992,-0.00015237477782648057,0.25014007091522217,-1.4373868147479456,0.000850960670504719,0.03318057209253311,0.7258073091506958,-0.0,-0.005130401346832514,1.366491436958313,-0.07817710936069489,-0.5272780060768127
167.0,193.0,5.7996,0.055,7.3645,-0.0354,0.0098,-0.1413,-1.7550770244994105,2.8388620194164105e-05,2.938448905944824,-1.3089934587478638,-0.00042222291813232005,2.1497414112091064,3.9847661691853027,-0.00013831169053446501,0.2446134388446808,-1.437446419392721,0.0006610538111999631,0.06260401010513306,0.725827693939209,-0.0,-0.0041588000021874905,1.3657728433609009,-0.10180673748254776,-0.6578689217567444
167.0,193.0,5.7996,0.055,7.3645,-0.0354,0.0098,-0.1413,-1.7551294765868128,5.65127111773478e-10,2.9248318672180176,-1.309009075164795,-0.0003689388104248792,2.075850248336792,3.9847985941120605,-0.00012545756180770695,0.25598612427711487,-1.4374144713031214,0.0005781343206763268,0.051133956760168076,0.7258235812187195,-0.0,0.0003916434943675995,1.3649030923843384,-0.11433975398540497,-0.6514847874641418
167.0,193.0,5.7996,0.055,7.3645,-0.0354,0.0098,-0.1413,-1.7551294765868128,1.8309399667761177e-17,2.916891574859619,-1.308928370475769,-0.00024214036238845438,2.125863790512085,3.984746142024658,-0.00011478978558443487,0.2526780664920807,-1.4373987356769007,0.0004905409296043217,0.04319398105144501,0.7258195877075195,-0.0,-0.004539170768111944,1.3639731407165527,-0.12142538279294968,-0.7436990737915039
167.0,193.0,5.7996,0.055,7.3645,-0.0354,0.0098,-0.1413,-1.7550851307311,5.932012633170481e-25,2.897623300552368,-1.3089733123779297,-0.00015903044550213963,2.1526365280151367,3.9847943025776367,-0.00010579389345366508,0.24743053317070007,-1.4374225775348108,0.0004722918674815446,0.06193264573812485,0.7258678078651428,-0.0,0.009524896740913391,1.3629361391067505,-0.12144391238689423,-0.7674763798713684
167.0,193.0,5.7996,0.055,7.3645,-0.0354,0.0098,-0.1413,-1.755101820031637,1.9218962355223892e-32,2.9600167274475098,-1.3089241981506348,-0.00013514772581402212,2.126737117767334,3.9847537714191894,-9.810573101276532e-05,0.24517837166786194,-1.4374263922320765,0.0005101509741507471,0.06681700050830841,0.7258678078651428,-0.0,-0.011104694567620754,1.3619866371154785,-0.1253487765789032,-0.7713049650192261
167.0,193.0,5.7996,0.055,7.3645,-0.0354,0.0098,-0.1413,-1.7551213703551234,6.226697752196611e-40,2.9796652793884277,-1.3089654445648193,0.00012086069909855723,2.1479239463806152,3.984746142024658,-9.14592164917849e-05,0.24901747703552246,-1.4374306837665003,0.0003682017559185624,0.05575736612081528,0.7258477210998535,2.9026100634155227e-08,0.00032470596488565207,1.3608853816986084,-0.14629405736923218,-0.7942583560943604
166.0,194.0,5.47,-0.8572,7.1575,-0.1165,0.0134,-0.2167,-1.7550851307311,0.0,2.962623119354248,-1.308852195739746,0.0011987737379968166,2.1388001441955566,3.984786196345947,-7.138429646147415e-05,0.2542484998703003,-1.4375227133380335,0.00016808764485176653,0.053984202444553375,0.7258396148681641,5.27535046895844e-13,0.011188844218850136,1.359693169593811,-0.1617714911699295,-0.7526906728744507
166.0,194.0,5.47,-0.8572,7.1575,-0.1165,0.0134,-0.2167,-1.755113264123434,0.0,2.9432144165039062,-1.3089327812194824,0.0002939568366855383,2.139528274536133,3.9847938257404785,-6.712136382702738e-05,0.27382925152778625,-1.4374941031085413,-0.0018335046479478478,0.027025695890188217,0.7258355617523193,0.00035549834137782454,0.002423223340883851,1.3583486080169678,-0.16677917540073395,-0.7378257513046265
166.0,194.0,5.47,-0.8572,7.1575,-0.1165,0.0134,-0.2167,-1.7551537952818812,-0.0006773516070097685,2.9880895614624023,-1.3089410066604614,8.782685472397134e-05,2.1297388076782227,3.9848262506672363,-5.070190309197642e-05,0.2502592206001282,-1.4375055472003382,-0.002722867066040635,0.010528814047574997,0.725867509841919,0.0003391944628674537,0.006076392251998186,1.357048511505127,-0.1592138707637787,-0.6048787832260132
166.0,194.0,5.47,-0.8572,7.1575,-0.1165,0.0134,-0.2167,-1.7551657162108363,-0.0013281500432640314,2.98757266998291,-1.308936595916748,0.00010444975487189367,2.1505208015441895,3.9847456651875,-3.6183679185342044e-05,0.25999435782432556,-1.437554184590475,-0.001327637699432671,0.008195715956389904,0.7258715629577637,0.0003122091293334961,0.014509230852127075,1.3558043241500854,-0.15430064499378204,-0.5439505577087402
166.0,194.0,5.47,-0.8572,7.1575,-0.1165,0.0134,-0.2167,-1.7551776371397914,-0.0007540094666182995,2.969008684158325,-1.308936595916748,9.863344166660681e-05,2.1747219562530518,3.984830065364502,-3.4158754715463147e-05,0.2638130486011505,-1.4375818411456507,-0.0006619010237045586,-0.00818723626434803,0.7258436679840088,0.0002538727130740881,0.01105628814548254,1.354491114616394,-0.15606026351451874,-0.453885018825531
166.0,194.0,5.47,-0.8572,7.1575,-0.1165,0.0134,-0.2167,-1.7551247082152308,-0.000451274449005723,2.983010768890381,-1.3089531660079956,4.0457718569086865e-05,2.141172170639038,3.984818144435547,-3.251341331633739e-05,0.2684783935546875,-1.4375737349139612,-0.0008312066784128547,-0.03057393804192543,0.725851833820343,0.00021367981389630586,-0.0027346047572791576,1.353266954421997,-0.15261034667491913,-0.41322728991508484
166.0,194.0,5.47,-0.8572,7.1575,-0.1165,0.0134,-0.2167,-1.7551576099791468,-0.0003220465441700071,2.9398627281188965,-1.308888554573059,3.428570562391542e-05,2.1983375549316406,3.984786196345947,-3.101929178228602e-05,0.2753257751464844,-1.4375899473773401,-0.0008351274882443249,-0.027099136263132095,0.7258315086364746,0.0001844761718530208,0.008494465611875057,1.3520864248275757,-0.14280034601688385,-0.3561965227127075
166.0,194.0,5.47,-0.8572,7.1575,-0.1165,0.0134,-0.2167,-1.755141397515768,-0.00025036357692442834,2.997850179672241,-1.308924674987793,3.2326773636431883e-12,2.1279523372650146,3.9847661691853027,-7.6198080023459624e-06,0.26142433285713196,-1.4376018683062952,-0.0006196839967742562,-0.02148973010480404,0.7258515357971191,0.00016229590983130038,0.001368917990475893,1.3509851694107056,-0.12445991486310959,-0.33263978362083435
166.0,194.0,5.47,-0.8572,7.1575,-0.1165,0.0134,-0.2167,-1.7551733456053675,-0.0002047849993687123,2.9652748107910156,-1.3089327812194824,1.0473463001878947e-19,2.1813225746154785,3.984761877650879,-1.3848625024515115e-10,0.26914986968040466,-1.437578026448385,-0.0005565302562899888,-0.01963241957128048,0.7258555889129639,0.00014487748558167368,0.004850021097809076,1.3500760793685913,-0.11319863796234131,-0.19176800549030304
166.0,194.0,5.47,-0.8572,7.1575,-0.1165,0.0134,-0.2167,-1.7551571331419886,-0.0001732466189423576,2.981200695037842,-1.3089205026626587,3.3932690059966494e-27,2.1512932777404785,3.9847819048115234,-2.516919015734106e-15,0.2580984830856323,-1.4376261870013636,-0.00043067694059573114,-0.030700989067554474,0.7258192300796509,0.00013083568774163723,-0.004178374540060759,1.3491946458816528,-0.10364017635583878,-0.1780795156955719
166.0,194.0,5.47,-0.8572,7.1575,-0.1165,0.0134,-0.2167,-1.7551690540709437,-0.0002066401211777702,2.969449043273926,-1.308936595916748,1.0993760406542557e-34,2.1589066982269287,3.9848100382038574,-4.574375995843013e-20,0.26026657223701477,-1.4375742117511194,-0.0002777921035885811,-0.04343186691403389,0.7258756160736084,0.00011927534796996042,0.0051393406465649605,1.3483887910842896,-0.09849969297647476,-0.17321623861789703
173.0,186.0,5.4772,-3.125,7.5488,-0.1304,0.0505,-0.1781,-1.7551776371397914,-0.00015527094365097582,2.9560647010803223,-1.3089654445648193,3.562100696313685e-42,2.1381995677948,3.9848105150410156,-8.313700556054302e-25,0.26797184348106384,-1.437617603932516,-0.00022276234813034534,-0.029096391052007675,0.7259038090705872,0.00010959247447317466,-0.0026430608704686165,1.3476626873016357,-0.08947683870792389,-0.15150703489780426
173.0,186.0,5.4772,-3.125,7.5488,-0.1304,0.0505,-0.1781,-1.7551895580687464,-0.00015663822705391794,2.9185521602630615,-1.308932900428772,-0.0,2.1647274494171143,3.984802408809326,-1.5109741943209768e-29,0.2714446485042572,-1.4375980536090296,-0.0002577651175670326,-0.03335902839899063,0.7258396148681641,0.00010136343189515173,-0.0013959766365587711,1.3470408916473389,-0.07638221979141235,-0.10795260220766068
173.0,186.0,5.4772,-3.125,7.5488,-0.1304,0.0505,-0.1781,-1.755137105981344,-0.0001440986670786515,2.9576573371887207,-1.3089008331298828,-0.0,2.155684471130371,3.9848386484333496,-4.205851931000942e-33,0.2671496570110321,-1.4376094977008265,-0.0002954253286588937,-0.032848797738552094,0.7258998155593872,9.595950541552156e-05,0.001831329776905477,1.346622347831726,-0.0650186538696289,-0.10768558084964752
173.0,186.0,5.4772,-3.125,7.5488,-0.1304,0.0505,-0.1781,-1.7551495037474574,-0.00011592976079555228,2.9926629066467285,-1.3089210987091064,0.00014690074021928012,2.136518716812134,3.984858198756836,-1.6342202036057074e-09,0.26526811718940735,-1.4376614729510706,-0.0006705304840579629,-0.02717236988246441,0.7258274555206299,8.959106344264e-05,0.0009466110495850444,1.3461394309997559,-0.05140143260359764,-0.10516040772199631
173.0,186.0,5.4772,-3.125,7.5488,-0.1304,0.0505,-0.1781,-1.7551657162108363,-8.148318011080846e-05,2.9817912578582764,-1.3089126348495483,0.0002170941443182528,2.1977951526641846,3.9848057466694335,-2.970114253283626e-14,0.27123063802719116,-1.4376218954669397,-0.0007423589122481644,-0.03208459913730621,0.7258678674697876,8.401546801906079e-05,-0.0038074124604463577,1.345816731452942,-0.0395759679377079,-0.05719984322786331
173.0,186.0,5.4772,-3.125,7.5488,-0.1304,0.0505,-0.1781,-1.755097051660055,8.616413833806291e-05,2.9686756134033203,-1.3088889122009277,0.0005314191803336143,2.1550791263580322,3.984813852901123,-5.398035920913862e-19,0.27894327044487,-1.4376495520221155,-0.0005778565537184477,-0.03695065528154373,0.725887656211853,7.909315172582865e-05,-0.0002678721211850643,1.3456294536590576,-0.025619683787226677,-0.07153485715389252
173.0,186.0,5.4772,-3.125,7.5488,-0.1304,0.0505,-0.1781,-1.7551289997496546,0.00015293988690245897,2.9896035194396973,-1.3088847398757935,0.0005328388069756329,2.200533866882324,3.984841509456299,0.0002982954028993845,0.2594674229621887,-1.4376652876483362,-0.0003722526307683438,-0.02792815864086151,0.7258638143539429,7.471574645023793e-05,0.0030128282960504293,1.3455222845077515,-0.011113574728369713,-0.08704954385757446
173.0,186.0,5.4772,-3.125,7.5488,-0.1304,0.0505,-0.1781,-1.755125185052389,0.00013073002628516406,2.965775489807129,-1.308860421180725,0.0005245913635008037,2.1763434410095215,3.9848057466694335,0.00028304470470175147,0.26988667249679565,-1.4376891295062464,-0.00033549845102243125,-0.026646103709936142,0.7258756160736084,7.079746865201741e-05,-0.005196311045438051,1.3455102443695068,0.0009432432125322521,-0.10077027231454849
173.0,186.0,5.4772,-3.125,7.5488,-0.1304,0.0505,-0.1781,-1.7551537952818812,0.0001307153288507834,2.9625000953674316,-1.3088563680648804,0.0003777543315663934,2.1739916801452637,3.9848343568989257,0.00023397788754664361,0.26557332277297974,-1.4376738707171839,-0.0003353439678903669,-0.022027887403964996,0.7257995009422302,6.726963329128921e-05,-0.010217946022748947,1.345517635345459,0.002453214256092906,-0.03708697110414505
173.0,186.0,5.4772,-3.125,7.5488,-0.1304,0.0505,-0.1781,-1.7551895580687464,3.197051157144415e-08,2.969428539276123,-1.3089008331298828,0.0001535168121336028,2.2150583267211914,3.9848057466694335,0.0001667622127570212,0.2815261781215668,-1.4376619497882288,-0.00032101155375130475,-0.030809838324785233,0.7258474230766296,6.407674663932994e-05,-0.006283953320235014,1.3455618619918823,0.004895399324595928,-0.0038690492510795593
173.0,186.0,5.4772,-3.125,7.5488,-0.1304,0.0505,-0.1781,-1.7552334270873011,-0.0029353476129472256,2.952268600463867,-1.3089369535446167,-0.00022470515978056937,2.1568784713745117,3.9848219591328125,0.00013058396871201694,0.2737348973751068,-1.437697712575094,-0.0002999260032083839,-0.02202850952744484,0.7258478403091431,6.117321026977152e-05,0.006719788536429405,1.3456175327301025,0.004532728344202042,-0.020207267254590988
173.0,186.0,5.4772,-3.125,7.5488,-0.1304,0.0505,-0.1781,-1.755305906335348,-0.00911406334489584,2.9525132179260254,-1.3089085817337036,-0.0006356299854815006,2.1926984786987305,3.984761877650879,0.00010262063005939126,0.2777029275894165,-1.4376938978778284,-0.00024539136211387813,-0.015827201306819916,0.7258113622665405,5.030786383031227e-07,-0.0019626657012850046,1.3456212282180786,0.0039574443362653255,0.028862498700618744
175.0,182.0,5.3043,-0.3619,7.6798,-0.0128,-0.0145,-0.1219,-1.7553817234435023,-0.01170084998011589,2.926636219024658,-1.3089287281036377,-0.0004884553491137922,2.2000539302825928,3.984814329738281,6.909420335432515e-05,0.2741050124168396,-1.4377058188067835,-0.000207640347070992,-0.021502111107110977,0.7258232831954956,9.143205290107481e-12,-0.008241548202931881,1.345685601234436,0.0021629142574965954,0.024810312315821648
175.0,182.0,5.3043,-0.3619,7.6798,-0.0128,-0.0145,-0.1219,-1.7554980717101039,-0.006506009958684444,2.9513444900512695,-1.3089613914489746,-0.0004181299009360373,2.1428778171539307,3.9848262506672363,-5.060458352090791e-05,0.2746536433696747,-1.437657658253805,-0.00017995738016907126,-0.023157810792326927,0.7258273959159851,1.661732529329536e-16,-0.020018376410007477,1.3456417322158813,0.0007414849242195487,0.004885135218501091
175.0,182.0,5.3043,-0.3619,7.6798,-0.0128,-0.0145,-0.1219,-1.7555581531920375,-0.004071834497153759,3.032541036605835,-1.3089205026626587,-0.0005402766400948167,2.1973822116851807,3.984757586116455,-0.00010218386159976944,0.2915957570075989,-1.4376571814166468,-0.00013581888924818486,-0.010620994493365288,0.725867509841919,3.020116993839407e-21,-0.004344201181083918,1.3456417322158813,0.0004466507234610617,-0.013835009187459946
175.0,182.0,5.3043,-0.3619,7.6798,-0.0128,-0.0145,-0.1219,-1.755590101281637,-0.009461760520935059,2.963934898376465,-1.309009075164795,-0.00271204044111073,2.1759660243988037,3.9847699838825683,-0.0006893840618431568,0.28502050042152405,-1.4376376310931605,-9.783750283531845e-05,-0.026255663484334946,0.7257752418518066,5.488912667455266e-26,-0.013876042328774929,1.345609426498413,0.0003196834004484117,-0.030233172699809074
175.0,182.0,5.3043,-0.3619,7.6798,-0.0128,-0.0145,-0.1219,-1.7556902370848597,-0.01226624846458435,2.94793701171875,-1.3090567588806152,-0.005899475421756506,2.205965518951416,3.9847585397907714,-0.0006372033967636526,0.2820092439651489,-1.4376218954669397,-6.500224117189646e-05,-0.029315577819943428,0.7258437275886536,9.975827165880459e-31,-0.006539789028465748,1.3456175327301025,0.00019914863514713943,0.0030611250549554825
175.0,182.0,5.3043,-0.3619,7.6798,-0.0128,-0.0145,-0.1219,-1.7557703457274378,-0.008484721183776855,3.0003085136413574,-1.3090728521347046,-0.006926565431058407,2.2119803428649902,3.9847099024006347,-0.000441626732936129,0.2768173813819885,-1.4376338163958948,5.2372110076248646e-05,-0.020582405850291252,0.7258638143539429,1.8130569736595199e-35,-0.006302140653133392,1.3456217050552368,-8.529048500349745e-05,-0.018378445878624916
175.0,182.0,5.3043,-0.3619,7.6798,-0.0128,-0.0145,-0.1219,-1.755827089349264,-0.005139444954693317,2.9956014156341553,-1.3091778755187988,-0.005795356817543507,2.19755220413208,3.984738989467285,-0.00044155700015835464,0.28506457805633545,-1.4375699202166956,9.459525608690456e-05,-0.020520655438303947,0.7258477807044983,3.295139325875164e-40,0.007057942450046539,1.3455655574798584,-0.00018428597832098603,-0.005227792076766491
175.0,182.0,5.3043,-0.3619,7.6798,-0.0128,-0.0145,-0.1219,-1.7558304272093714,-0.004252942278981209,2.984692096710205,-1.3092091083526611,-0.004545306321233511,2.198519706726074,3.9847022730061035,-0.0003956945729441941,0.28013375401496887,-1.4375975767718714,0.00010805273632286116,-0.01606830395758152,0.7258920073509216,5.605193857299268e-45,-0.012171256355941296,1.345513105392456,-0.0006029104115441442,-0.019627204164862633
175.0,182.0,5.3043,-0.3619,7.6798,-0.0128,-0.0145,-0.1219,-1.755890508691305,-0.005669865291565657,2.9617154598236084,-1.3092657327651978,-0.003372261766344309,2.2139523029327393,3.984670324916504,-0.00033321112277917564,0.2826802730560303,-1.4375818411456507,0.00039084992022253573,-0.014691593125462532,0.725863516330719,0.0,-0.0012285844422876835,1.3455414772033691,-0.0006102468469180167,-0.00398430647328496
175.0,182.0,5.3043,-0.3619,7.6798,-0.0128,-0.0145,-0.1219,-1.755913873712057,-0.006318582221865654,2.9475927352905273,-1.3092608451843262,-0.002173591870814562,2.1671292781829834,3.9847184854694824,-0.0003132545098196715,0.2803748548030853,-1.4375861326800745,0.0004050478746648878,-0.03019077703356743,0.7258917093276978,0.0,-0.01421007513999939,1.3455615043640137,-0.0005728259566240013,-0.04737930744886398
175.0,182.0,5.3043,-0.3619,7.6798,-0.0128,-0.0145,-0.1219,-1.7559949360289515,-0.005315519869327545,2.8430638313293457,-1.3092896938323975,-0.0011341451900079846,2.1715986728668213,3.9847065645405273,-0.00036212734994478524,0.27126967906951904,-1.4375503698932093,0.0004512654268182814,0.00012736686039716005,0.7258436679840088,0.0,-0.013677291572093964,1.3455578088760376,-0.0005483073182404041,-0.04312305524945259
172.0,186.0,5.6453,-1.0313,7.3292,-0.0365,0.0067,-0.1116,-1.7559825382628382,-0.0038107128348201513,2.895498752593994,-1.309245228767395,-0.0006169101106934249,2.1660044193267822,3.9847065645405273,-0.000345229433150962,0.2555801272392273,-1.43756610551943,0.0003951952385250479,-0.0052438778802752495,0.7258273363113403,0.0,0.001653046696446836,1.3455893993377686,-0.00044230776256881654,-0.08226417005062103
172.0,186.0,5.6453,-1.0313,7.3292,-0.0365,0.0067,-0.1116,-1.756010194818014,-0.0044977981597185135,2.757904052734375,-1.3092732429504395,-0.0004233603540342301,2.133845806121826,3.9847470956989746,-0.0002752479922492057,0.2518426179885864,-1.4375584761248987,0.00036122053279541433,-0.0009190243436023593,0.7258436679840088,0.0,-0.01683473028242588,1.3455734252929688,-0.0003331347834318876,-0.10655547678470612
172.0,186.0,5.6453,-1.0313,7.3292,-0.0365,0.0067,-0.1116,-1.756106515923971,-0.006445080973207951,2.7848803997039795,-1.3092613220214844,-0.0003757216327358037,2.080751419067383,3.9846417146870117,-0.00029974005883559585,0.25556203722953796,-1.437521759663717,0.00036034942604601383,0.013161452487111092,0.7258436679840088,0.0,-0.004557647742331028,1.3455655574798584,-0.0003116498701274395,-0.10968109965324402
172.0,186.0,5.6453,-1.0313,7.3292,-0.0365,0.0067,-0.1116,-1.75614657024526,-0.00983983464539051,2.789773941040039,-1.3092856407165527,-0.0002808590361382812,2.063591957092285,3.984694643611572,-0.00032233603997156024,0.2350829541683197,-1.437497917805807,0.0003809750487562269,0.010966064408421516,0.7258879542350769,0.0,0.000982553930953145,1.3455495834350586,-0.000260218046605587,-0.19512668251991272
172.0,186.0,5.6453,-1.0313,7.3292,-0.0365,0.0067,-0.1116,-1.7562548122801722,-0.013873198069632053,2.711069107055664,-1.3092732429504395,-0.0010074946330860257,2.0033957958221436,3.9846746164509277,-0.0005398043431341648,0.23696056008338928,-1.4375060240374964,0.0005267205415293574,0.022073324769735336,0.7258191704750061,0.0,-0.009721715934574604,1.3455774784088135,-0.0002552228979766369,-0.23251760005950928
172.0,186.0,5.6453,-1.0313,7.3292,-0.0365,0.0067,-0.1116,-1.7563911877074183,-0.018743176013231277,2.6919808387756348,-1.3093420267105103,-0.0013612358598038554,2.0111918449401855,3.9846784311481933,-0.0005427292198874056,0.2268296480178833,-1.437509838734762,0.0004539275832939893,0.01589878648519516,0.7258396148681641,0.0,-0.0016798905562609434,1.3455696105957031,-0.00023058216902427375,-0.2199595868587494
172.0,186.0,5.6453,-1.0313,7.3292,-0.0365,0.0067,-0.1116,-1.7565027676024378,-0.024799030274152756,2.666363000869751,-1.3093218803405762,-0.0011435961350798607,1.9855362176895142,3.984658403987549,-0.0005155301769264042,0.2300252914428711,-1.4375179449664515,0.00038452676380984485,0.030665067955851555,0.7258756756782532,0.0,-0.0037802732549607754,1.3455373048782349,-0.0007451626588590443,-0.2390442192554474
172.0,186.0,5.6453,-1.0313,7.3292,-0.0365,0.0067,-0.1116,-1.7567793331541957,-0.03140494227409363,2.6400933265686035,-1.3093135356903076,-0.001067406847141683,2.045252799987793,3.984649820918701,-0.0004428293032106012,0.23206216096878052,-1.437526051198141,0.000287294271402061,0.03752435743808746,0.7258560061454773,0.0,-0.012638821266591549,1.34550940990448,-0.0009050198132172227,-0.280232697725296
172.0,186.0,5.6453,-1.0313,7.3292,-0.0365,0.0067,-0.1116,-1.7570682964720667,-0.0409744456410408,2.630089282989502,-1.3092975616455078,-0.0007901112549006939,2.0025994777679443,3.9846460062214355,-0.0003894219407811761,0.22381579875946045,-1.4375417868243616,0.0002745901292655617,0.03733420372009277,0.7258478403091431,0.0,0.0029193428345024586,1.3455172777175903,-0.001213833224028349,-0.2980901002883911
172.0,186.0,5.6453,-1.0313,7.3292,-0.0365,0.0067,-0.1116,-1.7574249706664027,-0.052664000540971756,2.518373966217041,-1.309293508529663,-0.0006012311205267906,1.984574317932129,3.9846383768269042,-0.0003568046959117055,0.23039332032203674,-1.437526051198141,0.0002661117468960583,0.03345785290002823,0.725807249546051,0.0,-0.003414606675505638,1.3455414772033691,-0.0009571692207828164,-0.2621549367904663
172.0,186.0,5.6453,-1.0313,7.3292,-0.0365,0.0067,-0.1116,-1.7578932247557582,-0.06737181544303894,2.5320520401000977,-1.3092975616455078,-0.00039461097912862897,1.9750018119812012,3.9847184854694824,-0.0002977707772515714,0.21899601817131042,-1.4375136534320276,0.00022770870418753475,0.030314818024635315,0.7258715629577637,0.0,-0.010782619938254356,1.3455414772033691,-0.0007467117975465953,-0.33099013566970825
171.0,186.0,4.0887,-0.7902,7.1091,-0.0168,0.0095,-0.1333,-1.7584301433958949,-0.0784163624048233,2.428743362426758,-1.309220552444458,-0.00011098402319476008,1.9681528806686401,3.984694643611572,-0.0002554968814365566,0.2073492854833603,-1.437554184590475,0.0002273292193422094,0.04720102623105049,0.7258076667785645,0.0,-0.006730863358825445,1.34550940990448,-0.0005342471413314342,-0.24113400280475616
171.0,186.0,4.0887,-0.7902,7.1091,-0.0168,0.0095,-0.1333,-1.7591072521605433,-0.08882550895214081,2.489315986633301,-1.3092410564422607,-4.44744509877637e-05,1.9898149967193604,3.9846741396137695,-0.00022373543470166624,0.2232222557067871,-1.4375022093402308,0.000201862640096806,0.05619978532195091,0.7258155345916748,0.0,-0.005519855301827192,1.3455615043640137,-0.0006392708164639771,-0.3438982367515564
171.0,186.0,4.0887,-0.7902,7.1091,-0.0168,0.0095,-0.1333,-1.7598244152464808,-0.09499655663967133,2.4240713119506836,-1.3092896938323975,-3.7133810110390186e-05,1.931894302368164,3.984670324916504,-0.00019899859034921974,0.21282845735549927,-1.4375060240374964,0.00018150621326640248,0.056477420032024384,0.7258355617523193,0.0,-0.007026372477412224,1.345481514930725,-0.0006536358851008117,-0.30844900012016296
171.0,186.0,4.0887,-0.7902,7.1091,-0.0168,0.0095,-0.1333,-1.7606851063170375,-0.10047244280576706,2.4574077129364014,-1.3093057870864868,-9.432905062567443e-05,1.9823107719421387,3.984682722682617,-0.00017918727826327085,0.2189616858959198,-1.4375336805926722,0.00016487957327626646,0.06920689344406128,0.7258073091506958,0.0,-0.0051336269825696945,1.3455018997192383,-0.0006067496724426746,-0.3284928500652313
171.0,186.0,4.0887,-0.7902,7.1091,-0.0168,0.0095,-0.1333,-1.7615343532957972,-0.1120024025440216,2.4823265075683594,-1.3093057870864868,-0.00010098692291649058,1.948502540588379,3.9846789079853515,-0.00014945026487112045,0.2196613848209381,-1.4374859968768519,0.00015104340855032206,0.05909573286771774,0.7258314490318298,0.0,-0.004551848396658897,1.3455336093902588,-0.0005595666589215398,-0.3690558075904846
171.0,186.0,4.0887,-0.7902,7.1091,-0.0168,0.0095,-0.1333,-1.762564321557516,-0.12626610696315765,2.4434146881103516,-1.309301733970642,-0.0007990605081431568,1.952838659286499,3.984649820918701,-0.00018262240337207913,0.2110355794429779,-1.437537972127096,0.00010984005348291248,0.051144957542419434,0.725860059261322,0.0,0.004645456559956074,1.3455052375793457,-0.0006051129312254488,-0.3114033341407776
171.0,186.0,4.0887,-0.7902,7.1091,-0.0168,0.0095,-0.1333,-1.763528963128561,-0.1373249888420105,2.403507947921753,-1.309309482574463,-0.0005955470260232687,1.9404058456420898,3.984630270595215,-0.00039604006451554596,0.21227137744426727,-1.4374859968768519,9.996350127039477e-05,0.058481961488723755,0.7258356213569641,0.0,-0.004222204443067312,1.3455299139022827,-0.0017807699041441083,-0.34834498167037964
171.0,186.0,4.0887,-0.7902,7.1091,-0.0168,0.0095,-0.1333,-1.7645656071104945,-0.14504112303256989,2.366507053375244,-1.3092774152755737,-0.0002837536158040166,1.954313039779663,3.9846789079853515,-0.00029291401733644307,0.21204961836338043,-1.437509838734762,9.180568304145709e-05,0.05017056316137314,0.72581547498703,0.0,-0.009280240163207054,1.3454818725585938,-0.0034422590397298336,-0.3671218752861023
171.0,186.0,4.0887,-0.7902,7.1091,-0.0168,0.0095,-0.1333,-1.7657162151732386,-0.14600130915641785,2.4209229946136475,-1.30925714969635,-0.00015817528765182942,1.937766194343567,3.9846221643635253,-0.00019809629884548485,0.21510246396064758,-1.437521759663717,8.487895684083924e-05,0.04246921092271805,0.7257912755012512,0.0,0.004724872764199972,1.3454622030258179,-0.003675775369629264,-0.3395543694496155
171.0,186.0,4.0887,-0.7902,7.1091,-0.0168,0.0095,-0.1333,-1.7669254742064417,-0.15386222302913666,2.431927442550659,-1.3093141317367554,-0.00016578847134951502,1.9635319709777832,3.9847022730061035,-0.00015407209866680205,0.2062736451625824,-1.4375298658954065,7.892421854194254e-05,0.049905188381671906,0.7258437275886536,0.0,-0.012862149626016617,1.345426082611084,-0.0040955087170004845,-0.3954731523990631
171.0,186.0,4.0887,-0.7902,7.1091,-0.0168,0.0095,-0.1333,-1.7681466541686,-0.16033612191677094,2.432760715484619,-1.3092814683914185,-0.00014359457418322563,1.979600429534912,3.9846784311481933,-0.00013154778571333736,0.21457330882549286,-1.4375060240374964,7.375020504696295e-05,0.048974256962537766,0.7258117198944092,0.0,0.0003164301160722971,1.3454020023345947,-0.0033178881276398897,-0.3217187523841858
171.0,186.0,4.0887,-0.7902,7.1091,-0.0168,0.0095,-0.1333,-1.76945223430776,-0.16987667977809906,2.43808650970459,-1.3092691898345947,-0.00012383615830913186,1.9422228336334229,3.9846741396137695,-0.00011477038788143545,0.21632209420204163,-1.4375060240374964,6.921284511918202e-05,0.04325854033231735,0.725795328617096,0.0,-0.003913927357643843,1.3453377485275269,-0.0033603219781070948,-0.30284005403518677
161.0,176.0,4.483,-0.7831,7.9131,-0.0292,-0.1382,-0.1536,-1.7708021603026332,-0.17387494444847107,2.4678895473480225,-1.3092774152755737,-8.16436659079045e-05,1.9701588153839111,3.9846860605427246,-6.104229214543011e-06,0.20994850993156433,-1.437521759663717,6.52015078230761e-05,0.04144255071878433,0.7258277535438538,0.0,-0.01369857881218195,1.34531831741333,-0.00411216402426362,-0.3536728024482727
161.0,176.0,4.483,-0.7831,7.9131,-0.0292,-0.1382,-0.1536,-1.772167821923727,-0.1811840534210205,2.4338057041168213,-1.309248924255371,5.550279456656426e-05,1.9966509342193604,3.9847022730061035,8.731038542464375e-05,0.21067041158676147,-1.437521759663717,6.162968202261254e-05,0.050353068858385086,0.7257876396179199,0.0,-0.010118957608938217,1.345314621925354,-0.00532826641574502,-0.342353880405426
161.0,176.0,4.483,-0.7831,7.9131,-0.0292,-0.1382,-0.1536,-1.7736498318114222,-0.18909506499767303,2.475180149078369,-1.3092256784439087,7.1221191319637e-05,1.9225304126739502,3.984738989467285,0.00012728867295663804,0.20994317531585693,-1.4374621550189417,5.8428835473023355e-05,0.03958269953727722,0.7258158922195435,0.0,-0.005004976876080036,1.3452625274658203,-0.006086947862058878,-0.332846999168396
161.0,176.0,4.483,-0.7831,7.9131,-0.0292,-0.1382,-0.1536,-1.775151868859762,-0.18709300458431244,2.4850783348083496,-1.3092091083526611,0.0006085940985940397,2.011479377746582,3.984754725093506,0.0010813761036843061,0.2126215100288391,-1.437493626271383,5.554407471208833e-05,0.04280872642993927,0.7257999181747437,0.0,-0.011155393905937672,1.3451863527297974,-0.006211818661540747,-0.3264930546283722
161.0,176.0,4.483,-0.7831,7.9131,-0.0292,-0.1382,-0.1536,-1.7766062221922816,-0.18110041320323944,2.536846160888672,-1.3092576265335083,0.0005086651653982699,1.986043095588684,3.984746142024658,0.0009672115556895733,0.21249204874038696,-1.4375060240374964,4.252441431162879e-05,0.03682573512196541,0.7257875800132751,0.0,-0.017193585634231567,1.3451428413391113,-0.0051874094642698765,-0.2675231099128723
161.0,176.0,4.483,-0.7831,7.9131,-0.0292,-0.1382,-0.1536,-1.7781154117979945,-0.1890423446893692,2.5456185340881348,-1.3092575073242188,0.0003470048832241446,2.0092697143554688,3.9847423273273925,0.0006290742312557995,0.23697948455810547,-1.4375579992877405,4.0441867895424366e-05,0.04397068917751312,0.7258076667785645,0.0,-0.03251008689403534,1.3451510667800903,-0.0026608826592564583,-0.3525317907333374
161.0,176.0,4.483,-0.7831,7.9131,-0.0292,-0.1382,-0.1536,-1.7793218098082484,-0.19918465614318848,2.5259673595428467,-1.3092215061187744,0.00029779254691675305,1.9391345977783203,3.984722777003906,0.00040041652391664684,0.23694948852062225,-1.4375503698932093,6.635479508076969e-07,0.036639127880334854,0.7257671356201172,0.0,-0.01234794594347477,1.34513521194458,-0.0016282598953694105,-0.2639225125312805
161.0,176.0,4.483,-0.7831,7.9131,-0.0292,-0.1382,-0.1536,-1.780952592889303,-0.19230544567108154,2.6052699089050293,-1.3091968297958374,0.0002877364167943597,2.0043246746063232,3.9847661691853027,0.0004088692076038569,0.23551927506923676,-1.437497917805807,1.2059656225027471e-11,0.021053245291113853,0.7257633805274963,0.0,-0.02575087547302246,1.34511137008667,-0.0011942983837798238,-0.27763110399246216
161.0,176.0,4.483,-0.7831,7.9131,-0.0292,-0.1382,-0.1536,-1.7824741802611292,-0.1857893168926239,2.580686330795288,-1.3092132806777954,0.00023403014347422868,2.0271315574645996,3.9848100382038574,0.00045444336137734354,0.23825211822986603,-1.437497917805807,2.1917831160597176e-16,0.009226372465491295,0.7257753610610962,0.0,-0.009847939945757389,1.3451071977615356,-0.0010061203502118587,-0.23575063049793243
161.0,176.0,4.483,-0.7831,7.9131,-0.0292,-0.1382,-0.1536,-1.7840806446471156,-0.1954415738582611,2.6279170513153076,-1.3092296123504639,0.00014662821195088327,2.0236129760742188,3.9847661691853027,0.00032392225693911314,0.24513939023017883,-1.4375179449664515,3.98345747250138e-21,0.012354830279946327,0.725775420665741,0.0,-0.02731321193277836,1.3450543880462646,-0.0007023877697065473,-0.1962064802646637
161.0,176.0,4.483,-0.7831,7.9131,-0.0292,-0.1382,-0.1536,-1.785658975640768,-0.20482133328914642,2.651745319366455,-1.3092213869094849,0.0001487344125052914,2.054936170578003,3.9847699838825683,0.00025147476117126644,0.24288097023963928,-1.4375503698932093,7.239737677596397e-26,0.014727792702615261,0.7257713079452515,0.0,-0.011678838171064854,1.345058798789978,-0.000505188771057874,-0.2174120545387268
145.0,175.0,5.6704,-0.9224,7.0995,-0.0183,-0.2075,-0.1484,-1.7872292004027308,-0.1874646693468094,2.710540294647217,-1.3092091083526611,0.0008241127943620086,2.075425863265991,3.984761877650879,0.0002465973375365138,0.2619172930717468,-1.437509838734762,1.3157861221296491e-30,0.0037180327344685793,0.7257637977600098,6.277443276303529e-07,-0.015549704432487488,1.3451273441314697,-0.0003944603377021849,-0.24822096526622772
145.0,175.0,5.6704,-0.9224,7.0995,-0.0183,-0.2075,-0.1484,-1.788767477075094,-0.17478078603744507,2.740612506866455,-1.3092410564422607,0.00042839485104195774,2.0735199451446533,3.984774275416992,0.000208521872991696,0.24387095868587494,-1.4375622908221644,-2.339673119422514e-05,0.011578450910747051,0.7257676124572754,1.140894410195381e-11,-0.022870779037475586,1.345103144645691,-0.0003235497570130974,-0.18199796974658966
145.0,175.0,5.6704,-0.9224,7.0995,-0.0183,-0.2075,-0.1484,-1.7901369533934535,-0.18582892417907715,2.716486930847168,-1.3092938661575317,-0.00036285759415477514,2.0777440071105957,3.9847661691853027,0.0001505342952441424,0.2501981854438782,-1.4375503698932093,-3.336370355100371e-05,0.0019321889849379659,0.7257876396179199,2.073519317172888e-16,-0.03750640153884888,1.3451191186904907,-0.00023996889649424702,-0.11792874336242676
145.0,175.0,5.6704,-0.9224,7.0995,-0.0183,-0.2075,-0.1484,-1.7916480503477992,-0.18970991671085358,2.7494640350341797,-1.3092657327651978,-5.2854407840641215e-05,2.0894627571105957,3.9847699838825683,0.00013275264063850045,0.23781079053878784,-1.4375899473773401,-3.966623262385838e-05,0.006294228136539459,0.7258359789848328,3.768519356311521e-21,-0.0355660617351532,1.3451228141784668,-0.0002082399296341464,-0.21822459995746613
145.0,175.0,5.6704,-0.9224,7.0995,-0.0183,-0.2075,-0.1484,-1.7930695019164027,-0.1773582249879837,2.761324167251587,-1.3092296123504639,-1.7124157994374833e-12,2.0907020568847656,3.9847699838825683,0.00014248638763092458,0.24658861756324768,-1.437497917805807,-4.048342088935897e-05,0.007185658439993858,0.7258199453353882,6.849098071414027e-26,-0.02084720879793167,1.3450826406478882,-0.00018392186029814184,-0.1603848934173584
145.0,175.0,5.6704,-0.9224,7.0995,-0.0183,-0.2075,-0.1484,-1.794419904748434,-0.16520725190639496,2.786227226257324,-1.3092255592346191,-5.548008935848554e-20,2.067854166030884,3.984790487880371,0.00012888423225376755,0.25107184052467346,-1.4375422636615198,-4.336878589583648e-08,0.0046091871336102486,0.7257794141769409,1.2447897428032614e-30,-0.022463131695985794,1.345094919204712,-0.00016469013644382358,-0.1987229585647583
145.0,175.0,5.6704,-0.9224,7.0995,-0.0183,-0.2075,-0.1484,-1.7957169018187464,-0.15932197868824005,2.832920789718628,-1.3092215061187744,0.0003737880033440888,2.048407554626465,3.984761877650879,0.00011765169620048255,0.25020891427993774,-1.4375699202166956,-7.882063599896905e-13,-0.0023950044997036457,0.725811779499054,2.2623442019921485e-35,-0.02383285015821457,1.3450584411621094,-0.00014909957826603204,-0.14746834337711334
145.0,175.0,5.6704,-0.9224,7.0995,-0.0183,-0.2075,-0.1484,-1.7968903980650843,-0.14974777400493622,2.803401470184326,-1.3092094659805298,0.0002487649617251009,2.0694894790649414,3.984761877650879,0.00010822005424415693,0.24741698801517487,-1.4375422636615198,-1.4325262740703593e-17,0.01257049385458231,0.7257835865020752,4.1117039670065215e-40,-0.02704102173447609,1.3450826406478882,-0.00013620548998005688,-0.15892931818962097
145.0,175.0,5.6704,-0.9224,7.0995,-0.0183,-0.2075,-0.1484,-1.7981368503966273,-0.14765815436840057,2.787440299987793,-1.3092451095581055,-0.00014589179772883654,2.0877246856689453,3.98483054220166,0.00010018845205195248,0.24441172182559967,-1.437509838734762,-2.603545929300861e-22,-0.001751952338963747,0.7257876992225647,7.006492321624085e-45,-0.02160298079252243,1.3450950384140015,-0.00012536400754470378,-0.14838138222694397
145.0,175.0,5.6704,-0.9224,7.0995,-0.0183,-0.2075,-0.1484,-1.7993227444090785,-0.14645639061927795,2.777740240097046,-1.3092410564422607,-0.00011728095705620944,2.084824800491333,3.9847699838825683,9.32667389861308e-05,0.2456548810005188,-1.437554184590475,-4.731816509993022e-27,0.0014701781328767538,0.7257835865020752,0.0,-0.03553997352719307,1.345103144645691,-0.00011612130037974566,-0.131059467792511
145.0,175.0,5.6704,-0.9224,7.0995,-0.0183,-0.2075,-0.1484,-1.800363679925436,-0.14299997687339783,2.8263754844665527,-1.3092494010925293,-4.6742668928345665e-05,2.041269540786743,3.9847938257404785,0.00010128981375601143,0.2540583312511444,-1.4375422636615198,-8.599842026724578e-32,-0.004598201252520084,0.7257634997367859,0.0,-0.026682693511247635,1.3450826406478882,-0.00010814799315994605,-0.17651373147964478
145.0,175.0,5.6704,-0.9224,7.0995,-0.0183,-0.2075,-0.1484,-1.801425119439596,-0.1296679675579071,2.813380479812622,-1.3091490268707275,-7.588219830267917e-09,2.087982654571533,3.9848262506672363,0.00010574249608907849,0.24332411587238312,-1.4375742117511194,-1.5629789807336396e-36,-0.0035419873893260956,0.7257957458496094,0.0,-0.024103622883558273,1.3451387882232666,-0.00010119916987605393,-0.16910362243652344
122.0,183.0,6.6826,-1.0666,6.8985,-0.0278,-0.1219,-0.1446,-1.8024302921690882,-0.11720336228609085,2.8112330436706543,-1.309185266494751,-2.458486924323801e-16,2.0565273761749268,3.984801931972168,7.30529282009229e-05,0.255417138338089,-1.437521759663717,-2.8405721170328367e-41,-0.0011772433063015342,0.7257916927337646,0.0,-0.029033852741122246,1.3451310396194458,-9.508937364444137e-05,-0.11946672201156616
122.0,183.0,6.6826,-1.0666,6.8985,-0.0278,-0.1219,-0.1446,-1.8033963642516078,-0.1177203506231308,2.855151891708374,-1.309168815612793,-7.965184569140827e-24,2.0941576957702637,3.984842463130615,6.836867396486923e-05,0.2512531578540802,-1.4375341574298304,-6.950036186026409e-05,0.0025442130863666534,0.7257995009422302,0.0,-0.030275879427790642,1.3450785875320435,-8.983168663689867e-05,-0.13805575668811798
122.0,183.0,6.6826,-1.0666,6.8985,-0.0278,-0.1219,-0.1446,-1.8042365513243617,-0.11790702491998672,2.9040536880493164,-1.30913245677948,-2.580618701891267e-31,2.1107869148254395,3.984786196345947,7.723068119958043e-05,0.27140653133392334,-1.4375374952899378,-8.919648826122284e-05,-0.020750680938363075,0.725811779499054,0.0,-0.024091646075248718,1.3450907468795776,-1.2697064448730089e-05,-0.12216134369373322
122.0,183.0,6.6826,-1.0666,6.8985,-0.0278,-0.1219,-0.1446,-1.8051825962462367,-0.10872258245944977,2.95546555519104,-1.3091975450515747,0.0002231820544693619,2.0866966247558594,3.9848057466694335,8.528972830390558e-05,0.2660045325756073,-1.4375422636615198,-9.088341903407127e-05,-0.011836879886686802,0.7257633805274963,0.0,-0.03705640137195587,1.345110535621643,-1.201266422867775e-05,-0.12811279296875
