ramyac6/ROB537/final_project/csv/bad/bad_96.csv
tof_0,tof_1,accelx,accely,accelz,gyrox,gyroy,gyroz,shoulder_lift_joint_position,shoulder_lift_joint_velocity,shoulder_lift_joint_effort,elbow_joint_position,elbow_joint_velocity,elbow_joint_effort,wrist_1_joint_position,wrist_1_joint_velocity,wrist_1_joint_effort,wrist_2_joint_position,wrist_2_joint_velocity,wrist_2_joint_effort,wrist_3_joint_position,wrist_3_joint_velocity,wrist_3_joint_effort,shoulder_pan_joint_position,shoulder_pan_joint_velocity,shoulder_pan_joint_effort
450.0,418.0,-0.7729,-0.2943,9.6096,-0.0339,0.0269,-0.1217,-1.5672216937276353,0.0,1.9991711378097534,-2.008694648742676,-0.0,1.9583990573883057,5.1459626136119745,0.0,0.2796548902988434,-1.5456145445453089,0.0,-0.007151846773922443,0.8531793355941772,-0.0,0.00032023293897509575,0.7724779844284058,0.0,-0.012949463911354542
450.0,418.0,-0.7729,-0.2943,9.6096,-0.0339,0.0269,-0.1217,-1.5672535277302195,0.0,1.9615675210952759,-2.008610248565674,-0.0,1.9975454807281494,5.145950752287664,0.0,0.2792455852031708,-1.545666519795553,0.0,-0.008602705784142017,0.8532273769378662,-0.0,0.008505364879965782,0.7725142240524292,0.0,-0.007759579457342625
450.0,418.0,-0.7729,-0.2943,9.6096,-0.0339,0.0269,-0.1217,-1.5672337336330493,0.0,1.9620401859283447,-2.008679151535034,-0.0,2.027836799621582,5.145958828717031,0.0,0.28259265422821045,-1.5456226507769983,0.0,-0.012093388475477695,0.8531834483146667,-0.0,-0.017868859693408012,0.7725342512130737,0.0,-0.02288716286420822
450.0,418.0,-0.7729,-0.2943,9.6096,-0.0339,0.0269,-0.1217,-1.567285999921598,0.0,2.0052490234375,-2.0086545944213867,-0.0,2.0134239196777344,5.145910817175665,0.0,0.2795458436012268,-1.545626465474264,0.0,-0.0172618068754673,0.8532835245132446,-0.0,-0.001841467572376132,0.772542417049408,0.0,-0.055903080850839615
450.0,418.0,-0.7729,-0.2943,9.6096,-0.0339,0.0269,-0.1217,-1.567193323313706,0.0,1.9658825397491455,-2.0086586475372314,-0.0,1.979867696762085,5.145978945284643,0.0,0.2655346989631653,-1.5456388632403772,0.0,-0.014079924672842026,0.8531674742698669,-0.0,0.01334504783153534,0.7724857926368713,0.0,-0.048009566962718964
450.0,418.0,-0.7729,-0.2943,9.6096,-0.0339,0.0269,-0.1217,-1.5672497314265748,0.0,2.0188615322113037,-2.0086586475372314,-0.0,1.9699625968933105,5.145938443928518,0.0,0.27842700481414795,-1.5456507841693323,0.0,-0.0100767957046628,0.8532468676567078,-0.0,0.01271751243621111,0.7724939584732056,0.0,0.0012030602665618062
450.0,418.0,-0.7729,-0.2943,9.6096,-0.0339,0.0269,-0.1217,-1.567225478389748,0.0,2.003958225250244,-2.0086865425109863,-0.0,2.042933702468872,5.14596705415801,0.0,0.2690400779247284,-1.545682732258932,0.0,-0.021120881661772728,0.853183388710022,-0.0,-0.006868417840451002,0.7724456787109375,0.0,0.001896727830171585
445.0,388.0,-0.7501,-0.3159,9.5839,-0.0287,0.0269,-0.1234,-1.5673061989112576,0.0,2.010162353515625,-2.008714437484741,-0.0,2.0549798011779785,5.146019148617544,0.0,0.27277427911758423,-1.5456627050982874,0.0,-0.017987467348575592,0.8532114028930664,-0.0,0.007549883797764778,0.7724698185920715,0.0,-0.03854706883430481
445.0,388.0,-0.7501,-0.3159,9.5839,-0.0287,0.0269,-0.1234,-1.5672777693583448,0.0,1.9774363040924072,-2.008678436279297,-0.0,1.9721136093139648,5.145930933743276,0.0,0.2624865174293518,-1.545694653187887,0.0,-0.019712980836629868,0.8532794713973999,-0.0,-0.009980249218642712,0.7724857926368713,0.0,-0.002629833295941353
445.0,388.0,-0.7501,-0.3159,9.5839,-0.0287,0.0269,-0.1234,-1.5672859559166064,0.0,2.005389928817749,-2.0087101459503174,-0.0,1.9961220026016235,5.1459626136119745,0.0,0.28361332416534424,-1.5456708113299769,0.0,-0.006695244926959276,0.8532032370567322,-0.0,-0.0037390468642115593,0.7724939584732056,0.0,-0.03284374997019768
445.0,388.0,-0.7501,-0.3159,9.5839,-0.0287,0.0269,-0.1234,-1.5672216525166114,0.0,2.0220489501953125,-2.008702039718628,-0.0,2.069467782974243,5.145939159184255,0.0,0.2712675631046295,-1.545638386403219,0.0,-0.018636824563145638,0.8532797694206238,-0.0,-0.0020585618913173676,0.7725262641906738,0.0,0.010401596315205097
445.0,388.0,-0.7501,-0.3159,9.5839,-0.0287,0.0269,-0.1234,-1.5672736598974844,0.0,1.9762728214263916,-2.0086865425109863,-0.0,1.9965622425079346,5.145939159184255,0.0,0.2716269791126251,-1.5456422011004847,0.0,-0.012423155829310417,0.8532154560089111,-0.0,0.0009501499589532614,0.7724820971488953,0.0,-0.008105171844363213
445.0,388.0,-0.7501,-0.3159,9.5839,-0.0287,0.0269,-0.1234,-1.5672620195294549,0.0,1.9845973253250122,-2.008650541305542,-0.0,1.9670233726501465,5.145946609764852,0.0,0.2693563401699066,-1.5456865469561976,0.0,-0.014646544121205807,0.8532154560089111,-0.0,0.00854551512748003,0.7724659442901611,0.0,-0.029005946591496468
445.0,388.0,-0.7501,-0.3159,9.5839,-0.0287,0.0269,-0.1234,-1.5672819111826648,0.0,1.9790693521499634,-2.008690595626831,-0.0,1.9867160320281982,5.1459752199943445,0.0,0.2735796272754669,-1.5456989447223108,0.0,-0.005662164185196161,0.8532832860946655,-0.0,0.013631695881485939,0.7724939584732056,0.0,0.009469625540077686
445.0,388.0,-0.7501,-0.3159,9.5839,-0.0287,0.0269,-0.1234,-1.5672699825702985,0.0,2.0037622451782227,-2.0086669921875,-0.0,2.016927719116211,5.1459708390529535,0.0,0.2769291400909424,-1.545666519795553,0.0,-0.009724237024784088,0.8531834483146667,-0.0,0.0015350152971222997,0.7724698185920715,0.0,0.027594368904829025
445.0,388.0,-0.7501,-0.3159,9.5839,-0.0287,0.0269,-0.1234,-1.5672658975566556,0.0,1.9990293979644775,-2.0086145401000977,-0.0,2.002016067504883,5.145926850825109,0.0,0.2789657413959503,-1.545610253010885,0.0,-0.003059296403080225,0.8532273769378662,-0.0,-0.006941286846995354,0.7725262641906738,0.0,-0.002166156657040119
445.0,388.0,-0.7501,-0.3159,9.5839,-0.0287,0.0269,-0.1234,-1.5672215831330796,0.0,2.005362033843994,-2.0086750984191895,-0.0,2.0026895999908447,5.145966756134786,0.0,0.27612635493278503,-1.5456345717059534,0.0,-0.012853030115365982,0.8531718850135803,-0.0,0.011035392992198467,0.7724779844284058,0.0,0.0019420976750552654
445.0,388.0,-0.7501,-0.3159,9.5839,-0.0287,0.0269,-0.1234,-1.5672216406422486,0.0,1.9850354194641113,-2.0087265968322754,-0.0,1.9715797901153564,5.145947235613622,0.0,0.2781449854373932,-1.5456145445453089,0.0,-0.02089104987680912,0.8532235026359558,-0.0,0.008706120774149895,0.772473931312561,0.0,-0.018893614411354065
445.0,388.0,-0.7501,-0.3159,9.5839,-0.0287,0.0269,-0.1234,-1.567245593327545,0.0,2.00899076461792,-2.008734941482544,-0.0,1.9743224382400513,5.145950752287664,0.0,0.2728779911994934,-1.5456422011004847,0.0,-0.008456227369606495,0.8531714677810669,-0.0,0.0008319715852849185,0.7724456787109375,0.0,-0.030172934755682945
445.0,388.0,-0.7501,-0.3159,9.5839,-0.0287,0.0269,-0.1234,-1.5672617715648194,0.0,2.0008461475372314,-2.0086421966552734,-0.0,2.01132869720459,5.145946609764852,0.0,0.27544182538986206,-1.545638386403219,0.0,-0.015918849036097527,0.8533035516738892,-0.0,0.00499449297785759,0.7724577784538269,0.0,0.0028967498801648617
457.0,387.0,-0.8088,-0.2889,9.6808,-0.0368,0.0261,-0.122,-1.5672255030697961,0.0,1.9948315620422363,-2.008718252182007,-0.0,2.007270336151123,5.145983087807455,0.0,0.27726858854293823,-1.5455859343158167,0.0,-0.003757982514798641,0.8532074689865112,-0.0,0.00534214498475194,0.7724899053573608,0.0,-0.03802983835339546
457.0,387.0,-0.8088,-0.2889,9.6808,-0.0368,0.0261,-0.122,-1.5672740759658446,0.0,1.997377634048462,-2.0086865425109863,-0.0,1.9967418909072876,5.145966785937109,0.0,0.27469319105148315,-1.545666519795553,0.0,-0.014181945472955704,0.8531633615493774,-0.0,0.0016947321128100157,0.7724456787109375,0.0,-0.017082706093788147
457.0,387.0,-0.8088,-0.2889,9.6808,-0.0368,0.0261,-0.122,-1.5672497314265748,0.0,1.9835281372070312,-2.0086865425109863,-0.0,1.9631834030151367,5.1459871409233,0.0,0.27401572465896606,-1.5456464926349085,0.0,-0.01049426943063736,0.8532236218452454,-0.0,0.015696290880441666,0.7725100517272949,0.0,-9.928224608302116e-05
457.0,387.0,-0.8088,-0.2889,9.6808,-0.0368,0.0261,-0.122,-1.5672097970130672,0.0,1.9532384872436523,-2.00873064994812,-0.0,1.955498456954956,5.145950752287664,0.0,0.26047608256340027,-1.545638386403219,0.0,-0.0060693370178341866,0.8532508611679077,-0.0,-0.005599579308182001,0.7724618315696716,0.0,0.012327275238931179
457.0,387.0,-0.8088,-0.2889,9.6808,-0.0368,0.0261,-0.122,-1.5672777449111273,0.0,1.9779183864593506,-2.0086629390716553,-0.0,2.0172548294067383,5.145995217352667,0.0,0.27205395698547363,-1.5456345717059534,0.0,-0.009207767434418201,0.8532075881958008,-0.0,0.0011821174994111061,0.7725101113319397,0.0,0.015431997366249561
457.0,387.0,-0.8088,-0.2889,9.6808,-0.0368,0.0261,-0.122,-1.567209364646562,0.0,2.0065340995788574,-2.0086824893951416,-0.0,1.9929184913635254,5.145935076266088,0.0,0.2826577126979828,-1.5456507841693323,0.0,-0.01474281307309866,0.853191614151001,-0.0,0.010286171920597553,0.7725142240524292,0.0,0.018178507685661316
457.0,387.0,-0.8088,-0.2889,9.6808,-0.0368,0.0261,-0.122,-1.567265909663849,0.0,1.9359164237976074,-2.0086865425109863,-0.0,2.0118768215179443,5.145950752287664,0.0,0.2670948803424835,-1.545654598866598,0.0,-0.01751643605530262,0.8531714677810669,-0.0,-0.004243332892656326,0.7724862098693848,0.0,-0.02499951422214508
457.0,387.0,-0.8088,-0.2889,9.6808,-0.0368,0.0261,-0.122,-1.5672658931328733,0.0,2.0239593982696533,-2.008697986602783,-0.0,2.0099124908447266,5.145962583809652,0.0,0.2700374126434326,-1.545678440724508,0.0,-0.012747228145599365,0.8532315492630005,-0.0,-0.005014938302338123,0.7725262641906738,0.0,-0.002387784654274583
457.0,387.0,-0.8088,-0.2889,9.6808,-0.0368,0.0261,-0.122,-1.5672617634157469,0.0,2.0094213485717773,-2.0086824893951416,-0.0,1.9915558099746704,5.145958530693807,0.0,0.2714437246322632,-1.5456064383136194,0.0,-0.01437959261238575,0.8531513810157776,-0.0,0.004603967070579529,0.7724659442901611,0.0,-0.044477544724941254
457.0,387.0,-0.8088,-0.2889,9.6808,-0.0368,0.0261,-0.122,-1.567233309182786,0.0,2.008024215698242,-2.0086865425109863,-0.0,2.064643383026123,5.1459708390529535,0.0,0.28472262620925903,-1.5456183592425745,0.0,-0.006610759533941746,0.8532437086105347,-0.0,-0.005862961057573557,0.7724698185920715,0.0,0.008130908012390137
457.0,387.0,-0.8088,-0.2889,9.6808,-0.0368,0.0261,-0.122,-1.5672579261339088,0.0,2.0528740882873535,-2.008678436279297,-0.0,2.009148359298706,5.145962911635198,0.0,0.2757865786552429,-1.5456302801715296,0.0,-0.023472871631383896,0.8532273769378662,-0.0,0.002759572584182024,0.7724700570106506,0.0,0.05679633840918541
457.0,387.0,-0.8088,-0.2889,9.6808,-0.0368,0.0261,-0.122,-1.5672535768574853,0.0,1.9731132984161377,-2.008702039718628,-0.0,1.9657726287841797,5.145962583809652,0.0,0.27812352776527405,-1.545666519795553,0.0,-0.017419984564185143,0.8532631397247314,-0.0,0.0012696613557636738,0.7724578380584717,0.0,-0.010094733908772469
457.0,387.0,-0.8088,-0.2889,9.6808,-0.0368,0.0261,-0.122,-1.567233309182786,0.0,1.9922466278076172,-2.0086987018585205,-0.0,2.007568597793579,5.145958828717031,0.0,0.2729148864746094,-1.545626465474264,0.0,-0.0216015987098217,0.8531953692436218,-0.0,-0.005263155326247215,0.7725666165351868,0.0,-0.004892973229289055
451.0,396.0,-0.7711,-0.277,9.67,-0.0385,0.0302,-0.1222,-1.5672658975566556,0.0,1.9964935779571533,-2.008697986602783,-0.0,2.010913133621216,5.145966756134786,0.0,0.272125244140625,-1.5456340948687952,0.0,-0.013147693127393723,0.853223443031311,-0.0,0.0025551156140863895,0.772497832775116,0.0,0.013785693794488907
451.0,396.0,-0.7711,-0.277,9.67,-0.0385,0.0302,-0.1222,-1.5672415367192407,0.0,1.9615044593811035,-2.0086750984191895,-0.0,2.0231313705444336,5.145910846977987,0.0,0.27522265911102295,-1.545626465474264,0.0,0.001783314161002636,0.853255033493042,-0.0,-0.011770150624215603,0.7725139856338501,0.0,0.020038316026329994
451.0,396.0,-0.7711,-0.277,9.67,-0.0385,0.0302,-0.1222,-1.5672576537220557,0.0,1.9944403171539307,-2.008697986602783,-0.0,2.0145771503448486,5.1459708390529535,0.0,0.27311015129089355,-1.545626465474264,0.0,0.002432608976960182,0.853219211101532,-0.0,0.0026158387772738934,0.7725222110748291,0.0,0.028289373964071274
451.0,396.0,-0.7711,-0.277,9.67,-0.0385,0.0302,-0.1222,-1.5672741281199087,0.0,1.9791514873504639,-2.008650302886963,-0.0,2.032677412033081,5.1459748325641534,0.0,0.28000375628471375,-1.545654598866598,0.0,-0.02556033246219158,0.8532355427742004,-0.0,-0.002151074819266796,0.7724939584732056,0.0,-0.056412577629089355
451.0,396.0,-0.7711,-0.277,9.67,-0.0385,0.0302,-0.1222,-1.567281935862713,0.0,1.9879412651062012,-2.008718490600586,-0.0,1.9983643293380737,5.145923155337133,0.0,0.26281997561454773,-1.545666519795553,0.0,-0.016039784997701645,0.8531755208969116,-0.0,-0.0028525753878057003,0.7724899053573608,0.0,0.02016604319214821
451.0,396.0,-0.7711,-0.277,9.67,-0.0385,0.0302,-0.1222,-1.5672538203983386,0.0,1.984637975692749,-2.0086824893951416,-0.0,1.9882127046585083,5.145983087807455,0.0,0.2798648476600647,-1.545638386403219,0.0,-0.008839203044772148,0.8532593846321106,-0.0,-0.00018743524560704827,0.7724698185920715,0.0,0.014744661748409271
451.0,396.0,-0.7711,-0.277,9.67,-0.0385,0.0302,-0.1222,-1.5672538164402177,0.0,2.02917742729187,-2.0086669921875,-0.0,1.9988762140274048,5.146003144770422,0.0,0.2738387882709503,-1.5456865469561976,0.0,-0.02027120068669319,0.8532590270042419,-0.0,0.0020612734369933605,0.7724939584732056,0.0,0.012388347648084164
451.0,396.0,-0.7711,-0.277,9.67,-0.0385,0.0302,-0.1222,-1.5672617715648194,0.0,1.990478515625,-2.0087060928344727,-0.0,2.009709358215332,5.145991164236822,0.0,0.2813693881034851,-1.5456584135638636,0.0,-0.0017155378591269255,0.8532467484474182,-0.0,0.006795182358473539,0.7724980711936951,0.0,0.019293347373604774
451.0,396.0,-0.7711,-0.277,9.67,-0.0385,0.0302,-0.1222,-1.5672538120164354,0.0,2.00217866897583,-2.008714437484741,-0.0,2.0264124870300293,5.1459708390529535,0.0,0.27197033166885376,-1.545666519795553,0.0,-0.008778396993875504,0.8532426953315735,-0.0,0.002160263480618596,0.7724857926368713,0.0,-0.00025576353073120117
451.0,396.0,-0.7711,-0.277,9.67,-0.0385,0.0302,-0.1222,-1.5672415127376844,0.0,2.006324291229248,-2.0086750984191895,-0.0,2.0320780277252197,5.145983087807455,0.0,0.2743152379989624,-1.545654598866598,0.0,-0.004617270082235336,0.8532191514968872,-0.0,-0.004292147699743509,0.7724939584732056,0.0,0.03545152023434639
451.0,396.0,-0.7711,-0.277,9.67,-0.0385,0.0302,-0.1222,-1.5672097725658496,0.0,2.009227752685547,-2.008702039718628,-0.0,1.9929757118225098,5.145962583809652,0.0,0.28455308079719543,-1.5456145445453089,0.0,-0.02495967410504818,0.8532114028930664,-0.0,-0.0025068712420761585,0.7724577784538269,0.0,-0.02784634567797184
451.0,396.0,-0.7711,-0.277,9.67,-0.0385,0.0302,-0.1222,-1.5672337215258558,0.0,2.0265228748321533,-2.008678436279297,-0.0,2.0107226371765137,5.145999061852255,0.0,0.2745360732078552,-1.5456507841693323,0.0,-0.017769580706954002,0.8532195091247559,-0.0,0.0007179761887528002,0.7724495530128479,0.0,0.02288273349404335
440.0,406.0,-0.7525,-0.3039,9.6497,-0.0463,0.0228,-0.1179,-1.5672378104976197,0.0,1.983782172203064,-2.0086865425109863,-0.0,2.0097720623016357,5.145966756134786,0.0,0.2804197669029236,-1.545626465474264,0.0,-0.010048292577266693,0.8532590866088867,-0.0,0.006734608672559261,0.7725141644477844,0.0,-0.021901704370975494
440.0,406.0,-0.7525,-0.3039,9.6497,-0.0463,0.0228,-0.1179,-1.567233709651493,0.0,2.007793426513672,-2.00873064994812,-0.0,2.005349636077881,5.145991164236822,0.0,0.2802708148956299,-1.5456708113299769,0.0,-0.019308555871248245,0.8532314300537109,-0.0,0.00972657185047865,0.7724899053573608,0.0,-0.011534462682902813
440.0,406.0,-0.7525,-0.3039,9.6497,-0.0463,0.0228,-0.1179,-1.5672617715648194,0.0,1.9665696620941162,-2.008718252182007,-0.0,1.9764509201049805,5.145967113762655,0.0,0.272508442401886,-1.5456422011004847,0.0,-0.012909077107906342,0.8531513810157776,-0.0,-0.006448972038924694,0.7724939584732056,0.0,-0.04496074840426445
440.0,406.0,-0.7525,-0.3039,9.6497,-0.0463,0.0228,-0.1179,-1.5672736924937745,0.0,1.9733104705810547,-2.0086865425109863,-0.0,2.0283336639404297,5.145983087807455,0.0,0.269468754529953,-1.545666519795553,0.0,-0.010412774980068207,0.8532549738883972,-0.0,-0.009225305169820786,0.7724939584732056,0.0,0.015879560261964798
440.0,406.0,-0.7525,-0.3039,9.6497,-0.0463,0.0228,-0.1179,-1.5672175516704847,0.0,1.9750282764434814,-2.008714437484741,-0.0,2.006824254989624,5.145958530693807,0.0,0.2710598111152649,-1.5456221739398401,0.0,-0.024952266365289688,0.8531834483146667,-0.0,-0.004849199205636978,0.7725142240524292,0.0,-0.01986309140920639
440.0,406.0,-0.7525,-0.3039,9.6497,-0.0463,0.0228,-0.1179,-1.5672497314265748,0.0,1.9744477272033691,-2.0086629390716553,-0.0,2.001451015472412,5.145950782089987,0.0,0.27637505531311035,-1.5456145445453089,0.0,-0.0037109642289578915,0.8531754016876221,-0.0,0.011994576081633568,0.7724618911743164,0.0,-0.01647031120955944
440.0,406.0,-0.7525,-0.3039,9.6497,-0.0463,0.0228,-0.1179,-1.5672901298715551,0.0,1.9705994129180908,-2.0086586475372314,-0.0,1.983098030090332,5.145942497044363,0.0,0.2691810429096222,-1.5456464926349085,0.0,-0.00821814127266407,0.8532354831695557,-0.0,0.0020419228821992874,0.772473931312561,0.0,-0.0039711883291602135
440.0,406.0,-0.7525,-0.3039,9.6497,-0.0463,0.0228,-0.1179,-1.5672497314265748,0.0,1.9936590194702148,-2.008702039718628,-0.0,1.9884190559387207,5.145938414126196,0.0,0.2787420451641083,-1.5456340948687952,0.0,-0.017581462860107422,0.8532195091247559,-0.0,-0.004894692450761795,0.7725221514701843,0.0,0.00632632989436388
440.0,406.0,-0.7525,-0.3039,9.6497,-0.0463,0.0228,-0.1179,-1.5672497151284297,0.0,2.002045154571533,-2.008714437484741,-0.0,1.9929509162902832,5.145978975086965,0.0,0.2764168679714203,-1.5456708113299769,0.0,-0.016430949792265892,0.8531715273857117,-0.0,0.007081696763634682,0.7724375128746033,0.0,-0.04770643636584282
440.0,406.0,-0.7525,-0.3039,9.6497,-0.0463,0.0228,-0.1179,-1.5672579666464408,0.0,2.007772922515869,-2.0087060928344727,-0.0,2.024240493774414,5.1459626136119745,0.0,0.26874399185180664,-1.5456865469561976,0.0,-0.016594961285591125,0.8532427549362183,-0.0,0.007812140509486198,0.7724618315696716,0.0,-0.006669965572655201
440.0,406.0,-0.7525,-0.3039,9.6497,-0.0463,0.0228,-0.1179,-1.5672617715648194,0.0,2.026381492614746,-2.008714437484741,-0.0,2.055856227874756,5.14599488952712,0.0,0.26069390773773193,-1.5456302801715296,0.0,-0.0034462623298168182,0.8532396554946899,-0.0,-0.0064263432286679745,0.7725021243095398,0.0,0.028379010036587715
440.0,406.0,-0.7525,-0.3039,9.6497,-0.0463,0.0228,-0.1179,-1.5672535775559773,0.0,2.0091283321380615,-2.008638858795166,-0.0,2.0099053382873535,5.145898538618841,0.0,0.27092310786247253,-1.5455945173846644,0.0,-0.01475607417523861,0.8532236218452454,-0.0,-0.01393403671681881,0.7724618315696716,0.0,-0.0032763881608843803
440.0,406.0,-0.7525,-0.3039,9.6497,-0.0463,0.0228,-0.1179,-1.5672255030697961,0.0,1.9591882228851318,-2.0087060928344727,-0.0,2.052469253540039,5.145950752287664,0.0,0.2765544056892395,-1.5456345717059534,0.0,-0.014866316691040993,0.8532314300537109,-0.0,0.012670180760324001,0.7725019454956055,0.0,-0.03307892009615898
486.0,404.0,-0.8207,-0.3141,9.7041,-0.0394,0.0177,-0.1258,-1.5672497151284297,0.0,1.9798657894134521,-2.0087268352508545,-0.0,1.9880284070968628,5.1459626136119745,0.0,0.2724798321723938,-1.5456464926349085,0.0,-0.011464584618806839,0.8532031774520874,-0.0,-0.007716144435107708,0.7725021243095398,0.0,-0.03620971366763115
486.0,404.0,-0.8207,-0.3141,9.7041,-0.0394,0.0177,-0.1258,-1.567209380944707,0.0,1.917659044265747,-2.0086421966552734,-0.0,1.9515674114227295,5.145966756134786,0.0,0.27412253618240356,-1.5456302801715296,0.0,-0.021208666265010834,0.8532273769378662,-0.0,0.002593466779217124,0.7724698185920715,0.0,0.023346025496721268
486.0,404.0,-0.8207,-0.3141,9.7041,-0.0394,0.0177,-0.1258,-1.5672296157902856,0.0,1.9781134128570557,-2.008718490600586,-0.0,2.0022597312927246,5.146019208222189,0.0,0.2731035649776459,-1.5455706755267542,0.0,-0.01212160661816597,0.8531473278999329,-0.0,-0.004118419252336025,0.7724899053573608,0.0,-0.017310086637735367
486.0,404.0,-0.8207,-0.3141,9.7041,-0.0394,0.0177,-0.1258,-1.567261779713892,0.0,1.9885770082473755,-2.0086939334869385,-0.0,2.0406272411346436,5.145983087807455,0.0,0.27170008420944214,-1.5456584135638636,0.0,-0.01817857101559639,0.8532029390335083,-0.0,0.008184608072042465,0.7724980711936951,0.0,-0.03701994568109512
486.0,404.0,-0.8207,-0.3141,9.7041,-0.0394,0.0177,-0.1258,-1.5672415695483615,0.0,2.0327870845794678,-2.0086669921875,-0.0,2.009655714035034,5.145978975086965,0.0,0.27339258790016174,-1.5456422011004847,0.0,-0.01220940612256527,0.8532427549362183,-0.0,-0.0016536727780476213,0.7725100517272949,0.0,0.06162859499454498
486.0,404.0,-0.8207,-0.3141,9.7041,-0.0394,0.0177,-0.1258,-1.5672296239393582,0.0,2.0301122665405273,-2.008702039718628,-0.0,2.017613649368286,5.146003144770422,0.0,0.28148460388183594,-1.5456746260272425,0.0,-0.011769894510507584,0.8532756567001343,-0.0,-0.006416603922843933,0.772534191608429,0.0,0.0101701645180583
486.0,404.0,-0.8207,-0.3141,9.7041,-0.0394,0.0177,-0.1258,-1.5672255552238603,0.0,1.9963107109069824,-2.008690595626831,-0.0,1.959528923034668,5.1459472058113,0.0,0.2769041657447815,-1.5456627050982874,0.0,-0.004493071231991053,0.8532074093818665,-0.0,0.00445959297940135,0.7724618315696716,0.0,0.004620591644197702
486.0,404.0,-0.8207,-0.3141,9.7041,-0.0394,0.0177,-0.1258,-1.5672093974756827,0.0,1.9880790710449219,-2.0086982250213623,-0.0,1.9975073337554932,5.145950752287664,0.0,0.27918633818626404,-1.5456584135638636,0.0,-0.0204878281801939,0.8531796932220459,-0.0,0.004589357879012823,0.772473931312561,0.0,-0.01840500719845295
486.0,404.0,-0.8207,-0.3141,9.7041,-0.0394,0.0177,-0.1258,-1.5672257456793268,0.0,1.9429831504821777,-2.008702039718628,-0.0,2.0086617469787598,5.146010952978887,0.0,0.2737100124359131,-1.5456660429583948,0.0,-0.00818784162402153,0.8531914949417114,-0.0,-0.0010351459495723248,0.7724858522415161,0.0,0.012064036913216114
486.0,404.0,-0.8207,-0.3141,9.7041,-0.0394,0.0177,-0.1258,-1.5672456054347386,0.0,1.9683849811553955,-2.0086543560028076,-0.0,2.01480770111084,5.145974892168798,0.0,0.2834094762802124,-1.5456422011004847,0.0,-0.008858284913003445,0.8531875610351562,-0.0,0.006221399176865816,0.7724939584732056,0.0,0.03151722997426987
486.0,404.0,-0.8207,-0.3141,9.7041,-0.0394,0.0177,-0.1258,-1.567245618240424,0.0,2.035658836364746,-2.0086939334869385,-0.0,2.050662040710449,5.145958828717031,0.0,0.28500819206237793,-1.5456302801715296,0.0,-0.014640836045145988,0.8532075881958008,-0.0,0.002835195977240801,0.7724334597587585,0.0,0.007294339127838612
486.0,404.0,-0.8207,-0.3141,9.7041,-0.0394,0.0177,-0.1258,-1.567265889407583,0.0,1.9588390588760376,-2.008683204650879,-0.0,1.9994266033172607,5.1459708390529535,0.0,0.27683937549591064,-1.5456584135638636,0.0,-0.015049634501338005,0.8531997799873352,-0.0,-0.010220784693956375,0.77248615026474,0.0,0.03347548097372055
486.0,404.0,-0.8207,-0.3141,9.7041,-0.0394,0.0177,-0.1258,-1.5671974928448726,0.0,1.9712907075881958,-2.0086464881896973,-0.0,2.026550531387329,5.146003144770422,0.0,0.2572137415409088,-1.5456145445453089,0.0,0.0003662598319351673,0.8531514406204224,-0.0,0.006308105308562517,0.7724698185920715,0.0,0.025774162262678146
470.0,411.0,-0.8291,-0.3045,9.6993,-0.0399,0.0261,-0.1234,-1.5672777775074174,0.0,1.9942247867584229,-2.0086987018585205,-0.0,2.003553628921509,5.145923155337133,0.0,0.2703891694545746,-1.545666519795553,0.0,-0.01992804929614067,0.853159487247467,-0.0,-0.0010711929062381387,0.7724817395210266,0.0,-0.03465282544493675
470.0,411.0,-0.8291,-0.3045,9.6993,-0.0399,0.0261,-0.1234,-1.5672337133767833,0.0,1.967238187789917,-2.0087029933929443,-0.0,1.9871504306793213,5.145943152695455,0.0,0.27051377296447754,-1.545610253010885,0.0,-0.016765492036938667,0.853179395198822,-0.0,0.007352071348577738,0.772497832775116,0.0,0.02584347315132618
470.0,411.0,-0.8291,-0.3045,9.6993,-0.0399,0.0261,-0.1234,-1.5672576825930555,0.0,1.9834938049316406,-2.0086824893951416,-0.0,2.0200681686401367,5.145914929896154,0.0,0.2695905268192291,-1.5456865469561976,0.0,-0.01708628609776497,0.8531674742698669,-0.0,-0.001048714853823185,0.7725423574447632,0.0,-0.027105282992124557
470.0,411.0,-0.8291,-0.3045,9.6993,-0.0399,0.0261,-0.1234,-1.5672658728766073,0.0,1.9416308403015137,-2.0086710453033447,-0.0,1.9959542751312256,5.145990836411276,0.0,0.2817361354827881,-1.5456741491900843,0.0,-0.0193837471306324,0.8532195091247559,-0.0,0.005940253380686045,0.7724577784538269,0.0,0.024068862199783325
470.0,411.0,-0.8291,-0.3045,9.6993,-0.0399,0.0261,-0.1234,-1.5672859640656789,0.0,1.9725990295410156,-2.008678436279297,-0.0,1.9874212741851807,5.145935076266088,0.0,0.27478379011154175,-1.545654598866598,0.0,-0.020351096987724304,0.8532388210296631,-0.0,-0.015054116025567055,0.7724857926368713,0.0,-0.023427944630384445
470.0,411.0,-0.8291,-0.3045,9.6993,-0.0399,0.0261,-0.1234,-1.5672456098585208,0.0,1.9811506271362305,-2.008718490600586,-0.0,1.9905903339385986,5.1459748325641534,0.0,0.27966630458831787,-1.5456627050982874,0.0,-0.024258999153971672,0.8532273769378662,-0.0,-0.0037783023435622454,0.7724776268005371,0.0,-0.033262334764003754
470.0,411.0,-0.8291,-0.3045,9.6993,-0.0399,0.0261,-0.1234,-1.5672658481965591,0.0,1.9880459308624268,-2.0086824893951416,-0.0,1.9864652156829834,5.145966756134786,0.0,0.2709084749221802,-1.5456422011004847,0.0,-0.021601593121886253,0.8531956672668457,-0.0,0.010052036494016647,0.772473931312561,0.0,-0.016233276575803757
470.0,411.0,-0.8291,-0.3045,9.6993,-0.0399,0.0261,-0.1234,-1.5672337336330493,0.0,1.9776126146316528,-2.0086824893951416,-0.0,1.9550514221191406,5.145954835205831,0.0,0.2705036401748657,-1.545666519795553,0.0,-0.014585297554731369,0.853159487247467,-0.0,-0.002731864806264639,0.7724779844284058,0.0,0.0021277470514178276
470.0,411.0,-0.8291,-0.3045,9.6993,-0.0399,0.0261,-0.1234,-1.567257694700249,0.0,1.9639650583267212,-2.0087101459503174,-0.0,2.0443482398986816,5.146015393524923,0.0,0.2809162735939026,-1.545678440724508,0.0,-0.0026118599344044924,0.853246808052063,-0.0,-0.005940722301602364,0.7725142240524292,0.0,0.016880493611097336
470.0,411.0,-0.8291,-0.3045,9.6993,-0.0399,0.0261,-0.1234,-1.5672415367192407,0.0,1.9892104864120483,-2.008646249771118,-0.0,2.0197975635528564,5.145927148848333,0.0,0.2715829014778137,-1.5456503073321741,0.0,-0.02200542390346527,0.8531674742698669,-0.0,-0.0013913842849433422,0.7724899053573608,0.0,-0.009981030598282814
470.0,411.0,-0.8291,-0.3045,9.6993,-0.0399,0.0261,-0.1234,-1.5672298472239454,0.0,1.933487892150879,-2.008694648742676,-0.0,2.019439220428467,5.145983087807455,0.0,0.26264631748199463,-1.5456345717059534,0.0,-0.0007645953446626663,0.8532395958900452,-0.0,-0.0054326048120856285,0.7724820971488953,0.0,-0.009159577079117298
470.0,411.0,-0.8291,-0.3045,9.6993,-0.0399,0.0261,-0.1234,-1.5672257950394233,0.0,1.97063148021698,-2.00862979888916,-0.0,2.0125646591186523,5.145978915482321,0.0,0.2706114649772644,-1.545610253010885,0.0,-0.00549453916028142,0.8532195091247559,-0.0,3.0932133086025715e-05,0.7724698185920715,0.0,-0.030766936019062996
470.0,411.0,-0.8291,-0.3045,9.6993,-0.0399,0.0261,-0.1234,-1.5672860083035012,0.0,1.9775350093841553,-2.008697986602783,-0.0,2.023963689804077,5.145962583809652,0.0,0.2712000012397766,-1.5456388632403772,0.0,-0.02345913089811802,0.8532195091247559,-0.0,-0.005077952519059181,0.7724095582962036,0.0,-0.0420910008251667
449.0,405.0,-0.7286,-0.3063,9.5964,-0.0362,0.0234,-0.1228,-1.5672538164402177,0.0,1.9868419170379639,-2.008694648742676,-0.0,2.0139076709747314,5.145962583809652,0.0,0.2732820212841034,-1.5456422011004847,0.0,-0.0019042283529415727,0.8532794117927551,-0.0,-0.004334156401455402,0.7725141644477844,0.0,0.05042333900928497
449.0,405.0,-0.7286,-0.3063,9.5964,-0.0362,0.0234,-0.1228,-1.56725763719108,0.0,1.9947693347930908,-2.008694648742676,-0.0,1.9961681365966797,5.145954835205831,0.0,0.28013527393341064,-1.545666519795553,0.0,-0.004953967407345772,0.8532195091247559,-0.0,0.007368540391325951,0.7724457383155823,0.0,-0.03220827504992485
449.0,405.0,-0.7286,-0.3063,9.5964,-0.0362,0.0234,-0.1228,-1.5672419364894559,0.0,2.0086421966552734,-2.0086824893951416,-0.0,1.9703240394592285,5.1459748325641534,0.0,0.2701934576034546,-1.5456302801715296,0.0,-0.006067538633942604,0.8532154560089111,-0.0,0.005428992211818695,0.7724980711936951,0.0,0.01193283312022686
449.0,405.0,-0.7286,-0.3063,9.5964,-0.0362,0.0234,-0.1228,-1.5672900490793218,0.0,1.9994330406188965,-2.008718490600586,-0.0,2.0073204040527344,5.145950752287664,0.0,0.2788337469100952,-1.5456989447223108,0.0,-0.01782785728573799,0.8531994819641113,-0.0,-0.006371410563588142,0.7724577784538269,0.0,0.02100091427564621
449.0,405.0,-0.7286,-0.3063,9.5964,-0.0362,0.0234,-0.1228,-1.567306316257902,0.0,1.979146122932434,-2.008714437484741,-0.0,2.0415830612182617,5.145990836411276,0.0,0.2757259011268616,-1.5456302801715296,0.0,-0.00890087429434061,0.8532508611679077,-0.0,0.0053064110688865185,0.7725019454956055,0.0,-0.026625046506524086
449.0,405.0,-0.7286,-0.3063,9.5964,-0.0362,0.0234,-0.1228,-1.5672497151284297,0.0,2.006099224090576,-2.0086865425109863,-0.0,2.03412127494812,5.145966756134786,0.0,0.291422963142395,-1.5456507841693323,0.0,-0.006683129817247391,0.8531755208969116,-0.0,-0.002585706301033497,0.7724779844284058,0.0,0.002472182037308812
449.0,405.0,-0.7286,-0.3063,9.5964,-0.0362,0.0234,-0.1228,-1.567253775694855,0.0,1.9971121549606323,-2.0087268352508545,-0.0,2.0045247077941895,5.1459911344344995,0.0,0.2710491120815277,-1.5456507841693323,0.0,-0.022019769996404648,0.8532395958900452,-0.0,-0.000590465497225523,0.772526204586029,0.0,0.013056272640824318
449.0,405.0,-0.7286,-0.3063,9.5964,-0.0362,0.0234,-0.1228,-1.5672337417821218,0.0,1.9707872867584229,-2.0086586475372314,-0.0,2.0053815841674805,5.145974802761831,0.0,0.28827303647994995,-1.5456388632403772,0.0,-0.015992961823940277,0.8532715439796448,-0.0,-0.009158460423350334,0.77248615026474,0.0,-0.013164207339286804
449.0,405.0,-0.7286,-0.3063,9.5964,-0.0362,0.0234,-0.1228,-1.5672659012819459,0.0,2.0250637531280518,-2.008718490600586,-0.0,1.9813122749328613,5.145950752287664,0.0,0.2826424241065979,-1.5456226507769983,0.0,-0.014512876980006695,0.853203535079956,-0.0,-0.007045183330774307,0.7724618315696716,0.0,-0.008197126910090446
449.0,405.0,-0.7286,-0.3063,9.5964,-0.0362,0.0234,-0.1228,-1.5672538120164354,0.0,1.994570255279541,-2.0086710453033447,-0.0,1.985879898071289,5.1459748325641534,0.0,0.2684232294559479,-1.5456503073321741,0.0,-0.013140302151441574,0.8531275987625122,-0.0,-0.009118001908063889,0.7724698185920715,0.0,0.00031310319900512695
449.0,405.0,-0.7286,-0.3063,9.5964,-0.0362,0.0234,-0.1228,-1.5672295752777536,0.0,1.9793726205825806,-2.008718490600586,-0.0,2.0150644779205322,5.145946639567175,0.0,0.27989333868026733,-1.5456746260272425,0.0,-0.00588752469047904,0.8532074689865112,-0.0,-0.001599485520273447,0.7724536061286926,0.0,-0.039080910384655
449.0,405.0,-0.7286,-0.3063,9.5964,-0.0362,0.0234,-0.1228,-1.5672497314265748,0.0,1.9651739597320557,-2.00860595703125,-0.0,1.986869215965271,5.146003144770422,0.0,0.26901954412460327,-1.5456302801715296,0.0,-0.016984812915325165,0.8532388210296631,-0.0,-0.002922970335930586,0.772506058216095,0.0,-0.009347911924123764
449.0,405.0,-0.7286,-0.3063,9.5964,-0.0362,0.0234,-0.1228,-1.5672538203983386,0.0,1.9452619552612305,-2.008678436279297,-0.0,1.976671576499939,5.145966756134786,0.0,0.27902597188949585,-1.5456388632403772,0.0,-0.017530834302306175,0.8532395958900452,-0.0,-0.006973374634981155,0.7724939584732056,0.0,-0.01964925415813923
451.0,408.0,-0.7454,-0.2566,9.6443,-0.0266,0.0261,-0.1213,-1.567269958123081,0.0,1.9998918771743774,-2.008674383163452,-0.0,1.9986029863357544,5.145999061852255,0.0,0.2850515842437744,-1.5456221739398401,0.0,-0.023226432502269745,0.853179395198822,-0.0,-0.0004759840667247772,0.772473931312561,0.0,-0.04111028462648392
451.0,408.0,-0.7454,-0.2566,9.6443,-0.0266,0.0261,-0.1213,-1.567253552875929,0.0,1.9534406661987305,-2.008702039718628,-0.0,1.9982925653457642,5.145978915482321,0.0,0.2815181016921997,-1.5456026236163538,0.0,-0.020314425230026245,0.8532589673995972,-0.0,0.006706584710627794,0.772497832775116,0.0,-0.03339942917227745
451.0,408.0,-0.7454,-0.2566,9.6443,-0.0266,0.0261,-0.1213,-1.5672617715648194,0.0,1.9704792499542236,-2.008702278137207,-0.0,1.9800403118133545,5.145950752287664,0.0,0.27614763379096985,-1.5456507841693323,0.0,-0.013644013553857803,0.853215754032135,-0.0,-0.011219767853617668,0.7724698185920715,0.0,-0.0015461337752640247
451.0,408.0,-0.7454,-0.2566,9.6443,-0.0266,0.0261,-0.1213,-1.5672741118217637,0.0,1.9528658390045166,-2.008718490600586,-0.0,2.0225324630737305,5.145962583809652,0.0,0.27840930223464966,-1.5456507841693323,0.0,-0.014843199402093887,0.8532314300537109,-0.0,-0.005529747344553471,0.7724779844284058,0.0,-0.01775277778506279
451.0,408.0,-0.7454,-0.2566,9.6443,-0.0266,0.0261,-0.1213,-1.5672859640656789,0.0,1.9520878791809082,-2.0087547302246094,-0.0,1.9972530603408813,5.1459748325641534,0.0,0.28228759765625,-1.5456221739398401,0.0,-0.03035176731646061,0.8531995415687561,-0.0,0.009048020467162132,0.7724857926368713,0.0,0.04583892226219177
451.0,408.0,-0.7454,-0.2566,9.6443,-0.0266,0.0261,-0.1213,-1.5672217100257804,0.0,1.9939558506011963,-2.0087268352508545,-0.0,1.9905277490615845,5.1459748325641534,0.0,0.2777061462402344,-1.545666519795553,0.0,-0.020004818215966225,0.8531634211540222,-0.0,0.006454984657466412,0.7724698185920715,0.0,-0.01721283793449402
451.0,408.0,-0.7454,-0.2566,9.6443,-0.0266,0.0261,-0.1213,-1.567221404551976,0.0,1.9839537143707275,-2.0086939334869385,-0.0,2.0377895832061768,5.145958530693807,0.0,0.28633275628089905,-1.5456221739398401,0.0,-0.0041953809559345245,0.8531637191772461,-0.0,-0.0026262865867465734,0.7724857926368713,0.0,-0.010941635817289352
451.0,408.0,-0.7454,-0.2566,9.6443,-0.0266,0.0261,-0.1213,-1.5672337215258558,0.0,1.9546090364456177,-2.0087506771087646,-0.0,1.9866416454315186,5.145999389677801,0.0,0.2637282609939575,-1.5456703344928187,0.0,-0.02379278838634491,0.8532426953315735,-0.0,0.00864258874207735,0.772497832775116,0.0,-0.014428854919970036
451.0,408.0,-0.7454,-0.2566,9.6443,-0.0266,0.0261,-0.1213,-1.5672819030335923,0.0,1.9845094680786133,-2.008697986602783,-0.0,2.0155370235443115,5.145950752287664,0.0,0.2687252163887024,-1.5456903616534632,0.0,-0.01231803372502327,0.8532355427742004,-0.0,-0.015083223581314087,0.772534191608429,0.0,-0.00838535651564598
451.0,408.0,-0.7454,-0.2566,9.6443,-0.0266,0.0261,-0.1213,-1.5672620113803823,0.0,1.9787073135375977,-2.0087506771087646,-0.0,2.0156469345092773,5.145962583809652,0.0,0.2768345773220062,-1.5456698576556605,0.0,-0.025904551148414612,0.853246808052063,-0.0,-0.0017038515070453286,0.772546112537384,0.0,-0.0037350987549871206
451.0,408.0,-0.7454,-0.2566,9.6443,-0.0266,0.0261,-0.1213,-1.567197387372591,0.0,2.0193939208984375,-2.008697986602783,-0.0,2.0190110206604004,5.145994919329443,0.0,0.27708011865615845,-1.5457184950457972,5.114628165436841e-10,-0.013297351077198982,0.8532154560089111,-0.0,0.018454592674970627,0.7725379467010498,0.0016112973680719733,-0.00018890202045440674
451.0,408.0,-0.7454,-0.2566,9.6443,-0.0266,0.0261,-0.1213,-1.567265889407583,0.0,2.0008726119995117,-2.008714437484741,-0.0,2.019871711730957,5.145950752287664,0.0,0.2726667821407318,-1.5457466284381312,1.4236754949849967e-13,-0.01899823173880577,0.8531873226165771,-0.0,-6.641587242484093e-05,0.7725743055343628,0.0029774485155940056,-0.041735514998435974
432.0,406.0,-0.7232,-0.3081,9.5157,-0.0278,0.0238,-0.1167,-1.5672337380568315,0.0,1.9833061695098877,-2.0087544918060303,-0.0,2.0190746784210205,5.1459626136119745,0.0,0.27540096640586853,-1.5457423369037073,2.5874594199643543e-18,-0.006129853893071413,0.8533114194869995,-0.0,0.009480095468461514,0.7726464867591858,0.005034589674323797,0.024375898763537407
432.0,406.0,-0.7232,-0.3081,9.5157,-0.0278,0.0238,-0.1167,-1.5672460378012438,0.0,2.002004623413086,-2.0086545944213867,-0.0,2.0442206859588623,5.1460032043750665,0.0,0.27430471777915955,-1.5457585493670862,7.202289462377272e-22,-0.013675923459231853,0.8531954288482666,-0.0,-0.009880460798740387,0.7726460695266724,0.005851733963936567,0.029727134853601456
432.0,406.0,-0.7232,-0.3081,9.5157,-0.0278,0.0238,-0.1167,-1.5672337336330493,0.0,1.962569236755371,-2.0086824893951416,-0.0,2.051522731781006,5.146011012583532,0.0,0.2728201150894165,-1.5457137266742151,1.3089806274901397e-26,-0.015520385466516018,0.8531796932220459,-0.0,-0.0008858144283294678,0.7726820111274719,0.006868998985737562,0.0700375959277153
432.0,406.0,-0.7232,-0.3081,9.5157,-0.0278,0.0238,-0.1167,-1.5672337052277108,0.0,1.9851824045181274,-2.008702039718628,-0.0,1.9750703573226929,5.145970809250631,0.0,0.2882899343967438,-1.5457142035113733,3.643595767887874e-30,-0.011577771976590157,0.8532075881958008,-0.0,0.0005735468585044146,0.7727623581886292,0.009610576555132866,0.03804764151573181
432.0,406.0,-0.7232,-0.3081,9.5157,-0.0278,0.0238,-0.1167,-1.5672216446003695,0.0,2.006824254989624,-2.008758783340454,-0.0,1.9772000312805176,5.145950692683019,0.0,0.2828529477119446,-1.5457380453692835,6.622055015889348e-35,-0.007537980563938618,0.8532674312591553,-0.0,0.0005420884117484093,0.7727943062782288,0.00542764738202095,-0.041614312678575516
432.0,406.0,-0.7232,-0.3081,9.5157,-0.0278,0.0238,-0.1167,-1.5672296483865757,0.0,2.05548095703125,-2.0086898803710938,-0.0,1.9982130527496338,5.1459871409233,0.0,0.28678351640701294,-1.5456984678851526,1.8432729045174895e-38,-0.017103072255849838,0.8532548546791077,-0.0,0.0037438985891640186,0.7728145122528076,0.0024139683227986097,-8.296099258586764e-05
432.0,406.0,-0.7232,-0.3081,9.5157,-0.0278,0.0238,-0.1167,-1.5672736759627988,0.0,1.9919190406799316,-2.0086939334869385,-0.0,2.042614459991455,5.145943152695455,0.0,0.2726912498474121,-1.5457146803485315,3.3491033297363128e-43,-0.010796446353197098,0.8531992435455322,-0.0,0.011622177436947823,0.7728021740913391,0.0004762753378599882,-0.007352934218943119
432.0,406.0,-0.7232,-0.3081,9.5157,-0.0278,0.0238,-0.1167,-1.567309900685661,0.0,1.9889490604400635,-2.0087063312530518,-0.0007811346440576017,2.0204458236694336,5.146011310606756,1.6642404787603482e-08,0.26824483275413513,-1.54567796388735,0.0,-0.023881010711193085,0.8531794548034668,-0.0,0.005115313455462456,0.772770345211029,0.00011915141658391804,0.0023381407372653484
432.0,406.0,-0.7232,-0.3081,9.5157,-0.0278,0.0238,-0.1167,-1.5672617552666743,0.0,1.9941242933273315,-2.0087063312530518,-0.0007571321330033243,2.0426430702209473,5.14587481597022,3.0246741526337995e-13,0.2720392644405365,-1.5457266012774866,7.193277997430414e-05,-0.012327135540544987,0.853127658367157,-0.0,-0.01651926152408123,0.7727662324905396,1.0965232194459773e-11,0.042610906064510345
432.0,406.0,-0.7232,-0.3081,9.5157,-0.0278,0.0238,-0.1167,-1.567273643133678,0.0,1.995478630065918,-2.0087103843688965,-0.0005038590752519667,2.0240585803985596,5.145955431252279,8.419291767003992e-17,0.27532652020454407,-1.5457189718829554,6.433310772990808e-05,0.003639047499746084,0.8532554507255554,-0.0,-0.014584686607122421,0.7728065252304077,2.647974712807815e-17,0.01924167573451996
432.0,406.0,-0.7232,-0.3081,9.5157,-0.0278,0.0238,-0.1167,-1.5672495081419875,0.0,2.006520986557007,-2.008742570877075,-0.00038438811316154897,2.038849115371704,5.145882892399587,1.5301647817235849e-21,0.28111743927001953,-1.54567796388735,5.628541111946106e-05,-0.006064152345061302,0.8531835079193115,-0.0,0.0064169010147452354,0.7727421522140503,8.579101960778464e-25,-0.005350934341549873
432.0,406.0,-0.7232,-0.3081,9.5157,-0.0278,0.0238,-0.1167,-1.5672976044337084,0.0,1.982736349105835,-2.008730173110962,-0.0001221412530867383,1.9993462562561035,5.145886677294531,4.259270061504258e-25,0.2775588035583496,-1.545694653187887,7.717117841821164e-05,-0.017351612448692322,0.8532395362854004,-0.0,0.0031888135708868504,0.7727380394935608,2.071752181516346e-30,0.01669941283762455
432.0,406.0,-0.7232,-0.3081,9.5157,-0.0278,0.0238,-0.1167,-1.5672778103365381,0.0,2.0191140174865723,-2.008742332458496,-9.60631005000323e-05,1.9818302392959595,5.145915317326345,7.741012853046295e-30,0.27213722467422485,-1.5456221739398401,6.926543574081734e-05,-0.01745029166340828,0.8532467484474182,-0.0,-0.004074581898748875,0.7727139592170715,-0.00046142839710228145,-0.031026240438222885
442.0,393.0,-0.8602,-0.4857,9.9769,-0.0609,0.0347,-0.111,-1.5673459591674437,-8.813622054404391e-11,1.9762139320373535,-2.0087547302246094,-0.0001236243115272373,1.9801421165466309,5.145899313479223,2.1547388177488402e-33,0.28112736344337463,-1.5456503073321741,6.431539077311754e-05,-0.019396713003516197,0.8532276153564453,-0.0,-0.013320514000952244,0.7727178335189819,-0.0002823465329129249,-0.04182123392820358
442.0,393.0,-0.8602,-0.4857,9.9769,-0.0609,0.0347,-0.111,-1.5673419139678408,-0.0009440078283660114,2.008195638656616,-2.0087506771087646,-0.00013573902833741158,1.9926234483718872,5.145915317326345,-0.0006915582926012576,0.2706822454929352,-1.545706574116842,5.8720281231217086e-05,-0.015728268772363663,0.8532512187957764,-0.0,0.005584754515439272,0.7727785706520081,-0.00016125549154821783,0.011396345682442188
442.0,393.0,-0.8602,-0.4857,9.9769,-0.0609,0.0347,-0.111,-1.567357847267278,-0.0024588231462985277,2.0301263332366943,-2.0087547302246094,-0.0001252679358003661,2.0053834915161133,5.145859229355612,-0.000906609813682735,0.28153687715530396,-1.5456865469561976,5.512352799996734e-05,-0.0206767525523901,0.8532235622406006,-0.0,0.004473971202969551,0.7727339863777161,-0.00013668434985447675,-0.041212424635887146
442.0,393.0,-0.8602,-0.4857,9.9769,-0.0609,0.0347,-0.111,-1.5673981742332508,-0.00283321226015687,1.9775726795196533,-2.0087218284606934,-8.563466690247878e-05,2.018101215362549,5.145866977959432,-0.0008536689565517008,0.2831995487213135,-1.5456865469561976,5.09617239004001e-05,-0.001995055004954338,0.853234589099884,-0.0,-0.004917306825518608,0.7727580666542053,-0.00011366587568772957,0.05473611503839493
442.0,393.0,-0.8602,-0.4857,9.9769,-0.0609,0.0347,-0.111,-1.5674378369333972,-0.0034011355601251125,1.972469687461853,-2.0088107585906982,-0.00014918616216164082,1.9858770370483398,5.145826893835821,-0.0007679442060180008,0.2754899859428406,-1.5457151571856897,4.8230642278213054e-05,0.003052343614399433,0.853287398815155,-0.0,-0.011799202300608158,0.7727781534194946,-0.00010091953299706802,-0.0632345974445343
442.0,393.0,-0.8602,-0.4857,9.9769,-0.0609,0.0347,-0.111,-1.5674816293506701,-0.004799587186425924,1.972985029220581,-2.0087456703186035,-0.0013190950267016888,2.0563457012176514,5.145798969059744,-0.0005946658202446997,0.269149512052536,-1.5456627050982874,5.9762158343801275e-05,-0.0006579863838851452,0.8532671928405762,-0.0,-0.009420543909072876,0.772673487663269,-0.00011665165948215872,-0.041738756000995636
442.0,393.0,-0.8602,-0.4857,9.9769,-0.0609,0.0347,-0.111,-1.567469321690016,-0.0061251879669725895,1.9816808700561523,-2.008798360824585,-0.0020317942835390568,1.9949800968170166,5.14579530337409,-0.0005901291151531041,0.2890850603580475,-1.5456464926349085,5.7159944844897836e-05,-0.011555038392543793,0.8533231616020203,-0.0,-0.0032900385558605194,0.7727662324905396,-0.00010665334411896765,-0.029750792309641838
442.0,393.0,-0.8602,-0.4857,9.9769,-0.0609,0.0347,-0.111,-1.567501234156527,-0.004871681332588196,1.9603303670883179,-2.0087497234344482,-0.001505031599663198,2.01432728767395,5.145827311068334,-0.0005170167423784733,0.27200978994369507,-1.5456422011004847,5.374645479605533e-05,-0.0209790151566267,0.8532471656799316,-0.0,0.00015034805983304977,0.7727662324905396,-9.535353456158191e-05,0.03534657135605812
442.0,393.0,-0.8602,-0.4857,9.9769,-0.0609,0.0347,-0.111,-1.5675573747469862,-0.0033981299493461847,1.964483618736267,-2.008754014968872,-0.001093346974812448,2.0034139156341553,5.145835149079122,-0.00038549842429347336,0.26704227924346924,-1.5457070509540003,5.144245005794801e-05,-0.015698054805397987,0.853323221206665,-0.0,-0.001587072852998972,0.7727662324905396,-6.628636037930846e-05,-0.015940120443701744
442.0,393.0,-0.8602,-0.4857,9.9769,-0.0609,0.0347,-0.111,-1.5675895463540037,-0.0012468112399801612,1.9979934692382812,-2.00877046585083,-0.0005863041733391583,1.9508527517318726,5.145811307221212,-0.0002870578027796,0.26403406262397766,-1.545682732258932,4.866108065471053e-05,-0.01763826608657837,0.8532713651657104,-0.0,0.017622126266360283,0.7727299332618713,1.1286774679319933e-05,0.018883908167481422
442.0,393.0,-0.8602,-0.4857,9.9769,-0.0609,0.0347,-0.111,-1.5675815623584022,-0.0007360563613474369,1.9601891040802002,-2.0088024139404297,-0.0003255826886743307,1.980216145515442,5.145782935410299,-0.0002890553150791675,0.2771780490875244,-1.5456822554217737,4.6764747821725905e-05,-0.01700093410909176,0.853283166885376,-0.0,0.010935611091554165,0.7727621793746948,6.740076787536964e-05,0.01398862898349762
442.0,393.0,-0.8602,-0.4857,9.9769,-0.0609,0.0347,-0.111,-1.5675412214225908,-0.0004762348544318229,1.9950242042541504,-2.0087623596191406,-0.00023387170222122222,1.9964096546173096,5.145782935410299,-0.00023810793936718255,0.269147127866745,-1.5457189718829554,3.128878597635776e-05,-0.016173189505934715,0.8532829284667969,-0.0,0.011450067162513733,0.7727781534194946,0.0004356962745077908,-0.04513668268918991
442.0,393.0,-0.8602,-0.4857,9.9769,-0.0609,0.0347,-0.111,-1.5675172363738348,-0.00031381554435938597,2.0292890071868896,-2.008758068084717,-0.00014880127855576575,1.9818421602249146,5.1458031115825555,-0.00021028475021012127,0.27352672815322876,-1.5456259886371058,2.9330514735192992e-05,-0.005092754028737545,0.8532910346984863,-0.0,0.005584642756730318,0.7727699875831604,0.0006899225991219282,0.021773993968963623
441.0,422.0,-0.5462,-0.5719,9.6867,-0.0492,0.0134,-0.1184,-1.5675015836353232,-0.0002453580964356661,1.9690039157867432,-2.0087859630584717,0.00012645441165659577,1.9640088081359863,5.145883488446035,-0.00016707382746972144,0.2673819065093994,-1.5456622282611292,2.7535639674169943e-05,-0.023883361369371414,0.8532909750938416,-0.0,0.012087494134902954,0.7728227376937866,0.0010183639824390411,0.032020166516304016
441.0,422.0,-0.5462,-0.5719,9.6867,-0.0492,0.0134,-0.1184,-1.5675494235805054,-0.0002108631597366184,1.9944833517074585,-2.0087497234344482,0.00020870585285592824,1.9624906778335571,5.145859646588125,-0.0001377016305923462,0.274522602558136,-1.545694653187887,3.861882578348741e-05,-0.02748088911175728,0.8533390164375305,-6.444027889074277e-08,0.026473406702280045,0.7728423476219177,0.0011293240822851658,0.02672664448618889
441.0,422.0,-0.5462,-0.5719,9.6867,-0.0492,0.0134,-0.1184,-1.5675494235805054,-0.0001775770797394216,1.936479926109314,-2.0087828636169434,0.00016990621224977076,1.982155680656433,5.145798969059744,-0.00014718770398758352,0.26291972398757935,-1.5456460157977503,-5.974269151920453e-05,-0.012242907658219337,0.8533434271812439,-1.1711701487088222e-12,0.04292500391602516,0.7728343605995178,0.001019040821120143,0.07496033608913422
441.0,422.0,-0.5462,-0.5719,9.6867,-0.0492,0.0134,-0.1184,-1.5675978504917403,-0.00019053294090554118,1.9615044593811035,-2.0087506771087646,0.00015773453924339265,2.017925500869751,5.145811307221212,-0.00013608574226964265,0.2643992006778717,-1.5456503073321741,-1.6629595478434567e-08,-0.022228442132472992,0.8533099889755249,-3.259995027036735e-16,0.033049456775188446,0.7728302478790283,0.00066089240135625,0.022536922246217728
441.0,422.0,-0.5462,-0.5719,9.6867,-0.0492,0.0134,-0.1184,-1.5675696002184232,-0.00019367410277482122,1.967226505279541,-2.0087695121765137,2.906745351083373e-07,1.9950244426727295,5.145823645382681,-0.00014743862266186625,0.2687933146953583,-1.5456464926349085,-3.0223469126705593e-13,-0.008191155269742012,0.8533589839935303,8.392622135033889e-07,0.04460570961236954,0.7728022336959839,0.0004162120749242604,0.06973002851009369
441.0,422.0,-0.5462,-0.5719,9.6867,-0.0492,0.0134,-0.1184,-1.5675977126559992,-0.0002027015434578061,1.9766581058502197,-2.008758068084717,7.019448499019643e-13,1.9916040897369385,5.145735043078222,-0.0017113188514485955,0.2531525790691376,-1.5456507841693323,-8.412813950190966e-17,-0.008073254488408566,0.8533227443695068,0.0003678377834148705,0.04970845207571983,0.772782027721405,0.00026066729333251715,0.030375344678759575
441.0,422.0,-0.5462,-0.5719,9.6867,-0.0492,0.0134,-0.1184,-1.5675895463540037,-0.0009963084012269974,1.8771700859069824,-2.008781909942627,2.2742119251795076e-20,2.00191593170166,5.145715343743124,-0.0055848779156804085,0.25623029470443726,-1.5456145445453089,-1.5289877255223482e-21,-0.010057864710688591,0.8533512353897095,0.0007013818831183016,0.05624512955546379,0.772818386554718,0.00015157055167946965,0.030925363302230835
441.0,422.0,-0.5462,-0.5719,9.6867,-0.0492,0.0134,-0.1184,-1.5676134748249133,-0.0021351061295717955,1.9093279838562012,-2.0088272094726562,5.491954096023443e-26,2.0006608963012695,5.145675617247381,-0.01285836473107338,0.25019997358322144,-1.5456269423114222,-4.25599283748113e-25,0.0017331778071820736,0.8533350825309753,0.0009352954803034663,0.05897385999560356,0.7727981209754944,-0.00010677148384274915,0.026953071355819702
441.0,422.0,-0.5462,-0.5719,9.6867,-0.0492,0.0134,-0.1184,-1.5676173370196302,-0.003057928755879402,1.8350056409835815,-2.0087902545928955,1.7793235746496264e-33,1.9794063568115234,5.1455395994480035,-0.0185012798756361,0.23010382056236267,-1.5456064383136194,-7.73505826886277e-30,-0.0041173119097948074,0.8533790111541748,0.0012183376820757985,0.056236863136291504,0.7728224396705627,-0.00013268912152852863,0.0007187994197010994
441.0,422.0,-0.5462,-0.5719,9.6867,-0.0492,0.0134,-0.1184,-1.5676086501083155,-0.004055697936564684,1.8581260442733765,-2.008798360824585,4.2968575330977596e-39,1.9216516017913818,5.145456331759252,-0.02027255669236183,0.2237205058336258,-1.54559833208193,0.0004342070023994893,0.017341498285531998,0.8534069061279297,0.0010600329842418432,0.06946446001529694,0.7727860808372498,-0.00011569519847398624,-0.01659996435046196
441.0,422.0,-0.5462,-0.5719,9.6867,-0.0492,0.0134,-0.1184,-1.5676772829941292,-0.006261907983571291,1.803413987159729,-2.0088024139404297,0.0,2.0216705799102783,5.145212459355154,-0.019963642582297325,0.20516127347946167,-1.545615021382467,0.0008323391084559262,0.03157215192914009,0.8534107208251953,0.0008941637934185565,0.09375685453414917,0.7728265523910522,-9.876562398858368e-05,0.006621591746807098
441.0,422.0,-0.5462,-0.5719,9.6867,-0.0492,0.0134,-0.1184,-1.567757360437401,-0.007663888391107321,1.748300313949585,-2.0087664127349854,-0.0,1.9920554161071777,5.145144539862432,-0.020196184515953064,0.2044369876384735,-1.5455663839923304,0.0006751352339051664,0.03424207493662834,0.8534147143363953,0.000999230076558888,0.09220924973487854,0.7728022336959839,-8.899874228518456e-05,0.005105484277009964
441.0,422.0,-0.5462,-0.5719,9.6867,-0.0492,0.0134,-0.1184,-1.5678173227100451,-0.009098212234675884,1.7184511423110962,-2.0087623596191406,-0.0,1.9598078727722168,5.14502118805007,-0.017758596688508987,0.18942862749099731,-1.5455859343158167,0.000597712176386267,0.05133978649973869,0.8534544110298157,0.0024216470774263144,0.09310157597064972,0.772782027721405,-7.863100472604856e-05,-0.041095733642578125
453.0,424.0,-0.9517,-0.731,9.536,-0.0701,0.0104,-0.1219,-1.5678731960109253,-0.009675721637904644,1.7096052169799805,-2.0088107585906982,-0.0,1.9660561084747314,5.144885051041403,-0.014348408207297325,0.1912340521812439,-1.5456183592425745,0.0004883680958300829,0.030471475794911385,0.853434681892395,0.005119400564581156,0.0989280715584755,0.7727499008178711,-7.231310155475512e-05,-0.02016814611852169
453.0,424.0,-0.9517,-0.731,9.536,-0.0701,0.0104,-0.1219,-1.5679855968667944,-0.010829505510628223,1.6737754344940186,-2.0088305473327637,-0.0,1.9485468864440918,5.144805896073141,-0.011816647835075855,0.18848606944084167,-1.545530144368307,0.0007284159655682743,0.03367806226015091,0.8535466194152832,0.011020978912711143,0.09553977847099304,0.7728022336959839,-8.70836156536825e-05,-0.02565658837556839
453.0,424.0,-0.9517,-0.731,9.536,-0.0701,0.0104,-0.1219,-1.5680615688073267,-0.012676555663347244,1.6921082735061646,-2.0088107585906982,-3.0616203730460256e-05,1.955873966217041,5.144725638418951,-0.01192370057106018,0.16256847977638245,-1.5456145445453089,0.0008124778396449983,0.03854864090681076,0.8536391258239746,0.010624871589243412,0.10491271317005157,0.7728022336959839,-8.119511767290533e-05,-0.05564896762371063
453.0,424.0,-0.9517,-0.731,9.536,-0.0701,0.0104,-0.1219,-1.5681491943872352,-0.014064091257750988,1.6663402318954468,-2.0087456703186035,-2.686055813683197e-05,1.9698984622955322,5.14458184221343,-0.014392376877367496,0.16827595233917236,-1.5455387274371546,0.0035509231965988874,0.053288061171770096,0.8536895513534546,0.004747217055410147,0.10153885185718536,0.7727860808372498,-8.672527474118397e-05,-0.07282815873622894
453.0,424.0,-0.9517,-0.731,9.536,-0.0701,0.0104,-0.1219,-1.5682291481974353,-0.016818812116980553,1.6373193264007568,-2.0088305473327637,-2.465319266775623e-05,1.9326585531234741,5.144534694939413,-0.018754251301288605,0.14275062084197998,-1.5454986731158655,0.014681154862046242,0.055369243025779724,0.8536771535873413,0.0016320723807439208,0.12224318087100983,0.7727981209754944,-0.000123440710012801,-0.0693553239107132
453.0,424.0,-0.9517,-0.731,9.536,-0.0701,0.0104,-0.1219,-1.5682966341594984,-0.01821553148329258,1.58319890499115,-2.008758068084717,-2.2218657250050455e-05,1.9753552675247192,5.14438675621108,-0.02601737342774868,0.1427302360534668,-1.5453031698810022,0.030074002221226692,0.07825986295938492,0.8536771535873413,0.0007406558725051582,0.10342954099178314,0.7727822065353394,-0.00015741582319606096,-0.0911192074418068
453.0,424.0,-0.9517,-0.731,9.536,-0.0701,0.0104,-0.1219,-1.5684205284672608,-0.020463822409510612,1.5567182302474976,-2.008826494216919,-2.0686591597041115e-05,1.966921329498291,5.144171047001638,-0.035440076142549515,0.13309746980667114,-1.545159165059225,0.02538551203906536,0.08476588875055313,0.853713870048523,0.000608534668572247,0.1074957549571991,0.7727740406990051,-0.00014647023635916412,-0.0881185457110405
453.0,424.0,-0.9517,-0.731,9.536,-0.0701,0.0104,-0.1219,-1.5685600168402125,-0.022501317784190178,1.5942010879516602,-2.0087664127349854,-1.8944794646813534e-05,1.9268414974212646,5.143775182753362,-0.058517083525657654,0.12043966352939606,-1.5450761953936976,0.010698167607188225,0.08281908929347992,0.8537458181381226,0.0004295284452382475,0.11849319934844971,0.7727500796318054,-0.00015315193741116673,-0.17838549613952637
453.0,424.0,-0.9517,-0.731,9.536,-0.0701,0.0104,-0.1219,-1.5687489072191347,-0.024214470759034157,1.5883759260177612,-2.008815050125122,-8.342851742781932e-08,1.9596443176269531,5.143408494978704,-0.0863611102104187,0.09711682796478271,-1.545016113911764,0.0024614455178380013,0.08100181072950363,0.8537139296531677,0.0003878998395521194,0.11485472321510315,0.7728063464164734,-0.0001439649931853637,-0.11625976860523224
453.0,424.0,-0.9517,-0.731,9.536,-0.0701,0.0104,-0.1219,-1.5688882273719464,-0.02406993694603443,1.5662060976028442,-2.008753776550293,-2.702978061169749e-15,1.9497534036636353,5.142497855215826,-0.13182103633880615,0.0789552852511406,-1.5450556913958948,6.112887973586112e-08,0.07752446830272675,0.8537415862083435,0.0006149588152766228,0.12576887011528015,0.7727699875831604,-0.0001333034160779789,-0.13565722107887268
453.0,424.0,-0.9517,-0.731,9.536,-0.0701,0.0104,-0.1219,-1.569072203045227,-0.02453075535595417,1.5878551006317139,-2.0087778568267822,-6.52737389822579e-21,1.9875304698944092,5.141644018679418,-0.15142148733139038,0.06505843997001648,-1.5449755827533167,1.701544981302927e-11,0.08836265653371811,0.8537179231643677,0.0005303039797581732,0.12863203883171082,0.7727863192558289,-0.00012628900003619492,-0.10613009333610535
453.0,424.0,-0.9517,-0.731,9.536,-0.0701,0.0104,-0.1219,-1.5692923689824347,-0.026463305577635765,1.513561725616455,-2.0087623596191406,-2.114786393992605e-28,1.9883818626403809,5.140194850950994,-0.17407481372356415,0.06244605779647827,-1.544971768056051,3.0924736152891077e-16,0.09075693041086197,0.8537494540214539,0.000506415031850338,0.13529890775680542,0.7728063464164734,-0.00011800954234786332,-0.13165250420570374
453.0,424.0,-0.9517,-0.731,9.536,-0.0701,0.0104,-0.1219,-1.5694560859449957,-0.029665952548384666,1.5452234745025635,-2.0087943077087402,-5.106960002731391e-34,1.9687564373016357,5.139085459500112,-0.2172234058380127,0.04627788066864014,-1.5450194517718714,8.608013039267601e-20,0.08119887113571167,0.853705644607544,0.00040392769733443856,0.12243855744600296,0.7728144526481628,-0.00011247897782595828,-0.08107317239046097
455.0,401.0,-1.3525,-0.0903,9.5432,-0.0608,-0.0037,-0.1254,-1.5696959677482774,-0.035259172320365906,1.5230565071105957,-2.0087900161743164,-1.654653226674744e-41,1.9641528129577637,5.1371821639831445,-0.2390338033437729,0.03680860251188278,-1.5450356642352503,1.5644639182460398e-24,0.07625988125801086,0.8536610007286072,0.0003555172006599605,0.12875688076019287,0.7728022336959839,-0.00010586384451016784,-0.1147661954164505
455.0,401.0,-1.3525,-0.0903,9.5432,-0.0608,-0.0037,-0.1254,-1.569927849141397,-0.04124748706817627,1.5147981643676758,-2.008758068084717,-0.0,1.9861259460449219,5.135689902096548,-0.26467517018318176,0.010124627500772476,-1.545016113911764,4.354742345448339e-28,0.09541216492652893,0.8537294864654541,0.0003454692487139255,0.13803285360336304,0.772782027721405,-0.00010139156074728817,-0.11308485269546509
455.0,401.0,-1.3525,-0.0903,9.5432,-0.0608,-0.0037,-0.1254,-1.570311682739277,-0.04635605588555336,1.50852632522583,-2.0087456703186035,0.00011476178042357787,2.005580425262451,5.133478420763769,-0.28423011302948,0.0020728788804262877,-1.5450318495379847,7.914529261005566e-33,0.07993611693382263,0.8537054657936096,0.0003223508538212627,0.13027320802211761,0.772830605506897,-9.598497854312882e-05,-0.08756828308105469
455.0,401.0,-1.3525,-0.0903,9.5432,-0.0608,-0.0037,-0.1254,-1.570526949774223,-0.053300678730010986,1.5385907888412476,-2.0087788105010986,0.0004252678481861949,2.002692699432373,5.131623017578878,-0.3264573812484741,-0.02438507229089737,-1.5450118223773401,2.2030381300099825e-36,0.09293167293071747,0.8537294864654541,0.00029702388565056026,0.13128839433193207,0.7727901935577393,-8.075924415607005e-05,-0.07417880743741989
455.0,401.0,-1.3525,-0.0903,9.5432,-0.0608,-0.0037,-0.1254,-1.5710069141783656,-0.06294041126966476,1.5168553590774536,-2.0087106227874756,0.0007718860288150609,1.9998810291290283,5.128829228668966,-0.35965558886528015,-0.02882167138159275,-1.5449798742877405,4.0039301021153e-41,0.07574403285980225,0.8536856770515442,0.00028127015684731305,0.13356006145477295,0.7728343605995178,-7.681841816520318e-05,-0.10713303834199905
455.0,401.0,-1.3525,-0.0903,9.5432,-0.0608,-0.0037,-0.1254,-1.5714427433409632,-0.06856820732355118,1.4953031539916992,-2.0087268352508545,0.0007261155406013131,2.0094051361083984,5.126578140049734,-0.3783450722694397,-0.030537515878677368,-1.5450118223773401,1.1210387714598537e-44,0.0789516419172287,0.8537095189094543,0.0002444923738949001,0.1396753489971161,0.7728022336959839,-4.9137142923427746e-05,-0.12886838614940643
455.0,401.0,-1.3525,-0.0903,9.5432,-0.0608,-0.0037,-0.1254,-1.5720139942564906,-0.07471532374620438,1.5183522701263428,-2.0087382793426514,0.0005561140133067966,2.0017716884613037,5.123252022057333,-0.4218343496322632,-0.040967509150505066,-1.5450037161456507,0.0,0.07911376655101776,0.8537054657936096,0.00024149040109477937,0.13712842762470245,0.7728302478790283,-1.9570857148210052e-06,-0.11980617046356201
455.0,401.0,-1.3525,-0.0903,9.5432,-0.0608,-0.0037,-0.1254,-1.5724693737425746,-0.08121289312839508,1.5325649976730347,-2.0086939334869385,0.0004867185780312866,2.050492286682129,5.120442288904943,-0.4606795310974121,-0.03914681077003479,-1.5450037161456507,0.0,0.08319155871868134,0.8537095189094543,0.00024750741431489587,0.1377524882555008,0.7728220820426941,-4.7261318122937546e-12,-0.07570940256118774
455.0,401.0,-1.3525,-0.0903,9.5432,-0.0608,-0.0037,-0.1254,-1.5731736622252406,-0.08573096990585327,1.5297584533691406,-2.008702039718628,0.0005681434995494783,2.03056263923645,5.116489666491308,-0.5123727917671204,-0.06183738261461258,-1.5449798742877405,0.0,0.08844631910324097,0.8537652492523193,0.00023740172036923468,0.14807887375354767,0.7728180289268494,-1.53120682734701e-19,-0.06722880899906158
455.0,401.0,-1.3525,-0.0903,9.5432,-0.0608,-0.0037,-0.1254,-1.5736085377135218,-0.08777554333209991,1.5356955528259277,-2.0086896419525146,0.0008413204341195524,2.001840591430664,5.113237309246816,-0.544024646282196,-0.07352802902460098,-1.5450199286090296,0.0,0.084017813205719,0.853773295879364,0.0002459314127918333,0.15228486061096191,0.7728786468505859,-3.6976836808629128e-25,-0.15548349916934967
455.0,401.0,-1.3525,-0.0903,9.5432,-0.0608,-0.0037,-0.1254,-1.574331899682516,-0.0911763608455658,1.552346110343933,-2.008678436279297,0.000735748908482492,2.013354539871216,5.1085765836532495,-0.5924208164215088,-0.06733527779579163,-1.5450118223773401,0.0,0.07885274291038513,0.8537251353263855,0.00027505599427968264,0.13691185414791107,0.7728220820426941,0.0006408205954357982,-0.10897685587406158
455.0,401.0,-1.3525,-0.0903,9.5432,-0.0608,-0.0037,-0.1254,-1.5749436817564906,-0.09447777271270752,1.568993091583252,-2.0086264610290527,0.0009454246028326452,2.0325052738189697,5.104972320586004,-0.6295768618583679,-0.06455785036087036,-1.5450075308429163,0.0,0.07508771121501923,0.8537214994430542,0.0003455800178926438,0.13585472106933594,0.7728501558303833,0.0005540777347050607,-0.11030930280685425
455.0,401.0,-1.3525,-0.0903,9.5432,-0.0608,-0.0037,-0.1254,-1.5757152042784632,-0.09772135317325592,1.5774080753326416,-2.008662700653076,0.0015641810605302453,2.036961078643799,5.099821257382192,-0.6738776564598083,-0.06157803535461426,-1.545028034840719,0.0,0.07463017106056213,0.8536854982376099,0.0003690639859996736,0.14718309044837952,0.7728423476219177,0.00040992937283590436,-0.11222628504037857
448.0,396.0,-2.802,-0.128,9.1549,-0.0541,-0.3961,-0.1301,-1.5762864551939906,-0.10510231554508209,1.5607376098632812,-2.0086874961853027,0.0017158461268991232,2.083996534347534,5.0957573530967615,-0.7042192220687866,-0.033685557544231415,-1.5449875036822718,0.0,0.08894063532352448,0.8537533283233643,0.00036900705890730023,0.14456956088542938,0.7728423476219177,0.00034296969533897936,-0.12844601273536682
448.0,396.0,-2.802,-0.128,9.1549,-0.0541,-0.3961,-0.1301,-1.5771061382689417,-0.1107412651181221,1.5535352230072021,-2.0086140632629395,0.0031497320160269737,2.0617265701293945,5.089990156679907,-0.7348401546478271,-0.043650515377521515,-1.5450518766986292,0.0,0.06786319613456726,0.8537454605102539,0.0005265088984742761,0.1340462565422058,0.7727698087692261,5.6643999414518476e-05,-0.06351224333047867
448.0,396.0,-2.802,-0.128,9.1549,-0.0541,-0.3961,-0.1301,-1.5777574978270472,-0.11270075291395187,1.5764151811599731,-2.0085787773132324,0.005332688335329294,2.063568115234375,5.0853959796722314,-0.7517583966255188,-0.03511735051870346,-1.5450599829303187,0.0,0.06360272318124771,0.8538182377815247,0.001079552574083209,0.14915788173675537,0.7728343605995178,1.1060846683008663e-09,-0.09773986041545868
448.0,396.0,-2.802,-0.128,9.1549,-0.0541,-0.3961,-0.1301,-1.5786406002440394,-0.10873284935951233,1.6433312892913818,-2.008566379547119,0.004036035388708115,2.034804344177246,5.079281139164724,-0.7712680101394653,-0.039340563118457794,-1.5450237433062952,0.0,0.06955340504646301,0.8538183569908142,0.00705374451354146,0.15014071762561798,0.7727860808372498,3.5835737228120455e-17,-0.10181696712970734
448.0,396.0,-2.802,-0.128,9.1549,-0.0541,-0.3961,-0.1301,-1.5793000660338343,-0.11462883651256561,1.6275819540023804,-2.0085508823394775,0.0023362808860838413,2.0493197441101074,5.074570137053289,-0.7845088839530945,-0.01379910483956337,-1.5450194517718714,0.0,0.06178165227174759,0.8539296388626099,0.01879195123910904,0.1498788744211197,0.7727859616279602,8.653908259913989e-23,-0.0687883049249649
448.0,396.0,-2.802,-0.128,9.1549,-0.0541,-0.3961,-0.1301,-1.5802513561644496,-0.12157939374446869,1.65224289894104,-2.008526086807251,0.0011580833233892918,2.033823251724243,5.068277168064871,-0.7990294098854065,-0.007192851044237614,-1.5450313727008265,0.0,0.06954509764909744,0.8541060090065002,0.01921912282705307,0.14008989930152893,0.7727738618850708,2.8037569640558817e-30,-0.09884671866893768
448.0,396.0,-2.802,-0.128,9.1549,-0.0541,-0.3961,-0.1301,-1.5809985599913539,-0.1259019523859024,1.6631290912628174,-2.008563280105591,0.0007044026860967278,2.0382676124572754,5.063582914858618,-0.8027324080467224,-0.032761603593826294,-1.5450757185565394,0.0,0.0610366091132164,0.8540797233581543,0.01603766530752182,0.14242398738861084,0.7727740406990051,6.770743428338385e-36,-0.13658516108989716
448.0,396.0,-2.802,-0.128,9.1549,-0.0541,-0.3961,-0.1301,-1.5819622478880824,-0.12282340228557587,1.6416735649108887,-2.0084826946258545,0.0005657231668010354,2.052365779876709,5.057120728283682,-0.8075273036956787,0.00028632860630750656,-1.5450518766986292,-4.039661871502176e-05,0.04709339886903763,0.8542847037315369,0.009492176584899426,0.15083900094032288,0.7728024125099182,-0.0005846359999850392,-0.0962054431438446
448.0,396.0,-2.802,-0.128,9.1549,-0.0541,-0.3961,-0.1301,-1.5826932392516078,-0.12277208268642426,1.6871845722198486,-2.008486747741699,0.00246956548653543,2.0279533863067627,5.05220307686881,-0.8150957822799683,0.005877927877008915,-1.5450595060931605,-0.00039236017619259655,0.04185973107814789,0.8543190956115723,0.004071887116879225,0.14299418032169342,0.7727943062782288,-0.0004206000012345612,-0.09756457805633545
448.0,396.0,-2.802,-0.128,9.1549,-0.0541,-0.3961,-0.1301,-1.583672662774557,-0.11962424963712692,1.7426971197128296,-2.0084824562072754,0.002316194586455822,2.0458850860595703,5.045593309193411,-0.8090492486953735,-2.4565961211919785e-06,-1.545051399861471,-0.0006544115021824837,0.045330651104450226,0.8542597889900208,0.0012558946618810296,0.1433258354663849,0.7727662324905396,-0.00030611720285378397,-0.07524853944778442
448.0,396.0,-2.802,-0.128,9.1549,-0.0541,-0.3961,-0.1301,-1.5844084225096644,-0.11723865568637848,1.7665528059005737,-2.0084340572357178,0.0025669808965176344,2.0022945404052734,5.040799277811804,-0.8053788542747498,0.014724929817020893,-1.5450552145587366,-0.0005472672637552023,0.032082799822092056,0.8542996644973755,0.0008883418631739914,0.14264893531799316,0.7727699875831604,-0.0002542263246141374,-0.12415038049221039
448.0,396.0,-2.802,-0.128,9.1549,-0.0541,-0.3961,-0.1301,-1.5852943859496058,-0.12337856739759445,1.71817946434021,-2.0084421634674072,0.0015200740890577435,2.006807327270508,5.0344391641910455,-0.800036609172821,0.02376766875386238,-1.5450719038592737,-0.00045588845387101173,0.024262620136141777,0.8543834686279297,0.00047825041110627353,0.14556026458740234,0.7727662324905396,-0.0001659135305089876,-0.10067158937454224
429.0,395.0,0.323,-0.4433,8.7308,-0.1139,-0.9413,-0.1524,-1.5860825977721156,-0.1265486776828766,1.7597354650497437,-2.008390426635742,0.001762141939252615,2.0654988288879395,5.029780465155401,-0.7832789421081543,0.037086136639118195,-1.5450432936297815,-0.000428253406425938,0.027806099504232407,0.8543757796287537,0.0009346662554889917,0.15583272278308868,0.7728022336959839,-0.00014574076340068132,-0.04199068993330002
429.0,395.0,0.323,-0.4433,8.7308,-0.1139,-0.9413,-0.1524,-1.5871058903136195,-0.12726202607154846,1.7614563703536987,-2.008390426635742,0.005272796843200922,2.037368059158325,5.023536789208212,-0.7708590626716614,0.037579454481601715,-1.5450790564166468,-0.00034181162482127547,0.03029847890138626,0.8543554544448853,0.0025908988900482655,0.17407049238681793,0.7728224396705627,-0.00012542873446363956,-0.04717610031366348
429.0,395.0,0.323,-0.4433,8.7308,-0.1139,-0.9413,-0.1524,-1.5878688297667445,-0.1205543503165245,1.7921485900878906,-2.0083189010620117,0.007250076625496149,2.04685640335083,5.019059020071783,-0.7449595928192139,0.05726809427142143,-1.5450833479510706,-0.00034071109257638454,0.017432663589715958,0.8543108105659485,0.003964175470173359,0.15502117574214935,0.772818386554718,-8.551101200282574e-05,-0.03815649822354317
429.0,395.0,0.323,-0.4433,8.7308,-0.1139,-0.9413,-0.1524,-1.5888282261290492,-0.11073773354291916,1.7966880798339844,-2.008262872695923,0.01121042761951685,2.056870698928833,5.0131777105625055,-0.721972644329071,0.05203595012426376,-1.5450709501849573,-0.0004473665321711451,0.013496210798621178,0.8544071912765503,0.005179683677852154,0.15208525955677032,0.7728423476219177,0.00014174147509038448,-0.0447971411049366
429.0,395.0,0.323,-0.4433,8.7308,-0.1139,-0.9413,-0.1524,-1.5894953213133753,-0.11036982387304306,1.7820217609405518,-2.008162498474121,0.011262890882790089,2.0344655513763428,5.008952635317602,-0.6977024674415588,0.0587235651910305,-1.5450556913958948,-0.00042009633034467697,0.015442736446857452,0.8544471263885498,0.006128282751888037,0.17514140903949738,0.772890567779541,0.0019914184231311083,-0.03595639392733574
429.0,395.0,0.323,-0.4433,8.7308,-0.1139,-0.9413,-0.1524,-1.5904785595335902,-0.12422597408294678,1.804891586303711,-2.008126974105835,0.009471503086388111,1.9955928325653076,5.0035211024578,-0.6778770685195923,0.060454871505498886,-1.5450752417193812,-0.0004006927483715117,0.007657328620553017,0.8544667959213257,0.0061161634512245655,0.16497066617012024,0.7728341817855835,0.004248348996043205,0.08065372705459595
429.0,395.0,0.323,-0.4433,8.7308,-0.1139,-0.9413,-0.1524,-1.5911818943419398,-0.13145048916339874,1.7780194282531738,-2.008047342300415,0.011045297607779503,2.108980655670166,4.9996176836784265,-0.6554473042488098,0.07144267857074738,-1.5450876394854944,-0.0003602970973588526,0.00562923401594162,0.8545387387275696,0.00623616948723793,0.15963470935821533,0.7728660702705383,0.004201578442007303,0.015888135880231857
429.0,395.0,0.323,-0.4433,8.7308,-0.1139,-0.9413,-0.1524,-1.5922256908812464,-0.13101565837860107,1.8140467405319214,-2.0079033374786377,0.01883126050233841,2.070545196533203,4.994446772127905,-0.621029794216156,0.06354768574237823,-1.5451157728778284,-0.0003009629144798964,-0.007382843643426895,0.8545419573783875,0.005744831170886755,0.1724424660205841,0.772890031337738,0.003409242257475853,0.09157180786132812
429.0,395.0,0.323,-0.4433,8.7308,-0.1139,-0.9413,-0.1524,-1.593064924279684,-0.12330295145511627,1.8518321514129639,-2.0077667236328125,0.02609298937022686,2.096127986907959,4.990848976164617,-0.5879261493682861,0.07004855573177338,-1.5450957457171839,-0.00025110048591159284,-0.01834646239876747,0.8545656204223633,0.004804900847375393,0.17480039596557617,0.7729427218437195,0.0035599020775407553,0.07333721220493317
429.0,395.0,0.323,-0.4433,8.7308,-0.1139,-0.9413,-0.1524,-1.5941244564452113,-0.10813862085342407,1.8978679180145264,-2.0075666904449463,0.03290258347988129,2.135141372680664,4.986333119660177,-0.5498540997505188,0.07814465463161469,-1.5451276938067835,-0.0002463215496391058,-0.017216287553310394,0.8546593189239502,0.004318832885473967,0.17636483907699585,0.7729864120483398,0.0047916024923324585,0.01903759129345417
429.0,395.0,0.323,-0.4433,8.7308,-0.1139,-0.9413,-0.1524,-1.594823499719137,-0.11286986619234085,1.8961138725280762,-2.007415294647217,0.034713853150606155,2.071122646331787,4.983029085188665,-0.5239133834838867,0.09016398340463638,-1.5450876394854944,-0.0002524502051528543,-0.014081893488764763,0.8546621799468994,0.003501337254419923,0.17659685015678406,0.7730506062507629,0.007528192363679409,0.09369558095932007
429.0,395.0,0.323,-0.4433,8.7308,-0.1139,-0.9413,-0.1524,-1.595863481561178,-0.13030745089054108,1.8682467937469482,-2.0070788860321045,0.032998740673065186,2.1282482147216797,4.979048120766439,-0.4971323311328888,0.08044514060020447,-1.545159641896383,-0.00021781395480502397,-0.024107059463858604,0.8546902537345886,0.004966448526829481,0.18243619799613953,0.7730942368507385,0.010891865007579327,0.10888791084289551
429.0,395.0,0.323,-0.4433,8.7308,-0.1139,-0.9413,-0.1524,-1.5965820751585902,-0.14111241698265076,1.8931171894073486,-2.0068674087524414,0.0353652685880661,2.0867068767547607,4.976266699820318,-0.4773426651954651,0.09623643755912781,-1.5450790564166468,-0.00019734293164219707,-0.019976705312728882,0.8547103404998779,0.006201511714607477,0.1704607605934143,0.7731425166130066,0.010440405458211899,0.0648222342133522
439.0,8190.0,1.9376,-0.5145,8.3462,-0.1052,-0.7547,-0.1423,-1.5976611576476039,-0.14129255712032318,1.8823857307434082,-2.0065274238586426,0.04766470938920975,2.077327251434326,4.972712385445394,-0.44533035159111023,0.10562089085578918,-1.54509145418276,-0.00017536782252136618,-0.01595720462501049,0.8548505306243896,0.009432749822735786,0.1821230947971344,0.773186445236206,0.006770197302103043,0.0693238154053688
439.0,8190.0,1.9376,-0.5145,8.3462,-0.1052,-0.7547,-0.1423,-1.59849276165151,-0.13184624910354614,1.8521254062652588,-2.006119728088379,0.0623617060482502,2.1235134601593018,4.9703310308750055,-0.40332522988319397,0.12038703262805939,-1.5451000372516077,-0.00016185101412702352,-0.01589454524219036,0.8548407554626465,0.013176480308175087,0.18636833131313324,0.7732141613960266,0.004981678444892168,0.06970357894897461
439.0,8190.0,1.9376,-0.5145,8.3462,-0.1052,-0.7547,-0.1423,-1.5996037922301234,-0.11386793106794357,1.89961576461792,-2.0056233406066895,0.07872135192155838,2.139951467514038,4.9672909555728815,-0.3530379831790924,0.16398504376411438,-1.54509145418276,-0.00014676802675239742,-0.017835183069109917,0.8550339937210083,0.02110997959971428,0.18610332906246185,0.7732987999916077,0.005668268539011478,0.05009749159216881
439.0,8190.0,1.9376,-0.5145,8.3462,-0.1052,-0.7547,-0.1423,-1.6003433666624964,-0.11681950092315674,1.8839874267578125,-2.0051116943359375,0.08686862885951996,2.1546993255615234,4.9651129124458215,-0.33233627676963806,0.1695103496313095,-1.545135800038473,-0.00013718001719098538,-0.008249904029071331,0.855160653591156,0.031743161380290985,0.19309061765670776,0.7733707427978516,0.00953888613730669,0.1475495994091034
439.0,8190.0,1.9376,-0.5145,8.3462,-0.1052,-0.7547,-0.1423,-1.6014028988280238,-0.1408531665802002,1.9024828672409058,-2.004396677017212,0.0915270671248436,2.1506359577178955,4.962591963797369,-0.3079201281070709,0.18483157455921173,-1.5450709501849573,-0.0001261889556189999,-0.011580058373510838,0.8555282950401306,0.058016445487737656,0.20050248503684998,0.7734186053276062,0.012796338647603989,0.12467575073242188
439.0,8190.0,1.9376,-0.5145,8.3462,-0.1052,-0.7547,-0.1423,-1.60223450283193,-0.1525852233171463,1.892228364944458,-2.0037801265716553,0.09813929349184036,2.179032802581787,4.960936504393377,-0.27651357650756836,0.19518610835075378,-1.5450833479510706,-0.00011903576523764059,-0.015374956652522087,0.8560152053833008,0.09766978770494461,0.21010325849056244,0.7735233902931213,0.011355369351804256,0.09422589838504791
439.0,8190.0,1.9376,-0.5145,8.3462,-0.1052,-0.7547,-0.1423,-1.603264947930807,-0.15374287962913513,1.8936644792556763,-2.002873420715332,0.10772910714149475,2.1795082092285156,4.958986419230261,-0.23488353192806244,0.19562850892543793,-1.545051399861471,-0.00011067141895182431,-0.015714088454842567,0.8572802543640137,0.18863289058208466,0.2523233890533447,0.7735629677772522,0.0070573072880506516,0.029095005244016647
439.0,8190.0,1.9376,-0.5145,8.3462,-0.1052,-0.7547,-0.1423,-1.6041203937926234,-0.14205820858478546,1.8552913665771484,-2.002129554748535,0.11960157752037048,2.1777656078338623,4.957817080407896,-0.17321960628032684,0.23924103379249573,-1.5450752417193812,-0.00010513080633245409,-0.00942961499094963,0.8584943413734436,0.21752125024795532,0.2672804892063141,0.7735468745231628,0.0030239690095186234,0.05574556440114975
439.0,8190.0,1.9376,-0.5145,8.3462,-0.1052,-0.7547,-0.1423,-1.6052757702269496,-0.12385649979114532,1.964490532875061,-2.001106023788452,0.1385534703731537,2.2043159008026123,4.956756460457601,-0.11183445900678635,0.2639424800872803,-1.5450957457171839,-9.855249663814902e-05,-0.0070702387019991875,0.8604198098182678,0.2589704096317291,0.26271677017211914,0.7735828161239624,0.0015172987477853894,0.1065593883395195
439.0,8190.0,1.9376,-0.5145,8.3462,-0.1052,-0.7547,-0.1423,-1.606143137017721,-0.12350871413946152,1.9121941328048706,-2.0002670288085938,0.14849741756916046,2.2187840938568115,4.9561908570821664,-0.07688860595226288,0.2835855484008789,-1.5450752417193812,-9.413479710929096e-05,-0.007747432217001915,0.8619560599327087,0.26181215047836304,0.2696881890296936,0.7736469507217407,0.0021316013298928738,0.05367112159729004
439.0,8190.0,1.9376,-0.5145,8.3462,-0.1052,-0.7547,-0.1423,-1.6071826420226039,-0.14067041873931885,1.9027411937713623,-1.9990514516830444,0.15733155608177185,2.2231287956237793,4.955724391132154,-0.03278343379497528,0.28075408935546875,-1.5451000372516077,-8.882575639290735e-05,-0.013065965846180916,0.8642893433570862,0.32225117087364197,0.27921777963638306,0.7736308574676514,0.003172112861648202,0.018273621797561646
439.0,8190.0,1.9376,-0.5145,8.3462,-0.1052,-0.7547,-0.1423,-1.608004709283346,-0.15493455529212952,1.9372735023498535,-1.998047947883606,0.15964259207248688,2.2235217094421387,4.955672862916746,-0.005586233921349049,0.2954149842262268,-1.5450957457171839,-8.522114512743428e-05,-0.0008239434682764113,0.866410493850708,0.3505231738090515,0.29290303587913513,0.7736672163009644,0.002110507572069764,0.11701005697250366
439.0,8190.0,1.9376,-0.5145,8.3462,-0.1052,-0.7547,-0.1423,-1.609197279016012,-0.16129188239574432,1.8550090789794922,-1.9966647624969482,0.16522306203842163,2.2390689849853516,4.955720397620954,0.018543867394328117,0.3094683289527893,-1.5450719038592737,-2.832563222909812e-05,-0.006693149916827679,0.8693718910217285,0.37718328833580017,0.2848767340183258,0.7736068964004517,2.2289143089437857e-05,0.06727723777294159
948.0,975.0,3.0467,-0.6221,8.5699,-0.0956,-0.316,-0.0293,-1.610056062737936,-0.14845460653305054,1.8909776210784912,-1.995580792427063,0.1768321841955185,2.239027500152588,4.955904412060537,0.022220419719815254,0.32178646326065063,-1.54506761232485,-2.704685539356433e-05,0.0036874739453196526,0.8718919157981873,0.42990750074386597,0.3166655898094177,0.773558497428894,5.3825662676976194e-11,0.0019663439597934484
948.0,975.0,3.0467,-0.6221,8.5699,-0.0956,-0.316,-0.0293,-1.6111232242979945,-0.13764210045337677,1.8846509456634521,-1.994085669517517,0.19690874218940735,2.3278911113739014,4.955987933069029,0.014588506892323494,0.3057825267314911,-1.5450761953936976,-2.5513407308608294e-05,0.004434745293110609,0.875481903553009,0.4673963487148285,0.317482054233551,0.7736106514930725,1.7438828468996068e-18,0.035148825496435165
948.0,975.0,3.0467,-0.6221,8.5699,-0.0956,-0.316,-0.0293,-1.612007280389303,-0.13264767825603485,1.8674588203430176,-1.99282705783844,0.20855684578418732,2.2883574962615967,4.9559838501508615,0.0033078333362936974,0.29131853580474854,-1.5450957457171839,-2.4472765289829113e-05,0.0012727574212476611,0.8783884048461914,0.5119489431381226,0.34939682483673096,0.7736507654190063,0.0005226520588621497,0.04848695918917656
948.0,975.0,3.0467,-0.6221,8.5699,-0.0956,-0.316,-0.0293,-1.6131216488280238,-0.13908427953720093,1.8654932975769043,-1.9911030530929565,0.21503426134586334,2.2739951610565186,4.955924007087507,-0.0074658202938735485,0.29218143224716187,-1.5450471083270472,-2.3210513973026536e-05,0.009474657475948334,0.882721483707428,0.5454081296920776,0.3296288251876831,0.7736948728561401,0.0034870861563831568,0.02899228408932686
948.0,975.0,3.0467,-0.6221,8.5699,-0.0956,-0.316,-0.0293,-1.6139737568297328,-0.14693374931812286,1.9160845279693604,-1.9898202419281006,0.22412054240703583,2.319915771484375,4.9559523341949365,-0.0032444261014461517,0.3034794330596924,-1.5451119581805628,-2.2346073819790035e-05,0.0074119968339800835,0.8861388564109802,0.5895529389381409,0.3317033648490906,0.7736987471580505,0.004051864147186279,0.01745179109275341
948.0,975.0,3.0467,-0.6221,8.5699,-0.0956,-0.316,-0.0293,-1.6150719128050746,-0.14620822668075562,1.882723093032837,-1.9879775047302246,0.23218268156051636,2.309668779373169,4.955867919116773,-0.0011634101392701268,0.2783842384815216,-1.5450790564166468,-2.1288913558237255e-05,0.013755038380622864,0.8910386562347412,0.6173478960990906,0.3362572193145752,0.77370285987854,0.0027420134283602238,0.05162378400564194
948.0,975.0,3.0467,-0.6221,8.5699,-0.0956,-0.316,-0.0293,-1.615915437737936,-0.14649441838264465,1.8980028629302979,-1.9865506887435913,0.23360314965248108,2.304622173309326,4.955904024630346,-0.0009511156240478158,0.2883246839046478,-1.5450876394854944,-2.0559451513690874e-05,0.010483961552381516,0.8947662115097046,0.6538662910461426,0.33041563630104065,0.7736906409263611,0.0010572995524853468,0.0796625167131424
948.0,975.0,3.0467,-0.6221,8.5699,-0.0956,-0.316,-0.0293,-1.6170622311034144,-0.1474970430135727,1.9182820320129395,-1.9846348762512207,0.252593457698822,2.3082470893859863,4.955928104906835,-0.0006225630058906972,0.26315295696258545,-1.5450637976275843,-6.54536563615693e-07,0.018979094922542572,0.9001243710517883,0.6901025772094727,0.32625293731689453,0.7737228274345398,0.0006534965941682458,0.006120542995631695
948.0,975.0,3.0467,-0.6221,8.5699,-0.0956,-0.316,-0.0293,-1.618002553979391,-0.1509428173303604,1.8578596115112305,-1.9830881357192993,0.2656080722808838,2.377795457839966,4.955916377692976,-0.0003941887407563627,0.2674902081489563,-1.5451119581805628,-1.8219263597796242e-10,0.015504960902035236,0.9042963981628418,0.6952415108680725,0.3022483289241791,0.7736905813217163,0.0006379940896295011,-0.001154990284703672
948.0,975.0,3.0467,-0.6221,8.5699,-0.0956,-0.316,-0.0293,-1.6192251644530238,-0.15142792463302612,1.9204576015472412,-1.9809610843658447,0.2682032883167267,2.333746910095215,4.955860081105985,-0.0012088008224964142,0.27597975730895996,-1.5451081434832972,-3.311260796196795e-15,0.01228012703359127,0.9100087881088257,0.7257450819015503,0.3020257353782654,0.7737669944763184,0.0005240968312136829,-0.035420965403318405
948.0,975.0,3.0467,-0.6221,8.5699,-0.0956,-0.316,-0.0293,-1.6202289066710414,-0.15213167667388916,1.9129023551940918,-1.9793672561645508,0.2804029583930969,2.3543269634246826,4.9558478621538065,-0.001938466215506196,0.2553618550300598,-1.5450719038592737,-9.21701610571273e-19,0.01724126562476158,0.9144448637962341,0.7395430207252502,0.2967563271522522,0.7737708687782288,0.0017364781815558672,0.001912219449877739
948.0,975.0,3.0467,-0.6221,8.5699,-0.0956,-0.316,-0.0293,-1.6214477024474085,-0.1633176952600479,1.888509750366211,-1.977123737335205,0.2957468032836914,2.377351760864258,4.955788361817159,-0.003112667240202427,0.2425265610218048,-1.5450876394854944,-1.6751469210977238e-23,0.03095126338303089,0.9205706119537354,0.760479748249054,0.3117172122001648,0.7737993001937866,0.0014758679317310452,-0.02330189198255539
948.0,975.0,3.0467,-0.6221,8.5699,-0.0956,-0.316,-0.0293,-1.622502943078512,-0.17664027214050293,1.8848752975463867,-1.9754165410995483,0.29374074935913086,2.3355181217193604,4.955760392337599,-0.008430549874901772,0.2597874402999878,-1.5450637976275843,-4.662833936430949e-27,0.021227609366178513,0.9250403642654419,0.7546110153198242,0.26274117827415466,0.7737228274345398,0.0008819386712275445,-0.00952734611928463
968.0,934.0,1.6786,-0.6084,8.6327,-0.0817,0.0695,0.5797,-1.623958250085348,-0.1884193867444992,1.8119341135025024,-1.9728739261627197,0.3112879693508148,2.366955280303955,4.95573257186965,-0.006058458238840103,0.24144546687602997,-1.5450552145587366,-8.474469676737627e-32,0.03144757077097893,0.9311529994010925,0.7717246413230896,0.25780466198921204,0.7737389802932739,0.00020790040434803814,0.0002565961331129074
968.0,934.0,1.6786,-0.6084,8.6327,-0.0817,0.0695,0.5797,-1.6251408062376917,-0.18347889184951782,1.8601438999176025,-1.9709550142288208,0.3199900984764099,2.388512134552002,4.9557125745113275,-0.002576714614406228,0.2409144937992096,-1.545051399861471,-2.3588998991596977e-35,0.038336314260959625,0.9358396530151367,0.7784802913665771,0.2850502133369446,0.7737310528755188,7.278216071426868e-05,-0.03771442919969559
968.0,934.0,1.6786,-0.6084,8.6327,-0.0817,0.0695,0.5797,-1.6266843281187953,-0.18060246109962463,1.877406358718872,-1.9683623313903809,0.3324725031852722,2.4206395149230957,4.955785098462858,-0.0005037194350734353,0.24064338207244873,-1.5450833479510706,-4.287188573693918e-40,0.03832858055830002,0.9421578049659729,0.7929639220237732,0.26859402656555176,0.7737512588500977,2.358049302694787e-12,-0.02585994079709053
968.0,934.0,1.6786,-0.6084,8.6327,-0.0817,0.0695,0.5797,-1.6278273067870082,-0.19769661128520966,1.8369786739349365,-1.9663280248641968,0.3399786651134491,2.390561819076538,4.955676468997755,-0.002123079961165786,0.22928643226623535,-1.5450761953936976,-1.1911036946760945e-43,0.03612658381462097,0.9469315409660339,0.7925602197647095,0.2617083787918091,0.7738033533096313,5.694412252849774e-18,0.0072129275649785995
968.0,934.0,1.6786,-0.6084,8.6327,-0.0817,0.0695,0.5797,-1.629618307153219,-0.22679662704467773,1.8126790523529053,-1.9635428190231323,0.3387685716152191,2.375243663787842,4.955604630499639,-0.008777807466685772,0.22084051370620728,-1.5450800100909632,-0.0,0.023868504911661148,0.9533149003982544,0.7940758466720581,0.2706555724143982,0.7737067341804504,1.8449172574279818e-25,-0.06715232878923416
968.0,934.0,1.6786,-0.6084,8.6327,-0.0817,0.0695,0.5797,-1.630864759484762,-0.22481122612953186,1.8043348789215088,-1.9614613056182861,0.3478008210659027,2.4310925006866455,4.955584528833189,-0.007168281357735395,0.2249685674905777,-1.5450800100909632,-0.0,0.023960396647453308,0.9580928683280945,0.8057225346565247,0.24527087807655334,0.7737149000167847,4.455258536367944e-31,-0.07746103405952454
968.0,934.0,1.6786,-0.6084,8.6327,-0.0817,0.0695,0.5797,-1.6326562366881312,-0.21903640031814575,1.8269240856170654,-1.958676815032959,0.3581930100917816,2.4164915084838867,4.955548959761419,-0.0026599657721817493,0.21734866499900818,-1.5450156370746058,-0.0,0.03656668961048126,0.9644006490707397,0.8024397492408752,0.24675020575523376,0.7737190127372742,-0.0015378142707049847,-0.059901393949985504
968.0,934.0,1.6786,-0.6084,8.6327,-0.0817,0.0695,0.5797,-1.6339465580382289,-0.2246914505958557,1.806725025177002,-1.9565231800079346,0.3673311769962311,2.449589490890503,4.955516654043951,-0.0012209133710712194,0.21979624032974243,-1.5450637976275843,-0.0,0.04532988369464874,0.9691784381866455,0.7981211543083191,0.22829583287239075,0.7736748456954956,-0.0009465126786381006,-0.09298432618379593
968.0,934.0,1.6786,-0.6084,8.6327,-0.0817,0.0695,0.5797,-1.6358581982054652,-0.23444105684757233,1.797629475593567,-1.9536018371582031,0.36971646547317505,2.4150853157043457,4.9555449960525415,-0.0025647447910159826,0.2174954116344452,-1.545084301625387,-0.0,0.022647147998213768,0.9754914045333862,0.7880924344062805,0.2441663295030594,0.7736905813217163,-0.0006201934302225709,-0.12337760627269745
968.0,934.0,1.6786,-0.6084,8.6327,-0.0817,0.0695,0.5797,-1.6372600994505824,-0.23788809776306152,1.73777437210083,-1.9514491558074951,0.37458309531211853,2.4785027503967285,4.955496939807691,-0.004647612106055021,0.20453420281410217,-1.5450237433062952,-0.0,0.042899418622255325,0.9802388548851013,0.7677934169769287,0.20135627686977386,0.7737149000167847,-0.00036662601632997394,-0.07736343145370483
968.0,934.0,1.6786,-0.6084,8.6327,-0.0817,0.0695,0.5797,-1.6391269169249476,-0.24679464101791382,1.8145655393600464,-1.9483511447906494,0.37824612855911255,2.4233291149139404,4.955453428417005,-0.007034794427454472,0.2049793004989624,-1.5450037161456507,-0.0,0.04341267794370651,0.9862574934959412,0.753730833530426,0.19375795125961304,0.7736867666244507,-0.00027637838502414525,-0.07660752534866333
968.0,934.0,1.6786,-0.6084,8.6327,-0.0817,0.0695,0.5797,-1.6406141720213832,-0.2537649869918823,1.7873634099960327,-1.9461781978607178,0.3860646188259125,2.4749820232391357,4.955344784050741,-0.006665613502264023,0.2046440839767456,-1.5450399557696741,-0.0,0.04238066449761391,0.9906536936759949,0.7381994128227234,0.21160131692886353,0.7737269401550293,-0.00026395206805318594,-0.13913439214229584
968.0,934.0,1.6786,-0.6084,8.6327,-0.0817,0.0695,0.5797,-1.6425239048399867,-0.25377485156059265,1.8364613056182861,-1.9430822134017944,0.3857182562351227,2.4742209911346436,4.955297428160467,-0.009673439897596836,0.20826171338558197,-1.5450356642352503,-0.0,0.03774796053767204,0.9964424967765808,0.7194556593894958,0.21167638897895813,0.77370285987854,-0.0002319311461178586,-0.08392263948917389
881.0,911.0,0.8429,-0.7484,9.0365,-0.0417,0.1261,0.6912,-1.6440755329527796,-0.25975140929222107,1.775172472000122,-1.9407004117965698,0.39202532172203064,2.4589953422546387,4.955269831209936,-0.01056970190256834,0.20381960272789001,-1.5450475851642054,-0.0,0.049368150532245636,1.0006407499313354,0.6911120414733887,0.17763906717300415,0.7736707329750061,-0.00026217434788122773,-0.11765992641448975
881.0,911.0,0.8429,-0.7484,9.0365,-0.0417,0.1261,0.6912,-1.6462184391417445,-0.26294174790382385,1.8425805568695068,-1.9375203847885132,0.39057686924934387,2.475270986557007,4.95516166368083,-0.0072575160302221775,0.2085379958152771,-1.5450518766986292,-0.0,0.04588507115840912,1.00614333152771,0.6766233444213867,0.2002679407596588,0.7737310528755188,-0.0002377565106144175,-0.1518222689628601
881.0,911.0,0.8429,-0.7484,9.0365,-0.0417,0.1261,0.6912,-1.6477934322752894,-0.26905518770217896,1.794744849205017,-1.9351269006729126,0.39623066782951355,2.418142795562744,4.955125647574224,-0.0038247916381806135,0.1962687075138092,-1.5450399557696741,-0.0,0.037880465388298035,1.0102075338363647,0.6618228554725647,0.21910536289215088,0.7737271785736084,-0.0002163257886422798,-0.13991543650627136
881.0,911.0,0.8429,-0.7484,9.0365,-0.0417,0.1261,0.6912,-1.649971147576803,-0.27968093752861023,1.7737278938293457,-1.9319591522216797,0.39598992466926575,2.4897239208221436,4.95511374154643,-0.0014187607448548079,0.21218475699424744,-1.5450237433062952,-0.0,0.03352494537830353,1.0151739120483398,0.6219062805175781,0.19494111835956573,0.7737230658531189,-0.00017792993457987905,-0.11754482984542847
881.0,911.0,0.8429,-0.7484,9.0365,-0.0417,0.1261,0.6912,-1.651689191857809,-0.27644771337509155,1.8493095636367798,-1.9295331239700317,0.39910992980003357,2.4256067276000977,4.955189960985937,-0.0008483261917717755,0.2069651186466217,-1.545028034840719,-0.0,0.027802322059869766,1.019027590751648,0.6109362244606018,0.19119447469711304,0.773715078830719,-0.00018298820941708982,-0.145773783326149
881.0,911.0,0.8429,-0.7484,9.0365,-0.0417,0.1261,0.6912,-1.6539918384947718,-0.2858055830001831,1.8025445938110352,-1.9263399839401245,0.40596145391464233,2.52475643157959,4.9551419643457315,-0.0005510037881322205,0.2268245816230774,-1.5450237433062952,-0.0,0.03324758633971214,1.0236048698425293,0.5886037945747375,0.20321762561798096,0.7736948728561401,-0.00018813429051078856,-0.13598468899726868
881.0,911.0,0.8429,-0.7484,9.0365,-0.0417,0.1261,0.6912,-1.6557814083495082,-0.29386022686958313,1.7706406116485596,-1.9239751100540161,0.4082983136177063,2.5070419311523438,4.955133887916364,-0.0004364004998933524,0.21377523243427277,-1.5450237433062952,-0.0,0.020187849178910255,1.027101993560791,0.56081223487854,0.17806166410446167,0.7736989259719849,-0.00017266547365579754,-0.12589050829410553
881.0,911.0,0.8429,-0.7484,9.0365,-0.0417,0.1261,0.6912,-1.6581503353514613,-0.29299554228782654,1.8632805347442627,-1.9207192659378052,0.4127190411090851,2.5097577571868896,4.9550776211316965,-0.0003776699013542384,0.22470659017562866,-1.5450313727008265,-0.0,0.032556191086769104,1.0313416719436646,0.534629762172699,0.1937250792980194,0.7737109661102295,-0.0003083681804127991,-0.09467560797929764
881.0,911.0,0.8429,-0.7484,9.0365,-0.0417,0.1261,0.6912,-1.6600281200804652,-0.3068176209926605,1.8361003398895264,-1.9182182550430298,0.40903064608573914,2.45412015914917,4.955134305148878,-0.0002624501066748053,0.2178221046924591,-1.545011345540182,-0.0,0.04133634269237518,1.0344829559326172,0.5073729157447815,0.15167362987995148,0.7736468315124512,-0.00036163462209515274,-0.0985545888543129
881.0,911.0,0.8429,-0.7484,9.0365,-0.0417,0.1261,0.6912,-1.6625977955260218,-0.3130694627761841,1.81427001953125,-1.9149209260940552,0.41746389865875244,2.4934537410736084,4.9551019100244424,-0.00022735141101293266,0.2056247740983963,-1.5450399557696741,-0.0,0.03428515046834946,1.0383578538894653,0.4837242364883423,0.1686628758907318,0.7736304402351379,-0.0002955161908175796,-0.035885587334632874
881.0,911.0,0.8429,-0.7484,9.0365,-0.0417,0.1261,0.6912,-1.664459844628805,-0.3177228569984436,1.8160642385482788,-1.9124364852905273,0.41507527232170105,2.4963035583496094,4.955105963140287,-0.00038469306309707463,0.2192808985710144,-1.5450356642352503,-0.0,0.033666159957647324,1.0412226915359497,0.45721444487571716,0.15199674665927887,0.7736830115318298,-0.00025905846268869936,-0.12412373721599579
881.0,911.0,0.8429,-0.7484,9.0365,-0.0417,0.1261,0.6912,-1.667009016076559,-0.3322901725769043,1.8642635345458984,-1.9091225862503052,0.4093703329563141,2.4711179733276367,4.955078381090917,-0.00390981137752533,0.2104935348033905,-1.5450556913958948,-0.0,0.036622557789087296,1.0446834564208984,0.4338153898715973,0.14734818041324615,0.7736223936080933,-0.0002224652998847887,-0.17637962102890015
766.0,613.0,0.3236,-0.5862,9.5492,-0.007,0.1423,0.4415,-1.6690155468382777,-0.333658903837204,1.8874492645263672,-1.9067091941833496,0.4031365215778351,2.4674859046936035,4.955046373396673,-0.004201801028102636,0.20541006326675415,-1.545028034840719,-0.0,0.02355026826262474,1.0471755266189575,0.40214765071868896,0.14714229106903076,0.7736748456954956,-0.00020115511142648757,-0.11978594213724136
766.0,613.0,0.3236,-0.5862,9.5492,-0.007,0.1423,0.4415,-1.6709486446776332,-0.3384217619895935,1.8611470460891724,-1.9042093753814697,0.4078822433948517,2.4994897842407227,4.955050158291616,-0.0015168545069172978,0.2115640640258789,-1.5450318495379847,-0.0,0.042072396725416183,1.0493303537368774,0.34789201617240906,0.10841493308544159,0.7736826539039612,-0.00018357098451815546,-0.1309528946876526
766.0,613.0,0.3236,-0.5862,9.5492,-0.007,0.1423,0.4415,-1.6736389599242152,-0.339098185300827,1.915837049484253,-1.9009747505187988,0.4083251953125,2.508340835571289,4.954977917462148,-0.0007118734647519886,0.20237800478935242,-1.545028034840719,-0.0,0.02995915524661541,1.0520488023757935,0.3248125910758972,0.10274675488471985,0.7737069725990295,-0.00016440855688415468,-0.11654117703437805
766.0,613.0,0.3236,-0.5862,9.5492,-0.007,0.1423,0.4415,-1.6756359539427699,-0.3430764973163605,1.8791892528533936,-1.8984878063201904,0.40550151467323303,2.447355031967163,4.955050441413679,-0.0005310653359629214,0.21596600115299225,-1.5449917952166956,-0.0,0.035799540579319,1.0539178848266602,0.2961316704750061,0.08829467743635178,0.7736627459526062,-0.00015247153351083398,-0.13696584105491638
766.0,613.0,0.3236,-0.5862,9.5492,-0.007,0.1423,0.4415,-1.6783529720702113,-0.34553298354148865,1.9352141618728638,-1.8952242136001587,0.40746206045150757,2.5254979133605957,4.955054613738813,-0.0003529320820234716,0.2116241753101349,-1.5450275580035608,-0.0,0.036590784788131714,1.0556855201721191,0.21126407384872437,0.05038508027791977,0.7736668586730957,-8.5066792962607e-05,-0.0655093714594841
766.0,613.0,0.3236,-0.5862,9.5492,-0.007,0.1423,0.4415,-1.6804305515685023,-0.3533725440502167,1.905042052268982,-1.892800211906433,0.4093436002731323,2.4579739570617676,4.95506280937747,-0.000314270902890712,0.2140270471572876,-1.5449956099139612,-0.0,0.03572561591863632,1.0570036172866821,0.19275997579097748,0.035924240946769714,0.7736870646476746,-5.1969698688481e-05,-0.0607638955116272
766.0,613.0,0.3236,-0.5862,9.5492,-0.007,0.1423,0.4415,-1.6833111248412074,-0.35211309790611267,1.8983368873596191,-1.8895450830459595,0.41264501214027405,2.493964672088623,4.955034124642172,-0.0002643220650497824,0.21801644563674927,-1.5450194517718714,-0.0,0.039530038833618164,1.0584145784378052,0.14871831238269806,0.04184090346097946,0.7736467719078064,-9.30683090700768e-05,-0.14197701215744019
766.0,613.0,0.3236,-0.5862,9.5492,-0.007,0.1423,0.4415,-1.6854578457274378,-0.3617176115512848,1.9170646667480469,-1.8870689868927002,0.4078128933906555,2.447693109512329,4.955046477704801,-0.00026870195870287716,0.21741044521331787,-1.5450318495379847,-0.0,0.02475036308169365,1.0589736700057983,0.08670930564403534,-0.01082649827003479,0.7736627459526062,-8.646440255688503e-05,-0.11094316840171814
766.0,613.0,0.3236,-0.5862,9.5492,-0.007,0.1423,0.4415,-1.6884871921935023,-0.36419400572776794,1.9930998086929321,-1.8838552236557007,0.4191463589668274,2.4675021171569824,4.955022308021345,-6.210186256794259e-05,0.2170497626066208,-1.5450437704669397,-0.0,0.024759765714406967,1.059456706047058,0.032597824931144714,-0.02665111795067787,0.7736750245094299,-7.888578693382442e-05,-0.0994032472372055
766.0,613.0,0.3236,-0.5862,9.5492,-0.007,0.1423,0.4415,-1.690763612786764,-0.37310856580734253,1.9120652675628662,-1.881379246711731,0.4196080267429352,2.4215643405914307,4.955034124642172,-0.00012568662350531667,0.21604113280773163,-1.5450037161456507,-0.0,0.02207498624920845,1.0595124959945679,0.005367701407521963,-0.005606340244412422,0.7737030386924744,-0.00010040323832072318,-0.1421065628528595
766.0,613.0,0.3236,-0.5862,9.5492,-0.007,0.1423,0.4415,-1.6938730678954066,-0.37973999977111816,1.9869897365570068,-1.8780556917190552,0.41693028807640076,2.4776201248168945,4.955026793270864,-0.0002523848379496485,0.2180136889219284,-1.5450194517718714,-0.0,0.033749256283044815,1.059411644935608,-0.009066840633749962,-0.04567423462867737,0.7736186385154724,-0.0001641394046600908,-0.10478039085865021
766.0,613.0,0.3236,-0.5862,9.5492,-0.007,0.1423,0.4415,-1.696089883843893,-0.38716766238212585,1.973205804824829,-1.8755159378051758,0.4066454768180847,2.5019662380218506,4.955010342388906,-0.0021635836455971003,0.21935436129570007,-1.5450399557696741,-0.0,0.0353776291012764,1.0594086647033691,-0.007384296506643295,-0.03121907450258732,0.7736788988113403,-0.00014826221740804613,-0.1498764455318451
766.0,613.0,0.3236,-0.5862,9.5492,-0.007,0.1423,0.4415,-1.6992584667601527,-0.39813753962516785,1.93755304813385,-1.8722373247146606,0.40575650334358215,2.4628961086273193,4.955018538027563,-0.0012575049186125398,0.21869461238384247,-1.545016113911764,-0.0,0.03220786526799202,1.0593689680099487,-0.0025197244249284267,-0.05331244319677353,0.7736467719078064,-0.00015809267642907798,-0.10309799015522003
483.0,498.0,0.387,-1.2993,9.0365,-0.0099,0.087,0.0032,-1.7016164265074671,-0.3985205292701721,1.936541199684143,-1.8697620630264282,0.4044989347457886,2.4889986515045166,4.95499840655879,-0.0008244756609201431,0.23420670628547668,-1.5450318495379847,-0.0,0.019366160035133362,1.0593769550323486,-0.0009251655428670347,-0.03354553133249283,0.7736709117889404,-0.00018016713147517294,-0.11786048114299774
483.0,498.0,0.387,-1.2993,9.0365,-0.0099,0.087,0.0032,-1.704717298547262,-0.39261287450790405,2.0045886039733887,-1.866430401802063,0.40157651901245117,2.431356906890869,4.954998451262274,-0.0004173881025053561,0.2173818200826645,-1.5450037161456507,-0.0,0.024927828460931778,1.059444546699524,-0.000506727839820087,-0.042590558528900146,0.7736911773681641,-0.00019554786558728665,-0.14065948128700256
483.0,498.0,0.387,-1.2993,9.0365,-0.0099,0.087,0.0032,-1.7070619068541468,-0.3890003263950348,2.0201258659362793,-1.8639957904815674,0.4045390188694,2.476715564727783,4.955046433001318,-0.0002725570520851761,0.2163839489221573,-1.545028034840719,-0.0,0.023415209725499153,1.0594370365142822,-0.0003420076100155711,-0.046989232301712036,0.7736631035804749,-0.00012631190475076437,-0.10453526675701141
