ramyac6/ROB537/final_project/csv/bad/bad_69.csv
tof_0,tof_1,accelx,accely,accelz,gyrox,gyroy,gyroz,shoulder_lift_joint_position,shoulder_lift_joint_velocity,shoulder_lift_joint_effort,elbow_joint_position,elbow_joint_velocity,elbow_joint_effort,wrist_1_joint_position,wrist_1_joint_velocity,wrist_1_joint_effort,wrist_2_joint_position,wrist_2_joint_velocity,wrist_2_joint_effort,wrist_3_joint_position,wrist_3_joint_velocity,wrist_3_joint_effort,shoulder_pan_joint_position,shoulder_pan_joint_velocity,shoulder_pan_joint_effort
355.0,558.0,-3.7238,0.5533,9.1807,-0.0458,0.0244,-0.1077,-2.106258054772848,0.0,3.908454418182373,-1.7250101566314697,-0.0,1.7374966144561768,5.640312421112814,0.0,0.2390848994255066,-1.7080357710467737,0.0,0.005117421504110098,0.4289862811565399,0.0,0.006783962249755859,1.1101356744766235,0.0,-0.008742340840399265
355.0,558.0,-3.7238,0.5533,9.1807,-0.0458,0.0244,-0.1077,-2.106351514855856,0.0,3.8955295085906982,-1.7249741554260254,-0.0,1.7561626434326172,5.640276360302725,0.0,0.23114299774169922,-1.7079718748675745,0.0,0.010667539201676846,0.42905890941619873,0.0,0.014914358966052532,1.110090970993042,0.0,0.004659544676542282
355.0,558.0,-3.7238,0.5533,9.1807,-0.0458,0.0244,-0.1077,-2.1063066921629847,0.0,3.887631416320801,-1.7249702215194702,-0.0,1.7187402248382568,5.640312421112814,0.0,0.23413729667663574,-1.7079837957965296,0.0,0.008456120267510414,0.4290342926979065,0.0,-0.0009954560082405806,1.1101478338241577,0.0,-0.021336864680051804
355.0,558.0,-3.7238,0.5533,9.1807,-0.0458,0.0244,-0.1077,-2.1063267193236292,0.0,3.9068946838378906,-1.7249701023101807,-0.0,1.6764962673187256,5.640324342041769,0.0,0.22078299522399902,-1.7080076376544397,0.0,-0.007519418373703957,0.42898625135421753,0.0,-0.003679283894598484,1.1101232767105103,0.0,-0.009770315140485764
355.0,558.0,-3.7238,0.5533,9.1807,-0.0458,0.0244,-0.1077,-2.1062947712340296,0.0,3.9362435340881348,-1.725014567375183,-0.0,1.7213205099105835,5.640304314881124,0.0,0.24068903923034668,-1.7079675833331507,0.0,0.002677340991795063,0.4289538860321045,0.0,0.005075906869024038,1.1101641654968262,0.0,-0.049001313745975494
355.0,558.0,-3.7238,0.5533,9.1807,-0.0458,0.0244,-0.1077,-2.1062661610045375,0.0,3.882054328918457,-1.7250422239303589,-0.0,1.6622458696365356,5.640312421112814,0.0,0.24165469408035278,-1.7079675833331507,0.0,0.0018078580033034086,0.4289941191673279,0.0,-0.00045706494711339474,1.1101559400558472,0.0,0.003890381194651127
355.0,558.0,-3.7238,0.5533,9.1807,-0.0458,0.0244,-0.1077,-2.106290479699606,0.0,3.870128631591797,-1.7249668836593628,-0.0,1.6585882902145386,5.640324342041769,0.0,0.23921321332454681,-1.7079880873309534,0.0,0.012610550969839096,0.4290101230144501,0.0,0.0019364245235919952,1.1101601123809814,0.0,-0.005481002852320671
355.0,558.0,-3.7238,0.5533,9.1807,-0.0458,0.0244,-0.1077,-2.106330534020895,0.0,3.910675048828125,-1.7249855995178223,-0.0,1.70890474319458,5.640268552094259,0.0,0.22183170914649963,-1.7079876104937952,0.0,0.005003472790122032,0.4290223717689514,0.0,-0.003922640345990658,1.1101396083831787,0.0,-0.012491544708609581
355.0,558.0,-3.7238,0.5533,9.1807,-0.0458,0.0244,-0.1077,-2.106298109094137,0.0,3.9536004066467285,-1.725014328956604,-0.0,1.7134894132614136,5.640348541527548,0.0,0.2395973801612854,-1.7079880873309534,0.0,0.011313546448946,0.4289862811565399,0.0,0.015149323269724846,1.110143780708313,0.0,0.03465833142399788
372.0,570.0,-3.6814,0.6012,9.0425,-0.0396,0.0185,-0.1083,-2.106274267236227,0.0,3.889069080352783,-1.7249668836593628,-0.0,1.7209041118621826,5.64026819446639,0.0,0.22918671369552612,-1.7080157438861292,0.0,0.010663430206477642,0.429038405418396,0.0,-0.004347239620983601,1.1101274490356445,0.0,-0.014690689742565155
372.0,570.0,-3.6814,0.6012,9.0425,-0.0396,0.0185,-0.1083,-2.1062704525389613,0.0,3.9170751571655273,-1.7249937057495117,-0.0,1.6885457038879395,5.64026032665328,0.0,0.2393934428691864,-1.7079756895648401,0.0,0.007462420500814915,0.4290182888507843,0.0,-0.004557766951620579,1.1101155281066895,0.0,-0.04009906202554703
372.0,570.0,-3.6814,0.6012,9.0425,-0.0396,0.0185,-0.1083,-2.106302400628561,0.0,3.896516799926758,-1.7249773740768433,-0.0,1.6857582330703735,5.640284526139059,0.0,0.2348518967628479,-1.7080038229571741,0.0,0.006824471987783909,0.4290302097797394,0.0,0.004492245614528656,1.1101031303405762,0.0,0.010304342024028301
372.0,570.0,-3.6814,0.6012,9.0425,-0.0396,0.0185,-0.1083,-2.1062947712340296,0.0,3.9247002601623535,-1.7249823808670044,-0.0,1.683323860168457,5.640296447068014,0.0,0.230770081281662,-1.7079914251910608,0.0,0.014906021766364574,0.4289981424808502,0.0,0.009731756523251534,1.1101274490356445,0.0,-0.048059962689876556
372.0,570.0,-3.6814,0.6012,9.0425,-0.0396,0.0185,-0.1083,-2.106290479699606,0.0,3.8568782806396484,-1.7250020503997803,-0.0,1.7117798328399658,5.640320288925924,0.0,0.24143174290657043,-1.7079876104937952,0.0,0.0016521750949323177,0.42897000908851624,0.0,-0.008098172023892403,1.110143780708313,0.0,0.010616762563586235
372.0,570.0,-3.6814,0.6012,9.0425,-0.0396,0.0185,-0.1083,-2.1063391170897425,0.0,3.9128432273864746,-1.7249741554260254,-0.0,1.7204821109771729,5.64028828123168,0.0,0.24108657240867615,-1.7079880873309534,0.0,0.006182589568197727,0.4289858341217041,0.0,-0.008744480088353157,1.1101033687591553,0.0,0.005064826458692551
372.0,570.0,-3.6814,0.6012,9.0425,-0.0396,0.0185,-0.1083,-2.106290479699606,0.0,3.920203447341919,-1.7250020503997803,-0.0,1.6778228282928467,5.640324401646414,0.0,0.23426494002342224,-1.7080157438861292,0.0,-0.002715431386604905,0.4290342926979065,0.0,0.003982188180088997,1.110143780708313,0.0,-0.01299909595400095
372.0,570.0,-3.6814,0.6012,9.0425,-0.0396,0.0185,-0.1083,-2.106274267236227,0.0,3.9180679321289062,-1.7249586582183838,-0.0,1.721527099609375,5.640328454762258,0.0,0.2442243993282318,-1.7080038229571741,0.0,0.014781974256038666,0.42894619703292847,0.0,0.005360324401408434,1.110152006149292,0.0,-0.012056786566972733
372.0,570.0,-3.6814,0.6012,9.0425,-0.0396,0.0185,-0.1083,-2.1063105068602503,0.0,3.8915748596191406,-1.7249741554260254,-0.0,1.6663250923156738,5.640332507878103,0.0,0.23551198840141296,-1.7079837957965296,0.0,0.003605650272220373,0.4290059506893158,0.0,0.0013014297001063824,1.1101641654968262,0.0,-0.00917800422757864
372.0,570.0,-3.6814,0.6012,9.0425,-0.0396,0.0185,-0.1083,-2.106298109094137,0.0,3.935842752456665,-1.7249741554260254,-0.0,1.6832070350646973,5.640272247582235,0.0,0.2346203774213791,-1.7080076376544397,0.0,0.010954448953270912,0.4290383756160736,0.0,0.002483525313436985,1.1101560592651367,0.0,0.003713349811732769
372.0,570.0,-3.6814,0.6012,9.0425,-0.0396,0.0185,-0.1083,-2.106302400628561,0.0,3.9559226036071777,-1.7250226736068726,-0.0,1.7305774688720703,5.640324342041769,0.0,0.2364899218082428,-1.7079837957965296,0.0,0.015097545459866524,0.42901015281677246,0.0,0.00986400619149208,1.1101274490356445,0.0,-0.008783245459198952
372.0,570.0,-3.6814,0.6012,9.0425,-0.0396,0.0185,-0.1083,-2.106274267236227,0.0,3.8954343795776367,-1.7249257564544678,-0.0,1.6753990650177002,5.640328454762258,0.0,0.23410606384277344,-1.7079880873309534,0.0,-0.010082868859171867,0.4289945065975189,0.0,0.0007755751139484346,1.1101232767105103,0.0,0.02410179376602173
372.0,570.0,-3.6814,0.6012,9.0425,-0.0396,0.0185,-0.1083,-2.1063066921629847,0.0,3.8887124061584473,-1.7249937057495117,-0.0,1.6878870725631714,5.640308308392324,0.0,0.2322903573513031,-1.7079756895648401,0.0,0.018461817875504494,0.42901426553726196,0.0,-0.001970098353922367,1.1101274490356445,0.0,0.004500716924667358
372.0,570.0,-3.6814,0.6012,9.0425,-0.0396,0.0185,-0.1083,-2.1063224277892054,0.0,3.9266042709350586,-1.725006103515625,-0.0,1.6948493719100952,5.64027230718688,0.0,0.24064326286315918,-1.7079837957965296,0.0,0.007429133169353008,0.42899414896965027,0.0,0.006961626000702381,1.1101478338241577,0.0,-0.0019059652695432305
372.0,570.0,-3.6814,0.6012,9.0425,-0.0396,0.0185,-0.1083,-2.106286188165182,0.0,3.9068603515625,-1.7250341176986694,-0.0,1.6993110179901123,5.640324342041769,0.0,0.22867631912231445,-1.7079837957965296,0.0,0.0061209434643387794,0.4290023148059845,0.0,-0.003152262419462204,1.1101232767105103,0.0,-0.00014220736920833588
372.0,570.0,-3.6814,0.6012,9.0425,-0.0396,0.0185,-0.1083,-2.1062785587706507,0.0,3.941995143890381,-1.7249741554260254,-0.0,1.6617141962051392,5.640304314881124,0.0,0.2347697913646698,-1.7080119291888636,0.0,0.004400898236781359,0.42903465032577515,0.0,0.00506618432700634,1.110119104385376,0.0,-0.026871927082538605
367.0,555.0,-3.7543,0.5928,9.1585,-0.0379,0.0224,-0.1098,-2.106286188165182,0.0,3.9111099243164062,-1.7250020503997803,-0.0,1.709402322769165,5.640308367996969,0.0,0.24123603105545044,-1.7079837957965296,0.0,0.001145223155617714,0.42900633811950684,0.0,-0.0005499711260199547,1.1101559400558472,0.0,-0.023182261735200882
367.0,555.0,-3.7543,0.5928,9.1585,-0.0379,0.0224,-0.1098,-2.106290479699606,0.0,3.9464869499206543,-1.7250020503997803,-0.0,1.7216962575912476,5.6403042552764795,0.0,0.23421087861061096,-1.7079914251910608,0.0,0.008930492214858532,0.4290063977241516,0.0,0.00593094527721405,1.1101559400558472,0.0,0.024481752887368202
367.0,555.0,-3.7543,0.5928,9.1585,-0.0379,0.0224,-0.1098,-2.106286188165182,0.0,3.864434242248535,-1.7249979972839355,-0.0,1.6676726341247559,5.640279996186056,0.0,0.24071425199508667,-1.7080157438861292,0.0,-0.0046791681088507175,0.4290023148059845,0.0,0.005306628067046404,1.1101232767105103,0.0,-0.035701774060726166
367.0,555.0,-3.7543,0.5928,9.1585,-0.0379,0.0224,-0.1098,-2.1063224277892054,0.0,3.8920490741729736,-1.7249175310134888,-0.0,1.6820862293243408,5.640328454762258,0.0,0.23774230480194092,-1.708008114491598,0.0,0.005039149429649115,0.42904651165008545,0.0,0.0002981217112392187,1.1101197004318237,0.0,0.03253290057182312
367.0,555.0,-3.7543,0.5928,9.1585,-0.0379,0.0224,-0.1098,-2.1062542400755824,0.0,3.9305992126464844,-1.7249298095703125,-0.0,1.691038966178894,5.640292393952169,0.0,0.233969047665596,-1.7079795042621058,0.0,0.022351041436195374,0.4290022552013397,0.0,0.00017950497567653656,1.110090970993042,0.0,-0.016368437558412552
367.0,555.0,-3.7543,0.5928,9.1585,-0.0379,0.0224,-0.1098,-2.106262346307272,0.0,3.911609172821045,-1.72494637966156,-0.0,1.7323412895202637,5.64036117771224,0.0,0.23767277598381042,-1.7079675833331507,0.0,-0.0036930078640580177,0.42899414896965027,0.0,0.0033321548253297806,1.1101760864257812,0.0,0.026409048587083817
367.0,555.0,-3.7543,0.5928,9.1585,-0.0379,0.0224,-0.1098,-2.1063348255553187,0.0,3.8854682445526123,-1.7249215841293335,-0.0,1.685765266418457,5.6403124807174585,0.0,0.23276644945144653,-1.7079837957965296,0.0,-0.0017901936080306768,0.42902615666389465,0.0,0.011372429318726063,1.110143780708313,0.0,-0.022440610453486443
367.0,555.0,-3.7543,0.5928,9.1585,-0.0379,0.0224,-0.1098,-2.106286188165182,0.0,3.875943422317505,-1.7249979972839355,-0.0,1.6819655895233154,5.640328454762258,0.0,0.25513750314712524,-1.7080157438861292,0.0,0.005663531832396984,0.42902612686157227,0.0,0.0010946241673082113,1.110143780708313,0.0,-0.00975603424012661
367.0,555.0,-3.7543,0.5928,9.1585,-0.0379,0.0224,-0.1098,-2.1062661610045375,0.0,3.8930487632751465,-1.724989652633667,-0.0,1.728308081626892,5.640272247582235,0.0,0.24154356122016907,-1.7079551855670374,0.0,-0.002490952145308256,0.4290063679218292,0.0,0.0023237960413098335,1.110143780708313,0.0,-0.008769701234996319
367.0,555.0,-3.7543,0.5928,9.1585,-0.0379,0.0224,-0.1098,-2.1062542400755824,0.0,3.877593994140625,-1.7249895334243774,-0.0,1.7481235265731812,5.640284228115835,0.0,0.23300758004188538,-1.7079675833331507,0.0,0.003834646660834551,0.42899036407470703,0.0,-0.008651128038764,1.1101232767105103,0.0,-0.008493832312524319
367.0,555.0,-3.7543,0.5928,9.1585,-0.0379,0.0224,-0.1098,-2.106290479699606,0.0,3.904966115951538,-1.724966049194336,-0.0,1.6808276176452637,5.640368926316061,0.0,0.2345184087753296,-1.7080238501178187,0.0,0.006502683740109205,0.42903023958206177,0.0,0.005350769031792879,1.1101477146148682,0.0,-0.001863128854893148
367.0,555.0,-3.7543,0.5928,9.1585,-0.0379,0.0224,-0.1098,-2.1062947712340296,0.0,3.885014057159424,-1.724989652633667,-0.0,1.7149488925933838,5.640348601132192,0.0,0.2429114580154419,-1.7079756895648401,0.0,0.005839115008711815,0.42905429005622864,0.0,0.0016829766100272536,1.1101315021514893,0.0,0.01199012529104948
367.0,555.0,-3.7543,0.5928,9.1585,-0.0379,0.0224,-0.1098,-2.1062661610045375,0.0,3.9072937965393066,-1.7249702215194702,-0.0,1.7118172645568848,5.6402639029319666,0.0,0.24495844542980194,-1.7079675833331507,0.0,-0.004585564602166414,0.428973913192749,0.0,0.012294480577111244,1.1101559400558472,0.0,0.015102108009159565
367.0,555.0,-3.7543,0.5928,9.1585,-0.0379,0.0224,-0.1098,-2.106286188165182,0.0,3.905200481414795,-1.725058674812317,-0.0,1.7048423290252686,5.640324342041769,0.0,0.23905429244041443,-1.7079795042621058,0.0,0.010048860684037209,0.4290502071380615,0.0,0.010721498169004917,1.1101354360580444,0.0,0.015344414860010147
367.0,555.0,-3.7543,0.5928,9.1585,-0.0379,0.0224,-0.1098,-2.106286188165182,0.0,3.911409616470337,-1.7249855995178223,-0.0,1.7032320499420166,5.640316533833303,0.0,0.24169974029064178,-1.7079837957965296,0.0,0.00943053513765335,0.4290182888507843,0.0,-0.0009192099096253514,1.1100867986679077,0.0,-0.018788978457450867
367.0,555.0,-3.7543,0.5928,9.1585,-0.0379,0.0224,-0.1098,-2.106302400628561,0.0,3.914680004119873,-1.7249141931533813,-0.0,1.7296619415283203,5.640332507878103,0.0,0.23211030662059784,-1.7080038229571741,0.0,0.007098976522684097,0.42902612686157227,0.0,-0.008698313497006893,1.1101155281066895,0.0,-0.01776265725493431
367.0,555.0,-3.7543,0.5928,9.1585,-0.0379,0.0224,-0.1098,-2.1063066921629847,0.0,3.9224023818969727,-1.7249257564544678,-0.0,1.731651782989502,5.64027230718688,0.0,0.24101555347442627,-1.7079513708697718,0.0,-0.0020480158273130655,0.4289657771587372,0.0,0.008458007127046585,1.1101073026657104,0.0,0.0313258096575737
374.0,553.0,-3.8249,0.536,9.1848,-0.0334,0.0302,-0.1074,-2.106286188165182,0.0,3.9401602745056152,-1.7250422239303589,-0.0,1.6882579326629639,5.640292334347524,0.0,0.237017422914505,-1.7079675833331507,0.0,0.010423816740512848,0.4289657473564148,0.0,-0.005537401419132948,1.1101478338241577,0.0,-0.03649097681045532
374.0,553.0,-3.8249,0.536,9.1848,-0.0334,0.0302,-0.1074,-2.1062704525389613,0.0,3.919145107269287,-1.7249935865402222,-0.0,1.7070633172988892,5.640308367996969,0.0,0.23464259505271912,-1.7079795042621058,0.0,0.006728717125952244,0.42901378870010376,0.0,0.010825896635651588,1.1101559400558472,0.0,0.02998346835374832
374.0,553.0,-3.8249,0.536,9.1848,-0.0334,0.0302,-0.1074,-2.1062823734679164,0.0,3.8869502544403076,-1.7249855995178223,-0.0,1.7057042121887207,5.640340316086569,0.0,0.23864899575710297,-1.7080157438861292,0.0,-0.0037569638807326555,0.4289941191673279,0.0,-0.008701508864760399,1.1101274490356445,0.0,-0.041726768016815186
374.0,553.0,-3.8249,0.536,9.1848,-0.0334,0.0302,-0.1074,-2.106274267236227,0.0,3.917360305786133,-1.7249741554260254,-0.0,1.7214910984039307,5.640324401646414,0.0,0.22768190503120422,-1.7079551855670374,0.0,0.004727167077362537,0.4290022552013397,0.0,-0.0053909048438072205,1.1101232767105103,0.0,-0.013760223984718323
374.0,553.0,-3.8249,0.536,9.1848,-0.0334,0.0302,-0.1074,-2.1063434086241664,0.0,3.927556037902832,-1.724981427192688,-0.0,1.6785460710525513,5.64026032665328,0.0,0.2219579815864563,-1.7079837957965296,0.0,0.004483229015022516,0.428981751203537,0.0,-0.0059498995542526245,1.1101354360580444,0.0,0.012037903070449829
374.0,553.0,-3.8249,0.536,9.1848,-0.0334,0.0302,-0.1074,-2.106290479699606,0.0,3.907766819000244,-1.725022554397583,-0.0,1.6752262115478516,5.640272366791525,0.0,0.24033594131469727,-1.7079914251910608,0.0,0.0120188407599926,0.4290142059326172,0.0,0.0018942439928650856,1.1101315021514893,0.0,-0.003106524236500263
374.0,553.0,-3.8249,0.536,9.1848,-0.0334,0.0302,-0.1074,-2.106298109094137,0.0,3.899254322052002,-1.724938154220581,-0.0,1.6789882183074951,5.640320288925924,0.0,0.2396899163722992,-1.7079756895648401,0.0,-0.0005404576659202576,0.42903831601142883,0.0,0.011286047287285328,1.1101155281066895,0.0,0.008679047226905823
374.0,553.0,-3.8249,0.536,9.1848,-0.0334,0.0302,-0.1074,-2.106314798394674,0.0,3.900921583175659,-1.7249020338058472,-0.0,1.683758020401001,5.640324342041769,0.0,0.23369687795639038,-1.7079718748675745,0.0,0.003556916955858469,0.42899030447006226,0.0,0.01364316139370203,1.1101274490356445,0.0,0.006675561890006065
374.0,553.0,-3.8249,0.536,9.1848,-0.0334,0.0302,-0.1074,-2.1063267193236292,0.0,3.9026381969451904,-1.7250101566314697,-0.0,1.696576714515686,5.6403042552764795,0.0,0.22558757662773132,-1.7080119291888636,0.0,-0.0040263948030769825,0.4290142059326172,0.0,-0.005650275386869907,1.1101601123809814,0.0,0.023153269663453102
374.0,553.0,-3.8249,0.536,9.1848,-0.0334,0.0302,-0.1074,-2.1062337360777796,0.0,3.9095287322998047,-1.724989652633667,-0.0,1.6734826564788818,5.640316533833303,0.0,0.2311616837978363,-1.7079914251910608,0.0,-0.0024213558062911034,0.4289097189903259,0.0,0.00018644076772034168,1.1101315021514893,0.0,-0.008747002109885216
374.0,553.0,-3.8249,0.536,9.1848,-0.0334,0.0302,-0.1074,-2.106258531610006,0.0,3.89135479927063,-1.7249815464019775,-0.0,1.6829650402069092,5.640272247582235,0.0,0.24815455079078674,-1.7080157438861292,0.0,-0.0006613848963752389,0.4290585219860077,0.0,0.011065161786973476,1.1101197004318237,0.0,0.041154202073812485
374.0,553.0,-3.8249,0.536,9.1848,-0.0334,0.0302,-0.1074,-2.1062823734679164,0.0,3.9134984016418457,-1.7249741554260254,-0.0,1.6854298114776611,5.6402644393737695,0.0,0.227240189909935,-1.7080157438861292,0.0,0.004202194977551699,0.42898592352867126,0.0,0.00384169421158731,1.1101274490356445,0.0,-0.031175540760159492
374.0,553.0,-3.8249,0.536,9.1848,-0.0334,0.0302,-0.1074,-2.106290479699606,0.0,3.893378257751465,-1.7249380350112915,-0.0,1.7221442461013794,5.6402960298355005,0.0,0.23635685443878174,-1.7079675833331507,0.0,0.006277721840888262,0.4289821982383728,0.0,-0.0030706720426678658,1.1101274490356445,0.0,0.03588302433490753
374.0,553.0,-3.8249,0.536,9.1848,-0.0334,0.0302,-0.1074,-2.1062780819334925,0.0,3.8964056968688965,-1.7249855995178223,-0.0,1.6933506727218628,5.640312421112814,0.0,0.2412654310464859,-1.7079795042621058,0.0,-0.0007540967199020088,0.42901015281677246,0.0,0.009978234767913818,1.1101274490356445,0.0,-0.009310309775173664
374.0,553.0,-3.8249,0.536,9.1848,-0.0334,0.0302,-0.1074,-2.106262346307272,0.0,3.894282341003418,-1.724997878074646,-0.0,1.7215375900268555,5.640340673714437,0.0,0.22943741083145142,-1.7080157438861292,0.0,0.006104218773543835,0.4290342628955841,0.0,8.06502066552639e-05,1.1101354360580444,0.0,-0.0066169751808047295
374.0,553.0,-3.8249,0.536,9.1848,-0.0334,0.0302,-0.1074,-2.1062542400755824,0.0,3.928400993347168,-1.7249937057495117,-0.0,1.7188589572906494,5.640320288925924,0.0,0.22841119766235352,-1.7080038229571741,0.0,0.0075325388461351395,0.42896175384521484,0.0,0.011176084168255329,1.1101477146148682,0.0,0.014531111344695091
374.0,553.0,-3.8249,0.536,9.1848,-0.0334,0.0302,-0.1074,-2.1062704525389613,0.0,3.918360948562622,-1.7249815464019775,-0.0,1.7045555114746094,5.6403366205985925,0.0,0.23880726099014282,-1.7080157438861292,0.0,-0.010072881355881691,0.4290219843387604,0.0,-0.006638112477958202,1.1100990772247314,0.0,0.007371134124696255
385.0,529.0,-3.731,0.5635,8.9976,-0.0466,0.02,-0.1092,-2.1063434086241664,0.0,3.900160789489746,-1.7249733209609985,-0.0,1.7506930828094482,5.640308367996969,0.0,0.2411523014307022,-1.7079756895648401,0.0,0.013604840263724327,0.4290142059326172,0.0,0.00921750906854868,1.1101601123809814,0.0,-0.04949349910020828
385.0,529.0,-3.731,0.5635,8.9976,-0.0466,0.02,-0.1092,-2.1063348255553187,0.0,3.980931282043457,-1.724989652633667,-0.0,1.6785497665405273,5.6402639029319666,0.0,0.23300109803676605,-1.707939926777975,0.0,-0.002553275553509593,0.4290667176246643,0.0,-0.004498130176216364,1.110151767730713,0.0,-0.005113464780151844
385.0,529.0,-3.731,0.5635,8.9976,-0.0466,0.02,-0.1092,-2.10631861309194,0.0,3.9176387786865234,-1.7249741554260254,-0.0,1.7353215217590332,5.640296447068014,0.0,0.24015051126480103,-1.707991902028219,0.0,0.005231189541518688,0.428998202085495,0.0,0.017799727618694305,1.1101114749908447,0.0,-0.04113376885652542
385.0,529.0,-3.731,0.5635,8.9976,-0.0466,0.02,-0.1092,-2.1062542400755824,0.0,3.8963165283203125,-1.7249627113342285,-0.0,1.6469738483428955,5.64027230718688,0.0,0.23951151967048645,-1.7080276648150843,0.0,0.007416923064738512,0.4290096163749695,0.0,0.0011678352020680904,1.1100951433181763,0.0,-0.044566452503204346
385.0,529.0,-3.731,0.5635,8.9976,-0.0466,0.02,-0.1092,-2.106302877465719,0.0,3.898566246032715,-1.7249709367752075,-0.0,1.7136867046356201,5.64036105850295,0.0,0.22563381493091583,-1.7079795042621058,0.0,-0.005089178681373596,0.4290265738964081,0.0,0.001218081102706492,1.1101396083831787,0.0,-0.006623862776905298
385.0,529.0,-3.731,0.5635,8.9976,-0.0466,0.02,-0.1092,-2.1062823734679164,0.0,3.895313262939453,-1.7249701023101807,-0.0,1.6899466514587402,5.640336262970724,0.0,0.22685909271240234,-1.708031956349508,0.0,0.0026817559264600277,0.4290223717689514,0.0,-0.0015246053226292133,1.1101114749908447,0.0,0.023688100278377533
385.0,529.0,-3.731,0.5635,8.9976,-0.0466,0.02,-0.1092,-2.1062823734679164,0.0,3.907194137573242,-1.7249586582183838,-0.0,1.737380027770996,5.640348541527548,0.0,0.2333253175020218,-1.7079957167254847,0.0,0.007198127452284098,0.4290142059326172,0.0,-9.937677532434464e-05,1.1101641654968262,0.0,-0.00932619534432888
385.0,529.0,-3.731,0.5635,8.9976,-0.0466,0.02,-0.1092,-2.1063066921629847,0.0,3.9026341438293457,-1.7250101566314697,-0.0,1.7413458824157715,5.6402644393737695,0.0,0.23801791667938232,-1.7079837957965296,0.0,-0.006262615323066711,0.42899858951568604,0.0,0.0018222067737951875,1.1101274490356445,0.0,0.024776458740234375
385.0,529.0,-3.731,0.5635,8.9976,-0.0466,0.02,-0.1092,-2.106307169000143,0.0,3.941380023956299,-1.7249627113342285,-0.0,1.7370131015777588,5.640368866711416,0.0,0.22921869158744812,-1.7079756895648401,0.0,-0.0018412075005471706,0.4290342926979065,0.0,-0.004322121385484934,1.1101073026657104,0.0,0.005590981803834438
385.0,529.0,-3.731,0.5635,8.9976,-0.0466,0.02,-0.1092,-2.106331010858053,0.0,3.9079861640930176,-1.7249215841293335,-0.0,1.7218072414398193,5.640304612904348,0.0,0.24694465100765228,-1.7080038229571741,0.0,-0.0009322093101218343,0.4290223717689514,0.0,0.0047922879457473755,1.1101073026657104,0.0,-0.050365008413791656
385.0,529.0,-3.731,0.5635,8.9976,-0.0466,0.02,-0.1092,-2.106274267236227,0.0,3.891879081726074,-1.72495436668396,2.83154719227241e-07,1.7377634048461914,5.64027230718688,0.0,0.22959455847740173,-1.7079957167254847,0.0,0.007958885282278061,0.4290383458137512,0.0,0.01163384411484003,1.1101150512695312,0.0,-0.015008307993412018
385.0,529.0,-3.731,0.5635,8.9976,-0.0466,0.02,-0.1092,-2.106302400628561,0.0,3.919229030609131,-1.724989652633667,6.837853308745701e-13,1.6758718490600586,5.64028828123168,0.0,0.23501354455947876,-1.7080119291888636,0.0,0.005986674688756466,0.4289698898792267,0.0,0.007391586434096098,1.1101677417755127,0.0,0.009155355393886566
385.0,529.0,-3.731,0.5635,8.9976,-0.0466,0.02,-0.1092,-2.1062704525389613,0.0,3.9015841484069824,-1.7249855995178223,1.6512613657605129e-18,1.7363991737365723,5.640332507878103,0.0,0.2470637559890747,-1.7079795042621058,0.0,0.01334766112267971,0.4289941191673279,0.0,-0.016443895176053047,1.1101354360580444,0.0,-0.028041379526257515
385.0,529.0,-3.731,0.5635,8.9976,-0.0466,0.02,-0.1092,-2.106274267236227,0.0,3.9241814613342285,-1.7249701023101807,2.9722123109645937e-22,1.7188911437988281,5.640292393952169,0.0,0.2500879168510437,-1.7080119291888636,0.0,0.0012476781848818064,0.42907074093818665,0.0,0.004914191551506519,1.1101315021514893,0.0,0.017545312643051147
385.0,529.0,-3.731,0.5635,8.9976,-0.0466,0.02,-0.1092,-2.106314798394674,0.0,3.8391871452331543,-1.7249020338058472,7.177543198197712e-28,1.7366869449615479,5.6403246996696375,0.0,0.23620754480361938,-1.7079876104937952,0.0,0.012620953842997551,0.4289740324020386,0.0,-0.007137776352465153,1.1101114749908447,0.0,-0.011816741898655891
385.0,529.0,-3.731,0.5635,8.9976,-0.0466,0.02,-0.1092,-2.106302400628561,0.0,3.9071555137634277,-1.7249855995178223,1.733291950555395e-33,1.7069976329803467,5.640332507878103,0.0,0.2396548092365265,-1.7079914251910608,0.0,0.008052704855799675,0.4290023148059845,0.0,0.018142469227313995,1.110143780708313,0.0,0.021099882200360298
385.0,529.0,-3.731,0.5635,8.9976,-0.0466,0.02,-0.1092,-2.106286188165182,0.0,3.9134273529052734,-1.7249937057495117,4.1856953285198005e-39,1.686997890472412,5.640357005387106,0.0,0.22901317477226257,-1.708031956349508,0.0,-0.002443928737193346,0.42904651165008545,0.0,-0.009658582508563995,1.1100832223892212,0.0,-0.006058426573872566
386.0,548.0,-3.6963,0.5922,9.0461,-0.0339,0.0195,-0.1032,-2.106274267236227,0.0,3.9279534816741943,-1.7250350713729858,7.538985738067516e-43,1.7024083137512207,5.640316176205435,0.0,0.2407805323600769,-1.708020035420553,0.0,-0.002108229324221611,0.4289739727973938,0.0,0.00918907392770052,1.110143780708313,0.0,0.008278826251626015
386.0,548.0,-3.6963,0.5922,9.0461,-0.0339,0.0195,-0.1032,-2.106286188165182,0.0,3.891704797744751,-1.7249937057495117,-0.0,1.7520252466201782,5.640320646553793,0.0,0.23565252125263214,-1.7079713980304163,0.0,0.004262946080416441,0.4290383756160736,0.0,0.01335965283215046,1.1101683378219604,0.0,0.0014306989032775164
386.0,548.0,-3.6963,0.5922,9.0461,-0.0339,0.0195,-0.1032,-2.1063066921629847,0.0,3.8858823776245117,-1.7249855995178223,-0.0,1.6971795558929443,5.640284526139059,0.0,0.2388153374195099,-1.7080000082599085,0.0,0.0009467490017414093,0.42899367213249207,0.0,0.007833287119865417,1.110090970993042,0.0,-0.015090007334947586
386.0,548.0,-3.6963,0.5922,9.0461,-0.0339,0.0195,-0.1032,-2.1063066921629847,0.0,3.9283697605133057,-1.7250020503997803,-0.0,1.7289761304855347,5.640320288925924,0.0,0.2382333129644394,-1.7080157438861292,0.0,-0.006537321954965591,0.4290223717689514,0.0,0.000665570143610239,1.1101114749908447,0.0,0.05881878733634949
386.0,548.0,-3.6963,0.5922,9.0461,-0.0339,0.0195,-0.1032,-2.1063224277892054,0.0,3.8810713291168213,-1.7250226736068726,-0.0,1.7045787572860718,5.640324342041769,0.0,0.23563162982463837,-1.7079837957965296,0.0,-0.01037540752440691,0.428998202085495,0.0,-0.0077300844714045525,1.1101478338241577,0.0,0.02540283091366291
386.0,548.0,-3.6963,0.5922,9.0461,-0.0339,0.0195,-0.1032,-2.1063105068602503,0.0,3.917595386505127,-1.7249855995178223,-0.0,1.7033381462097168,5.640308367996969,0.0,0.25093990564346313,-1.7079837957965296,0.0,-0.005625750869512558,0.4290142357349396,0.0,-0.001175656565465033,1.1101559400558472,0.0,0.020959826186299324
386.0,548.0,-3.6963,0.5922,9.0461,-0.0339,0.0195,-0.1032,-2.106302400628561,0.0,3.9159607887268066,-1.7249586582183838,-0.0,1.6999150514602661,5.640332507878103,0.0,0.23659713566303253,-1.7079837957965296,0.0,0.0032746102660894394,0.42898625135421753,0.0,0.014305684715509415,1.110143780708313,0.0,0.0218515582382679
386.0,548.0,-3.6963,0.5922,9.0461,-0.0339,0.0195,-0.1032,-2.1063066921629847,0.0,3.8873462677001953,-1.7249627113342285,-0.0,1.729856014251709,5.6403366205985925,0.0,0.24738933145999908,-1.7079713980304163,0.0,0.004845716059207916,0.42896580696105957,0.0,7.166527211666107e-06,1.1101197004318237,0.0,-0.0075699565932154655
386.0,548.0,-3.6963,0.5922,9.0461,-0.0339,0.0195,-0.1032,-2.1062900028624476,0.0,3.89566707611084,-1.7249815464019775,-0.0,1.7063226699829102,5.640268552094259,0.0,0.24351796507835388,-1.7079795042621058,0.0,-0.006483024917542934,0.4290744364261627,0.0,-0.000953437527641654,1.110171914100647,0.0,0.0349588617682457
386.0,548.0,-3.6963,0.5922,9.0461,-0.0339,0.0195,-0.1032,-2.106274267236227,0.0,3.8909809589385986,-1.7249141931533813,-0.0,1.7345505952835083,5.640308367996969,0.0,0.24307924509048462,-1.7079957167254847,0.0,-0.0022611229214817286,0.4289575517177582,0.0,-0.009756346233189106,1.110099196434021,0.0,0.0018884958699345589
386.0,548.0,-3.6963,0.5922,9.0461,-0.0339,0.0195,-0.1032,-2.106258531610006,0.0,3.882701873779297,-1.7249702215194702,-0.0,1.6745625734329224,5.640344607620992,0.0,0.2359367161989212,-1.7079957167254847,0.0,0.015234693884849548,0.4290022850036621,0.0,0.00785127654671669,1.1101396083831787,0.0,0.03302570804953575
386.0,548.0,-3.6963,0.5922,9.0461,-0.0339,0.0195,-0.1032,-2.1062499485411585,0.0,3.947906017303467,-1.7249505519866943,-0.0,1.7241408824920654,5.640344488411703,0.0,0.25034385919570923,-1.7079718748675745,0.0,0.005536144599318504,0.4290265142917633,0.0,0.0009117280133068562,1.1101356744766235,0.0,0.0031891409307718277
386.0,548.0,-3.6963,0.5922,9.0461,-0.0339,0.0195,-0.1032,-2.1063066921629847,0.0,3.9250338077545166,-1.7249586582183838,-0.0,1.7347874641418457,5.640348541527548,0.0,0.23237058520317078,-1.7079795042621058,0.0,-0.0016274035442620516,0.428953617811203,0.0,0.003926734905689955,1.1101313829421997,0.0,-0.012823928147554398
386.0,548.0,-3.6963,0.5922,9.0461,-0.0339,0.0195,-0.1032,-2.1062737903990687,0.0,3.892230987548828,-1.7249586582183838,-0.0,1.7346229553222656,5.640316235810079,0.0,0.2368144392967224,-1.7079837957965296,0.0,0.003939403221011162,0.4290182888507843,0.0,0.006119191646575928,1.1101315021514893,0.0,0.02187885344028473
386.0,548.0,-3.6963,0.5922,9.0461,-0.0339,0.0195,-0.1032,-2.106258531610006,0.0,3.878174304962158,-1.7249741554260254,-0.0,1.7008918523788452,5.640344428807058,0.0,0.23882855474948883,-1.7080357710467737,0.0,0.01087339036166668,0.4290063679218292,0.0,0.005846087820827961,1.1101354360580444,0.0,-0.01627150923013687
386.0,548.0,-3.6963,0.5922,9.0461,-0.0339,0.0195,-0.1032,-2.1062704525389613,0.0,3.9084389209747314,-1.7249668836593628,-0.0,1.7130208015441895,5.64028828123168,0.0,0.23832553625106812,-1.7080157438861292,0.0,0.008451299741864204,0.4290302097797394,0.0,0.007584774401038885,1.1101354360580444,0.0,-0.011621416546404362
365.0,564.0,-3.6814,0.5821,8.9198,-0.0431,0.0334,-0.1193,-2.1062542400755824,0.0,3.90631103515625,-1.7249256372451782,-0.0,1.693532943725586,5.640300500183859,0.0,0.22207731008529663,-1.7079756895648401,0.0,0.002113283844664693,0.4290183186531067,0.0,-0.005290951579809189,1.1101274490356445,0.0,-0.0010165190324187279
365.0,564.0,-3.6814,0.5821,8.9198,-0.0431,0.0334,-0.1193,-2.106274267236227,0.0,3.91404390335083,-1.7249823808670044,-0.0,1.6503546237945557,5.640348481922903,0.0,0.2343771755695343,-1.7080038229571741,0.0,0.016036521643400192,0.4290022850036621,0.0,-0.0008118361001834273,1.1101274490356445,0.0,0.010733732022345066
365.0,564.0,-3.6814,0.5821,8.9198,-0.0431,0.0334,-0.1193,-2.1062704525389613,0.0,3.887409210205078,-1.7250020503997803,-0.0,1.690974473953247,5.640291917115011,0.0,0.22298389673233032,-1.7079880873309534,0.0,0.005252351053059101,0.42902615666389465,0.0,0.001802454818971455,1.1101396083831787,0.0,-0.0035541628021746874
365.0,564.0,-3.6814,0.5821,8.9198,-0.0431,0.0334,-0.1193,-2.1062823734679164,0.0,3.918893814086914,-1.724957823753357,-0.0,1.6649937629699707,5.640316235810079,0.0,0.25507405400276184,-1.7080438772784632,0.0,0.00430236617103219,0.42908307909965515,0.0,-0.004207179415971041,1.110152006149292,0.0,0.009840089827775955
365.0,564.0,-3.6814,0.5821,8.9198,-0.0431,0.0334,-0.1193,-2.106314321557516,0.0,3.886697769165039,-1.7249668836593628,-0.0,1.7000150680541992,5.64027230718688,0.0,0.23373085260391235,-1.7079513708697718,0.0,-0.00021715444745495915,0.428989976644516,0.0,0.007596770767122507,1.1101274490356445,0.0,-0.007942242547869682
365.0,564.0,-3.6814,0.5821,8.9198,-0.0431,0.0334,-0.1193,-2.106302400628561,0.0,3.9130876064300537,-1.7249668836593628,-0.0,1.7084275484085083,5.640324342041769,0.0,0.23504877090454102,-1.707963768635885,0.0,0.0023964226711541414,0.4289821982383728,0.0,0.015638362616300583,1.110119104385376,0.0,0.016169074922800064
365.0,564.0,-3.6814,0.5821,8.9198,-0.0431,0.0334,-0.1193,-2.1062942943968714,0.0,3.8825747966766357,-1.7249815464019775,-0.0,1.7012345790863037,5.640304314881124,0.0,0.23617048561573029,-1.7080038229571741,0.0,0.010516755282878876,0.4289780855178833,0.0,0.00025475904112681746,1.1101315021514893,0.0,-0.012224627658724785
365.0,564.0,-3.6814,0.5821,8.9198,-0.0431,0.0334,-0.1193,-2.106262346307272,0.0,3.9168643951416016,-1.7250101566314697,-0.0,1.696967363357544,5.64027630069808,0.0,0.23118673264980316,-1.7080476919757288,0.0,0.0016897947061806917,0.4290223717689514,0.0,0.01099422574043274,1.1101396083831787,0.0,0.04494533687829971
365.0,564.0,-3.6814,0.5821,8.9198,-0.0431,0.0334,-0.1193,-2.1063105068602503,0.0,3.9065470695495605,-1.7249782085418701,-0.0,1.707268476486206,5.640304314881124,0.0,0.24422451853752136,-1.7079675833331507,0.0,0.0049610319547355175,0.42898625135421753,0.0,0.01877133920788765,1.1101396083831787,0.0,0.030008481815457344
365.0,564.0,-3.6814,0.5821,8.9198,-0.0431,0.0334,-0.1193,-2.106229444543356,0.0,3.890070915222168,-1.7249256372451782,-0.0,1.744349718093872,5.640328454762258,0.0,0.22834980487823486,-1.7079346815692347,0.0,-0.012880964204668999,0.428998202085495,0.0,0.00566009059548378,1.1101274490356445,0.0,-0.03827250748872757
365.0,564.0,-3.6814,0.5821,8.9198,-0.0431,0.0334,-0.1193,-2.1062828503050746,0.0,3.937699794769287,-1.724929690361023,-0.0,1.7140462398529053,5.640300202160635,0.0,0.22337567806243896,-1.7080276648150843,0.0,0.012939135544002056,0.4289618730545044,0.0,0.0033945736940950155,1.110143780708313,0.0,-0.03279053419828415
365.0,564.0,-3.6814,0.5821,8.9198,-0.0431,0.0334,-0.1193,-2.1062704525389613,0.0,3.9339075088500977,-1.7249420881271362,-0.0,1.711607813835144,5.640320586949148,0.0,0.23689639568328857,-1.7079837957965296,0.0,-0.0009719477966427803,0.42900189757347107,0.0,0.009045880287885666,1.1101232767105103,0.0,0.02554995007812977
365.0,564.0,-3.6814,0.5821,8.9198,-0.0431,0.0334,-0.1193,-2.1062828503050746,0.0,3.9429330825805664,-1.724989652633667,-0.0,1.7027078866958618,5.640284228115835,0.0,0.24074998497962952,-1.7079795042621058,0.0,0.014993309043347836,0.429098904132843,0.0,0.013973888009786606,1.1101354360580444,0.0,0.021576737985014915
365.0,564.0,-3.6814,0.5821,8.9198,-0.0431,0.0334,-0.1193,-2.106286188165182,0.0,3.868579864501953,-1.7249782085418701,-0.0,1.7216603755950928,5.640328454762258,0.0,0.23327818512916565,-1.7080000082599085,0.0,0.005616697948426008,0.4290265142917633,0.0,-0.0015171862905845046,1.1101396083831787,0.0,0.026711007580161095
365.0,564.0,-3.6814,0.5821,8.9198,-0.0431,0.0334,-0.1193,-2.1062947712340296,0.0,3.891420841217041,-1.725006103515625,-0.0,1.7056152820587158,5.64026032665328,0.0,0.25443413853645325,-1.7080038229571741,0.0,0.01641121134161949,0.4289376139640808,0.0,-0.0004059211350977421,1.1101031303405762,0.0,-0.004586987197399139
365.0,564.0,-3.6814,0.5821,8.9198,-0.0431,0.0334,-0.1193,-2.106274267236227,0.0,3.8987507820129395,-1.72495436668396,-0.0,1.6918799877166748,5.640316176205435,0.0,0.23330968618392944,-1.707963768635885,0.0,0.01251450926065445,0.42901378870010376,0.0,-0.007609598804265261,1.1101315021514893,0.0,0.013087642379105091
365.0,564.0,-3.6814,0.5821,8.9198,-0.0431,0.0334,-0.1193,-2.106290479699606,0.0,3.9009413719177246,-1.7249256372451782,-0.0,1.711998701095581,5.640328454762258,0.0,0.24034784734249115,-1.7079837957965296,0.0,0.002463011536747217,0.4290342926979065,0.0,-0.000984999816864729,1.1101114749908447,0.0,-0.004353201016783714
379.0,553.0,-3.7047,0.5677,9.1711,-0.0327,0.0261,-0.1129,-2.106290479699606,0.0,3.9038047790527344,-1.7249618768692017,-0.0,1.7117679119110107,5.640320288925924,0.0,0.24350839853286743,-1.7079957167254847,0.0,0.0023547327145934105,0.42901790142059326,0.0,-0.0037002614699304104,1.1101396083831787,0.0,-0.008334153331816196
379.0,553.0,-3.7047,0.5677,9.1711,-0.0327,0.0261,-0.1129,-2.1063224277892054,0.0,3.924027442932129,-1.7249506711959839,-0.0,1.7371022701263428,5.640296387463369,0.0,0.2356840968132019,-1.7079876104937952,0.0,0.01667298562824726,0.42898625135421753,0.0,-0.005513027310371399,1.1101232767105103,0.0,0.008410744369029999
379.0,553.0,-3.7047,0.5677,9.1711,-0.0327,0.0261,-0.1129,-2.1062661610045375,0.0,3.9212734699249268,-1.7249586582183838,-0.0,1.6991307735443115,5.640332567482748,0.0,0.2287852168083191,-1.7079718748675745,0.0,0.009084748104214668,0.42901790142059326,0.0,0.005136002320796251,1.1101232767105103,0.0,-0.017167953774333
379.0,553.0,-3.7047,0.5677,9.1711,-0.0327,0.0261,-0.1129,-2.106274267236227,0.0,3.912998676300049,-1.7249460220336914,-0.0,1.671241283416748,5.640320288925924,0.0,0.2248302698135376,-1.7080157438861292,0.0,0.0045311106368899345,0.42900630831718445,0.0,-0.0004988317377865314,1.1101232767105103,0.0,0.010146046057343483
379.0,553.0,-3.7047,0.5677,9.1711,-0.0327,0.0261,-0.1129,-2.1063510380186976,0.0,3.8667988777160645,-1.7249586582183838,-0.0,1.6981489658355713,5.6402883408363245,0.0,0.2229331135749817,-1.7079837957965296,0.0,0.004832804203033447,0.42901456356048584,0.0,0.013056820258498192,1.1101396083831787,0.0,0.0324813574552536
379.0,553.0,-3.7047,0.5677,9.1711,-0.0327,0.0261,-0.1129,-2.106298109094137,0.0,3.9055585861206055,-1.7249741554260254,-0.0,1.6959502696990967,5.640316533833303,0.0,0.23139189183712006,-1.7079594771014612,0.0,-0.0016685780137777328,0.42905476689338684,0.0,-0.005050657317042351,1.1101073026657104,0.0,-0.036326538771390915
379.0,553.0,-3.7047,0.5677,9.1711,-0.0327,0.0261,-0.1129,-2.106286188165182,0.0,3.9168736934661865,-1.7249741554260254,-0.0,1.6774961948394775,5.640276360302725,0.0,0.2356620728969574,-1.7079880873309534,0.0,0.00538460910320282,0.4290101230144501,0.0,0.007397925015538931,1.1100867986679077,0.0,-0.0447501614689827
379.0,553.0,-3.7047,0.5677,9.1711,-0.0327,0.0261,-0.1129,-2.1062504253783167,0.0,3.929035186767578,-1.7249295711517334,-0.0,1.679758071899414,5.640256273537435,0.0,0.2327955663204193,-1.7079675833331507,0.0,0.005086259916424751,0.4290101230144501,0.0,-0.0070744170807302,1.1101155281066895,0.0,0.007584283594042063
379.0,553.0,-3.7047,0.5677,9.1711,-0.0327,0.0261,-0.1129,-2.106298109094137,0.0,3.9179694652557373,-1.7249855995178223,-0.0,1.7159326076507568,5.640353011875906,0.0,0.2401292771100998,-1.7079795042621058,0.0,0.019848676398396492,0.4289941191673279,0.0,-0.0106485141441226,1.1101315021514893,0.0,0.016305726021528244
379.0,553.0,-3.7047,0.5677,9.1711,-0.0327,0.0261,-0.1129,-2.1062542400755824,0.0,3.940249443054199,-1.7249618768692017,-0.0,1.6990900039672852,5.64036105850295,0.0,0.22722187638282776,-1.7079795042621058,0.0,-0.0039342306554317474,0.4290063679218292,0.0,-0.01728224568068981,1.1101274490356445,0.0,-0.06409712135791779
379.0,553.0,-3.7047,0.5677,9.1711,-0.0327,0.0261,-0.1129,-2.106262346307272,0.0,3.8944365978240967,-1.7249542474746704,-0.0,1.6963553428649902,5.640280413418569,0.0,0.22992904484272003,-1.707939926777975,0.0,0.012606768868863583,0.4289941191673279,0.0,-0.00538663798943162,1.1101354360580444,0.0,0.010052288882434368
379.0,553.0,-3.7047,0.5677,9.1711,-0.0327,0.0261,-0.1129,-2.106262346307272,0.0,3.903627395629883,-1.724929690361023,-0.0,1.6718617677688599,5.640304314881124,0.0,0.23412084579467773,-1.7080076376544397,0.0,0.011432439088821411,0.42903420329093933,0.0,0.015284880995750427,1.1101030111312866,0.0,-0.021443668752908707
379.0,553.0,-3.7047,0.5677,9.1711,-0.0327,0.0261,-0.1129,-2.106290479699606,0.0,3.929988384246826,-1.724989652633667,-0.0,1.7169114351272583,5.640284526139059,0.0,0.23909860849380493,-1.707947079335348,0.0,0.00980384275317192,0.4290101230144501,0.0,0.010320119559764862,1.110119104385376,0.0,0.01211988739669323
379.0,553.0,-3.7047,0.5677,9.1711,-0.0327,0.0261,-0.1129,-2.106290479699606,0.0,3.91790509223938,-1.7249586582183838,-0.0,1.7153942584991455,5.640292393952169,0.0,0.2372947484254837,-1.7080076376544397,0.0,0.006046019494533539,0.4290383458137512,0.0,0.0040332600474357605,1.1101155281066895,0.0,-0.04389658570289612
379.0,553.0,-3.7047,0.5677,9.1711,-0.0327,0.0261,-0.1129,-2.1063105068602503,0.0,3.8725697994232178,-1.7249627113342285,-0.0,1.7063398361206055,5.640280413418569,0.0,0.2274247705936432,-1.7080000082599085,0.0,0.008221402764320374,0.42906659841537476,0.0,0.0029629208147525787,1.1101601123809814,0.0,-0.03488386422395706
379.0,553.0,-3.7047,0.5677,9.1711,-0.0327,0.0261,-0.1129,-2.1062947712340296,0.0,3.9124226570129395,-1.7249585390090942,6.129376867169967e-11,1.6580252647399902,5.640292393952169,0.0,0.2327020764350891,-1.7080038229571741,0.0,-0.002087627537548542,0.4290142059326172,0.0,0.001367534976452589,1.1101354360580444,0.0,-0.009758460335433483
372.0,574.0,-3.7262,0.6873,9.0658,-0.0266,0.0298,-0.113,-2.106302400628561,0.0,3.9141979217529297,-1.7249627113342285,1.1032660889194728e-14,1.7586665153503418,5.640275883465566,0.0,0.22827211022377014,-1.7079718748675745,0.0,-0.004507619887590408,0.4290142059326172,0.0,-0.00017674406990408897,1.1101354360580444,0.0,0.0020809003617614508
372.0,574.0,-3.7262,0.6873,9.0658,-0.0266,0.0298,-0.113,-2.1062704525389613,0.0,3.8859496116638184,-1.7249627113342285,2.664257795477664e-20,1.6915132999420166,5.640324401646414,0.0,0.23539549112319946,-1.7079675833331507,0.0,0.007121386472135782,0.4290342926979065,0.0,0.003721876535564661,1.1101197004318237,0.0,-0.0030302603263407946
372.0,574.0,-3.7262,0.6873,9.0658,-0.0266,0.0298,-0.113,-2.1062985859312953,0.0,3.914543867111206,-1.7249020338058472,6.433868191701721e-26,1.692696213722229,5.64027230718688,0.0,0.2278069257736206,-1.7079795042621058,0.0,-0.002234202576801181,0.4290584921836853,0.0,-0.0035464493557810783,1.110143780708313,0.0,0.030271174386143684
372.0,574.0,-3.7262,0.6873,9.0658,-0.0266,0.0298,-0.113,-2.1063105068602503,0.0,3.8656070232391357,-1.7249627113342285,0.00035494976327754557,1.7186763286590576,5.6403366205985925,0.0,0.23022355139255524,-1.7079957167254847,0.0,0.015066706575453281,0.42899036407470703,0.0,0.006484037730842829,1.1101878881454468,0.0,-0.008752536959946156
372.0,574.0,-3.7262,0.6873,9.0658,-0.0266,0.0298,-0.113,-2.106290479699606,0.0,3.912209987640381,-1.7249586582183838,0.00034487457014620304,1.7187788486480713,5.640320288925924,0.0,0.23206323385238647,-1.7079713980304163,0.0,-0.003739941632375121,0.4290145933628082,0.0,-0.0032678423449397087,1.1101232767105103,0.0,-0.015174518339335918
372.0,574.0,-3.7262,0.6873,9.0658,-0.0266,0.0298,-0.113,-2.1062985859312953,0.0,3.890608310699463,-1.724946141242981,0.00033765105763450265,1.7256845235824585,5.640344428807058,0.0,0.23294740915298462,-1.7079594771014612,0.0,-0.0023371169809252024,0.4290182888507843,0.0,0.001135681290179491,1.1101601123809814,0.0,0.0009052391978912055
372.0,574.0,-3.7262,0.6873,9.0658,-0.0266,0.0298,-0.113,-2.106286188165182,0.0,3.908571243286133,-1.7249338626861572,0.00030495933606289327,1.669166922569275,5.64025633314208,0.0,0.2336273491382599,-1.7079880873309534,0.0,-0.004331859759986401,0.4290142059326172,0.0,-0.008382996544241905,1.110143780708313,0.0,0.010900270193815231
372.0,574.0,-3.7262,0.6873,9.0658,-0.0266,0.0298,-0.113,-2.106286188165182,0.0,3.929218292236328,-1.72495436668396,0.00030379489180631936,1.6777833700180054,5.640296447068014,0.0,0.2357107698917389,-1.7079795042621058,0.0,-0.005109027028083801,0.4289945363998413,0.0,0.017152760177850723,1.1101232767105103,0.0,-0.009941120631992817
372.0,574.0,-3.7262,0.6873,9.0658,-0.0266,0.0298,-0.113,-2.106302877465719,0.0,3.947549819946289,-1.724937915802002,0.000345608830684796,1.6965845823287964,5.640312421112814,0.0,0.22822774946689606,-1.7079594771014612,0.0,0.007489165291190147,0.4290223717689514,0.0,0.008410133421421051,1.1101073026657104,0.0,-0.03252609446644783
372.0,574.0,-3.7262,0.6873,9.0658,-0.0266,0.0298,-0.113,-2.1063224277892054,0.0,3.9153854846954346,-1.7249823808670044,0.00030827237060293555,1.7394230365753174,5.64028828123168,0.0,0.22853901982307434,-1.7080038229571741,0.0,0.01593697816133499,0.4290105104446411,0.0,0.009757736697793007,1.1101641654968262,0.0,0.005319371819496155
372.0,574.0,-3.7262,0.6873,9.0658,-0.0266,0.0298,-0.113,-2.106258531610006,0.0,3.927293300628662,-1.724937915802002,0.0002193270920543,1.6960844993591309,5.640284526139059,0.0,0.22614917159080505,-1.7079914251910608,0.0,0.0015859848354011774,0.4290182888507843,0.0,-0.00020422710804268718,1.1101601123809814,0.0,-0.0002506794407963753
372.0,574.0,-3.7262,0.6873,9.0658,-0.0266,0.0298,-0.113,-2.106314798394674,0.0,3.934375524520874,-1.7249668836593628,0.00022959451598580927,1.7513715028762817,5.640332209854879,0.0,0.23292315006256104,-1.7080400625811976,0.0,0.0005311353597790003,0.4290142059326172,0.0,-0.0055837370455265045,1.110171914100647,0.0,-0.00651844497770071
372.0,574.0,-3.7262,0.6873,9.0658,-0.0266,0.0298,-0.113,-2.1062942943968714,0.0,3.952193260192871,-1.72495436668396,0.00020363819203339517,1.7056653499603271,5.640352952271261,1.945123528912518e-08,0.25119760632514954,-1.7080195585833948,0.0,0.0013027507811784744,0.4290182888507843,0.0,0.008859760127961636,1.110119104385376,0.0,0.01038864254951477
372.0,574.0,-3.7262,0.6873,9.0658,-0.0266,0.0298,-0.113,-2.1062823734679164,0.0,3.902132272720337,-1.724918246269226,0.00018935586558654904,1.6819584369659424,5.640360581665792,8.292368181006537e-11,0.22380682826042175,-1.7080238501178187,5.392139996729384e-07,0.011440938338637352,0.4290301501750946,0.0,-0.004712048918008804,1.1101354360580444,0.0,-0.015570173971354961
372.0,574.0,-3.7262,0.6873,9.0658,-0.0266,0.0298,-0.113,-2.1063224277892054,0.0,3.9122328758239746,-1.7249503135681152,0.00011537596583366394,1.7354744672775269,5.640323865204611,2.308211537486657e-14,0.23875243961811066,-1.7080352942096155,1.5009221643325077e-10,0.01054640393704176,0.4290302097797394,0.0,0.014719826169312,1.1101677417755127,0.0,0.016088107600808144
372.0,574.0,-3.7262,0.6873,9.0658,-0.0266,0.0298,-0.113,-2.106274267236227,0.0,3.8894200325012207,-1.7249937057495117,0.00010429370740894228,1.7397128343582153,5.640324342041769,6.424991404746409e-18,0.23727531731128693,-1.7080357710467737,4.1778724441587575e-14,0.002373763360083103,0.4290142357349396,0.0,-0.005833860952407122,1.1101760864257812,0.0,0.009131466038525105
372.0,574.0,-3.7262,0.6873,9.0658,-0.0266,0.0298,-0.113,-2.1062947712340296,0.0,3.9031524658203125,-1.724929690361023,7.310896762646735e-05,1.712285041809082,5.640352952271261,2.739074504737238e-20,0.23964621126651764,-1.70805532137026,1.7810927064874677e-16,-0.014568532817065716,0.4290502071380615,0.0,0.011799204163253307,1.1101512908935547,0.0008645792258903384,0.005421533714979887
392.0,545.0,-3.5623,0.6227,8.945,-0.0437,0.0339,-0.1225,-2.1062542400755824,0.0,3.8857672214508057,-1.724937915802002,0.00013707067409995943,1.701343059539795,5.640323865204611,7.624314616551207e-24,0.24589356780052185,-1.7080672422992151,4.957736405022408e-20,0.01069128978997469,0.4290101230144501,0.0,-0.003819767152890563,1.1101710796356201,0.002686379011720419,0.03262981027364731
392.0,545.0,-3.5623,0.6227,8.945,-0.0437,0.0339,-0.1225,-2.106290479699606,0.0,3.939195156097412,-1.7249584197998047,0.0006138357566669583,1.713821291923523,5.64028828123168,2.1222559688371652e-27,0.2569986581802368,-1.7080190817462366,1.380004237512326e-23,0.004542594775557518,0.428998202085495,0.0,0.0036129318177700043,1.1102399826049805,0.002813252853229642,0.012830427847802639
392.0,545.0,-3.5623,0.6227,8.945,-0.0437,0.0339,-0.1225,-2.10628666500234,0.0,3.9197330474853516,-1.7249141931533813,0.0004821917973458767,1.7213072776794434,5.64036105850295,9.047508808222525e-30,0.23262262344360352,-1.7080352942096155,5.88317487082583e-26,-0.002055094111710787,0.4289858937263489,0.0,0.01020384393632412,1.1102194786071777,0.0021644628141075373,-0.005815098062157631
392.0,545.0,-3.5623,0.6227,8.945,-0.0437,0.0339,-0.1225,-2.106290479699606,0.0,3.9198360443115234,-1.7249584197998047,0.0004347603244241327,1.6950030326843262,5.640344428807058,2.51840774987647e-33,0.24189689755439758,-1.7080238501178187,1.637603335848053e-29,0.003532154718413949,0.4290425181388855,0.0,0.0011612020898610353,1.1102312803268433,0.0012288009747862816,0.01291149016469717
392.0,545.0,-3.5623,0.6227,8.945,-0.0437,0.0339,-0.1225,-2.106314798394674,0.0,3.9207305908203125,-1.7249224185943604,0.00046868357458151877,1.6920040845870972,5.640296447068014,7.010081439354791e-37,0.22909808158874512,-1.7080596129046839,4.5583290548827894e-33,0.002305086934939027,0.42899036407470703,0.0,0.009989996440708637,1.1102075576782227,0.000265074020717293,0.04759535193443298
392.0,545.0,-3.5623,0.6227,8.945,-0.0437,0.0339,-0.1225,-2.106290479699606,0.0,3.914100170135498,-1.7248945236206055,0.00039309871499426663,1.7359789609909058,5.640295970230856,1.9512800856030213e-40,0.23805278539657593,-1.7080071608172815,1.2688278238282542e-36,0.007106902077794075,0.4289900064468384,0.0,0.006161012686789036,1.110231637954712,1.0582520189927891e-05,-0.01292375661432743
392.0,545.0,-3.5623,0.6227,8.945,-0.0437,0.0339,-0.1225,-2.1063105068602503,0.0,3.895066022872925,-1.7249224185943604,0.0003431599179748446,1.712653636932373,5.640320288925924,8.323712878089413e-43,0.24850013852119446,-1.708003346120016,5.4092124579741923e-39,0.011801544576883316,0.4289899170398712,0.0,0.008651197887957096,1.110155463218689,1.904816304687529e-09,0.006110537797212601
392.0,545.0,-3.5623,0.6227,8.945,-0.0437,0.0339,-0.1225,-2.1063224277892054,0.0,3.9019980430603027,-1.7249420881271362,0.00028820731677114964,1.7155890464782715,5.6402562139327905,5.221612082095817e-05,0.24377264082431793,-1.70805532137026,1.5049945506848535e-42,-0.011044725775718689,0.4290059208869934,0.0,0.005006239749491215,1.1101875305175781,4.599906864238097e-15,0.02727833390235901
392.0,545.0,-3.5623,0.6227,8.945,-0.0437,0.0339,-0.1225,-2.106302400628561,-4.760622118737956e-09,3.8816137313842773,-1.7249668836593628,0.00020702251640614122,1.7114155292510986,5.640276360302725,4.9573794967727736e-05,0.24607649445533752,-1.708015267048971,0.0,0.015801407396793365,0.42903825640678406,0.0,-0.0025093136355280876,1.1102075576782227,1.1108235103162318e-20,-0.0514853298664093
392.0,545.0,-3.5623,0.6227,8.945,-0.0437,0.0339,-0.1225,-2.1063348255553187,-8.568951212657716e-13,3.8994288444519043,-1.724946141242981,0.00018957814609166235,1.731346607208252,5.640332567482748,2.4294506147271022e-05,0.23686757683753967,-1.7080190817462366,0.0,0.0005497875972650945,0.42904648184776306,0.0,0.012851987965404987,1.1102116107940674,1.999443300499103e-24,0.01416779588907957
392.0,545.0,-3.5623,0.6227,8.945,-0.0437,0.0339,-0.1225,-2.106314321557516,-2.0693008697567963e-18,3.9364755153656006,-1.7249782085418701,0.00013464536459650844,1.66046142578125,5.640304314881124,2.178702925448306e-05,0.24615487456321716,-1.7080596129046839,-3.094136991421692e-05,0.008425917476415634,0.4290059804916382,0.0,0.0012534370180219412,1.110251784324646,4.828420346511056e-30,-0.036747366189956665
392.0,545.0,-3.5623,0.6227,8.945,-0.0437,0.0339,-0.1225,-2.106298109094137,-4.997117895782569e-24,3.897704601287842,-1.7249503135681152,0.00012138214515289292,1.7378413677215576,5.640328454762258,2.031165968219284e-05,0.23635604977607727,-1.7080190817462366,-2.802044946292881e-05,0.017139583826065063,0.42900189757347107,0.0,0.003940149210393429,1.110195279121399,1.1660066678719464e-35,-0.04174896329641342
392.0,545.0,-3.5623,0.6227,8.945,-0.0437,0.0339,-0.1225,-2.106302400628561,-8.994635952532709e-28,3.9450085163116455,-1.7249420881271362,4.333163451519795e-05,1.6727170944213867,5.640320288925924,1.943441566254478e-05,0.23326519131660461,-1.7080195585833948,-2.6377800168120302e-05,0.003480279818177223,0.42896172404289246,0.0,-0.00226233690045774,1.1102595329284668,2.0987709528686012e-39,0.022181905806064606
392.0,545.0,-3.5623,0.6227,8.945,-0.0437,0.0339,-0.1225,-2.1063066921629847,-2.1720986652585776e-33,3.909924030303955,-1.7249183654785156,0.00011337437899783254,1.7090814113616943,5.640332209854879,3.58859178959392e-05,0.24020916223526,-1.7080391089068812,-2.4245779059128836e-05,0.011897255666553974,0.428989976644516,0.0,0.010330814868211746,1.1102476119995117,0.00022490473929792643,0.02414458617568016
392.0,545.0,-3.5623,0.6227,8.945,-0.0437,0.0339,-0.1225,-2.106302400628561,-5.2453628324360845e-39,3.909184455871582,-1.7249069213867188,0.0008561486029066145,1.7249696254730225,5.640316235810079,3.4410200896672904e-05,0.236144557595253,-1.7080791632281702,-2.2432644982472993e-05,0.006489626131951809,0.4289862811565399,0.0,0.01041025947779417,1.110203504562378,0.0001556473143864423,-9.985174983739853e-05
392.0,545.0,-3.5623,0.6227,8.945,-0.0437,0.0339,-0.1225,-2.1062780819334925,-9.444751649549267e-43,3.9280648231506348,-1.724934697151184,0.002831391291692853,1.6935203075408936,5.640332567482748,4.754442488774657e-05,0.23354743421077728,-1.7080352942096155,-2.1367412045947276e-05,0.004525701515376568,0.42905429005622864,0.0,0.0033782492391765118,1.1101350784301758,0.00013269226474221796,-0.004165438003838062
392.0,545.0,-3.5623,0.6227,8.945,-0.0437,0.0339,-0.1225,-2.1062823734679164,0.0,3.898878574371338,-1.7248334884643555,0.006339709274470806,1.7100720405578613,5.640336262970724,4.711174187832512e-05,0.23482456803321838,-1.7080391089068812,-1.9946670363424346e-05,0.012964985333383083,0.4290142059326172,0.0,0.009662916883826256,1.1102075576782227,0.00010865720105357468,-0.0030487780459225178
370.0,547.0,-4.0229,1.4022,9.1992,-0.0026,0.0469,-0.1268,-2.106290479699606,0.0,3.886493444442749,-1.724806308746338,0.008819010108709335,1.6835156679153442,5.6403729794319055,4.476881804293953e-05,0.23535573482513428,-1.7080190817462366,-1.8703072782955132e-05,0.000469727732706815,0.428998202085495,0.0,0.008520780131220818,1.1102476119995117,0.00018210185226053,0.03754621744155884
370.0,547.0,-4.0229,1.4022,9.1992,-0.0026,0.0469,-0.1268,-2.106370588342184,-0.00020700601453427225,3.8639075756073,-1.7247554063796997,0.01178678683936596,1.715998888015747,5.640296447068014,-1.946912561834324e-05,0.2227872759103775,-1.7080634276019495,-7.811082980424544e-08,0.005897754803299904,0.4289858341217041,0.0,0.008236621506512165,1.110219120979309,0.00022616265050601214,-0.02235037460923195
370.0,547.0,-4.0229,1.4022,9.1992,-0.0026,0.0469,-0.1268,-2.106386800805563,-0.0023522344417870045,3.8761215209960938,-1.7246829271316528,0.014211335219442844,1.740716814994812,5.640304314881124,-2.7091140509583056e-05,0.23849570751190186,-1.708071533833639,-3.3299865642710813e-10,0.0056210909970104694,0.42902231216430664,0.0,0.0024118220899254084,1.1102595329284668,0.0011652747634798288,0.03264879062771797
370.0,547.0,-4.0229,1.4022,9.1992,-0.0026,0.0469,-0.1268,-2.1064311466612757,-0.0038271592929959297,3.897491455078125,-1.7245597839355469,0.018319910392165184,1.7001371383666992,5.640231835633077,-4.974699186277576e-05,0.22967731952667236,-1.708071533833639,-9.269139140044222e-14,-0.00030201487243175507,0.4289862811565399,0.0,-0.001367479912005365,1.1103118658065796,0.002019831445068121,-0.01735805720090866
370.0,547.0,-4.0229,1.4022,9.1992,-0.0026,0.0469,-0.1268,-2.1064588032164515,-0.004420443903654814,3.8985323905944824,-1.7244065999984741,0.020041225478053093,1.7280257940292358,5.6402644393737695,-0.00029600877314805984,0.2331913411617279,-1.7080195585833948,-2.5800989187196737e-17,0.009239811450242996,0.42896997928619385,0.0,-0.002061001490801573,1.1102992296218872,0.0026375907473266125,-0.03954726830124855
370.0,547.0,-4.0229,1.4022,9.1992,-0.0026,0.0469,-0.1268,-2.1064425907530726,-0.004184942226856947,3.8663063049316406,-1.7243762016296387,0.02230040356516838,1.7589529752731323,5.640244114189901,-0.0005780240753665566,0.2347242683172226,-1.7080233732806605,-1.0999365694529408e-19,0.009585992433130741,0.4290022850036621,0.0,0.0004867184907197952,1.1103357076644897,0.0029586004093289375,0.02323886938393116
370.0,547.0,-4.0229,1.4022,9.1992,-0.0026,0.0469,-0.1268,-2.1064421139159144,-0.0017490561585873365,3.9155263900756836,-1.724168062210083,0.02484750747680664,1.7325925827026367,5.640284526139059,-0.001039989059790969,0.2450985163450241,-1.7080634276019495,-3.0617140080249454e-23,0.006896516773849726,0.42902690172195435,0.0,0.008933727629482746,1.110295057296753,0.002505677752196789,0.00148780457675457
370.0,547.0,-4.0229,1.4022,9.1992,-0.0026,0.0469,-0.1268,-2.106438776055807,-0.0006441009463742375,3.929685592651367,-1.724016785621643,0.027833452448248863,1.7321372032165527,5.640207993775167,-0.0008861505193635821,0.23531749844551086,-1.7080395857440394,-8.522393307937092e-27,0.00729759456589818,0.4290101230144501,0.0,0.006082179490476847,1.110286831855774,0.001815481693483889,0.0024817148223519325
370.0,547.0,-4.0229,1.4022,9.1992,-0.0026,0.0469,-0.1268,-2.106434484521383,-0.0004740018048323691,3.9184632301330566,-1.7239007949829102,0.02908688224852085,1.8043220043182373,5.640232312470236,-0.0007123295217752457,0.24183762073516846,-1.7079914251910608,-3.633229826120402e-29,-0.003592628287151456,0.42904651165008545,0.0,0.0023385644890367985,1.1102789640426636,0.0013574191834777594,-0.0023939013481140137
370.0,547.0,-4.0229,1.4022,9.1992,-0.0026,0.0469,-0.1268,-2.106410642663473,-0.0003397216205485165,3.9088125228881836,-1.723737120628357,0.030013084411621094,1.7414922714233398,5.640204357891836,-0.00047669504419900477,0.22977861762046814,-1.708043400441305,-1.0113228996081267e-32,0.0009983903728425503,0.42900633811950684,0.0,0.0011253909906372428,1.1103273630142212,0.0008506913436576724,-0.018914006650447845
370.0,547.0,-4.0229,1.4022,9.1992,-0.0026,0.0469,-0.1268,-2.1064545116820277,-0.00026474555488675833,3.896965503692627,-1.723634123802185,0.03085450455546379,1.7519198656082153,5.64020054319457,-0.00042444540304131806,0.23854708671569824,-1.7080634276019495,-2.8150544495767063e-36,0.018959764391183853,0.428989976644516,0.0,-0.0048318044282495975,1.110323429107666,0.00022595777409151196,0.029831279069185257
370.0,547.0,-4.0229,1.4022,9.1992,-0.0026,0.0469,-0.1268,-2.1063906155028285,-0.00023079360835254192,3.949186325073242,-1.7234097719192505,0.03065129555761814,1.7354989051818848,5.640235888748922,-0.00047417767927981913,0.22183698415756226,-1.7080352942096155,-1.2001018525050635e-38,0.001706599723547697,0.4289895296096802,0.0,0.0027241227217018604,1.1102873086929321,8.977769903140143e-05,0.022194087505340576
370.0,547.0,-4.0229,1.4022,9.1992,-0.0026,0.0469,-0.1268,-2.1064425907530726,-0.00019356085977051407,3.9060440063476562,-1.7232345342636108,0.029207449406385422,1.751145601272583,5.6402326104934595,-0.00082669488620013,0.21981649100780487,-1.7079995314227503,-3.340695538950364e-42,-0.0020446868147701025,0.4290705919265747,0.0,-0.0034865024499595165,1.1103273630142212,1.4500262324190771e-08,-0.006190320011228323
370.0,547.0,-4.0229,1.4022,9.1992,-0.0026,0.0469,-0.1268,-2.106410642663473,-0.0001666734169702977,3.9007506370544434,-1.723130702972412,0.025524431839585304,1.7005951404571533,5.640152501850881,-0.001717593870125711,0.23663535714149475,-1.7080352942096155,-1.401298464324817e-45,0.01904168725013733,0.4290461540222168,0.0,0.005983313545584679,1.1102710962295532,3.501642335465571e-14,0.02853405475616455
370.0,547.0,-4.0229,1.4022,9.1992,-0.0026,0.0469,-0.1268,-2.106438776055807,-0.00014634539547841996,3.915924310684204,-1.7229835987091064,0.021736329421401024,1.7129640579223633,5.64016484001235,-0.002035223413258791,0.23390278220176697,-1.708003346120016,-0.0,0.013237152248620987,0.42908260226249695,0.0,-0.011023687198758125,1.110283374786377,8.456054144627928e-20,-0.017928725108504295
370.0,547.0,-4.0229,1.4022,9.1992,-0.0026,0.0469,-0.1268,-2.106426855126852,-0.00010197761002928019,3.855766773223877,-1.722859263420105,0.019038325175642967,1.7374076843261719,5.64016484001235,-0.002515248255804181,0.22688832879066467,-1.7080629507647913,-0.0,0.0005964739248156548,0.4290579855442047,0.0,0.012731187045574188,1.1102792024612427,-0.00084327207878232,0.009399357251822948
376.0,538.0,-3.6066,1.008,9.3332,-0.0421,0.0492,-0.1301,-2.106378217736715,-9.121758921537548e-05,3.862424373626709,-1.7227474451065063,0.016778092831373215,1.7383344173431396,5.64014087894515,-0.004150313325226307,0.23128676414489746,-1.7080677191363733,-0.0,0.007378570735454559,0.4291066825389862,0.0,-0.003854932263493538,1.1103078126907349,-0.0006807557656429708,-0.05584970861673355
376.0,538.0,-3.6066,1.008,9.3332,-0.0421,0.0492,-0.1301,-2.106353899041647,5.841671008965932e-05,3.88643479347229,-1.7226766347885132,0.01549981813877821,1.7386492490768433,5.640060174256124,-0.007913160137832165,0.21993884444236755,-1.7080476919757288,-0.0,-0.000957756768912077,0.42902612686157227,0.0,0.004229688551276922,1.1102632284164429,-0.0005140564753673971,0.0012505894992500544
376.0,538.0,-3.6066,1.008,9.3332,-0.0421,0.0492,-0.1301,-2.1064030132689417,5.486431473400444e-05,3.901907444000244,-1.7226248979568481,0.014693616889417171,1.7302151918411255,5.640052842884817,-0.012391025200486183,0.2327498346567154,-1.7080596129046839,-0.0,-0.0021114186383783817,0.42903828620910645,0.0,0.014554294757544994,1.1102513074874878,-0.00044191849883645773,-0.04616938531398773
376.0,538.0,-3.6066,1.008,9.3332,-0.0421,0.0492,-0.1301,-2.106426855126852,5.026773942518048e-05,3.9424121379852295,-1.7224606275558472,0.014404750429093838,1.7325389385223389,5.639860319882192,-0.018237879499793053,0.22594384849071503,-1.7080634276019495,-0.0,0.0013202570844441652,0.42911818623542786,0.0,0.016395781189203262,1.1102955341339111,-0.00036507827462628484,-0.010489659383893013
376.0,538.0,-3.6066,1.008,9.3332,-0.0421,0.0492,-0.1301,-2.106414934197897,4.638187965610996e-05,3.9373764991760254,-1.7224693298339844,0.015252732671797276,1.763042688369751,5.6396846053893945,-0.023119637742638588,0.22272658348083496,-1.7080114523517054,-0.0,0.005383199080824852,0.4290662407875061,0.0,0.009151492267847061,1.1103315353393555,-0.00031100522028282285,-0.014175605960190296
376.0,538.0,-3.6066,1.008,9.3332,-0.0421,0.0492,-0.1301,-2.1063863239684046,2.2357640773407184e-05,3.8471386432647705,-1.7223453521728516,0.016004517674446106,1.6889026165008545,5.639600682049551,-0.025001544505357742,0.21191157400608063,-1.7080238501178187,-0.0,0.0005814871983602643,0.4290865659713745,0.0,0.010752910748124123,1.1103317737579346,-5.854118353454396e-05,0.001098734326660633
376.0,538.0,-3.6066,1.008,9.3332,-0.0421,0.0492,-0.1301,-2.1063906155028285,2.0544046492432244e-05,3.877662181854248,-1.722318172454834,0.01672305539250374,1.7490146160125732,5.639454114228048,-0.025827700272202492,0.20488527417182922,-1.7080634276019495,-0.0,-0.010786990635097027,0.42913854122161865,0.0,5.986727774143219e-05,1.1103037595748901,-8.89781226476316e-09,0.057280395179986954
376.0,538.0,-3.6066,1.008,9.3332,-0.0421,0.0492,-0.1301,-2.106434484521383,4.9611460772869265e-11,3.9376678466796875,-1.7221651077270508,0.01608198881149292,1.7868506908416748,5.6393141625221155,-0.022179244086146355,0.21073204278945923,-1.7080195585833948,-0.0,-0.003803438041359186,0.42901381850242615,0.0,0.017819169908761978,1.1102874279022217,-2.148717096991156e-14,0.05417206883430481
376.0,538.0,-3.6066,1.008,9.3332,-0.0421,0.0492,-0.1301,-2.1064301929869593,1.1980583560219574e-16,3.8749427795410156,-1.722036600112915,0.016712475568056107,1.7427579164505005,5.639145779400625,-0.017677253112196922,0.21163409948349,-1.7080476919757288,-0.0,-0.00874323956668377,0.42907023429870605,0.0,0.023788250982761383,1.1102955341339111,-5.1888997820185945e-20,0.059529997408390045
376.0,538.0,-3.6066,1.008,9.3332,-0.0421,0.0492,-0.1301,-2.1064545116820277,2.1564627649825842e-20,3.89033842086792,-1.7220053672790527,0.017458857968449593,1.7844326496124268,5.639094519406118,-0.014744850806891918,0.20950445532798767,-1.70803147951235,-0.0,-0.007448404096066952,0.4290379285812378,0.0,0.026365969330072403,1.1103156805038452,-9.339836227639047e-24,0.10590849816799164
376.0,538.0,-3.6066,1.008,9.3332,-0.0421,0.0492,-0.1301,-2.106462617913717,5.207603019760707e-26,3.8948612213134766,-1.721868872642517,0.018699806183576584,1.7970960140228271,5.638934004097738,-0.01157770399004221,0.20922479033470154,-1.7080195585833948,-0.0,-0.007823786698281765,0.42910629510879517,0.0,0.027231641113758087,1.1102792024612427,-2.2554603194538145e-29,0.21654897928237915
376.0,538.0,-3.6066,1.008,9.3332,-0.0421,0.0492,-0.1301,-2.1064988575377406,-0.000617734796833247,3.879061222076416,-1.721825122833252,0.020576948300004005,1.7602670192718506,5.638946461468496,-0.008965488523244858,0.19153955578804016,-1.70803147951235,-0.0,5.089305341243744e-05,0.4290825128555298,0.0,0.021197352558374405,1.1102914810180664,-5.446672015606152e-35,0.15366815030574799
376.0,538.0,-3.6066,1.008,9.3332,-0.0421,0.0492,-0.1301,-2.1064664326109828,-0.0015321040991693735,3.889239549636841,-1.7216366529464722,0.022631006315350533,1.773392677307129,5.638894665032186,-0.00828617624938488,0.19804111123085022,-1.7080195585833948,-0.0,-0.0088433176279068,0.42908215522766113,0.0,0.026310298591852188,1.110356092453003,-9.803816164152465e-39,0.11792568862438202
376.0,538.0,-3.6066,1.008,9.3332,-0.0421,0.0492,-0.1301,-2.1064826450743617,-0.0019634191412478685,3.882241725921631,-1.7214967012405396,0.025435330346226692,1.7872023582458496,5.638862895756521,-0.009102764539420605,0.18363887071609497,-1.7079556624041956,-0.0,-0.014305705204606056,0.42907023429870605,0.0,0.037740085273981094,1.1102910041809082,0.0004815713327843696,0.15937820076942444
376.0,538.0,-3.6066,1.008,9.3332,-0.0421,0.0492,-0.1301,-2.1064821682372035,-0.002877763705328107,3.882296562194824,-1.7213412523269653,0.028947634622454643,1.8146536350250244,5.638786780625143,-0.011346503160893917,0.17972591519355774,-1.7080476919757288,-0.0,0.0009801650885492563,0.42906612157821655,0.0,0.04082724079489708,1.1104283332824707,0.002350104972720146,0.13917724788188934
376.0,538.0,-3.6066,1.008,9.3332,-0.0421,0.0492,-0.1301,-2.1065508327879847,-0.0029725092463195324,3.8283591270446777,-1.7212088108062744,0.03173425421118736,1.7861669063568115,5.638719010144033,-0.013380908407270908,0.1691904366016388,-1.7079876104937952,-0.0,-0.02045828476548195,0.4290742874145508,8.295767474919558e-05,0.05231078341603279,1.1103192567825317,0.0032916658092290163,0.17347931861877441
376.0,538.0,-3.6066,1.008,9.3332,-0.0421,0.0492,-0.1301,-2.1065546474852503,-0.002666066400706768,3.864943027496338,-1.7210005521774292,0.036825552582740784,1.8422523736953735,5.638666558056631,-0.018477628007531166,0.1718202829360962,-1.708015267048971,-0.0,-0.026970770210027695,0.4291263520717621,7.915806054370478e-05,0.03616097569465637,1.1103956699371338,0.004291739780455828,0.15745055675506592
371.0,538.0,-3.5827,0.3374,9.2201,-0.0521,0.0266,-0.109,-2.1065265140929164,-0.002423203783109784,3.8469934463500977,-1.7207890748977661,0.042138610035181046,1.9160552024841309,5.638510632305898,-0.026117661967873573,0.1750699281692505,-1.7080238501178187,-0.0,-0.015316825360059738,0.42910218238830566,7.519028440583497e-05,0.03605077788233757,1.1104154586791992,0.005289347842335701,0.15471145510673523
371.0,538.0,-3.5827,0.3374,9.2201,-0.0521,0.0266,-0.109,-2.1065789661803187,-0.002095249015837908,3.8699426651000977,-1.7205480337142944,0.04415157064795494,1.8846392631530762,5.6384474513824365,-0.0330570712685585,0.16328014433383942,-1.7080276648150843,-0.0,-0.021473268046975136,0.4290858507156372,8.63447567098774e-05,0.04544539004564285,1.1104395389556885,0.005616873037070036,0.18362775444984436
371.0,538.0,-3.5827,0.3374,9.2201,-0.0521,0.0266,-0.109,-2.106514116326803,-0.0015608526300638914,3.828334331512451,-1.7202805280685425,0.05156008526682854,1.8241775035858154,5.638219523220815,-0.05101090669631958,0.15251965820789337,-1.7080357710467737,-0.0,-0.02688641846179962,0.42907023429870605,8.327110845129937e-05,0.04904274269938469,1.1104674339294434,0.005821301601827145,0.21190086007118225
371.0,538.0,-3.5827,0.3374,9.2201,-0.0521,0.0266,-0.109,-2.1065827808775843,-0.001245327526703477,3.8333022594451904,-1.719912052154541,0.05711980536580086,1.8753135204315186,5.6377513883407495,-0.08002453297376633,0.15417541563510895,-1.7079756895648401,-0.0,-0.03301922604441643,0.42906612157821655,7.958948117448017e-05,0.05278647691011429,1.1105436086654663,0.0046501774340868,0.2261996567249298
371.0,538.0,-3.5827,0.3374,9.2201,-0.0521,0.0266,-0.109,-2.106603284875387,-0.0007567453430965543,3.865987777709961,-1.719637155532837,0.06566711515188217,1.8634703159332275,5.637207972794332,-0.11055315285921097,0.1275869607925415,-1.7079876104937952,-0.0,-0.02089739590883255,0.4290257394313812,7.621927943546325e-05,0.04296374320983887,1.1104869842529297,0.0035556929651647806,0.2564936578273773
371.0,538.0,-3.5827,0.3374,9.2201,-0.0521,0.0266,-0.109,-2.106558462182516,-0.0005661176983267069,3.8776471614837646,-1.7193440198898315,0.07103611528873444,1.8933658599853516,5.636765110283651,-0.11990395933389664,0.1086554303765297,-1.7079914251910608,-0.0,-0.03263796120882034,0.4290579557418823,7.412675040541217e-05,0.03965073823928833,1.110503077507019,0.0026539694517850876,0.14022523164749146
371.0,538.0,-3.5827,0.3374,9.2201,-0.0521,0.0266,-0.109,-2.1065741978087367,-0.0004109355213586241,3.8363256454467773,-1.7188520431518555,0.08031062036752701,1.8764474391937256,5.635990071087637,-0.11612774431705475,0.12019666284322739,-1.7079713980304163,-0.0,-0.015839943662285805,0.4291017949581146,7.119484507711604e-05,0.04521314427256584,1.110547661781311,0.001496796146966517,0.14507749676704407
371.0,538.0,-3.5827,0.3374,9.2201,-0.0521,0.0266,-0.109,-2.106642862359518,-0.00038701368612237275,3.875974655151367,-1.7183846235275269,0.08595473319292068,1.8980810642242432,5.635380077153005,-0.10715807229280472,0.11896055191755295,-1.7080238501178187,-0.0,-0.03231091424822807,0.4290620684623718,7.95175728853792e-05,0.047391556203365326,1.1105276346206665,0.000856780621688813,0.1258123219013214
371.0,538.0,-3.5827,0.3374,9.2201,-0.0521,0.0266,-0.109,-2.1066070995726527,-0.0004445716040208936,3.878983497619629,-1.7179765701293945,0.08892378211021423,1.9142955541610718,5.63488398769454,-0.10134647786617279,0.12244534492492676,-1.7079914251910608,-0.0,-0.024159453809261322,0.42908617854118347,7.792223914293572e-05,0.0350186824798584,1.1105316877365112,0.0006111240363679826,0.14439235627651215
371.0,538.0,-3.5827,0.3374,9.2201,-0.0521,0.0266,-0.109,-2.10658659557485,-0.0004903765511699021,3.8858046531677246,-1.7173964977264404,0.09296979010105133,1.9250805377960205,5.634301113873281,-0.10099630802869797,0.13135533034801483,-1.7079594771014612,-0.0,-0.014052760787308216,0.4290260374546051,7.513583841500804e-05,0.04135391116142273,1.1105393171310425,0.0004341274325270206,0.11397643387317657
371.0,538.0,-3.5827,0.3374,9.2201,-0.0521,0.0266,-0.109,-2.106642862359518,-0.001367467804811895,3.855623722076416,-1.7168277502059937,0.09657315909862518,1.945589303970337,5.633706140309133,-0.11130565404891968,0.11844919621944427,-1.7080038229571741,-0.0,-0.018462318927049637,0.42908215522766113,7.254043885041028e-05,0.04361598938703537,1.110511302947998,0.00033665852970443666,0.17355693876743317
371.0,538.0,-3.5827,0.3374,9.2201,-0.0521,0.0266,-0.109,-2.1066190205016078,-0.001170109142549336,3.853212833404541,-1.7164479494094849,0.09860225021839142,1.903457522392273,5.633247184544363,-0.11647052317857742,0.12407058477401733,-1.7079675833331507,-0.0,-0.025749515742063522,0.4291303753852844,7.090756844263524e-05,0.06129687279462814,1.1105276346206665,0.00024127682263497263,0.1357797086238861
371.0,538.0,-3.5827,0.3374,9.2201,-0.0521,0.0266,-0.109,-2.106598516503805,-0.0007121465750969946,3.8679652214050293,-1.7158682346343994,0.10107140243053436,1.943419337272644,5.632576751499929,-0.11070326715707779,0.10982435941696167,-1.7079675833331507,-0.0,0.00400392385199666,0.42900148034095764,2.295103058713721e-06,0.051636241376399994,1.110547661781311,0.0001472376025049016,0.11035671830177307
371.0,538.0,-3.5827,0.3374,9.2201,-0.0521,0.0266,-0.109,-2.106614728967184,-0.0005101696006022394,3.8750102519989014,-1.715240478515625,0.10605213791131973,1.967193603515625,5.631937193661489,-0.09390614181756973,0.12003251910209656,-1.7080038229571741,-0.0,-0.018228698521852493,0.42906612157821655,6.388502504783844e-10,0.05795837938785553,1.110491156578064,-0.0001644955191295594,0.0771808922290802
371.0,538.0,-3.5827,0.3374,9.2201,-0.0521,0.0266,-0.109,-2.106630941430563,-0.0004995351191610098,3.8645310401916504,-1.7147598266601562,0.11034241318702698,1.9518349170684814,5.6316138980682275,-0.08726371079683304,0.11881808191537857,-1.7080157438861292,-0.0,-0.009585019201040268,0.42906618118286133,2.72351889304967e-12,0.047225937247276306,1.110491156578064,-0.00022784183965995908,0.07282818108797073
371.0,538.0,-3.5827,0.3374,9.2201,-0.0521,0.0266,-0.109,-2.106626649896139,-0.00045955742825753987,3.8621840476989746,-1.714127779006958,0.11654965579509735,1.9953410625457764,5.631123053818502,-0.09735220670700073,0.13234375417232513,-1.7080400625811976,-0.0,-0.0006441990844905376,0.42911002039909363,7.58101316995736e-16,0.04928048327565193,1.1105276346206665,-0.0007272781222127378,0.062025174498558044
371.0,538.0,-3.5827,0.3374,9.2201,-0.0521,0.0266,-0.109,-2.106602808038229,-0.0003975038416683674,3.909898281097412,-1.7133798599243164,0.12148317694664001,2.0063412189483643,5.6303953407104395,-0.12938852608203888,0.12378785759210587,-1.7079232374774378,-0.0,0.007477743551135063,0.4290861487388611,2.1102028830960121e-19,0.06410935521125793,1.110499382019043,-0.001001050230115652,0.05109800770878792
357.0,559.0,-3.5539,0.3398,9.2596,-0.0431,0.0469,-0.1203,-2.1066585979857386,-0.0013636931544169784,3.9347097873687744,-1.712599277496338,0.12477535009384155,2.0298709869384766,5.629601466446676,-0.1417253315448761,0.10740695893764496,-1.7079232374774378,0.00029602288850583136,0.014439433813095093,0.4291181266307831,5.873828008016893e-23,0.03615687042474747,1.110487461090088,-0.0009650587453506887,0.015290958806872368
357.0,559.0,-3.5539,0.3398,9.2596,-0.0431,0.0469,-0.1203,-2.106650491754049,-0.0015421350253745914,3.8825950622558594,-1.7121158838272095,0.12606467306613922,2.017484426498413,5.629034149437704,-0.14153775572776794,0.10827293992042542,-1.7079632917987269,0.0002915658405981958,-6.333389319479465e-05,0.42901793122291565,2.5041048372702144e-25,0.04844507575035095,1.110487461090088,-0.0010425318032503128,-0.022999020293354988
357.0,559.0,-3.5539,0.3398,9.2596,-0.0431,0.0469,-0.1203,-2.1066791019835414,-0.0010273177176713943,3.9093966484069824,-1.711275339126587,0.13152647018432617,1.9854563474655151,5.6281752465064905,-0.13386082649230957,0.12391471862792969,-1.7079442183123987,0.00035469423164613545,0.015580114908516407,0.4290902614593506,6.970266673121737e-29,0.06227722391486168,1.110451102256775,-0.001971736317500472,-0.050635673105716705
357.0,559.0,-3.5539,0.3398,9.2596,-0.0431,0.0469,-0.1203,-2.106666704217428,-0.0007192234043031931,3.915198802947998,-1.7105438709259033,0.13720783591270447,1.9893386363983154,5.627400922566213,-0.1403837352991104,0.1214829683303833,-1.707979981099264,0.0007581381942145526,0.026196064427495003,0.4291304051876068,1.9401997111222492e-32,0.058043189346790314,1.1103990077972412,-0.002214647363871336,-0.09186303615570068
357.0,559.0,-3.5539,0.3398,9.2596,-0.0431,0.0469,-0.1203,-2.1066462002196253,-0.0004705327155534178,3.873671531677246,-1.7099909782409668,0.13846132159233093,2.0247647762298584,5.6268014190490625,-0.15161839127540588,0.11036676168441772,-1.7079675833331507,0.0014928161399438977,0.017966018989682198,0.4290739595890045,8.271374609138791e-35,0.04065988212823868,1.1104674339294434,-0.0019754720851778984,-0.08839846402406693
357.0,559.0,-3.5539,0.3398,9.2596,-0.0431,0.0469,-0.1203,-2.1066748104491175,-0.00042848181328736246,3.902759313583374,-1.7091399431228638,0.14480729401111603,1.9975069761276245,5.625867235451498,-0.15825362503528595,0.09843070060014725,-1.707907501851217,0.004198129288852215,0.0262297336012125,0.42907023429870605,2.3023677086980504e-38,0.051395297050476074,1.1104555130004883,-0.0015237585175782442,-0.10097607225179672
357.0,559.0,-3.5539,0.3398,9.2596,-0.0431,0.0469,-0.1203,-2.106687208215231,-0.00044149794848635793,3.9206228256225586,-1.7082641124725342,0.1522340178489685,2.040161371231079,5.624940800457754,-0.14597187936306,0.10632503777742386,-1.7078598181353968,0.016246696934103966,0.03718390315771103,0.4290781021118164,6.408137877357388e-42,0.049887534230947495,1.1104035377502441,-0.0012082851026207209,-0.10560205578804016
357.0,559.0,-3.5539,0.3398,9.2596,-0.0431,0.0469,-0.1203,-2.1066624126830042,-0.0004113917821086943,3.8878307342529297,-1.7076717615127563,0.1539057493209839,2.0465071201324463,5.624333548336782,-0.14557352662086487,0.11751262843608856,-1.7078402678119105,0.021973086521029472,0.03692854940891266,0.4291141927242279,2.6624670822171524e-44,0.05401359498500824,1.1104317903518677,-0.0010176856303587556,-0.026604780927300453
357.0,559.0,-3.5539,0.3398,9.2596,-0.0431,0.0469,-0.1203,-2.1066791019835414,-0.0005721016204915941,3.892606735229492,-1.7067029476165771,0.15534286201000214,2.0528690814971924,5.623374748020925,-0.16926749050617218,0.10647845268249512,-1.7076924482928675,0.015350181609392166,0.038457900285720825,0.429074227809906,0.0,0.03127799183130264,1.1104317903518677,-0.001157931750640273,-0.1155858039855957
357.0,559.0,-3.5539,0.3398,9.2596,-0.0431,0.0469,-0.1203,-2.1066867313780726,-0.001140571665018797,3.9331655502319336,-1.7058075666427612,0.16231103241443634,2.0025739669799805,5.622309076576986,-0.17590564489364624,0.10028990358114243,-1.707649056111471,0.005488975904881954,0.034761231392621994,0.42907026410102844,0.0,0.050764549523591995,1.1104235649108887,-0.0009778521489351988,-0.13052979111671448
357.0,559.0,-3.5539,0.3398,9.2596,-0.0431,0.0469,-0.1203,-2.1066910229124964,-0.0013022065395489335,3.9353513717651367,-1.705151915550232,0.1681758016347885,2.0844764709472656,5.621593999653616,-0.17007660865783691,0.08849932253360748,-1.7076733748065394,0.001374996267259121,0.026665542274713516,0.429062157869339,0.0,0.045348986983299255,1.1104072332382202,-0.0009082889300771058,-0.15640702843666077
357.0,559.0,-3.5539,0.3398,9.2596,-0.0431,0.0469,-0.1203,-2.1066986523070277,-0.0016812683315947652,3.8836729526519775,-1.704082727432251,0.17357319593429565,2.110741376876831,5.620583760529318,-0.1705375462770462,0.10851270705461502,-1.707660977040426,-0.0003428474592510611,0.02448698878288269,0.42907023429870605,0.0,0.06343322992324829,1.110467791557312,-0.0008117466350086033,-0.11866224557161331
357.0,559.0,-3.5539,0.3398,9.2596,-0.0431,0.0469,-0.1203,-2.1067429981627406,-0.0033473230432718992,3.9276795387268066,-1.703059196472168,0.1798979938030243,2.095183849334717,5.619537937432089,-0.1929914653301239,0.08220838010311127,-1.7077010313617151,-0.0002200079325120896,0.030887361615896225,0.4291221797466278,0.0,0.05044190585613251,1.1104154586791992,-0.0005962153081782162,-0.10893651098012924
357.0,559.0,-3.5539,0.3398,9.2596,-0.0431,0.0469,-0.1203,-2.1067267856993617,-0.0045135049149394035,3.90982723236084,-1.701979398727417,0.17946334183216095,2.1037890911102295,5.618327665119924,-0.2013757973909378,0.08417025208473206,-1.7076290289508265,-0.00016089589917100966,0.047789543867111206,0.4290458858013153,0.0,0.047023557126522064,1.1104519367218018,-0.0005118721164762974,-0.14076662063598633
357.0,559.0,-3.5539,0.3398,9.2596,-0.0431,0.0469,-0.1203,-2.106746812860006,-0.0044690812937915325,3.9228763580322266,-1.7012591361999512,0.18130847811698914,2.1306307315826416,5.617528724461355,-0.2047368288040161,0.07045714557170868,-1.7076810042010706,-0.00013647385640069842,0.03104257769882679,0.4290299117565155,0.0,0.04191508889198303,1.110411286354065,-0.0005019704694859684,-0.1269541084766388
357.0,559.0,-3.5539,0.3398,9.2596,-0.0431,0.0469,-0.1203,-2.1067868671812953,-0.002861056476831436,3.9422993659973145,-1.7001032829284668,0.19055700302124023,2.116363763809204,5.616191077023306,-0.2387705147266388,0.05043143033981323,-1.707660977040426,-5.5855896789580584e-05,0.04809018597006798,0.42909812927246094,0.0,0.055366091430187225,1.1104435920715332,-0.000462894793599844,-0.1796436756849289
357.0,559.0,-3.5539,0.3398,9.2596,-0.0431,0.0469,-0.1203,-2.106819292108053,-0.0017893562326207757,3.951629638671875,-1.6989870071411133,0.19772383570671082,2.1234564781188965,5.6147211668785,-0.2420908808708191,0.06240367889404297,-1.7076447645770472,-4.689310662797652e-05,0.03223215788602829,0.429110050201416,0.0,0.056803010404109955,1.110411286354065,-0.00038811154081486166,-0.14250579476356506
351.0,505.0,-4.3484,0.0281,9.2489,-0.0449,0.0145,-0.1106,-2.10680689434194,-0.0015911486698314548,3.9259743690490723,-1.6981830596923828,0.20185239613056183,2.2148778438568115,5.613747644215383,-0.24667203426361084,0.062118109315633774,-1.707649056111471,-4.2466388549655676e-05,0.0373593308031559,0.4291303753852844,0.0,0.055690549314022064,1.1103994846343994,-0.000306483794702217,-0.1794874668121338
351.0,505.0,-4.3484,0.0281,9.2489,-0.0449,0.0145,-0.1106,-2.1068746052184046,-0.0029671741649508476,3.9666695594787598,-1.6969672441482544,0.20293568074703217,2.158111572265625,5.612173306732931,-0.2615141272544861,0.058348290622234344,-1.7076252142535608,-4.958575118507724e-06,0.04370930790901184,0.42907023429870605,0.0,0.03341761976480484,1.110411286354065,-0.00025040734908543527,-0.15779578685760498
351.0,505.0,-4.3484,0.0281,9.2489,-0.0449,0.0145,-0.1106,-2.106887002984518,-0.004225080367177725,3.9329566955566406,-1.6956946849822998,0.2102634459733963,2.1667375564575195,5.610661136894979,-0.25956013798713684,0.04670058190822601,-1.707677189503805,-1.3802374798643768e-09,0.040262602269649506,0.4290621280670166,0.0,0.04614629969000816,1.1103793382644653,-0.00025728900800459087,-0.21288084983825684
351.0,505.0,-4.3484,0.0281,9.2489,-0.0449,0.0145,-0.1106,-2.1068951092162074,-0.0043933517299592495,3.940398693084717,-1.6948989629745483,0.21382677555084229,2.12534236907959,5.609541940480032,-0.2777913808822632,0.03324778005480766,-1.707637135182516,-5.88416902008726e-12,0.044164374470710754,0.4290662109851837,0.0,0.04460175335407257,1.1103752851486206,-0.00027406716253608465,-0.22104346752166748
351.0,505.0,-4.3484,0.0281,9.2489,-0.0449,0.0145,-0.1106,-2.1068903408446253,-0.0037338973488658667,3.940797805786133,-1.6936028003692627,0.22188624739646912,2.1301610469818115,5.607724892884054,-0.2888597249984741,0.05161658674478531,-1.70766526857485,-1.6378800815348548e-15,0.04659029096364975,0.42908215522766113,0.0,0.039732951670885086,1.110427737236023,-0.00045544945169240236,-0.21425390243530273
351.0,505.0,-4.3484,0.0281,9.2489,-0.0449,0.0145,-0.1106,-2.106926580468649,-0.005236586555838585,3.942275047302246,-1.6922426223754883,0.22668486833572388,2.2253060340881348,5.606008100300588,-0.3036201000213623,0.042465899139642715,-1.707632843648092,-4.559099520892807e-19,0.06349745392799377,0.4291181266307831,0.0,0.04757421836256981,1.1104196310043335,-0.000841452507302165,-0.2514735460281372
351.0,505.0,-4.3484,0.0281,9.2489,-0.0449,0.0145,-0.1106,-2.106994768182272,-0.007908862084150314,3.9144949913024902,-1.6909112930297852,0.22457897663116455,2.184329032897949,5.604127275734701,-0.3047037720680237,0.04367062449455261,-1.7076290289508265,-1.2690420528419797e-22,0.06392975896596909,0.4290580153465271,0.0,0.044006478041410446,1.1104035377502441,-0.0006172501598484814,-0.23366586863994598
351.0,505.0,-4.3484,0.0281,9.2489,-0.0449,0.0145,-0.1106,-2.1070434055724085,-0.00918264128267765,3.9103755950927734,-1.689950942993164,0.22751399874687195,2.1240663528442383,5.60287361124114,-0.31397852301597595,0.026293568313121796,-1.707620922719137,-5.410126417141482e-25,0.05146999657154083,0.42909812927246094,0.0,0.04202066361904144,1.1104116439819336,-0.0005796912591904402,-0.22767804563045502
351.0,505.0,-4.3484,0.0281,9.2489,-0.0449,0.0145,-0.1106,-2.107062955895895,-0.009324523620307446,3.9122822284698486,-1.6885586977005005,0.23123018443584442,2.178496837615967,5.601016151696005,-0.3218291699886322,0.03000592067837715,-1.7076571623431605,-1.505928318051993e-28,0.04700488969683647,0.42906618118286133,0.0,0.02341160550713539,1.11038339138031,-0.0004870416596531868,-0.21809446811676025
351.0,505.0,-4.3484,0.0281,9.2489,-0.0449,0.0145,-0.1106,-2.1071306667723597,-0.008269092999398708,3.9017529487609863,-1.687121868133545,0.23443107306957245,2.1646556854248047,5.599123704224386,-0.33079659938812256,0.026282578706741333,-1.7076414267169397,-4.191806389813348e-32,0.04938657581806183,0.42906615138053894,0.0,0.0442921407520771,1.110399842262268,-0.0004704779712483287,-0.2639296054840088
351.0,505.0,-4.3484,0.0281,9.2489,-0.0449,0.0145,-0.1106,-2.1071745357909144,-0.008245469070971012,3.926623821258545,-1.6861501932144165,0.23268041014671326,2.1288888454437256,5.597746002465048,-0.3395853042602539,0.014434020966291428,-1.7076447645770472,-1.7870328890456013e-34,0.03542624041438103,0.42905810475349426,0.0,0.04973313584923744,1.110379695892334,-0.00041632019565440714,-0.1996258795261383
351.0,505.0,-4.3484,0.0281,9.2489,-0.0449,0.0145,-0.1106,-2.1071988544859828,-0.007366258185356855,3.9523682594299316,-1.6847856044769287,0.23328238725662231,2.163081645965576,5.595713245659628,-0.360120564699173,0.012981425039470196,-1.7076452414142054,-4.974271555163505e-38,0.049773626029491425,0.4291263222694397,0.0,0.03472909331321716,1.110391616821289,-0.00035477272467687726,-0.20583698153495789
351.0,505.0,-4.3484,0.0281,9.2489,-0.0449,0.0145,-0.1106,-2.1072432003416957,-0.006210986990481615,3.934936046600342,-1.6833301782608032,0.2397492229938507,2.2086122035980225,5.5934480903442285,-0.3658427596092224,0.010435131378471851,-1.707637135182516,-1.3846230125993517e-41,0.04108097404241562,0.4290740489959717,0.0,0.03556402400135994,1.110427737236023,-0.0003090800018981099,-0.20195141434669495
351.0,505.0,-4.3484,0.0281,9.2489,-0.0449,0.0145,-0.1106,-2.107295652429098,-0.004701198544353247,3.9182584285736084,-1.6823939085006714,0.2427634447813034,2.198939085006714,5.59199999549941,-0.3764105439186096,0.008455745875835419,-1.7076414267169397,-5.885453550164232e-44,0.04889831691980362,0.4290742874145508,0.0,0.03560176491737366,1.1103593111038208,-0.00021345520508475602,-0.19322359561920166
351.0,505.0,-4.3484,0.0281,9.2489,-0.0449,0.0145,-0.1106,-2.1072751484312953,-0.0036554790567606688,3.9745709896087646,-1.6809180974960327,0.24144193530082703,2.1698226928710938,5.589708018093862,-0.3798014521598816,0.012601049616932869,-1.7076252142535608,-0.0,0.058853115886449814,0.42909812927246094,0.0,0.04175419360399246,1.1103432178497314,-0.0002856666105799377,-0.23108422756195068
351.0,505.0,-4.3484,0.0281,9.2489,-0.0449,0.0145,-0.1106,-2.1072870693602503,-0.003304807236418128,3.967444896697998,-1.6794954538345337,0.24437910318374634,2.1183834075927734,5.587358879833975,-0.40134602785110474,-0.005073602311313152,-1.7076175848590296,3.762025880860165e-05,0.05140765756368637,0.42904210090637207,0.0,0.052046313881874084,1.1103715896606445,-0.0006167535902932286,-0.2773685157299042
336.0,466.0,-4.334,0.414,9.0832,-0.0195,-0.0603,-0.1081,-2.1072870693602503,-0.002653122879564762,3.9664652347564697,-1.6784015893936157,0.24628739058971405,2.1509876251220703,5.585806298046865,-0.40402430295944214,0.0012065598275512457,-1.7076051870929163,0.00016593490727245808,0.05326966941356659,0.42903777956962585,0.0,0.042699821293354034,1.1103757619857788,-0.0005798892234452069,-0.2619684934616089
336.0,466.0,-4.334,0.414,9.0832,-0.0195,-0.0603,-0.1081,-2.10734285930776,-0.0016638784436509013,3.9795150756835938,-1.6769293546676636,0.2500641942024231,2.2027037143707275,5.583341586380758,-0.4086596667766571,-0.009295268915593624,-1.7075689474688929,0.0008890096796676517,0.04476155340671539,0.42912212014198303,0.0,0.0515371598303318,1.1104038953781128,-0.0006584812654182315,-0.1983603835105896
336.0,466.0,-4.334,0.414,9.0832,-0.0195,-0.0603,-0.1081,-2.107330938378805,-0.0011640441371127963,3.9715194702148438,-1.6754462718963623,0.24839170277118683,2.1932759284973145,5.580853807717123,-0.4194217324256897,-0.0068215178325772285,-1.7076533476458948,0.0008694163407199085,0.06575876474380493,0.42910242080688477,0.0,0.03544766455888748,1.1103675365447998,-0.0018147119553759694,-0.3159291744232178
336.0,466.0,-4.334,0.414,9.0832,-0.0195,-0.0603,-0.1081,-2.1073066196837367,-0.0007474330486729741,4.0077362060546875,-1.673981785774231,0.25341448187828064,2.1729464530944824,5.578306662827291,-0.4169553220272064,-0.005946677643805742,-1.7075727621661585,0.0007603804115206003,0.06530207395553589,0.4290784001350403,0.0,0.04473739489912987,1.1103515625,-0.0017482639523223042,-0.29422861337661743
336.0,466.0,-4.334,0.414,9.0832,-0.0195,-0.0603,-0.1081,-2.107314725915426,-0.000689856125973165,3.985788345336914,-1.672930121421814,0.2545720934867859,2.2177534103393555,5.576601373940267,-0.41648662090301514,-0.0012668212875723839,-1.707580868397848,0.0006647620466537774,0.05994471535086632,0.4290499687194824,0.0,0.037240222096443176,1.1103273630142212,-0.001611041952855885,-0.3273773789405823
336.0,466.0,-4.334,0.414,9.0832,-0.0195,-0.0603,-0.1081,-2.1073790989317835,-0.0007068382110446692,3.9985013008117676,-1.6714222431182861,0.2570766806602478,2.247771978378296,5.5741738555725,-0.425302118062973,-0.005997228901833296,-1.7075770537005823,0.0005350283463485539,0.06423266977071762,0.42909812927246094,0.0,0.04291936382651329,1.110339641571045,-0.00148047658149153,-0.31588199734687805
336.0,466.0,-4.334,0.414,9.0832,-0.0195,-0.0603,-0.1081,-2.1073347530760707,-0.0013600258389487863,4.032773017883301,-1.6698702573776245,0.25545328855514526,2.1692676544189453,5.571634638100424,-0.4102925658226013,-0.009162621572613716,-1.707564655934469,0.0004263320588506758,0.06126093864440918,0.4290621280670166,0.0,0.04072605073451996,1.110315203666687,-0.0025751113425940275,-0.3245065212249756
336.0,466.0,-4.334,0.414,9.0832,-0.0195,-0.0603,-0.1081,-2.1073390446104945,-0.001357518252916634,3.9996399879455566,-1.6688379049301147,0.25750353932380676,2.1858510971069336,5.570013272553243,-0.40073496103286743,0.0008840812370181084,-1.7075451056109827,0.00037548624095506966,0.05886697769165039,0.4290821850299835,0.0,0.03328244388103485,1.110339641571045,-0.0031726041343063116,-0.31688743829727173
336.0,466.0,-4.334,0.414,9.0832,-0.0195,-0.0603,-0.1081,-2.107375284234518,-0.001430109841749072,4.031989097595215,-1.667310357093811,0.26316624879837036,2.1957039833068848,5.5676854131515405,-0.3965380787849426,0.013609608635306358,-1.707564655934469,0.00036319243372417986,0.06438955664634705,0.4291144013404846,0.0,0.038568273186683655,1.1103438138961792,-0.0038859897758811712,-0.34858280420303345
336.0,466.0,-4.334,0.414,9.0832,-0.0195,-0.0603,-0.1081,-2.1074029407896937,-0.002543114125728607,3.966649055480957,-1.6657016277313232,0.2606101930141449,2.241346836090088,5.565313863545217,-0.3796456456184387,0.02457510493695736,-1.7076018492328089,0.0003160617488902062,0.0543559230864048,0.4291021525859833,0.0,0.048470884561538696,1.110339879989624,-0.003451960626989603,-0.2740708589553833
336.0,466.0,-4.334,0.414,9.0832,-0.0195,-0.0603,-0.1081,-2.1073748073973597,-0.0033853640779852867,3.9644906520843506,-1.6647262573242188,0.258724182844162,2.17624568939209,5.563904332905569,-0.37779366970062256,0.030430329963564873,-1.7076213995562952,0.00029054723563604057,0.0745573565363884,0.4290742874145508,0.0,0.03136034682393074,1.1102632284164429,-0.0034812174271792173,-0.2904793620109558
336.0,466.0,-4.334,0.414,9.0832,-0.0195,-0.0603,-0.1081,-2.107419630090231,-0.0035309980157762766,4.003940105438232,-1.6631423234939575,0.2635144889354706,2.1749773025512695,5.561599600106039,-0.35716503858566284,0.03900587558746338,-1.7076175848590296,0.00025916678714565933,0.06727658212184906,0.4291180968284607,0.0,0.03141985088586807,1.1102796792984009,-0.0031222724355757236,-0.25845080614089966
336.0,466.0,-4.334,0.414,9.0832,-0.0195,-0.0603,-0.1081,-2.1074754200377406,-0.0023360587656497955,4.0437116622924805,-1.6615580320358276,0.26953125,2.2042412757873535,5.55948023775176,-0.3463057577610016,0.05503639578819275,-1.707529369984762,0.00023390470596496016,0.058995652943849564,0.4290139675140381,1.1663177446052941e-07,0.022463146597146988,1.11027193069458,-0.0024398607201874256,-0.2783782184123993
336.0,466.0,-4.334,0.414,9.0832,-0.0195,-0.0603,-0.1081,-2.107511659661764,-0.002283958252519369,4.0367631912231445,-1.6604453325271606,0.2667887508869171,2.1838574409484863,5.558116006642141,-0.3338719606399536,0.06218903139233589,-1.7075937430011194,0.00021963301696814597,0.05443792790174484,0.4290499687194824,4.972194878050118e-10,0.033173441886901855,1.1102354526519775,-0.00182513112667948,-0.26592516899108887
336.0,466.0,-4.334,0.414,9.0832,-0.0195,-0.0603,-0.1081,-2.107410570184225,-0.003764307824894786,4.003110885620117,-1.658878207206726,0.260305792093277,2.2020697593688965,5.556250977307119,-0.3239850401878357,0.06141673028469086,-1.7075894514666956,0.0002012170443776995,0.05484314635396004,0.4291059374809265,1.3840287965173614e-13,0.03467791900038719,1.11027193069458,-0.0009830265771597624,-0.24982759356498718
336.0,466.0,-4.334,0.414,9.0832,-0.0195,-0.0603,-0.1081,-2.1074911556639613,-0.004331253934651613,3.956118106842041,-1.6572824716567993,0.26252472400665283,2.2142021656036377,5.55434267499999,-0.31668174266815186,0.07294905185699463,-1.7076132933246058,0.00018565088976174593,0.055075764656066895,0.4291103482246399,3.8524957647812e-17,0.02671077847480774,1.1102476119995117,-0.0005297245224937797,-0.28311049938201904
336.0,466.0,-4.334,0.414,9.0832,-0.0195,-0.0603,-0.1081,-2.107546945611471,-0.004288964439183474,3.9960460662841797,-1.6557388305664062,0.26366034150123596,2.186103343963623,5.552412974625387,-0.2977810204029083,0.08013347536325455,-1.7076132933246058,0.00017232040408998728,0.04680412635207176,0.42903804779052734,1.0723562190995348e-20,0.030820073559880257,1.110308051109314,-0.00046965398360043764,-0.27743643522262573
313.0,457.0,-2.9779,0.5934,9.2441,-0.0072,-0.0745,-0.0954,-2.107551237145895,-0.004707743413746357,4.022918701171875,-1.654634714126587,0.25900721549987793,2.147524356842041,5.551257121353903,-0.2848987281322479,0.09599439799785614,-1.7075532118426722,0.0001644484727876261,0.055300522595644,0.4290420413017273,4.571622495154912e-23,0.027831122279167175,1.1102632284164429,-0.000356485863449052,-0.24910098314285278
313.0,457.0,-2.9779,0.5934,9.2441,-0.0072,-0.0745,-0.0954,-2.107631822625631,-0.005347604397684336,4.016274929046631,-1.6530274152755737,0.25432294607162476,2.1371378898620605,5.5496728895004175,-0.2689078152179718,0.07970314472913742,-1.7076213995562952,0.00015390255430247635,0.05361766368150711,0.4291384220123291,1.2725278580979425e-26,0.041331954300403595,1.1102476119995117,-0.0002204475604230538,-0.2531270682811737
313.0,457.0,-2.9779,0.5934,9.2441,-0.0072,-0.0745,-0.0954,-2.1076113186278285,-0.0050009978003799915,4.044506072998047,-1.6515153646469116,0.258110910654068,2.179562568664551,5.548132169037618,-0.2441219985485077,0.10605961829423904,-1.7075894514666956,0.0001446278183721006,0.04008264094591141,0.4290905296802521,3.5421278478412784e-30,0.03418194502592087,1.1102635860443115,-0.00013854393910150975,-0.2746889591217041
313.0,457.0,-2.9779,0.5934,9.2441,-0.0072,-0.0745,-0.0954,-2.1075946293272914,-0.00477815605700016,4.009009838104248,-1.6505036354064941,0.2565619945526123,2.2029924392700195,5.547183739929952,-0.24486659467220306,0.10183098912239075,-1.7075851599322718,0.00013904168736189604,0.049954675137996674,0.4290742874145508,1.510064581510884e-32,0.03172087296843529,1.1102595329284668,-0.00016248076281044632,-0.26695960760116577
313.0,457.0,-2.9779,0.5934,9.2441,-0.0072,-0.0745,-0.0954,-2.107643266717428,-0.004346097353845835,4.047520637512207,-1.648900032043457,0.24955235421657562,2.1959612369537354,5.5457315919692896,-0.2250198870897293,0.10764183849096298,-1.7076013723956507,0.00013142754323780537,0.0583823099732399,0.4291464686393738,4.2033196274614294e-36,0.057482678443193436,1.110251784324646,-0.00014694061246700585,-0.2556600570678711
313.0,457.0,-2.9779,0.5934,9.2441,-0.0072,-0.0745,-0.0954,-2.107675691644186,-0.0052622240036726,4.050823211669922,-1.6474123001098633,0.24774114787578583,2.1712751388549805,5.544494855194845,-0.20169398188591003,0.12605339288711548,-1.7076013723956507,0.00012460374273359776,0.0457027442753315,0.42905399203300476,1.170009948892613e-39,0.03152989596128464,1.1102393865585327,-0.00010942082008114085,-0.26677072048187256
313.0,457.0,-2.9779,0.5934,9.2441,-0.0072,-0.0745,-0.0954,-2.1076790295042933,-0.005899594631046057,3.9830615520477295,-1.646393060684204,0.24723874032497406,2.1667439937591553,5.543767261296072,-0.19491228461265564,0.11650525033473969,-1.7076213995562952,0.00012043512833770365,0.04712444543838501,0.4290420413017273,4.988622532996349e-42,0.030306275933980942,1.1102635860443115,4.7887606342555955e-05,-0.25728240609169006
313.0,457.0,-2.9779,0.5934,9.2441,-0.0072,-0.0745,-0.0954,-2.1077634296812953,-0.006884334143251181,4.02591609954834,-1.6449085474014282,0.24441711604595184,2.154965400695801,5.5426392433936975,-0.1746091991662979,0.13304978609085083,-1.7076056639300745,0.00011468036973383278,0.05238248407840729,0.4290662407875061,1.401298464324817e-45,0.03208203241229057,1.1102677583694458,3.115716026513837e-05,-0.22959357500076294
313.0,457.0,-2.9779,0.5934,9.2441,-0.0072,-0.0745,-0.0954,-2.107779165307516,-0.00735719408839941,4.013230323791504,-1.6434929370880127,0.2434912621974945,2.15338134765625,5.541682767658987,-0.14067573845386505,0.14293748140335083,-1.7076094786273401,0.0001094503968488425,0.05906374379992485,0.4290541112422943,0.0,0.034145377576351166,1.1102837324142456,1.2920297365326405e-07,-0.2598499059677124
313.0,457.0,-2.9779,0.5934,9.2441,-0.0072,-0.0745,-0.0954,-2.1078559360899867,-0.008456110022962093,3.986478805541992,-1.642593502998352,0.24031756818294525,2.183875799179077,5.541130649834432,-0.1338740438222885,0.1642405092716217,-1.7075894514666956,0.0001062209703377448,0.07032431662082672,0.42908617854118347,0.0,0.024455120787024498,1.1103118658065796,2.3256079353939363e-11,-0.237114816904068
313.0,457.0,-2.9779,0.5934,9.2441,-0.0072,-0.0745,-0.0954,-2.1078835926451625,-0.00996209867298603,4.002682685852051,-1.6411535739898682,0.23756510019302368,2.1837258338928223,5.540350246220388,-0.13017357885837555,0.143503800034523,-1.7075770537005823,0.00010171894973609596,0.05277758091688156,0.4290821850299835,0.0,0.03219372034072876,1.1103037595748901,5.616069315290387e-17,-0.30087894201278687
313.0,457.0,-2.9779,0.5934,9.2441,-0.0072,-0.0745,-0.0954,-2.1079398594298304,-0.012238450348377228,3.9930436611175537,-1.639758825302124,0.23597915470600128,2.167081832885742,5.53966652134017,-0.10874564945697784,0.15297648310661316,-1.707580868397848,6.587154348380864e-05,0.06057821959257126,0.4290342628955841,0.0,0.01935424655675888,1.1102718114852905,1.356214590748012e-22,-0.2860771715641022
313.0,457.0,-2.9779,0.5934,9.2441,-0.0072,-0.0745,-0.0954,-2.1080028019347132,-0.014734750613570213,3.9971516132354736,-1.6383023262023926,0.2296503782272339,2.171940803527832,5.539033758431234,-0.07791219651699066,0.17771819233894348,-1.7075727621661585,7.551222370238975e-05,0.05447129160165787,0.42908620834350586,0.0,0.03941674530506134,1.1102755069732666,3.2750985186926666e-28,-0.3296995162963867
313.0,457.0,-2.9779,0.5934,9.2441,-0.0072,-0.0745,-0.0954,-2.10807528118276,-0.016040658578276634,3.9718401432037354,-1.637410283088684,0.2313239574432373,2.1772592067718506,5.538802075176992,-0.05361802503466606,0.17616261541843414,-1.7075937430011194,8.555276872357354e-05,0.05635831505060196,0.4290900230407715,0.0,0.04071278125047684,1.1102595329284668,5.895061263829967e-32,-0.2870185673236847
313.0,457.0,-2.9779,0.5934,9.2441,-0.0072,-0.0745,-0.0954,-2.1081754169859828,-0.016612118110060692,3.9636731147766113,-1.636059284210205,0.22975005209445953,2.167823553085327,5.538626658707418,-0.020731203258037567,0.18857139348983765,-1.7075656096087855,0.0004318738356232643,0.06738660484552383,0.4291180968284607,0.0,0.027811555191874504,1.1102795600891113,1.4235879661138762e-37,-0.31085076928138733
