ramyac6/ROB537/final_project/csv/bad/bad_145.csv
tof_0,tof_1,accelx,accely,accelz,gyrox,gyroy,gyroz,shoulder_lift_joint_position,shoulder_lift_joint_velocity,shoulder_lift_joint_effort,elbow_joint_position,elbow_joint_velocity,elbow_joint_effort,wrist_1_joint_position,wrist_1_joint_velocity,wrist_1_joint_effort,wrist_2_joint_position,wrist_2_joint_velocity,wrist_2_joint_effort,wrist_3_joint_position,wrist_3_joint_velocity,wrist_3_joint_effort,shoulder_pan_joint_position,shoulder_pan_joint_velocity,shoulder_pan_joint_effort
822.0,1114.0,-0.5121,0.1932,9.6503,-0.0447,0.0247,-0.1159,-1.5324524354985734,0.0,1.5840961933135986,-2.3159146308898926,-0.0,1.7279040813446045,5.356760072499075,-0.0,0.2638814449310303,-1.5969818274127405,0.0,-0.01935354247689247,0.7840731143951416,0.0,8.748320396989584e-05,0.7774819731712341,0.0,-0.012236621230840683
822.0,1114.0,-0.5121,0.1932,9.6503,-0.0447,0.0247,-0.1159,-1.532420353298523,0.0,1.5351213216781616,-2.3159313201904297,-0.0,1.7276356220245361,5.356747793942251,-0.0,0.2753138840198517,-1.5969694296466272,0.0,-0.0054487502202391624,0.7840572595596313,0.0,-0.008485606871545315,0.7774539589881897,0.0,-0.014975268393754959
822.0,1114.0,-0.5121,0.1932,9.6503,-0.0447,0.0247,-0.1159,-1.5324483972838898,0.0,1.558046817779541,-2.315906524658203,-0.0,1.709428071975708,5.3567519066627405,-0.0,0.27704307436943054,-1.596945587788717,0.0,-0.009845453314483166,0.7840611934661865,0.0,0.001655147410929203,0.7774819731712341,0.0,0.05471090227365494
822.0,1114.0,-0.5121,0.1932,9.6503,-0.0447,0.0247,-0.1159,-1.5324604374221344,0.0,1.5737671852111816,-2.3159477710723877,-0.0,1.707590937614441,5.356731819897451,-0.0,0.2760430574417114,-1.5970061461078089,0.0,-0.0009839306585490704,0.7840295433998108,0.0,0.005882514640688896,0.7774658799171448,0.0,-0.022902023047208786
822.0,1114.0,-0.5121,0.1932,9.6503,-0.0447,0.0247,-0.1159,-1.5324081492475052,0.0,1.5390279293060303,-2.315927028656006,-0.0,1.7541704177856445,5.356735932617941,-0.0,0.2775232195854187,-1.5969694296466272,0.0,-0.00226528849452734,0.7840889096260071,0.0,-0.004053502809256315,0.7774457931518555,0.0,-0.008365651592612267
822.0,1114.0,-0.5121,0.1932,9.6503,-0.0447,0.0247,-0.1159,-1.532472477560379,0.0,1.5587483644485474,-2.315943479537964,-0.0,1.7745261192321777,5.356808352261343,-0.0,0.2752629220485687,-1.5969775358783167,0.0,0.0043235220946371555,0.7840533256530762,0.0,-0.0070533971302211285,0.7774013876914978,0.0,-0.051415711641311646
822.0,1114.0,-0.5121,0.1932,9.6503,-0.0447,0.0247,-0.1159,-1.532476556753256,0.0,1.5542237758636475,-2.3159031867980957,-0.0,1.7271850109100342,5.3567800400550745,-0.0,0.2740434408187866,-1.5970099608050745,0.0,-0.012150119990110397,0.7840892672538757,0.0,-0.008265973068773746,0.7774258852005005,0.0,0.015407061204314232
814.0,1103.0,-0.5294,0.2357,9.5845,-0.0397,0.0124,-0.1168,-1.532428191309311,0.0,1.511332631111145,-2.315906286239624,-0.0,1.7244294881820679,5.356735873013296,-0.0,0.2870938777923584,-1.5970061461078089,0.0,-0.005669127218425274,0.7840893268585205,0.0,0.008468648418784142,0.7774457931518555,0.0,-0.012576661072671413
814.0,1103.0,-0.5294,0.2357,9.5845,-0.0397,0.0124,-0.1168,-1.5324443143657227,0.0,1.550840139389038,-2.315922975540161,-0.0,1.705439567565918,5.356747734337606,-0.0,0.2727963924407959,-1.59698993364443,0.0,-0.00707376841455698,0.7840612530708313,0.0,0.007256648503243923,0.7774177193641663,0.0,0.029732178896665573
814.0,1103.0,-0.5294,0.2357,9.5845,-0.0397,0.0124,-0.1168,-1.532468558554985,0.0,1.5704525709152222,-2.3159704208374023,-0.0,1.7073557376861572,5.3567882654960535,-0.0,0.27705585956573486,-1.5969980398761194,0.0,0.002094704657793045,0.7840532660484314,0.0,0.003876820672303438,0.7774580121040344,0.0,-0.014233671128749847
814.0,1103.0,-0.5294,0.2357,9.5845,-0.0397,0.0124,-0.1168,-1.5324122060886403,0.0,1.542082667350769,-2.3159310817718506,-0.0,1.780288577079773,5.35676001289443,-0.0,0.2835359275341034,-1.5969694296466272,0.0,-0.003526760498061776,0.7841091156005859,0.0,-0.0008839036454446614,0.7774375677108765,0.0,0.04391876980662346
814.0,1103.0,-0.5294,0.2357,9.5845,-0.0397,0.0124,-0.1168,-1.5324484047344704,0.0,1.5164930820465088,-2.3159704208374023,-0.0,1.7112343311309814,5.3568163988883875,-0.0,0.274901807308197,-1.5970061461078089,0.0,-0.011103387922048569,0.7840414047241211,0.0,-0.005494256503880024,0.7774576544761658,0.0,0.00923757441341877
814.0,1103.0,-0.5294,0.2357,9.5845,-0.0397,0.0124,-0.1168,-1.5323801462403317,0.0,1.5408867597579956,-2.3159310817718506,-0.0,1.729947805404663,5.35676788070754,-0.0,0.2776740789413452,-1.5969536940204065,0.0,-0.00482215778902173,0.784065306186676,0.0,-0.015230149030685425,0.7774336338043213,0.0,0.0009036492556333542
814.0,1103.0,-0.5294,0.2357,9.5845,-0.0397,0.0124,-0.1168,-1.5324524354985734,0.0,1.5289275646209717,-2.3159427642822266,-0.0,1.7002688646316528,5.356743621617117,-0.0,0.2736387252807617,-1.5969775358783167,0.0,-0.002820165129378438,0.7840015292167664,0.0,-0.007808205671608448,0.7774741053581238,0.0,-0.014636211097240448
814.0,1103.0,-0.5294,0.2357,9.5845,-0.0397,0.0124,-0.1168,-1.5324485202184697,0.0,1.5605106353759766,-2.315922975540161,-0.0,1.710387110710144,5.356755959778585,-0.0,0.2845859229564667,-1.596973721181051,0.0,-0.015413220040500164,0.7840973138809204,0.0,-0.007596656214445829,0.7774576544761658,0.0,-0.08467690646648407
814.0,1103.0,-0.5294,0.2357,9.5845,-0.0397,0.0124,-0.1168,-1.5324443143657227,0.0,1.556157112121582,-2.315967082977295,-0.0,1.7218908071517944,5.356808352261343,-0.0,0.27815696597099304,-1.5970175901996058,0.0,-0.011238984763622284,0.7840256094932556,0.0,0.0055101243779063225,0.7774580121040344,0.0,-0.019952375441789627
814.0,1103.0,-0.5294,0.2357,9.5845,-0.0397,0.0124,-0.1168,-1.5324361522546788,0.0,1.5843360424041748,-2.3159663677215576,-0.0,1.713136911392212,5.356792378216543,-0.0,0.27010515332221985,-1.597001854573385,0.0,-0.00854554958641529,0.7839974761009216,0.0,-0.01103921327739954,0.7774782180786133,0.0,0.03189165145158768
814.0,1103.0,-0.5294,0.2357,9.5845,-0.0397,0.0124,-0.1168,-1.5323880215040226,0.0,1.5758085250854492,-2.315910577774048,-0.0,1.7135655879974365,5.356735873013296,-0.0,0.2824063301086426,-1.596961800252096,0.0,-0.007869582623243332,0.7840611934661865,0.0,-0.0002865428104996681,0.7774861454963684,0.0,0.04094545543193817
814.0,1103.0,-0.5294,0.2357,9.5845,-0.0397,0.0124,-0.1168,-1.532420353298523,0.0,1.5434951782226562,-2.3158950805664062,-0.0,1.732389211654663,5.356743621617117,-0.0,0.2702987790107727,-1.5969412962542933,0.0,-0.009055939503014088,0.7840494513511658,0.0,-0.007415000349283218,0.7774982452392578,0.0,-0.023223109543323517
814.0,1103.0,-0.5294,0.2357,9.5845,-0.0397,0.0124,-0.1168,-1.532448374932148,0.0,1.5888433456420898,-2.3159704208374023,-0.0,1.7058502435684204,5.3568001864250085,-0.0,0.27329111099243164,-1.597001854573385,0.0,-0.011087127961218357,0.784049391746521,0.0,-0.0032240073196589947,0.7774658203125,0.0,0.010196695104241371
814.0,1103.0,-0.5294,0.2357,9.5845,-0.0397,0.0124,-0.1168,-1.5324402314475556,0.0,1.53733491897583,-2.315943479537964,-0.0,1.72105073928833,5.3567760465438745,-0.0,0.28052929043769836,-1.5970142523394983,0.0,-0.009261389262974262,0.7840176820755005,0.0,-0.007898004725575447,0.7774336934089661,0.0,-0.025017149746418
812.0,1118.0,-0.5791,0.192,9.5988,-0.0431,0.0171,-0.1109,-1.5324443143657227,0.0,1.5456417798995972,-2.31593918800354,-0.0,1.751643419265747,5.356743621617117,-0.0,0.27963390946388245,-1.5969942251788538,0.0,-0.010222776792943478,0.7840932011604309,0.0,-0.00031453464180231094,0.7774539589881897,0.0,0.014417219907045364
812.0,1118.0,-0.5791,0.192,9.5988,-0.0431,0.0171,-0.1109,-1.5324563545039673,0.0,1.5418777465820312,-2.315967321395874,-0.0,1.7342993021011353,5.356731700688162,-0.0,0.27539899945259094,-1.5969622770892542,0.0,-0.008455588482320309,0.7840335369110107,0.0,0.01564268209040165,0.777441680431366,0.0,0.041337527334690094
812.0,1118.0,-0.5791,0.192,9.5988,-0.0431,0.0171,-0.1109,-1.532436316167452,0.0,1.5502383708953857,-2.3159313201904297,-0.0,1.7659413814544678,5.3567243097122095,-0.0,0.2873072624206543,-1.5970142523394983,0.0,0.0008871541358530521,0.7840731143951416,0.0,0.0013081650249660015,0.7774457931518555,0.0,0.08573295921087265
812.0,1118.0,-0.5791,0.192,9.5988,-0.0431,0.0171,-0.1109,-1.532436316167452,0.0,1.5413579940795898,-2.3159589767456055,-0.0,1.7208991050720215,5.356796014099874,-0.0,0.2813248932361603,-1.5970218817340296,0.0,-0.01132478378713131,0.7840335369110107,0.0,0.0034109028056263924,0.7774539589881897,0.0,-0.011280687525868416
812.0,1118.0,-0.5791,0.192,9.5988,-0.0431,0.0171,-0.1109,-1.5324042302421113,0.0,1.5221444368362427,-2.3159022331237793,-0.0,1.7219151258468628,5.3567519066627405,-0.0,0.2825184166431427,-1.596961800252096,0.0,-0.0008629537187516689,0.7840374708175659,0.0,-0.00013717211550101638,0.7774617671966553,0.0,0.0009854920208454132
812.0,1118.0,-0.5791,0.192,9.5988,-0.0431,0.0171,-0.1109,-1.5324524354985734,0.0,1.5730364322662354,-2.3159353733062744,-0.0,1.7198686599731445,5.356792378216543,-0.0,0.2755028307437897,-1.5970023314105433,0.0,-0.012426993809640408,0.7840652465820312,0.0,0.014207960106432438,0.7774378061294556,0.0,-0.00618217047303915
812.0,1118.0,-0.5791,0.192,9.5988,-0.0431,0.0171,-0.1109,-1.5324443143657227,0.0,1.5410157442092896,-2.316011667251587,-0.0,1.721595048904419,5.356763708382406,-0.0,0.27983883023262024,-1.5969942251788538,0.0,-0.010177362710237503,0.7840492129325867,0.0,-0.003348601283505559,0.7774819731712341,0.0,-0.041126031428575516
812.0,1118.0,-0.5791,0.192,9.5988,-0.0431,0.0171,-0.1109,-1.532428191309311,0.0,1.5488662719726562,-2.3159632682800293,-0.0,1.7286975383758545,5.3567882654960535,-0.0,0.2840527594089508,-1.597001854573385,0.0,-0.0066400375217199326,0.7840932011604309,0.0,0.008543501608073711,0.7774617671966553,0.0,0.04296930879354477
812.0,1118.0,-0.5791,0.192,9.5988,-0.0431,0.0171,-0.1109,-1.5324482333711167,0.0,1.5412653684616089,-2.3158867359161377,-0.0,1.684306025505066,5.356771933823385,-0.0,0.28297901153564453,-1.5969980398761194,0.0,-0.016502149403095245,0.784101665019989,0.0,0.004600229673087597,0.7774539589881897,0.0,0.006137283984571695
812.0,1118.0,-0.5791,0.192,9.5988,-0.0431,0.0171,-0.1109,-1.5324282136610528,0.0,1.5596390962600708,-2.3159589767456055,-0.0,1.7291851043701172,5.356784212380209,-0.0,0.28330904245376587,-1.5969694296466272,0.0,-0.019072262570261955,0.7840815782546997,0.0,-0.002591378754004836,0.7774336934089661,0.0,-0.011847718618810177
812.0,1118.0,-0.5791,0.192,9.5988,-0.0431,0.0171,-0.1109,-1.5325006444803257,0.0,1.5783852338790894,-2.315875291824341,-0.0,1.712608814239502,5.356784212380209,-0.0,0.2820011079311371,-1.5969775358783167,0.0,-0.008119378238916397,0.7840938568115234,0.0,0.005765212699770927,0.7774336934089661,0.0,-0.005044827237725258
812.0,1118.0,-0.5791,0.192,9.5988,-0.0431,0.0171,-0.1109,-1.5324442994645615,0.0,1.5585402250289917,-2.315906286239624,-0.0,1.7523584365844727,5.35674403884963,-0.0,0.28430789709091187,-1.5969856421100062,0.0,-0.009705337695777416,0.7839927673339844,0.0,0.00037768948823213577,0.7774498462677002,0.0,-0.018153473734855652
812.0,1118.0,-0.5791,0.192,9.5988,-0.0431,0.0171,-0.1109,-1.532428191309311,0.0,1.5646312236785889,-2.31587553024292,-0.0,1.7203396558761597,5.35676788070754,-0.0,0.28911978006362915,-1.59698993364443,0.0,-0.006465485319495201,0.7840611338615417,0.0,0.004413484595716,0.7774418592453003,0.0,0.048180460929870605
812.0,1118.0,-0.5791,0.192,9.5988,-0.0431,0.0171,-0.1109,-1.5324402314475556,0.0,1.5286089181900024,-2.315887689590454,-0.0,1.71026611328125,5.356739985733785,-0.0,0.28142812848091125,-1.5969980398761194,0.0,-0.009933209978044033,0.7840533256530762,0.0,-0.0066509428434073925,0.7774013876914978,0.0,0.004631136078387499
843.0,8190.0,-0.5246,0.2387,9.5055,-0.0342,0.02,-0.121,-1.532420353298523,0.0,1.5485913753509521,-2.315939426422119,-0.0,1.6525170803070068,5.3567359922225855,-0.0,0.28525665402412415,-1.5969775358783167,0.0,-0.013010887429118156,0.7840529680252075,0.0,-0.007523451931774616,0.7774177193641663,0.0,-0.05717243254184723
843.0,8190.0,-0.5246,0.2387,9.5055,-0.0342,0.02,-0.121,-1.532420029198267,0.0,1.5660805702209473,-2.3159589767456055,-0.0,1.713855266571045,5.356784212380209,-0.0,0.2846306264400482,-1.5969942251788538,0.0,-0.020618289709091187,0.7840009331703186,0.0,0.00232113990932703,0.7774460315704346,0.0,0.007299396209418774
843.0,8190.0,-0.5246,0.2387,9.5055,-0.0342,0.02,-0.121,-1.5324122321656723,0.0,1.5645833015441895,-2.315894842147827,-0.0,1.7423542737960815,5.356739926129141,-0.0,0.2878129184246063,-1.597018067036764,0.0,-0.013736089691519737,0.7840492725372314,0.0,-0.003695262596011162,0.7774177193641663,0.0,0.02965417690575123
843.0,8190.0,-0.5246,0.2387,9.5055,-0.0342,0.02,-0.121,-1.5323961091092606,0.0,1.5137908458709717,-2.315939426422119,-0.0,1.7381978034973145,5.356747734337606,-0.0,0.2722918391227722,-1.5969942251788538,0.0,-0.006341167259961367,0.784029483795166,0.0,0.0015708727296441793,0.7774336934089661,0.0,0.006641596555709839
843.0,8190.0,-0.5246,0.2387,9.5055,-0.0342,0.02,-0.121,-1.532428191309311,0.0,1.5734542608261108,-2.315906286239624,-0.0,1.676350712776184,5.356763708382406,-0.0,0.27829182147979736,-1.5969980398761194,0.0,-0.019005415961146355,0.7840290665626526,0.0,-0.006728855427354574,0.7774539589881897,0.0,-0.021871864795684814
843.0,8190.0,-0.5246,0.2387,9.5055,-0.0342,0.02,-0.121,-1.532428191309311,0.0,1.5489603281021118,-2.3159472942352295,-0.0,1.7113971710205078,5.356760072499075,-0.0,0.2739998400211334,-1.5970061461078089,0.0,-0.015690812841057777,0.7840049266815186,0.0,0.004529703874140978,0.7774218320846558,0.0,0.014167104847729206
843.0,8190.0,-0.5246,0.2387,9.5055,-0.0342,0.02,-0.121,-1.5324402351728459,0.0,1.5484750270843506,-2.315943479537964,-0.0,1.7020477056503296,5.356784212380209,-0.0,0.2665303945541382,-1.5970099608050745,0.0,0.00033353400067426264,0.7840816378593445,0.0,-0.0002901391126215458,0.7774013876914978,0.0,0.007955947890877724
843.0,8190.0,-0.5246,0.2387,9.5055,-0.0342,0.02,-0.121,-1.5324483972838898,0.0,1.5413942337036133,-2.3159148693084717,-0.0,1.7296133041381836,5.356760072499075,-0.0,0.29149091243743896,-1.5970061461078089,0.0,-0.0058110360987484455,0.7840172648429871,0.0,0.01208741869777441,0.7774457931518555,0.0,-0.021778708323836327
843.0,8190.0,-0.5246,0.2387,9.5055,-0.0342,0.02,-0.121,-1.532436316167452,0.0,1.5803439617156982,-2.315922975540161,-0.0,1.7439539432525635,5.356735932617941,-0.0,0.28431716561317444,-1.597001854573385,0.0,-0.006642115768045187,0.784065306186676,0.0,0.004720442462712526,0.7774498462677002,0.0,-0.052112407982349396
843.0,8190.0,-0.5246,0.2387,9.5055,-0.0342,0.02,-0.121,-1.5324361522546788,0.0,1.6140329837799072,-2.315939426422119,-0.0,1.7471100091934204,5.356804239540853,-0.0,0.2778643071651459,-1.597029987965719,0.0,-0.014563905075192451,0.7840937972068787,0.0,-0.0029286544304341078,0.7774580121040344,0.0,0.024901334196329117
843.0,8190.0,-0.5246,0.2387,9.5055,-0.0342,0.02,-0.121,-1.5324403953603287,0.0,1.553938388824463,-2.3159430027008057,-0.0,1.7076681852340698,5.356747674732961,-0.0,0.27152660489082336,-1.5970218817340296,0.0,-0.011729788966476917,0.7840893864631653,0.0,0.004876069724559784,0.7774296402931213,5.44914691147369e-08,-0.026856202632188797
843.0,8190.0,-0.5246,0.2387,9.5055,-0.0342,0.02,-0.121,-1.5324483972838898,0.0,1.5630385875701904,-2.3159031867980957,-0.0,1.6869726181030273,5.356796073704519,-0.0,0.273301899433136,-1.5969856421100062,0.0,-0.016844186931848526,0.7840815782546997,0.0,-0.013303542509675026,0.7774460315704346,1.3159049858883082e-13,0.021058663725852966
843.0,8190.0,-0.5246,0.2387,9.5055,-0.0342,0.02,-0.121,-1.5324646432748814,0.0,1.5737848281860352,-2.3159782886505127,-0.0,1.677583932876587,5.356759714871206,-0.0,0.27985185384750366,-1.5970142523394983,0.0,-0.002659866353496909,0.7840533256530762,0.0,-0.003848663065582514,0.7774457931518555,3.1777559778023555e-19,0.0005790254799649119
843.0,8190.0,-0.5246,0.2387,9.5055,-0.0342,0.02,-0.121,-1.532436316167452,0.0,1.543254017829895,-2.3159186840057373,-0.0,1.7418736219406128,5.356820273190298,-0.0,0.2825682461261749,-1.5969937483416956,0.0,-0.013995863497257233,0.7840090394020081,0.0,0.008712164126336575,0.7774300575256348,7.673906258750313e-25,-0.0034182267263531685
864.0,8190.0,-0.5916,0.1358,9.6467,-0.0336,0.0318,-0.1176,-1.5324122321656723,0.0,1.5512440204620361,-2.315910577774048,1.810054044426579e-07,1.7334132194519043,5.356796014099874,-0.0,0.29316338896751404,-1.59698993364443,0.0,-0.009213604032993317,0.7840574383735657,0.0,0.004724573343992233,0.7774580121040344,2.4862478407427046e-32,0.007792321033775806
864.0,8190.0,-0.5916,0.1358,9.6467,-0.0336,0.0318,-0.1176,-1.5323961091092606,0.0,1.5827475786209106,-2.3158676624298096,4.3710673101882147e-13,1.7258532047271729,5.3568001864250085,-0.0,0.2778517007827759,-1.5969775358783167,0.0,-0.008871127851307392,0.7841020822525024,0.0,0.006931848358362913,0.7774258852005005,6.003995552974711e-38,-0.03257862851023674
864.0,8190.0,-0.5916,0.1358,9.6467,-0.0336,0.0318,-0.1176,-1.5324284744313736,0.0,1.5637612342834473,-2.3159310817718506,1.055561250571009e-18,1.7491745948791504,5.356759655266561,-0.0,0.2841218113899231,-1.5970385710345667,0.0,-0.006937370635569096,0.7840533256530762,0.0,-0.0026448366697877645,0.7774300575256348,1.4433374182545616e-43,0.005491848103702068
864.0,8190.0,-0.5916,0.1358,9.6467,-0.0336,0.0318,-0.1176,-1.532448386108019,0.0,1.526897668838501,-2.3159310817718506,2.549056301017197e-24,1.7204900979995728,5.356735873013296,-0.0,0.2801973819732666,-1.5970099608050745,0.0,-0.00799152534455061,0.784105658531189,0.0,-0.005492874421179295,0.7774539589881897,0.0,0.03385546803474426
864.0,8190.0,-0.5916,0.1358,9.6467,-0.0336,0.0318,-0.1176,-1.5324163299850007,0.0,1.5538172721862793,-2.315943479537964,8.258619526567885e-32,1.7390903234481812,5.35676400640563,-0.0,0.2853374481201172,-1.5969613234149378,0.0,-0.006804669741541147,0.7840049862861633,0.0,-0.0042173657566308975,0.7774336934089661,0.0,-0.013682331889867783
864.0,8190.0,-0.5916,0.1358,9.6467,-0.0336,0.0318,-0.1176,-1.532440212821104,0.0,1.5225439071655273,-2.3159353733062744,1.9943591393049262e-37,1.6997218132019043,5.356735873013296,-0.0,0.28677278757095337,-1.5969694296466272,0.0,-0.01229888666421175,0.7840897440910339,0.0,0.005979727953672409,0.7774336934089661,0.0,-0.001242050901055336
864.0,8190.0,-0.5916,0.1358,9.6467,-0.0336,0.0318,-0.1176,-1.5324565184167405,0.0,1.5428597927093506,-2.3159353733062744,4.820466717277371e-43,1.717494010925293,5.356796371727743,-0.0,0.27338120341300964,-1.5970099608050745,0.0,-0.010472690686583519,0.78409343957901,0.0,0.00015610456466674805,0.7774658203125,0.0,0.02236468531191349
864.0,8190.0,-0.5916,0.1358,9.6467,-0.0336,0.0318,-0.1176,-1.5324241121164341,0.0,1.5328606367111206,-2.315939426422119,-0.0,1.7642818689346313,5.356784212380209,-0.0,0.28196096420288086,-1.5970428625689905,0.0,-0.0023815419990569353,0.7840533256530762,0.0,0.008624299429357052,0.7774378657341003,0.0,-0.02051885798573494
864.0,8190.0,-0.5916,0.1358,9.6467,-0.0336,0.0318,-0.1176,-1.5324361522546788,0.0,1.5677199363708496,-2.3158912658691406,-0.0,1.707055687904358,5.356763708382406,-0.0,0.27563849091529846,-1.5969942251788538,0.0,-0.00036832757177762687,0.7840089797973633,0.0,-0.003705068491399288,0.7773931622505188,0.0,-0.008166482672095299
864.0,8190.0,-0.5916,0.1358,9.6467,-0.0336,0.0318,-0.1176,-1.532420029198267,0.0,1.562906265258789,-2.3159146308898926,-0.0,1.6916016340255737,5.35672019699172,-0.0,0.2791275084018707,-1.596957031880514,0.0,-0.016459444537758827,0.7840533256530762,0.0,-0.016041703522205353,0.7774336934089661,0.0,0.011517648585140705
864.0,8190.0,-0.5916,0.1358,9.6467,-0.0336,0.0318,-0.1176,-1.5324482333711167,0.0,1.499563455581665,-2.315906286239624,-0.0,1.7217457294464111,5.3567243097122095,-0.0,0.27846765518188477,-1.5970023314105433,0.0,0.0053647225722670555,0.7840691804885864,0.0,0.003785428125411272,0.7774457931518555,0.0,-0.015076909214258194
864.0,8190.0,-0.5916,0.1358,9.6467,-0.0336,0.0318,-0.1176,-1.5324604374221344,0.0,1.5096206665039062,-2.315939426422119,-0.0,1.7145066261291504,5.356792378216543,-0.0,0.28288283944129944,-1.5969536940204065,0.0,-0.022308826446533203,0.7840213775634766,0.0,0.0042424798011779785,0.7774378061294556,0.0,-0.030263038352131844
864.0,8190.0,-0.5916,0.1358,9.6467,-0.0336,0.0318,-0.1176,-1.532420379375555,0.0,1.5913165807724,-2.315943479537964,-0.0,1.7213257551193237,5.3567800400550745,-0.0,0.2797526717185974,-1.5969813505755823,0.0,-0.017497576773166656,0.7840573787689209,0.0,0.014330454170703888,0.7774172425270081,0.0,-0.02359492890536785
864.0,8190.0,-0.5916,0.1358,9.6467,-0.0336,0.0318,-0.1176,-1.5324483972838898,0.0,1.5206103324890137,-2.315943479537964,-0.0,1.7312648296356201,5.35676001289443,-0.0,0.28425833582878113,-1.5970099608050745,0.0,-0.012266507372260094,0.7840533256530762,0.0,-0.014251591637730598,0.7774094939231873,0.0,-0.012625955045223236
808.0,1082.0,-0.469,0.2363,9.6485,-0.0403,0.0208,-0.1156,-1.5325006444803257,0.0,1.5776551961898804,-2.315927028656006,-0.0,1.7109248638153076,5.3567800400550745,-0.0,0.2857975363731384,-1.59698993364443,0.0,-0.004876692313700914,0.7840336561203003,0.0,-0.0064890822395682335,0.7774094939231873,0.0,-0.011297602206468582
808.0,1082.0,-0.469,0.2363,9.6485,-0.0403,0.0208,-0.1156,-1.5324040663293381,0.0,1.544994592666626,-2.3158838748931885,-0.0,1.7440330982208252,5.3567519066627405,-0.0,0.2684522271156311,-1.59698993364443,0.0,0.0018735440680757165,0.7840492725372314,0.0,-0.010640810243785381,0.7774658203125,0.0,0.06484716385602951
808.0,1082.0,-0.469,0.2363,9.6485,-0.0403,0.0208,-0.1156,-1.532420353298523,0.0,1.5103013515472412,-2.3159232139587402,-0.0,1.7362957000732422,5.356771933823385,-0.0,0.2913149893283844,-1.5969818274127405,0.0,-0.000542985275387764,0.7840454578399658,0.0,-0.007458932232111692,0.7774498462677002,0.0,0.008815891109406948
808.0,1082.0,-0.469,0.2363,9.6485,-0.0403,0.0208,-0.1156,-1.5324322667768975,0.0,1.566847324371338,-2.315887451171875,-0.0,1.6862616539001465,5.3567800400550745,-0.0,0.2888169288635254,-1.5969694296466272,0.0,-0.006835456937551498,0.7840492725372314,0.0,-0.005195009987801313,0.7774296402931213,0.0,0.05919408053159714
808.0,1082.0,-0.469,0.2363,9.6485,-0.0403,0.0208,-0.1156,-1.532468532477953,0.0,1.5662801265716553,-2.3159549236297607,-0.0,1.6885502338409424,5.356747734337606,-0.0,0.2711212635040283,-1.5970061461078089,0.0,0.0001172542106360197,0.7840893268585205,0.0,-0.0021822433918714523,0.7774577140808105,0.0,-0.02538955770432949
808.0,1082.0,-0.469,0.2363,9.6485,-0.0403,0.0208,-0.1156,-1.5324122545174141,0.0,1.5499531030654907,-2.3159310817718506,-0.0,1.736142635345459,5.356743621617117,-0.0,0.27501797676086426,-1.5969942251788538,0.0,-0.007438848726451397,0.7840693593025208,0.0,-0.0004977101925760508,0.7774296402931213,0.0,-0.01974702998995781
808.0,1082.0,-0.469,0.2363,9.6485,-0.0403,0.0208,-0.1156,-1.5324203458479424,0.0,1.5701910257339478,-2.315910577774048,-0.0,1.7211153507232666,5.356739985733785,-0.0,0.26522406935691833,-1.5969980398761194,0.0,-0.011195983737707138,0.7840816378593445,0.0,0.0008554738014936447,0.7774580121040344,0.0,-0.028909960761666298
808.0,1082.0,-0.469,0.2363,9.6485,-0.0403,0.0208,-0.1156,-1.532436316167452,0.0,1.588463306427002,-2.315910577774048,-0.0,1.7119746208190918,5.356784212380209,-0.0,0.28364619612693787,-1.597001854573385,0.0,-0.009856345131993294,0.7840454578399658,0.0,-0.004983101971447468,0.7775022983551025,0.0,0.0006612981669604778
808.0,1082.0,-0.469,0.2363,9.6485,-0.0403,0.0208,-0.1156,-1.5324443143657227,0.0,1.5681746006011963,-2.3159191608428955,-0.0,1.6790645122528076,5.356796371727743,-0.0,0.2809910774230957,-1.5969579855548304,0.0,-0.0008106979075819254,0.7840414047241211,0.0,-0.015767432749271393,0.7774662971496582,0.0,-0.019035734236240387
808.0,1082.0,-0.469,0.2363,9.6485,-0.0403,0.0208,-0.1156,-1.5324244362166901,0.0,1.5476723909378052,-2.3159353733062744,-0.0,1.7285566329956055,5.356747734337606,-0.0,0.27538931369781494,-1.5969942251788538,0.0,-0.0010782903991639614,0.7840332388877869,0.0,-7.855286821722984e-05,0.7774539589881897,0.0,0.00273086572997272
808.0,1082.0,-0.469,0.2363,9.6485,-0.0403,0.0208,-0.1156,-1.532468420719244,0.0,1.575080156326294,-2.3160109519958496,-0.0,1.7210040092468262,5.356792378216543,-0.0,0.2813141942024231,-1.5970061461078089,0.0,-0.003116978332400322,0.7840409874916077,0.0,-0.010297359898686409,0.7774336338043213,0.0,-0.025637943297624588
808.0,1082.0,-0.469,0.2363,9.6485,-0.0403,0.0208,-0.1156,-1.5324243915132065,0.0,1.5162150859832764,-2.3159663677215576,-0.0,1.7048046588897705,5.35676788070754,-0.0,0.29441168904304504,-1.5970061461078089,0.0,-0.00445453729480505,0.7840774655342102,0.0,0.006911590229719877,0.7774255275726318,0.0,-0.019930386915802956
808.0,1082.0,-0.469,0.2363,9.6485,-0.0403,0.0208,-0.1156,-1.5324483823827286,0.0,1.5298089981079102,-2.3159353733062744,-0.0,1.7237660884857178,5.356771933823385,-0.0,0.27561718225479126,-1.597001854573385,0.0,-0.003720540087670088,0.7841256856918335,0.0,-0.0013526901602745056,0.777449905872345,0.0,0.004269791767001152
808.0,1082.0,-0.469,0.2363,9.6485,-0.0403,0.0208,-0.1156,-1.5324321028641243,0.0,1.5138769149780273,-2.3159351348876953,-0.0,1.7116254568099976,5.356735873013296,-0.0,0.28438830375671387,-1.597001854573385,0.0,-0.019970670342445374,0.7840652465820312,0.0,0.005170723423361778,0.7774457931518555,0.0,-0.013988322578370571
817.0,1038.0,-0.5097,0.1214,9.6323,-0.0394,0.0195,-0.1145,-1.5324122545174141,0.0,1.5995843410491943,-2.3159186840057373,-0.0,1.7564294338226318,5.356804299145498,-0.0,0.2824210822582245,-1.5970061461078089,0.0,-0.014085271395742893,0.7840693593025208,0.0,0.003205791814252734,0.7774617671966553,0.0,-0.05293554812669754
817.0,1038.0,-0.5097,0.1214,9.6323,-0.0394,0.0195,-0.1145,-1.532432274227478,0.0,1.5871727466583252,-2.3159232139587402,-0.0,1.7567245960235596,5.356759655266561,-0.0,0.27785569429397583,-1.5970061461078089,0.0,-0.0015499427681788802,0.7840570211410522,0.0,0.0003048162907361984,0.777449905872345,0.0,0.01219010166823864
817.0,1038.0,-0.5097,0.1214,9.6323,-0.0394,0.0195,-0.1145,-1.5324200888029118,0.0,1.5228185653686523,-2.315910577774048,-0.0,1.693800926208496,5.35674403884963,-0.0,0.2747451066970825,-1.59698993364443,0.0,-0.017222125083208084,0.7840533256530762,0.0,0.00039909034967422485,0.7774699926376343,0.0,0.008843065239489079
817.0,1038.0,-0.5097,0.1214,9.6323,-0.0394,0.0195,-0.1145,-1.5324443143657227,0.0,1.530673623085022,-2.315918445587158,1.339438767899992e-06,1.7278633117675781,5.3567919609840295,-0.0,0.2677183151245117,-1.5969942251788538,0.0,0.0069649191573262215,0.784069299697876,0.0,-0.00894775241613388,0.7774457931518555,0.0,-0.0006671654991805553
817.0,1038.0,-0.5097,0.1214,9.6323,-0.0394,0.0195,-0.1145,-1.5324644458344956,0.0,1.525609016418457,-2.315943479537964,3.2345872941902387e-12,1.7380237579345703,5.356731700688162,-0.0,0.2748126983642578,-1.5969732443438929,0.0,-0.0041647981852293015,0.784069299697876,0.0,-0.0064465077593922615,0.7774375677108765,0.0,-0.010412076488137245
817.0,1038.0,-0.5097,0.1214,9.6323,-0.0394,0.0195,-0.1145,-1.53245226786051,0.0,1.578827142715454,-2.3159027099609375,1.0479651346836609e-19,1.7384212017059326,5.356771933823385,-0.0,0.2780040502548218,-1.5970261732684534,0.0,-0.0026799915358424187,0.7840250134468079,0.0,-0.0058667841367423534,0.7774378061294556,0.0,-0.025197412818670273
817.0,1038.0,-0.5097,0.1214,9.6323,-0.0394,0.0195,-0.1145,-1.532424134468176,0.0,1.5774080753326416,-2.315962791442871,2.5307121295271876e-25,1.7096667289733887,5.35676400640563,-0.0,0.28260931372642517,-1.5969613234149378,0.0,-0.01685919240117073,0.7841256856918335,0.0,0.005450495518743992,0.7774819731712341,0.0,0.011398020200431347
817.0,1038.0,-0.5097,0.1214,9.6323,-0.0394,0.0195,-0.1145,-1.5324685362032433,0.0,1.6064941883087158,-2.3159587383270264,6.111373030631277e-31,1.6958472728729248,5.356755959778585,-0.0,0.27730828523635864,-1.5969942251788538,0.0,-0.009459732100367546,0.7841016054153442,0.0,-0.008458503521978855,0.7774501442909241,0.0,-0.00623290054500103
817.0,1038.0,-0.5097,0.1214,9.6323,-0.0394,0.0195,-0.1145,-1.5324322667768975,0.0,1.5407938957214355,-2.31591534614563,1.4758244940697561e-36,1.7427785396575928,5.356735873013296,-0.0,0.28562095761299133,-1.5970142523394983,0.0,-0.010289493016898632,0.7840492129325867,0.0,-0.0023513936903327703,0.7774378061294556,0.0,-0.013726228848099709
817.0,1038.0,-0.5097,0.1214,9.6323,-0.0394,0.0195,-0.1145,-1.5324645352414628,0.0,1.5466303825378418,-2.3158798217773438,4.764414778704378e-44,1.749799370765686,5.356755959778585,-0.0,0.28420916199684143,-1.5969942251788538,0.0,-0.010083428584039211,0.7840774655342102,0.0,0.009170259349048138,0.777449905872345,0.0,0.008355043828487396
817.0,1038.0,-0.5097,0.1214,9.6323,-0.0394,0.0195,-0.1145,-1.53238823757086,0.0,1.5541350841522217,-2.31589937210083,-0.0,1.6861151456832886,5.356743621617117,-0.0,0.2706558108329773,-1.5970061461078089,0.0,-0.008430673740804195,0.7840815782546997,0.0,0.012127085588872433,0.7774498462677002,0.0,0.03719783574342728
817.0,1038.0,-0.5097,0.1214,9.6323,-0.0394,0.0195,-0.1145,-1.5324604225209733,0.0,1.5720527172088623,-2.315887212753296,-0.0,1.7164294719696045,5.3567760465438745,-0.0,0.26726236939430237,-1.5970218817340296,0.0,-0.002162625314667821,0.7840573787689209,0.0,-0.007194906938821077,0.777421772480011,0.0,-0.007279209792613983
817.0,1038.0,-0.5097,0.1214,9.6323,-0.0394,0.0195,-0.1145,-1.5324443404427548,0.0,1.6299188137054443,-2.3159067630767822,-0.0,1.7198514938354492,5.3567800400550745,-0.0,0.27580735087394714,-1.5970218817340296,0.0,-0.01166482176631689,0.7839928269386292,0.0,-0.0028087436221539974,0.7774457335472107,0.0,-0.005642673000693321
817.0,1038.0,-0.5097,0.1214,9.6323,-0.0394,0.0195,-0.1145,-1.5324282136610528,0.0,1.525377869606018,-2.3159546852111816,-0.0,1.7352229356765747,5.356771933823385,-0.0,0.28197231888771057,-1.597001854573385,0.0,-0.008835060521960258,0.784069299697876,0.0,0.011715002357959747,0.777441680431366,0.0,-0.02519354037940502
838.0,8190.0,-0.6281,0.1639,9.6024,-0.0421,0.0202,-0.1118,-1.5324163076332589,0.0,1.5509772300720215,-2.3159191608428955,-0.0,1.774677038192749,5.35674403884963,-0.0,0.2863844335079193,-1.597001854573385,0.0,-0.00400844169780612,0.7840611338615417,0.0,-0.006181439850479364,0.7775103449821472,0.0,-0.05323724448680878
838.0,8190.0,-0.6281,0.1639,9.6024,-0.0421,0.0202,-0.1118,-1.532432274227478,0.0,1.5174486637115479,-2.3159310817718506,-0.0,1.7023110389709473,5.3567800400550745,-0.0,0.27118775248527527,-1.5969732443438929,0.0,-0.012881195172667503,0.7840492129325867,0.0,0.005809468682855368,0.7774580121040344,0.0,-0.022148575633764267
838.0,8190.0,-0.6281,0.1639,9.6024,-0.0421,0.0202,-0.1118,-1.53242006645117,0.0,1.5620917081832886,-2.315894842147827,-0.0,1.7548027038574219,5.35676400640563,-0.0,0.2903156280517578,-1.59698993364443,0.0,-0.0007791956886649132,0.7840570211410522,0.0,-0.003415299579501152,0.7774457931518555,0.0,-0.06024691089987755
838.0,8190.0,-0.6281,0.1639,9.6024,-0.0421,0.0202,-0.1118,-1.5324604225209733,0.0,1.5464093685150146,-2.3159189224243164,-0.0,1.6983857154846191,5.356716024666586,-0.0002520160924177617,0.27837905287742615,-1.5970061461078089,0.0,0.0004878135514445603,0.7839848399162292,0.0,0.004046732559800148,0.7774819731712341,0.0,-0.018587913364171982
838.0,8190.0,-0.6281,0.1639,9.6024,-0.0421,0.0202,-0.1118,-1.5324602884105225,0.0,1.5856611728668213,-2.3159663677215576,-0.0,1.7700762748718262,5.356732356339254,-0.0003050425439141691,0.27966591715812683,-1.5970061461078089,0.0,-0.003363383933901787,0.7840489745140076,0.0,-0.0008371581207029521,0.7774375081062317,0.0,0.002176813315600157
838.0,8190.0,-0.6281,0.1639,9.6024,-0.0421,0.0202,-0.1118,-1.532488414352276,0.0,1.5695765018463135,-2.3159821033477783,-0.0,1.7085607051849365,5.356700050621786,-0.00030565622728317976,0.27103710174560547,-1.5970061461078089,0.0,-0.004159822128713131,0.7840975522994995,0.0,-0.009336146526038647,0.7774457931518555,0.0,-0.007618151605129242
838.0,8190.0,-0.6281,0.1639,9.6024,-0.0421,0.0202,-0.1118,-1.53248434633527,0.0,1.5589356422424316,-2.31599497795105,-0.0,1.7229907512664795,5.356736528664388,-0.00039112073136493564,0.27297118306159973,-1.5970056692706507,0.0,-0.007136998698115349,0.78409343957901,0.0,0.00420417683199048,0.7774457931518555,6.307751391432248e-06,-0.019495688378810883
838.0,8190.0,-0.6281,0.1639,9.6024,-0.0421,0.0202,-0.1118,-1.5324762773564835,0.0,1.5054104328155518,-2.315962314605713,-0.0,1.7034461498260498,5.356732356339254,-0.0003151049604639411,0.289853036403656,-1.5969818274127405,0.0,0.011321096681058407,0.7840852737426758,0.0,0.0026983218267560005,0.7774981260299683,2.0436308353043164e-13,-0.013926863670349121
838.0,8190.0,-0.6281,0.1639,9.6024,-0.0421,0.0202,-0.1118,-1.5324482333711167,0.0,1.5608501434326172,-2.3159072399139404,-0.0,1.7021311521530151,5.356739985733785,-0.0002603778848424554,0.27891165018081665,-1.5969579855548304,0.0,0.008701669052243233,0.7840410470962524,0.0,0.006040994543582201,0.7774539589881897,4.935128072541171e-19,-0.0031873169355094433
838.0,8190.0,-0.6281,0.1639,9.6024,-0.0421,0.0202,-0.1118,-1.5324924823692818,0.0,1.537860631942749,-2.315950870513916,-0.0,1.7346506118774414,5.356784212380209,-0.00017769249097909778,0.2733396887779236,-1.5969980398761194,0.0,-0.013938112184405327,0.7840652465820312,0.0,-0.007861927151679993,0.7774296402931213,1.1917753596519434e-24,0.025353843346238136
838.0,8190.0,-0.6281,0.1639,9.6024,-0.0421,0.0202,-0.1118,-1.5324361746064206,0.0,1.5129730701446533,-2.3159425258636475,-0.0,1.7530159950256348,5.356732356339254,-0.00015460926806554198,0.2749810218811035,-1.5970175901996058,0.0,-0.008300451561808586,0.7840250134468079,0.0,-0.0016592313768342137,0.7774658799171448,2.877997613750991e-30,0.014103692024946213
838.0,8190.0,-0.6281,0.1639,9.6024,-0.0421,0.0202,-0.1118,-1.5324522864869614,0.0,1.6067819595336914,-2.315950870513916,-0.0,1.7297606468200684,5.356707978039541,-0.0001319397852057591,0.2869478464126587,-1.597029987965719,0.0,0.014242969453334808,0.7839927077293396,0.0,-0.0030813475605100393,0.7774658203125,9.324346480300621e-38,-0.00231737969443202
838.0,8190.0,-0.6281,0.1639,9.6024,-0.0421,0.0202,-0.1118,-1.532432147567608,0.0,1.585056185722351,-2.3159663677215576,-0.0,1.7486889362335205,5.35674803236083,-0.00011886839638464153,0.281454861164093,-1.5969937483416956,0.0,-0.00532501470297575,0.7840533256530762,0.0,-0.010543768294155598,0.777489960193634,2.2560905275629555e-43,-0.012684651650488377
838.0,8190.0,-0.6281,0.1639,9.6024,-0.0421,0.0202,-0.1118,-1.5324402463487168,0.0,1.5831763744354248,-2.3159701824188232,-0.0,1.7095069885253906,5.356699752598562,-8.1147241871804e-05,0.27637779712677,-1.5970061461078089,0.0,-0.0126202292740345,0.7840570211410522,0.0,-0.0032196533866226673,0.7774820327758789,0.0,-0.008042055182158947
873.0,8190.0,-0.6718,0.1992,9.6873,-0.0389,0.0365,-0.1211,-1.53248060241852,0.0,1.5482959747314453,-2.3159310817718506,-0.0,1.6929652690887451,5.3567800400550745,-7.44086064514704e-05,0.28320690989494324,-1.5969856421100062,0.0,0.0025075546000152826,0.7840734124183655,0.0,-0.004825819283723831,0.7774336934089661,0.0,0.02810397930443287
873.0,8190.0,-0.6718,0.1992,9.6873,-0.0389,0.0365,-0.1211,-1.5324724626592179,0.0,1.5753695964813232,-2.3158953189849854,-0.0,1.7300498485565186,5.35672019699172,-6.702006794512272e-05,0.27588701248168945,-1.5969732443438929,0.0,-0.00911896862089634,0.7840373516082764,0.0,0.00788973644375801,0.7774779200553894,0.0,-0.0061522480100393295
873.0,8190.0,-0.6718,0.1992,9.6873,-0.0389,0.0365,-0.1211,-1.5324765642038365,0.0,1.5861797332763672,-2.315887451171875,-0.0,1.6683285236358643,5.35675590017394,-8.177694689948112e-05,0.2878086268901825,-1.5969980398761194,0.0,-0.005699882749468088,0.7840409874916077,0.0,-0.007462960667908192,0.7774336934089661,0.0,-0.004870968870818615
873.0,8190.0,-0.6718,0.1992,9.6873,-0.0389,0.0365,-0.1211,-1.5324724626592179,0.0,1.5468825101852417,-2.3159430027008057,-0.0,1.7302101850509644,5.356736528664388,-7.777575228828937e-05,0.2779984772205353,-1.5969894568072718,0.0,-0.012490086257457733,0.7840815782546997,0.0,-0.006784386932849884,0.7774457931518555,0.0,-0.010123413056135178
873.0,8190.0,-0.6718,0.1992,9.6873,-0.0389,0.0365,-0.1211,-1.5324724626592179,0.0,1.5767970085144043,-2.315958261489868,-0.0,1.7292052507400513,5.356728362828054,-7.30418978491798e-05,0.27957433462142944,-1.5969937483416956,0.0,0.0023941986728459597,0.7840774655342102,0.0,-0.009212084114551544,0.7774696946144104,0.0,0.015069042332470417
873.0,8190.0,-0.6718,0.1992,9.6873,-0.0389,0.0365,-0.1211,-1.532436193232872,0.0,1.5321178436279297,-2.3159432411193848,-0.0,1.7407922744750977,5.35669635513381,-6.755899812560529e-05,0.27119022607803345,-1.5969732443438929,0.0,-1.379579771310091e-05,0.784069299697876,0.0,0.0034571276046335697,0.7774696946144104,0.0,0.0069522615522146225
873.0,8190.0,-0.6718,0.1992,9.6873,-0.0389,0.0365,-0.1211,-1.532468394642212,0.0,1.5507903099060059,-2.3159587383270264,-0.0,1.7450087070465088,5.356724250107565,-1.9412011170061305e-05,0.2791743874549866,-1.5969536940204065,0.0,-0.010470476932823658,0.784065306186676,0.0,-0.01354040578007698,0.7774779200553894,0.0,-0.0032150335609912872
873.0,8190.0,-0.6718,0.1992,9.6873,-0.0389,0.0365,-0.1211,-1.532488414352276,0.0,1.5340625047683716,-2.31593918800354,-0.0,1.7431018352508545,5.356736528664388,-3.637807458289899e-05,0.2795698344707489,-1.5969536940204065,0.0,-0.010353734716773033,0.7840573787689209,0.0,-0.006043052300810814,0.7774655818939209,0.0,0.04723552241921425
873.0,8190.0,-0.6718,0.1992,9.6873,-0.0389,0.0365,-0.1211,-1.5324483823827286,0.0,1.5317280292510986,-2.3159704208374023,-0.0,1.6802732944488525,5.35671232917861,-5.149747084942646e-05,0.2720002233982086,-1.5969856421100062,0.0,-0.008377776481211185,0.7841094136238098,0.0,0.0009879705030471087,0.7775221467018127,0.0,-0.03491735830903053
873.0,8190.0,-0.6718,0.1992,9.6873,-0.0389,0.0365,-0.1211,-1.5324924823692818,0.0,1.573769211769104,-2.3159353733062744,-0.0,1.6894986629486084,5.356659936695852,-0.00031941369525156915,0.2827710509300232,-1.5970500151263636,0.0,-0.01243947446346283,0.7840250730514526,0.0,0.0096301743760705,0.7774776816368103,9.469986980548128e-05,-0.05719052627682686
873.0,8190.0,-0.6718,0.1992,9.6873,-0.0389,0.0365,-0.1211,-1.5325085942498227,0.0,1.55027437210083,-2.3159596920013428,-0.0,1.7144775390625,5.356736469059744,-0.00034474272979423404,0.28253695368766785,-1.5969980398761194,0.0,-0.007307602092623711,0.7840250730514526,0.0,0.002168282400816679,0.7775020003318787,0.00012043774768244475,-0.05696585401892662
873.0,8190.0,-0.6718,0.1992,9.6873,-0.0389,0.0365,-0.1211,-1.5324883249453087,0.0,1.5878220796585083,-2.315939426422119,-0.0,1.7519330978393555,5.356752979546346,-0.0003280716482549906,0.2878754436969757,-1.5969651381122034,0.0,-0.0014157427940517664,0.7840490341186523,0.0,0.0017931321635842323,0.7775179147720337,0.0005507858586497605,0.002545710187405348
873.0,8190.0,-0.6718,0.1992,9.6873,-0.0389,0.0365,-0.1211,-1.532480315571167,0.0,1.5671467781066895,-2.3159632682800293,-0.0,1.7000648975372314,5.356676327973165,-0.000313712953357026,0.2828604280948639,-1.597018067036764,0.0,-0.01287100650370121,0.7840533256530762,0.0,0.014512067660689354,0.7775143384933472,0.0005656587891280651,0.05526354908943176
873.0,8190.0,-0.6718,0.1992,9.6873,-0.0389,0.0365,-0.1211,-1.5324482557228585,-0.0004537296190392226,1.5388906002044678,-2.315927028656006,-0.0,1.6713838577270508,5.3566762683685205,-0.0002825259289238602,0.2691819667816162,-1.5969694296466272,0.0,-0.009433770552277565,0.7840815782546997,0.0,-0.006426519248634577,0.7775179743766785,0.0006700305384583771,-0.006796852685511112
873.0,1072.0,-0.4433,0.4331,9.4385,-0.0261,0.0171,-0.1132,-1.532544483696558,-0.00043588943663053215,1.542232871055603,-2.315854787826538,-0.0,1.7018558979034424,5.3566927192504785,-0.0003116834268439561,0.2858075797557831,-1.597001854573385,0.0,0.0046052043326199055,0.784101665019989,0.0,0.009136643260717392,0.7775061130523682,0.0005699481116607785,0.018017586320638657
873.0,1072.0,-0.4433,0.4331,9.4385,-0.0261,0.0171,-0.1132,-1.5324641180089493,-0.0005870367749594152,1.5728591680526733,-2.315910577774048,-0.0,1.7042571306228638,5.356659936695852,-0.0003211810253560543,0.2901642918586731,-1.5969856421100062,0.0,-0.009389713406562805,0.7840248942375183,0.0,0.002165638841688633,0.7775300741195679,0.0005122675211168826,0.04250672087073326
873.0,1072.0,-0.4433,0.4331,9.4385,-0.0261,0.0171,-0.1132,-1.532496155505516,-0.0004427230160217732,1.552004337310791,-2.315950870513916,-0.0,1.7448692321777344,5.356688546925344,-0.0003192812146153301,0.2786024808883667,-1.596961800252096,0.0,-0.010414211079478264,0.7840897440910339,0.0,0.006708202883601189,0.7774897217750549,0.00040406911284662783,-0.003704698756337166
873.0,1072.0,-0.4433,0.4331,9.4385,-0.0261,0.0171,-0.1132,-1.5325203996947785,-0.00038865674287080765,1.535433053970337,-2.315910577774048,-0.0,1.7228124141693115,5.356656241207876,-0.0004281164729036391,0.27399682998657227,-1.5969651381122034,0.0,-0.024013537913560867,0.7840570211410522,0.0,-0.01549184788018465,0.7774819731712341,0.00029723354964517057,-0.006740679033100605
873.0,1072.0,-0.4433,0.4331,9.4385,-0.0261,0.0171,-0.1132,-1.5325002086213608,-0.0003281479876022786,1.58990478515625,-2.315938949584961,-0.0,1.7267720699310303,5.3566685197647,-0.0004317531129345298,0.28726622462272644,-1.5970142523394983,0.0,-0.009527906775474548,0.784061074256897,0.0,0.015610983595252037,0.7774938344955444,0.00024806970031931996,0.014105441980063915
873.0,1072.0,-0.4433,0.4331,9.4385,-0.0261,0.0171,-0.1132,-1.5325122748366375,-0.0003103828930761665,1.571038007736206,-2.315967321395874,-0.0,1.7337560653686523,5.356636512070455,-0.00044835018343292177,0.2838096022605896,-1.5969818274127405,0.0,-0.004277011379599571,0.7840451002120972,0.0,-0.003225697437301278,0.7775020003318787,0.00021286313130985945,-0.022823041304945946
873.0,1072.0,-0.4433,0.4331,9.4385,-0.0261,0.0171,-0.1132,-1.5325203996947785,-0.0002857242652680725,1.5702729225158691,-2.3159754276275635,-0.0,1.702636480331421,5.3566685197647,-0.0004223670403007418,0.27744060754776,-1.597001854573385,0.0,-0.010747957974672318,0.7840897440910339,0.0,-0.003507812973111868,0.7774899005889893,0.00018640770576894283,-0.034055955708026886
873.0,1072.0,-0.4433,0.4331,9.4385,-0.0261,0.0171,-0.1132,-1.5325163167766114,-0.00025532630388624966,1.5356683731079102,-2.3159146308898926,0.0001717421691864729,1.7046611309051514,5.3566205380256555,-0.00039866179577074945,0.285622775554657,-1.5969694296466272,0.0,0.0008692885166965425,0.7840652465820312,0.0,0.006718270014971495,0.7774816751480103,0.00016580120427533984,-0.00030042510479688644
873.0,1072.0,-0.4433,0.4331,9.4385,-0.0261,0.0171,-0.1132,-1.5325524818948288,-0.00017272453987970948,1.5673370361328125,-2.315955638885498,0.0002431158791296184,1.6947309970855713,5.356628346234121,-0.0003184530942235142,0.2729586958885193,-1.59698993364443,0.0,-0.007501294370740652,0.7840652465820312,0.0,0.007647679187357426,0.7775179743766785,0.0001479051570640877,0.04583435878157616
873.0,1072.0,-0.4433,0.4331,9.4385,-0.0261,0.0171,-0.1132,-1.5324560192278405,-0.0001548229338368401,1.5163500308990479,-2.315922975540161,0.0005049717728979886,1.731724739074707,5.356584358006277,-0.0003107358352281153,0.27453550696372986,-1.5970142523394983,0.0,-0.016629010438919067,0.7840090990066528,0.0,-0.007363689132034779,0.7775382995605469,0.0001318056893069297,0.022718897089362144
873.0,1072.0,-0.4433,0.4331,9.4385,-0.0261,0.0171,-0.1132,-1.5325244155577202,-0.00014033756451681256,1.542863130569458,-2.31587553024292,0.0006972975679673254,1.7481689453125,5.356636869698324,-0.00027923533343710005,0.27187061309814453,-1.5969732443438929,0.0,-0.004107716493308544,0.7840570211410522,0.0,0.000126063940115273,0.777513861656189,0.00012115989375161007,0.02687648870050907
873.0,1072.0,-0.4433,0.4331,9.4385,-0.0261,0.0171,-0.1132,-1.5325285208276291,-0.0001283308956772089,1.5197651386260986,-2.3158628940582275,0.0011135345557704568,1.7424077987670898,5.356648611813345,-0.00025012981495819986,0.264671266078949,-1.5969775358783167,0.0,-0.006361751817166805,0.7841053009033203,0.0,-0.002119221491739154,0.7775180339813232,0.0001121041932492517,0.001371129765175283
873.0,1072.0,-0.4433,0.4331,9.4385,-0.0261,0.0171,-0.1132,-1.5324599866620083,-0.00011519066174514592,1.4981706142425537,-2.3158833980560303,0.0019718906842172146,1.7061562538146973,5.3566405651863,-0.00018959924636874348,0.2649837136268616,-1.5969494024859827,0.0,-0.013723330572247505,0.7841053009033203,0.0,0.002626843983307481,0.7774857878684998,0.0001223341387230903,0.031821876764297485
823.0,8190.0,-0.8465,0.0628,10.0116,-0.0376,0.0229,-0.1045,-1.5325683963349839,-0.00012827018508687615,1.494995355606079,-2.3158669471740723,0.003442604560405016,1.7540521621704102,5.3566245911415,-0.00023334175057243556,0.26597556471824646,-1.597029987965719,0.0,0.0029361180495470762,0.784065306186676,0.0,0.000912594492547214,0.7774614691734314,9.548850357532501e-05,-0.048656247556209564
823.0,8190.0,-0.8465,0.0628,10.0116,-0.0376,0.0229,-0.1045,-1.5325363364866753,-0.0001397024461766705,1.5234683752059937,-2.315830707550049,0.005630620755255222,1.7590618133544922,5.3566327569778345,-0.0004474523011595011,0.25716596841812134,-1.5969818274127405,0.0,0.011236564256250858,0.7840893268585205,0.0,-0.006469481624662876,0.7775139212608337,8.974642696557567e-05,-0.028811775147914886
823.0,8190.0,-0.8465,0.0628,10.0116,-0.0376,0.0229,-0.1045,-1.5325282377055665,-0.00022401231399271637,1.4763983488082886,-2.3157427310943604,0.007480429485440254,1.7307970523834229,5.356592523842611,-0.0005636636633425951,0.25986599922180176,-1.5970061461078089,0.0,0.009901762939989567,0.784109354019165,0.0,0.0032535437494516373,0.7775061726570129,8.468001033179462e-05,-0.042162735015153885
823.0,8190.0,-0.8465,0.0628,10.0116,-0.0376,0.0229,-0.1045,-1.532504153703787,-0.002077634446322918,1.550872802734375,-2.3157033920288086,0.008610703982412815,1.7839453220367432,5.35660486200408,-0.0009286061394959688,0.26009437441825867,-1.5969703833209437,0.0,0.014238933101296425,0.7841053605079651,0.0,0.005609570071101189,0.777481734752655,9.447768388781697e-05,-0.01765047200024128
823.0,8190.0,-0.8465,0.0628,10.0116,-0.0376,0.0229,-0.1045,-1.5326242309859772,-0.00332116661593318,1.4997713565826416,-2.3156309127807617,0.010922185145318508,1.7732694149017334,5.356540906220236,-0.0010279063135385513,0.24659934639930725,-1.5969660917865198,0.0,0.008349636569619179,0.7841333746910095,0.0,-0.001627377001568675,0.7775139212608337,8.978875121101737e-05,-0.015777023509144783
823.0,8190.0,-0.8465,0.0628,10.0116,-0.0376,0.0229,-0.1045,-1.5326368373683472,-0.005201743450015783,1.4941413402557373,-2.3156118392944336,0.01226710993796587,1.7787728309631348,5.356524574547567,-0.0012497480493038893,0.2530638575553894,-1.5969856421100062,0.0,0.028960173949599266,0.7840734124183655,0.0,0.002801896771416068,0.7774938344955444,8.552271901862696e-05,-0.0004509352147579193
823.0,8190.0,-0.8465,0.0628,10.0116,-0.0376,0.0229,-0.1045,-1.5326481622508545,-0.007311924826353788,1.4617698192596436,-2.315535306930542,0.01316787488758564,1.8335235118865967,5.356560873776235,-0.0027005162555724382,0.24445396661758423,-1.5969703833209437,5.306341677169257e-07,0.0225553959608078,0.7841293215751648,0.0,0.0004857169697061181,0.7775015830993652,9.524355846224353e-05,-0.00505245104432106
823.0,8190.0,-0.8465,0.0628,10.0116,-0.0376,0.0229,-0.1045,-1.5327402477017422,-0.008231771178543568,1.4319758415222168,-2.315420150756836,0.014889615587890148,1.8137881755828857,5.3564809439475916,-0.011838256381452084,0.2306920289993286,-1.5969775358783167,9.64401388608982e-12,0.020501170307397842,0.7840369343757629,0.0,-0.002811575308442116,0.7774854898452759,0.00010265025775879622,-0.009806517511606216
823.0,8190.0,-0.8465,0.0628,10.0116,-0.0376,0.0229,-0.1045,-1.5328042109361668,-0.009007933549582958,1.4561806917190552,-2.3152287006378174,0.018211154267191887,1.7893010377883911,5.356421458512106,-0.018106741830706596,0.2083495706319809,-1.5969293753253382,2.6844473096244298e-15,0.036702390760183334,0.7841053009033203,0.0,0.004247922915965319,0.7774896621704102,8.581967995269224e-05,-0.057571765035390854
823.0,8190.0,-0.8465,0.0628,10.0116,-0.0376,0.0229,-0.1045,-1.532819927935936,-0.010965359397232533,1.4151549339294434,-2.31514048576355,0.021583613008260727,1.7488542795181274,5.35631804445342,-0.018319029361009598,0.21884658932685852,-1.5969212690936487,7.4722569643517e-19,0.017929496243596077,0.7840450406074524,0.0,-0.006442388519644737,0.7775300145149231,0.0005604649195447564,0.004824675619602203
823.0,8190.0,-0.8465,0.0628,10.0116,-0.0376,0.0229,-0.1045,-1.5329077702811738,-0.012517863884568214,1.3864448070526123,-2.3150088787078857,0.021821169182658195,1.8393999338150024,5.356182324677267,-0.01523384265601635,0.21844249963760376,-1.5969575087176722,2.0799302264561692e-22,0.03196889907121658,0.7841012477874756,0.0,-0.01568063348531723,0.777546226978302,0.0008382084779441357,-0.03908108174800873
823.0,8190.0,-0.8465,0.0628,10.0116,-0.0376,0.0229,-0.1045,-1.5330400367132206,-0.015223391354084015,1.4549438953399658,-2.314793586730957,0.02191878855228424,1.8102059364318848,5.356107401638784,-0.011299600824713707,0.2134457528591156,-1.596961800252096,3.780170228082568e-27,0.024285364896059036,0.78412926197052,0.0,0.0008829402504488826,0.7775578498840332,0.0011599938152357936,-0.04651860147714615
823.0,8190.0,-0.8465,0.0628,10.0116,-0.0376,0.0229,-0.1045,-1.5331397627345105,-0.017552005127072334,1.388718605041504,-2.314641237258911,0.023664874956011772,1.8369145393371582,5.356043147831716,-0.005836171563714743,0.205625981092453,-1.5969980398761194,1.052224207912573e-30,0.008419105783104897,0.7841700315475464,0.0,-0.008157966658473015,0.7775781154632568,0.001844869926571846,-0.03670352324843407
823.0,8190.0,-0.8465,0.0628,10.0116,-0.0376,0.0229,-0.1045,-1.5332797740450879,-0.019152414053678513,1.347440481185913,-2.3145945072174072,0.023278266191482544,1.8102856874465942,5.356015431671896,-0.002037805737927556,0.20486454665660858,-1.5970142523394983,2.928904887192006e-34,0.025879140943288803,0.7840529084205627,0.0,0.006741287652403116,0.7775132656097412,0.0029913014732301235,-0.02201085165143013
816.0,8190.0,-0.3858,0.1507,9.6233,-0.0396,-0.011,-0.1196,-1.533347738241293,-0.021291399374604225,1.4327598810195923,-2.3143739700317383,0.021634479984641075,1.8188354969024658,5.356055009156027,-0.0003530595568008721,0.19276490807533264,-1.5969374815570276,8.152715229084785e-38,0.021168319508433342,0.784117579460144,0.0,0.012394983321428299,0.7775776386260986,0.004806642420589924,3.681425005197525e-05
816.0,8190.0,-0.3858,0.1507,9.6233,-0.0396,-0.011,-0.1196,-1.5336036880365391,-0.025478478521108627,1.3510494232177734,-2.314218521118164,0.01843280903995037,1.8382714986801147,5.3560189483459375,-0.0003786042798310518,0.2049490213394165,-1.5969255606280726,1.4811724767913316e-42,0.025814061984419823,0.7840611338615417,0.0,0.0008287325035780668,0.777658224105835,0.006762797944247723,-0.00028706109151244164
816.0,8190.0,-0.3858,0.1507,9.6233,-0.0396,-0.011,-0.1196,-1.5337674033692856,-0.030545243993401527,1.2827045917510986,-2.3141396045684814,0.017320360988378525,1.8284142017364502,5.3559831259544275,-0.0003429401258472353,0.19159409403800964,-1.596921745930807,0.0,0.026475517079234123,0.784061074256897,0.0,0.0030643679201602936,0.7777060866355896,0.006524269003421068,0.04118314012885094
816.0,8190.0,-0.3858,0.1507,9.6233,-0.0396,-0.011,-0.1196,-1.5339514587870617,-0.03471788018941879,1.3145675659179688,-2.3140556812286377,0.015185201540589333,1.8460299968719482,5.355983543186941,-0.003119929926469922,0.1912308633327484,-1.5970266501056116,0.00010896104504354298,0.021029990166425705,0.7841299772262573,0.0,0.0031377689447253942,0.7777342796325684,0.00556570291519165,-0.019511952996253967
816.0,8190.0,-0.3858,0.1507,9.6233,-0.0396,-0.011,-0.1196,-1.5341351454010983,-0.039463676512241364,1.266640305519104,-2.3139593601226807,0.013182287104427814,1.833533763885498,5.355931091099539,-0.0058863540180027485,0.17823396623134613,-1.5969494024859827,0.00011228172661503777,0.03700143098831177,0.7840893268585205,0.0,-0.00869831908494234,0.7777743935585022,0.004557439126074314,-0.00018209218978881836
816.0,8190.0,-0.3858,0.1507,9.6233,-0.0396,-0.011,-0.1196,-1.5344951202026387,-0.045971889048814774,1.2847270965576172,-2.3138318061828613,0.011593231931328773,1.881622076034546,5.355903494149008,-0.008442185819149017,0.17559373378753662,-1.5969341436969202,0.0001224224834004417,0.05061497539281845,0.7840250730514526,0.0,0.008733639493584633,0.7777823209762573,0.0024018550757318735,-0.03791134059429169
816.0,8190.0,-0.3858,0.1507,9.6233,-0.0396,-0.011,-0.1196,-1.5347145472517987,-0.04938456043601036,1.2640299797058105,-2.3137757778167725,0.011652154847979546,1.8720362186431885,5.355843949108877,-0.00846856739372015,0.15991005301475525,-1.5969293753253382,0.00011470611207187176,0.044791772961616516,0.7840332388877869,0.0,0.000836715567857027,0.7777458429336548,0.0012513009132817388,-0.014559024944901466
816.0,8190.0,-0.3858,0.1507,9.6233,-0.0396,-0.011,-0.1196,-1.53505868211899,-0.053433265537023544,1.2102162837982178,-2.313680410385132,0.011667310260236263,1.8519806861877441,5.355788218766012,-0.00860274862498045,0.15903709828853607,-1.5969255606280726,0.00010783405741676688,0.028495848178863525,0.7840975522994995,0.0,0.007821084931492805,0.7777338027954102,0.0008177318377420306,0.023411620408296585
816.0,8190.0,-0.3858,0.1507,9.6233,-0.0396,-0.011,-0.1196,-1.535418064599373,-0.05791709944605827,1.237021565437317,-2.3136038780212402,0.010490422137081623,1.8550007343292236,5.355704116612234,-0.009636471047997475,0.15173985064029694,-1.5969379583941858,0.0001017391259665601,0.03631775826215744,0.7840976119041443,0.0,0.014663654379546642,0.7777823805809021,0.0006558289751410484,-0.027372919023036957
816.0,8190.0,-0.3858,0.1507,9.6233,-0.0396,-0.011,-0.1196,-1.5359415498426934,-0.06300009042024612,1.1911870241165161,-2.3135251998901367,0.009775365702807903,1.8589507341384888,5.355621087342062,-0.010683921165764332,0.1403999626636505,-1.596933666859762,0.00010831336840055883,0.046725377440452576,0.7841055989265442,0.0,0.0007507880218327045,0.7777500152587891,0.00041688684723339975,-0.034846559166908264
816.0,8190.0,-0.3858,0.1507,9.6233,-0.0396,-0.011,-0.1196,-1.536313523804285,-0.06260120868682861,1.2090920209884644,-2.313488721847534,0.010310170240700245,1.8655805587768555,5.355576801090994,-0.01130964607000351,0.15808962285518646,-1.5969579855548304,0.00010486454266356304,0.04151073098182678,0.784057080745697,0.0,-0.011388322338461876,0.7777297496795654,0.0003870314685627818,0.009001869708299637
816.0,8190.0,-0.3858,0.1507,9.6233,-0.0396,-0.011,-0.1196,-1.5367008757642289,-0.06219775229692459,1.201667070388794,-2.313389539718628,0.011525631882250309,1.848300576210022,5.355457114964285,-0.013311143964529037,0.15599507093429565,-1.5969536940204065,9.987766679842025e-05,0.045641157776117325,0.784105658531189,0.0,0.003859927412122488,0.7777983546257019,0.00042478711111471057,0.023579366505146027
816.0,8190.0,-0.3858,0.1507,9.6233,-0.0396,-0.011,-0.1196,-1.5370728273740788,-0.06037150323390961,1.2418081760406494,-2.313340902328491,0.01148013211786747,1.8753392696380615,5.355401682644644,-0.01689540222287178,0.14444950222969055,-1.5969536940204065,9.534315904602408e-05,0.03995193541049957,0.7840009331703186,0.0,0.0013239509426057339,0.7778062224388123,0.0007389257661998272,0.0006963629275560379
816.0,8190.0,-0.3858,0.1507,9.6233,-0.0396,-0.011,-0.1196,-1.537548204218485,-0.059782058000564575,1.2024787664413452,-2.3132009506225586,0.013801708817481995,1.8744945526123047,5.355194377690115,-0.024135828018188477,0.1519935429096222,-1.5969536940204065,8.99009028216824e-05,0.035035353153944016,0.7841413617134094,0.0,-0.0036007072776556015,0.7778221368789673,0.0018575424328446388,0.04061541706323624
839.0,1128.0,-0.7029,-0.0383,9.6796,-0.0466,-0.0437,-0.1124,-1.5379120719483872,-0.05984115973114967,1.204270362854004,-2.3131418228149414,0.016737623140215874,1.8554353713989258,5.355027365475454,-0.034024689346551895,0.128333181142807,-1.5969255606280726,8.621022425359115e-05,0.047367800027132034,0.7841218113899231,0.0,0.0012151803821325302,0.7778142094612122,0.0024267248809337616,0.009828743524849415
839.0,1128.0,-0.7029,-0.0383,9.6796,-0.0466,-0.0437,-0.1124,-1.538231400107481,-0.05961426720023155,1.2187812328338623,-2.3130545616149902,0.021690616384148598,1.904801845550537,5.354792225151815,-0.05381640046834946,0.10760730504989624,-1.5969460646258753,8.281069312943146e-05,0.0336398147046566,0.7841414213180542,0.0,-0.007933326065540314,0.7777977585792542,0.0025484829675406218,-0.044334638863801956
839.0,1128.0,-0.7029,-0.0383,9.6796,-0.0466,-0.0437,-0.1124,-1.53859922037039,-0.060479212552309036,1.2363276481628418,-2.3128464221954346,0.028636982664465904,1.8917322158813477,5.354345428734579,-0.08556299656629562,0.10705509781837463,-1.5969417730914515,7.966908015077934e-05,0.04768618196249008,0.7841053009033203,0.0,-0.00812517199665308,0.7778341770172119,0.0024743927642703056,-0.026381656527519226
839.0,1128.0,-0.7029,-0.0383,9.6796,-0.0466,-0.0437,-0.1124,-1.5391110529056569,-0.06537073850631714,1.198439121246338,-2.312554359436035,0.03940949589014053,1.894850730895996,5.3534929035003564,-0.13180547952651978,0.09111154079437256,-1.5969703833209437,7.583308615721762e-05,0.041158054023981094,0.7841176390647888,0.0,-0.005250662565231323,0.7778700590133667,0.0029160864651203156,0.0005218181759119034
839.0,1128.0,-0.7029,-0.0383,9.6796,-0.0466,-0.0437,-0.1124,-1.5395063248327752,-0.07154645770788193,1.1997729539871216,-2.3122951984405518,0.04874923452734947,1.9238804578781128,5.35262011268691,-0.14825557172298431,0.06791658699512482,-1.5969703833209437,7.319019641727209e-05,0.03561841696500778,0.7840893268585205,0.0,0.017652397975325584,0.777829647064209,0.0027870801277458668,-0.024838220328092575
839.0,1128.0,-0.7029,-0.0383,9.6796,-0.0466,-0.0437,-0.1124,-1.5399782222560425,-0.07732916623353958,1.2305830717086792,-2.311964750289917,0.05812390521168709,1.972992181777954,5.351672160416403,-0.15085379779338837,0.0639001801609993,-1.5969536940204065,7.072526204865426e-05,0.04743967205286026,0.7840812802314758,0.0,-0.0025600458029657602,0.7779303789138794,0.0033003599382936954,-0.027539916336536407
839.0,1128.0,-0.7029,-0.0383,9.6796,-0.0466,-0.0437,-0.1124,-1.5404791098884125,-0.08380051702260971,1.1960651874542236,-2.31156587600708,0.06732865422964096,1.9386800527572632,5.350780355721273,-0.1666630655527115,0.0659634917974472,-1.5969741980182093,1.1604348628679872e-06,0.045910436660051346,0.7840733528137207,0.0,-0.0026731635443866253,0.7779098153114319,0.003368511563166976,-0.02393006905913353
839.0,1128.0,-0.7029,-0.0383,9.6796,-0.0466,-0.0437,-0.1124,-1.541174466987588,-0.09399855881929398,1.1999499797821045,-2.310918092727661,0.08247934281826019,1.9987866878509521,5.349294054299154,-0.20229627192020416,0.06287799030542374,-1.5969374815570276,2.1090325666439647e-11,0.038525328040122986,0.7841013073921204,0.0,0.0017148010665550828,0.7779625058174133,0.003714508842676878,-0.015532048419117928
839.0,1128.0,-0.7029,-0.0383,9.6796,-0.0466,-0.0437,-0.1124,-1.5417216804674645,-0.0978531539440155,1.1863770484924316,-2.3104279041290283,0.09603555500507355,1.9694647789001465,5.348063576012411,-0.2162906676530838,0.06382757425308228,-1.5969417730914515,5.870569364018006e-15,0.03524542227387428,0.7840733528137207,0.0,-0.008821893483400345,0.777974009513855,0.0036544145550578833,-0.012339318171143532
839.0,1128.0,-0.7029,-0.0383,9.6796,-0.0466,-0.0437,-0.1124,-1.542317197923996,-0.0983903780579567,1.201660394668579,-2.309769868850708,0.10895411670207977,1.9517438411712646,5.34670506694869,-0.25883084535598755,0.04240026697516441,-1.596961800252096,1.6340945763154702e-18,0.041667431592941284,0.7840774655342102,0.0,-0.0029726282227784395,0.7779740691184998,0.0031342320144176483,-0.03843952715396881
839.0,1128.0,-0.7029,-0.0383,9.6796,-0.0466,-0.0437,-0.1124,-1.5429436837187787,-0.10000029951334,1.200934886932373,-2.3090665340423584,0.12003784626722336,2.0277256965637207,5.3450079438980005,-0.2816452980041504,0.031449396163225174,-1.5969141165362757,4.548561882084767e-22,0.04285897687077522,0.7840250134468079,0.0,-0.002995471702888608,0.7780060768127441,0.0032746403012424707,-0.0004494674503803253
839.0,1128.0,-0.7029,-0.0383,9.6796,-0.0466,-0.0437,-0.1124,-1.543718909179308,-0.10301990061998367,1.2093942165374756,-2.308009624481201,0.12812916934490204,2.0449469089508057,5.342625427037039,-0.31928375363349915,0.005985403899103403,-1.5969741980182093,8.266786967205929e-27,0.040825724601745605,0.784105658531189,0.0,0.0009934984846040606,0.7780382633209229,0.003988146781921387,-0.02065856009721756
839.0,1128.0,-0.7029,-0.0383,9.6796,-0.0466,-0.0437,-0.1124,-1.5443349380842228,-0.10522587597370148,1.2250299453735352,-2.307215690612793,0.13891078531742096,1.9707990884780884,5.3406144855316064,-0.34133675694465637,-0.014435566030442715,-1.5969579855548304,2.301090565124486e-30,0.03912139683961868,0.7840570211410522,0.0,0.012845362536609173,0.7780701518058777,0.004775628913193941,-0.024840066209435463
839.0,1128.0,-0.7029,-0.0383,9.6796,-0.0466,-0.0437,-0.1124,-1.5449577004513522,-0.11064514517784119,1.2368398904800415,-2.3063578605651855,0.1463397741317749,2.0305404663085938,5.338306951313772,-0.3822692930698395,-0.026574632152915,-1.5969541708575647,6.405170453649756e-34,0.03742042928934097,0.7840611338615417,0.0,0.0035363889764994383,0.7781062722206116,0.004988992121070623,-0.03996006399393082
913.0,1116.0,-1.8903,0.1262,10.1492,-0.033,-0.213,-0.1031,-1.5456053980490942,-0.11287564784288406,1.1477329730987549,-2.305335283279419,0.15754953026771545,2.062242269515991,5.335966038494863,-0.4207228124141693,-0.026204023510217667,-1.5969255606280726,1.7829027526228028e-37,0.055619895458221436,0.7840852737426758,0.0,-0.003401802387088537,0.7781503796577454,0.004524783696979284,-0.018321212381124496
913.0,1116.0,-1.8903,0.1262,10.1492,-0.033,-0.213,-0.1031,-1.54654589787636,-0.11274655163288116,1.1820721626281738,-2.304011106491089,0.17931987345218658,2.0837907791137695,5.332368600159445,-0.46388259530067444,-0.06738467514514923,-1.5969298521624964,4.954886026098393e-05,0.05040536820888519,0.784121036529541,0.0,-0.004147245083004236,0.7781786322593689,0.004153686109930277,-0.03245463967323303
913.0,1116.0,-1.8903,0.1262,10.1492,-0.033,-0.213,-0.1031,-1.5472661082497616,-0.11041739583015442,1.2041950225830078,-2.30294132232666,0.19082090258598328,2.0805063247680664,5.329417395382681,-0.4916583001613617,-0.07003501802682877,-1.5969298521624964,5.083627183921635e-05,0.04696943610906601,0.7840815782546997,0.0,0.005630985833704472,0.778218686580658,0.0038252261001616716,-0.010018324479460716
913.0,1116.0,-1.8903,0.1262,10.1492,-0.033,-0.213,-0.1031,-1.5479082775167008,-0.11653821170330048,1.242985725402832,-2.301788091659546,0.20232447981834412,2.086252212524414,5.326286482601919,-0.5356866121292114,-0.08723399043083191,-1.5968979040728968,3.2459590784128523e-06,0.04726622626185417,0.7840852737426758,0.0,0.008510619401931763,0.7782387137413025,0.004484959878027439,-0.0169875118881464
913.0,1116.0,-1.8903,0.1262,10.1492,-0.033,-0.213,-0.1031,-1.5486361657134076,-0.12447287142276764,1.2202956676483154,-2.3005521297454834,0.21278119087219238,2.1305699348449707,5.3227929947669885,-0.5740551352500916,-0.06429974734783173,-1.5969579855548304,9.035246439914602e-10,0.04984137415885925,0.7840933799743652,0.0,-0.009861217811703682,0.7782461047172546,0.005990268662571907,-0.08114682883024216
913.0,1116.0,-1.8903,0.1262,10.1492,-0.033,-0.213,-0.1031,-1.5496355437538405,-0.13151708245277405,1.2118247747421265,-2.2987077236175537,0.23107501864433289,2.1190810203552246,5.318101334362783,-0.6239599585533142,-0.0760827511548996,-1.5969417730914515,1.6421112652162742e-14,0.03487013280391693,0.7840249538421631,0.0,-0.0038349716924130917,0.7782743573188782,0.005399768706411123,0.012809323146939278
913.0,1116.0,-1.8903,0.1262,10.1492,-0.033,-0.213,-0.1031,-1.550398650845029,-0.12853917479515076,1.2665157318115234,-2.2973270416259766,0.23973986506462097,2.0964548587799072,5.314304101258077,-0.6555278301239014,-0.06627213954925537,-1.596933666859762,4.5708768150567605e-18,0.0442776158452034,0.7840975522994995,0.0,-0.003306544851511717,0.7783346176147461,0.004603755194693804,-0.06882397830486298
913.0,1116.0,-1.8903,0.1262,10.1492,-0.033,-0.213,-0.1031,-1.5511299234679718,-0.12765629589557648,1.2062935829162598,-2.2958436012268066,0.2563815116882324,2.134256601333618,5.310221242695608,-0.6804973483085632,-0.07054280489683151,-1.5968979040728968,1.2723205082769803e-21,0.03994560241699219,0.7840733528137207,0.0,0.0140971215441823,0.7783305048942566,0.004104267340153456,-0.005027878098189831
913.0,1116.0,-1.8903,0.1262,10.1492,-0.033,-0.213,-0.1031,-1.5519255635193367,-0.1259690523147583,1.250045895576477,-2.2942147254943848,0.27058637142181396,2.1559243202209473,5.306055354862966,-0.7119501829147339,-0.06065725162625313,-1.596961800252096,3.5415510979064057e-25,0.054765231907367706,0.784069299697876,0.0,-0.002179068513214588,0.778374433517456,0.004456852562725544,-0.027355555444955826
913.0,1116.0,-1.8903,0.1262,10.1492,-0.033,-0.213,-0.1031,-1.5530128993890067,-0.13133113086223602,1.2792763710021973,-2.2920916080474854,0.28157955408096313,2.176422595977783,5.300079989224233,-0.751465380191803,-0.06190968304872513,-1.5969536940204065,6.436594795724126e-30,0.03367851674556732,0.7841053605079651,0.0,0.0041280570439994335,0.7783740758895874,0.005392976105213165,-0.06692320853471756
913.0,1116.0,-1.8903,0.1262,10.1492,-0.033,-0.213,-0.1031,-1.5537429501167317,-0.1371246725320816,1.228101372718811,-2.290372371673584,0.29702097177505493,2.1741509437561035,5.29543815830306,-0.7796762585639954,-0.05971021577715874,-1.5969374815570276,2.841556488419883e-05,0.05394331365823746,0.784061074256897,0.0,-0.0010395320132374763,0.7784386277198792,0.00523734837770462,0.01759224385023117
913.0,1116.0,-1.8903,0.1262,10.1492,-0.033,-0.213,-0.1031,-1.5546035350165148,-0.14727120101451874,1.2298247814178467,-2.2885446548461914,0.3139537274837494,2.185722589492798,5.290560471802511,-0.8107204437255859,-0.05067673325538635,-1.5969417730914515,2.762780786724761e-05,0.03772204369306564,0.7841135859489441,0.0,-0.004665741231292486,0.7784385681152344,0.004099322948604822,-0.03803998604416847
913.0,1116.0,-1.8903,0.1262,10.1492,-0.033,-0.213,-0.1031,-1.5555025854012747,-0.1516983062028885,1.2432570457458496,-2.2866408824920654,0.32004499435424805,2.216054916381836,5.285670745163717,-0.8299670815467834,-0.042112164199352264,-1.596949879323141,2.529834455344826e-05,0.036621056497097015,0.7840692400932312,0.0,-0.0005567260086536407,0.7784585952758789,0.002639162354171276,-0.07397095859050751
913.0,1116.0,-1.8903,0.1262,10.1492,-0.033,-0.213,-0.1031,-1.5567535350895305,-0.1519615203142166,1.23061203956604,-2.283935070037842,0.34394803643226624,2.2862157821655273,5.278941738396444,-0.8486983776092529,-0.03771330416202545,-1.5969579855548304,2.6443506939699546e-08,0.04297148436307907,0.784069299697876,0.0,-0.008376909419894218,0.7784743309020996,0.0013740237336605787,0.0075878119096159935
881.0,1097.0,-0.7813,0.2064,10.3119,-0.0353,-0.6203,-0.1005,-1.5577295071310182,-0.14390261471271515,1.278938889503479,-2.2818288803100586,0.35856568813323975,2.219170570373535,5.273803341179647,-0.8638526797294617,-0.0625184029340744,-1.596945587788717,7.360647681642352e-12,0.04597768560051918,0.7841057181358337,0.0,0.0037723807618021965,0.7785028219223022,0.0009660000214353204,-0.028240259736776352
881.0,1097.0,-0.7813,0.2064,10.3119,-0.0353,-0.6203,-0.1005,-1.5586437092027445,-0.14842338860034943,1.2727596759796143,-2.27964448928833,0.36736342310905457,2.285167932510376,5.268618154316702,-0.8744567036628723,-0.010301186703145504,-1.5969818274127405,2.04886322039972e-15,0.027194540947675705,0.7841015458106995,0.0,-0.006312482059001923,0.7785269618034363,0.000798261258751154,-0.0808066725730896
881.0,1097.0,-0.7813,0.2064,10.3119,-0.0353,-0.6203,-0.1005,-1.5596077603152771,-0.1608862429857254,1.3250925540924072,-2.277400255203247,0.3769238293170929,2.27020263671875,5.263302612095632,-0.8897385001182556,-0.04403986781835556,-1.5969660917865198,5.703086172150582e-19,0.027946799993515015,0.7841217517852783,0.0,0.0017329768743366003,0.7785027623176575,0.0011330926790833473,-0.002053246833384037
881.0,1097.0,-0.7813,0.2064,10.3119,-0.0353,-0.6203,-0.1005,-1.5605499430424352,-0.1740504950284958,1.3071125745773315,-2.2750070095062256,0.3814944922924042,2.240318775177002,5.258046018868246,-0.8951537013053894,-0.018869096413254738,-1.5969741980182093,1.5874749080209417e-22,0.029643911868333817,0.7840732932090759,0.0,0.001630687853321433,0.7785549163818359,0.0013292968505993485,-0.03963891416788101
881.0,1097.0,-0.7813,0.2064,10.3119,-0.0353,-0.6203,-0.1005,-1.5619054355523367,-0.1751083880662918,1.3305423259735107,-2.2719168663024902,0.4033142626285553,2.256981372833252,5.250960099488058,-0.8924150466918945,-0.0282298494130373,-1.597018067036764,2.885157071744787e-27,0.008106393739581108,0.7840732932090759,0.0,-0.00722181610763073,0.7785027623176575,0.0009796220110729337,-0.004517588298767805
881.0,1097.0,-0.7813,0.2064,10.3119,-0.0353,-0.6203,-0.1005,-1.5629478211379428,-0.15905806422233582,1.3848304748535156,-2.269395589828491,0.4194578528404236,2.274080991744995,5.245499002724447,-0.8857167959213257,-0.02830670028924942,-1.5969417730914515,8.030941669789603e-31,0.03433050587773323,0.7840451002120972,0.0,0.002929373411461711,0.7785148620605469,0.0007624535937793553,0.018266189843416214
881.0,1097.0,-0.7813,0.2064,10.3119,-0.0353,-0.6203,-0.1005,-1.563975454573967,-0.14952871203422546,1.4809937477111816,-2.266904354095459,0.42749854922294617,2.2741644382476807,5.240098106652059,-0.8850600123405457,-0.01783275417983532,-1.5969856421100062,2.2354417395560713e-34,0.03364039212465286,0.7840611338615417,0.0,0.0063028279691934586,0.7785190343856812,0.0005940166302025318,-0.04093240946531296
881.0,1097.0,-0.7813,0.2064,10.3119,-0.0353,-0.6203,-0.1005,-1.5649501274204631,-0.15617336332798004,1.4223653078079224,-2.2643160820007324,0.4313107430934906,2.311007022857666,5.234811174660482,-0.8853588104248047,-0.025783900171518326,-1.596917454396383,6.222434441748749e-38,0.0028752246871590614,0.7840492725372314,0.0,-0.003151836572214961,0.7784943580627441,0.0015697232447564602,-0.07749494165182114
881.0,1097.0,-0.7813,0.2064,10.3119,-0.0353,-0.6203,-0.1005,-1.566345624425896,-0.1796179711818695,1.4232943058013916,-2.260822057723999,0.4418918192386627,2.3138608932495117,5.227860915451803,-0.8849777579307556,-0.027174897491931915,-1.5969775358783167,1.1308478607101274e-42,6.069708615541458e-05,0.7840774655342102,0.0,-0.013747356832027435,0.7786027193069458,0.004613878205418587,-0.05687057971954346
881.0,1097.0,-0.7813,0.2064,10.3119,-0.0353,-0.6203,-0.1005,-1.5673605723171313,-0.18678408861160278,1.4236705303192139,-2.258162260055542,0.45802298188209534,2.348414182662964,5.222713696747579,-0.8663999438285828,-0.015918005257844925,-1.5969980398761194,0.0,0.023008137941360474,0.7840332984924316,0.0,-0.010158862918615341,0.7785906195640564,0.005375918932259083,-0.011544212698936462
881.0,1097.0,-0.7813,0.2064,10.3119,-0.0353,-0.6203,-0.1005,-1.5683318120757868,-0.17102240025997162,1.411777377128601,-2.2554101943969727,0.464775949716568,2.3195085525512695,5.2176076648528955,-0.8561100959777832,0.013418776914477348,-1.5969579855548304,0.0,0.023937305435538292,0.7840573787689209,0.0,-0.007485151756554842,0.7785906791687012,0.0032851090654730797,-0.02608809992671013
881.0,1097.0,-0.7813,0.2064,10.3119,-0.0353,-0.6203,-0.1005,-1.569343064479046,-0.15445181727409363,1.4268081188201904,-2.2525949478149414,0.47537434101104736,2.3280587196350098,5.212467419892111,-0.8432599902153015,0.001300550065934658,-1.5969579855548304,0.0,0.021502994000911713,0.7840855717658997,0.0,-0.0065136682242155075,0.7786146402359009,0.0021471157670021057,-0.04738496243953705
881.0,1097.0,-0.7813,0.2064,10.3119,-0.0353,-0.6203,-0.1005,-1.5706253575084084,-0.1531304121017456,1.5033690929412842,-2.2486367225646973,0.48530590534210205,2.3378963470458984,5.205871093064108,-0.8198411464691162,0.028732076287269592,-1.5969775358783167,0.0,0.017203155905008316,0.7840213775634766,0.0,-0.01063057966530323,0.7786466479301453,0.0031722374260425568,-0.02732483111321926
881.0,1097.0,-0.7813,0.2064,10.3119,-0.0353,-0.6203,-0.1005,-1.5715967617430628,-0.16348811984062195,1.529371738433838,-2.245617628097534,0.49615493416786194,2.344324827194214,5.200857984810629,-0.8152651786804199,0.011198974214494228,-1.5969942251788538,0.0,0.012028874829411507,0.7840573787689209,0.0,-0.013387870974838734,0.7786707878112793,0.005309468600898981,-0.0753849521279335
815.0,8190.0,1.1707,-0.4552,9.7208,-0.0243,-0.5267,-0.0979,-1.5725399456419886,-0.172990083694458,1.509812831878662,-2.242621421813965,0.5001204013824463,2.4184608459472656,5.195985036879339,-0.8011069893836975,0.020476559177041054,-1.5969379583941858,0.0,0.024613063782453537,0.7840570211410522,0.0,0.0006564912619069219,0.7787471413612366,0.005911281798034906,-0.03826526552438736
815.0,8190.0,1.1707,-0.4552,9.7208,-0.0243,-0.5267,-0.0979,-1.5735069713988246,-0.17017625272274017,1.5025818347930908,-2.23954701423645,0.510686457157135,2.377520799636841,5.191317128926077,-0.7893844246864319,0.00962900836020708,-1.596945587788717,0.0,0.01552426628768444,0.7840332388877869,0.0,-0.0037628700956702232,0.7786867618560791,0.004422429017722607,-0.006226671859622002
815.0,8190.0,1.1707,-0.4552,9.7208,-0.0243,-0.5267,-0.0979,-1.574777742425436,-0.15633651614189148,1.5110437870025635,-2.235349655151367,0.5281009078025818,2.327209949493408,5.185088413744726,-0.765597939491272,0.023409657180309296,-1.596933666859762,0.0,0.01960652694106102,0.7840492725372314,0.0,-0.007421206217259169,0.7787389159202576,0.002426920924335718,-0.05078543722629547
815.0,8190.0,1.1707,-0.4552,9.7208,-0.0243,-0.5267,-0.0979,-1.5757323704161585,-0.14847154915332794,1.5477373600006104,-2.23226261138916,0.5378128886222839,2.411778450012207,5.180526453047552,-0.759518027305603,0.004228132776916027,-1.5969579855548304,0.0,0.013452441431581974,0.7840533256530762,0.0,0.007406637538224459,0.7787587642669678,0.0015115331625565886,-0.03368614614009857
815.0,8190.0,1.1707,-0.4552,9.7208,-0.0243,-0.5267,-0.0979,-1.5766259632506312,-0.1502785086631775,1.5598807334899902,-2.2290163040161133,0.5428783297538757,2.3547756671905518,5.176024156599798,-0.7486193776130676,0.019068192690610886,-1.5969494024859827,0.0,0.01966155879199505,0.7840492725372314,0.0,0.011373758316040039,0.7788072824478149,0.0016649005701765418,-0.06724201887845993
815.0,8190.0,1.1707,-0.4552,9.7208,-0.0243,-0.5267,-0.0979,-1.5775467358031214,-0.1561771184206009,1.5658676624298096,-2.2257769107818604,0.5541967749595642,2.3792741298675537,5.1715096710021875,-0.7375550866127014,0.02705264277756214,-1.5969703833209437,0.0,0.03154212236404419,0.7840451002120972,0.0,0.0008610110962763429,0.7787989974021912,0.002977758413180709,-0.08468502014875412
815.0,8190.0,1.1707,-0.4552,9.7208,-0.0243,-0.5267,-0.0979,-1.5787579021849574,-0.15530361235141754,1.5658880472183228,-2.2213730812072754,0.5621498823165894,2.3903422355651855,5.165700512915411,-0.7308893203735352,0.013974121771752834,-1.596933666859762,0.0,0.03556601703166962,0.7840896844863892,0.0,0.01232153456658125,0.7787625193595886,0.0024793525226414204,-0.0734376460313797
815.0,8190.0,1.1707,-0.4552,9.7208,-0.0243,-0.5267,-0.0979,-1.579663415948385,-0.1560416966676712,1.584493637084961,-2.217900276184082,0.563942015171051,2.3892526626586914,5.16131083944396,-0.7183462381362915,0.028612982481718063,-1.596917454396383,0.0,0.0013021613704040647,0.7840896844863892,0.0,-0.00047751679085195065,0.7787546515464783,0.001246943953447044,-0.013630165718495846
815.0,8190.0,1.1707,-0.4552,9.7208,-0.0243,-0.5267,-0.0979,-1.5805522404112757,-0.15226443111896515,1.582493543624878,-2.214442729949951,0.5704399943351746,2.3876285552978516,5.157129424601354,-0.705718994140625,0.027427809312939644,-1.596945587788717,0.0,0.02721591480076313,0.7840492725372314,0.0,0.0010955081088468432,0.7788312435150146,0.0009347891318611801,-0.08582337200641632
815.0,8190.0,1.1707,-0.4552,9.7208,-0.0243,-0.5267,-0.0979,-1.581414361993307,-0.14551159739494324,1.6199545860290527,-2.2109134197235107,0.5786295533180237,2.3742690086364746,5.152855264931478,-0.6942246556282043,0.010632161051034927,-1.5969741980182093,0.0,0.011316772550344467,0.7840250730514526,0.0,-0.006197209935635328,0.7788147330284119,0.0007483218796551228,-0.16198009252548218
815.0,8190.0,1.1707,-0.4552,9.7208,-0.0243,-0.5267,-0.0979,-1.582564493218893,-0.13766464591026306,1.6286810636520386,-2.2062604427337646,0.5934041738510132,2.392007350921631,5.147393125086584,-0.671019434928894,0.016900550574064255,-1.5969494024859827,0.0,0.020413294434547424,0.7840733528137207,0.0,-0.005082879215478897,0.7788270115852356,0.0005689832614734769,-0.06534744054079056
815.0,8190.0,1.1707,-0.4552,9.7208,-0.0243,-0.5267,-0.0979,-1.5833941898741664,-0.1354595124721527,1.5979812145233154,-2.202803134918213,0.5980052947998047,2.38261079788208,5.143413263350286,-0.6594384908676147,0.009293118491768837,-1.5969017187701624,0.0,0.03569404408335686,0.7840332984924316,0.0,0.004446367267519236,0.7787989974021912,0.0005140514695085585,-0.0709461122751236
815.0,8190.0,1.1707,-0.4552,9.7208,-0.0243,-0.5267,-0.0979,-1.5841995678343714,-0.1343880444765091,1.6546086072921753,-2.199143886566162,0.5967914462089539,2.364856719970703,5.139476257353582,-0.6590005159378052,0.006288055330514908,-1.5969460646258753,0.0,0.025203518569469452,0.784069299697876,0.0,0.001583786215633154,0.7788270115852356,0.00042335918988101184,-0.08999515324831009
815.0,8190.0,1.1707,-0.4552,9.7208,-0.0243,-0.5267,-0.0979,-1.5849505863585414,-0.13843126595020294,1.6592190265655518,-2.195613145828247,0.6063829660415649,2.4164178371429443,5.135617750674047,-0.6486338376998901,0.011773345991969109,-1.5969541708575647,0.0,0.03643747419118881,0.7841139435768127,0.0,0.013623015955090523,0.7788188457489014,0.00035987008595839143,-0.086395263671875
804.0,1031.0,1.4812,0.2034,10.0857,-0.0034,-0.2172,-0.1185,-1.586125989953512,-0.14205853641033173,1.6064002513885498,-2.1907994747161865,0.6123132109642029,2.4670932292938232,5.13051466920928,-0.6341028213500977,0.036117054522037506,-1.596905533467428,0.0,0.026364007964730263,0.7840373516082764,0.0,-0.0020131899509578943,0.7788228988647461,0.00021534708503168076,-0.07137584686279297
804.0,1031.0,1.4812,0.2034,10.0857,-0.0034,-0.2172,-0.1185,-1.5870071850218714,-0.14223867654800415,1.6389060020446777,-2.1870384216308594,0.6098456978797913,2.3886971473693848,5.1267389235790155,-0.6215675473213196,0.03073737397789955,-1.5969417730914515,0.0,0.02715560421347618,0.7840574383735657,0.0,-0.0037926738150417805,0.778766393661499,-0.0002753050357569009,-0.10627233982086182
804.0,1031.0,1.4812,0.2034,10.0857,-0.0034,-0.2172,-0.1185,-1.587842126885885,-0.1373053789138794,1.6816747188568115,-2.1832499504089355,0.6152439117431641,2.3725414276123047,5.123035627394476,-0.6102023124694824,0.037010207772254944,-1.5969255606280726,0.0,0.031135249882936478,0.7840652465820312,0.0,0.004146345891058445,0.7787989974021912,-0.0002874189813155681,-0.11894521862268448
804.0,1031.0,1.4812,0.2034,10.0857,-0.0034,-0.2172,-0.1185,-1.5886360607542933,-0.12829932570457458,1.6704747676849365,-2.1795337200164795,0.623266339302063,2.451399087905884,5.119296300202169,-0.599494993686676,0.012005329132080078,-1.5969341436969202,0.0,0.0272459015250206,0.7841292023658752,0.0,0.01250816322863102,0.7787948846817017,-0.0001452420838177204,-0.09631803631782532
804.0,1031.0,1.4812,0.2034,10.0857,-0.0034,-0.2172,-0.1185,-1.5897547207274378,-0.12890830636024475,1.723544955253601,-2.1744768619537354,0.6330967545509338,2.433320999145508,5.114464747696676,-0.5895394682884216,0.026683814823627472,-1.5969374815570276,0.0,0.03580143675208092,0.7840496301651001,0.0,-0.01355936098843813,0.7787743210792542,-3.899544243068931e-09,-0.06959070265293121
804.0,1031.0,1.4812,0.2034,10.0857,-0.0034,-0.2172,-0.1185,-1.5905538998045863,-0.13945700228214264,1.6811707019805908,-2.1708405017852783,0.6304396986961365,2.413954257965088,5.11088456490592,-0.5904489159584045,0.021185658872127533,-1.5969741980182093,0.0,0.028168901801109314,0.7840977907180786,0.0,0.0006300420500338078,0.7788188457489014,-9.41693961307652e-15,-0.13688193261623383
804.0,1031.0,1.4812,0.2034,10.0857,-0.0034,-0.2172,-0.1185,-1.5914536915221156,-0.1491425633430481,1.6623291969299316,-2.1670351028442383,0.6249116659164429,2.412109136581421,5.107405113964834,-0.5912838578224182,0.019589325413107872,-1.596933666859762,0.0,0.04409007355570793,0.7840210199356079,0.0,0.0009896323317661881,0.778830885887146,-2.2740804163868088e-20,-0.09799185395240784
804.0,1031.0,1.4812,0.2034,10.0857,-0.0034,-0.2172,-0.1185,-1.5923267803587855,-0.152798593044281,1.6991333961486816,-2.1632795333862305,0.6388033032417297,2.4150681495666504,5.104148971825399,-0.5800957083702087,0.022688113152980804,-1.5969460646258753,0.0,0.03325199708342552,0.7840536832809448,0.0,-0.006364272441715002,0.7787948846817017,-5.491636702768608e-26,-0.1235942542552948
804.0,1031.0,1.4812,0.2034,10.0857,-0.0034,-0.2172,-0.1185,-1.5935560665526332,-0.14094047248363495,1.7111706733703613,-2.1581220626831055,0.6516082286834717,2.4399220943450928,5.099551427155294,-0.558025598526001,0.03505986928939819,-1.5969179312335413,0.0,0.04743366688489914,0.7840933799743652,0.0,-0.0018657005857676268,0.7787708044052124,-1.779220535222937e-33,-0.14113803207874298
804.0,1031.0,1.4812,0.2034,10.0857,-0.0034,-0.2172,-0.1185,-1.594457288781637,-0.1306672990322113,1.7361602783203125,-2.1541764736175537,0.6424051523208618,2.4495627880096436,5.096258181124487,-0.5584008097648621,0.028551356866955757,-1.5969298521624964,0.0,0.020084690302610397,0.7840533256530762,0.0,-0.01013571210205555,0.7788509726524353,-4.29660810197111e-39,-0.10803434997797012
804.0,1031.0,1.4812,0.2034,10.0857,-0.0034,-0.2172,-0.1185,-1.5953804455199183,-0.1375354677438736,1.7100865840911865,-2.150273323059082,0.6386513113975525,2.3952126502990723,5.09297006109313,-0.5511221289634705,0.025971610099077225,-1.5969536940204065,0.0,0.028742756694555283,0.7840213775634766,0.0,0.001497386721894145,0.7788106799125671,-7.591594476252794e-05,-0.06914038211107254
804.0,1031.0,1.4812,0.2034,10.0857,-0.0034,-0.2172,-0.1185,-1.5962778530516566,-0.15427565574645996,1.7579636573791504,-2.146388292312622,0.6414604783058167,2.390622138977051,5.08963708856658,-0.5563849210739136,0.03405322507023811,-1.596961800252096,0.0,0.02847842313349247,0.7840254306793213,0.0,-0.0038175364024937153,0.7788106799125671,-4.917991569541869e-10,-0.06701771914958954
804.0,1031.0,1.4812,0.2034,10.0857,-0.0034,-0.2172,-0.1185,-1.5974446735777796,-0.16750559210777283,1.7316850423812866,-2.1412479877471924,0.650377094745636,2.382476329803467,5.085132616549291,-0.5441639423370361,0.029203899204730988,-1.5969374815570276,0.0,0.03102244809269905,0.7840573787689209,0.0,-0.003279901808127761,0.7787787318229675,-1.5933665810976202e-17,-0.05465333163738251
804.0,1031.0,1.4812,0.2034,10.0857,-0.0034,-0.2172,-0.1185,-1.5984426937498988,-0.16240155696868896,1.6611920595169067,-2.137361526489258,0.6488708853721619,2.4425485134124756,5.081775325327673,-0.5396745800971985,0.04253936558961868,-1.5969098250018519,0.0,0.021003978326916695,0.7840815186500549,0.0,-0.005737173371016979,0.7787666916847229,-0.0004609616007655859,-0.10862749814987183
830.0,1041.0,0.9344,0.7579,10.5906,-0.017,-0.0397,-0.1306,-1.5993577442564906,-0.14189305901527405,1.7368206977844238,-2.133490562438965,0.6520926356315613,2.4781148433685303,5.078563469439306,-0.5382398366928101,0.03131262958049774,-1.5969298521624964,0.0,0.04408198595046997,0.7840855717658997,0.0,-0.004545046482235193,0.7788069844245911,-0.0014244494959712029,-0.09785452485084534
830.0,1041.0,0.9344,0.7579,10.5906,-0.017,-0.0397,-0.1306,-1.600208421746725,-0.13044558465480804,1.7780227661132812,-2.129549026489258,0.6591248512268066,2.3930368423461914,5.075220572739401,-0.5352649688720703,0.03212365508079529,-1.5969460646258753,0.0,0.03424994647502899,0.7840414047241211,0.0,-0.006340918596833944,0.7787625789642334,-6.953325646463782e-05,-0.1174321323633194
830.0,1041.0,0.9344,0.7579,10.5906,-0.017,-0.0397,-0.1306,-1.6014076671996058,-0.14144955575466156,1.7747405767440796,-2.124419689178467,0.6511241793632507,2.4194717407226562,5.0708486316497705,-0.5359520316123962,0.026271143928170204,-1.5969460646258753,0.0,0.036721259355545044,0.7840893268585205,0.0,-0.0018572245026007295,0.7788147926330566,-2.252788884257728e-12,-0.14245468378067017
830.0,1041.0,0.9344,0.7579,10.5906,-0.017,-0.0397,-0.1306,-1.6022693119444789,-0.15798869729042053,1.7525501251220703,-2.1204745769500732,0.6413610577583313,2.409811019897461,5.06766294220046,-0.5547593832015991,0.03291650116443634,-1.596949879323141,0.0,0.03408012539148331,0.7840455174446106,0.0,0.0038157240487635136,0.7788106799125671,0.0011361753568053246,-0.086876280605793
830.0,1041.0,0.9344,0.7579,10.5906,-0.017,-0.0397,-0.1306,-1.6031905613341273,-0.16710734367370605,1.7896978855133057,-2.1165196895599365,0.639896810054779,2.4546682834625244,5.064489948540487,-0.5558534264564514,0.032963693141937256,-1.596905533467428,0.0,0.027396026998758316,0.7840373516082764,0.0,-0.002331382827833295,0.778830885887146,0.0004717729752883315,-0.10518470406532288
830.0,1041.0,0.9344,0.7579,10.5906,-0.017,-0.0397,-0.1306,-1.6040359936156214,-0.16286268830299377,1.7536224126815796,-2.1126208305358887,0.6530465483665466,2.474224090576172,5.0612317500408075,-0.5471397638320923,0.03153790533542633,-1.5969098250018519,0.0,0.03225447237491608,0.7840533256530762,0.0,0.006987642031162977,0.7788188457489014,7.317184014254963e-08,-0.07455822825431824
830.0,1041.0,0.9344,0.7579,10.5906,-0.017,-0.0397,-0.1306,-1.6052028141417445,-0.13689172267913818,1.8218364715576172,-2.1075284481048584,0.6601624488830566,2.4676833152770996,5.056714790850439,-0.546815037727356,0.016349948942661285,-1.596949879323141,0.0,0.03138343244791031,0.7840611338615417,0.0,-0.005298979580402374,0.7788192629814148,2.370674330467678e-15,-0.12834173440933228
830.0,1041.0,0.9344,0.7579,10.5906,-0.017,-0.0397,-0.1306,-1.6060997448363246,-0.12409765273332596,1.8269069194793701,-2.1035683155059814,0.6562694907188416,2.471099853515625,5.053309607296743,-0.5525124669075012,0.03191421553492546,-1.5969341436969202,0.0,0.03422759845852852,0.7840652465820312,0.0,-0.012200925499200821,0.7788510322570801,-0.0004042679793201387,-0.0798620656132698
830.0,1041.0,0.9344,0.7579,10.5906,-0.017,-0.0397,-0.1306,-1.6069351635374964,-0.126486673951149,1.8654932975769043,-2.0996954441070557,0.6574528813362122,2.440021514892578,5.050045090704717,-0.5526140332221985,0.027493607252836227,-1.5969374815570276,0.0,0.027645017951726913,0.7840213775634766,0.0,-0.003105016192421317,0.7788627743721008,0.0015084290644153953,-0.11164939403533936
830.0,1041.0,0.9344,0.7579,10.5906,-0.017,-0.0397,-0.1306,-1.6077825031676234,-0.14433200657367706,1.7945574522018433,-2.0957610607147217,0.6549677848815918,2.458590507507324,5.0464555499847314,-0.5628023743629456,0.03287087380886078,-1.596933666859762,0.0,0.022224094718694687,0.7840815782546997,0.0,0.003034353256225586,0.7788509130477905,0.0021112230606377125,-0.03815559670329094
830.0,1041.0,0.9344,0.7579,10.5906,-0.017,-0.0397,-0.1306,-1.6089335880675257,-0.1647820919752121,1.775565505027771,-2.0905044078826904,0.6422582268714905,2.4491143226623535,5.0419457135494135,-0.5857284665107727,0.02716958336532116,-1.5969298521624964,0.0,0.024225033819675446,0.784057080745697,0.0,-0.0026205023750662804,0.7788549661636353,0.0007368637598119676,-0.04826390743255615
830.0,1041.0,0.9344,0.7579,10.5906,-0.017,-0.0397,-0.1306,-1.6097890339293421,-0.15852630138397217,1.8292479515075684,-2.0865118503570557,0.6366633176803589,2.463387966156006,5.038490551501074,-0.5860797762870789,0.017534812912344933,-1.596949879323141,0.0,0.02344478853046894,0.7840250730514526,0.0,-0.004146932624280453,0.7788068652153015,-0.0004528554854914546,-0.12472185492515564
830.0,1041.0,0.9344,0.7579,10.5906,-0.017,-0.0397,-0.1306,-1.6106449566283167,-0.14666937291622162,1.8732380867004395,-2.082712173461914,0.6440141797065735,2.452505588531494,5.035130518465795,-0.5844365954399109,0.044588834047317505,-1.5969703833209437,0.0,0.03065386787056923,0.7840493321418762,0.0,-0.012972017750144005,0.7788631916046143,-0.0004192891647107899,-0.09804688394069672
830.0,1041.0,0.9344,0.7579,10.5906,-0.017,-0.0397,-0.1306,-1.6114760837950648,-0.1321183741092682,1.8095629215240479,-2.078803300857544,0.6544670462608337,2.3894600868225098,5.031592476158895,-0.5708185434341431,0.026593171060085297,-1.5969136396991175,0.0,0.031088873744010925,0.7840573787689209,0.0,-0.006836513057351112,0.778830885887146,-0.0002629367809277028,-0.0650080069899559
961.0,1015.0,2.0536,0.5462,7.063,-0.0696,-0.1132,-0.1294,-1.6125875912108363,-0.12701918184757233,1.9036028385162354,-2.073685884475708,0.646775484085083,2.457714080810547,5.026887911349096,-0.5816577076911926,0.02495410293340683,-1.5969255606280726,0.0,0.031227994710206985,0.7841014862060547,0.0,0.0041032759472727776,0.7788023948669434,-0.0001635011431062594,-0.09457676112651825
961.0,1015.0,2.0536,0.5462,7.063,-0.0696,-0.1132,-0.1294,-1.6134182415404261,-0.13470517098903656,1.8689074516296387,-2.0698344707489014,0.6444794535636902,2.4466354846954346,5.023422199278631,-0.593469500541687,0.02430669590830803,-1.5969136396991175,0.0,0.03241116553544998,0.784057080745697,0.0,-0.00758327916264534,0.7788591384887695,-2.2577038180315867e-05,-0.10534142702817917
961.0,1015.0,2.0536,0.5462,7.063,-0.0696,-0.1132,-0.1294,-1.6142212353148402,-0.1479557752609253,1.8551849126815796,-2.065993309020996,0.6426436901092529,2.491163492202759,5.019865530520239,-0.597295343875885,0.037641048431396484,-1.5969460646258753,0.0,0.02976337820291519,0.7840937376022339,0.0,0.0014508534222841263,0.7788103818893433,-5.4520884334996467e-11,-0.11241842806339264
961.0,1015.0,2.0536,0.5462,7.063,-0.0696,-0.1132,-0.1294,-1.6151300869383753,-0.15378710627555847,1.862667202949524,-2.062128782272339,0.6336088180541992,2.4760537147521973,5.01627283075408,-0.6054986119270325,0.02885664813220501,-1.5969060103045862,0.0,0.024143654853105545,0.7840774655342102,0.0,-0.007008849643170834,0.7788428068161011,-1.3166154400667736e-16,-0.10364744067192078
961.0,1015.0,2.0536,0.5462,7.063,-0.0696,-0.1132,-0.1294,-1.6161958179869593,-0.15342506766319275,1.8312221765518188,-2.057004451751709,0.6254122853279114,2.447981834411621,5.011431413679876,-0.6160006523132324,-0.007561473175883293,-1.596893612538473,0.0,0.03729652985930443,0.7840010523796082,0.0,-0.003181523410603404,0.7788228988647461,-0.001371462712995708,-0.13572639226913452
961.0,1015.0,2.0536,0.5462,7.063,-0.0696,-0.1132,-0.1294,-1.6170393429198207,-0.14707975089550018,1.8509610891342163,-2.053272008895874,0.6305286884307861,2.4592788219451904,5.007790463953771,-0.6124029755592346,0.005408218130469322,-1.5969222227679651,0.0,0.034422777593135834,0.7840373516082764,0.0,0.002512445207685232,0.7788065075874329,-0.000789143203292042,-0.15351802110671997
961.0,1015.0,2.0536,0.5462,7.063,-0.0696,-0.1132,-0.1294,-1.617979188958639,-0.14178769290447235,1.8357150554656982,-2.0494794845581055,0.6414161324501038,2.521833896636963,5.00419374087409,-0.6039878726005554,0.012715896591544151,-1.5969179312335413,0.0,0.037267036736011505,0.7840856909751892,0.0,-0.0011558628175407648,0.7787705063819885,-0.00045724198571406305,-0.15409711003303528
961.0,1015.0,2.0536,0.5462,7.063,-0.0696,-0.1132,-0.1294,-1.6189309559264125,-0.13806407153606415,1.8658084869384766,-2.045687437057495,0.6421300172805786,2.526078701019287,5.000576752215185,-0.6019912362098694,0.023292629048228264,-1.596893612538473,0.0,0.04216171056032181,0.7840816378593445,0.0,-0.005111898761242628,0.77885502576828,-0.0002802483213599771,-0.0912061408162117
961.0,1015.0,2.0536,0.5462,7.063,-0.0696,-0.1132,-0.1294,-1.619845529595846,-0.1405482143163681,1.9213266372680664,-2.0418756008148193,0.6313815116882324,2.4581806659698486,4.9968042252357385,-0.6092314124107361,0.02714359015226364,-1.5969422499286097,0.0,0.03207947313785553,0.7840897440910339,0.0,-0.0012004056479781866,0.7788147330284119,-0.00022717041429132223,-0.0995739996433258
961.0,1015.0,2.0536,0.5462,7.063,-0.0696,-0.1132,-0.1294,-1.621056695977682,-0.15532012283802032,1.8583261966705322,-2.0369298458099365,0.6271227598190308,2.4846763610839844,4.991801845818319,-0.6185424327850342,0.02272101864218712,-1.5969255606280726,0.0,0.026133831590414047,0.7840815186500549,0.0,-0.0018336327048018575,0.7788591384887695,0.00010143350664293393,-0.09023410081863403
961.0,1015.0,2.0536,0.5462,7.063,-0.0696,-0.1132,-0.1294,-1.621972223321432,-0.1662340611219406,1.9198215007781982,-2.0331811904907227,0.6240294575691223,2.4697556495666504,4.988082992821493,-0.6171306371688843,0.02026107907295227,-1.5969460646258753,0.0,0.03117898851633072,0.7839890122413635,0.0,-0.0013113673776388168,0.7788147330284119,6.0007558204233646e-05,-0.09906940162181854
961.0,1015.0,2.0536,0.5462,7.063,-0.0696,-0.1132,-0.1294,-1.6229235134520472,-0.1753251850605011,1.8833062648773193,-2.029371500015259,0.6178667545318604,2.5403923988342285,4.9843250689800165,-0.6238372325897217,0.026063833385705948,-1.5969179312335413,0.0,0.03380773216485977,0.7840209603309631,0.0,-0.0010028525721281767,0.7788228988647461,7.690860392983723e-09,-0.12690427899360657
961.0,1015.0,2.0536,0.5462,7.063,-0.0696,-0.1132,-0.1294,-1.6239954433836878,-0.17216786742210388,1.900891900062561,-2.0255706310272217,0.616177499294281,2.51381778717041,4.980670767813482,-0.62320476770401,0.016271086409687996,-1.5969136396991175,0.0,0.026763174682855606,0.7839890122413635,0.0,-0.01742568612098694,0.7788394093513489,1.857252551621183e-14,-0.10454188287258148
983.0,994.0,1.4949,-0.9631,8.4449,-0.0761,-0.1552,-0.1064,-1.6253735027708949,-0.15437562763690948,1.96830153465271,-2.0206451416015625,0.6253615021705627,2.4992408752441406,4.975810754090109,-0.6135277152061462,0.017487887293100357,-1.5968812147723597,0.0,0.030285492539405823,0.7839770913124084,0.0,-0.009883983060717583,0.7788591980934143,-0.00022819645528215915,-0.13971294462680817
983.0,994.0,1.4949,-0.9631,8.4449,-0.0761,-0.1552,-0.1064,-1.6263772449889125,-0.15286889672279358,1.9022531509399414,-2.0170042514801025,0.6291472315788269,2.4971444606781006,4.972160535841741,-0.6136650443077087,0.02675514854490757,-1.5969541708575647,0.0,0.018279997631907463,0.7840454578399658,0.0,-0.013310874812304974,0.7787904739379883,-4.2843103642553615e-07,-0.09729766845703125
983.0,994.0,1.4949,-0.9631,8.4449,-0.0761,-0.1552,-0.1064,-1.6274086437621058,-0.16347186267375946,1.945652961730957,-2.0132932662963867,0.6205071806907654,2.5583839416503906,4.968397605210104,-0.6154088377952576,0.03167959302663803,-1.5969255606280726,0.0,0.03202753886580467,0.7840414047241211,0.0,-0.006080910563468933,0.7788106799125671,-1.034610548275583e-12,-0.11567971110343933
983.0,994.0,1.4949,-0.9631,8.4449,-0.0761,-0.1552,-0.1064,-1.628456254998678,-0.18260781466960907,1.9105112552642822,-2.0095391273498535,0.6070825457572937,2.5574746131896973,4.964739519148626,-0.6314931511878967,0.028473978862166405,-1.596905533467428,0.0,0.034562788903713226,0.7840573787689209,0.0,0.002971195848658681,0.7788673639297485,-2.498462851064621e-18,-0.10133035480976105
983.0,994.0,1.4949,-0.9631,8.4449,-0.0761,-0.1552,-0.1064,-1.629862447778219,-0.19300039112567902,1.9539268016815186,-2.0046308040618896,0.6116782426834106,2.4913156032562256,4.9597083804901025,-0.631065309047699,0.012332281097769737,-1.5969136396991175,0.0,0.03286432847380638,0.7840530276298523,0.0,-0.0017736939480528235,0.7788147330284119,-8.094702661484601e-26,-0.07339609414339066
983.0,994.0,1.4949,-0.9631,8.4449,-0.0761,-0.1552,-0.1064,-1.6309176884093226,-0.17326582968235016,1.9319095611572266,-2.0010056495666504,0.6121832728385925,2.54622745513916,4.9558861432369135,-0.6242395639419556,0.03007929027080536,-1.5969017187701624,0.0,0.015965258702635765,0.7840774059295654,0.0,-0.008251668885350227,0.7788432240486145,-0.0003114361024927348,-0.118845134973526
983.0,994.0,1.4949,-0.9631,8.4449,-0.0761,-0.1552,-0.1064,-1.6319486103453578,-0.1592884212732315,1.9613146781921387,-1.9972188472747803,0.6073981523513794,2.540019989013672,4.952099579363622,-0.6361457705497742,0.009556866250932217,-1.5969298521624964,0.0,0.033257681876420975,0.7840816378593445,0.0,-0.005571647547185421,0.7788349986076355,-0.00025211527827195823,-0.09888611733913422
983.0,994.0,1.4949,-0.9631,8.4449,-0.0761,-0.1552,-0.1064,-1.633012434045309,-0.16329948604106903,1.9969542026519775,-1.9935742616653442,0.5998650789260864,2.546473264694214,4.948253187328138,-0.6363910436630249,0.03265560790896416,-1.5969341436969202,0.0,0.019676554948091507,0.7840614914894104,0.0,-0.009504075162112713,0.7788668870925903,-2.305811079850173e-07,-0.07638321816921234
983.0,994.0,1.4949,-0.9631,8.4449,-0.0761,-0.1552,-0.1064,-1.634355207482809,-0.18112169206142426,2.035146713256836,-1.988712191581726,0.6011762022972107,2.529636859893799,4.943174648075857,-0.6340962648391724,0.036352332681417465,-1.5969255606280726,0.0,0.02135876752436161,0.7840173244476318,0.0,0.0006395068485289812,0.7788668870925903,0.0014838097849860787,-0.06984210759401321
983.0,994.0,1.4949,-0.9631,8.4449,-0.0761,-0.1552,-0.1064,-1.635430475274557,-0.19023816287517548,1.9099249839782715,-1.9851914644241333,0.6000094413757324,2.5506742000579834,4.939424383431234,-0.6322212815284729,0.03232879936695099,-1.5969017187701624,0.0,0.030840430408716202,0.7840172648429871,0.0,-0.006200432777404785,0.7788468599319458,0.0008880015811882913,-0.08018417656421661
983.0,994.0,1.4949,-0.9631,8.4449,-0.0761,-0.1552,-0.1064,-1.6365024052061976,-0.1847042441368103,1.9950532913208008,-1.9815808534622192,0.5979287028312683,2.523731231689453,4.935606661229887,-0.6372091174125671,0.022256415337324142,-1.5969298521624964,0.0,0.02387363277375698,0.7840130925178528,0.0,-0.007759623229503632,0.778839111328125,2.75003628757986e-07,-0.13236021995544434
983.0,994.0,1.4949,-0.9631,8.4449,-0.0761,-0.1552,-0.1064,-1.637569089929098,-0.17372944951057434,1.9605002403259277,-1.9780467748641968,0.5967116355895996,2.6024577617645264,4.9317960170801065,-0.6483428478240967,0.023899611085653305,-1.5969222227679651,0.0,0.025283150374889374,0.7840089797973633,0.0,-0.006365071516484022,0.7788146734237671,6.641014778027698e-13,-0.12359853088855743
983.0,994.0,1.4949,-0.9631,8.4449,-0.0761,-0.1552,-0.1064,-1.6389318905272425,-0.16923655569553375,2.041484832763672,-1.9732894897460938,0.6065921783447266,2.5666961669921875,4.926560419588842,-0.638816237449646,0.037234771996736526,-1.5969341436969202,0.0,0.028808938339352608,0.7840532660484314,0.0,0.00653210561722517,0.7788024544715881,-7.517630251641094e-07,-0.06748577207326889
983.0,994.0,1.4949,-0.9631,8.4449,-0.0761,-0.1552,-0.1064,-1.6400352917113246,-0.1754452884197235,2.002786159515381,-1.9697694778442383,0.5955979824066162,2.5300638675689697,4.922631326108732,-0.6454617977142334,0.04071406275033951,-1.5969017187701624,0.0,0.013642278499901295,0.7840130925178528,0.0,-0.005133462138473988,0.778822660446167,-1.8154195594727307e-12,-0.0488225556910038
1003.0,991.0,0.9099,-0.0766,9.6287,-0.0548,-0.1762,-0.1116,-1.641106744805807,-0.18086457252502441,2.0489978790283203,-1.9661856889724731,0.5852627754211426,2.522573947906494,4.918677049666204,-0.6528374552726746,0.023622095584869385,-1.596949879323141,0.0,0.02160593308508396,0.7840376496315002,0.0,-0.009131461381912231,0.7788468599319458,-4.3840241593065446e-18,-0.0913434624671936
