ramyac6/ROB537/final_project/csv/bad/bad_80.csv
tof_0,tof_1,accelx,accely,accelz,gyrox,gyroy,gyroz,shoulder_lift_joint_position,shoulder_lift_joint_velocity,shoulder_lift_joint_effort,elbow_joint_position,elbow_joint_velocity,elbow_joint_effort,wrist_1_joint_position,wrist_1_joint_velocity,wrist_1_joint_effort,wrist_2_joint_position,wrist_2_joint_velocity,wrist_2_joint_effort,wrist_3_joint_position,wrist_3_joint_velocity,wrist_3_joint_effort,shoulder_pan_joint_position,shoulder_pan_joint_velocity,shoulder_pan_joint_effort
834.0,391.0,0.0999,-0.1208,9.6455,-0.0356,0.0237,-0.1219,-1.7803894482054652,0.0,3.051395893096924,-1.5324454307556152,-0.0,2.2018957138061523,4.789379487722673,0.0,0.29490235447883606,-1.5624545256244105,0.0,-0.01142105646431446,0.7606358528137207,-0.0,-0.000546760973520577,0.8511257171630859,0.0,0.039023011922836304
834.0,391.0,0.0999,-0.1208,9.6455,-0.0356,0.0237,-0.1219,-1.780421873132223,0.0,3.105597972869873,-1.5324732065200806,-0.0,2.1503896713256836,4.789315725653925,0.0,0.28362584114074707,-1.56248647371401,0.0,-0.014776051044464111,0.7607077956199646,-0.0,-0.005534297786653042,0.8511055707931519,0.0,-0.005607848986983299
834.0,391.0,0.0999,-0.1208,9.6455,-0.0356,0.0237,-0.1219,-1.7803732357420863,0.0,3.055619478225708,-1.5324935913085938,-0.0,2.1810836791992188,4.789371888130464,0.0,0.28658902645111084,-1.5624545256244105,0.0,-0.015576478093862534,0.7606517672538757,-0.0,-0.015408250503242016,0.8512021899223328,0.0,0.011092505417764187
834.0,391.0,0.0999,-0.1208,9.6455,-0.0356,0.0237,-0.1219,-1.7803932629027308,0.0,3.0701332092285156,-1.5324618816375732,-0.0,2.19706392288208,4.789315762906828,0.0,0.28742754459381104,-1.5624621550189417,0.0,-0.01815568096935749,0.7606799006462097,-0.0,-0.0005336899776011705,0.8511461615562439,0.0,0.005700850859284401
834.0,391.0,0.0999,-0.1208,9.6455,-0.0356,0.0237,-0.1219,-1.7804094753661097,0.0,3.025794506072998,-1.5324976444244385,-0.0,2.1364176273345947,4.7893599448497675,0.0,0.2877785563468933,-1.5624664465533655,0.0,0.003512428840622306,0.7606397271156311,-0.0,0.003516624215990305,0.8511580228805542,0.0,-0.053846873342990875
834.0,391.0,0.0999,-0.1208,9.6455,-0.0356,0.0237,-0.1219,-1.7804137669005335,0.0,3.053837537765503,-1.5324374437332153,-0.0,2.2182633876800537,4.789327788143911,0.0,0.2873598337173462,-1.562474552785055,0.0,-0.0071913376450538635,0.760603666305542,-0.0,-0.0025902031920850277,0.8511420488357544,0.0,0.01718945801258087
834.0,391.0,0.0999,-0.1208,9.6455,-0.0356,0.0237,-0.1219,-1.7804299793639125,0.0,3.0213141441345215,-1.5324335098266602,-0.0,2.1516048908233643,4.78929994532422,0.0,0.2938104569911957,-1.5624783674823206,0.0,-0.0037234826013445854,0.7606556415557861,-0.0,0.004358548671007156,0.8511497974395752,0.0,-0.020832765847444534
834.0,391.0,0.0999,-0.1208,9.6455,-0.0356,0.0237,-0.1219,-1.7803813419737757,0.0,3.0965323448181152,-1.532429575920105,-0.0,2.137962579727173,4.789327847748556,0.0,0.28708410263061523,-1.5624421278582972,0.0,-0.016644366085529327,0.7606199383735657,-0.0,-0.0032746335491538048,0.8511580228805542,0.0,-0.002151358872652054
839.0,382.0,0.1304,-0.1208,9.414,-0.0353,0.029,-0.1239,-1.7803975544371546,0.0,3.0501813888549805,-1.532429575920105,-0.0,2.223454236984253,4.789323831885614,0.0,0.2818172872066498,-1.5624545256244105,0.0,-0.01288671512156725,0.7606676816940308,-0.0,0.010006561875343323,0.8511378765106201,0.0,-0.04381928592920303
839.0,382.0,0.1304,-0.1208,9.414,-0.0353,0.029,-0.1239,-1.780421873132223,0.0,3.0617127418518066,-1.5324578285217285,-0.0,2.145099639892578,4.7893316996987245,0.0,0.2732461094856262,-1.5624297300921839,0.0,-0.00507581140846014,0.7606437802314758,-0.0,0.00035428308183327317,0.8511497974395752,0.0,-0.0010100121144205332
839.0,382.0,0.1304,-0.1208,9.414,-0.0353,0.029,-0.1239,-1.7803851566710414,0.0,3.044684648513794,-1.5324697494506836,-0.0,2.1386568546295166,4.789387511997976,0.0,0.2794467508792877,-1.5624707380877894,0.0,-0.013026311993598938,0.7606799006462097,-0.0,-0.0015785836149007082,0.8511659502983093,0.0,-0.0037057020235806704
839.0,382.0,0.1304,-0.1208,9.414,-0.0353,0.029,-0.1239,-1.7803689442076625,0.0,3.0846753120422363,-1.5324697494506836,-0.0,2.175569534301758,4.789359937399187,0.0,0.2890397310256958,-1.5624945799456995,0.0,-0.0041541242972016335,0.7606437802314758,-0.0,-0.012652230449020863,0.8511378765106201,0.0,0.03992588445544243
839.0,382.0,0.1304,-0.1208,9.414,-0.0353,0.029,-0.1239,-1.7803613148131312,0.0,3.0555124282836914,-1.532421588897705,-0.0,2.180192470550537,4.789359997003832,0.0,0.2727774679660797,-1.5624788443194788,0.0,-0.011026546359062195,0.7606636881828308,-0.0,0.0013296313118189573,0.8511215448379517,0.0,0.005457588005810976
839.0,382.0,0.1304,-0.1208,9.414,-0.0353,0.029,-0.1239,-1.780377050439352,0.0,3.0941152572631836,-1.5324612855911255,-0.0,2.1905760765075684,4.78938343653039,0.0,0.28889432549476624,-1.5624221006976526,0.0,-0.01971464790403843,0.760671854019165,-0.0,0.01307286974042654,0.8511659502983093,0.0,-0.022345978766679764
839.0,382.0,0.1304,-0.1208,9.414,-0.0353,0.029,-0.1239,-1.7803975544371546,0.0,3.1022238731384277,-1.5324618816375732,-0.0,2.128376007080078,4.789283643453874,0.0,0.2835922837257385,-1.5624540487872522,0.0,-0.01325595285743475,0.7606636881828308,-0.0,0.005166493356227875,0.8511700630187988,0.0,-0.017667505890130997
839.0,382.0,0.1304,-0.1208,9.414,-0.0353,0.029,-0.1239,-1.780421873132223,0.0,3.102198600769043,-1.5324335098266602,-0.0,2.1655311584472656,4.7893356932099245,0.0,0.28963884711265564,-1.562474552785055,0.0,-0.0076077706180512905,0.760627806186676,-0.0,-0.0004834015853703022,0.8511378765106201,0.0,-0.02382560446858406
839.0,382.0,0.1304,-0.1208,9.414,-0.0353,0.029,-0.1239,-1.7803932629027308,0.0,3.058903694152832,-1.532421588897705,-0.0,2.1830244064331055,4.789351920574465,0.0,0.2823977768421173,-1.5624545256244105,0.0,-0.02214020863175392,0.7606517672538757,-0.0,0.0019067141693085432,0.8511133193969727,0.0,-0.011540734209120274
839.0,382.0,0.1304,-0.1208,9.414,-0.0353,0.029,-0.1239,-1.7804137669005335,0.0,3.0752651691436768,-1.5324658155441284,-0.0,2.1245839595794678,4.78933176675395,0.0,0.2873374819755554,-1.5624626318561,0.0,-0.01708969473838806,0.7606797814369202,-0.0,-0.0018393713980913162,0.8511497974395752,0.0,-0.0243191160261631
839.0,382.0,0.1304,-0.1208,9.414,-0.0353,0.029,-0.1239,-1.7803651295103968,0.0,3.057610273361206,-1.5324612855911255,-0.0,2.142406940460205,4.789343762188711,0.0,0.2817460596561432,-1.5624707380877894,0.0,0.0015789386816322803,0.7606757879257202,-0.0,0.002204433549195528,0.851089358329773,0.0,0.004105397500097752
839.0,382.0,0.1304,-0.1208,9.414,-0.0353,0.029,-0.1239,-1.780405660668844,0.0,3.0539231300354004,-1.5324732065200806,-0.0,2.1677775382995605,4.789359937399187,0.0,0.28014668822288513,-1.5624907652484339,0.0,-0.0016066875541582704,0.7606437802314758,-0.0,0.006232177838683128,0.8511415719985962,0.0,0.008852547034621239
839.0,382.0,0.1304,-0.1208,9.414,-0.0353,0.029,-0.1239,-1.780433794061178,0.0,3.077065944671631,-1.5324493646621704,-0.0,2.1956772804260254,4.789351928025045,0.0,0.2884913384914398,-1.5624707380877894,0.0,-0.017702605575323105,0.7606878876686096,-0.0,0.01261556800454855,0.8511378765106201,0.0,-0.0006455008406192064
839.0,382.0,0.1304,-0.1208,9.414,-0.0353,0.029,-0.1239,-1.7803975544371546,0.0,3.0388898849487305,-1.532429575920105,-0.0,2.1741538047790527,4.789375546365537,0.0,0.2811153829097748,-1.56242543855776,0.0,-0.012551872059702873,0.7606238126754761,-0.0,-0.007151494733989239,0.8511819243431091,0.0,-0.025035008788108826
825.0,388.0,0.055,-0.1711,9.6287,-0.036,0.0191,-0.1075,-1.7804256878294886,0.0,3.0817885398864746,-1.532489538192749,-0.0,2.164213180541992,4.7893316996987245,0.0,0.28276365995407104,-1.5624707380877894,0.0,-0.00830927211791277,0.7606278657913208,-0.0,0.0015504918992519379,0.8511257171630859,0.0,-0.0010356169659644365
825.0,388.0,0.055,-0.1711,9.6287,-0.036,0.0191,-0.1075,-1.780405660668844,0.0,3.0807671546936035,-1.5324612855911255,-0.0,2.1658577919006348,4.7893356932099245,0.0,0.2848501205444336,-1.562446419392721,0.0,-0.009447013959288597,0.7606678605079651,-0.0,0.0017254010308533907,0.8511257171630859,0.0,-0.0014076326042413712
825.0,388.0,0.055,-0.1711,9.6287,-0.036,0.0191,-0.1075,-1.7803813419737757,0.0,3.0773894786834717,-1.532421588897705,-0.0,2.141065835952759,4.7893316996987245,0.0,0.289493203163147,-1.5624740759478968,0.0,-0.010445093736052513,0.760671854019165,-0.0,-0.008143477141857147,0.8511055707931519,0.0,0.01426828932017088
825.0,388.0,0.055,-0.1711,9.6287,-0.036,0.0191,-0.1075,-1.780405660668844,0.0,3.0609636306762695,-1.5324811935424805,-0.0,2.154620409011841,4.789327847748556,0.0,0.27893584966659546,-1.562446419392721,0.0,-0.005720104556530714,0.7606557607650757,-0.0,0.0014516038354486227,0.8511741757392883,0.0,0.003466085297986865
825.0,388.0,0.055,-0.1711,9.6287,-0.036,0.0191,-0.1075,-1.780388971368307,0.0,3.0793678760528564,-1.5324454307556152,-0.0,2.1911232471466064,4.789327788143911,0.0,0.2810729146003723,-1.562474552785055,0.0,-0.01609206572175026,0.7606918215751648,-0.0,0.0037131954450160265,0.8511378765106201,0.0,-0.020812872797250748
825.0,388.0,0.055,-0.1711,9.6287,-0.036,0.0191,-0.1075,-1.780377050439352,0.0,3.033731460571289,-1.5324692726135254,-0.0,2.1553635597229004,4.78933975377635,0.0,0.28817787766456604,-1.5624664465533655,0.0,-0.006471720989793539,0.7606799006462097,-0.0,-0.0037499861791729927,0.8511174321174622,0.0,-0.01546070259064436
825.0,388.0,0.055,-0.1711,9.6287,-0.036,0.0191,-0.1075,-1.7804013691344203,0.0,3.0676956176757812,-1.5324532985687256,-0.0,2.175429344177246,4.789356003492632,0.0,0.29176804423332214,-1.5624502340899866,0.0,-0.010568629950284958,0.7606676816940308,-0.0,-0.00982690416276455,0.8511659502983093,0.0,-0.02160046622157097
825.0,388.0,0.055,-0.1711,9.6287,-0.036,0.0191,-0.1075,-1.7804013691344203,0.0,3.071932077407837,-1.5324335098266602,-0.0,2.192561388015747,4.789375486760893,0.0,0.2930600345134735,-1.5624502340899866,0.0,0.00010980851948261261,0.7606878876686096,-0.0,-0.014365436509251595,0.8511014580726624,0.0,0.006949382834136486
825.0,388.0,0.055,-0.1711,9.6287,-0.036,0.0191,-0.1075,-1.7803975544371546,0.0,3.046010732650757,-1.5324335098266602,-0.0,2.133152961730957,4.789347934513845,0.0,0.286406010389328,-1.562514607106344,0.0,-0.008119821548461914,0.7605841755867004,-0.0,-0.0018183273496106267,0.8511338233947754,0.0,0.017043842002749443
825.0,388.0,0.055,-0.1711,9.6287,-0.036,0.0191,-0.1075,-1.7803894482054652,0.0,3.100506067276001,-1.5324335098266602,-0.0,2.1802427768707275,4.789367849915781,0.0,0.29040300846099854,-1.5624378363238733,0.0,-0.00471095647662878,0.7606517672538757,-0.0,0.004045866429805756,0.8511778712272644,0.0,-0.05530356615781784
825.0,388.0,0.055,-0.1711,9.6287,-0.036,0.0191,-0.1075,-1.7803856335081996,0.0,3.0716066360473633,-1.5324856042861938,-0.0,2.1449129581451416,4.789323794632711,0.0,0.28147536516189575,-1.56248647371401,0.0,-0.018375352025032043,0.760627806186676,-0.0,-0.0010894534643739462,0.8511214852333069,0.0,-0.038863129913806915
825.0,388.0,0.055,-0.1711,9.6287,-0.036,0.0191,-0.1075,-1.7803126774229945,0.0,3.0591542720794678,-1.5324658155441284,-0.0,2.156834125518799,4.789319778769769,0.0,0.28396299481391907,-1.562474552785055,0.0,-0.013426882214844227,0.760715663433075,-0.0,-0.0014861270319670439,0.8511779308319092,0.0,-0.027670158073306084
825.0,388.0,0.055,-0.1711,9.6287,-0.036,0.0191,-0.1075,-1.780405660668844,0.0,3.074493408203125,-1.532489538192749,-0.0,2.1786293983459473,4.78937944301919,0.0,0.2750297784805298,-1.5624664465533655,0.0,-0.023297574371099472,0.7606120109558105,-0.0,-0.0036935852840542793,0.8511256575584412,0.0,-6.495164416264743e-05
825.0,388.0,0.055,-0.1711,9.6287,-0.036,0.0191,-0.1075,-1.780405660668844,0.0,3.0522408485412598,-1.5324852466583252,-0.0,2.159210443496704,4.789327728539266,0.0,0.26840391755104065,-1.5624664465533655,0.0,-0.02906639873981476,0.7606318593025208,-0.0,-0.008379208855330944,0.8511215448379517,0.0,-0.02796771004796028
851.0,374.0,0.07,-0.1256,9.5862,-0.0379,0.0299,-0.1193,-1.7804094753661097,0.0,3.0738959312438965,-1.5324454307556152,-0.0,2.1821436882019043,4.789351928025045,0.0,0.2780942916870117,-1.5624297300921839,0.0,0.0021087140776216984,0.7606080174446106,-0.0,-0.007289041765034199,0.8511621356010437,0.0,0.012954747304320335
851.0,374.0,0.07,-0.1256,9.5862,-0.0379,0.0299,-0.1193,-1.7804299793639125,0.0,3.0843305587768555,-1.5324493646621704,-0.0,2.143828868865967,4.789363848954,0.0,0.27542346715927124,-1.5624259153949183,0.0,-0.023679951205849648,0.7606996893882751,-0.0,-0.003093055449426174,0.8511860370635986,0.0,-0.02071881666779518
851.0,374.0,0.07,-0.1256,9.5862,-0.0379,0.0299,-0.1193,-1.7804256878294886,0.0,3.0318312644958496,-1.5324137210845947,-0.0,2.1641032695770264,4.789371932833948,0.0,0.2821958661079407,-1.562446419392721,0.0,-0.012954702600836754,0.7606120109558105,-0.0,-0.00714073283597827,0.8511093258857727,0.0,-0.005533341784030199
851.0,374.0,0.07,-0.1256,9.5862,-0.0379,0.0299,-0.1193,-1.7804376087584437,0.0,3.0646042823791504,-1.5324736833572388,-0.0,2.190640449523926,4.789319719165125,0.0,0.27685344219207764,-1.5624297300921839,0.0,-0.017097314819693565,0.7606636881828308,-0.0,-0.007222999818623066,0.8511296510696411,0.0,0.0015598740428686142
851.0,374.0,0.07,-0.1256,9.5862,-0.0379,0.0299,-0.1193,-1.7804495296873988,0.0,3.0563607215881348,-1.5324255228042603,-0.0,2.1738674640655518,4.789344022959032,0.0,0.2824048399925232,-1.5624621550189417,0.0,-0.021701080724596977,0.7606358528137207,-0.0,-0.0020355265587568283,0.8511456847190857,0.0,-0.0001338929869234562
851.0,374.0,0.07,-0.1256,9.5862,-0.0379,0.0299,-0.1193,-1.7804013691344203,0.0,3.0624821186065674,-1.532489538192749,-0.0,2.1540658473968506,4.789339768677511,0.0,0.2809000611305237,-1.5624945799456995,0.0,-0.008679929189383984,0.7606358528137207,-0.0,-0.008920561522245407,0.8511860966682434,0.0,-0.002320678438991308
851.0,374.0,0.07,-0.1256,9.5862,-0.0379,0.0299,-0.1193,-1.7804094753661097,0.0,3.0715417861938477,-1.5324856042861938,-0.0,2.1173110008239746,4.7893316996987245,0.0,0.27397626638412476,-1.5624626318561,0.0,0.0016483995132148266,0.7606438398361206,-0.0,-0.007862373255193233,0.8511539101600647,0.0,0.04402682185173035
851.0,374.0,0.07,-0.1256,9.5862,-0.0379,0.0299,-0.1193,-1.780405660668844,0.0,3.040745735168457,-1.5324057340621948,-0.0,2.156404733657837,4.7893316996987245,0.0,0.29297739267349243,-1.5624707380877894,0.0,-0.017647232860326767,0.7606556415557861,-0.0,0.0019910952541977167,0.8511297106742859,0.0,-0.03963511064648628
851.0,374.0,0.07,-0.1256,9.5862,-0.0379,0.0299,-0.1193,-1.7803732357420863,0.0,3.042015552520752,-1.53241765499115,-0.0,2.1835904121398926,4.7893316996987245,0.0,0.27965909242630005,-1.5623977820025843,0.0,-0.018636275082826614,0.7606079578399658,-0.0,0.00711327139288187,0.8511701226234436,0.0,0.04621964320540428
851.0,374.0,0.07,-0.1256,9.5862,-0.0379,0.0299,-0.1193,-1.7803732357420863,0.0,3.0716042518615723,-1.5324572324752808,-0.0,2.195530652999878,4.789327847748556,0.0,0.2876651883125305,-1.5624502340899866,0.0,-0.01054462045431137,0.7606438398361206,-0.0,0.007824605330824852,0.8511256575584412,0.0,0.029191382229328156
851.0,374.0,0.07,-0.1256,9.5862,-0.0379,0.0299,-0.1193,-1.7804013691344203,0.0,3.038705825805664,-1.5324618816375732,-0.0,2.173768997192383,4.789307969599523,0.0,0.29260683059692383,-1.5624707380877894,0.0,-0.003911515697836876,0.7607437372207642,-0.0,-0.008419884368777275,0.851170003414154,0.0,-0.0030581606552004814
851.0,374.0,0.07,-0.1256,9.5862,-0.0379,0.0299,-0.1193,-1.7804013691344203,0.0,3.0985207557678223,-1.5324618816375732,-0.0,2.18798565864563,4.789344022959032,0.0,0.27050530910491943,-1.56248647371401,0.0,-0.006573163438588381,0.7606636881828308,-0.0,0.007991991937160492,0.8511297702789307,0.0,0.028001317754387856
851.0,374.0,0.07,-0.1256,9.5862,-0.0379,0.0299,-0.1193,-1.780388971368307,0.0,3.067744255065918,-1.5324856042861938,-0.0,2.180046796798706,4.789371917932787,0.0,0.2795122563838959,-1.5624588171588343,0.0,-0.009441249072551727,0.76069575548172,-0.0,-0.0010528645943850279,0.8511055707931519,0.0,0.016176234930753708
851.0,374.0,0.07,-0.1256,9.5862,-0.0379,0.0299,-0.1193,-1.7803851566710414,0.0,3.0314364433288574,-1.5324137210845947,-0.0,2.1623153686523438,4.789363848954,0.0,0.27968576550483704,-1.5624545256244105,0.0,-0.007624099962413311,0.760671854019165,-0.0,0.0025235386565327644,0.8511297702789307,0.0,-0.01885979063808918
817.0,397.0,0.1753,-0.0873,9.3745,-0.0417,0.0281,-0.1164,-1.7803975544371546,0.0,3.05096435546875,-1.5324137210845947,-0.0,2.1938414573669434,4.78937945046977,0.0,0.29361340403556824,-1.562474552785055,0.0,-0.011430269107222557,0.7606238722801208,-0.0,-0.008397405967116356,0.8511296510696411,0.0,0.0061671119183301926
817.0,397.0,0.1753,-0.0873,9.3745,-0.0417,0.0281,-0.1164,-1.7804013691344203,0.0,3.1098101139068604,-1.5324413776397705,-0.0,2.219242572784424,4.7893678424652,0.0,0.27806514501571655,-1.562474552785055,0.0,-0.023765897378325462,0.7606517672538757,-0.0,0.014534562826156616,0.8511014580726624,0.0,-0.024740392342209816
817.0,397.0,0.1753,-0.0873,9.3745,-0.0417,0.0281,-0.1164,-1.7803732357420863,0.0,3.049253463745117,-1.5323735475540161,-0.0,2.169405221939087,4.78934400060729,0.0,0.27645188570022583,-1.5624907652484339,0.0,0.0019330497598275542,0.7606639266014099,-0.0,-0.006370812188833952,0.8511378765106201,0.0,0.0036944085732102394
817.0,397.0,0.1753,-0.0873,9.3745,-0.0417,0.0281,-0.1164,-1.7803651295103968,0.0,3.0773653984069824,-1.5324499607086182,-0.0,2.1101739406585693,4.789351928025045,0.0,0.28072720766067505,-1.5624378363238733,0.0,-0.009550954215228558,0.7606120705604553,-0.0,-0.004274237900972366,0.8511257171630859,0.0,-0.05155985802412033
817.0,397.0,0.1753,-0.0873,9.3745,-0.0417,0.0281,-0.1164,-1.7804094753661097,0.0,3.082982063293457,-1.5324335098266602,-0.0,2.1736977100372314,4.789363848954,0.0,0.28066280484199524,-1.56248647371401,0.0,-0.013236609287559986,0.7606517672538757,-0.0,0.009013595059514046,0.8510852456092834,0.0,0.021914996206760406
817.0,397.0,0.1753,-0.0873,9.3745,-0.0417,0.0281,-0.1164,-1.7803975544371546,0.0,3.08077335357666,-1.5324374437332153,-0.0,2.1996190547943115,4.789367864816942,0.0,0.2907518148422241,-1.5624707380877894,0.0,-0.008844980038702488,0.7606798410415649,-0.0,-0.00014278758317232132,0.8511337637901306,0.0,0.03411944955587387
817.0,397.0,0.1753,-0.0873,9.3745,-0.0417,0.0281,-0.1164,-1.7803894482054652,0.0,3.0405445098876953,-1.532429575920105,-0.0,2.1380510330200195,4.789343978255548,0.0,0.2882312834262848,-1.5624621550189417,0.0,-0.008579311892390251,0.7605922818183899,-0.0,-0.002899911254644394,0.8511337637901306,0.0,0.013253037817776203
817.0,397.0,0.1753,-0.0873,9.3745,-0.0417,0.0281,-0.1164,-1.7804094753661097,0.0,3.0890069007873535,-1.5324692726135254,-0.0,2.1974294185638428,4.789343762188711,0.0,0.2773222327232361,-1.5624502340899866,0.0,-0.005137151572853327,0.760671854019165,-0.0,0.004898868966847658,0.8511700630187988,0.0,-0.030938290059566498
817.0,397.0,0.1753,-0.0873,9.3745,-0.0417,0.0281,-0.1164,-1.7803851566710414,0.0,3.0892891883850098,-1.5324658155441284,-0.0,2.140590190887451,4.789367857366361,0.0,0.27726006507873535,-1.5624783674823206,0.0,-0.0023631174117326736,0.7606556415557861,-0.0,-0.011112745851278305,0.8511338233947754,0.0,0.0025598984211683273
817.0,397.0,0.1753,-0.0873,9.3745,-0.0417,0.0281,-0.1164,-1.7804175815977992,0.0,3.07283353805542,-1.5324811935424805,-0.0,2.1516714096069336,4.7893157852585695,0.0,0.29546070098876953,-1.5624502340899866,0.0,-0.013925665989518166,0.760667622089386,-0.0,0.007591369561851025,0.8511538505554199,0.0,-0.02984049916267395
817.0,397.0,0.1753,-0.0873,9.3745,-0.0417,0.0281,-0.1164,-1.7803932629027308,0.0,3.0635950565338135,-1.5324335098266602,-0.0,2.148369550704956,4.789339776128092,0.0,0.28126177191734314,-1.562474552785055,0.0,-0.007702001370489597,0.760739266872406,-0.0,0.009246226400136948,0.8511497974395752,0.0,-0.004741606302559376
817.0,397.0,0.1753,-0.0873,9.3745,-0.0417,0.0281,-0.1164,-1.7803570232787074,0.0,3.0786807537078857,-1.5324538946151733,-0.0,2.1662075519561768,4.789311888604917,0.0,0.2755219340324402,-1.5624783674823206,0.0,-0.004231674131006002,0.7607077956199646,-0.0,-0.00496615469455719,0.8511255979537964,0.0,0.03620493412017822
817.0,397.0,0.1753,-0.0873,9.3745,-0.0417,0.0281,-0.1164,-1.7803975544371546,0.0,3.1165719032287598,-1.5324772596359253,-0.0,2.190580368041992,4.789371910482206,0.0,0.2686195373535156,-1.562474552785055,0.0,-0.011738516390323639,0.7607036232948303,-0.0,-0.005009280052036047,0.8511737585067749,0.0,-0.014015983790159225
817.0,397.0,0.1753,-0.0873,9.3745,-0.0417,0.0281,-0.1164,-1.780365606347555,0.0,3.0851364135742188,-1.532429575920105,-0.0,2.1769704818725586,4.789371917932787,0.0,0.28077688813209534,-1.56248647371401,0.0,-0.003791642840951681,0.7606838345527649,-0.0,-0.012366934679448605,0.8511497974395752,0.0,-0.04545724764466286
817.0,397.0,0.1753,-0.0873,9.3745,-0.0417,0.0281,-0.1164,-1.7803689442076625,0.0,3.069863796234131,-1.5324658155441284,-0.0,2.201418399810791,4.789344045310774,0.0,0.2863147258758545,-1.5624707380877894,0.0,0.0017180112190544605,0.7606877684593201,-0.0,0.0032168575562536716,0.8510973453521729,0.0,-0.026681270450353622
838.0,374.0,0.0491,-0.1513,9.6897,-0.0318,0.0269,-0.1177,-1.780433794061178,0.0,3.0347888469696045,-1.5324772596359253,-0.0,2.158740997314453,4.789395357459345,0.0,0.28617024421691895,-1.56248647371401,0.0,-0.014166360720992088,0.7607036232948303,-0.0,0.005769295617938042,0.8511092662811279,0.0,0.0039250822737813
838.0,374.0,0.0491,-0.1513,9.6897,-0.0318,0.0269,-0.1177,-1.7804180584349574,0.0,3.0697121620178223,-1.5324538946151733,-0.0,2.2138569355010986,4.78938343653039,0.0,0.29536494612693787,-1.56248647371401,0.0,-0.011906377971172333,0.760707676410675,-0.0,-0.007112194783985615,0.8511497974395752,0.0,-0.0227190088480711
838.0,374.0,0.0491,-0.1513,9.6897,-0.0318,0.0269,-0.1177,-1.7803851566710414,0.0,3.0423734188079834,-1.5324653387069702,-0.0,2.1662683486938477,4.789323854237356,0.0,0.27882444858551025,-1.5624340216266077,0.0,-0.01343376375734806,0.7606838345527649,-0.0,-0.0033253261353820562,0.8511618375778198,0.0,0.02360660955309868
838.0,374.0,0.0491,-0.1513,9.6897,-0.0318,0.0269,-0.1177,-1.7804175815977992,0.0,3.0894060134887695,-1.5324335098266602,-0.0,2.1548612117767334,4.789387511997976,0.0,0.283895343542099,-1.562474552785055,0.0,-0.016223851591348648,0.7606358528137207,-0.0,0.0036692828871309757,0.8511420488357544,0.0,0.004076819866895676
838.0,374.0,0.0491,-0.1513,9.6897,-0.0318,0.0269,-0.1177,-1.7804175815977992,0.0,3.046658992767334,-1.5324578285217285,-0.0,2.160061836242676,4.789335663407602,0.0,0.2912318706512451,-1.5624664465533655,0.0,-0.0031095135491341352,0.760667622089386,-0.0,-0.013775581493973732,0.8511337637901306,0.0,0.0059013981372118
838.0,374.0,0.0491,-0.1513,9.6897,-0.0318,0.0269,-0.1177,-1.7803975544371546,0.0,3.0550894737243652,-1.5324658155441284,-0.0,2.177457332611084,4.78937195518569,0.0,0.2822722792625427,-1.5624545256244105,0.0,-0.025561459362506866,0.7606438398361206,-0.0,-0.0156256090849638,0.8511461615562439,0.0,0.017119884490966797
838.0,374.0,0.0491,-0.1513,9.6897,-0.0318,0.0269,-0.1177,-1.780409952203268,0.0,3.0335912704467773,-1.5324618816375732,-0.0,2.1660919189453125,4.789391505509176,0.0,0.2867874503135681,-1.5624502340899866,0.0,-0.008786650374531746,0.7606319189071655,-0.0,0.0047961692325770855,0.8511257171630859,0.0,-0.045891158282756805
838.0,374.0,0.0491,-0.1513,9.6897,-0.0318,0.0269,-0.1177,-1.780360837975973,0.0,3.0819168090820312,-1.5325056314468384,-0.0,2.1647820472717285,4.7893316996987245,0.0,0.28459179401397705,-1.5624340216266077,0.0,-0.010441916063427925,0.7606675624847412,-0.0,-0.006563215516507626,0.8511456847190857,0.0,0.014799807220697403
838.0,374.0,0.0491,-0.1513,9.6897,-0.0318,0.0269,-0.1177,-1.7804137669005335,0.0,3.062490940093994,-1.5324454307556152,-0.0,2.104287624359131,4.78938343653039,0.0,0.2737683057785034,-1.5624826590167444,0.0,-0.008861975744366646,0.760651707649231,-0.0,-0.0005894391797482967,0.8511255979537964,0.0,-0.02010938711464405
838.0,374.0,0.0491,-0.1513,9.6897,-0.0318,0.0269,-0.1177,-1.7804175815977992,0.0,3.0862112045288086,-1.5324493646621704,-0.0,2.134788990020752,4.7893157852585695,0.0,0.29476580023765564,-1.5624058882342737,0.0,-0.023752756416797638,0.76069176197052,-0.0,0.0012184192892163992,0.8511420488357544,0.0,0.00321249570697546
838.0,374.0,0.0491,-0.1513,9.6897,-0.0318,0.0269,-0.1177,-1.7803975544371546,0.0,3.0900866985321045,-1.5324454307556152,-0.0,2.1924662590026855,4.789355928986826,0.0,0.28384995460510254,-1.56248647371401,0.0,-0.0035719615407288074,0.7606755495071411,-0.0,-0.000913311610929668,0.8511420488357544,0.0,-0.027895640581846237
838.0,374.0,0.0491,-0.1513,9.6897,-0.0318,0.0269,-0.1177,-1.7803813419737757,0.0,3.0751075744628906,-1.532429575920105,-0.0,2.169982433319092,4.789311933308401,0.0,0.2702886164188385,-1.5624826590167444,0.0,0.0004969780566170812,0.7606877684593201,-0.0,-0.01028480101376772,0.8511338233947754,0.0,-0.013306249864399433
838.0,374.0,0.0491,-0.1513,9.6897,-0.0318,0.0269,-0.1177,-1.7804299793639125,0.0,3.0703487396240234,-1.5324732065200806,-0.0,2.1364307403564453,4.7893719402845285,0.0,0.28563547134399414,-1.5624502340899866,0.0,-0.005676725413650274,0.7606877088546753,-0.0,-0.006761634722352028,0.8511539101600647,0.0,-0.013815673068165779
838.0,374.0,0.0491,-0.1513,9.6897,-0.0318,0.0269,-0.1177,-1.7804013691344203,0.0,3.0848441123962402,-1.5324618816375732,-0.0,2.1647119522094727,4.789379472821512,0.0,0.274903804063797,-1.5624945799456995,0.0,-0.015221159905195236,0.7606636881828308,-0.0,0.0032140007242560387,0.8511174321174622,0.0,0.012063908390700817
831.0,388.0,0.1573,-0.0796,9.3769,-0.0344,0.0266,-0.1167,-1.7804180584349574,0.0,3.053142786026001,-1.5324856042861938,-0.0,2.1924972534179688,4.7893715528543375,0.0,0.27401867508888245,-1.5624588171588343,0.0,-0.013883858919143677,0.760651707649231,-0.0,0.0034816102124750614,0.8511296510696411,0.0,0.0435435026884079
831.0,388.0,0.1573,-0.0796,9.3769,-0.0344,0.0266,-0.1167,-1.7803689442076625,0.0,3.0202107429504395,-1.5324255228042603,-0.0,2.17213773727417,4.789379435568609,0.0,0.2907637655735016,-1.562502686177389,0.0,-0.011873300187289715,0.7606160640716553,-0.0,-0.003976077772676945,0.8511378765106201,0.0,-0.022088009864091873
831.0,388.0,0.1573,-0.0796,9.3769,-0.0344,0.0266,-0.1167,-1.7804256878294886,0.0,3.086062431335449,-1.5324374437332153,-0.0,2.191493034362793,4.789359997003832,0.0,0.2778802216053009,-1.5624707380877894,0.0,-0.002741899574175477,0.7606635689735413,-0.0,-0.0009827585890889168,0.8511819839477539,0.0,-0.020491722971200943
831.0,388.0,0.1573,-0.0796,9.3769,-0.0344,0.0266,-0.1167,-1.7804256878294886,0.0,3.09082293510437,-1.5324374437332153,-0.0,2.162569046020508,4.789375911443987,0.0,0.2725754678249359,-1.5623977820025843,0.0,-0.015387143939733505,0.7606279850006104,-0.0,-0.00721282884478569,0.8511539101600647,0.0,0.012976011261343956
831.0,388.0,0.1573,-0.0796,9.3769,-0.0344,0.0266,-0.1167,-1.7803813419737757,0.0,3.0153090953826904,-1.5324136018753052,-0.0,2.182429313659668,4.789371917932787,0.0,0.274384081363678,-1.5624421278582972,0.0,-0.035394102334976196,0.7606041431427002,-0.0,-0.0008109029149636626,0.8511055111885071,0.0,-0.009597474709153175
831.0,388.0,0.1573,-0.0796,9.3769,-0.0344,0.0266,-0.1167,-1.7803813419737757,0.0,3.0626606941223145,-1.5324335098266602,-0.0,2.172212600708008,4.789383421629228,0.0,0.2865086495876312,-1.5624621550189417,0.0,-0.011811678297817707,0.7606199979782104,-0.0,-0.007055244408547878,0.8511577248573303,0.0,0.0044345795176923275
831.0,388.0,0.1573,-0.0796,9.3769,-0.0344,0.0266,-0.1167,-1.7804295025267542,0.0,3.0617494583129883,-1.5324811935424805,-0.0,2.1725425720214844,4.789355996042051,0.0,0.28045418858528137,-1.562446419392721,0.0,-0.014993356540799141,0.7606759071350098,-0.0,-0.010226074606180191,0.8511700630187988,0.0,0.003800925798714161
831.0,388.0,0.1573,-0.0796,9.3769,-0.0344,0.0266,-0.1167,-1.7803651295103968,0.0,3.0223498344421387,-1.5324772596359253,-0.0,2.1621572971343994,4.7893316996987245,0.0,0.26740339398384094,-1.5624664465533655,0.0,-0.014691067859530449,0.7606160640716553,-0.0,0.0038136416114866734,0.8511419892311096,0.0,-0.016293078660964966
831.0,388.0,0.1573,-0.0796,9.3769,-0.0344,0.0266,-0.1167,-1.7803613148131312,0.0,3.0779662132263184,-1.5324413776397705,-0.0,2.1505558490753174,4.789347934513845,0.0,0.2924448549747467,-1.5624502340899866,0.0,-0.007698587607592344,0.7606358528137207,-0.0,-0.0017432208405807614,0.8511296510696411,0.0,0.011050837114453316
831.0,388.0,0.1573,-0.0796,9.3769,-0.0344,0.0266,-0.1167,-1.7804299793639125,0.0,3.098442554473877,-1.5324658155441284,-0.0,2.153278112411499,4.789319778769769,0.0,0.2802436649799347,-1.5624664465533655,0.0,-0.013561286963522434,0.7606798410415649,-0.0,-0.015959950163960457,0.8510973453521729,0.0,0.006051530130207539
831.0,388.0,0.1573,-0.0796,9.3769,-0.0344,0.0266,-0.1167,-1.780405660668844,0.0,3.0197243690490723,-1.5324852466583252,-0.0,2.162630319595337,4.789359997003832,0.0,0.274808794260025,-1.562458340321676,0.0,-0.021944556385278702,0.7606199979782104,-0.0,0.011099660769104958,0.8511420488357544,0.0,-0.00862804427742958
831.0,388.0,0.1573,-0.0796,9.3769,-0.0344,0.0266,-0.1167,-1.7804013691344203,0.0,3.0894834995269775,-1.5324335098266602,-0.0,2.1505916118621826,4.789359937399187,0.0,0.2885582745075226,-1.5624545256244105,0.0,-0.009582668542861938,0.7606041431427002,-0.0,0.01186609547585249,0.8511497974395752,0.0,0.015851600095629692
831.0,388.0,0.1573,-0.0796,9.3769,-0.0344,0.0266,-0.1167,-1.7803813419737757,0.0,3.088649272918701,-1.532497525215149,-0.0,2.1718735694885254,4.789371932833948,0.0,0.28235024213790894,-1.5624378363238733,0.0,-0.008551116101443768,0.760663628578186,-0.0,-0.002295080339536071,0.8511255383491516,0.0,0.0413086824119091
831.0,388.0,0.1573,-0.0796,9.3769,-0.0344,0.0266,-0.1167,-1.7804018459715785,0.0,3.0646932125091553,-1.5324454307556152,-0.0,2.158402919769287,4.789356003492632,0.0,0.26982441544532776,-1.5624545256244105,0.0,-0.00986234750598669,0.7606956958770752,-0.0,-0.0033711488358676434,0.8511214852333069,0.0,-0.046755723655223846
829.0,392.0,0.1053,-0.1651,9.7543,-0.0336,0.0199,-0.1145,-1.7803932629027308,0.0,3.069990396499634,-1.5324612855911255,-0.0,2.1855225563049316,4.789347949415006,0.0,0.27772748470306396,-1.5624626318561,0.0,-0.00837919395416975,0.7606397867202759,-0.0,0.008445311337709427,0.8511216044425964,0.0,-0.01523229107260704
829.0,392.0,0.1053,-0.1651,9.7543,-0.0336,0.0199,-0.1145,-1.7803932629027308,0.0,3.092946767807007,-1.5324454307556152,-0.0,2.16275954246521,4.7893157852585695,0.0,0.29619014263153076,-1.5624502340899866,0.0,-0.011987392790615559,0.7606517672538757,-0.0,0.0030090799555182457,0.8511539101600647,0.0,-0.012842288240790367
829.0,392.0,0.1053,-0.1651,9.7543,-0.0336,0.0199,-0.1145,-1.7803331814207972,0.0,3.0950164794921875,-1.53241765499115,-0.0,2.141038417816162,4.789363863855161,0.0,0.28030821681022644,-1.5624545256244105,0.0,-0.014381293207406998,0.760671854019165,-0.0,0.0047985282726585865,0.8511215448379517,0.0,-0.05702992156147957
829.0,392.0,0.1053,-0.1651,9.7543,-0.0336,0.0199,-0.1145,-1.7804457149901332,0.0,3.0616612434387207,-1.5324499607086182,-0.0,2.187483787536621,4.789343762188711,0.0,0.29634881019592285,-1.5624945799456995,0.0,-0.010023849084973335,0.7606477737426758,-0.0,0.0031510652042925358,0.8511378765106201,0.0,-0.001091365935280919
829.0,392.0,0.1053,-0.1651,9.7543,-0.0336,0.0199,-0.1145,-1.7804180584349574,0.0,3.0686302185058594,-1.532489538192749,-0.0,2.1823670864105225,4.7893678424652,0.0,0.2806926965713501,-1.562474552785055,0.0,0.0004376005381345749,0.7606596946716309,-0.0,-0.00025117036420851946,0.85114985704422,0.0,-0.0015103467740118504
829.0,392.0,0.1053,-0.1651,9.7543,-0.0336,0.0199,-0.1145,-1.780433794061178,0.0,3.0629942417144775,-1.5324335098266602,-0.0,2.2186074256896973,4.789344022959032,0.0,0.29439887404441833,-1.5624545256244105,0.0,-0.0076609705574810505,0.7606317400932312,-0.0,-0.0006467984640039504,0.851158082485199,0.0,0.009900085628032684
829.0,392.0,0.1053,-0.1651,9.7543,-0.0336,0.0199,-0.1145,-1.7804132900633753,0.0,3.092862606048584,-1.5324732065200806,-0.0,2.1628541946411133,4.78937944301919,0.0,0.29307442903518677,-1.5624297300921839,0.0,-0.008756469003856182,0.7606678605079651,-0.0,-7.72261992096901e-05,0.8511420488357544,0.0,-0.05271134153008461
829.0,392.0,0.1053,-0.1651,9.7543,-0.0336,0.0199,-0.1145,-1.7803813419737757,0.0,3.0333147048950195,-1.5324732065200806,-0.0,2.1805858612060547,4.7893560258443735,0.0,0.29083800315856934,-1.5624507109271448,0.0,-0.00759308785200119,0.7606441378593445,-0.0,-0.0015127449296414852,0.8511013984680176,0.0,-0.056915827095508575
829.0,392.0,0.1053,-0.1651,9.7543,-0.0336,0.0199,-0.1145,-1.7803894482054652,0.0,3.0144381523132324,-1.5324374437332153,-0.0,2.1889448165893555,4.7893356932099245,0.0,0.287278413772583,-1.562446419392721,0.0,-0.016292642802000046,0.7606235146522522,-0.0,-0.009025617502629757,0.8511942625045776,0.0,0.044775232672691345
829.0,392.0,0.1053,-0.1651,9.7543,-0.0336,0.0199,-0.1145,-1.7804495296873988,0.0,3.037081241607666,-1.5324618816375732,-0.0,2.159503936767578,4.789391505509176,0.0,0.2823422849178314,-1.562446419392721,0.0,-0.004022571723908186,0.7606841921806335,-0.0,-0.003913110587745905,0.8511338233947754,0.0,-0.032479509711265564
829.0,392.0,0.1053,-0.1651,9.7543,-0.0336,0.0199,-0.1145,-1.7803689442076625,0.0,3.095587968826294,-1.5324335098266602,-0.0,2.156276226043701,4.789327788143911,0.0,0.26727184653282166,-1.5624783674823206,0.0,-0.008871662430465221,0.7606358528137207,-0.0,0.007581155281513929,0.8511420488357544,0.0,0.0032098968513309956
829.0,392.0,0.1053,-0.1651,9.7543,-0.0336,0.0199,-0.1145,-1.7804256878294886,0.0,3.0801823139190674,-1.5324499607086182,-0.0,2.1810827255249023,4.789351920574465,0.0,0.2612172067165375,-1.5624502340899866,0.0,-0.018983766436576843,0.7606678009033203,-0.0,0.018800005316734314,0.8511297702789307,0.0,0.014374598860740662
829.0,392.0,0.1053,-0.1651,9.7543,-0.0336,0.0199,-0.1145,-1.780377050439352,0.0,3.040517807006836,-1.5324578285217285,-0.0,2.184175491333008,4.789387519448557,0.0,0.2810410261154175,-1.5624340216266077,0.0,-0.0029763435013592243,0.7605871558189392,-0.0,0.0006352573400363326,0.8511013984680176,0.0,-0.04955484718084335
829.0,392.0,0.1053,-0.1651,9.7543,-0.0336,0.0199,-0.1145,-1.7804137669005335,0.0,3.042696475982666,-1.5324618816375732,-0.0,2.116589069366455,4.789371917932787,0.0,0.2854926586151123,-1.5624983946429651,0.0,-0.011952693574130535,0.7606157660484314,-0.0,0.007098180241882801,0.8511539101600647,0.0,0.0135413259267807
829.0,392.0,0.1053,-0.1651,9.7543,-0.0336,0.0199,-0.1145,-1.7804419002928675,0.0,3.0710997581481934,-1.532489538192749,-0.0,2.1556413173675537,4.789363990515032,0.0,0.2682422399520874,-1.5624421278582972,0.0,-0.0008576590334996581,0.7606313824653625,-0.0,0.006664489861577749,0.8511577844619751,0.0,-0.02458924613893032
814.0,378.0,0.1717,0.0538,9.268,-0.038,0.0305,-0.1156,-1.7803975544371546,0.0,3.0630059242248535,-1.5324658155441284,-0.0,2.1539268493652344,4.789355973690309,0.0,0.2816399931907654,-1.5624707380877894,0.0,-0.01713394932448864,0.7606235146522522,-0.0,-0.004198490176349878,0.8511580228805542,0.0,0.0008918996900320053
814.0,378.0,0.1717,0.0538,9.268,-0.038,0.0305,-0.1156,-1.7803932629027308,0.0,3.092550277709961,-1.5324772596359253,-0.0,2.1649255752563477,4.789311873703756,0.0,0.2858327627182007,-1.5624621550189417,0.0,-0.013924036175012589,0.7606235146522522,-0.0,-0.0031620576046407223,0.8511338233947754,0.0,0.01229192316532135
814.0,378.0,0.1717,0.0538,9.268,-0.038,0.0305,-0.1156,-1.7803689442076625,0.0,3.0735156536102295,-1.5324413776397705,-0.0,2.183098316192627,4.789356003492632,0.0,0.2815449833869934,-1.5624421278582972,0.0,-0.027277197688817978,0.7606760263442993,-0.0,0.0008211913518607616,0.8511296510696411,0.0,-0.016178444027900696
814.0,378.0,0.1717,0.0538,9.268,-0.038,0.0305,-0.1156,-1.7803975544371546,0.0,3.070314645767212,-1.5324335098266602,-0.0,2.1843678951263428,4.78937944301919,0.0,0.2750515043735504,-1.562474552785055,0.0,-0.01195781771093607,0.7606235146522522,-0.0,0.009095003828406334,0.8511778712272644,0.0,0.007580894511193037
814.0,378.0,0.1717,0.0538,9.268,-0.038,0.0305,-0.1156,-1.7803851566710414,0.0,3.0818285942077637,-1.5324698686599731,-0.0,2.1676008701324463,4.789356003492632,0.0,0.27566784620285034,-1.562458340321676,0.0,-0.00046432705130428076,0.7606276869773865,-0.0,-0.010472198948264122,0.8511538505554199,0.0,-0.023839754983782768
814.0,378.0,0.1717,0.0538,9.268,-0.038,0.0305,-0.1156,-1.780377050439352,0.0,3.044060230255127,-1.5324578285217285,-0.0,2.1715846061706543,4.789351928025045,0.0,0.2833704948425293,-1.5624826590167444,0.0,-0.0069257719442248344,0.7606638073921204,-0.0,0.00040890590753406286,0.8511415719985962,0.0,-0.042964689433574677
814.0,378.0,0.1717,0.0538,9.268,-0.038,0.0305,-0.1156,-1.7804013691344203,0.0,3.041046142578125,-1.5324454307556152,-0.0,2.150836706161499,4.789331744402208,0.0,0.28906941413879395,-1.562514607106344,0.0,-0.01332504115998745,0.7606518864631653,-0.0,0.00440165214240551,0.8512101769447327,7.799193895152712e-07,-0.02632882073521614
814.0,378.0,0.1717,0.0538,9.268,-0.038,0.0305,-0.1156,-1.7803694210448207,0.0,3.034558057785034,-1.5324578285217285,-0.0,2.1785221099853516,4.789339768677511,0.0,0.2813240885734558,-1.5625103155719202,0.0,-0.01970689930021763,0.7606678605079651,-0.0,0.0014400446088984609,0.851189911365509,0.0002975785464514047,-0.01590612344443798
814.0,378.0,0.1717,0.0538,9.268,-0.038,0.0305,-0.1156,-1.780393739739889,0.0,3.0400257110595703,-1.5324335098266602,-0.0,2.1847543716430664,4.789379457920351,0.0,0.28295668959617615,-1.5624941031085413,0.0,-0.010723229497671127,0.7606358528137207,-0.0,0.0049903541803359985,0.8511495590209961,0.0010312654776498675,-0.04309317097067833
814.0,378.0,0.1717,0.0538,9.268,-0.038,0.0305,-0.1156,-1.7804376087584437,0.0,3.0340514183044434,-1.53240966796875,-0.0,2.189307451248169,4.789403426438131,0.0,0.281006395816803,-1.5624621550189417,0.0,-0.0028279204852879047,0.7606117129325867,-0.0,-0.0009211020078510046,0.8512539863586426,0.002132607623934746,-0.004297302104532719
814.0,378.0,0.1717,0.0538,9.268,-0.038,0.0305,-0.1156,-1.7804295025267542,0.0,3.0742883682250977,-1.5324335098266602,-0.0,2.204535961151123,4.789343978255548,0.0,0.283570259809494,-1.5625675360309046,-4.2180198533969815e-07,-0.009718875400722027,0.760643720626831,-0.0,0.010720515623688698,0.8511933088302612,0.002908715745434165,0.055618006736040115
814.0,378.0,0.1717,0.0538,9.268,-0.038,0.0305,-0.1156,-1.780377050439352,0.0,3.0405755043029785,-1.532421588897705,-0.0,2.137941360473633,4.789375531464376,0.0,0.2895365357398987,-1.5625465551959437,-7.825492502888665e-05,-0.008667557500302792,0.7606760263442993,-0.0,0.00589670380577445,0.8512333631515503,0.005057781469076872,-0.013791732490062714
814.0,378.0,0.1717,0.0538,9.268,-0.038,0.0305,-0.1156,-1.7803813419737757,0.0,3.0441131591796875,-1.5324018001556396,-0.0,2.174856662750244,4.789391475706854,0.0,0.2767118811607361,-1.5624778906451624,-7.348437793552876e-05,0.00203323713503778,0.760680079460144,-0.0,-0.00754392659291625,0.8512939214706421,0.006100171711295843,-0.015144729986786842
814.0,378.0,0.1717,0.0538,9.268,-0.038,0.0305,-0.1156,-1.7803694210448207,0.0,3.0515294075012207,-1.5324018001556396,-0.0,2.1763782501220703,4.789411629527368,0.0,0.29936230182647705,-1.5625227133380335,-6.793729698983952e-05,-0.008623063564300537,0.760631799697876,-0.0,-0.0015050122747197747,0.8513621091842651,0.006376775912940502,0.030643459409475327
834.0,399.0,0.1095,-0.408,9.6832,-0.042,0.0162,-0.1139,-1.7803570232787074,0.0,3.0806515216827393,-1.5324454307556152,-0.0,2.1879525184631348,4.7893834737832925,0.0,0.2896804213523865,-1.562514607106344,-6.429706991184503e-05,-0.013355614617466927,0.7607244253158569,-0.0,-0.001851671258918941,0.8513858914375305,0.005766407586634159,0.004970882087945938
834.0,399.0,0.1095,-0.408,9.6832,-0.042,0.0162,-0.1139,-1.7803451023497523,0.0,3.0920019149780273,-1.5324454307556152,-0.0,2.141091823577881,4.789356003492632,0.0,0.2832024097442627,-1.5624945799456995,-6.10271017649211e-05,-0.013123711571097374,0.7606760263442993,-0.0,0.0018805332947522402,0.8513936400413513,0.004755765665322542,-0.032439347356557846
834.0,399.0,0.1095,-0.408,9.6832,-0.042,0.0162,-0.1139,-1.7804495296873988,0.0,3.068276882171631,-1.5324374437332153,-0.0,2.15726900100708,4.789344045310774,0.0,0.2878169119358063,-1.5624778906451624,-5.807368870591745e-05,-0.025417543947696686,0.7606276869773865,-0.0,0.00222550006583333,0.8514421582221985,0.003330182284116745,0.014351115562021732
834.0,399.0,0.1095,-0.408,9.6832,-0.042,0.0162,-0.1139,-1.7804137669005335,0.0,3.040980339050293,-1.5324816703796387,-0.0,2.167719841003418,4.789383481233873,0.0,0.28500717878341675,-1.562497917805807,-5.53929821762722e-05,-0.0034673858899623156,0.7606719136238098,-0.0,0.00646485760807991,0.8514661192893982,0.0024952557869255543,-0.06597872823476791
834.0,399.0,0.1095,-0.408,9.6832,-0.042,0.0162,-0.1139,-1.7803808651366175,0.0,3.085226058959961,-1.532517433166504,-0.0,2.156555414199829,4.789351890772142,0.0,0.28841111063957214,-1.5624821821795862,-5.2181312639731914e-05,-0.004327111877501011,0.760643720626831,-0.0,0.002719958545640111,0.8514540791511536,0.0013565057888627052,0.03107769787311554
834.0,399.0,0.1095,-0.408,9.6832,-0.042,0.0162,-0.1139,-1.7804013691344203,0.0,3.057971477508545,-1.5324618816375732,-0.0,2.148745536804199,4.789364020317354,0.0,0.2926146388053894,-1.5624740759478968,-5.000680175726302e-05,-0.004436970688402653,0.760680079460144,-0.0,0.00342587404884398,0.8514661192893982,0.0007582271355204284,0.05955914407968521
834.0,399.0,0.1095,-0.408,9.6832,-0.042,0.0162,-0.1139,-1.7804938755431117,0.0,3.0762999057769775,-1.53241765499115,-0.0,2.174018144607544,4.789323854237356,0.0,0.2817486524581909,-1.5624502340899866,-4.2091658542631194e-05,0.0004467573016881943,0.760680079460144,-0.0,-0.004815088585019112,0.8514701724052429,0.000556896033231169,0.013140336610376835
834.0,399.0,0.1095,-0.408,9.6832,-0.042,0.0162,-0.1139,-1.780461927453512,-8.344936941284686e-05,3.0420169830322266,-1.5324896574020386,-0.0,2.2112185955047607,4.789323839336195,0.0,0.2790595293045044,-1.562446419392721,-3.462143649812788e-05,-0.010492190718650818,0.7606194019317627,-0.0,0.008267238736152649,0.8514260053634644,0.00014334429579321295,0.024008236825466156
834.0,399.0,0.1095,-0.408,9.6832,-0.042,0.0162,-0.1139,-1.7804819546141566,-0.0006498314323835075,3.098470687866211,-1.5324896574020386,-0.00034606095869094133,2.1681628227233887,4.789347778051653,0.0,0.2904147505760193,-1.5624826590167444,-3.333739368827082e-05,0.0012108082883059978,0.760671854019165,-0.0,0.008307816460728645,0.8514260053634644,2.389502469668514e-06,-0.014689953997731209
834.0,399.0,0.1095,-0.408,9.6832,-0.042,0.0162,-0.1139,-1.7804738483824671,-0.00064963533077389,3.1031179428100586,-1.532529354095459,-0.0003231294685974717,2.206508159637451,4.789339947491445,0.0,0.2875862717628479,-1.5624502340899866,-2.1878578991163522e-05,0.003803764935582876,0.7606514096260071,-0.0,0.00022010384418535978,0.8514098525047302,7.7416853038869e-14,0.03349820524454117
834.0,399.0,0.1095,-0.408,9.6832,-0.042,0.0162,-0.1139,-1.7805019817748011,-0.0006340448744595051,3.050750494003296,-1.532517433166504,-0.00019202071416657418,2.1560041904449463,4.789243745594778,0.0,0.27964285016059875,-1.5624945799456995,-2.0457044229260646e-05,-0.009544746950268745,0.760671854019165,-0.0,0.005265154410153627,0.8514263033866882,1.869526024326671e-19,-0.024113744497299194
834.0,399.0,0.1095,-0.408,9.6832,-0.042,0.0162,-0.1139,-1.7805057964720667,-0.0005694855935871601,3.0732598304748535,-1.5324857234954834,-0.00014525232836604118,2.1338746547698975,4.7892513302858255,-0.0004589222080539912,0.2836195230484009,-1.5624626318561,-5.0828152780013625e-06,-0.018898826092481613,0.7607002258300781,-0.0,0.000787566474173218,0.8514301180839539,-0.0005389159778133035,-0.002172826323658228
834.0,399.0,0.1095,-0.408,9.6832,-0.042,0.0162,-0.1139,-1.7805539570250453,-0.0005682182381860912,3.095757484436035,-1.5324935913085938,-0.00011693668784573674,2.1443064212799072,4.789291846543112,-0.00044371216790750623,0.2963487505912781,-1.5624340216266077,-1.4148202609476357e-09,-0.010105229914188385,0.7606677412986755,-0.0,0.011082809418439865,0.851418137550354,-0.00039666323573328555,0.0017604916356503963
834.0,399.0,0.1095,-0.408,9.6832,-0.042,0.0162,-0.1139,-1.7805339298644007,-0.0005178134306333959,3.073155641555786,-1.5325055122375488,-0.00014678147272206843,2.1644699573516846,4.789259674936094,-0.0005483721615746617,0.2717812657356262,-1.5624626318561,-3.938203929632067e-13,-0.01036058273166418,0.7606956958770752,-0.0,-0.00365732004866004,0.8513860106468201,-0.0003136869927402586,-0.050072602927684784
824.0,380.0,0.1077,-0.0239,9.4379,-0.049,0.0133,-0.124,-1.7805458507933558,-0.0005661844625137746,3.099349021911621,-1.5324816703796387,-0.00012056905688950792,2.1442975997924805,4.789268004685201,-0.000613205716945231,0.29122453927993774,-1.5624869505511683,-7.15749044284478e-18,-0.018348291516304016,0.7606760263442993,-0.0,-0.006989036686718464,0.8513978123664856,-0.0002452821936458349,0.023442672565579414
824.0,380.0,0.1077,-0.0239,9.4379,-0.049,0.0133,-0.124,-1.7805258236327113,-0.000861637236084789,3.0458555221557617,-1.532509446144104,-0.00010632406338118017,2.1526174545288086,4.789247754007139,-0.0004952099407091737,0.2847234904766083,-1.5624502340899866,-1.9923139826899426e-21,-0.021295368671417236,0.7606276869773865,-0.0,-0.0018866059836000204,0.8513936400413513,-0.000168646321981214,-0.0171646848320961
824.0,380.0,0.1077,-0.0239,9.4379,-0.049,0.0133,-0.124,-1.7805539570250453,-0.0012006075121462345,3.0697836875915527,-1.5324612855911255,-9.508991934126243e-05,2.186335563659668,4.7892722366149805,-0.000410471431678161,0.2931496798992157,-1.5624502340899866,-5.545678851675937e-25,-0.01692787930369377,0.7606637477874756,-0.0,-0.004457934759557247,0.8513693809509277,-0.00011089890176663175,-0.034037668257951736
824.0,380.0,0.1077,-0.0239,9.4379,-0.049,0.0133,-0.124,-1.7805453739561976,-0.0014231817331165075,3.050187587738037,-1.5325055122375488,-8.600314322393388e-05,2.167264938354492,4.789283934026518,-0.000350503483787179,0.2794874906539917,-1.5624545256244105,-1.5436604152986986e-28,-0.010035919025540352,0.7606796622276306,-0.0,-0.00938378181308508,0.8514260053634644,0.0001305718469666317,0.024949034675955772
824.0,380.0,0.1077,-0.0239,9.4379,-0.049,0.0133,-0.124,-1.7805859051146449,-0.0017297683516517282,3.063754081726074,-1.5325055122375488,-9.569739631842822e-05,2.141723155975342,4.789283934026518,-0.0003058276779484004,0.28775402903556824,-1.5624588171588343,-4.2968344590706175e-32,-0.015542360953986645,0.7606116533279419,-0.0,0.005641022231429815,0.851405680179596,0.00015230471035465598,-0.0009501343593001366
824.0,380.0,0.1077,-0.0239,9.4379,-0.049,0.0133,-0.124,-1.7806340656676234,-0.0028982616495341063,3.0757548809051514,-1.532509446144104,-9.376383968628943e-05,2.147063732147217,4.789275917201795,-0.0002614059194456786,0.2810368537902832,-1.5624707380877894,-7.809284328824796e-37,-0.011434206739068031,0.7606636881828308,-0.0,0.006504325661808252,0.8514578938484192,0.0001642010174691677,0.019520288333296776
824.0,380.0,0.1077,-0.0239,9.4379,-0.049,0.0133,-0.124,-1.7806173763670863,-0.003943814430385828,3.0666394233703613,-1.5325015783309937,-8.696842996869236e-05,2.153951406478882,4.789295854955473,-0.00023572704230900854,0.2817142605781555,-1.5624297300921839,-2.173736216814586e-40,-0.0033289771527051926,0.7606796622276306,-0.0,0.0003863044548779726,0.8514540195465088,0.00034927393426187336,-0.006204377394169569
824.0,380.0,0.1077,-0.0239,9.4379,-0.049,0.0133,-0.124,-1.780621191064352,-0.004639908671379089,3.0492379665374756,-1.5325332880020142,-8.109140617307276e-05,2.159778594970703,4.789303946286001,-0.0002146426704712212,0.28511130809783936,-1.5624340216266077,-6.025583396596713e-44,-0.008366228081285954,0.7607120871543884,-0.0,-0.0010447908425703645,0.8514177799224854,0.0003407786716707051,0.009795496240258217
824.0,380.0,0.1077,-0.0239,9.4379,-0.049,0.0133,-0.124,-1.780706068078512,-0.004813919775187969,3.0530152320861816,-1.532521367073059,-7.595850911457092e-05,2.17002010345459,4.789255986898699,-0.00019702075223904103,0.2924949824810028,-1.5624826590167444,-0.0,-0.01108593586832285,0.7606878280639648,-0.0,0.006063058972358704,0.8513975143432617,0.0003342808340676129,0.03950510919094086
824.0,380.0,0.1077,-0.0239,9.4379,-0.049,0.0133,-0.124,-1.7806693516173304,-0.004027276765555143,3.043555736541748,-1.5324736833572388,-4.267983968020417e-05,2.1515820026397705,4.789299855917253,-0.00018207315588369966,0.2758437991142273,-1.56248647371401,-0.0,-0.010388419032096863,0.7606916427612305,-0.0,0.004223689902573824,0.8514581918716431,0.0002883794659283012,0.022245220839977264
824.0,380.0,0.1077,-0.0239,9.4379,-0.049,0.0133,-0.124,-1.7807537517943324,-0.003838316537439823,3.0471458435058594,-1.5324736833572388,-5.844359839102253e-05,2.127525568008423,4.7892720876033685,-0.0001653472427278757,0.2814635932445526,-1.5624826590167444,-0.0,-0.008015746250748634,0.7606833577156067,-0.0,0.0011825127294287086,0.8514421582221985,0.00024374737404286861,0.019809218123555183
824.0,380.0,0.1077,-0.0239,9.4379,-0.049,0.0133,-0.124,-1.7807861767210902,-0.004354808479547501,3.0865540504455566,-1.5325497388839722,-9.168268297798932e-05,2.183134078979492,4.789240236371317,-0.00011472125333966687,0.2816709280014038,-1.5624058882342737,-0.0,-0.012421251274645329,0.7606313824653625,-0.0,0.004625317174941301,0.8514421582221985,0.00010386427311459556,0.027081772685050964
824.0,380.0,0.1077,-0.0239,9.4379,-0.049,0.0133,-0.124,-1.780846735040182,-0.005389465019106865,3.045288562774658,-1.5325134992599487,-0.0004600587417371571,2.1943705081939697,4.78928396382884,-0.000124378566397354,0.28935176134109497,-1.562446419392721,-0.0,0.0021466687321662903,0.7606433629989624,1.1806682298498572e-09,0.021088462322950363,0.8514499664306641,5.948824036750011e-05,0.018027886748313904
824.0,380.0,0.1077,-0.0239,9.4379,-0.049,0.0133,-0.124,-1.7808619938292445,-0.006325399037450552,3.038756847381592,-1.532537817955017,-0.00036641847691498697,2.1871042251586914,4.789240236371317,-0.00013789685908704996,0.28983354568481445,-1.5624340216266077,-0.0,0.0007732498925179243,0.7606797218322754,3.286433896288604e-13,0.001930544152855873,0.8513776659965515,5.405010483627848e-07,0.00768436212092638
827.0,391.0,-0.1262,-0.1496,9.2237,-0.0266,0.0082,-0.1242,-1.7808777294554652,-0.006254854612052441,3.0865139961242676,-1.532529354095459,-0.00030443555442616343,2.160788059234619,4.789268004685201,-0.0001299915020354092,0.2837376594543457,-1.5624221006976526,-0.0,-0.002925119362771511,0.7607399225234985,9.147910831721121e-17,0.008624304085969925,0.851454496383667,1.3052464924862006e-12,0.014929044991731644
827.0,391.0,-0.1262,-0.1496,9.2237,-0.0266,0.0082,-0.1242,-1.7809826336302699,-0.005875370465219021,3.077287197113037,-1.5325815677642822,-0.00024841068079695106,2.19106125831604,4.789255852788248,-0.00013723433949053288,0.2839730978012085,-1.5624378363238733,-0.0,0.004122069571167231,0.7607197761535645,1.662587491869249e-21,-0.002012510783970356,0.8514019250869751,-0.0006708287401124835,0.01960059069097042
827.0,391.0,-0.1262,-0.1496,9.2237,-0.0266,0.0082,-0.1242,-1.7809535465636195,-0.006307069677859545,3.0409951210021973,-1.5324816703796387,-0.00024215578741859645,2.179313898086548,4.789244162827291,-0.00012981209147255868,0.28527921438217163,-1.562434498463766,-0.0,-0.00928083248436451,0.7606637477874756,4.627873208077828e-25,0.012529809027910233,0.8514060378074646,-0.0005507672321982682,-0.034068673849105835
827.0,391.0,-0.1262,-0.1496,9.2237,-0.0266,0.0082,-0.1242,-1.7810222111144007,-0.006672561634331942,3.023099899291992,-1.5325889587402344,-0.00022712106874678284,2.1794543266296387,4.789224314480581,-0.00012315096682868898,0.2803729176521301,-1.5624378363238733,-0.0,-0.01242302916944027,0.7606920003890991,1.2881856878051102e-28,0.010892366990447044,0.8514263033866882,-0.00040278848609887064,0.01339296717196703
827.0,391.0,-0.1262,-0.1496,9.2237,-0.0266,0.0082,-0.1242,-1.7810827694334925,-0.007259076926857233,3.0621728897094727,-1.532561182975769,-0.00020495393255259842,2.169139862060547,4.789240236371317,-0.00011714009451679885,0.28934043645858765,-1.5624101797686976,-0.0,-0.014376280829310417,0.7606916427612305,3.5857123924481574e-32,0.012953666970133781,0.8513697385787964,-0.00031750404741615057,0.040426284074783325
827.0,391.0,-0.1262,-0.1496,9.2237,-0.0266,0.0082,-0.1242,-1.78114714244985,-0.008583437651395798,3.0189361572265625,-1.532517433166504,-0.00018672921578399837,2.175795078277588,4.789255852788248,-0.00011168880155310035,0.281337708234787,-1.5624101797686976,-0.0,-0.0036186431534588337,0.7607280015945435,9.980962968657469e-36,0.024105310440063477,0.8514342904090881,-0.00026203045854344964,-0.019207514822483063
827.0,391.0,-0.1262,-0.1496,9.2237,-0.0266,0.0082,-0.1242,-1.7812229595580042,-0.00946993101388216,3.0221636295318604,-1.532537817955017,-0.00016693741781637073,2.171055793762207,4.7892880392964265,-0.00010516340262256563,0.2851828932762146,-1.5624826590167444,5.9831734688486904e-05,-6.032504825270735e-05,0.7607039213180542,1.813994875053119e-40,0.0012282752431929111,0.8514221906661987,-0.00021252402802929282,0.0575045682489872
827.0,391.0,-0.1262,-0.1496,9.2237,-0.0266,0.0082,-0.1242,-1.7812992535033167,-0.010431059636175632,3.0371744632720947,-1.5325372219085693,-0.00015464407624676824,2.156106948852539,4.7892720876033685,-0.00010074883175548166,0.27543196082115173,-1.5624221006976526,5.887447332497686e-05,-0.022112907841801643,0.7606838345527649,5.044674471569341e-44,0.02269473671913147,0.851454496383667,-0.0001861479104263708,0.034068863838911057
827.0,391.0,-0.1262,-0.1496,9.2237,-0.0266,0.0082,-0.1242,-1.7813760242857875,-0.011816754937171936,3.070838689804077,-1.532517433166504,-0.00014403708337340504,2.1350483894348145,4.789263810008325,-9.668988059274852e-05,0.26995930075645447,-1.5624139944659632,5.665132266585715e-05,-0.0010792568791657686,0.7606797814369202,0.0,-0.002023122739046812,0.8513532876968384,-0.00016559682262595743,-0.03315802663564682
827.0,391.0,-0.1262,-0.1496,9.2237,-0.0266,0.0082,-0.1242,-1.781386514703268,-0.013838636688888073,3.053332805633545,-1.532545804977417,-0.00013479177141562104,2.1305079460144043,4.789247754007139,-9.294535993831232e-05,0.27306148409843445,-1.5624106566058558,5.458961095428094e-05,-0.008640896528959274,0.760728120803833,0.0,0.015256399288773537,0.8514180779457092,-0.00014913226186763495,-0.034937843680381775
827.0,391.0,-0.1262,-0.1496,9.2237,-0.0266,0.0082,-0.1242,-1.781522890130514,-0.01584361493587494,3.059195041656494,-1.5325695276260376,-0.00012666202383115888,2.137833595275879,4.789240236371317,-8.948008326115087e-05,0.2873340845108032,-1.5623944441424769,6.319546810118482e-05,-0.0068703144788742065,0.7606596350669861,0.0,0.010670425370335579,0.8514260053634644,-0.0001356458815280348,-0.010536767542362213
827.0,391.0,-0.1262,-0.1496,9.2237,-0.0266,0.0082,-0.1242,-1.7816435299315394,-0.019519181922078133,3.049224376678467,-1.5325253009796143,-0.00011723407078534365,2.1776607036590576,4.789272095053949,-8.52426455821842e-05,0.2654763460159302,-1.5624025503741663,6.038029459887184e-05,-0.008001545444130898,0.7607361674308777,0.0,0.008370159193873405,0.8514180779457092,-0.00012105012137908489,0.020581161603331566
827.0,391.0,-0.1262,-0.1496,9.2237,-0.0266,0.0082,-0.1242,-1.7817470035948695,-0.022686392068862915,3.0175042152404785,-1.532509446144104,-0.00012689766299445182,2.1885576248168945,4.789236123650827,-8.231890387833118e-05,0.28946781158447266,-1.5624259153949183,2.5456432695136755e-07,-0.009867968037724495,0.7606433033943176,0.0,0.007740919012576342,0.8513936996459961,-0.00011201090092072263,0.008595312014222145
827.0,391.0,-0.1262,-0.1496,9.2237,-0.0266,0.0082,-0.1242,-1.7819401226439417,-0.02633577585220337,2.976041555404663,-1.5325695276260376,-0.00012052508827764541,2.166633129119873,4.7892720876033685,-7.95890373410657e-05,0.2739771902561188,-1.562378231679098,7.085890901814551e-11,-0.003320857882499695,0.7606555223464966,0.0,0.006309998221695423,0.8514383435249329,-0.00010422772174933925,0.013793126679956913
827.0,391.0,-0.1262,-0.1496,9.2237,-0.0266,0.0082,-0.1242,-1.782128473321432,-0.03028545342385769,2.977376699447632,-1.532561182975769,-0.00011476201325422153,2.1209170818328857,4.789228233485975,-2.215390715321064e-08,0.28258177638053894,-1.5623706022845667,1.9723838109108292e-14,-0.004932653624564409,0.7606878280639648,0.0,0.011409515514969826,0.8514019250869751,-9.745594434207305e-05,0.013070361688733101
808.0,370.0,0.3763,-0.1567,9.5683,-0.0426,-0.1,-0.1287,-1.7823053799071253,-0.03449879586696625,2.9489359855651855,-1.5325015783309937,-0.00010952487355098128,2.1288843154907227,4.789247754007139,-6.1666214669353625e-12,0.2808108925819397,-1.5623663107501429,5.4902024527160516e-18,-0.0006677071796730161,0.7607157230377197,0.0,0.003594175912439823,0.8513777256011963,-0.00010981255763908848,0.01153544057160616
808.0,370.0,0.3763,-0.1567,9.5683,-0.0426,-0.1,-0.1287,-1.7825685940184535,-0.040396954864263535,2.931893825531006,-1.5325651168823242,-0.00010324294999008998,2.140312671661377,4.789240228920736,-1.1207530999974056e-16,0.28115859627723694,-1.5623663107501429,9.978170954774674e-23,0.0016960195498540998,0.7607197761535645,0.0,0.0060407002456486225,0.8513697385787964,-0.00011649834777927026,0.01425912044942379
808.0,370.0,0.3763,-0.1567,9.5683,-0.0426,-0.1,-0.1287,-1.782849451104635,-0.04557180777192116,2.962317943572998,-1.5325655937194824,-8.67801281856373e-05,2.1727850437164307,4.789283926575937,-3.1196570733986183e-20,0.2806028723716736,-1.5623787085162562,0.00012382690329104662,-0.0038704238831996918,0.7607280015945435,0.0,0.009136652573943138,0.8513738512992859,-0.00012814618821721524,-0.031139276921749115
808.0,370.0,0.3763,-0.1567,9.5683,-0.0426,-0.1,-0.1287,-1.7831341228880824,-0.050287794321775436,2.95681095123291,-1.5324976444244385,-8.318114123539999e-05,2.17557954788208,4.7892517624195,-8.683679081616124e-24,0.27672600746154785,-1.5623787085162562,0.00013466636301018298,-0.0054483250714838505,0.7606997489929199,0.0,0.003524394240230322,0.8513734340667725,-0.00011062661360483617,-0.031410664319992065
808.0,370.0,0.3763,-0.1567,9.5683,-0.0426,-0.1,-0.1287,-1.783459325829977,-0.057094506919384,2.9615163803100586,-1.532545804977417,-8.001195965334773e-05,2.1267614364624023,4.789283948927679,-2.417134332250317e-27,0.2750992774963379,-1.5623825232135218,0.00013838028826285154,0.0026617064140737057,0.7606673836708069,0.0,0.0007831919938325882,0.8513941168785095,-0.0005503076827153563,-0.017710236832499504
808.0,370.0,0.3763,-0.1567,9.5683,-0.0426,-0.1,-0.1287,-1.7838155231871546,-0.06407572329044342,2.937478542327881,-1.532509446144104,-7.707533950451761e-05,2.1917073726654053,4.789295854955473,-6.728183128372151e-31,0.26791152358055115,-1.5624025503741663,0.0001393181155435741,-0.001995180267840624,0.760760486125946,0.0,0.003825597232207656,0.8513538837432861,-0.0007098305504769087,-0.06127920746803284
808.0,370.0,0.3763,-0.1567,9.5683,-0.0426,-0.1,-0.1287,-1.784384389916891,-0.07159949094057083,2.895481586456299,-1.5325850248336792,-7.347959035541862e-05,2.141169309616089,4.7892517549689195,-1.2228143121332454e-35,0.26960232853889465,-1.5623744169818323,0.00014506521984003484,0.0085257887840271,0.7607157826423645,0.0,0.007884208112955093,0.8513538837432861,-0.000879623054061085,-0.03690829128026962
808.0,370.0,0.3763,-0.1567,9.5683,-0.0426,-0.1,-0.1287,-1.7848531208434046,-0.07930289208889008,2.91243839263916,-1.5325253009796143,-7.099546928657219e-05,2.1442060470581055,4.789251732617178,-3.4037483646511234e-39,0.2708650231361389,-1.5624025503741663,0.00013787935313303024,-0.0021007563918828964,0.7606956958770752,0.0,0.006327787414193153,0.8513538837432861,-0.0013123173266649246,-0.02067098580300808
808.0,370.0,0.3763,-0.1567,9.5683,-0.0426,-0.1,-0.1287,-1.7853580913939417,-0.08227210491895676,2.876248359680176,-1.5325735807418823,-9.315014608546335e-07,2.173884153366089,4.78928396382884,-9.472777618835763e-43,0.2667539119720459,-1.5623791853534144,0.0002145492035197094,0.007732640951871872,0.7606313228607178,0.0,0.017491137608885765,0.8513299226760864,-0.0022880935575813055,-0.05971579998731613
808.0,370.0,0.3763,-0.1567,9.5683,-0.0426,-0.1,-0.1287,-1.7858592472472132,-0.08359842747449875,2.867833375930786,-1.5325417518615723,-2.249466238279929e-12,2.1475906372070312,4.789240199118414,-0.0,0.2792791724205017,-1.5623582045184534,0.000225964147830382,0.0068379663862288,0.7606436610221863,0.0,0.014668406918644905,0.8512491583824158,-0.004018409643322229,-0.09020747244358063
808.0,370.0,0.3763,-0.1567,9.5683,-0.0426,-0.1,-0.1287,-1.7864276371397914,-0.08384234458208084,2.851565361022949,-1.532593011856079,-5.0299491704208776e-05,2.1455678939819336,4.789255845337667,-4.96774009661749e-05,0.2753244638442993,-1.5623624960528772,0.00020079365640413016,0.007352340035140514,0.7606796622276306,0.0,0.0020659470465034246,0.8512496948242188,-0.006319321691989899,-0.06597781181335449
808.0,370.0,0.3763,-0.1567,9.5683,-0.0426,-0.1,-0.1287,-1.7871047459044398,-0.08854369074106216,2.853628158569336,-1.5325531959533691,-0.0013168740551918745,2.172001838684082,4.789240236371317,-9.028621184015151e-10,0.2556365132331848,-1.5623706022845667,0.0001747923670336604,0.024737581610679626,0.7606915831565857,0.0,0.00933973677456379,0.8512338399887085,-0.006924414541572332,-0.09556088596582413
808.0,370.0,0.3763,-0.1567,9.5683,-0.0426,-0.1,-0.1287,-1.7876163921751917,-0.09278544783592224,2.9130661487579346,-1.5325735807418823,-0.002406039973720908,2.1221401691436768,4.789248178690233,-0.00038501390372402966,0.269824743270874,-1.5623706022845667,0.00018584178178571165,0.023180168122053146,0.760707676410675,0.0,-0.005905473604798317,0.85118168592453,-0.005520302336663008,-0.12492724508047104
808.0,370.0,0.3763,-0.1567,9.5683,-0.0426,-0.1,-0.1287,-1.7882667980589808,-0.09703812003135681,2.8508996963500977,-1.532629132270813,-0.0027491585351526737,2.1039934158325195,4.789259786694803,-0.00045930800843052566,0.2520061731338501,-1.5623381773578089,0.00019472753047011793,0.023302387446165085,0.760615348815918,0.0,-0.0014755113516002893,0.8511618375778198,-0.0053759110160171986,-0.13050119578838348
837.0,382.0,-0.1161,0.4421,10.063,-0.0043,-0.1141,-0.1268,-1.7888671360411585,-0.107400082051754,2.827251434326172,-1.532629132270813,-0.002566141076385975,2.169935941696167,4.789236257761278,-0.0003663764800876379,0.25368303060531616,-1.5623744169818323,0.0002160941658075899,0.019383031874895096,0.7606472969055176,0.0,0.0021338481456041336,0.8511378765106201,-0.006086168345063925,-0.10197801142930984
837.0,382.0,-0.1161,0.4421,10.063,-0.0043,-0.1141,-0.1268,-1.7894507847227992,-0.11549752950668335,2.8735337257385254,-1.5325894355773926,-0.0014262300683185458,2.1436901092529297,4.789240228920736,-0.00030438846442848444,0.25087684392929077,-1.5623906294452112,0.0002266913215862587,0.004200889263302088,0.7607280611991882,0.0,0.014138864353299141,0.8510820269584656,-0.004650176502764225,-0.15493081510066986
837.0,382.0,-0.1161,0.4421,10.063,-0.0043,-0.1141,-0.1268,-1.7903944454588832,-0.12124121934175491,2.7954235076904297,-1.5325690507888794,7.505746907554567e-05,2.122903823852539,4.789283986180582,-0.00020702551410067827,0.2495916783809662,-1.5623582045184534,0.0002274974249303341,0.02616124041378498,0.7607038617134094,0.0,-0.004279200453311205,0.8509771823883057,-0.006764358840882778,-0.10922712087631226
837.0,382.0,-0.1161,0.4421,10.063,-0.0043,-0.1141,-0.1268,-1.7910896740355433,-0.12019795924425125,2.813352584838867,-1.532609462738037,0.0004973819013684988,2.1278138160705566,4.789243708341875,-0.0001818733144318685,0.2524540424346924,-1.5623624960528772,0.0002053209173027426,0.04304656386375427,0.7606997489929199,0.0,0.0001089133438654244,0.850969672203064,-0.007148240692913532,-0.1552795171737671
837.0,382.0,-0.1161,0.4421,10.063,-0.0043,-0.1141,-0.1268,-1.7917753658690394,-0.11703385412693024,2.84743595123291,-1.5325298309326172,0.00033088651252910495,2.1354897022247314,4.78924776145772,-0.00012980123574379832,0.2460675835609436,-1.5623868147479456,0.00021372003538999707,0.02341708540916443,0.7607001662254333,0.0,0.002175426110625267,0.8509779572486877,-0.005507858470082283,-0.14208120107650757
837.0,382.0,-0.1161,0.4421,10.063,-0.0043,-0.1141,-0.1268,-1.792593618432516,-0.11834881454706192,2.8018362522125244,-1.5326693058013916,4.658174930227688e-06,2.1492180824279785,4.7892477689083,-4.067074041813612e-05,0.24786747992038727,-1.5623624960528772,0.00019626942230388522,0.023387931287288666,0.7606833577156067,0.0,0.011378638446331024,0.8510023355484009,-0.003929118160158396,-0.12605644762516022
837.0,382.0,-0.1161,0.4421,10.063,-0.0043,-0.1141,-0.1268,-1.7933384380736292,-0.12590646743774414,2.865461826324463,-1.5326451063156128,-0.0021844671573489904,2.1714272499084473,4.789251769870081,-7.04626290826127e-05,0.24499574303627014,-1.5623462835894983,0.0001814312709029764,0.04370821639895439,0.760711669921875,0.0,0.008395751006901264,0.8509254455566406,-0.00229758326895535,-0.18508203327655792
837.0,382.0,-0.1161,0.4421,10.063,-0.0043,-0.1141,-0.1268,-1.7944289646544398,-0.14297811686992645,2.8068504333496094,-1.5326329469680786,-0.0034917506854981184,2.1363234519958496,4.789272139757433,-6.139239121694118e-05,0.24098356068134308,-1.5623744169818323,0.00016481774218846112,0.03365720808506012,0.7606756091117859,0.0,0.016568012535572052,0.8509056568145752,-0.001146586611866951,-0.13390487432479858
837.0,382.0,-0.1161,0.4421,10.063,-0.0043,-0.1141,-0.1268,-1.795272012750143,-0.15236443281173706,2.807849407196045,-1.5326573848724365,-0.0018057354027405381,2.169414520263672,4.789236146002569,-5.5693191825412214e-05,0.25398457050323486,-1.5623543898211878,0.00016627542208880186,0.029332879930734634,0.7606874704360962,0.0,0.007701072841882706,0.8509460091590881,-0.001096285181120038,-0.11699865013360977
837.0,382.0,-0.1161,0.4421,10.063,-0.0043,-0.1141,-0.1268,-1.7961307964720667,-0.15123024582862854,2.8200488090515137,-1.532685399055481,-0.00047006469685584307,2.1682379245758057,4.7892517624195,-2.5596316845621914e-05,0.24385268986225128,-1.562338654194967,0.0001785972563084215,0.025712789967656136,0.7606916427612305,0.0,0.0050962381064891815,0.8508896231651306,-0.002761011477559805,-0.20494619011878967
837.0,382.0,-0.1161,0.4421,10.063,-0.0043,-0.1141,-0.1268,-1.79697908977651,-0.14789517223834991,2.7909693717956543,-1.5325654745101929,0.00034458423033356667,2.1681594848632812,4.78925999531106,-2.3486179998144507e-05,0.24566471576690674,-1.5623706022845667,0.00018961477326229215,0.026791123673319817,0.7607559561729431,0.0,0.004748853854835033,0.8508694767951965,-0.0038519168738275766,-0.16986964643001556
837.0,382.0,-0.1161,0.4421,10.063,-0.0043,-0.1141,-0.1268,-1.797946115533346,-0.14538413286209106,2.8234426975250244,-1.5326052904129028,0.000201070070033893,2.1777026653289795,4.789288016944685,-2.17808938032249e-05,0.24263545870780945,-1.5623462835894983,0.0001746958150761202,0.02820494771003723,0.7607121467590332,0.0,0.010315954685211182,0.8508093953132629,-0.0037858285941183567,-0.15531876683235168
837.0,382.0,-0.1161,0.4421,10.063,-0.0043,-0.1141,-0.1268,-1.7991072140135707,-0.1494954377412796,2.788619041442871,-1.5326614379882812,3.783629765052865e-08,2.144547700881958,4.789232115238466,-1.9858447558362968e-05,0.2274772822856903,-1.5623663107501429,0.00015725284174550325,0.029664982110261917,0.7606915831565857,0.0,0.012260264717042446,0.8508496284484863,-0.0024239609483629465,-0.179831862449646
837.0,382.0,-0.1161,0.4421,10.063,-0.0043,-0.1141,-0.1268,-1.799995561639303,-0.15715427696704865,2.7920937538146973,-1.5326937437057495,-0.0008844100520946085,2.1234912872314453,4.789251769870081,-3.716815263032913e-05,0.23626285791397095,-1.56238300005068,0.00016579950170125812,0.03645328804850578,0.7606878280639648,0.0,0.011411855928599834,0.8508132100105286,-0.0019808753859251738,-0.15484602749347687
874.0,391.0,0.0676,0.3206,10.0068,-0.0373,-0.2253,-0.142,-1.800969739953512,-0.1647195965051651,2.75799822807312,-1.5326694250106812,-0.0010932788718491793,2.140678882598877,4.789255837887087,-3.507336805341765e-05,0.23906201124191284,-1.5623067061053675,0.00015630667621735483,0.050394751131534576,0.7607481479644775,0.0,0.0029362845234572887,0.8508415222167969,-0.0018669730052351952,-0.19089940190315247
874.0,391.0,0.0676,0.3206,10.0068,-0.0373,-0.2253,-0.142,-1.8018866978087367,-0.16581076383590698,2.794736862182617,-1.5327011346817017,-0.0004560876695904881,2.1436376571655273,4.789248171239652,-3.313632987556048e-05,0.2337518036365509,-1.5622862021075647,0.00018268477288074791,0.03818857669830322,0.760671854019165,0.0,0.0024456896353513002,0.8507936596870422,-0.002198775764554739,-0.19496074318885803
874.0,391.0,0.0676,0.3206,10.0068,-0.0373,-0.2253,-0.142,-1.8028761349120082,-0.16843023896217346,2.77622389793396,-1.5326734781265259,0.0005114173400215805,2.1238582134246826,4.789251613407888,-3.140206536045298e-05,0.22833669185638428,-1.5622900168048304,0.0001954757608473301,0.05238766595721245,0.7607680559158325,0.0,0.0017237048596143723,0.8507895469665527,-0.0037783884909003973,-0.20309503376483917
874.0,391.0,0.0676,0.3206,10.0068,-0.0373,-0.2253,-0.142,-1.8042503796019496,-0.17505015432834625,2.7955398559570312,-1.5326935052871704,0.0003760696854442358,2.1233155727386475,4.789251628309049,-2.9353668651310727e-05,0.22183284163475037,-1.5623467604266565,0.00019924025400541723,0.041965268552303314,0.7606514096260071,0.0,-0.005718240048736334,0.8507494330406189,-0.005215220153331757,-0.24566976726055145
874.0,391.0,0.0676,0.3206,10.0068,-0.0373,-0.2253,-0.142,-1.8053566418089808,-0.1749785840511322,2.7440075874328613,-1.532645583152771,0.0003680915106087923,2.1205785274505615,4.789247731655397,-1.4000346709508449e-05,0.2334594428539276,-1.5623424688922327,0.00020785327069461346,0.024603836238384247,0.7607038617134094,0.0,-0.008709026500582695,0.8507456183433533,-0.005895592737942934,-0.192468523979187
874.0,391.0,0.0676,0.3206,10.0068,-0.0373,-0.2253,-0.142,-1.8064586124815882,-0.17280802130699158,2.7484641075134277,-1.5326573848724365,0.0004406902298796922,2.1409382820129395,4.789275939553537,-1.3368766303756274e-05,0.23558324575424194,-1.5623067061053675,0.0001913852902362123,0.052594222128391266,0.7607399821281433,0.0,0.001544884406030178,0.8506934642791748,-0.006202609743922949,-0.18574023246765137
874.0,391.0,0.0676,0.3206,10.0068,-0.0373,-0.2253,-0.142,-1.8075281582274378,-0.17260083556175232,2.774512767791748,-1.5326212644577026,0.0002974552917294204,2.1214866638183594,4.7892799256141565,-1.2798433999705594e-05,0.23781713843345642,-1.5622981230365198,0.00017767252575140446,0.042465053498744965,0.7606473565101624,0.0,-0.008746053092181683,0.8506736755371094,-0.006558804307132959,-0.19721266627311707
874.0,391.0,0.0676,0.3206,10.0068,-0.0373,-0.2253,-0.142,-1.8085605106749476,-0.18734896183013916,2.829721212387085,-1.5326937437057495,-0.00018616433953866363,2.1043334007263184,4.789255845337667,-1.2274766959308181e-05,0.2234134078025818,-1.562310520802633,0.00021291074517648667,0.04313517361879349,0.76069575548172,0.0,0.0021175402216613293,0.8506214618682861,-0.005895901005715132,-0.21360446512699127
874.0,391.0,0.0676,0.3206,10.0068,-0.0373,-0.2253,-0.142,-1.8098322353758753,-0.20207101106643677,2.750800132751465,-1.5326733589172363,-0.00015088632062543184,2.122997522354126,4.789291883796015,-1.1792277291533537e-05,0.22660380601882935,-1.562310520802633,0.0001864559599198401,0.05279958248138428,0.7607080340385437,0.0,0.001225341227836907,0.8505770564079285,-0.005591253750026226,-0.22112292051315308
874.0,391.0,0.0676,0.3206,10.0068,-0.0373,-0.2253,-0.142,-1.8114544353880824,-0.21018940210342407,2.740480899810791,-1.5325814485549927,-4.904410211281629e-10,2.110511541366577,4.789376194566049,-1.460948169551557e-06,0.22929596900939941,-1.5623062292682093,0.00019136694027110934,0.05300525575876236,0.760671854019165,0.0,0.00710536353290081,0.8505051136016846,-0.006984548177570105,-0.23839318752288818
874.0,391.0,0.0676,0.3206,10.0068,-0.0373,-0.2253,-0.142,-1.8126913509764613,-0.19878628849983215,2.793215751647949,-1.5326292514801025,0.0015301029197871685,2.0660994052886963,4.789283479541101,-4.0666031653202594e-10,0.23488813638687134,-1.562314812337057,0.00017343522631563246,0.04375437647104263,0.7606514096260071,0.0,0.0013515630271285772,0.8504570126533508,-0.008922873996198177,-0.2524229884147644
874.0,391.0,0.0676,0.3206,10.0068,-0.0373,-0.2253,-0.142,-1.8139621220030726,-0.19440148770809174,2.781691074371338,-1.5326411724090576,0.0010809599189087749,2.1118006706237793,4.789263772755422,-1.1319539598188266e-13,0.22447165846824646,-1.5623191038714808,0.00018278358038514853,0.0510900653898716,0.7606796622276306,0.0,-0.008052250370383263,0.8504374027252197,-0.0094072250649333,-0.21273599565029144
874.0,391.0,0.0676,0.3206,10.0068,-0.0373,-0.2253,-0.142,-1.8151470623412074,-0.20472165942192078,2.7787132263183594,-1.5326775312423706,-0.000548913492821157,2.085139036178589,4.789328115969457,-3.150835508843909e-17,0.2187533974647522,-1.5623505751239222,0.00016964606766123325,0.04638317972421646,0.7606636881828308,0.0,0.004944971762597561,0.850405216217041,-0.008743280544877052,-0.22169411182403564
874.0,391.0,0.0676,0.3206,10.0068,-0.0373,-0.2253,-0.142,-1.8164931736388148,-0.2232215255498886,2.7211451530456543,-1.532637596130371,-0.0018399948021396995,2.125478744506836,4.789268019586363,-8.770466787929041e-21,0.2325281798839569,-1.5622780958758753,0.000156965441419743,0.04887247830629349,0.7607600092887878,0.0,0.01484886184334755,0.8502846956253052,-0.007674647960811853,-0.20369158685207367
874.0,391.0,0.0676,0.3206,10.0068,-0.0373,-0.2253,-0.142,-1.818319936791891,-0.22430121898651123,2.7914786338806152,-1.5326170921325684,0.00036788181751035154,2.14639949798584,4.789287867933073,-1.5939888618647795e-25,0.23070694506168365,-1.562314812337057,0.0001427392999175936,0.05089613050222397,0.7606874108314514,0.0,0.0003145304508507252,0.8502330183982849,-0.009066561236977577,-0.2152763307094574
851.0,350.0,0.3099,-0.2255,9.1005,-0.0385,-0.2074,-0.137,-1.8196011982359828,-0.2195352464914322,2.798496723175049,-1.5326653718948364,0.0005384663236327469,2.0864298343658447,4.789311821549692,-4.436927012297379e-29,0.23241232335567474,-1.5622661749469202,0.00013365426275413483,0.04553038254380226,0.7607280611991882,0.0,0.004044227302074432,0.8501811623573303,-0.011791961267590523,-0.2071993052959442
851.0,350.0,0.3099,-0.2255,9.1005,-0.0385,-0.2074,-0.137,-1.8209320507445277,-0.2259232997894287,2.7767820358276367,-1.5326614379882812,0.00018905691104009748,2.153541088104248,4.7892517624195,-1.2350350498697565e-32,0.237715944647789,-1.5622981230365198,0.0001256567775271833,0.03544388711452484,0.7606916427612305,0.0,0.017066488042473793,0.850080668926239,-0.012023461051285267,-0.2361617535352707
851.0,350.0,0.3099,-0.2255,9.1005,-0.0385,-0.2074,-0.137,-1.8222853145995082,-0.23216243088245392,2.7945847511291504,-1.5326653718948364,1.7606707558570633e-07,2.1354103088378906,4.789259771793642,-3.437765299656954e-36,0.2274213433265686,-1.5623305479632776,0.0001354802370769903,0.03526068478822708,0.760671854019165,0.0,0.004025178495794535,0.8500367403030396,-0.01210572849959135,-0.2453434020280838
851.0,350.0,0.3099,-0.2255,9.1005,-0.0385,-0.2074,-0.137,-1.8237081966795863,-0.22928786277770996,2.7947986125946045,-1.5326170921325684,4.2518126606300166e-13,2.0754141807556152,4.78926398882226,-9.569144914227381e-40,0.2325115203857422,-1.5622699896441858,0.0001282583543797955,0.0532013438642025,0.7606750726699829,0.0,-0.0018484434112906456,0.8499526381492615,-0.014045092277228832,-0.25616079568862915
851.0,350.0,0.3099,-0.2255,9.1005,-0.0385,-0.2074,-0.137,-1.8254991970457972,-0.23084311187267303,2.7892708778381348,-1.5326694250106812,1.3775336008878206e-20,2.103086471557617,4.789288054197588,-1.6815581571897805e-44,0.2410975992679596,-1.5623062292682093,0.0001197271267301403,0.0457131564617157,0.7606956958770752,0.0,-0.006565472111105919,0.8498648405075073,-0.015471367165446281,-0.20661848783493042
851.0,350.0,0.3099,-0.2255,9.1005,-0.0385,-0.2074,-0.137,-1.826892992059225,-0.23190313577651978,2.8174924850463867,-1.532637119293213,3.326581139444715e-26,2.0921132564544678,4.789279947965898,-0.0,0.2479521632194519,-1.5622418562518519,0.00010015181760536507,0.03671650588512421,0.7606916427612305,0.0,-0.008189473301172256,0.8497444987297058,-0.014881628565490246,-0.23187360167503357
851.0,350.0,0.3099,-0.2255,9.1005,-0.0385,-0.2074,-0.137,-1.8282629452147425,-0.23086941242218018,2.7804694175720215,-1.5326734781265259,8.033300769402269e-32,2.1357083320617676,4.789268004685201,-0.0,0.23662260174751282,-1.5623062292682093,9.38709345064126e-05,0.05005263164639473,0.7606796622276306,0.0,0.0069048041477799416,0.8496441841125488,-0.014860142953693867,-0.2613431215286255
851.0,350.0,0.3099,-0.2255,9.1005,-0.0385,-0.2074,-0.137,-1.829601903954977,-0.2341328263282776,2.8778183460235596,-1.5326415300369263,1.9399472804545793e-37,2.111194610595703,4.78925999531106,-0.0,0.22546514868736267,-1.5623191038714808,8.834233449306339e-05,0.03456486016511917,0.7606916427612305,0.0,0.004996501374989748,0.8495849967002869,-0.014577124267816544,-0.21648536622524261
851.0,350.0,0.3099,-0.2255,9.1005,-0.0385,-0.2074,-0.137,-1.8309952221312464,-0.23305170238018036,2.8384528160095215,-1.532685399055481,4.680336870844889e-43,2.1149401664733887,4.7893119407589815,-0.0,0.2282303124666214,-1.562270466481344,8.342874207301065e-05,0.05158507078886032,0.7606678009033203,0.0,0.014016587287187576,0.8495249152183533,-0.01498822309076786,-0.2608442008495331
851.0,350.0,0.3099,-0.2255,9.1005,-0.0385,-0.2074,-0.137,-1.832797189752096,-0.23524679243564606,2.867657423019409,-1.5326576232910156,-0.0,2.1341676712036133,4.78928783813075,-0.0,0.24706444144248962,-1.562314812337057,7.766879571136087e-05,0.038106173276901245,0.7607361674308777,0.0,0.0038322838954627514,0.8493965864181519,-0.01349345501512289,-0.179960697889328
851.0,350.0,0.3099,-0.2255,9.1005,-0.0385,-0.2074,-0.137,-1.8341542683043421,-0.2333073765039444,2.864119052886963,-1.5326052904129028,-0.0,2.1549887657165527,4.789288054197588,-0.0,0.2358112335205078,-1.5622742811786097,7.38450835342519e-05,0.047638263553380966,0.7606916427612305,0.0,-0.007522490806877613,0.8493285775184631,-0.012338017113506794,-0.17144891619682312
851.0,350.0,0.3099,-0.2255,9.1005,-0.0385,-0.2074,-0.137,-1.8356262646117152,-0.24017688632011414,2.794935941696167,-1.532629132270813,-0.0,2.106844425201416,4.789275917201795,-0.0,0.22792845964431763,-1.562293831502096,7.038026524242014e-05,0.040389638394117355,0.7606797218322754,0.0,-0.0012816783273592591,0.8492001295089722,-0.012020000256597996,-0.28266364336013794
851.0,350.0,0.3099,-0.2255,9.1005,-0.0385,-0.2074,-0.137,-1.8370276890196742,-0.23952575027942657,2.8328309059143066,-1.5326495170593262,-0.0,2.0997681617736816,4.789275902300634,-0.0,0.23282691836357117,-1.562326733266012,6.722602847730741e-05,0.05142096057534218,0.7606878280639648,0.0,-0.0016172078903764486,0.8491359353065491,-0.012019643560051918,-0.26168736815452576
851.0,350.0,0.3099,-0.2255,9.1005,-0.0385,-0.2074,-0.137,-1.838377138177389,-0.23102663457393646,2.868314266204834,-1.532621145248413,-0.0,2.1850264072418213,4.789279940515318,-0.0,0.24577394127845764,-1.5622862021075647,6.434239185182378e-05,0.03814742714166641,0.7606916427612305,0.0,0.01107543520629406,0.8490639328956604,-0.0119222616776824,-0.23003214597702026
673.0,259.0,0.993,-0.0843,9.725,-0.0275,-0.2185,-0.1474,-1.8403026066222132,-0.23560363054275513,2.8475842475891113,-1.5326250791549683,-0.0,2.1135404109954834,4.789271916240015,-0.0,0.23458576202392578,-1.5622981230365198,6.086149733164348e-05,0.03904813155531883,0.7606759667396545,0.0,0.0023064506240189075,0.8489639163017273,-0.010816586203873158,-0.22878441214561462
673.0,259.0,0.993,-0.0843,9.725,-0.0275,-0.2185,-0.1474,-1.8417712650694789,-0.24760213494300842,2.8604464530944824,-1.5325933694839478,-0.0,2.164090394973755,4.789279940515318,-0.0,0.2513136863708496,-1.5623186270343226,5.848840010003187e-05,0.053848788142204285,0.7607076168060303,0.0,0.0008077118545770645,0.8488917946815491,-0.011001160368323326,-0.21410220861434937
673.0,259.0,0.993,-0.0843,9.725,-0.0275,-0.2185,-0.1474,-1.8433410129942835,-0.24254240095615387,2.902458667755127,-1.5326653718948364,-0.0,2.0925581455230713,4.7892799256141565,-0.0,0.24353870749473572,-1.562314812337057,5.629340739687905e-05,0.047603677958250046,0.7607240080833435,0.0,0.014867749996483326,0.8488520979881287,-0.0119391530752182,-0.23240602016448975
673.0,259.0,0.993,-0.0843,9.725,-0.0275,-0.2185,-0.1474,-1.844818731347555,-0.23670713603496552,2.862760066986084,-1.532601237297058,-0.0,2.118055820465088,4.789251769870081,-0.0,0.23503616452217102,-1.562293831502096,5.4257179726846516e-05,0.04186702519655228,0.7607198357582092,0.0,0.006809351500123739,0.8488040566444397,-0.012978878803551197,-0.17087844014167786
673.0,259.0,0.993,-0.0843,9.725,-0.0275,-0.2185,-0.1474,-1.8462735615172328,-0.24301467835903168,2.8335914611816406,-1.5326653718948364,-0.0,2.1391124725341797,4.789275924652376,-0.0,0.2424144446849823,-1.5622981230365198,6.283276889007539e-05,0.03838454186916351,0.7607600092887878,0.0,0.004015444312244654,0.8487441539764404,-0.01392364501953125,-0.2003127634525299
673.0,259.0,0.993,-0.0843,9.725,-0.0275,-0.2185,-0.1474,-1.8483454189696253,-0.2525925934314728,2.90869140625,-1.5326974391937256,-0.0,2.1174702644348145,4.78926399627284,-0.0,0.2301023006439209,-1.5622981230365198,6.0041209508199245e-05,0.037156347185373306,0.7607558965682983,4.7061660124469995e-11,0.009834214113652706,0.8485758900642395,-0.014442083425819874,-0.19656845927238464
673.0,259.0,0.993,-0.0843,9.725,-0.0275,-0.2185,-0.1474,-1.8497826061644496,-0.24585261940956116,2.9166669845581055,-1.532629132270813,-0.0,2.098837375640869,4.789263981371679,-0.0,0.2353554517030716,-1.562270466481344,6.504379257421533e-08,0.032339222729206085,0.7607521414756775,1.3099783810596646e-14,0.010535080917179585,0.8484999537467957,-0.015769125893712044,-0.27147603034973145
673.0,259.0,0.993,-0.0843,9.725,-0.0275,-0.2185,-0.1474,-1.8512779674925746,-0.2418576180934906,2.8784384727478027,-1.5326813459396362,-0.0,2.084914207458496,4.7892919955547235,-0.0,0.24038834869861603,-1.5623262564288538,1.8105178814509237e-11,0.03689251095056534,0.7607038021087646,3.646372613172581e-18,0.008417162112891674,0.8483753204345703,-0.017217593267560005,-0.21156665682792664
673.0,259.0,0.993,-0.0843,9.725,-0.0275,-0.2185,-0.1474,-1.852769514123434,-0.2493300884962082,2.8796119689941406,-1.532629132270813,-0.0002180361479986459,2.074051856994629,4.789263802557745,-0.0,0.24105140566825867,-1.5623229185687464,5.039642748255746e-15,0.0304158553481102,0.7607521414756775,1.0149811058097172e-21,0.006033275276422501,0.8482871651649475,-0.01611003465950489,-0.2652413845062256
673.0,259.0,0.993,-0.0843,9.725,-0.0275,-0.2185,-0.1474,-1.854276796380514,-0.2527610957622528,2.925408363342285,-1.5326896905899048,-0.0007958480273373425,2.086364984512329,4.789243760495939,-0.0,0.2404545545578003,-1.5622862021075647,1.4028030897219148e-18,0.052306924015283585,0.760723888874054,2.8252372927959785e-25,-0.0017024569679051638,0.8482316732406616,-0.016596084460616112,-0.21657519042491913
673.0,259.0,0.993,-0.0843,9.725,-0.0275,-0.2185,-0.1474,-1.8562146625914515,-0.2487410306930542,2.8908767700195312,-1.5326374769210815,0.00010309826757293195,2.102205514907837,4.789299855917253,-0.0,0.2331560254096985,-1.562270466481344,2.5495249238379436e-23,0.03967722877860069,0.7606796622276306,5.134729347894655e-30,0.0028156829066574574,0.8480191826820374,-0.01911146007478237,-0.22549596428871155
673.0,259.0,0.993,-0.0843,9.725,-0.0275,-0.2185,-0.1474,-1.857762952844137,-0.2479614019393921,2.834505081176758,-1.532645583152771,0.00020599794515874237,2.1336166858673096,4.7892600176628015,-0.0,0.23546232283115387,-1.562281910573141,7.096696703585219e-27,0.0396885871887207,0.760711669921875,1.4292709078663496e-33,4.421353150974028e-05,0.8479315042495728,-0.021555300801992416,-0.19375166296958923
673.0,259.0,0.993,-0.0843,9.725,-0.0275,-0.2185,-0.1474,-1.8591090641417445,-0.24453678727149963,2.9176275730133057,-1.532637119293213,0.00015332948532886803,2.1197009086608887,4.789288016944685,-0.0,0.23527546226978302,-1.5622862021075647,1.9753913612461073e-30,0.052726686000823975,0.7606797218322754,3.978428487934377e-37,0.01265164464712143,0.847774863243103,-0.021122639998793602,-0.1894960105419159
673.0,259.0,0.993,-0.0843,9.725,-0.0275,-0.2185,-0.1474,-1.860584398309225,-0.2404392659664154,2.9441981315612793,-1.5326813459396362,0.00012211439025122672,2.125403881072998,4.78926798978404,-0.0,0.24124985933303833,-1.5622900168048304,5.4985745681753934e-34,0.0381261371076107,0.7606514096260071,3.057299181818962e-05,0.008282884955406189,0.8476589918136597,-0.021356087177991867,-0.22739291191101074
270.0,191.0,1.1384,-0.3182,9.3535,-0.0446,-0.2363,-0.1326,-1.8620597324767054,-0.24023713171482086,2.919886827468872,-1.5326855182647705,5.073422289569862e-05,2.0657827854156494,4.789251747518339,-0.0,0.23760469257831573,-1.562293831502096,1.5305480689608952e-37,0.043268442153930664,0.7606797218322754,2.5385844537595403e-07,0.0017748192185536027,0.8474904298782349,-0.021116135641932487,-0.2234479784965515
270.0,191.0,1.1384,-0.3182,9.3535,-0.0446,-0.2363,-0.1326,-1.863922735253805,-0.23920127749443054,2.942666530609131,-1.5326653718948364,4.1395993321202695e-05,2.1030991077423096,4.78926399627284,-0.0,0.2383325845003128,-1.562253777180807,2.781577451684762e-42,0.038222379982471466,0.7606756091117859,4.613752088711287e-12,-0.003293579211458564,0.8473464250564575,-0.018672684207558632,-0.2376486361026764
270.0,191.0,1.1384,-0.3182,9.3535,-0.0446,-0.2363,-0.1326,-1.8653375111021937,-0.23955823481082916,2.9441139698028564,-1.532597303390503,3.637628105934709e-05,2.103590726852417,4.789267997234621,-0.0,0.23358353972434998,-1.5623067061053675,1.401298464324817e-45,0.03352200239896774,0.7606956958770752,1.2842549433636171e-15,0.006412838585674763,0.8472428917884827,-0.016482733190059662,-0.21910269558429718
270.0,191.0,1.1384,-0.3182,9.3535,-0.0446,-0.2363,-0.1326,-1.866744180718893,-0.24699734151363373,2.9559783935546875,-1.5326977968215942,3.244232721044682e-05,2.083285331726074,4.789279955416479,-0.0,0.23604708909988403,-1.5622661749469202,0.0,0.031692441552877426,0.7606801390647888,3.574770877073014e-19,0.010845554992556572,0.8471545577049255,-0.014989333227276802,-0.229465052485466
270.0,191.0,1.1384,-0.3182,9.3535,-0.0446,-0.2363,-0.1326,-1.8682199917235316,-0.24559594690799713,3.0107924938201904,-1.5326814651489258,6.970770482439548e-05,2.0499632358551025,4.789287882834234,-0.0,0.2348286211490631,-1.5622261206256312,0.0,0.027863502502441406,0.7606756091117859,9.950508442727832e-23,0.009148911572992802,0.8470386862754822,-0.014013980515301228,-0.20403441786766052
270.0,191.0,1.1384,-0.3182,9.3535,-0.0446,-0.2363,-0.1326,-1.8697072468199671,-0.23434440791606903,2.959200859069824,-1.5326093435287476,0.0006154615548439324,2.1555237770080566,4.789291846543112,-0.0,0.2387692928314209,-1.5622862021075647,0.0,0.039539534598588943,0.7606834173202515,2.7697605880065526e-26,-0.008488094434142113,0.8469582796096802,-0.013530632480978966,-0.24076539278030396
270.0,191.0,1.1384,-0.3182,9.3535,-0.0446,-0.2363,-0.1326,-1.871549745599264,-0.2374752014875412,2.992234230041504,-1.5326251983642578,0.0005089829210191965,2.144289970397949,4.789307917445459,-0.0,0.24270805716514587,-1.5623186270343226,0.0,0.04155338928103447,0.7606231570243835,5.03390315372406e-31,-0.011352431029081345,0.8469069004058838,-0.010034027509391308,-0.1681913435459137
270.0,191.0,1.1384,-0.3182,9.3535,-0.0446,-0.2363,-0.1326,-1.8729802570738734,-0.24496546387672424,2.9226512908935547,-1.5325571298599243,0.0002991371729876846,2.0835533142089844,4.789320009737768,-0.0,0.2412288784980774,-1.5623067061053675,0.0,0.026991654187440872,0.7607038617134094,1.4012054521863646e-34,-0.010547541081905365,0.846875011920929,-0.008458849042654037,-0.21093663573265076
270.0,191.0,1.1384,-0.3182,9.3535,-0.0446,-0.2363,-0.1326,-1.8745199642577113,-0.23971658945083618,3.0464611053466797,-1.5326251983642578,0.0001753042743075639,2.0881991386413574,4.789320046990671,-0.0,0.23892879486083984,-1.562281910573141,0.0,0.03712422400712967,0.7607197761535645,3.9003066030157154e-38,-0.007459278684109449,0.8467946648597717,-0.007605292368680239,-0.1969655454158783
270.0,191.0,1.1384,-0.3182,9.3535,-0.0446,-0.2363,-0.1326,-1.8759829006590785,-0.2331480234861374,3.0655791759490967,-1.5326615571975708,0.00013592818868346512,2.1127572059631348,4.789303767472067,-0.0,0.2438795268535614,-1.5622981230365198,0.0,0.02647736668586731,0.7606956958770752,1.0857260501588683e-41,0.0012848465703427792,0.8467425107955933,-0.007208771072328091,-0.18741488456726074
270.0,191.0,1.1384,-0.3182,9.3535,-0.0446,-0.2363,-0.1326,-1.8774134121336878,-0.2390807867050171,3.0509910583496094,-1.5326615571975708,1.9155717382091098e-05,2.0964112281799316,4.789283941477098,-0.0,0.24031221866607666,-1.5623186270343226,0.0,0.035816796123981476,0.7606756091117859,2.802596928649634e-45,0.002654226031154394,0.846702516078949,-0.006115838885307312,-0.17048560082912445
270.0,191.0,1.1384,-0.3182,9.3535,-0.0446,-0.2363,-0.1326,-1.8794084988036097,-0.2485141158103943,3.0283849239349365,-1.5326330661773682,6.206208507178457e-13,2.0901739597320557,4.789271946042337,-0.0,0.24363204836845398,-1.5622981230365198,0.0,0.02685750462114811,0.7606756091117859,0.0,0.0048937685787677765,0.8466303944587708,-0.005804710555821657,-0.1811637282371521
270.0,191.0,1.1384,-0.3182,9.3535,-0.0446,-0.2363,-0.1326,-1.8808590374388636,-0.2408888041973114,2.9886903762817383,-1.532601237297058,1.4987265724687438e-18,2.1070051193237305,4.78930780568675,-0.0,0.2467731237411499,-1.5622580687152308,0.0,0.020329885184764862,0.7606436610221863,0.0,-0.016486376523971558,0.8465902805328369,-0.0064572920091450214,-0.22318707406520844
270.0,191.0,1.1384,-0.3182,9.3535,-0.0446,-0.2363,-0.1326,-1.8823305569090785,-0.23524346947669983,2.9860622882843018,-1.5326451063156128,3.619248079221499e-24,2.1193509101867676,4.78931179919795,-0.0,0.2431420087814331,-1.562326733266012,0.0,0.03390958905220032,0.7606678009033203,0.0,-0.004750756546854973,0.8466067910194397,-0.005482834298163652,-0.15778309106826782
270.0,191.0,1.1384,-0.3182,9.3535,-0.0446,-0.2363,-0.1326,-1.8836776218810023,-0.24056583642959595,3.0031065940856934,-1.5325971841812134,8.740058166725408e-30,2.104785919189453,4.789279992669382,-0.0,0.24247080087661743,-1.5623024145709437,0.0,0.03221067786216736,0.7606596350669861,0.0,0.0025851656682789326,0.8465744256973267,-0.0044331937097013,-0.1773930937051773
183.0,162.0,1.2945,-0.1011,9.5952,-0.0324,-0.1781,-0.1242,-1.8851491413512171,-0.24156486988067627,3.075687885284424,-1.5326653718948364,2.1106210568739783e-35,2.104827880859375,4.789315874665537,-0.0,0.24818134307861328,-1.5623024145709437,0.0,0.017088409513235092,0.7607280015945435,0.0,-0.01451772078871727,0.8465463519096375,-0.0032893752213567495,-0.19792446494102478
183.0,162.0,1.2945,-0.1011,9.5952,-0.0324,-0.1781,-0.1242,-1.887007852593893,-0.23303894698619843,3.072801113128662,-1.5325974225997925,6.838336505905107e-43,2.1203651428222656,4.78929183164195,-0.0,0.2515093982219696,-1.562281910573141,0.0,0.03366915136575699,0.7606997489929199,0.0,-0.004844788461923599,0.8465225100517273,-0.002821448026224971,-0.18377608060836792
183.0,162.0,1.2945,-0.1011,9.5952,-0.0324,-0.1781,-0.1242,-1.888411661187643,-0.23220373690128326,3.0963573455810547,-1.5326775312423706,-0.0,2.0880846977233887,4.7892797169979,-0.0,0.2434515357017517,-1.5622981230365198,0.0,0.04938758909702301,0.7606797218322754,0.0,-0.0013622874394059181,0.8464862704277039,-0.0028958504553884268,-0.23009616136550903
183.0,162.0,1.2945,-0.1011,9.5952,-0.0324,-0.1781,-0.1242,-1.8897668323912562,-0.2309417724609375,3.059912919998169,-1.5326576232910156,-0.0,2.077324867248535,4.789319920330801,-0.0,0.25371992588043213,-1.562326733266012,0.0,0.03522120416164398,0.760732114315033,0.0,0.0032154815271496773,0.8464862704277039,-0.0025805954355746508,-0.2543819546699524
183.0,162.0,1.2945,-0.1011,9.5952,-0.0324,-0.1781,-0.1242,-1.891069074670309,-0.2240920513868332,3.106046676635742,-1.5326411724090576,-0.0,2.0828042030334473,4.789271893888273,-0.0,0.23994769155979156,-1.562314812337057,0.0,0.04676459729671478,0.7607280015945435,0.0,0.006217549089342356,0.84644615650177,-0.002299634274095297,-0.19654035568237305
183.0,162.0,1.2945,-0.1011,9.5952,-0.0324,-0.1781,-0.1242,-1.8923779926695765,-0.22077760100364685,3.0361695289611816,-1.5326615571975708,-0.0,2.059283971786499,4.7892799256141565,-0.0,0.2525216341018677,-1.5623186270343226,0.0,0.034837156534194946,0.7606554627418518,0.0,0.0072995750233531,0.8464705348014832,-0.0025973012670874596,-0.21726948022842407
183.0,162.0,1.2945,-0.1011,9.5952,-0.0324,-0.1781,-0.1242,-1.8941275082030238,-0.21763788163661957,3.05745005607605,-1.5325814485549927,-0.0,2.1039106845855713,4.789239632874288,-0.0,0.23941680788993835,-1.5622661749469202,0.0,0.0381341427564621,0.7606714963912964,0.0,-0.0029754075221717358,0.8464344143867493,-0.0022020626347512007,-0.22033590078353882
183.0,162.0,1.2945,-0.1011,9.5952,-0.0324,-0.1781,-0.1242,-1.8954149685301722,-0.21551674604415894,3.0753912925720215,-1.5326576232910156,-0.0,2.069943904876709,4.789283934026518,-0.0,0.2349473536014557,-1.562314812337057,0.0,0.04022806137800217,0.7606473565101624,0.0,0.008731888607144356,0.8464102149009705,-0.0015184938674792647,-0.17899051308631897
183.0,162.0,1.2945,-0.1011,9.5952,-0.0324,-0.1781,-0.1242,-1.8967224560179652,-0.21517226099967957,3.0556893348693848,-1.5326132774353027,-0.0,2.0656838417053223,4.789291846543112,-0.0,0.24472694098949432,-1.5622862021075647,0.0,0.04220718890428543,0.7607280611991882,0.0,-0.012481220997869968,0.8464060425758362,-0.0009488653158769011,-0.23456215858459473
183.0,162.0,1.2945,-0.1011,9.5952,-0.0324,-0.1781,-0.1242,-1.8979774914183558,-0.21785172820091248,3.0496950149536133,-1.5325814485549927,-0.0,2.0686678886413574,4.789275909751215,-0.0,0.25960153341293335,-1.562281910573141,0.0,0.03210052102804184,0.760711669921875,0.0,-0.003762055654078722,0.8464303016662598,-0.0011085506994277239,-0.22174453735351562
183.0,162.0,1.2945,-0.1011,9.5952,-0.0324,-0.1781,-0.1242,-1.8992520771422328,-0.21705184876918793,3.0826449394226074,-1.5326212644577026,-0.0,2.066131353378296,4.789255524962702,-0.0,0.24964642524719238,-1.5622862021075647,0.0,0.04063935577869415,0.7606998085975647,0.0,-0.00408198731020093,0.8464101552963257,-0.0014715800061821938,-0.20653697848320007
183.0,162.0,1.2945,-0.1011,9.5952,-0.0324,-0.1781,-0.1242,-1.9009386501707972,-0.20300975441932678,3.1497137546539307,-1.5325974225997925,0.00021813112834934145,2.110151529312134,4.789271893888273,-0.0,0.24553513526916504,-1.5623062292682093,0.0,0.03379824385046959,0.7607240080833435,0.0,-0.002508365549147129,0.8463984131813049,-0.0015141559997573495,-0.20756888389587402
183.0,162.0,1.2945,-0.1011,9.5952,-0.0324,-0.1781,-0.1242,-1.9021936855711878,-0.20596030354499817,3.1197056770324707,-1.532589316368103,0.0006469709915108979,2.1043481826782227,4.789291846543112,-0.0,0.24883390963077545,-1.562281910573141,0.0,0.04834940284490585,0.7606554627418518,0.0,0.0022012037225067616,0.8463860750198364,-0.0017312035197392106,-0.23680812120437622
183.0,162.0,1.2945,-0.1011,9.5952,-0.0324,-0.1781,-0.1242,-1.903496881524557,-0.21715764701366425,3.1036109924316406,-1.5326052904129028,0.0002980013960041106,2.100196361541748,4.789295862406053,-0.0,0.2520658075809479,-1.562314812337057,0.0,0.0501997247338295,0.760635495185852,0.0,-0.017522037029266357,0.8464145660400391,-0.0017640264704823494,-0.22289815545082092
150.0,174.0,1.6893,-0.1531,9.2913,-0.029,-0.1845,-0.1263,-1.9048038921751917,-0.21922412514686584,3.1101622581481934,-1.5325934886932373,0.00019421392062213272,2.1099610328674316,4.789259972959318,-0.0,0.2373962104320526,-1.5623062292682093,0.0,0.04581619054079056,0.7607038617134094,0.0,0.007877003401517868,0.8463459610939026,-0.002417695475742221,-0.25062960386276245
150.0,174.0,1.6893,-0.1531,9.2913,-0.029,-0.1845,-0.1263,-1.906168600121969,-0.20799413323402405,3.099256992340088,-1.5325576066970825,0.0009714115876704454,2.071718215942383,4.789291846543112,-0.0,0.2364487648010254,-1.5622580687152308,0.0,0.042380645871162415,0.7607038617134094,0.0,-0.00016557599883526564,0.8463218212127686,-0.0030357870273292065,-0.18755091726779938
150.0,174.0,1.6893,-0.1531,9.2913,-0.029,-0.1845,-0.1263,-1.9078532658019007,-0.20700865983963013,3.1525793075561523,-1.5325257778167725,0.0008790470310486853,2.09325909614563,4.789307783335008,-0.0,0.2420840859413147,-1.5623062292682093,0.0,0.03854891657829285,0.7606751322746277,0.0,-0.01554046105593443,0.8463143706321716,-0.003529695328325033,-0.21973499655723572
150.0,174.0,1.6893,-0.1531,9.2913,-0.029,-0.1845,-0.1263,-1.9091979465880335,-0.21675023436546326,3.1568551063537598,-1.5325770378112793,0.00012467318447306752,2.086986541748047,4.789307783335008,-0.0,0.2378275990486145,-1.562338654194967,0.0,0.03038860857486725,0.7606678009033203,0.0,0.009568901732563972,0.8463143706321716,-0.0028668572194874287,-0.21381375193595886
150.0,174.0,1.6893,-0.1531,9.2913,-0.029,-0.1845,-0.1263,-1.910520692864889,-0.22228673100471497,3.1460378170013428,-1.5325775146484375,0.0001406073715770617,2.070040702819824,4.7893118662531755,-0.0,0.24601301550865173,-1.5622862021075647,0.0,0.028044676408171654,0.7607479691505432,0.0,0.008729726076126099,0.8462820649147034,-0.002465370809659362,-0.21800054609775543
150.0,174.0,1.6893,-0.1531,9.2913,-0.029,-0.1845,-0.1263,-1.9118677578368128,-0.21469667553901672,3.1248741149902344,-1.5325452089309692,0.0002624928019940853,2.08772611618042,4.789291846543112,-0.0,0.25035813450813293,-1.5622900168048304,0.0,0.03307729959487915,0.7606474161148071,0.0,0.011558142490684986,0.8463225960731506,-0.002744237659499049,-0.1855485588312149
150.0,174.0,1.6893,-0.1531,9.2913,-0.029,-0.1845,-0.1263,-1.9131175480284632,-0.21122217178344727,3.135340690612793,-1.5326331853866577,0.0002172344975406304,2.0777077674865723,4.789271908789434,-0.0,0.24126139283180237,-1.5622742811786097,0.0,0.04246895760297775,0.7607239484786987,0.0,-0.016728565096855164,0.8462985157966614,-0.0027194684371352196,-0.22176377475261688
150.0,174.0,1.6893,-0.1531,9.2913,-0.029,-0.1845,-0.1263,-1.9148408375182093,-0.2139960527420044,3.1323025226593018,-1.5325814485549927,-0.000122353172628209,2.0529839992523193,4.7892877040203,-0.0,0.23395231366157532,-1.5622661749469202,0.0,0.03699595481157303,0.7606433629989624,0.0,-0.0014185025356709957,0.8462581038475037,-0.0014677924336865544,-0.2238558530807495
150.0,174.0,1.6893,-0.1531,9.2913,-0.029,-0.1845,-0.1263,-1.9161235294737757,-0.21944980323314667,3.1785964965820312,-1.5325576066970825,-0.000155157977133058,2.0641517639160156,4.789307783335008,-0.0,0.24685737490653992,-1.5622542540179651,0.0,0.03816725313663483,0.7606756687164307,0.0,-0.01609572395682335,0.8462581038475037,-0.001178737380541861,-0.22313466668128967
150.0,174.0,1.6893,-0.1531,9.2913,-0.029,-0.1845,-0.1263,-1.9174472294249476,-0.21398895978927612,3.146862745285034,-1.532617211341858,-0.0002247980737593025,2.0316784381866455,4.789275924652376,-0.0,0.2508852779865265,-1.5622981230365198,0.0,0.03353215008974075,0.7606834173202515,0.0,-0.009355967864394188,0.8462380766868591,-0.00082034757360816,-0.1667458713054657
