ramyac6/ROB537/final_project/csv/bad/bad_31.csv
tof_0,tof_1,accelx,accely,accelz,gyrox,gyroy,gyroz,shoulder_lift_joint_position,shoulder_lift_joint_velocity,shoulder_lift_joint_effort,elbow_joint_position,elbow_joint_velocity,elbow_joint_effort,wrist_1_joint_position,wrist_1_joint_velocity,wrist_1_joint_effort,wrist_2_joint_position,wrist_2_joint_velocity,wrist_2_joint_effort,wrist_3_joint_position,wrist_3_joint_velocity,wrist_3_joint_effort,shoulder_pan_joint_position,shoulder_pan_joint_velocity,shoulder_pan_joint_effort
270.0,337.0,3.4648,-0.1214,8.7254,-0.0339,0.0272,-0.1155,-1.6598340473570765,0.0,2.544787883758545,-1.6479660272598267,9.233398302563255e-28,2.1477575302124023,4.531127615565918,0.0,0.2775123715400696,-1.3204382101642054,-0.0,-0.029136324301362038,0.24492147564888,-0.0,-0.008968651294708252,1.4652035236358643,0.0,-0.025602418929338455
270.0,337.0,3.4648,-0.1214,8.7254,-0.0339,0.0272,-0.1155,-1.659830232659811,0.0,2.570969820022583,-1.6479988098144531,2.2297570305083954e-33,2.170379400253296,4.531055136317871,0.0,0.2818584740161896,-1.320453945790426,-0.0,-0.03706486150622368,0.24485714733600616,-0.0,-0.014011189341545105,1.4652156829833984,0.0,-0.01565244235098362
270.0,337.0,3.4648,-0.1214,8.7254,-0.0339,0.0272,-0.1155,-1.6597854099669398,0.0,2.5517921447753906,-1.6479824781417847,5.3846014530452556e-39,2.1432852745056152,4.531087561244629,0.0,0.2869506776332855,-1.3204463163958948,-0.0,-0.03646543249487877,0.2448936402797699,-0.0,-0.0033898218534886837,1.4652276039123535,0.0,-0.026806475594639778
270.0,337.0,3.4648,-0.1214,8.7254,-0.0339,0.0272,-0.1155,-1.6597935161986292,0.0,2.5643062591552734,-1.6479865312576294,1.2611686178923354e-44,2.1605567932128906,4.53107134878125,0.0,0.27712172269821167,-1.3204463163958948,-0.0,-0.03592407703399658,0.24490177631378174,-0.0,-0.029930047690868378,1.4652116298675537,0.0,0.02398848533630371
270.0,337.0,3.4648,-0.1214,8.7254,-0.0339,0.0272,-0.1155,-1.6598340473570765,0.0,2.573014497756958,-1.6479218006134033,-0.0,2.1842987537384033,4.531067057246826,0.0,0.28307223320007324,-1.320442024861471,-0.0,-0.043097611516714096,0.24490588903427124,-0.0,-0.014021861366927624,1.4652116298675537,0.0,0.009571726433932781
270.0,337.0,3.4648,-0.1214,8.7254,-0.0339,0.0272,-0.1155,-1.659825941125387,0.0,2.590167284011841,-1.6479700803756714,-0.0,2.1786136627197266,4.531079455012939,0.0,0.28186216950416565,-1.3204343954669397,-0.0,-0.03567703813314438,0.24488122761249542,-0.0,-0.02101522497832775,1.4652116298675537,0.0,-0.011772891506552696
270.0,337.0,3.4648,-0.1214,8.7254,-0.0339,0.0272,-0.1155,-1.6597935161986292,0.0,2.5532288551330566,-1.6479907035827637,-0.0,2.223651170730591,4.531067057246826,0.0,0.2744242548942566,-1.3204501310931605,-0.0,-0.039722323417663574,0.2449018359184265,-0.0,-0.024672219529747963,1.4652681350708008,0.0,-0.012517106719315052
270.0,337.0,3.4648,-0.1214,8.7254,-0.0339,0.0272,-0.1155,-1.659830232659811,0.0,2.514523506164551,-1.6479302644729614,-0.0,2.172825813293457,4.531067057246826,0.0,0.2829318940639496,-1.320470158253805,-0.0,-0.039576441049575806,0.24489770829677582,-0.0,-0.017859622836112976,1.4652116298675537,0.0,-0.031357407569885254
285.0,343.0,3.6305,-0.07,8.5848,-0.0402,0.0192,-0.1074,-1.6597935161986292,0.0,2.5843985080718994,-1.6479907035827637,-0.0,2.159686326980591,4.531067057246826,0.0,0.28294137120246887,-1.320442024861471,-0.0,-0.025844119489192963,0.24486124515533447,-0.0,-0.03116161935031414,1.465207576751709,0.0,-0.008198301307857037
285.0,343.0,3.6305,-0.07,8.5848,-0.0402,0.0192,-0.1074,-1.6598383388915003,0.0,2.60329532623291,-1.6479907035827637,-0.0,2.1450729370117188,4.531062765712402,0.0,0.2779141068458557,-1.3204181830035608,-0.0,-0.046567756682634354,0.24491778016090393,-0.0,-0.016317622736096382,1.4651997089385986,0.0,-0.020174257457256317
285.0,343.0,3.6305,-0.07,8.5848,-0.0402,0.0192,-0.1074,-1.6597935161986292,0.0,2.532884120941162,-1.6479262113571167,-0.0,2.112532615661621,4.531083269710205,0.0,0.2756674289703369,-1.3204224745379847,-0.0,-0.03375212103128433,0.2449214905500412,-0.0,-0.015970690175890923,1.465195655822754,0.0,0.0038709500804543495
285.0,343.0,3.6305,-0.07,8.5848,-0.0402,0.0192,-0.1074,-1.6598664722838343,0.0,2.5344111919403076,-1.6480268239974976,-0.0,2.1691882610321045,4.531030817622803,0.0,0.2883020341396332,-1.32045823732485,-0.0,-0.029294319450855255,0.24488139152526855,-0.0,-0.02313719317317009,1.4652116298675537,0.0,-0.002826578915119171
285.0,343.0,3.6305,-0.07,8.5848,-0.0402,0.0192,-0.1074,-1.65980925182485,0.0,2.5492498874664307,-1.6480189561843872,-0.0,2.182420253753662,4.5311314302631835,0.0,0.27860599756240845,-1.3204181830035608,-0.0,-0.033058371394872665,0.24487315118312836,-0.0,-0.01120926532894373,1.4652477502822876,0.0,-0.06713863462209702
285.0,343.0,3.6305,-0.07,8.5848,-0.0402,0.0192,-0.1074,-1.6598097286620082,0.0,2.552928924560547,-1.6479545831680298,-0.0,2.184929132461548,4.531083269710205,0.0,0.278179794549942,-1.3204501310931605,-0.0,-0.025820164009928703,0.24490956962108612,-0.0,-0.02550465241074562,1.4651997089385986,0.0,-0.04781989008188248
285.0,343.0,3.6305,-0.07,8.5848,-0.0402,0.0192,-0.1074,-1.6598059139647425,0.0,2.521820545196533,-1.6480671167373657,-0.0,2.1316843032836914,4.531090899104736,0.0,0.2876780033111572,-1.3204343954669397,-0.0,-0.04434832185506821,0.2449013888835907,-0.0,-0.008807901293039322,1.4652156829833984,0.0,0.002182513475418091
285.0,343.0,3.6305,-0.07,8.5848,-0.0402,0.0192,-0.1074,-1.6597892246642054,0.0,2.5622382164001465,-1.6479783058166504,-0.0,2.1271629333496094,4.531083269710205,0.0,0.2844582200050354,-1.3204224745379847,-0.0,-0.02458992600440979,0.244897723197937,-0.0,-0.020673565566539764,1.4652316570281982,0.0,0.008515264838933945
285.0,343.0,3.6305,-0.07,8.5848,-0.0402,0.0192,-0.1074,-1.6598216495909632,0.0,2.5307838916778564,-1.6480108499526978,-0.0,2.1485254764556885,4.5311195093342285,0.0,0.2877134084701538,-1.3204501310931605,-0.0,-0.037939466536045074,0.24484886229038239,-0.0,-0.010890338569879532,1.4651916027069092,0.0,-0.022596891969442368
285.0,343.0,3.6305,-0.07,8.5848,-0.0402,0.0192,-0.1074,-1.6597615681090296,0.0,2.5430748462677,-1.647942304611206,-0.0,2.177647590637207,4.531099959010742,0.0,0.28874287009239197,-1.3204382101642054,-0.0,-0.03426950424909592,0.24485303461551666,-0.0,-0.017488690093159676,1.4652035236358643,0.0,-0.032738327980041504
285.0,343.0,3.6305,-0.07,8.5848,-0.0402,0.0192,-0.1074,-1.65980925182485,0.0,2.5413310527801514,-1.6479660272598267,-0.0,2.1639039516448975,4.531131907100342,0.0,0.2841131389141083,-1.3204501310931605,-0.0,-0.026477688923478127,0.2448854297399521,-0.0,-0.018167581409215927,1.4652316570281982,0.0,-0.014176986180245876
285.0,343.0,3.6305,-0.07,8.5848,-0.0402,0.0192,-0.1074,-1.659830232659811,0.0,2.572418689727783,-1.6480145454406738,-0.0,2.145236015319824,4.531111403102539,0.0,0.27335625886917114,-1.3204901854144495,-0.0,-0.03099341318011284,0.24488948285579681,-0.0,-0.014559526927769184,1.4652235507965088,0.0,0.02549489587545395
285.0,343.0,3.6305,-0.07,8.5848,-0.0402,0.0192,-0.1074,-1.659825941125387,0.0,2.5613248348236084,-1.6480227708816528,-0.0,2.1838533878326416,4.531111403102539,0.0,0.2839375138282776,-1.32045823732485,-0.0,-0.039672963321208954,0.2449054718017578,-0.0,-0.021868951618671417,1.465207576751709,0.0,0.017165476456284523
285.0,343.0,3.6305,-0.07,8.5848,-0.0402,0.0192,-0.1074,-1.659825941125387,0.0,2.5425546169281006,-1.6480305194854736,-0.0,2.1784822940826416,4.531094713802002,0.0,0.29341012239456177,-1.3205145041095179,-0.0,-0.037437554448843,0.24493372440338135,-0.0,-0.004532904829829931,1.4652276039123535,0.0,0.02384713850915432
284.0,334.0,3.5091,-0.076,8.6728,-0.0463,0.0246,-0.1067,-1.6598135433592738,0.0,2.5471363067626953,-1.6480185985565186,-0.0,2.162548542022705,4.531115217799805,0.0,0.29311808943748474,-1.320430103932516,-0.0,-0.037175923585891724,0.2449256181716919,-0.0,-0.023676346987485886,1.4651916027069092,0.0,-0.02830798178911209
284.0,334.0,3.5091,-0.076,8.6728,-0.0463,0.0246,-0.1067,-1.6598054371275843,0.0,2.5526418685913086,-1.6479865312576294,-0.0,2.14951229095459,4.5310584741779785,0.0,0.2853441834449768,-1.3204782644854944,-0.0,-0.02494829148054123,0.24486538767814636,-0.0,-0.023865457624197006,1.4652316570281982,0.0,-0.010541664436459541
284.0,334.0,3.5091,-0.076,8.6728,-0.0463,0.0246,-0.1067,-1.6598497829832972,0.0,2.5485122203826904,-1.6480026245117188,-0.0,2.163869857788086,4.5311314302631835,0.0,0.28711241483688354,-1.3204620520221155,-0.0,-0.03508337587118149,0.2448977530002594,-0.0,-0.025628646835684776,1.4652358293533325,0.0,0.032957710325717926
284.0,334.0,3.5091,-0.076,8.6728,-0.0463,0.0246,-0.1067,-1.6598178348936976,0.0,2.551534414291382,-1.6479947566986084,-0.0,2.1597766876220703,4.531083269710205,0.0,0.28553348779678345,-1.3204777876483362,-0.0,-0.03694312646985054,0.24489355087280273,-0.0,-0.013114598579704762,1.4652276039123535,0.0,0.018477583304047585
284.0,334.0,3.5091,-0.076,8.6728,-0.0463,0.0246,-0.1067,-1.65980925182485,0.0,2.550164222717285,-1.647950530052185,-0.0,2.1663520336151123,4.53109519063916,0.0,0.2850743234157562,-1.3204577604876917,-0.0,-0.035224586725234985,0.24483340978622437,-0.0,-0.020366529002785683,1.465207576751709,0.0,0.010365752503275871
284.0,334.0,3.5091,-0.076,8.6728,-0.0463,0.0246,-0.1067,-1.65980925182485,0.0,2.5792503356933594,-1.6479989290237427,-0.0,2.1248278617858887,4.531087561244629,0.0,0.2768951952457428,-1.320453945790426,-0.0,-0.03762266784906387,0.24492186307907104,-0.0,-0.01881534233689308,1.4652435779571533,0.0,0.019037924706935883
284.0,334.0,3.5091,-0.076,8.6728,-0.0463,0.0246,-0.1067,-1.659825941125387,0.0,2.547334671020508,-1.6480227708816528,-0.0,2.137113094329834,4.531070871944092,0.0,0.27811285853385925,-1.320453945790426,-0.0,-0.02618631348013878,0.24487315118312836,-0.0,-0.028695859014987946,1.4651833772659302,0.0,-0.018015261739492416
284.0,334.0,3.5091,-0.076,8.6728,-0.0463,0.0246,-0.1067,-1.659830232659811,0.0,2.584402084350586,-1.6479945182800293,-0.0,2.1233890056610107,4.531099005336426,0.0,0.2914954125881195,-1.3203700224505823,-0.0,-0.03894159197807312,0.24487721920013428,-0.0,-0.01480906829237938,1.465207576751709,0.0,-0.05599862337112427
284.0,334.0,3.5091,-0.076,8.6728,-0.0463,0.0246,-0.1067,-1.659830232659811,0.0,2.575094223022461,-1.6480308771133423,-0.0,2.123286724090576,4.531107111568115,0.0,0.2901048958301544,-1.3204777876483362,-0.0,-0.03268410265445709,0.24490179121494293,-0.0,-0.023551147431135178,1.4652395248413086,0.0,-0.010585302487015724
284.0,334.0,3.5091,-0.076,8.6728,-0.0463,0.0246,-0.1067,-1.659854074517721,0.0,2.577895402908325,-1.648006796836853,-0.0,2.2129173278808594,4.531107588405273,0.0,0.2651216983795166,-1.3204463163958948,-0.0,-0.04308343678712845,0.24487315118312836,-0.0,-0.014147032983601093,1.4652235507965088,0.0,0.007826847955584526
284.0,334.0,3.5091,-0.076,8.6728,-0.0463,0.0246,-0.1067,-1.659854074517721,0.0,2.56290602684021,-1.6480506658554077,-0.0,2.1610660552978516,4.531087561244629,0.0,0.2745748460292816,-1.3204658667193812,-0.0,-0.04683729261159897,0.24493378400802612,-0.0,-0.022004161030054092,1.465207576751709,0.0,-0.006303370930254459
284.0,334.0,3.5091,-0.076,8.6728,-0.0463,0.0246,-0.1067,-1.6598016224303187,0.0,2.5118024349212646,-1.648018717765808,-0.0,2.1144490242004395,4.531043215388916,0.0,0.28580358624458313,-1.320453945790426,-0.0,-0.04239031672477722,0.24490998685359955,-0.0,-0.018551267683506012,1.4652317762374878,0.0,-0.01686808466911316
284.0,334.0,3.5091,-0.076,8.6728,-0.0463,0.0246,-0.1067,-1.6598016224303187,0.0,2.556168794631958,-1.648006796836853,-0.0,2.139490842819214,4.531031294459961,0.0,0.2941344380378723,-1.3204620520221155,-0.0,-0.030107751488685608,0.24485711753368378,-0.0,-0.0328042134642601,1.465247631072998,0.0,0.0024990669917315245
284.0,334.0,3.5091,-0.076,8.6728,-0.0463,0.0246,-0.1067,-1.659825941125387,0.0,2.578256130218506,-1.6480108499526978,-0.0,2.149679183959961,4.531155272121094,0.0,0.28416362404823303,-1.3204620520221155,-0.0,-0.03698762133717537,0.24486947059631348,-0.0,-0.011413031257689,1.465207576751709,0.0,-0.013591797091066837
284.0,334.0,3.5091,-0.076,8.6728,-0.0463,0.0246,-0.1067,-1.6597892246642054,0.0,2.568500518798828,-1.648026943206787,-0.0,2.1794283390045166,4.531075163478516,0.0,0.28763747215270996,-1.3204501310931605,-0.0,-0.03652442619204521,0.24484111368656158,-0.0,-0.012877784669399261,1.4651916027069092,0.0,0.03803735971450806
277.0,339.0,3.4594,-0.1047,8.7512,-0.0379,0.0249,-0.113,-1.6598097286620082,0.0,2.5459725856781006,-1.6480026245117188,-0.0,2.202103614807129,4.53107134878125,0.0,0.2876242995262146,-1.3204620520221155,-0.0,-0.04975349083542824,0.24488139152526855,-0.0,-0.009574605152010918,1.465219497680664,0.0,-0.0036800061352550983
277.0,339.0,3.4594,-0.1047,8.7512,-0.0379,0.0249,-0.113,-1.6598054371275843,0.0,2.5333433151245117,-1.6479586362838745,-0.0,2.2073700428009033,4.53112713872876,0.0,0.28476065397262573,-1.320430103932516,-0.0,-0.04254178702831268,0.24488139152526855,-0.0,-0.027098657563328743,1.4652235507965088,0.0,-0.047380365431308746
277.0,339.0,3.4594,-0.1047,8.7512,-0.0379,0.0249,-0.113,-1.6597935161986292,0.0,2.5537095069885254,-1.6479988098144531,-0.0,2.156155586242676,4.531143351192139,0.0,0.2813902199268341,-1.32045823732485,-0.0,-0.0255904383957386,0.24487721920013428,-0.0,-0.009969214908778667,1.4652518033981323,0.0,-0.04336630553007126
277.0,339.0,3.4594,-0.1047,8.7512,-0.0379,0.0249,-0.113,-1.6598340473570765,0.0,2.536500930786133,-1.647998571395874,-0.0,2.192620038986206,4.531111403102539,0.0,0.28521817922592163,-1.320442024861471,-0.0,-0.0401739776134491,0.24492192268371582,-0.0,-0.023113898932933807,1.4651916027069092,0.0,0.00822842214256525
277.0,339.0,3.4594,-0.1047,8.7512,-0.0379,0.0249,-0.113,-1.6598416767516078,0.0,2.4915034770965576,-1.6480309963226318,-0.0,2.1980762481689453,4.531139536494873,0.0,0.28375470638275146,-1.320453945790426,-0.0,-0.051916755735874176,0.244897723197937,-0.0,-0.017489928752183914,1.4652116298675537,0.0,-0.06002570688724518
277.0,339.0,3.4594,-0.1047,8.7512,-0.0379,0.0249,-0.113,-1.6598059139647425,0.0,2.5476019382476807,-1.6479700803756714,-0.0,2.1350419521331787,4.53107134878125,0.0,0.2841716706752777,-1.320430103932516,-0.0,-0.04179631173610687,0.24484936892986298,-0.0,-0.0011458289809525013,1.465171217918396,0.0,-0.04522969573736191
277.0,339.0,3.4594,-0.1047,8.7512,-0.0379,0.0249,-0.113,-1.6598416767516078,0.0,2.5566623210906982,-1.6479984521865845,-0.0,2.181640863418579,4.531099005336426,0.0,0.28274548053741455,-1.3204501310931605,-0.0,-0.03394201025366783,0.24488547444343567,-0.0,-0.014366649091243744,1.4651793241500854,0.0,-0.022421300411224365
277.0,339.0,3.4594,-0.1047,8.7512,-0.0379,0.0249,-0.113,-1.659825941125387,0.0,2.5287396907806396,-1.6480026245117188,-0.0,2.179387331008911,4.531102820033691,0.0,0.2788000702857971,-1.3204382101642054,-0.0,-0.03486720100045204,0.2449178248643875,-0.0,-0.011910484172403812,1.465195655822754,0.0,-0.051226675510406494
277.0,339.0,3.4594,-0.1047,8.7512,-0.0379,0.0249,-0.113,-1.659830232659811,0.0,2.567824363708496,-1.6479865312576294,-0.0,2.102484703063965,4.531155272121094,0.0,0.2715756893157959,-1.3205025831805628,-0.0,-0.029458604753017426,0.24488139152526855,-0.0,-0.01226869411766529,1.465195655822754,0.0,-0.038144756108522415
277.0,339.0,3.4594,-0.1047,8.7512,-0.0379,0.0249,-0.113,-1.6598135433592738,0.0,2.545620918273926,-1.6479742527008057,-0.0,2.1661057472229004,4.531075640315674,0.0,0.27182185649871826,-1.320442024861471,-0.0,-0.038245853036642075,0.2448251098394394,-0.0,-0.011191198602318764,1.4651916027069092,0.0,-0.008482192642986774
277.0,339.0,3.4594,-0.1047,8.7512,-0.0379,0.0249,-0.113,-1.6598016224303187,0.0,2.5484867095947266,-1.648046612739563,-0.0,2.164311408996582,4.531102820033691,0.0,0.27732187509536743,-1.3204501310931605,-0.0,-0.0301557295024395,0.2448735535144806,-0.0,-0.01515272632241249,1.4652156829833984,0.0,0.02924911305308342
277.0,339.0,3.4594,-0.1047,8.7512,-0.0379,0.0249,-0.113,-1.6598454914488734,0.0,2.588798761367798,-1.6479865312576294,-0.0,2.1559996604919434,4.531079455012939,0.0,0.28552278876304626,-1.3204739729510706,-0.0,-0.037655286490917206,0.24489769339561462,-0.0,-0.017857320606708527,1.4652198553085327,0.0,-0.05582590401172638
277.0,339.0,3.4594,-0.1047,8.7512,-0.0379,0.0249,-0.113,-1.6598135433592738,0.0,2.5952930450439453,-1.6479700803756714,-0.0,2.1426522731781006,4.53109519063916,0.0,0.29988735914230347,-1.3204901854144495,-0.0,-0.053506799042224884,0.24491778016090393,-0.0,-0.028490493074059486,1.4651556015014648,0.0,-0.012815850786864758
277.0,339.0,3.4594,-0.1047,8.7512,-0.0379,0.0249,-0.113,-1.6598135433592738,0.0,2.56474232673645,-1.6479988098144531,-0.0,2.151644229888916,4.531059427852295,0.0,0.29601263999938965,-1.320430103932516,-0.0,-0.02491813153028488,0.244905486702919,-0.0,-0.01576431654393673,1.4651997089385986,0.0,-0.015923790633678436
281.0,322.0,3.4834,-0.1041,8.7835,-0.0333,0.025,-0.1191,-1.6598216495909632,0.0,2.521944284439087,-1.6479865312576294,-0.0,2.1670684814453125,4.531031771297119,0.0,0.2850344777107239,-1.320442024861471,-0.0,-0.035713087767362595,0.2449013888835907,-0.0,-0.02957192435860634,1.4652435779571533,0.0,-0.02239385060966015
281.0,322.0,3.4834,-0.1041,8.7835,-0.0333,0.025,-0.1191,-1.6597892246642054,0.0,2.5566563606262207,-1.648026943206787,-0.0,2.228421211242676,4.531055136317871,0.0,0.284721314907074,-1.3204777876483362,-0.0,-0.03584202006459236,0.2449255734682083,-0.0,-0.02246127277612686,1.4652079343795776,0.0,0.0025708889588713646
281.0,322.0,3.4834,-0.1041,8.7835,-0.0333,0.025,-0.1191,-1.65980925182485,0.0,2.5514838695526123,-1.6479865312576294,-0.0,2.1934640407562256,4.531115217799805,0.0,0.2726481556892395,-1.320401970540182,-0.0,-0.040916524827480316,0.24490585923194885,-0.0,-0.0005473587661981583,1.465207576751709,0.0,-0.005656549707055092
281.0,322.0,3.4834,-0.1041,8.7835,-0.0333,0.025,-0.1191,-1.6598621807494105,0.0,2.604755401611328,-1.648006796836853,-0.0,2.167426347732544,4.531083746547363,0.0,0.28531867265701294,-1.320430103932516,-0.0,-0.028217826038599014,0.2449054718017578,-0.0,-0.020102161914110184,1.465247631072998,0.0,-0.024628182873129845
281.0,322.0,3.4834,-0.1041,8.7835,-0.0333,0.025,-0.1191,-1.6598292789854945,0.0,2.533196210861206,-1.648006796836853,-0.0,2.1623239517211914,4.531071825618408,0.0,0.2832483649253845,-1.3204463163958948,-0.0,-0.033108390867710114,0.24487723410129547,-0.0,-0.002728901105001569,1.4652156829833984,0.0,-0.004162322264164686
281.0,322.0,3.4834,-0.1041,8.7835,-0.0333,0.025,-0.1191,-1.6598497829832972,0.0,2.523686408996582,-1.6480145454406738,-0.0,2.1658589839935303,4.531083746547363,0.0,0.2817709743976593,-1.3204224745379847,-0.0,-0.027616702020168304,0.24492147564888,-0.0,-0.01756538823246956,1.4652436971664429,0.0,0.013794331811368465
281.0,322.0,3.4834,-0.1041,8.7835,-0.0333,0.025,-0.1191,-1.6597329578795375,0.0,2.5940475463867188,-1.648006796836853,-0.0,2.1782174110412598,4.531083746547363,0.0,0.28604206442832947,-1.3204262892352503,-0.0,-0.03486372530460358,0.24490180611610413,-0.0,-0.01198657602071762,1.4652276039123535,0.0,0.006504477467387915
281.0,322.0,3.4834,-0.1041,8.7835,-0.0333,0.025,-0.1191,-1.6598292789854945,0.0,2.5602869987487793,-1.648010492324829,-0.0,2.1083507537841797,4.5310632425495605,0.0,0.28622937202453613,-1.3204463163958948,-0.0,-0.022338636219501495,0.2449255734682083,-0.0,-0.01790933683514595,1.4652116298675537,0.0,0.005402404814958572
281.0,322.0,3.4834,-0.1041,8.7835,-0.0333,0.025,-0.1191,-1.6598135433592738,0.0,2.553256034851074,-1.6479907035827637,-0.0,2.1372790336608887,4.531051321620605,0.0,0.2900933027267456,-1.3204262892352503,-0.0,-0.05036243051290512,0.24487721920013428,-0.0,-0.020376717671751976,1.4652436971664429,0.0,0.025161102414131165
281.0,322.0,3.4834,-0.1041,8.7835,-0.0333,0.025,-0.1191,-1.6597935161986292,0.0,2.573146343231201,-1.6480227708816528,-0.0,2.1523101329803467,4.53112713872876,0.0,0.2872290015220642,-1.320430103932516,-0.0,-0.033506378531455994,0.24482516944408417,-0.0,-0.02727503702044487,1.4652316570281982,0.0,0.00784046109765768
281.0,322.0,3.4834,-0.1041,8.7835,-0.0333,0.025,-0.1191,-1.6597935161986292,0.0,2.5238990783691406,-1.6480108499526978,-0.0,2.1348602771759033,4.531139536494873,0.0,0.28910261392593384,-1.3204463163958948,-0.0,-0.03530947491526604,0.24488942325115204,-0.0,-0.0263240784406662,1.4651997089385986,0.0,-0.0002767324913293123
281.0,322.0,3.4834,-0.1041,8.7835,-0.0333,0.025,-0.1191,-1.659830232659811,0.0,2.5861563682556152,-1.648034691810608,-0.0,2.1459527015686035,4.531087561244629,0.0,0.28002771735191345,-1.3204463163958948,-0.0,-0.030493199825286865,0.24490542709827423,-0.0,-0.012406596913933754,1.4652116298675537,0.0,0.01402856595814228
281.0,322.0,3.4834,-0.1041,8.7835,-0.0333,0.025,-0.1191,-1.6598054371275843,0.0,2.5362818241119385,-1.6480305194854736,-0.0,2.160824775695801,4.531067057246826,0.0,0.2759813964366913,-1.3204658667193812,-0.0,-0.025901932269334793,0.2448570877313614,-0.0,-0.0196536798030138,1.4651997089385986,0.0,-0.02666861191391945
281.0,322.0,3.4834,-0.1041,8.7835,-0.0333,0.025,-0.1191,-1.6598135433592738,0.0,2.557603597640991,-1.6479947566986084,-0.0,2.1619062423706055,4.531079455012939,0.0,0.2757628560066223,-1.3204463163958948,-0.0,-0.030737103894352913,0.2448771893978119,-0.0,-0.023883551359176636,1.465195655822754,0.0,0.03101705014705658
281.0,322.0,3.4834,-0.1041,8.7835,-0.0333,0.025,-0.1191,-1.6598741016783656,0.0,2.5503783226013184,-1.6480425596237183,-0.0,2.1553003787994385,4.531051321620605,0.0,0.28854960203170776,-1.3204463163958948,-0.0,-0.04073040187358856,0.2449095994234085,-0.0,-0.021186843514442444,1.4651793241500854,0.0,-0.024168862029910088
274.0,319.0,3.4726,-0.0963,8.677,-0.037,0.0223,-0.1138,-1.659830232659811,0.0,2.5690248012542725,-1.6480227708816528,-0.0,2.155965805053711,4.531115217799805,0.0,0.28823569416999817,-1.3204858938800257,-0.0,-0.028696438297629356,0.24487315118312836,-0.0,-0.021443206816911697,1.4652198553085327,0.0,-0.04641833156347275
274.0,319.0,3.4726,-0.0963,8.677,-0.037,0.0223,-0.1138,-1.6597892246642054,0.0,2.5588674545288086,-1.6480345726013184,-0.0,2.1999011039733887,4.531087561244629,0.0,0.28582069277763367,-1.32045823732485,-0.0,-0.038430869579315186,0.24485710263252258,-0.0,-0.019842933863401413,1.465195655822754,0.0,0.02635151520371437
274.0,319.0,3.4726,-0.0963,8.677,-0.037,0.0223,-0.1138,-1.6598135433592738,0.0,2.5280873775482178,-1.6479381322860718,-0.0,2.202159881591797,4.531055136317871,0.0,0.274170458316803,-1.3204620520221155,-0.0,-0.03788934275507927,0.24487721920013428,-0.0,-0.01864522695541382,1.4651875495910645,0.0,-0.02835776098072529
274.0,319.0,3.4726,-0.0963,8.677,-0.037,0.0223,-0.1138,-1.6597973308958949,0.0,2.563900947570801,-1.6480185985565186,-0.0,2.203449249267578,4.53109519063916,0.0,0.29126086831092834,-1.320470158253805,-0.0,-0.03335285559296608,0.24489770829677582,-0.0,-0.018963996320962906,1.4652599096298218,0.0,-0.00826291088014841
274.0,319.0,3.4726,-0.0963,8.677,-0.037,0.0223,-0.1138,-1.659830232659811,0.0,2.574131965637207,-1.6479823589324951,-0.0,2.1892802715301514,4.531078978175781,0.0,0.2872309386730194,-1.3204777876483362,-0.0,-0.0284695066511631,0.2448534518480301,-0.0,-0.014900111593306065,1.46519935131073,0.0,-0.015376647934317589
274.0,319.0,3.4726,-0.0963,8.677,-0.037,0.0223,-0.1138,-1.6598178348936976,0.0,2.4819040298461914,-1.6480629444122314,-0.0,2.1646618843078613,4.531110926265381,0.0,0.2810485363006592,-1.3204463163958948,-0.0,-0.029404859989881516,0.24487723410129547,-0.0,-0.0024953342508524656,1.4652599096298218,0.0,-0.04649443179368973
274.0,319.0,3.4726,-0.0963,8.677,-0.037,0.0223,-0.1138,-1.6597973308958949,0.0,2.561048746109009,-1.6479907035827637,-0.0,2.1767959594726562,4.531090899104736,0.0,0.27755534648895264,-1.3204143683062952,-0.0,-0.039560846984386444,0.2448694407939911,-0.0,-0.022717267274856567,1.4652435779571533,0.0,0.0325307697057724
274.0,319.0,3.4726,-0.0963,8.677,-0.037,0.0223,-0.1138,-1.6598016224303187,0.0,2.533283233642578,-1.6480305194854736,-0.0,2.1740169525146484,4.53107134878125,0.0,0.2882785499095917,-1.3204658667193812,-0.0,-0.03574381768703461,0.24487319588661194,-0.0,-0.01980428956449032,1.4652116298675537,0.0,-0.030416157096624374
274.0,319.0,3.4726,-0.0963,8.677,-0.037,0.0223,-0.1138,-1.6597935161986292,0.0,2.566800117492676,-1.6480309963226318,-0.0,2.1379570960998535,4.531075640315674,0.0,0.2754320502281189,-1.3204143683062952,-0.0,-0.037115681916475296,0.2448853999376297,-0.0,-0.009059838019311428,1.4651715755462646,0.0,-0.029004227370023727
274.0,319.0,3.4726,-0.0963,8.677,-0.037,0.0223,-0.1138,-1.6597892246642054,0.0,2.5959019660949707,-1.6480026245117188,-0.0,2.227461338043213,4.531099005336426,0.0,0.2762477397918701,-1.3204343954669397,-0.0,-0.04227428883314133,0.24490176141262054,-0.0,-0.01462214719504118,1.4651916027069092,0.0,-0.049133602529764175
274.0,319.0,3.4726,-0.0963,8.677,-0.037,0.0223,-0.1138,-1.659825941125387,0.0,2.5699009895324707,-1.6479421854019165,-0.0,2.156420946121216,4.531099005336426,0.0,0.2802298367023468,-1.3204739729510706,-0.0,-0.022952347993850708,0.24488945305347443,-0.0,-0.006023600231856108,1.4652518033981323,0.0,0.004704136401414871
274.0,319.0,3.4726,-0.0963,8.677,-0.037,0.0223,-0.1138,-1.6598741016783656,0.0,2.5618882179260254,-1.6479700803756714,-0.0,2.1972906589508057,4.5311314302631835,0.0,0.2911522388458252,-1.3204777876483362,-0.0,-0.028087861835956573,0.2449297457933426,-0.0,-0.016260644420981407,1.4651833772659302,0.0,-0.04836854338645935
274.0,319.0,3.4726,-0.0963,8.677,-0.037,0.0223,-0.1138,-1.6598135433592738,0.0,2.5762479305267334,-1.648006796836853,-0.0,2.1728177070617676,4.531123324031494,0.0,0.2780255377292633,-1.320470158253805,-0.0,-0.03327355906367302,0.24487315118312836,-0.0,-0.021136639639735222,1.465207576751709,0.0,-0.029169326648116112
274.0,319.0,3.4726,-0.0963,8.677,-0.037,0.0223,-0.1138,-1.6598216495909632,0.0,2.590465545654297,-1.6479902267456055,-0.0,2.163917303085327,4.531058951015137,0.0,0.27724307775497437,-1.3204577604876917,-0.0,-0.04043897986412048,0.2449054718017578,-0.0,-0.02687680535018444,1.4652316570281982,0.0,0.05953701585531235
294.0,343.0,3.4935,-0.1418,8.7212,-0.0363,0.0258,-0.1167,-1.6598698101439417,0.0,2.5544192790985107,-1.6480227708816528,-0.0,2.200073719024658,4.531111403102539,0.0,0.27917423844337463,-1.32048207918276,-0.0,-0.03538738191127777,0.2449173927307129,-0.0,-0.022588837891817093,1.4652239084243774,0.0,0.03029032051563263
294.0,343.0,3.4935,-0.1418,8.7212,-0.0363,0.0258,-0.1167,-1.6598578892149867,0.0,2.5637245178222656,-1.6479741334915161,-0.0,2.17155122756958,4.531099005336426,0.0,0.3003886342048645,-1.320470158253805,-0.0,-0.03284413367509842,0.24486538767814636,-0.0,-0.009680330753326416,1.4652358293533325,0.0,-0.06036369502544403
294.0,343.0,3.4935,-0.1418,8.7212,-0.0363,0.0258,-0.1167,-1.6598783932127894,0.0,2.5269386768341064,-1.6480590105056763,-0.0,2.181257724761963,4.531087561244629,0.0,0.2820647358894348,-1.3204382101642054,-0.0,-0.03951277211308479,0.24483336508274078,-0.0,-0.010840488597750664,1.465187430381775,0.0,-0.014703549444675446
294.0,343.0,3.4935,-0.1418,8.7212,-0.0363,0.0258,-0.1167,-1.6598135433592738,0.0,2.5202131271362305,-1.6479741334915161,-0.0,2.1713919639587402,4.531115217799805,0.0,0.28353676199913025,-1.3204858938800257,-0.0,-0.027524666860699654,0.2448451966047287,1.435998910892522e-07,-0.02523862197995186,1.4652435779571533,0.0,0.011600373312830925
294.0,343.0,3.4935,-0.1418,8.7212,-0.0363,0.0258,-0.1167,-1.6598178348936976,0.0,2.5482397079467773,-1.648006796836853,-0.0,2.1248035430908203,4.531067057246826,0.0,0.2833598256111145,-1.3204262892352503,-0.0,-0.039970751851797104,0.24486121535301208,3.997155384460882e-11,-0.024004332721233368,1.465195655822754,0.0,0.04059990122914314
294.0,343.0,3.4935,-0.1418,8.7212,-0.0363,0.0258,-0.1167,-1.6598097286620082,0.0,2.527932643890381,-1.6479947566986084,-0.0,2.197065830230713,4.53103940069165,0.0,0.2861766815185547,-1.3204739729510706,-0.0,-0.03487749397754669,0.24495020508766174,1.1126228383713174e-14,-0.01946421153843403,1.4652198553085327,0.0,0.00782402977347374
294.0,343.0,3.4935,-0.1418,8.7212,-0.0363,0.0258,-0.1167,-1.6598340473570765,0.0,2.5770936012268066,-1.647998571395874,-0.0,2.1468665599823,4.5310913759418945,0.0,0.2941148281097412,-1.320470158253805,-0.0,-0.03747057914733887,0.24485303461551666,3.097026251944477e-18,-0.02379797026515007,1.4651833772659302,0.0,-0.062021270394325256
294.0,343.0,3.4935,-0.1418,8.7212,-0.0363,0.0258,-0.1167,-1.6597773037352503,0.0,2.5522119998931885,-1.6480388641357422,-0.0,2.158470630645752,4.5310913759418945,0.0,0.2896278500556946,-1.32045823732485,-0.0,-0.04604259505867958,0.2449137270450592,8.620687118384597e-22,-0.012198064476251602,1.465207576751709,0.0,0.023256292566657066
294.0,343.0,3.4935,-0.1418,8.7212,-0.0363,0.0258,-0.1167,-1.6598178348936976,0.0,2.571434736251831,-1.648006796836853,-0.0,2.1889541149139404,4.53109519063916,0.0,0.28123408555984497,-1.32048207918276,-0.0,-0.03889179974794388,0.24488946795463562,2.399599995812995e-25,-0.017235511913895607,1.4652156829833984,0.0,0.0022758906707167625
294.0,343.0,3.4935,-0.1418,8.7212,-0.0363,0.0258,-0.1167,-1.6598216495909632,0.0,2.5771074295043945,-1.6479742527008057,-0.0,2.1972460746765137,4.531079455012939,0.0,0.2791319787502289,-1.3204057852374476,-0.0,-0.048948485404253006,0.24484114348888397,6.679375418027704e-29,-0.0051161665469408035,1.465195655822754,0.0,-0.0630032941699028
294.0,343.0,3.4935,-0.1418,8.7212,-0.0363,0.0258,-0.1167,-1.6598135433592738,0.0,2.5031325817108154,-1.647990345954895,-0.0,2.1524388790130615,4.5310632425495605,0.0,0.2670804262161255,-1.3204658667193812,-0.0,-0.04300433397293091,0.24489356577396393,1.2139434853407383e-33,-0.014160357415676117,1.4652435779571533,-1.2591119258331673e-09,0.009558220393955708
294.0,343.0,3.4935,-0.1418,8.7212,-0.0363,0.0258,-0.1167,-1.6597773037352503,0.0,2.5395970344543457,-1.6479380130767822,-0.0,2.118929624557495,4.531115217799805,0.0,0.28614872694015503,-1.3204057852374476,-0.0,-0.031229224056005478,0.24489355087280273,3.3790570372942115e-37,-0.017323262989521027,1.4651997089385986,-3.0406070880112076e-15,-0.003032431937754154
294.0,343.0,3.4935,-0.1418,8.7212,-0.0363,0.0258,-0.1167,-1.6598016224303187,0.0,2.550950527191162,-1.6480185985565186,-0.0,2.1679093837738037,4.5310913759418945,0.0,0.2911914587020874,-1.3204658667193812,-0.0,-0.03446515277028084,0.24492147564888,9.405795552241037e-41,-0.01586327888071537,1.4652116298675537,4.1480678191874176e-05,-0.047389499843120575
294.0,343.0,3.4935,-0.1418,8.7212,-0.0363,0.0258,-0.1167,-1.6598054371275843,0.0,2.5215845108032227,-1.6479660272598267,-0.0,2.1690046787261963,4.531107111568115,0.0,0.2990601658821106,-1.3204658667193812,-0.0,-0.034937866032123566,0.24489770829677582,2.6624670822171524e-44,-0.02220221981406212,1.4652156829833984,1.0017096180314766e-10,0.009655355475842953
294.0,343.0,3.4935,-0.1418,8.7212,-0.0363,0.0258,-0.1167,-1.6598216495909632,0.0,2.5458691120147705,-1.647998571395874,-0.0,2.190608501434326,4.531087561244629,0.0,0.2924179136753082,-1.3204658667193812,-0.0,-0.030885744839906693,0.2448333352804184,0.0,-0.02034774050116539,1.4651916027069092,2.4190109538170144e-16,0.008466184139251709
286.0,343.0,3.4917,-0.1143,8.6255,-0.0371,0.0241,-0.1222,-1.6598016224303187,0.0,2.498591899871826,-1.648054838180542,-0.0,2.20652437210083,4.53104750692334,0.0,0.269013375043869,-1.3204620520221155,-0.0,-0.03179439157247543,0.2449137568473816,0.0,-0.019355053082108498,1.4651793241500854,5.841627336954496e-22,-0.024239204823970795
286.0,343.0,3.4917,-0.1143,8.6255,-0.0371,0.0241,-0.1222,-1.6598454914488734,0.0,2.5523762702941895,-1.6479700803756714,-0.0,2.172868013381958,4.531087561244629,0.0,0.29832884669303894,-1.320453945790426,-0.0,-0.03632955625653267,0.24485716223716736,0.0,0.0016568383434787393,1.465195655822754,1.8926128609821057e-29,0.029426787048578262
286.0,343.0,3.4917,-0.1143,8.6255,-0.0371,0.0241,-0.1222,-1.659797807733053,0.0,2.5545029640197754,-1.6479865312576294,-0.0,2.1542563438415527,4.53107134878125,0.0,0.27167439460754395,-1.320453945790426,-0.0,-0.0272359699010849,0.24492593109607697,0.0,-0.01571306586265564,1.4652156829833984,4.5704374043391023e-35,0.007128332741558552
286.0,343.0,3.4917,-0.1143,8.6255,-0.0371,0.0241,-0.1222,-1.6598578892149867,0.0,2.559849500656128,-1.6479824781417847,-0.0,2.126011848449707,4.5311314302631835,0.0,0.29035961627960205,-1.3204901854144495,-0.0,-0.034861475229263306,0.2448931634426117,0.0,-0.01386278960853815,1.4651672840118408,1.1037047094561557e-40,-0.0400325246155262
286.0,343.0,3.4917,-0.1143,8.6255,-0.0371,0.0241,-0.1222,-1.6598054371275843,0.0,2.5511274337768555,-1.6480268239974976,-0.0,2.1940090656280518,4.531079455012939,0.0,0.2981739342212677,-1.3204339186297815,-0.0,-0.029777366667985916,0.24493378400802612,0.0,-0.005102901719510555,1.465207576751709,0.0,0.010230563580989838
286.0,343.0,3.4917,-0.1143,8.6255,-0.0371,0.0241,-0.1222,-1.6598054371275843,0.0,2.577446222305298,-1.6479628086090088,-0.0,2.165865659713745,4.531087561244629,0.0,0.29518821835517883,-1.3204463163958948,-0.0,-0.03649594634771347,0.2449013888835907,0.0,-0.012664714828133583,1.4651997089385986,0.0,-0.0037214593030512333
286.0,343.0,3.4917,-0.1143,8.6255,-0.0371,0.0241,-0.1222,-1.65980925182485,0.0,2.581747055053711,-1.6479865312576294,-0.0,2.2244975566864014,4.531102820033691,0.0,0.2809320390224457,-1.3204382101642054,-0.0,-0.037241652607917786,0.24487315118312836,0.0,0.0030559166334569454,1.4652156829833984,0.0,0.014725382439792156
286.0,343.0,3.4917,-0.1143,8.6255,-0.0371,0.0241,-0.1222,-1.659797807733053,0.0,2.5675277709960938,-1.6479578018188477,-0.0,2.1390187740325928,4.531087561244629,0.0,0.299389123916626,-1.3204620520221155,-0.0,-0.03985506668686867,0.24493375420570374,0.0,-0.02663460373878479,1.4652316570281982,0.0,-0.035263512283563614
286.0,343.0,3.4917,-0.1143,8.6255,-0.0371,0.0241,-0.1222,-1.6598216495909632,0.0,2.5671377182006836,-1.6480108499526978,-0.0,2.1686148643493652,4.531075163478516,0.0,0.28102821111679077,-1.320470158253805,-0.0,-0.03354670852422714,0.24488137662410736,0.0,-0.021675122901797295,1.4652235507965088,0.0,0.000120584387332201
286.0,343.0,3.4917,-0.1143,8.6255,-0.0371,0.0241,-0.1222,-1.6598411999144496,0.0,2.5847127437591553,-1.6480345726013184,-0.0,2.176589250564575,4.531079455012939,0.0,0.2901264727115631,-1.32045823732485,-0.0,-0.03341328352689743,0.24486123025417328,0.0,-0.01880779303610325,1.465179204940796,0.0,-0.03848307579755783
286.0,343.0,3.4917,-0.1143,8.6255,-0.0371,0.0241,-0.1222,-1.6598416767516078,0.0,2.530484199523926,-1.6479988098144531,-0.0,2.1860995292663574,4.531090899104736,0.0,0.2805786728858948,-1.3204463163958948,-0.0,-0.03610081970691681,0.24490591883659363,0.0,-0.012261911295354366,1.4652239084243774,0.0,0.027235545217990875
286.0,343.0,3.4917,-0.1143,8.6255,-0.0371,0.0241,-0.1222,-1.6598454914488734,0.0,2.5694897174835205,-1.6479823589324951,-0.0,2.1854982376098633,4.531087561244629,0.0,0.29224374890327454,-1.3204739729510706,-0.0,-0.02439042553305626,0.24488140642642975,0.0,-0.008776518516242504,1.4652354717254639,0.0,-0.011330518871545792
286.0,343.0,3.4917,-0.1143,8.6255,-0.0371,0.0241,-0.1222,-1.6598178348936976,0.0,2.547224521636963,-1.6479865312576294,-0.0,2.1418509483337402,4.531115217799805,0.0,0.2919485569000244,-1.3204382101642054,-0.0,-0.030905120074748993,0.24490958452224731,0.0,-0.03166448697447777,1.4652518033981323,0.0,0.016467690467834473
286.0,343.0,3.4917,-0.1143,8.6255,-0.0371,0.0241,-0.1222,-1.6597892246642054,0.0,2.52715802192688,-1.6479742527008057,-0.0,2.1393415927886963,4.531067057246826,0.0,0.2922457456588745,-1.32045823732485,-0.0,-0.04532219469547272,0.24492552876472473,0.0,-0.03628647327423096,1.4652276039123535,0.0,0.0022788653150200844
274.0,350.0,3.5719,-0.1035,8.6309,-0.0354,0.0211,-0.1182,-1.6598383388915003,0.0,2.558363437652588,-1.6479989290237427,-0.0,2.178576707839966,4.53112713872876,0.0,0.2844161093235016,-1.3204739729510706,-0.0,-0.03508449345827103,0.2448735386133194,0.0,-0.017177868634462357,1.465247631072998,0.0,-0.02348509058356285
274.0,350.0,3.5719,-0.1035,8.6309,-0.0354,0.0211,-0.1182,-1.6598178348936976,0.0,2.5493297576904297,-1.648015022277832,-0.0,2.176467180252075,4.5310632425495605,0.0,0.2895969748497009,-1.3204181830035608,-0.0,-0.030055217444896698,0.24490179121494293,0.0,-0.015620040707290173,1.4652518033981323,0.0,0.0003278834919910878
274.0,350.0,3.5719,-0.1035,8.6309,-0.0354,0.0211,-0.1182,-1.6598454914488734,0.0,2.537060499191284,-1.6480268239974976,-0.0,2.185924530029297,4.5311195093342285,0.0,0.2758319675922394,-1.3204262892352503,-0.0,-0.03383259102702141,0.2448088675737381,0.0,-0.009952771477401257,1.465195655822754,0.0,0.021766364574432373
274.0,350.0,3.5719,-0.1035,8.6309,-0.0354,0.0211,-0.1182,-1.6598383388915003,0.0,2.5703601837158203,-1.6479865312576294,-0.0,2.1396987438201904,4.531070871944092,0.0,0.28398892283439636,-1.3204658667193812,-0.0,-0.03539912402629852,0.24487315118312836,0.0,-0.0017950860783457756,1.4652116298675537,0.0,0.002720004878938198
274.0,350.0,3.5719,-0.1035,8.6309,-0.0354,0.0211,-0.1182,-1.65980925182485,0.0,2.54758358001709,-1.6480026245117188,-0.0,2.125124454498291,4.531099005336426,0.0,0.28386467695236206,-1.3204343954669397,-0.0,-0.03674641251564026,0.24486947059631348,0.0,-0.008010836318135262,1.4652079343795776,0.0,-0.029801201075315475
274.0,350.0,3.5719,-0.1035,8.6309,-0.0354,0.0211,-0.1182,-1.659830232659811,0.0,2.5480780601501465,-1.6480108499526978,-0.0,2.193770170211792,4.531079455012939,0.0,0.2822388708591461,-1.320442024861471,-0.0,-0.03761995956301689,0.24488547444343567,0.0,-0.008041832596063614,1.4652316570281982,0.0,0.010163452476263046
274.0,350.0,3.5719,-0.1035,8.6309,-0.0354,0.0211,-0.1182,-1.659825941125387,0.0,2.576779842376709,-1.6479865312576294,-0.0,2.198012351989746,4.531075163478516,0.0,0.28659504652023315,-1.3204739729510706,-0.0,-0.03954489529132843,0.24490955471992493,0.0,-0.0050652530044317245,1.4651916027069092,0.0,-0.02351612038910389
274.0,350.0,3.5719,-0.1035,8.6309,-0.0354,0.0211,-0.1182,-1.659830232659811,0.0,2.599869728088379,-1.6479742527008057,-0.0,2.163750648498535,4.531099005336426,0.0,0.2799597680568695,-1.3204463163958948,-0.0,-0.03176369518041611,0.24489770829677582,0.0,-0.017223544418811798,1.4652276039123535,0.0,0.009780999273061752
274.0,350.0,3.5719,-0.1035,8.6309,-0.0354,0.0211,-0.1182,-1.6598016224303187,0.0,2.5516316890716553,-1.6480026245117188,-0.0,2.157198190689087,4.531110926265381,0.0,0.28754115104675293,-1.3204262892352503,-0.0,-0.03232238069176674,0.2448292374610901,0.0,0.0031191485468298197,1.465187430381775,0.0,-0.007327127270400524
274.0,350.0,3.5719,-0.1035,8.6309,-0.0354,0.0211,-0.1182,-1.659825941125387,0.0,2.519908905029297,-1.6479943990707397,-0.0,2.1474859714508057,4.531083746547363,0.0,0.2938190698623657,-1.320442024861471,-0.0,-0.04331337660551071,0.24486947059631348,0.0,-0.009067121893167496,1.4652276039123535,0.0,-0.04256953299045563
274.0,350.0,3.5719,-0.1035,8.6309,-0.0354,0.0211,-0.1182,-1.6598454914488734,0.0,2.4983677864074707,-1.6479947566986084,-0.0,2.165666341781616,4.53109519063916,0.0,0.28188356757164,-1.3204544226275843,-0.0,-0.040145620703697205,0.2448853999376297,0.0,-0.007320675533264875,1.4652156829833984,0.0,0.02537001483142376
274.0,350.0,3.5719,-0.1035,8.6309,-0.0354,0.0211,-0.1182,-1.659854074517721,0.0,2.5306005477905273,-1.6480227708816528,-0.0,2.1889243125915527,4.5310632425495605,0.0,0.28469616174697876,-1.32045823732485,-0.0,-0.04746038466691971,0.24494601786136627,0.0,-0.015501214191317558,1.4652316570281982,0.0,-0.011283500120043755
274.0,350.0,3.5719,-0.1035,8.6309,-0.0354,0.0211,-0.1182,-1.65980925182485,0.0,2.578695297241211,-1.6479783058166504,-0.0,2.2200400829315186,4.531147165889404,0.0,0.2828301191329956,-1.3204501310931605,-0.0,-0.031009824946522713,0.2449054718017578,0.0,-0.015159843489527702,1.4652035236358643,0.0,0.00493550393730402
274.0,350.0,3.5719,-0.1035,8.6309,-0.0354,0.0211,-0.1182,-1.659825941125387,0.0,2.5311169624328613,-1.6479783058166504,-0.0,2.166961431503296,4.531110926265381,0.0,0.2873079478740692,-1.3204777876483362,-0.0,-0.04065089300274849,0.24485307931900024,0.0,-0.008364660665392876,1.465255856513977,0.0,0.01465386338531971
274.0,350.0,3.5719,-0.1035,8.6309,-0.0354,0.0211,-0.1182,-1.6598178348936976,0.0,2.5750234127044678,-1.647998571395874,-0.0,2.12321138381958,4.531099005336426,0.0,0.28414031863212585,-1.32045823732485,-0.0,-0.0330013744533062,0.24490955471992493,0.0,-0.017948433756828308,1.4652279615402222,0.0,0.0063479067757725716
294.0,324.0,3.539,-0.0688,8.7063,-0.0308,0.0257,-0.1206,-1.659837385217184,0.0,2.5192642211914062,-1.6480510234832764,-0.0,2.204831600189209,4.531087561244629,0.0,0.29175251722335815,-1.3204262892352503,-0.0,-0.03632558882236481,0.24486947059631348,0.0,-0.004220500588417053,1.465203881263733,0.0,0.0005989065393805504
294.0,324.0,3.539,-0.0688,8.7063,-0.0308,0.0257,-0.1206,-1.659837385217184,0.0,2.5691843032836914,-1.647950530052185,-0.0,2.184034824371338,4.531027479762695,0.0,0.2903361916542053,-1.3204382101642054,-0.0,-0.022996826097369194,0.24490554630756378,0.0,-0.01745706796646118,1.4651997089385986,0.0,0.02024216018617153
294.0,324.0,3.539,-0.0688,8.7063,-0.0308,0.0257,-0.1206,-1.6598454914488734,0.0,2.5443501472473145,-1.6480149030685425,-0.0,2.146716356277466,4.53109519063916,0.0,0.2941812574863434,-1.3204262892352503,-0.0,-0.03815256059169769,0.24490582942962646,0.0,-0.007109186612069607,1.465219497680664,0.0,-0.014204086735844612
294.0,324.0,3.539,-0.0688,8.7063,-0.0308,0.0257,-0.1206,-1.6598497829832972,0.0,2.582629680633545,-1.6479902267456055,-0.0,2.1759088039398193,4.531083746547363,0.0,0.29123812913894653,-1.3204782644854944,-0.0,-0.04096503555774689,0.244889497756958,0.0,-0.0250873863697052,1.4651997089385986,0.0,0.003627652768045664
294.0,324.0,3.539,-0.0688,8.7063,-0.0308,0.0257,-0.1206,-1.6597734890379847,0.0,2.5177412033081055,-1.648006796836853,-0.0,2.1926677227020264,4.5310913759418945,0.0,0.28409671783447266,-1.3204620520221155,-0.0,-0.050691865384578705,0.24488545954227448,0.0,-0.008416536264121532,1.4652116298675537,0.0,-0.040053531527519226
294.0,324.0,3.539,-0.0688,8.7063,-0.0308,0.0257,-0.1206,-1.6598135433592738,0.0,2.5577220916748047,-1.6480227708816528,-0.0,2.2272801399230957,4.531139536494873,0.0,0.2951062023639679,-1.3204501310931605,-0.0,-0.046283163130283356,0.24484902620315552,0.0,-0.02077256701886654,1.465207576751709,0.0,0.0032235635444521904
294.0,324.0,3.539,-0.0688,8.7063,-0.0308,0.0257,-0.1206,-1.65980925182485,0.0,2.5578842163085938,-1.6480305194854736,-0.0,2.1841840744018555,4.5310632425495605,0.0,0.2857077121734619,-1.3204901854144495,-0.0,-0.022809036076068878,0.2448735237121582,0.0,-0.02322733961045742,1.465187430381775,0.0,-0.020846744999289513
294.0,324.0,3.539,-0.0688,8.7063,-0.0308,0.0257,-0.1206,-1.6598178348936976,0.0,2.55926513671875,-1.6479578018188477,-0.0,2.1613407135009766,4.531079455012939,0.0,0.2848168611526489,-1.320470158253805,-0.0,-0.02194240316748619,0.24485313892364502,0.0,-0.016029659658670425,1.4652435779571533,0.0,-0.0057022287510335445
294.0,324.0,3.539,-0.0688,8.7063,-0.0308,0.0257,-0.1206,-1.6597973308958949,0.0,2.5743517875671387,-1.6479945182800293,-0.0,2.177449941635132,4.531102820033691,0.0,0.2871665358543396,-1.320442024861471,-0.0,-0.03689321130514145,0.24492144584655762,0.0,-0.01683593913912773,1.4652156829833984,0.0,-0.008561836555600166
294.0,324.0,3.539,-0.0688,8.7063,-0.0308,0.0257,-0.1206,-1.6597892246642054,0.0,2.5270497798919678,-1.6480149030685425,-0.0,2.1880435943603516,4.531087561244629,0.0,0.2788148820400238,-1.3204501310931605,-0.0,-0.02490800991654396,0.24492143094539642,0.0,-0.013171829283237457,1.4652276039123535,0.0,-0.08192746341228485
294.0,324.0,3.539,-0.0688,8.7063,-0.0308,0.0257,-0.1206,-1.659830232659811,0.0,2.547576904296875,-1.6479824781417847,-0.0,2.215909242630005,4.5310632425495605,0.0,0.2847479581832886,-1.3204739729510706,-0.0,-0.028120428323745728,0.24489355087280273,0.0,-0.005632124841213226,1.4651551246643066,0.0,0.02282680571079254
294.0,324.0,3.539,-0.0688,8.7063,-0.0308,0.0257,-0.1206,-1.6597973308958949,0.0,2.606822967529297,-1.6479907035827637,-0.0,2.136181116104126,4.5310351091572265,0.0,0.29497480392456055,-1.32048207918276,-0.0,-0.03898683562874794,0.2448735386133194,0.0,-0.017406295984983444,1.4652153253555298,0.0,-0.02918979898095131
294.0,324.0,3.539,-0.0688,8.7063,-0.0308,0.0257,-0.1206,-1.65980925182485,0.0,2.585735321044922,-1.6479742527008057,-0.0,2.1286461353302,4.531091852779053,0.0,0.2827703356742859,-1.3204501310931605,-0.0,-0.03904787078499794,0.24486947059631348,0.0,-0.008721396327018738,1.465247631072998,0.0,-0.01784861460328102
294.0,324.0,3.539,-0.0688,8.7063,-0.0308,0.0257,-0.1206,-1.65980925182485,0.0,2.5405993461608887,-1.6479823589324951,-0.0,2.134521722793579,4.531087561244629,0.0,0.2866690456867218,-1.3204343954669397,-0.0,-0.032829735428094864,0.24484898149967194,0.0,-0.022595766931772232,1.4652358293533325,0.0,-0.008066941052675247
283.0,347.0,3.5085,-0.0694,8.7194,-0.0386,0.0296,-0.1217,-1.6597973308958949,0.0,2.6073110103607178,-1.6480108499526978,-0.0,2.151726007461548,4.531067057246826,0.0,0.28630688786506653,-1.3204620520221155,-0.0,-0.04051072150468826,0.24490582942962646,0.0,-0.008130066096782684,1.465247631072998,0.0,-0.04793454334139824
283.0,347.0,3.5085,-0.0694,8.7194,-0.0386,0.0296,-0.1217,-1.6598054371275843,0.0,2.5673465728759766,-1.6479907035827637,-0.0,2.1201770305633545,4.531139536494873,0.0,0.27372586727142334,-1.320453945790426,-0.0,-0.03222818300127983,0.24483756721019745,0.0,-0.012943750247359276,1.465179443359375,0.0,-0.0018373712664470077
283.0,347.0,3.5085,-0.0694,8.7194,-0.0386,0.0296,-0.1217,-1.6597973308958949,0.0,2.541186809539795,-1.648015022277832,-0.0,2.163360118865967,4.531123324031494,0.0,0.29346442222595215,-1.3204658667193812,-0.0,-0.03505167365074158,0.24490953981876373,0.0,-0.021402444690465927,1.4652156829833984,0.0,0.012632296420633793
283.0,347.0,3.5085,-0.0694,8.7194,-0.0386,0.0296,-0.1217,-1.6597935161986292,0.0,2.554837942123413,-1.6480026245117188,-0.0,2.178826093673706,4.531087561244629,0.0,0.2830873131752014,-1.3204501310931605,-0.0,-0.04140089452266693,0.2448735386133194,0.0,-0.004145819693803787,1.4652239084243774,0.0,-0.01677761599421501
283.0,347.0,3.5085,-0.0694,8.7194,-0.0386,0.0296,-0.1217,-1.6597854099669398,0.0,2.571665048599243,-1.6479947566986084,-0.0,2.1498446464538574,4.531083746547363,0.0,0.2810415029525757,-1.320498291646139,-0.0,-0.040828637778759,0.24486947059631348,0.0,-0.008131926879286766,1.4652435779571533,0.0,0.011292443610727787
283.0,347.0,3.5085,-0.0694,8.7194,-0.0386,0.0296,-0.1217,-1.6598178348936976,0.0,2.5758848190307617,-1.6479545831680298,-0.0,2.13627028465271,4.531058951015137,0.0,0.28867995738983154,-1.3204181830035608,-0.0,-0.03028072416782379,0.2449054718017578,0.0,-0.017316453158855438,1.4652235507965088,0.0,0.044522956013679504
283.0,347.0,3.5085,-0.0694,8.7194,-0.0386,0.0296,-0.1217,-1.6598416767516078,0.0,2.5551676750183105,-1.6480227708816528,-0.0,2.196713447570801,4.531115217799805,0.0,0.2828848659992218,-1.3204463163958948,-0.0,-0.04064258933067322,0.24485312402248383,0.0,-0.011337879113852978,1.4652516841888428,0.0,-0.00022033974528312683
283.0,347.0,3.5085,-0.0694,8.7194,-0.0386,0.0296,-0.1217,-1.6597973308958949,0.0,2.5279853343963623,-1.6479824781417847,-0.0,2.126117706298828,4.531091852779053,0.0,0.2820771336555481,-1.3204501310931605,-0.0,-0.037564266473054886,0.24489355087280273,0.0,-0.023308362811803818,1.4652153253555298,0.0,-0.026998046785593033
283.0,347.0,3.5085,-0.0694,8.7194,-0.0386,0.0296,-0.1217,-1.6598135433592738,0.0,2.536324977874756,-1.6480145454406738,-0.0,2.1852519512176514,4.531127615565918,0.0,0.259818434715271,-1.3204262892352503,-0.0,-0.038528766483068466,0.24489355087280273,0.0,-0.018641924485564232,1.4652153253555298,0.0,0.025599190965294838
283.0,347.0,3.5085,-0.0694,8.7194,-0.0386,0.0296,-0.1217,-1.6598016224303187,0.0,2.5425429344177246,-1.647998571395874,-0.0,2.1733415126800537,4.531143351192139,0.0,0.29364171624183655,-1.32048207918276,-0.0,-0.030967455357313156,0.24485307931900024,0.0,-0.015471065416932106,1.4652435779571533,0.0,-0.014052099548280239
283.0,347.0,3.5085,-0.0694,8.7194,-0.0386,0.0296,-0.1217,-1.6597773037352503,0.0,2.5498385429382324,-1.6480108499526978,-0.0,2.180448532104492,4.531075163478516,0.0,0.27295371890068054,-1.3204262892352503,-0.0,-0.03438751399517059,0.24485716223716736,0.0,-0.012751147150993347,1.4652477502822876,0.0,-0.04151611775159836
283.0,347.0,3.5085,-0.0694,8.7194,-0.0386,0.0296,-0.1217,-1.6597973308958949,0.0,2.5110135078430176,-1.6479907035827637,-0.0,2.219146966934204,4.531083746547363,0.0,0.2869514226913452,-1.3204181830035608,-0.0,-0.04149295389652252,0.24484944343566895,0.0,-0.008617999032139778,1.4652116298675537,0.0,0.00510433129966259
283.0,347.0,3.5085,-0.0694,8.7194,-0.0386,0.0296,-0.1217,-1.6598178348936976,0.0,2.5570051670074463,-1.6479865312576294,-0.0,2.2037744522094727,4.531107111568115,0.0,0.2780781388282776,-1.3205025831805628,-0.0,-0.03952497988939285,0.24488136172294617,0.0,-0.00973343662917614,1.4651875495910645,0.0,-0.023826003074645996
283.0,347.0,3.5085,-0.0694,8.7194,-0.0386,0.0296,-0.1217,-1.65980925182485,0.0,2.5551862716674805,-1.6479783058166504,-0.0,2.1849558353424072,4.5311195093342285,0.0,0.2899324297904968,-1.320538345967428,-0.0,-0.03497067466378212,0.24492549896240234,0.0,-0.015982018783688545,1.4652395248413086,0.0,0.0034728311002254486
283.0,347.0,3.5085,-0.0694,8.7194,-0.0386,0.0296,-0.1217,-1.6598059139647425,-1.352318701464128e-09,2.596351146697998,-1.647958755493164,3.2486479284443703e-08,2.1789097785949707,4.531102820033691,0.0,0.2861037850379944,-1.3204620520221155,-0.0,-0.03810716047883034,0.2449217587709427,0.0,-0.009319594129920006,1.4652518033981323,0.0,0.017561057582497597
284.0,334.0,3.2566,-0.0951,8.6483,-0.0341,0.0454,-0.1158,-1.6597615681090296,-4.3813421088884026e-17,2.5815157890319824,-1.6479824781417847,1.0525204932802334e-15,2.1632020473480225,4.531075640315674,0.0,0.28471454977989197,-1.3205183188067835,-0.0,-0.04631413519382477,0.24491770565509796,0.0,-0.016637353226542473,1.465219497680664,0.0,0.01412543561309576
284.0,334.0,3.2566,-0.0951,8.6483,-0.0341,0.0454,-0.1158,-1.659842153588766,-1.0580425235143845e-22,2.599661350250244,-1.6479742527008057,2.5417127648737802e-21,2.1667401790618896,4.531147165889404,0.0,0.2735265791416168,-1.3204739729510706,-0.0,-0.04001666232943535,0.24491365253925323,0.0,-0.006899370811879635,1.4652435779571533,0.0,-0.0069304294884204865
284.0,334.0,3.2566,-0.0951,8.6483,-0.0341,0.0454,-0.1158,-1.6598059139647425,-2.555048201489694e-28,2.553927183151245,-1.6480309963226318,6.137937192018165e-27,2.198639154434204,4.531115217799805,0.0,0.28928565979003906,-1.3204858938800257,-0.0,-0.04218251258134842,0.24491778016090393,0.0,-0.013037546537816525,1.4652518033981323,0.0,-0.06948769837617874
284.0,334.0,3.2566,-0.0951,8.6483,-0.0341,0.0454,-0.1158,-1.6598059139647425,-6.170140919284897e-34,2.544065237045288,-1.6480029821395874,1.4822396016693634e-32,2.1670103073120117,4.531051321620605,0.0,0.28973639011383057,-1.3204858938800257,-0.0,-0.028025047853589058,0.24482934176921844,0.0,0.0006821303395554423,1.465219497680664,0.0,-0.042336177080869675
284.0,334.0,3.2566,-0.0951,8.6483,-0.0341,0.0454,-0.1158,-1.659854074517721,-1.4900160713996856e-39,2.563444137573242,-1.6479700803756714,3.579434197797997e-38,2.1657230854034424,4.531102820033691,0.0,0.29925665259361267,-1.3204901854144495,-0.0,-0.03204314783215523,0.24490952491760254,0.0,-0.004725975450128317,1.4652435779571533,0.0,0.04550701379776001
284.0,334.0,3.2566,-0.0951,8.6483,-0.0341,0.0454,-0.1158,-1.6598454914488734,-4.203895392974451e-45,2.5186927318573,-1.6479905843734741,8.688050478813866e-44,2.1914234161376953,4.53109519063916,0.0,0.2855929732322693,-1.3204181830035608,-0.0,-0.043659508228302,0.24493367969989777,0.0,-0.003472864395007491,1.465247631072998,0.0,0.040892235934734344
284.0,334.0,3.2566,-0.0951,8.6483,-0.0341,0.0454,-0.1158,-1.65980925182485,0.0,2.493429183959961,-1.6480392217636108,-0.0,2.1580896377563477,4.531107111568115,0.0,0.2882908880710602,-1.3204620520221155,-0.0,-0.029313527047634125,0.24485723674297333,0.0,-0.001662061084061861,1.465255856513977,0.0,0.008310026489198208
284.0,334.0,3.2566,-0.0951,8.6483,-0.0341,0.0454,-0.1158,-1.6598297558226527,0.0,2.570857048034668,-1.6479783058166504,-0.0,2.1657638549804688,4.531083746547363,0.0,0.29102540016174316,-1.3204739729510706,-0.0,-0.04246853291988373,0.24491778016090393,0.0,0.009684535674750805,1.4652554988861084,0.0,0.047812722623348236
284.0,334.0,3.2566,-0.0951,8.6483,-0.0341,0.0454,-0.1158,-1.6598135433592738,0.0,2.5810317993164062,-1.6480308771133423,-0.0,2.175138473510742,4.53109519063916,0.0,0.27119180560112,-1.3204901854144495,-0.0,-0.03954736515879631,0.24490952491760254,0.0,-0.009965548291802406,1.465211272239685,0.0,0.008876834064722061
284.0,334.0,3.2566,-0.0951,8.6483,-0.0341,0.0454,-0.1158,-1.6598016224303187,0.0,2.564873695373535,-1.6480108499526978,-0.0,2.131227970123291,4.531099005336426,0.0,0.27909621596336365,-1.3204825560199183,-0.0,-0.03672294318675995,0.2449537068605423,0.0,0.008369809947907925,1.4652553796768188,0.0,0.0017248233780264854
284.0,334.0,3.2566,-0.0951,8.6483,-0.0341,0.0454,-0.1158,-1.6598416767516078,0.0,2.565660238265991,-1.6479709148406982,-0.0,2.161386251449585,4.531070871944092,0.0,0.26455625891685486,-1.3204944769488733,-0.0,-0.038342032581567764,0.24488139152526855,0.0,0.000729170860722661,1.4652435779571533,0.0,-0.022870121523737907
284.0,334.0,3.2566,-0.0951,8.6483,-0.0341,0.0454,-0.1158,-1.6597615681090296,0.0,2.547761917114258,-1.6480308771133423,-0.0,2.141343832015991,4.53107134878125,0.0,0.27077481150627136,-1.320510212575094,-0.0,-0.047468990087509155,0.24491365253925323,0.0,-0.003714214079082012,1.4652435779571533,0.0,0.014630216173827648
284.0,334.0,3.2566,-0.0951,8.6483,-0.0341,0.0454,-0.1158,-1.6597815952696742,0.0,2.5420663356781006,-1.6479824781417847,0.00010639528773026541,2.1732006072998047,4.531087084407471,0.0,0.2995729148387909,-1.3205063978778284,-0.0,-0.0317256934940815,0.2449057251214981,0.0,-0.01613631844520569,1.4652272462844849,8.953543147072196e-05,-0.0006096316501498222
284.0,334.0,3.2566,-0.0951,8.6483,-0.0341,0.0454,-0.1158,-1.6598135433592738,0.0,2.574993133544922,-1.6479628086090088,0.00013584070256911218,2.1728711128234863,4.53109519063916,0.0,0.293465256690979,-1.320498291646139,-0.0,-0.03834187239408493,0.24491772055625916,0.0,-0.012736642733216286,1.4652677774429321,8.297043677885085e-05,-0.02287902869284153
278.0,315.0,3.6012,0.2907,8.519,-0.0168,0.0145,-0.122,-1.6597935161986292,0.0,2.579381227493286,-1.6479907035827637,0.00014651691890321672,2.171966552734375,4.5311314302631835,0.0,0.29053932428359985,-1.32045823732485,-0.0,-0.026479728519916534,0.24486541748046875,0.0,-0.008646862581372261,1.465219497680664,7.862166239647195e-05,-0.007665398996323347
278.0,315.0,3.6012,0.2907,8.519,-0.0168,0.0145,-0.122,-1.6598016224303187,0.0,2.554154872894287,-1.647958755493164,0.00040316220838576555,2.1875803470611572,4.531083746547363,0.0,0.28816312551498413,-1.3205021063434046,-0.0,-0.04995634779334068,0.2448691576719284,0.0,0.004647492431104183,1.4652272462844849,7.4706033046823e-05,0.015069378539919853
278.0,315.0,3.6012,0.2907,8.519,-0.0168,0.0145,-0.122,-1.6597973308958949,0.0,2.548935890197754,-1.6479383707046509,0.00038141568074934185,2.181928873062134,4.53109519063916,0.0,0.28324300050735474,-1.3204658667193812,-0.0,-0.03842807561159134,0.24492962658405304,0.0,-0.008235163986682892,1.4652677774429321,7.116197957657278e-05,-0.0016531622968614101
278.0,315.0,3.6012,0.2907,8.519,-0.0168,0.0145,-0.122,-1.6598216495909632,0.0,2.5371952056884766,-1.6479544639587402,0.0003671682206913829,2.2038040161132812,4.531127615565918,0.0,0.289421021938324,-1.320453945790426,-0.0,-0.040014419704675674,0.24491770565509796,0.0,-0.0015526446513831615,1.4652677774429321,8.134158269967884e-05,-0.018499048426747322
278.0,315.0,3.6012,0.2907,8.519,-0.0168,0.0145,-0.122,-1.6598292789854945,-3.882912642438896e-05,2.5927371978759766,-1.6479905843734741,0.00031252048211172223,2.168117046356201,4.5311314302631835,0.0,0.2918890416622162,-1.320470158253805,-0.0,-0.025063183158636093,0.24482910335063934,0.0,-0.016828978434205055,1.465303897857666,7.799420563969761e-05,0.006802586372941732
278.0,315.0,3.6012,0.2907,8.519,-0.0168,0.0145,-0.122,-1.6598535976805628,-0.0029887943528592587,2.5317468643188477,-1.6479142904281616,0.0002607732603792101,2.2073147296905518,4.531091852779053,0.0,0.29476994276046753,-1.3204944769488733,-0.0,-0.03319448605179787,0.24487324059009552,0.0,-0.012502413243055344,1.4652395248413086,9.8255361081101e-05,-0.040237702429294586
278.0,315.0,3.6012,0.2907,8.519,-0.0168,0.0145,-0.122,-1.6598974666991175,-0.00405499804764986,2.5140326023101807,-1.6479142904281616,0.0002319662889931351,2.131253242492676,4.531135244960449,0.0,0.2762919068336487,-1.320498291646139,-0.0,-0.043362271040678024,0.24490578472614288,0.0,-0.006139005068689585,1.4652432203292847,0.0001942100061569363,-0.037973299622535706
278.0,315.0,3.6012,0.2907,8.519,-0.0168,0.0145,-0.122,-1.6599093876280726,-0.0039665051735937595,2.574471950531006,-1.6479463577270508,0.00020889160805381835,2.1991188526153564,4.5311314302631835,0.0,0.2783359885215759,-1.320470158253805,-0.0,-0.033592671155929565,0.24491363763809204,0.0,-0.024869710206985474,1.4652833938598633,0.00023396918550133705,0.002255734521895647
278.0,315.0,3.6012,0.2907,8.519,-0.0168,0.0145,-0.122,-1.6599537334837855,-0.00295742554590106,2.560796022415161,-1.6479548215866089,0.00021700542129110545,2.16977596282959,4.531079455012939,0.0,0.28336021304130554,-1.3204782644854944,-0.0,-0.039875227957963943,0.24492143094539642,0.0,-0.004630724899470806,1.4652751684188843,0.0005338163464330137,-0.02065591886639595
278.0,315.0,3.6012,0.2907,8.519,-0.0168,0.0145,-0.122,-1.6599012813963832,-0.0011996410321444273,2.596496343612671,-1.6479383707046509,0.0002015548961935565,2.217153549194336,4.531079455012939,0.0,0.287070631980896,-1.3205021063434046,-0.0,-0.040783002972602844,0.24489355087280273,0.0,-0.025375956669449806,1.465323805809021,0.0003937784058507532,-0.004529902711510658
278.0,315.0,3.6012,0.2907,8.519,-0.0168,0.0145,-0.122,-1.6599050960936488,-0.0006658415659330785,2.557219982147217,-1.6479064226150513,0.0006585720693692565,2.2066612243652344,4.531079455012939,0.0,0.28200989961624146,-1.320442024861471,-0.0,-0.033662017434835434,0.2448854297399521,0.0,-0.011052225716412067,1.4653316736221313,0.00031188048887997866,-0.0031484179198741913
278.0,315.0,3.6012,0.2907,8.519,-0.0168,0.0145,-0.122,-1.6599461040892542,-0.0004610274045262486,2.5410633087158203,-1.6479626893997192,0.0008573471568524837,2.164278507232666,4.531090422267578,0.0,0.2832373082637787,-1.3204620520221155,-0.0,-0.04151507467031479,0.24492144584655762,0.0,-0.020330041646957397,1.465287446975708,0.0002581880253273994,0.0324532687664032
278.0,315.0,3.6012,0.2907,8.519,-0.0168,0.0145,-0.122,-1.6599413357176722,-0.0003923779004253447,2.5512239933013916,-1.64790678024292,0.000874927791301161,2.1678202152252197,4.531155272121094,0.0,0.2866019606590271,-1.3204825560199183,-0.0,-0.03470316156744957,0.2449377179145813,0.0,-0.012357762083411217,1.4653078317642212,0.00020998997206334025,-0.0007625515572726727
278.0,315.0,3.6012,0.2907,8.519,-0.0168,0.0145,-0.122,-1.659945627252096,-0.0003758003003895283,2.5597176551818848,-1.6479507684707642,0.0008731808047741652,2.185945510864258,4.531135244960449,0.0,0.2849309742450714,-1.3204739729510706,-0.0,-0.047200895845890045,0.24492958188056946,0.0,-0.006167437881231308,1.4652514457702637,0.00018420199921820313,0.026691442355513573
278.0,315.0,3.6012,0.2907,8.519,-0.0168,0.0145,-0.122,-1.659945627252096,-0.00029091592296026647,2.5887088775634766,-1.6478981971740723,0.0008151374640874565,2.172696352005005,4.531090899104736,0.0,0.2848513722419739,-1.3204863707171839,-0.0,-0.039305180311203,0.24487726390361786,0.0,-0.018216615542769432,1.4652833938598633,0.0001312441600020975,0.014831467531621456
276.0,328.0,3.4211,0.0843,8.7571,-0.0278,0.0101,-0.1237,-1.659945627252096,-0.00029944503330625594,2.5489916801452637,-1.6479146480560303,0.0008158976561389863,2.213895320892334,4.53115098058667,0.0,0.27758467197418213,-1.3204658667193812,-0.0,-0.03861060366034508,0.2448854297399521,0.0,-0.020508116111159325,1.4652674198150635,9.887589840218425e-05,-0.0642402246594429
276.0,328.0,3.4211,0.0843,8.7571,-0.0278,0.0101,-0.1237,-1.6599575481810511,-0.0006935362471267581,2.5158228874206543,-1.647898554801941,0.000831795739941299,2.150040626525879,4.531123324031494,0.0,0.2885003685951233,-1.320498291646139,-0.0,-0.029553178697824478,0.24489761888980865,0.0,-0.01106289867311716,1.4652354717254639,-4.956419797963463e-05,0.0027133957482874393
276.0,328.0,3.4211,0.0843,8.7571,-0.0278,0.0101,-0.1237,-1.6599937878050746,-0.0006759399548172951,2.5713210105895996,-1.6479109525680542,0.0013392340624704957,2.188377857208252,4.531135244960449,0.0,0.29123184084892273,-1.32045823732485,-0.0,-0.026696104556322098,0.24491767585277557,0.0,-0.013020385056734085,1.4652758836746216,-8.998601697385311e-05,0.027602016925811768
276.0,328.0,3.4211,0.0843,8.7571,-0.0278,0.0101,-0.1237,-1.659985681573385,-0.0005407444550655782,2.553194046020508,-1.6478668451309204,0.0020626394543796778,2.134215831756592,4.53115098058667,0.0,0.28932058811187744,-1.3204739729510706,-0.0,-0.029215019196271896,0.24490951001644135,0.0,-0.009377962909638882,1.4652272462844849,-0.00013275098172016442,-0.00906091183423996
276.0,328.0,3.4211,0.0843,8.7571,-0.0278,0.0101,-0.1237,-1.659961839715475,-0.00044129585148766637,2.569736957550049,-1.6479026079177856,0.0021270918659865856,2.1655383110046387,4.531183405513428,0.0,0.276063472032547,-1.3205025831805628,-0.0,-0.03378196805715561,0.24481308460235596,0.0,-0.02665356546640396,1.465219497680664,-0.000511477526742965,0.03027987852692604
276.0,328.0,3.4211,0.0843,8.7571,-0.0278,0.0101,-0.1237,-1.6599894962706507,-0.0003727473958861083,2.533858060836792,-1.6478745937347412,0.0014169358182698488,2.174549102783203,4.531115217799805,0.0,0.2833210527896881,-1.32048207918276,-0.0,-0.043440788984298706,0.24482938647270203,0.0,-0.00633256183937192,1.4652395248413086,-0.0007543621468357742,-0.023267976939678192
276.0,328.0,3.4211,0.0843,8.7571,-0.0278,0.0101,-0.1237,-1.6599818668761195,-0.00032263470347970724,2.6006593704223633,-1.647834300994873,0.0007287129410542548,2.165827989578247,4.5311314302631835,0.0,0.2860058844089508,-1.3204620520221155,-0.0,-0.03291221708059311,0.24486543238162994,0.0,-0.006824616342782974,1.4652235507965088,-0.001177207101136446,0.0022541480138897896
276.0,328.0,3.4211,0.0843,8.7571,-0.0278,0.0101,-0.1237,-1.659945627252096,-0.00028440001187846065,2.621676445007324,-1.647890567779541,0.0004902923246845603,2.2138993740081787,4.531147165889404,0.0,0.29051077365875244,-1.3204901854144495,-0.0,-0.03758248686790466,0.24490952491760254,0.0,-0.008306523784995079,1.4652198553085327,-0.0016013868153095245,-0.014420099556446075
276.0,328.0,3.4211,0.0843,8.7571,-0.0278,0.0101,-0.1237,-1.6599775753416957,-0.00025426759384572506,2.5645694732666016,-1.6478906869888306,0.00036947213811799884,2.1743268966674805,4.531135244960449,0.0,0.28969666361808777,-1.3204658667193812,-0.0,-0.01385337021201849,0.24487321078777313,0.0,-0.009094697423279285,1.4651473760604858,-0.0022925056982785463,-0.00015040510334074497
276.0,328.0,3.4211,0.0843,8.7571,-0.0278,0.0101,-0.1237,-1.6599613628783167,-0.00017404246318619698,2.5360796451568604,-1.6478219032287598,0.0002964368904940784,2.1292505264282227,4.5311314302631835,0.0,0.2886236906051636,-1.320430103932516,-0.0,-0.02980874478816986,0.24488948285579681,0.0,-0.0052559636533260345,1.465179681777954,-0.003607318038120866,-0.013408048078417778
276.0,328.0,3.4211,0.0843,8.7571,-0.0278,0.0101,-0.1237,-1.6599813900389613,-0.0007893168949522078,2.5952634811401367,-1.6478586196899414,0.00023460920783691108,2.1800224781036377,4.531123324031494,0.0,0.28130674362182617,-1.3204262892352503,-0.0,-0.04229143261909485,0.2449055016040802,0.0,-0.015398518182337284,1.465139627456665,-0.005249466747045517,0.04359233006834984
276.0,328.0,3.4211,0.0843,8.7571,-0.0278,0.0101,-0.1237,-1.6599613628783167,-0.002220886992290616,2.56457781791687,-1.6478466987609863,0.00020287532242946327,2.203890323638916,4.531107111568115,0.0,0.2903280258178711,-1.3204501310931605,-0.0,-0.041656725108623505,0.24487726390361786,0.0,-0.015976209193468094,1.4651199579238892,-0.004864291287958622,-0.015031879767775536
276.0,328.0,3.4211,0.0843,8.7571,-0.0278,0.0101,-0.1237,-1.6600457630553187,-0.0023632999509572983,2.561260223388672,-1.6479151248931885,0.00017870374722406268,2.157947540283203,4.53110329687085,0.0,0.2825441062450409,-1.320453945790426,-0.0,-0.03370831906795502,0.24486133456230164,0.0,-0.011038480326533318,1.4650474786758423,-0.00456673139706254,-0.014376437291502953
276.0,328.0,3.4211,0.0843,8.7571,-0.0278,0.0101,-0.1237,-1.6600738964476527,-0.0023891355376690626,2.5766658782958984,-1.6478705406188965,0.0001596794172655791,2.157719373703003,4.531111403102539,0.0,0.2938879728317261,-1.3204382101642054,-0.0,-0.02728419192135334,0.24489355087280273,0.0,-0.0040518855676054955,1.4650555849075317,-0.0034999512135982513,-0.032093532383441925
289.0,336.0,3.6957,-0.2895,8.5161,-0.0286,0.0162,-0.1222,-1.6600457630553187,-0.0020840943325310946,2.5584261417388916,-1.6478586196899414,0.00014431666932068765,2.186086893081665,4.531107111568115,0.0,0.28090405464172363,-1.3204100767718714,1.009786032568627e-07,-0.023549452424049377,0.24491360783576965,0.0,-0.01330171711742878,1.4650195837020874,-0.0023041144013404846,0.004458907060325146
289.0,336.0,3.6957,-0.2895,8.5161,-0.0286,0.0162,-0.1222,-1.660093446771139,-0.002074552234262228,2.5994415283203125,-1.6479026079177856,0.00015761595568619668,2.187220573425293,4.5311314302631835,0.0,0.2827392518520355,-1.3204544226275843,2.81077609104452e-11,-0.043841734528541565,0.24492141604423523,0.0,-0.019159359857439995,1.4650437831878662,-0.0014640671433880925,-0.020976286381483078
289.0,336.0,3.6957,-0.2895,8.5161,-0.0286,0.0162,-0.1222,-1.6600572071471156,-0.0020520028192549944,2.56840181350708,-1.6479191780090332,0.0001414293801644817,2.0958023071289062,4.531139536494873,0.0,0.2828082740306854,-1.3204057852374476,5.108447234561213e-16,-0.03355800360441208,0.24485327303409576,0.0,0.005943301133811474,1.4650518894195557,-0.0011818899074569345,-0.0453123077750206
289.0,336.0,3.6957,-0.2895,8.5161,-0.0286,0.0162,-0.1222,-1.6601058445372523,-0.002105496358126402,2.5342774391174316,-1.6478824615478516,0.0001311266387347132,2.136007785797119,4.531115217799805,0.0,0.28716373443603516,-1.3204262892352503,1.4219551384864789e-19,-0.03775923699140549,0.24486544728279114,0.0,0.003033278975635767,1.4650437831878662,-0.001165103749372065,0.007951660081744194
289.0,336.0,3.6957,-0.2895,8.5161,-0.0286,0.0162,-0.1222,-1.660109659234518,-0.0024532696697860956,2.540008306503296,-1.6477981805801392,0.0001425929949618876,2.213740348815918,4.531148119563721,7.703977189521538e-07,0.29265695810317993,-1.320442024861471,3.95806478464701e-23,-0.03723742440342903,0.24487727880477905,0.0,-0.012939353473484516,1.4650318622589111,-0.001310762483626604,0.017892491072416306
289.0,336.0,3.6957,-0.2895,8.5161,-0.0286,0.0162,-0.1222,-1.6601211033263148,-0.0032339999452233315,2.5388035774230957,-1.6478708982467651,0.00015259170322678983,2.1554408073425293,4.531123324031494,2.4684513846295886e-05,0.283101886510849,-1.3204262892352503,1.101741706196329e-26,-0.027391765266656876,0.24492545425891876,0.0,-0.00920898374170065,1.4650077819824219,-0.0018007716862484813,0.03167838975787163
289.0,336.0,3.6957,-0.2895,8.5161,-0.0286,0.0162,-0.1222,-1.660165926019186,-0.003317798487842083,2.5386650562286377,-1.6478787660598755,9.615920134820044e-05,2.1826963424682617,4.531107111568115,2.3715520001132973e-05,0.28511786460876465,-1.3204262892352503,3.0667383721427477e-30,-0.05032259225845337,0.2448294311761856,0.0,-0.004069268703460693,1.4649715423583984,-0.0019530740100890398,0.02431897632777691
289.0,336.0,3.6957,-0.2895,8.5161,-0.0286,0.0162,-0.1222,-1.6602417431273402,-0.0035394979640841484,2.544862747192383,-1.6478023529052734,0.0001063148956745863,2.170210838317871,4.53109519063916,2.2813792384113185e-05,0.294597864151001,-1.32045823732485,8.536378445889026e-34,-0.040628135204315186,0.2449173778295517,0.0,0.0012667743721976876,1.4649639129638672,-0.0024741869419813156,-0.015349680557847023
289.0,336.0,3.6957,-0.2895,8.5161,-0.0286,0.0162,-0.1222,-1.6602255306639613,-0.003717354265972972,2.5550005435943604,-1.6478989124298096,0.00013141115778125823,2.145354986190796,4.53109519063916,2.171301093767397e-05,0.2895301878452301,-1.320430103932516,1.5514447921802926e-38,-0.048461899161338806,0.244905486702919,0.0,-0.01589522324502468,1.4649438858032227,-0.002512745326384902,0.0011877703946083784
289.0,336.0,3.6957,-0.2895,8.5161,-0.0286,0.0162,-0.1222,-1.6602407894530238,-0.004088455345481634,2.560314655303955,-1.6478948593139648,0.0005015538190491498,2.1689512729644775,4.531083746547363,2.095470335916616e-05,0.29668334126472473,-1.3204095999347132,4.318801867049086e-42,-0.050168734043836594,0.24491360783576965,0.0,-0.005678675603121519,1.4649479389190674,-0.0029522106051445007,-0.046998538076877594
289.0,336.0,3.6957,-0.2895,8.5161,-0.0286,0.0162,-0.1222,-1.6602169475951136,-0.004731590393930674,2.5261151790618896,-1.64785897731781,0.0004601084510795772,2.183891773223877,4.531123800868652,2.0247580323484726e-05,0.28297823667526245,-1.3204219977008265,1.401298464324817e-45,-0.04359225928783417,0.24489353597164154,0.0,0.000654309056699276,1.4649238586425781,-0.0034835271071642637,-0.00940614752471447
289.0,336.0,3.6957,-0.2895,8.5161,-0.0286,0.0162,-0.1222,-1.6602651081480921,-0.004317231476306915,2.5711140632629395,-1.6478146314620972,0.0004918199265375733,2.1916017532348633,4.531107111568115,3.3220408113265876e-07,0.2950372099876404,-1.3203862349139612,0.0,-0.05588708072900772,0.24497361481189728,0.0,-0.01811191439628601,1.464843511581421,-0.003934784326702356,-0.037481166422367096
289.0,336.0,3.6957,-0.2895,8.5161,-0.0286,0.0162,-0.1222,-1.6603414020934046,-0.004005058668553829,2.5379323959350586,-1.64785897731781,0.00046807219041511416,2.191418409347534,4.531075640315674,9.247022592084875e-11,0.28948500752449036,-1.3204463163958948,0.0,-0.05854262411594391,0.2448572963476181,0.0,-0.004469584673643112,1.4648640155792236,-0.004617523867636919,-0.012479430995881557
289.0,336.0,3.6957,-0.2895,8.5161,-0.0286,0.0162,-0.1222,-1.6603089771666468,-0.0032467639539390802,2.5461273193359375,-1.647834300994873,0.0004336176789365709,2.220823287963867,4.531127615565918,2.573942713699276e-14,0.3018749952316284,-1.3204262892352503,0.0,-0.05153128504753113,0.2448650747537613,0.0,-0.0029174378141760826,1.4648520946502686,-0.004789999220520258,0.02514682151377201
289.0,336.0,3.6957,-0.2895,8.5161,-0.0286,0.0162,-0.1222,-1.6603571377196253,-0.002869663294404745,2.615678310394287,-1.647850751876831,0.0004086518893018365,2.1971092224121094,4.531083746547363,7.164663753116839e-18,0.29846513271331787,-1.3204057852374476,0.0,-0.03938484936952591,0.24486926198005676,0.0,-0.015510333701968193,1.464823842048645,-0.004628384951502085,-0.03345968574285507
284.0,345.0,3.5061,-0.0927,8.7266,-0.0396,0.0153,-0.1292,-1.6603690586485804,-0.0023654254619032145,2.5707690715789795,-1.6478105783462524,0.0003344380820635706,2.1510045528411865,4.531155272121094,1.3021424039895637e-22,0.297945499420166,-1.3204224745379847,0.0,-0.06469439715147018,0.24487324059009552,0.0,-0.009379634633660316,1.4647599458694458,-0.005291702691465616,0.03153948858380318
284.0,345.0,3.5061,-0.0927,8.7266,-0.0396,0.0153,-0.1292,-1.6604210338988246,-0.0023266607895493507,2.5575501918792725,-1.6478228569030762,0.0002791713341139257,2.1923060417175293,4.531127615565918,3.62456163673789e-26,0.2964291572570801,-1.3204262892352503,0.0,-0.06453481316566467,0.24492955207824707,0.0,0.005173373501747847,1.4647481441497803,-0.005543381907045841,0.008800581097602844
284.0,345.0,3.5061,-0.0927,8.7266,-0.0396,0.0153,-0.1292,-1.660417219201559,-0.0022683264687657356,2.554572105407715,-1.6478549242019653,0.0003288389416411519,2.2128496170043945,4.531115217799805,1.0089101375028521e-29,0.28830862045288086,-1.3204224745379847,0.0,-0.04712643474340439,0.24489735066890717,0.0,0.004466065671294928,1.4647202491760254,-0.006227462086826563,0.002745484933257103
284.0,345.0,3.5061,-0.0927,8.7266,-0.0396,0.0153,-0.1292,-1.6603809795775355,-0.002074232092127204,2.571439743041992,-1.6477903127670288,0.0004478278860915452,2.180372953414917,4.531123324031494,2.808338656060987e-33,0.2948261499404907,-1.3204501310931605,0.0,-0.07472293078899384,0.2449377179145813,0.0,-0.009251462295651436,1.4646117687225342,-0.00599100673571229,0.016147542744874954
284.0,345.0,3.5061,-0.0927,8.7266,-0.0396,0.0153,-0.1292,-1.6604167423644007,-0.001992784207686782,2.585700273513794,-1.6478383541107178,0.0005878506926819682,2.1566247940063477,4.531127615565918,7.817113663604671e-37,0.2947829067707062,-1.3204181830035608,0.0,-0.06791703402996063,0.24494962394237518,0.0,-0.011854192242026329,1.4646482467651367,-0.006163815502077341,-0.018825780600309372
284.0,345.0,3.5061,-0.0927,8.7266,-0.0396,0.0153,-0.1292,-1.6604248485960902,-0.0016780069563537836,2.612290859222412,-1.6477943658828735,0.0011220374144613743,2.1761865615844727,4.531127615565918,2.1759222424189327e-40,0.3035666346549988,-1.3204382101642054,0.0,-0.06367471069097519,0.24491803348064423,4.22307311964687e-06,-0.0010212514316663146,1.4645519256591797,-0.00609369482845068,-0.014194164425134659
284.0,345.0,3.5061,-0.0927,8.7266,-0.0396,0.0153,-0.1292,-1.660469194451803,-0.0015430818311870098,2.5272417068481445,-1.6477583646774292,0.001348495134152472,2.222562313079834,4.53107134878125,4.203895392974451e-45,0.3084799647331238,-1.320430103932516,0.0,-0.07087580859661102,0.2449014037847519,7.67522642663998e-11,-0.0001514446921646595,1.4645684957504272,-0.005495199002325535,-0.029675578698515892
284.0,345.0,3.5061,-0.0927,8.7266,-0.0396,0.0153,-0.1292,-1.6604930363097132,-0.0014165950706228614,2.5475258827209473,-1.6477746963500977,0.0017399628413841128,2.1879210472106934,4.53115098058667,0.0,0.31013208627700806,-1.3204100767718714,0.0,-0.06145681440830231,0.24490544199943542,2.1364274959594434e-14,0.0013034834992140532,1.4644999504089355,-0.004467545542865992,-0.0018619163893163204
284.0,345.0,3.5061,-0.0927,8.7266,-0.0396,0.0153,-0.1292,-1.6604529819884242,-0.0010856178123503923,2.571739673614502,-1.6477586030960083,0.002359087113291025,2.1584670543670654,4.53110329687085,0.0,0.3150014877319336,-1.3204181830035608,0.0,-0.06801018118858337,0.24490542709827423,5.946823935228493e-18,-0.002582235261797905,1.4645205736160278,-0.004329364281147718,0.004506716504693031
284.0,345.0,3.5061,-0.0927,8.7266,-0.0396,0.0153,-0.1292,-1.6604773006834925,-0.001007233513519168,2.5885157585144043,-1.6477668285369873,0.003301467979326844,2.189601421356201,4.531099005336426,0.0,0.30061638355255127,-1.320430103932516,0.0,-0.08083508908748627,0.24487733840942383,1.6553199750958248e-21,0.0048973397351801395,1.4644560813903809,-0.004184856079518795,0.001800457015633583
284.0,345.0,3.5061,-0.0927,8.7266,-0.0396,0.0153,-0.1292,-1.6605292759337367,-0.000799457193352282,2.5271496772766113,-1.6477389335632324,0.0044622826389968395,2.216156244277954,4.531123324031494,0.0,0.3029083013534546,-1.320442024861471,0.0,-0.06715788692235947,0.24490545690059662,4.6076438562395665e-25,0.007617100141942501,1.4644848108291626,-0.0036581556778401136,0.0101291099563241
284.0,345.0,3.5061,-0.0927,8.7266,-0.0396,0.0153,-0.1292,-1.6604730091490687,-0.000735321780666709,2.588916778564453,-1.647658109664917,0.004529416095465422,2.1788673400878906,4.531147165889404,0.0,0.2954578399658203,-1.320442024861471,0.0,-0.07891082018613815,0.24494552612304688,1.2825546297595865e-28,-0.0036712312139570713,1.464444637298584,-0.0034523955546319485,-0.00015257857739925385
284.0,345.0,3.5061,-0.0927,8.7266,-0.0396,0.0153,-0.1292,-1.6605168781676234,-0.0006591620622202754,2.5970120429992676,-1.6476260423660278,0.003941313363611698,2.202126979827881,4.53110329687085,0.0,0.29728496074676514,-1.3204463163958948,0.0,-0.07155604660511017,0.24488931894302368,2.3309799510836565e-33,-0.014357594773173332,1.4644570350646973,-0.0033791211899369955,-0.06257574260234833
284.0,345.0,3.5061,-0.0927,8.7266,-0.0396,0.0153,-0.1292,-1.6605011425414027,-0.000580999068915844,2.5664515495300293,-1.6476389169692993,0.0044237468391656876,2.186673641204834,4.5311314302631835,0.0,0.3047800362110138,-1.3204057852374476,0.0,-0.08661015331745148,0.24488931894302368,6.488368380153227e-37,-0.003910219296813011,1.4643524885177612,-0.0037192897871136665,-0.01912705786526203
290.0,321.0,3.4822,-0.1759,8.6895,-0.0466,0.0264,-0.1245,-1.6605130634703578,-0.0005886373110115528,2.577562093734741,-1.6475462913513184,0.004378970712423325,2.2181568145751953,4.531115217799805,0.0,0.30375581979751587,-1.32045823732485,0.0,-0.0861133337020874,0.24489328265190125,1.8060635257450405e-40,0.004649912938475609,1.4643726348876953,-0.0031715622171759605,-0.012488587759435177
290.0,321.0,3.4822,-0.1759,8.6895,-0.0466,0.0264,-0.1245,-1.6605006657042445,-0.0005255053984001279,2.593492031097412,-1.647546410560608,0.004084833897650242,2.2177670001983643,4.531167193050049,0.0,0.30070656538009644,-1.3204463163958948,0.0,-0.08952894806861877,0.2449052631855011,5.044674471569341e-44,-0.0066150883212685585,1.4643243551254272,-0.0027597439475357533,0.011334766633808613
290.0,321.0,3.4822,-0.1759,8.6895,-0.0466,0.0264,-0.1245,-1.660492559472555,-0.0006162505596876144,2.543133020401001,-1.6475627422332764,0.0043846964836120605,2.1997487545013428,4.5311314302631835,0.0,0.3055253326892853,-1.3204544226275843,0.0,-0.08940590918064117,0.24492552876472473,0.0,-0.009527447633445263,1.4643324613571167,-0.0022240160033106804,0.07117260992527008
290.0,321.0,3.4822,-0.1759,8.6895,-0.0466,0.0264,-0.1245,-1.6605407200255335,-0.0006437902338802814,2.5466115474700928,-1.6475385427474976,0.004311405587941408,2.2013306617736816,4.531143351192139,0.0,0.3099197745323181,-1.32045823732485,0.0,-0.08935616165399551,0.24492956697940826,0.0,-0.01844712533056736,1.4643287658691406,-0.0016155211487784982,-0.008336140774190426
290.0,321.0,3.4822,-0.1759,8.6895,-0.0466,0.0264,-0.1245,-1.660532613793844,-0.0009664638200774789,2.5653438568115234,-1.6474742889404297,0.004416394513100386,2.179645299911499,4.531135244960449,0.0,0.3126792311668396,-1.3204944769488733,0.0,-0.0999511331319809,0.2449614256620407,0.0,0.0031332713551819324,1.464300513267517,-0.0010073453886434436,0.01431301236152649
290.0,321.0,3.4822,-0.1759,8.6895,-0.0466,0.0264,-0.1245,-1.6605450115599574,-0.0014168756315484643,2.57068133354187,-1.647474765777588,0.004098747856914997,2.1682121753692627,4.531143351192139,0.0,0.3129647672176361,-1.3204219977008265,0.0,-0.10509806871414185,0.2449495941400528,8.811870065983385e-05,-0.002269321819767356,1.4643529653549194,-0.0007690765196457505,0.037661198526620865
290.0,321.0,3.4822,-0.1759,8.6895,-0.0466,0.0264,-0.1245,-1.6605526409544886,-0.001924127689562738,2.5298125743865967,-1.647474765777588,0.003144049784168601,2.1978678703308105,4.531135244960449,0.0,0.3013536334037781,-1.320430103932516,0.0,-0.08662395179271698,0.24492554366588593,9.400690760230646e-05,-0.007955336943268776,1.4643610715866089,-0.0005832797032780945,0.05602344125509262
290.0,321.0,3.4822,-0.1759,8.6895,-0.0466,0.0264,-0.1245,-1.660605093041891,-0.003178754122927785,2.5926976203918457,-1.647414207458496,0.002154875546693802,2.175316572189331,4.531167193050049,0.0,0.30853578448295593,-1.320453945790426,0.0,-0.10460885614156723,0.24496141076087952,8.846569835441187e-05,-0.006060346961021423,1.4643287658691406,-0.00044058344792574644,0.018241070210933685
290.0,321.0,3.4822,-0.1759,8.6895,-0.0466,0.0264,-0.1245,-1.6606131992735804,-0.004255171865224838,2.581906318664551,-1.6474064588546753,0.0015256388578563929,2.1684951782226562,4.53115098058667,0.0,0.314711332321167,-1.320470158253805,0.0,-0.10975722223520279,0.24489714205265045,9.995979053201154e-05,-0.018435169011354446,1.4643046855926514,-0.0003539326717145741,0.03394240140914917
290.0,321.0,3.4822,-0.1759,8.6895,-0.0466,0.0264,-0.1245,-1.6605845890440882,-0.004629847593605518,2.5417697429656982,-1.647463321685791,0.0010799734154716134,2.1616077423095703,4.531135244960449,0.0,0.3041604459285736,-1.32045823732485,0.0,-0.10852545499801636,0.24495740234851837,9.495785343460739e-05,-0.003619259223341942,1.4643807411193848,-0.0003450507065281272,0.019604571163654327
290.0,321.0,3.4822,-0.1759,8.6895,-0.0466,0.0264,-0.1245,-1.6606646976866664,-0.005572322756052017,2.53300142288208,-1.6474146842956543,0.000819886161480099,2.1722819805145264,4.531123324031494,0.0,0.3099479079246521,-1.320470158253805,0.0,-0.10925614833831787,0.2449653297662735,0.00010497549374122173,-0.0028037806041538715,1.464324712753296,-0.0002963600563816726,0.0037717586383223534
290.0,321.0,3.4822,-0.1759,8.6895,-0.0466,0.0264,-0.1245,-1.6606360874571742,-0.00623564887791872,2.5723352432250977,-1.6474348306655884,0.0006389112095348537,2.165191173553467,4.531115217799805,0.0,0.316005140542984,-1.3204658667193812,0.0,-0.10085438191890717,0.24495339393615723,9.864202729659155e-05,0.002503535943105817,1.4642845392227173,-0.00024942363961599767,0.0158378928899765
290.0,321.0,3.4822,-0.1759,8.6895,-0.0466,0.0264,-0.1245,-1.6607290707030238,-0.0062636444345116615,2.5844507217407227,-1.6474385261535645,0.000639622681774199,2.2098124027252197,4.531090899104736,0.0,0.3068329393863678,-1.32045823732485,0.0,-0.12161940336227417,0.24494123458862305,0.00010591756290523335,0.00012759215314872563,1.4643689393997192,-0.00022294311202131212,0.005108503624796867
290.0,321.0,3.4822,-0.1759,8.6895,-0.0466,0.0264,-0.1245,-1.6607886753477992,-0.005794622469693422,2.5287952423095703,-1.6474188566207886,0.0005457919323816895,2.1429409980773926,4.5311314302631835,0.0,0.30190110206604004,-1.3204620520221155,-0.00013877582387067378,-0.1060812920331955,0.24493344128131866,0.00010305199248250574,-0.014348040334880352,1.464316487312317,-0.0002015457139350474,0.00015221908688545227
290.0,321.0,3.4822,-0.1759,8.6895,-0.0466,0.0264,-0.1245,-1.6608206234373988,-0.005920431576669216,2.525611162185669,-1.647402286529541,0.000487582670757547,2.2050557136535645,4.5311314302631835,0.0,0.30425530672073364,-1.320498291646139,-0.00012749286543112248,-0.13208366930484772,0.24498939514160156,0.00015380869444925338,-0.001009421655908227,1.4643287658691406,-0.000183896190719679,0.01858285255730152
282.0,325.0,3.3805,-0.1848,8.8516,-0.0383,0.0159,-0.1173,-1.660856386224264,-0.0061590238474309444,2.502950668334961,-1.6474390029907227,0.0003963611088693142,2.1793601512908936,4.5311314302631835,0.0,0.29417848587036133,-1.3204577604876917,-0.0001409520918969065,-0.11982022970914841,0.2450254261493683,0.0001709823263809085,0.017398107796907425,1.4642887115478516,-0.00016908926772885025,0.008919009007513523
282.0,325.0,3.3805,-0.1848,8.8516,-0.0383,0.0159,-0.1173,-1.6609169445433558,-0.006251611281186342,2.5563244819641113,-1.6474106311798096,0.0003334203502163291,2.1723580360412598,4.531167193050049,0.0,0.3160083293914795,-1.3204219977008265,-0.00013076183677185327,-0.12647156417369843,0.24500153958797455,0.00015656676259823143,0.014741737395524979,1.464336633682251,-0.00015648880798835307,0.03094911202788353
282.0,325.0,3.3805,-0.1848,8.8516,-0.0383,0.0159,-0.1173,-1.6609689197936,-0.006211312022060156,2.5328562259674072,-1.64741051197052,0.00028773199301213026,2.1662940979003906,4.531135721797607,0.0,0.30881595611572266,-1.32048207918276,-0.00012190547568025067,-0.11292867362499237,0.24498941004276276,0.00016803626203909516,0.011358533054590225,1.464336633682251,-0.00014563613513018936,0.007268493063747883
282.0,325.0,3.3805,-0.1848,8.8516,-0.0383,0.0159,-0.1173,-1.6609841785826625,-0.0046626487746834755,2.5282816886901855,-1.6474146842956543,0.000243284652242437,2.1942977905273438,4.531127615565918,0.0,0.293974369764328,-1.3204739729510706,-0.0001304429752053693,-0.13096833229064941,0.24498939514160156,0.00017352697614114732,0.0031322489958256483,1.464316487312317,-0.00013330938236322254,0.009183503687381744
282.0,325.0,3.3805,-0.1848,8.8516,-0.0383,0.0159,-0.1173,-1.6610847912230433,-0.003755975980311632,2.5424134731292725,-1.6474549770355225,0.00021802580158691853,2.1996378898620605,4.5310866075703125,0.0,0.30363330245018005,-1.3204858938800257,-0.00012281473027542233,-0.11531388014554977,0.24502123892307281,0.00021290483709890395,0.01907283253967762,1.464316487312317,-0.00012535235146060586,0.007041315548121929
282.0,325.0,3.3805,-0.1848,8.8516,-0.0383,0.0159,-0.1173,-1.6610080204405726,-0.0033277166076004505,2.560680389404297,-1.6474146842956543,0.00019751852960325778,2.20151424407959,4.531115217799805,0.0,0.3174128830432892,-1.320425812398092,-0.00011602885206229985,-0.12614889442920685,0.245021253824234,0.0002274251019116491,0.03297241032123566,1.4643287658691406,-0.00011829117283923551,0.07299399375915527
282.0,325.0,3.3805,-0.1848,8.8516,-0.0383,0.0159,-0.1173,-1.6610971889891566,-0.002632283139973879,2.5884716510772705,-1.6473948955535889,0.00020632825908251107,2.1948304176330566,4.531111403102539,0.0,0.31640079617500305,-1.320453945790426,-0.00010995360207743943,-0.11434608697891235,0.2449815571308136,0.00023697249707765877,0.01498437486588955,1.464324712753296,-0.00011198336869711056,0.06271201372146606
282.0,325.0,3.3805,-0.1848,8.8516,-0.0383,0.0159,-0.1173,-1.6610681019225062,-0.001873302855528891,2.5751500129699707,-1.6473743915557861,0.00014310903497971594,2.1718757152557373,4.531127615565918,0.0,0.31812313199043274,-1.3204901854144495,-0.00011940469994442537,-0.1262379288673401,0.2449973076581955,0.00024193926947191358,0.02067570760846138,1.4643406867980957,-0.00010631417535478249,0.012145830318331718
282.0,325.0,3.3805,-0.1848,8.8516,-0.0383,0.0159,-0.1173,-1.661055704156393,-0.0012130059767514467,2.5364127159118652,-1.6474188566207886,0.00020786441746167839,2.165025472640991,4.5311195093342285,0.0,0.3114367723464966,-1.32048207918276,-0.00013058734475634992,-0.1370985209941864,0.24503780901432037,0.0002188454382121563,0.026847047731280327,1.4642966985702515,-0.00010126249253517017,0.029579035937786102
282.0,325.0,3.3805,-0.1848,8.8516,-0.0383,0.0159,-0.1173,-1.66107239345693,-0.0008116191602312028,2.6021628379821777,-1.6474063396453857,0.0013910041889175773,2.1542625427246094,4.5311195093342285,6.724811640879125e-08,0.3143654465675354,-1.320442024861471,-0.00012192432768642902,-0.12292781472206116,0.2449652999639511,0.00021953046962153167,0.03013012930750847,1.4643206596374512,-3.0067851184867322e-05,0.05713387206196785
282.0,325.0,3.3805,-0.1848,8.8516,-0.0383,0.0159,-0.1173,-1.661055704156393,-0.0006691115559078753,2.580204963684082,-1.6473784446716309,0.0016580317169427872,2.225459575653076,4.531123324031494,1.8718757446856138e-11,0.3139037489891052,-1.3204901854144495,-0.00013528420822694898,-0.13386154174804688,0.24498939514160156,0.0002011843753280118,0.0328444167971611,1.4643206596374512,-2.8632983230636455e-05,0.028674984350800514
282.0,325.0,3.3805,-0.1848,8.8516,-0.0383,0.0159,-0.1173,-1.66107239345693,-0.0004369761445559561,2.563185453414917,-1.647367000579834,0.0017542752902954817,2.1833019256591797,4.531127615565918,5.2104346600918405e-15,0.3079192638397217,-1.3204944769488733,-0.00012584947398863733,-0.1303962767124176,0.24498137831687927,0.00020084106654394418,0.026564380154013634,1.464308738708496,-2.732882603595499e-05,0.007818585261702538
282.0,325.0,3.3805,-0.1848,8.8516,-0.0383,0.0159,-0.1173,-1.661100526849264,-0.00040564400842413306,2.597907304763794,-1.6473344564437866,0.0021195400040596724,2.183523178100586,4.5311195093342285,1.4503437444647515e-18,0.3283657431602478,-1.320470158253805,-0.0001371850084979087,-0.1353173851966858,0.2449973076581955,0.00017926926375366747,0.0405837818980217,1.4643570184707642,-2.6138301109313034e-05,0.03294467180967331
282.0,325.0,3.3805,-0.1848,8.8516,-0.0383,0.0159,-0.1173,-1.6610681019225062,-0.00038601813139393926,2.5765578746795654,-1.6473348140716553,0.0028302280697971582,2.18949556350708,4.531135244960449,4.037084413543147e-22,0.32348009943962097,-1.3205025831805628,-0.00012881170550826937,-0.1296020895242691,0.24498137831687927,0.00018382318376097828,0.034770265221595764,1.4643447399139404,-2.5047178496606648e-05,0.05836782976984978
286.0,352.0,3.4427,-0.1525,8.7709,-0.0431,0.0221,-0.1211,-1.6610766849913539,-0.00035680527798831463,2.5576844215393066,-1.647355079650879,0.0034753945656120777,2.1927709579467773,4.531162901515625,1.123737289867989e-25,0.3324834108352661,-1.3205140272723597,-0.00012136689474573359,-0.11632050573825836,0.2449931800365448,0.00017361633945256472,0.035750359296798706,1.4643447399139404,-2.40434892475605e-05,0.01273822970688343
286.0,352.0,3.4427,-0.1525,8.7709,-0.0431,0.0221,-0.1211,-1.6611253223814906,-0.0003129079705104232,2.5529723167419434,-1.6473394632339478,0.0036984593607485294,2.1611480712890625,4.5311314302631835,2.0423371751186576e-30,0.32696008682250977,-1.3204782644854944,-0.0001285053149331361,-0.11227642744779587,0.24499717354774475,0.00016641807451378554,0.04080764204263687,1.4643529653549194,-2.28240605792962e-05,0.044710673391819
286.0,352.0,3.4427,-0.1525,8.7709,-0.0431,0.0221,-0.1211,-1.66107239345693,-0.0003053253749385476,2.5768790245056152,-1.6472138166427612,0.0042179343290627,2.185589075088501,4.531159086818359,5.684919810139497e-34,0.33305782079696655,-1.3205221335040491,-0.00012222275836393237,-0.12759147584438324,0.24504154920578003,0.00016533664893358946,0.037489186972379684,1.4643324613571167,-2.198764559580013e-05,0.06532254070043564
286.0,352.0,3.4427,-0.1525,8.7709,-0.0431,0.0221,-0.1211,-1.661084314385885,-0.00026555481599643826,2.5466129779815674,-1.6472220420837402,0.004673792980611324,2.200199604034424,4.5311314302631835,1.5824181966047112e-37,0.3165968358516693,-1.3204901854144495,-0.00011630007065832615,-0.14588409662246704,0.2450457066297531,0.00015327184519264847,0.04901517927646637,1.464336633682251,-2.121037323377095e-05,0.08011703193187714
286.0,352.0,3.4427,-0.1525,8.7709,-0.0431,0.0221,-0.1211,-1.6610599956908167,-0.00026840888313017786,2.5767154693603516,-1.647157907485962,0.004485339391976595,2.1877927780151367,4.53112713872876,4.4047014629121975e-41,0.314869225025177,-1.3205025831805628,-0.00013709346239920706,-0.1432437300682068,0.24499307572841644,0.00016255902301054448,0.053568094968795776,1.464300513267517,-2.0486193534452468e-05,0.06786222755908966
286.0,352.0,3.4427,-0.1525,8.7709,-0.0431,0.0221,-0.1211,-1.661084314385885,-0.00023922340187709779,2.584012508392334,-1.6471909284591675,0.004532970953732729,2.222395181655884,4.53109519063916,1.2611686178923354e-44,0.32550352811813354,-1.320554558430807,-0.00012729559966828674,-0.13067474961280823,0.24504972994327545,0.0001528541906736791,0.03952319175004959,1.4643206596374512,-6.760347332601668e-06,0.08704520761966705
286.0,352.0,3.4427,-0.1525,8.7709,-0.0431,0.0221,-0.1211,-1.6610599956908167,-0.00021475863468367606,2.576127767562866,-1.6471588611602783,0.004795623477548361,2.2630484104156494,4.531155272121094,0.0,0.33114564418792725,-1.3204944769488733,-0.00011733763676602393,-0.13447649776935577,0.24503377079963684,0.00014370169083122164,0.05416136607527733,1.464336633682251,-1.6325440999054308e-11,0.0879611074924469
286.0,352.0,3.4427,-0.1525,8.7709,-0.0431,0.0221,-0.1211,-1.661116739312643,-0.00019483327923808247,2.531078338623047,-1.6471514701843262,0.0050117261707782745,2.2011826038360596,4.531147165889404,0.0,0.3098035752773285,-1.3205221335040491,-0.00010882435890380293,-0.13673478364944458,0.24498122930526733,0.0001355834538117051,0.03909032419323921,1.4643610715866089,-3.942402025559589e-17,0.06268063187599182
286.0,352.0,3.4427,-0.1525,8.7709,-0.0431,0.0221,-0.1211,-1.661088605920309,-0.00017338444013148546,2.568638801574707,-1.6471068859100342,0.00492874113842845,2.1850175857543945,4.531143351192139,0.0,0.32128432393074036,-1.3205345312701624,-9.92254790617153e-05,-0.1275801658630371,0.24499733746051788,0.00012673376477323472,0.04666302353143692,1.464328408241272,-1.2772881776007405e-24,0.018551813438534737
286.0,352.0,3.4427,-0.1525,8.7709,-0.0431,0.0221,-0.1211,-1.661100526849264,-0.00016016099834814668,2.576348304748535,-1.647013783454895,0.005880794953554869,2.2365715503692627,4.531135244960449,0.0,0.3246830105781555,-1.3205025831805628,-9.306876017944887e-05,-0.13243909180164337,0.24501323699951172,0.00011685991194099188,0.05413978546857834,1.464316487312317,-3.0845001858232205e-30,0.063691645860672
286.0,352.0,3.4427,-0.1525,8.7709,-0.0431,0.0221,-0.1211,-1.6610518894591273,-0.00014881152310408652,2.599121570587158,-1.6470065116882324,0.006252353545278311,2.2311315536499023,4.531115217799805,0.0,0.32904112339019775,-1.320453945790426,-8.763149526203051e-05,-0.13903939723968506,0.2450053095817566,0.00010841334005817771,0.04818965494632721,1.4643447399139404,-7.44870462942848e-36,-0.003110317513346672
286.0,352.0,3.4427,-0.1525,8.7709,-0.0431,0.0221,-0.1211,-1.661044260064596,-0.00013896430027671158,2.578800916671753,-1.6470028162002563,0.007110187318176031,2.179109811782837,4.53110329687085,0.0,0.3257843852043152,-1.320498291646139,-8.279451867565513e-05,-0.12168687582015991,0.245025634765625,0.00010110555740538985,0.03525262326002121,1.4643447399139404,-1.7987067088073352e-41,0.0051939524710178375
286.0,352.0,3.4427,-0.1525,8.7709,-0.0431,0.0221,-0.1211,-1.6610962353148402,-0.0001303392054978758,2.564521312713623,-1.6468948125839233,0.007733517326414585,2.1541497707366943,4.531162901515625,0.0,0.329323947429657,-1.3204777876483362,-7.846355583751574e-05,-0.11961057037115097,0.24501723051071167,9.472081728745252e-05,0.05688394606113434,1.46434485912323,-0.0,0.006171892397105694
286.0,352.0,3.4427,-0.1525,8.7709,-0.0431,0.0221,-0.1211,-1.661055704156393,-0.00014025378914084285,2.591297149658203,-1.6468749046325684,0.00857650488615036,2.218925714492798,4.5311314302631835,0.0,0.32253575325012207,-1.320498291646139,-7.456312596332282e-05,-0.13475365936756134,0.24502162635326385,8.909459575079381e-05,0.050126537680625916,1.4643046855926514,0.0,-0.01191623043268919
286.0,352.0,3.4427,-0.1525,8.7709,-0.0431,0.0221,-0.1211,-1.6610361538329066,-0.00013011577539145947,2.535411834716797,-1.6468024253845215,0.008802775293588638,2.233156442642212,4.531162901515625,0.0,0.31260308623313904,-1.3204739729510706,-6.992841372266412e-05,-0.12608593702316284,0.24499733746051788,8.255639841081575e-05,0.046995170414447784,1.4643651247024536,0.0,0.06914210319519043
273.0,321.0,3.402,-0.1496,8.732,-0.0385,0.0367,-0.119,-1.6611253223814906,-0.00010133989417226985,2.6148128509521484,-1.6467703580856323,0.008586851879954338,2.231675863265991,4.53112713872876,0.0,0.3331584334373474,-1.3204658667193812,-6.681360537186265e-05,-0.11797282099723816,0.24503356218338013,7.824965723557398e-05,0.04136105254292488,1.464384913444519,0.0,0.06617559492588043
273.0,321.0,3.402,-0.1496,8.732,-0.0385,0.0367,-0.119,-1.661084314385885,-0.00011158558481838554,2.613696336746216,-1.6467386484146118,0.007635646965354681,2.2727818489074707,4.531147165889404,0.0,0.32489514350891113,-1.320498291646139,-6.396446406142786e-05,-0.1320226788520813,0.245025634765625,7.437005115207285e-05,0.04578430950641632,1.4643570184707642,0.0,0.006779409479349852
273.0,321.0,3.402,-0.1496,8.732,-0.0385,0.0367,-0.119,-1.661116739312643,-0.00012479492579586804,2.573805332183838,-1.6466383934020996,0.007262467872351408,2.2089879512786865,4.531191988582275,0.0,0.3140715956687927,-1.3204739729510706,-6.134842988103628e-05,-0.1259233057498932,0.245025634765625,7.085689867381006e-05,0.04932099208235741,1.4643206596374512,0.0,0.07463610917329788
273.0,321.0,3.402,-0.1496,8.732,-0.0385,0.0367,-0.119,-1.6610962353148402,-0.00040541772614233196,2.5961203575134277,-1.6466426849365234,0.007263745181262493,2.214852809906006,4.53112713872876,0.0,0.3243553638458252,-1.3204620520221155,-5.893793422728777e-05,-0.1255359798669815,0.24501723051071167,6.766075239283964e-05,0.0397069938480854,1.4643206596374512,0.0,0.01084962673485279
273.0,321.0,3.402,-0.1496,8.732,-0.0385,0.0367,-0.119,-1.6611200771727503,-0.00041085967677645385,2.5287647247314453,-1.6465988159179688,0.007269234396517277,2.2202348709106445,4.531115217799805,0.0,0.31253671646118164,-1.3205426375018519,-5.670967948390171e-05,-0.12417488545179367,0.24502979218959808,6.474046676885337e-05,0.03378960117697716,1.4643046855926514,0.0,0.04174177721142769
273.0,321.0,3.402,-0.1496,8.732,-0.0385,0.0367,-0.119,-1.661100526849264,-0.0005802888190373778,2.576017379760742,-1.6465263366699219,0.006391126196831465,2.193082809448242,4.531143351192139,0.0,0.33521705865859985,-1.320470158253805,-5.398824578151107e-05,-0.11271271109580994,0.24500508606433868,7.343391916947439e-05,0.04628864675760269,1.4643529653549194,0.0,0.08787161111831665
273.0,321.0,3.402,-0.1496,8.732,-0.0385,0.0367,-0.119,-1.6611086330809535,-0.0005930899060331285,2.6078479290008545,-1.6465108394622803,0.00602767476812005,2.2213640213012695,4.53115098058667,0.0,0.322378933429718,-1.320453945790426,-5.2112623961875215e-05,-0.12575921416282654,0.24502956867218018,7.058063783915713e-05,0.04491801932454109,1.4643124341964722,0.0,0.030155353248119354
273.0,321.0,3.402,-0.1496,8.732,-0.0385,0.0367,-0.119,-1.6611200771727503,-0.0006768007879145443,2.5922951698303223,-1.6464905738830566,0.005625903606414795,2.18742036819458,4.531175299281738,0.0,0.3198433816432953,-1.3204863707171839,-5.0362927140668035e-05,-0.11686302721500397,0.24502164125442505,6.791749910917133e-05,0.05288395658135414,1.4643566608428955,0.0,0.05524863302707672
273.0,321.0,3.402,-0.1496,8.732,-0.0385,0.0367,-0.119,-1.6611443958678187,-0.0007297423435375094,2.5573577880859375,-1.646438717842102,0.004988454282283783,2.2179412841796875,4.531123324031494,0.0,0.3250874876976013,-1.3205140272723597,-4.188809441529884e-07,-0.1340906023979187,0.24506539106369019,6.544803181895986e-05,0.045566052198410034,1.4643447399139404,0.0,0.03139954060316086
273.0,321.0,3.402,-0.1496,8.732,-0.0385,0.0367,-0.119,-1.6611324749388636,-0.0009807258611544967,2.559791088104248,-1.6464024782180786,0.004645702429115772,2.21085786819458,4.531191988582275,0.0,0.3289448022842407,-1.320470158253805,-1.1659706533606595e-10,-0.1421736627817154,0.24502168595790863,7.298180571524426e-05,0.07018273323774338,1.4643807411193848,0.0,0.006738580297678709
273.0,321.0,3.402,-0.1496,8.732,-0.0385,0.0367,-0.119,-1.6611644230284632,-0.0013960447395220399,2.5235862731933594,-1.6463702917099,0.003909195773303509,2.188483953475952,4.53115098058667,0.0,0.330346941947937,-1.3204901854144495,-3.2455219338856783e-14,-0.11673931777477264,0.24502162635326385,7.117969653336331e-05,0.05906055122613907,1.4643406867980957,0.0,0.050301145762205124
273.0,321.0,3.402,-0.1496,8.732,-0.0385,0.0367,-0.119,-1.66115202526235,-0.0025123057421296835,2.5030155181884766,-1.6463626623153687,0.0030481857247650623,2.1974644660949707,4.531147165889404,0.0,0.3278237581253052,-1.3204863707171839,-9.034029071760128e-18,-0.12570467591285706,0.24502161145210266,4.5448405217030086e-06,0.05402940511703491,1.4643726348876953,0.0,0.0661327987909317
273.0,321.0,3.402,-0.1496,8.732,-0.0385,0.0367,-0.119,-1.661208292047018,-0.003816621145233512,2.5453734397888184,-1.6463630199432373,0.001959829591214657,2.187100410461426,4.531135244960449,0.0,0.32313302159309387,-1.3204739729510706,-1.6418900283921077e-22,-0.12861858308315277,0.24502956867218018,8.260023220962864e-11,0.06918364763259888,1.4642845392227173,0.0,0.07632125914096832
