ramyac6/ROB537/final_project/csv/bad/bad_42.csv
tof_0,tof_1,accelx,accely,accelz,gyrox,gyroy,gyroz,shoulder_lift_joint_position,shoulder_lift_joint_velocity,shoulder_lift_joint_effort,elbow_joint_position,elbow_joint_velocity,elbow_joint_effort,wrist_1_joint_position,wrist_1_joint_velocity,wrist_1_joint_effort,wrist_2_joint_position,wrist_2_joint_velocity,wrist_2_joint_effort,wrist_3_joint_position,wrist_3_joint_velocity,wrist_3_joint_effort,shoulder_pan_joint_position,shoulder_pan_joint_velocity,shoulder_pan_joint_effort
171.0,156.0,2.7996,2.4209,8.7811,-0.049,0.0234,-0.1107,-1.8783613644041957,0.0,3.482046127319336,-1.4286949634552002,-0.0,2.1760926246643066,4.489926500911377,-0.0,0.26965153217315674,-1.3549564520465296,-0.0,-0.030210748314857483,-0.25285178819765264,0.0,-0.014017588458955288,1.4587875604629517,0.0,-0.028741834685206413
171.0,156.0,2.7996,2.4209,8.7811,-0.049,0.0234,-0.1107,-1.8784057102599085,0.0,3.460047721862793,-1.4287109375,-0.0,2.1687567234039307,4.489950819606445,-0.0,0.2760412395000458,-1.3549483458148401,-0.0,-0.026669451966881752,-0.25287133852113897,0.0,-0.0054924883879721165,1.458763599395752,0.0,-0.009664235636591911
171.0,156.0,2.7996,2.4209,8.7811,-0.049,0.0234,-0.1107,-1.87835754970693,0.0,3.439418315887451,-1.4287067651748657,-0.0,2.1466779708862305,4.489974661464355,-0.0,0.27380913496017456,-1.3549326101886194,-0.0,-0.02879222482442856,-0.2528641859637659,0.0,-0.008204818703234196,1.458775520324707,0.0,0.018568022176623344
171.0,156.0,2.7996,2.4209,8.7811,-0.049,0.0234,-0.1107,-1.8783532581725062,0.0,3.4624247550964355,-1.428755521774292,-0.0,2.1914772987365723,4.489954157466553,-0.0,0.2880488336086273,-1.3549326101886194,-0.0,-0.024751823395490646,-0.25282365480531865,0.0,-0.00022774504031985998,1.4587794542312622,0.0,0.007210045121610165
171.0,156.0,2.7996,2.4209,8.7811,-0.049,0.0234,-0.1107,-1.8783813915648402,0.0,3.483798027038574,-1.428694486618042,-0.0,2.147141695022583,4.489938421840332,-0.0,0.28403717279434204,-1.354941193257467,-0.0,-0.028030341491103172,-0.2528756300555628,0.0,-0.02034473977982998,1.458763599395752,0.0,0.008006519638001919
171.0,156.0,2.7996,2.4209,8.7811,-0.049,0.0234,-0.1107,-1.8783375225462855,0.0,3.478933572769165,-1.4286705255508423,-0.0,2.1584696769714355,4.489942236537598,-0.0,0.2774368226528168,-1.3549163977252405,-0.0,-0.03257495164871216,-0.2528632322894495,0.0,-0.0030578512232750654,1.4587957859039307,0.0,-0.01348546240478754
171.0,156.0,2.7996,2.4209,8.7811,-0.049,0.0234,-0.1107,-1.8784176311888636,0.0,3.539656639099121,-1.4287031888961792,-0.0,2.1228370666503906,4.489966078395508,-0.0,0.28012633323669434,-1.3549564520465296,-0.0,-0.03499925136566162,-0.25283939043153936,0.0,0.0037718547973781824,1.4587796926498413,0.0,-0.0014018877409398556
171.0,156.0,2.7996,2.4209,8.7811,-0.049,0.0234,-0.1107,-1.8783775768675746,0.0,3.427159309387207,-1.4286866188049316,-0.0,2.139615774154663,4.489922209376953,-0.0,0.2873670160770416,-1.3549044767962855,-0.0,-0.032258108258247375,-0.25285607973207647,0.0,-0.01245800219476223,1.4587714672088623,0.0,-0.010851644910871983
171.0,156.0,2.7996,2.4209,8.7811,-0.049,0.0234,-0.1107,-1.878352781335348,0.0,3.457751989364624,-1.4287351369857788,-0.0,2.2045035362243652,4.489966555232666,-0.0,0.2783474922180176,-1.3549607435809534,-0.0,-0.04284873977303505,-0.25286752382387334,0.0,-0.013628615997731686,1.4587596654891968,0.0,0.004434475675225258
171.0,156.0,2.7996,2.4209,8.7811,-0.049,0.0234,-0.1107,-1.8784014187254847,0.0,3.4669370651245117,-1.4286870956420898,-0.0,2.136688470840454,4.489998503322266,-0.0,0.28255075216293335,-1.3549731413470667,-0.0,-0.032884981483221054,-0.25289994875063115,0.0,0.004584861919283867,1.4587957859039307,0.0,0.003706313669681549
172.0,165.0,2.8164,2.4263,8.7781,-0.0451,0.022,-0.1115,-1.8783813915648402,0.0,3.46917462348938,-1.4286911487579346,-0.0,2.174236536026001,4.489942236537598,-0.0,0.28098076581954956,-1.35492450395693,-0.0,-0.027743371203541756,-0.2529199759112757,0.0,-0.0051973434165120125,1.4587476253509521,0.0,-0.003772120922803879
172.0,165.0,2.8164,2.4263,8.7781,-0.0451,0.022,-0.1115,-1.8783613644041957,0.0,3.4458184242248535,-1.4286949634552002,-0.0,2.1087310314178467,4.4899627405354,-0.0,0.2722803056240082,-1.35492450395693,-0.0,-0.025707021355628967,-0.25283986726869756,0.0,0.0007720889989286661,1.4587554931640625,0.0,0.030378416180610657
172.0,165.0,2.8164,2.4263,8.7781,-0.0451,0.022,-0.1115,-1.878409048120016,0.0,3.462344169616699,-1.428690791130066,-0.0,2.204819440841675,4.48993889867749,-0.0,0.28634214401245117,-1.3549163977252405,-0.0,-0.03383506089448929,-0.25288373628725225,0.0,-0.007755978498607874,1.458735466003418,0.0,-0.0029843542724847794
172.0,165.0,2.8164,2.4263,8.7781,-0.0451,0.022,-0.1115,-1.8783937893309535,0.0,3.467064142227173,-1.4286789894104004,-0.0,2.1612558364868164,4.489994688625,-0.0,0.2774309515953064,-1.3549001852618616,-0.0,-0.02743856981396675,-0.2528436819659632,0.0,0.001295852242037654,1.4587395191192627,0.0,0.02050633542239666
172.0,165.0,2.8164,2.4263,8.7781,-0.0451,0.022,-0.1115,-1.8783732853331507,0.0,3.4491214752197266,-1.4287067651748657,-0.0,2.2111656665802,4.4899584490009765,-0.0,0.28540706634521484,-1.3549483458148401,-0.0,-0.02971932850778103,-0.252847973500387,0.0,0.0012652436271309853,1.458775520324707,0.0,0.006003526039421558
172.0,165.0,2.8164,2.4263,8.7781,-0.0451,0.022,-0.1115,-1.8783651791014613,0.0,3.4625678062438965,-1.4287270307540894,-0.0,2.141603708267212,4.4899584490009765,-0.0,0.2770169675350189,-1.3549440542804163,-0.0,-0.03345412760972977,-0.25282413164247686,0.0,-0.005652243737131357,1.4587714672088623,0.0,-0.021990850567817688
172.0,165.0,2.8164,2.4263,8.7781,-0.0451,0.022,-0.1115,-1.8783771000304164,0.0,3.4908223152160645,-1.4287149906158447,-0.0,2.126025438308716,4.489966555232666,-0.0,0.2853577136993408,-1.3549326101886194,-0.0,-0.0282815583050251,-0.2528756300555628,0.0,-0.0070226965472102165,1.4587554931640625,0.0,0.06158169358968735
172.0,165.0,2.8164,2.4263,8.7781,-0.0451,0.022,-0.1115,-1.878385683099264,0.0,3.498887062072754,-1.4286870956420898,-0.0,2.222160816192627,4.4899627405354,-0.0,0.2748183310031891,-1.3549564520465296,-0.0,-0.026434283703565598,-0.25287181535829717,0.0,-0.006417912431061268,1.458775520324707,0.0,-0.041944317519664764
172.0,165.0,2.8164,2.4263,8.7781,-0.0451,0.022,-0.1115,-1.8783613644041957,0.0,3.48604416847229,-1.4286504983901978,-0.0,2.1435840129852295,4.489974661464355,-0.0,0.27714934945106506,-1.3549483458148401,-0.0,-0.0376892052590847,-0.2528918425189417,0.0,-0.00016559986397624016,1.458775520324707,0.0,0.023959441110491753
172.0,165.0,2.8164,2.4263,8.7781,-0.0451,0.022,-0.1115,-1.878397604028219,0.0,3.4744906425476074,-1.4286954402923584,-0.0,2.1881837844848633,4.4899303156086425,-0.0,0.2735474705696106,-1.3549163977252405,-0.0,-0.03324906900525093,-0.2528436819659632,0.0,-0.0006053447723388672,1.4587515592575073,0.0,-0.019911859184503555
172.0,165.0,2.8164,2.4263,8.7781,-0.0451,0.022,-0.1115,-1.878369470635885,0.0,3.4967055320739746,-1.4287351369857788,-0.0,2.1477866172790527,4.489978476161621,-0.0,0.2898472845554352,-1.354896370564596,-0.0,-0.03165435045957565,-0.2529085318194788,0.0,-0.0010363336186856031,1.4587875604629517,0.0,0.054490458220243454
172.0,165.0,2.8164,2.4263,8.7781,-0.0451,0.022,-0.1115,-1.8784095249571742,0.0,3.462373733520508,-1.4286789894104004,-0.0,2.176576614379883,4.489922209376953,-0.0,0.27935534715652466,-1.3549688498126429,-0.0,-0.027181586250662804,-0.2528274695025843,0.0,0.0021391899790614843,1.4587795734405518,0.0,0.025469351559877396
172.0,165.0,2.8164,2.4263,8.7781,-0.0451,0.022,-0.1115,-1.8783894977965296,0.0,3.4911718368530273,-1.428722858428955,-0.0,2.167797088623047,4.489946528072021,-0.0,0.26840195059776306,-1.3549326101886194,-0.0,-0.02544526197016239,-0.252904240285055,0.0,0.00213907309807837,1.4587876796722412,0.0,0.030511412769556046
172.0,165.0,2.8164,2.4263,8.7781,-0.0451,0.022,-0.1115,-1.8783813915648402,0.0,3.5150680541992188,-1.4286954402923584,-0.0,2.1996660232543945,4.489978476161621,-0.0,0.2781483232975006,-1.3549564520465296,-0.0,-0.029488660395145416,-0.25286752382387334,0.0,-0.0005587107734754682,1.458775520324707,0.0,0.005359857343137264
172.0,165.0,2.8164,2.4263,8.7781,-0.0451,0.022,-0.1115,-1.878317495385641,0.0,3.4556617736816406,-1.4286870956420898,-0.0,2.1855037212371826,4.489950819606445,-0.0,0.2786899209022522,-1.3549607435809534,-0.0,-0.022344565019011497,-0.2528641859637659,0.0,0.003640606300905347,1.4587115049362183,0.0,-0.014888603240251541
172.0,165.0,2.8164,2.4263,8.7781,-0.0451,0.022,-0.1115,-1.8783651791014613,0.0,3.4198875427246094,-1.4286706447601318,-0.0,2.1844849586486816,4.4899865823933105,-0.0,0.2698426842689514,-1.3549044767962855,-0.0,-0.03114069625735283,-0.2528918425189417,0.0,-0.0047370996326208115,1.4588077068328857,0.0,-0.01513257622718811
172.0,165.0,2.8164,2.4263,8.7781,-0.0451,0.022,-0.1115,-1.8783494434752406,0.0,3.4950919151306152,-1.428719162940979,-0.0,2.174870252609253,4.490002794856689,-0.0,0.28318873047828674,-1.354896370564596,-0.0,-0.037522442638874054,-0.25288373628725225,0.0,-0.007383887656033039,1.4587396383285522,0.0,-0.015849493443965912
172.0,165.0,2.8164,2.4263,8.7781,-0.0451,0.022,-0.1115,-1.8783413372435511,0.0,3.4813716411590576,-1.4287067651748657,-0.0,2.1613717079162598,4.489998503322266,-0.0,0.2756108343601227,-1.3549326101886194,-0.0,-0.03854282572865486,-0.25291234651674444,0.0,-0.014557590708136559,1.458775520324707,0.0,0.022211791947484016
169.0,158.0,2.8134,2.4544,8.7141,-0.0444,0.0217,-0.1162,-1.8783375225462855,0.0,3.496948719024658,-1.428662896156311,-0.0,2.1777431964874268,4.489998980159424,-0.0,0.2890204191207886,-1.3549287954913538,-0.0,-0.04232199490070343,-0.2528918425189417,0.0,-0.0035953272599726915,1.4587836265563965,0.0,0.04615318402647972
169.0,158.0,2.8134,2.4544,8.7141,-0.0444,0.0217,-0.1162,-1.878369470635885,0.0,3.453667163848877,-1.4287109375,-0.0,2.1497302055358887,4.489893599147461,-0.0,0.291596919298172,-1.354908291493551,-0.0,-0.026472371071577072,-0.2528756300555628,0.0,-0.0072132982313632965,1.4587714672088623,0.0,0.05471354350447655
169.0,158.0,2.8134,2.4544,8.7141,-0.0444,0.0217,-0.1162,-1.878340860406393,0.0,3.492288112640381,-1.4287190437316895,-0.0,2.173534393310547,4.489926500911377,-0.0,0.28253933787345886,-1.3549564520465296,-0.0,-0.039049334824085236,-0.2528274695025843,0.0,0.0004745235783047974,1.4587516784667969,0.0,0.016106007620692253
169.0,158.0,2.8134,2.4544,8.7141,-0.0444,0.0217,-0.1162,-1.8783532581725062,0.0,3.4553894996643066,-1.4286748170852661,-0.0,2.1725752353668213,4.489966555232666,-0.0,0.2723764479160309,-1.3549326101886194,-0.0,-0.026163503527641296,-0.25287181535829717,0.0,-0.018195345997810364,1.458783507347107,0.0,-0.023383354768157005
169.0,158.0,2.8134,2.4544,8.7141,-0.0444,0.0217,-0.1162,-1.878397604028219,0.0,3.4820401668548584,-1.4287149906158447,-0.0,2.1583166122436523,4.489954157466553,-0.0,0.27462172508239746,-1.3549287954913538,-0.0,-0.03765276074409485,-0.252904240285055,0.0,-0.0022502620704472065,1.4587714672088623,0.0,-0.039382174611091614
169.0,158.0,2.8134,2.4544,8.7141,-0.0444,0.0217,-0.1162,-1.8783894977965296,0.0,3.463151454925537,-1.4286785125732422,-0.0,2.1697332859039307,4.489978476161621,-0.0,0.2836833894252777,-1.3549369017230433,-0.0,-0.03518332540988922,-0.25289613405336553,0.0,-0.009657584130764008,1.458783507347107,0.0,-0.006548115983605385
169.0,158.0,2.8134,2.4544,8.7141,-0.0444,0.0217,-0.1162,-1.8783494434752406,0.0,3.441847324371338,-1.4287067651748657,-0.0,2.1147425174713135,4.489954157466553,-0.0,0.2775074541568756,-1.3549369017230433,-0.0,-0.029543662443757057,-0.2528875509845179,0.0,-0.001916917273774743,1.4588117599487305,0.0,0.060948487371206284
169.0,158.0,2.8134,2.4544,8.7141,-0.0444,0.0217,-0.1162,-1.8784176311888636,0.0,3.4522581100463867,-1.428646445274353,-0.0,2.1593985557556152,4.4899584490009765,-0.0,0.2865644693374634,-1.3549287954913538,-0.0,-0.02777235209941864,-0.2528436819659632,0.0,-0.002661558799445629,1.458735466003418,0.0,-0.041153959929943085
169.0,158.0,2.8134,2.4544,8.7141,-0.0444,0.0217,-0.1162,-1.878397604028219,0.0,3.490868330001831,-1.4286789894104004,-0.0,2.168221950531006,4.489954634303711,-0.0,0.28025731444358826,-1.3549483458148401,-0.0,-0.03755571320652962,-0.25288373628725225,0.0,-0.019962964579463005,1.4587714672088623,0.0,-0.03238141909241676
169.0,158.0,2.8134,2.4544,8.7141,-0.0444,0.0217,-0.1162,-1.8783618412413539,0.0,3.499905586242676,-1.4286588430404663,-0.0,2.177321672439575,4.489978476161621,-0.0,0.2783304452896118,-1.3549163977252405,-0.0,-0.03472316265106201,-0.25283986726869756,0.0,0.0018972776597365737,1.4587315320968628,0.0,-0.015774471685290337
169.0,158.0,2.8134,2.4544,8.7141,-0.0444,0.0217,-0.1162,-1.8783132038512171,0.0,3.469064235687256,-1.4287149906158447,-0.0,2.120736598968506,4.489966555232666,-0.0,0.2855767011642456,-1.3549202124225062,-0.0,-0.03840561956167221,-0.2528641859637659,0.0,-0.0012610341655090451,1.4587476253509521,0.0,0.005368499085307121
169.0,158.0,2.8134,2.4544,8.7141,-0.0444,0.0217,-0.1162,-1.878345628777975,0.0,3.399702310562134,-1.4286630153656006,-0.0,2.1481704711914062,4.4899584490009765,-0.0,0.2798006534576416,-1.3549607435809534,-0.0,-0.013885482214391232,-0.25289994875063115,0.0,-0.00632869265973568,1.4587795734405518,0.0,0.034429095685482025
169.0,158.0,2.8134,2.4544,8.7141,-0.0444,0.0217,-0.1162,-1.8783613644041957,0.0,3.4796791076660156,-1.4286588430404663,-0.0,2.10843825340271,4.4899584490009765,-0.0,0.29080379009246826,-1.3549650351153772,-0.0,-0.015523715876042843,-0.2528794447528284,0.0,-0.01484695915132761,1.458775520324707,0.0,-0.03205050528049469
169.0,158.0,2.8134,2.4544,8.7141,-0.0444,0.0217,-0.1162,-1.8783451519408167,0.0,3.467346668243408,-1.4287071228027344,-0.0,2.165203332901001,4.48990981161084,-0.0,0.2695537209510803,-1.3549607435809534,-0.0,-0.020223114639520645,-0.25289994875063115,0.0,-0.005448469426482916,1.458775520324707,0.0,-0.03666287660598755
169.0,158.0,2.8134,2.4544,8.7141,-0.0444,0.0217,-0.1162,-1.8783818684019984,0.0,3.53104567527771,-1.428722858428955,-0.0,2.1252949237823486,4.489934607143066,-0.0,0.28623709082603455,-1.3549044767962855,-0.0,-0.041639018803834915,-0.2528918425189417,0.0,-0.0008382766973227262,1.4588077068328857,0.0,0.005600389093160629
169.0,158.0,2.8134,2.4544,8.7141,-0.0444,0.0217,-0.1162,-1.8783413372435511,0.0,3.4994735717773438,-1.4287190437316895,-0.0,2.1814324855804443,4.489914103145264,-0.0,0.2852552831172943,-1.3549688498126429,-0.0,-0.044897206127643585,-0.25291234651674444,0.0,0.00053832633420825,1.458763599395752,0.0,0.031236276030540466
169.0,158.0,2.8134,2.4544,8.7141,-0.0444,0.0217,-0.1162,-1.8783894977965296,0.0,3.4707112312316895,-1.428699016571045,-0.0,2.16169810295105,4.4899584490009765,-0.0,0.26738810539245605,-1.3549483458148401,-0.0,-0.035909026861190796,-0.25289994875063115,0.0,-0.005298616364598274,1.4587876796722412,0.0,0.020749427378177643
169.0,158.0,2.8134,2.4544,8.7141,-0.0444,0.0217,-0.1162,-1.8783618412413539,0.0,3.4860928058624268,-1.428690791130066,-0.0,2.174669027328491,4.489954157466553,-0.0,0.27597829699516296,-1.3549121061908167,-0.0,-0.029546033591032028,-0.25285178819765264,0.0,-0.004998325370252132,1.4587876796722412,0.0,0.021929748356342316
171.0,158.0,2.7464,2.4365,8.6943,-0.0399,0.0176,-0.1193,-1.8784381351866664,0.0,3.5134358406066895,-1.428690791130066,-0.0,2.135307788848877,4.4899627405354,-0.0,0.27321693301200867,-1.3549001852618616,-0.0,-0.018967360258102417,-0.2528918425189417,0.0,-0.005334481596946716,1.458775520324707,0.0,0.029085900634527206
171.0,158.0,2.7464,2.4365,8.6943,-0.0399,0.0176,-0.1193,-1.8783933124937953,0.0,3.455472230911255,-1.428731083869934,-0.0,2.1316614151000977,4.489954634303711,-0.0,0.2905401885509491,-1.35492450395693,-0.0,-0.019938360899686813,-0.25287181535829717,0.0,-0.0026349725667387247,1.4587396383285522,0.0,-0.008117982186377048
171.0,158.0,2.7464,2.4365,8.6943,-0.0399,0.0176,-0.1193,-1.8784057102599085,0.0,3.4687814712524414,-1.4287025928497314,-0.0,2.1733133792877197,4.489966555232666,-0.0,0.2685745060443878,-1.3549850622760218,-0.0,-0.03209330514073372,-0.252904240285055,0.0,-0.003067218465730548,1.458763599395752,0.0,-0.012084013782441616
171.0,158.0,2.7464,2.4365,8.6943,-0.0399,0.0176,-0.1193,-1.8783008060851039,0.0,3.5005555152893066,-1.428731083869934,-0.0,2.1655542850494385,4.4899627405354,-0.0,0.29305851459503174,-1.3549564520465296,-0.0,-0.031013548374176025,-0.2528880278216761,0.0,0.0012561155017465353,1.4587717056274414,0.0,-0.022730374708771706
171.0,158.0,2.7464,2.4365,8.6943,-0.0399,0.0176,-0.1193,-1.8783494434752406,0.0,3.507518768310547,-1.4286985397338867,-0.0,2.1577701568603516,4.4899584490009765,-0.0,0.28462374210357666,-1.3549369017230433,-0.0,-0.03261645883321762,-0.25286752382387334,0.0,0.0005082855932414532,1.4587476253509521,0.0,0.07522149384021759
171.0,158.0,2.7464,2.4365,8.6943,-0.0399,0.0176,-0.1193,-1.8783813915648402,0.0,3.4826507568359375,-1.4286588430404663,-0.0,2.160276174545288,4.4899584490009765,-0.0,0.2795080542564392,-1.3549001852618616,-0.0,-0.03850506618618965,-0.2528603712665003,0.0,-0.005702323745936155,1.458763599395752,0.0,-0.026133336126804352
171.0,158.0,2.7464,2.4365,8.6943,-0.0399,0.0176,-0.1193,-1.878373762170309,0.0,3.5154223442077637,-1.428690791130066,-0.0,2.1822915077209473,4.489970369929932,-0.0,0.26594680547714233,-1.3549440542804163,-0.0,-0.031979046761989594,-0.2528603712665003,0.0,-0.019560061395168304,1.4587595462799072,0.0,-0.003878129180520773
171.0,158.0,2.7464,2.4365,8.6943,-0.0399,0.0176,-0.1193,-1.8783933124937953,0.0,3.4758105278015137,-1.4287149906158447,-0.0,2.195481300354004,4.489966555232666,-0.0,0.2794412076473236,-1.3549283186541956,-0.0,-0.014568915590643883,-0.25286800066103154,0.0,-0.015916967764496803,1.4587515592575073,0.0,0.030065201222896576
171.0,158.0,2.7464,2.4365,8.6943,-0.0399,0.0176,-0.1193,-1.8783613644041957,0.0,3.4680848121643066,-1.4287109375,-0.0,2.2048614025115967,4.489942236537598,-0.0,0.2797934412956238,-1.3548882643329065,-0.0,-0.03649616986513138,-0.2528880278216761,0.0,-0.006068812683224678,1.4587395191192627,0.0,-0.004666308406740427
171.0,158.0,2.7464,2.4365,8.6943,-0.0399,0.0176,-0.1193,-1.8783933124937953,0.0,3.4897732734680176,-1.4286994934082031,-0.0,2.1922991275787354,4.489978476161621,-0.0,0.28575223684310913,-1.3549163977252405,-0.0,-0.030521530658006668,-0.2528641859637659,0.0,-0.0007887672400102019,1.4587714672088623,0.0,0.0262106042355299
171.0,158.0,2.7464,2.4365,8.6943,-0.0399,0.0176,-0.1193,-1.878385683099264,0.0,3.50515079498291,-1.4287351369857788,-0.0,2.2052652835845947,4.489978476161621,-0.0,0.2750902771949768,-1.3549163977252405,-0.0,-0.046540599316358566,-0.2528880278216761,0.0,-0.0025927145034074783,1.4587194919586182,0.0,-0.03545041009783745
171.0,158.0,2.7464,2.4365,8.6943,-0.0399,0.0176,-0.1193,-1.8783775768675746,0.0,3.4506239891052246,-1.4286624193191528,-0.0,2.1932828426361084,4.489966555232666,-0.0,0.28386372327804565,-1.3549564520465296,-0.0,-0.03310568630695343,-0.2528880278216761,0.0,-0.00995713658630848,1.4587675333023071,0.0,0.026745852082967758
171.0,158.0,2.7464,2.4365,8.6943,-0.0399,0.0176,-0.1193,-1.878345628777975,0.0,3.4880170822143555,-1.4286830425262451,-0.0,2.154402494430542,4.489926500911377,-0.0,0.27836763858795166,-1.3549326101886194,-0.0,-0.03588982671499252,-0.25287181535829717,0.0,0.008077142760157585,1.4587476253509521,0.0,-0.03371213376522064
171.0,158.0,2.7464,2.4365,8.6943,-0.0399,0.0176,-0.1193,-1.8784095249571742,0.0,3.5019936561584473,-1.428662896156311,-0.0,2.1991310119628906,4.489942236537598,-0.0,0.2810245752334595,-1.3549369017230433,-0.0,-0.03056592307984829,-0.2529080549823206,0.0,-0.005527801811695099,1.4587314128875732,0.0,-0.04073619097471237
171.0,158.0,2.7464,2.4365,8.6943,-0.0399,0.0176,-0.1193,-1.8783494434752406,0.0,3.48187518119812,-1.4287190437316895,-0.0,2.142688274383545,4.489946528072021,-0.0,0.27498480677604675,-1.35492450395693,-0.0,-0.03701725974678993,-0.25286800066103154,0.0,0.007483514957129955,1.458775520324707,0.0,0.035354457795619965
171.0,158.0,2.7464,2.4365,8.6943,-0.0399,0.0176,-0.1193,-1.8784100017943324,0.0,3.5296478271484375,-1.4287109375,-0.0,2.1622543334960938,4.489946528072021,-0.0,0.2753695845603943,-1.3549121061908167,-0.0,-0.025912988930940628,-0.252847973500387,0.0,-0.003293055109679699,1.4587595462799072,0.0,-0.00984142255038023
171.0,158.0,2.7464,2.4365,8.6943,-0.0399,0.0176,-0.1193,-1.8783651791014613,0.0,3.4259285926818848,-1.4286748170852661,-0.0,2.1451616287231445,4.4899627405354,-0.0,0.28160351514816284,-1.3549163977252405,-0.0,-0.029458336532115936,-0.25286847749818975,0.0,-0.011461229994893074,1.458743691444397,0.0,0.048523105680942535
171.0,158.0,2.7464,2.4365,8.6943,-0.0399,0.0176,-0.1193,-1.8783570728697718,0.0,3.4247326850891113,-1.4286949634552002,-0.0,2.1884255409240723,4.489950342769287,-0.0,0.26449036598205566,-1.3549044767962855,-0.0,-0.022985786199569702,-0.2528722921954554,0.0,-0.01030984427779913,1.4587756395339966,0.0,-0.030276959761977196
172.0,152.0,2.8241,2.4562,8.6847,-0.0376,0.0246,-0.1136,-1.878317495385641,0.0,3.4756155014038086,-1.428722858428955,-0.0,2.1438732147216797,4.48990981161084,-0.0,0.28218913078308105,-1.3549202124225062,-0.0,-0.02931070886552334,-0.25288373628725225,0.0,-0.007588228676468134,1.458783507347107,0.0,0.033134058117866516
172.0,152.0,2.8241,2.4562,8.6847,-0.0376,0.0246,-0.1136,-1.8784057102599085,0.0,3.461487293243408,-1.4287149906158447,-0.0,2.1634938716888428,4.489934607143066,-0.0,0.2781203091144562,-1.3549440542804163,-0.0,-0.03753020241856575,-0.25283557573427373,0.0,-0.0020221644081175327,1.4587595462799072,0.0,0.020074274390935898
172.0,152.0,2.8241,2.4562,8.6847,-0.0376,0.0246,-0.1136,-1.878385683099264,0.0,3.4947116374969482,-1.428792119026184,-0.0,2.155996561050415,4.4899584490009765,-0.0,0.2759604752063751,-1.35492450395693,-0.0,-0.024008600041270256,-0.25280791917909795,0.0,-0.009134026244282722,1.4587998390197754,0.0,0.005162147805094719
172.0,152.0,2.8241,2.4562,8.6847,-0.0376,0.0246,-0.1136,-1.8783813915648402,0.0,3.425041675567627,-1.4286911487579346,-0.0,2.1836137771606445,4.489942236537598,-0.0,0.2758302688598633,-1.3549121061908167,-0.0,-0.02704988420009613,-0.252904240285055,0.0,-0.01293499767780304,1.4587794542312622,0.0,0.0067796241492033005
172.0,152.0,2.8241,2.4562,8.6847,-0.0376,0.0246,-0.1136,-1.8783494434752406,0.0,3.440612316131592,-1.4286830425262451,-0.0,2.169309139251709,4.4899627405354,-0.0,0.27680474519729614,-1.3549001852618616,-0.0,-0.026737287640571594,-0.2528436819659632,0.0,-0.004853601101785898,1.4587717056274414,0.0,0.03428022563457489
172.0,152.0,2.8241,2.4562,8.6847,-0.0376,0.0246,-0.1136,-1.8783937893309535,0.0,3.4734020233154297,-1.4286949634552002,-0.0,2.1657702922821045,4.489922209376953,-0.0,0.27887314558029175,-1.3549326101886194,-0.0,-0.03284428268671036,-0.2529199759112757,0.0,-0.016004443168640137,1.458763599395752,0.0,0.009110679849982262
172.0,152.0,2.8241,2.4562,8.6847,-0.0376,0.0246,-0.1136,-1.878369470635885,0.0,3.5068182945251465,-1.4287067651748657,-0.0,2.1388046741485596,4.4899303156086425,-0.0,0.2769622206687927,-1.3549163977252405,-0.0,-0.02168642356991768,-0.2528603712665003,0.0,-0.008412245661020279,1.458783507347107,0.0,0.025608621537685394
172.0,152.0,2.8241,2.4562,8.6847,-0.0376,0.0246,-0.1136,-1.878369470635885,0.0,3.4873881340026855,-1.4287312030792236,-0.0,2.209141969680786,4.489926500911377,-0.0,0.27788904309272766,-1.354941193257467,-0.0,-0.040745191276073456,-0.25291186967958623,0.0,0.001530784065835178,1.4587957859039307,0.0,0.0028534280136227608
172.0,152.0,2.8241,2.4562,8.6847,-0.0376,0.0246,-0.1136,-1.8783651791014613,0.0,3.442838191986084,-1.428775668144226,-0.0,2.192478656768799,4.4899584490009765,-0.0,0.28073546290397644,-1.3549163977252405,-0.0,-0.021049080416560173,-0.25287181535829717,0.0,-0.011846836656332016,1.4587674140930176,0.0,0.012613789178431034
172.0,152.0,2.8241,2.4562,8.6847,-0.0376,0.0246,-0.1136,-1.878369470635885,0.0,3.480536937713623,-1.4287270307540894,-0.0,2.135450601577759,4.489934130305908,-0.0,0.28447437286376953,-1.354952637349264,-0.0,-0.03388043865561485,-0.2528956572162073,0.0,-0.006672175135463476,1.4587396383285522,0.0,-0.01433243602514267
172.0,152.0,2.8241,2.4562,8.6847,-0.0376,0.0246,-0.1136,-1.8783937893309535,0.0,3.50529146194458,-1.4286789894104004,-0.0,2.1541597843170166,4.489978476161621,-0.0,0.2827703654766083,-1.3549440542804163,-0.0,-0.022443095222115517,-0.25285226503481084,0.0,-0.0017761143390089273,1.4587595462799072,0.0,-0.05302758514881134
172.0,152.0,2.8241,2.4562,8.6847,-0.0376,0.0246,-0.1136,-1.8784100017943324,0.0,3.48244571685791,-1.4287112951278687,-0.0,2.159482717514038,4.489970369929932,-0.0,0.27713555097579956,-1.3549650351153772,-0.0,-0.024769358336925507,-0.25283557573427373,0.0,-0.0009219149360433221,1.458783507347107,0.0,0.01863902062177658
172.0,152.0,2.8241,2.4562,8.6847,-0.0376,0.0246,-0.1136,-1.8783894977965296,0.0,3.4764561653137207,-1.428731083869934,-0.0,2.1196534633636475,4.489946528072021,-0.0,0.2885759472846985,-1.35492450395693,-0.0,-0.028716273605823517,-0.25289994875063115,0.0,-0.00036009110044687986,1.458763599395752,0.0,0.0042581986635923386
172.0,152.0,2.8241,2.4562,8.6847,-0.0376,0.0246,-0.1136,-1.878369470635885,0.0,3.4460792541503906,-1.428666591644287,-0.0,2.2009825706481934,4.489946528072021,-0.0,0.2827272117137909,-1.3549163977252405,-0.0,-0.024544591084122658,-0.25283986726869756,0.0,-0.004649103619158268,1.458823561668396,0.0,-0.033713679760694504
172.0,152.0,2.8241,2.4562,8.6847,-0.0376,0.0246,-0.1136,-1.8783451519408167,0.0,3.4951772689819336,-1.4287270307540894,-0.0,2.1943321228027344,4.489902659053467,-0.0,0.2827102541923523,-1.3549202124225062,-0.0,-0.03646557405591011,-0.25288373628725225,0.0,0.001681524096056819,1.4587676525115967,0.0,0.009219515137374401
172.0,152.0,2.8241,2.4562,8.6847,-0.0376,0.0246,-0.1136,-1.8783532581725062,0.0,3.5084352493286133,-1.428751826286316,-0.0,2.155012845993042,4.4899584490009765,-0.0,0.2902391850948334,-1.354880158101217,-0.0,-0.04087907075881958,-0.2529361883746546,0.0,0.003684439929202199,1.4587314128875732,0.0,0.033184994012117386
172.0,152.0,2.8241,2.4562,8.6847,-0.0376,0.0246,-0.1136,-1.8783332310118617,0.0,3.4992263317108154,-1.4286911487579346,-0.0,2.1436312198638916,4.4899865823933105,-0.0,0.2776365876197815,-1.3549492994891565,-0.0,-0.040566131472587585,-0.2528794447528284,0.0,-0.008635787293314934,1.4587516784667969,0.0,0.03507724776864052
172.0,152.0,2.8241,2.4562,8.6847,-0.0376,0.0246,-0.1136,-1.878425737420553,0.0,3.439764976501465,-1.428722858428955,-0.0,2.1761202812194824,4.4899584490009765,-0.0,0.27722686529159546,-1.35492450395693,-0.0,-0.030683625489473343,-0.2528794447528284,0.0,0.0033893962390720844,1.458775520324707,0.0,0.0018819021061062813
181.0,158.0,2.7488,2.388,8.6596,-0.0452,0.0264,-0.1119,-1.878340860406393,0.0,3.495630979537964,-1.4287109375,-0.0,2.168545722961426,4.489942236537598,-0.0,0.28387293219566345,-1.354952637349264,-0.0,-0.02932673692703247,-0.25282365480531865,0.0,-0.010837920941412449,1.458763599395752,0.0,-0.022430801764130592
181.0,158.0,2.7488,2.388,8.6596,-0.0452,0.0264,-0.1119,-1.8783771000304164,0.0,3.4866881370544434,-1.4287025928497314,-0.0,2.1592705249786377,4.489954157466553,-0.0,0.2782841920852661,-1.3548958937274378,-0.0,-0.027144016698002815,-0.2528794447528284,0.0,0.009589037857949734,1.4587477445602417,0.0,-0.0378887876868248
181.0,158.0,2.7488,2.388,8.6596,-0.0452,0.0264,-0.1119,-1.8783375225462855,0.0,3.4469385147094727,-1.4287151098251343,-0.0,2.181023597717285,4.489922209376953,-0.0,0.2848352789878845,-1.3549450079547327,-0.0,-0.035846441984176636,-0.25288373628725225,0.0,0.002762231742963195,1.4587956666946411,0.0,0.056628718972206116
181.0,158.0,2.7488,2.388,8.6596,-0.0452,0.0264,-0.1119,-1.8783289394774378,0.0,3.435293674468994,-1.428743600845337,-0.0,2.1550774574279785,4.489922209376953,-0.0,0.2830662429332733,-1.3549326101886194,-0.0,-0.016814041882753372,-0.2529199759112757,0.0,0.008140544407069683,1.458775520324707,0.0,-0.0394444465637207
181.0,158.0,2.7488,2.388,8.6596,-0.0452,0.0264,-0.1119,-1.8783894977965296,0.0,3.4938466548919678,-1.4287149906158447,-0.0,2.172039031982422,4.4899627405354,-0.0,0.2938998341560364,-1.3549121061908167,-0.0,-0.04180505871772766,-0.25289994875063115,0.0,0.0008821651572361588,1.4587595462799072,0.0,0.02454567886888981
181.0,158.0,2.7488,2.388,8.6596,-0.0452,0.0264,-0.1119,-1.8783656559386195,0.0,3.442467212677002,-1.4287312030792236,-0.0,2.153367757797241,4.489986105556152,-0.0,0.2936244606971741,-1.3549731413470667,-0.0,-0.03276711329817772,-0.2528756300555628,0.0,-0.00261769350618124,1.458775520324707,0.0,-0.00812145508825779
181.0,158.0,2.7488,2.388,8.6596,-0.0452,0.0264,-0.1119,-1.8783132038512171,0.0,3.4978301525115967,-1.4287270307540894,-0.0,2.1605234146118164,4.489926500911377,-0.0,0.27447009086608887,-1.3549202124225062,-0.0,-0.022370826452970505,-0.25283557573427373,0.0,-0.002020122017711401,1.4587476253509521,0.0,-0.012616503052413464
181.0,158.0,2.7488,2.388,8.6596,-0.0452,0.0264,-0.1119,-1.8783289394774378,0.0,3.5133471488952637,-1.4287394285202026,-0.0,2.2155661582946777,4.489946528072021,-0.0,0.2855972647666931,-1.354952637349264,-0.0,-0.023092683404684067,-0.252904240285055,0.0,-0.011162413284182549,1.458763599395752,0.0,-0.022988056764006615
181.0,158.0,2.7488,2.388,8.6596,-0.0452,0.0264,-0.1119,-1.8783618412413539,0.0,3.529726505279541,-1.4286991357803345,-0.0,2.1407628059387207,4.489966555232666,-0.0,0.2918138802051544,-1.3549450079547327,-0.0,-0.03411908447742462,-0.25289994875063115,0.0,-0.01014908216893673,1.4587395191192627,0.0,0.025670433416962624
181.0,158.0,2.7488,2.388,8.6596,-0.0452,0.0264,-0.1119,-1.8784095249571742,0.0,3.459484338760376,-1.428699016571045,-0.0,2.1338136196136475,4.489982767696045,-0.0,0.282339870929718,-1.3549121061908167,-0.0,-0.04285163804888725,-0.2528117338763636,0.0,-0.0035408814437687397,1.4587957859039307,0.0,0.008566416800022125
181.0,158.0,2.7488,2.388,8.6596,-0.0452,0.0264,-0.1119,-1.8783937893309535,0.0,3.4270944595336914,-1.4286746978759766,-0.0,2.1674323081970215,4.48993889867749,-0.0,0.2806701064109802,-1.3549440542804163,-0.0,-0.011906583793461323,-0.25289994875063115,0.0,-0.00946477334946394,1.458791732788086,0.0,0.016603777185082436
181.0,158.0,2.7488,2.388,8.6596,-0.0452,0.0264,-0.1119,-1.878397604028219,0.0,3.4810829162597656,-1.4286949634552002,-0.0,2.1365973949432373,4.489942236537598,-0.0,0.2785165309906006,-1.3549326101886194,-0.0,-0.03117607906460762,-0.25285178819765264,0.0,-0.008426913060247898,1.4587116241455078,0.0,0.01057976484298706
181.0,158.0,2.7488,2.388,8.6596,-0.0452,0.0264,-0.1119,-1.878373762170309,0.0,3.510700225830078,-1.4286788702011108,-0.0,2.1939847469329834,4.489978476161621,-0.0,0.27601751685142517,-1.3549440542804163,-0.0,-0.02637488581240177,-0.25288373628725225,0.0,-0.004013842903077602,1.458775520324707,0.0,0.018385211005806923
181.0,158.0,2.7488,2.388,8.6596,-0.0452,0.0264,-0.1119,-1.8783894977965296,0.0,3.424400806427002,-1.4287109375,-0.0,2.186041831970215,4.4899303156086425,-0.0,0.2843194901943207,-1.3549483458148401,-0.0,-0.036120813339948654,-0.25283986726869756,0.0,-0.01677285134792328,1.458775520324707,0.0,-0.07457370311021805
181.0,158.0,2.7488,2.388,8.6596,-0.0452,0.0264,-0.1119,-1.8783775768675746,0.0,3.462458610534668,-1.4286789894104004,-0.0,2.173304796218872,4.489950819606445,-0.0,0.2769959568977356,-1.3549326101886194,-0.0,-0.026018153876066208,-0.2528722921954554,0.0,-0.015721619129180908,1.458791732788086,0.0,-0.027767807245254517
181.0,158.0,2.7488,2.388,8.6596,-0.0452,0.0264,-0.1119,-1.878373762170309,0.0,3.4974348545074463,-1.4287190437316895,-0.0,2.158813953399658,4.489946528072021,-0.0,0.2794189453125,-1.3549688498126429,-0.0,-0.03592980280518532,-0.2528036276446741,0.0,0.004304422996938229,1.4587676525115967,0.0,-0.042435355484485626
181.0,158.0,2.7488,2.388,8.6596,-0.0452,0.0264,-0.1119,-1.8783451519408167,0.0,3.4728386402130127,-1.4287554025650024,-0.0,2.156184673309326,4.489894552821777,-0.0,0.2721017599105835,-1.3549483458148401,-0.0,-0.02205188199877739,-0.2529080549823206,0.0,-0.0017236475832760334,1.458775520324707,0.0,0.007637580391019583
181.0,158.0,2.7488,2.388,8.6596,-0.0452,0.0264,-0.1119,-1.8783813915648402,0.0,3.4828734397888184,-1.4286630153656006,-0.0,2.2247471809387207,4.4899865823933105,-0.0,0.282865047454834,-1.3549440542804163,-0.0,-0.02799869328737259,-0.2528880278216761,0.0,-0.005550225730985403,1.4587795734405518,0.0,-0.005373559892177582
181.0,158.0,2.7488,2.388,8.6596,-0.0452,0.0264,-0.1119,-1.8783894977965296,0.0,3.4941399097442627,-1.42867112159729,-0.0,2.127297878265381,4.489942236537598,-0.0,0.27589574456214905,-1.3549564520465296,-0.0,-0.02921309694647789,-0.25285607973207647,0.0,0.0019238924141973257,1.4587595462799072,0.0,-0.005704297684133053
173.0,156.0,2.9079,2.4532,8.5508,-0.0339,0.0235,-0.12,-1.878397604028219,0.0,3.471651792526245,-1.4287067651748657,-0.0,2.1924214363098145,4.48997084676709,-0.0,0.2814249098300934,-1.3549326101886194,-0.0,-0.03283718600869179,-0.2528722921954554,0.0,-0.009828533977270126,1.4587396383285522,0.0,0.0027524090837687254
173.0,156.0,2.9079,2.4532,8.5508,-0.0339,0.0235,-0.12,-1.8783375225462855,0.0,3.4559593200683594,-1.4286830425262451,-0.0,2.207808017730713,4.4899584490009765,-0.0,0.27435028553009033,-1.354880158101217,-0.0,-0.031118540093302727,-0.25283557573427373,0.0,-0.004875668324530125,1.458743691444397,0.0,0.018952064216136932
173.0,156.0,2.9079,2.4532,8.5508,-0.0339,0.0235,-0.12,-1.878385683099264,0.0,3.4797234535217285,-1.4287030696868896,-0.0,2.1896872520446777,4.489934130305908,-0.0,0.26889392733573914,-1.3549607435809534,-0.0,-0.01961700990796089,-0.2528641859637659,0.0,-0.002173611894249916,1.4587634801864624,0.0,0.05506555363535881
173.0,156.0,2.9079,2.4532,8.5508,-0.0339,0.0235,-0.12,-1.8783771000304164,0.0,3.4566590785980225,-1.4287025928497314,-0.0,2.1364808082580566,4.489942236537598,-0.0,0.2727493643760681,-1.35492450395693,-0.0,-0.03601321205496788,-0.25283557573427373,0.0,-0.012290696613490582,1.4587595462799072,0.0,-0.012958668172359467
173.0,156.0,2.9079,2.4532,8.5508,-0.0339,0.0235,-0.12,-1.8783813915648402,0.0,3.4835424423217773,-1.4287109375,-0.0,2.1703591346740723,4.489946528072021,-0.0,0.26956915855407715,-1.3549163977252405,-0.0,-0.026533853262662888,-0.2528036276446741,0.0,-0.01865500770509243,1.4587795734405518,0.0,0.017942996695637703
173.0,156.0,2.9079,2.4532,8.5508,-0.0339,0.0235,-0.12,-1.8784100017943324,0.0,3.4716920852661133,-1.428707242012024,-0.0,2.153114080429077,4.4899627405354,-0.0,0.2811315655708313,-1.3549044767962855,-0.0,-0.017317205667495728,-0.2527998129474085,0.0,-0.007879959419369698,1.458783507347107,0.0,0.04016359895467758
173.0,156.0,2.9079,2.4532,8.5508,-0.0339,0.0235,-0.12,-1.878385683099264,0.0,3.4849328994750977,-1.4286748170852661,-0.0,2.1100640296936035,4.489946528072021,-0.0,0.28070661425590515,-1.35492450395693,-0.0,-0.03941022604703903,-0.25289994875063115,0.0,-0.010559344664216042,1.4587476253509521,0.0,-0.016581952571868896
173.0,156.0,2.9079,2.4532,8.5508,-0.0339,0.0235,-0.12,-1.878397604028219,0.0,3.463949203491211,-1.4286870956420898,-0.0,2.1744377613067627,4.4899627405354,-0.0,0.28074514865875244,-1.3549731413470667,-0.0,-0.02826128713786602,-0.25285607973207647,0.0,0.005467598792165518,1.458783507347107,0.0,0.012625589966773987
173.0,156.0,2.9079,2.4532,8.5508,-0.0339,0.0235,-0.12,-1.8783651791014613,0.0,3.5013976097106934,-1.428654670715332,-0.0,2.140714406967163,4.489905996913574,-0.0,0.2683063745498657,-1.3549202124225062,-0.0,-0.03231697529554367,-0.25283557573427373,0.0,-0.010661506094038486,1.458763599395752,0.0,-0.012543883174657822
173.0,156.0,2.9079,2.4532,8.5508,-0.0339,0.0235,-0.12,-1.8783613644041957,0.0,3.534104824066162,-1.4286789894104004,-0.0,2.138355255126953,4.489994688625,-0.0,0.2739097774028778,-1.354884449635641,-0.0,-0.031200777739286423,-0.2528756300555628,0.0,0.0033622239716351032,1.4587554931640625,0.0,0.018517635762691498
173.0,156.0,2.9079,2.4532,8.5508,-0.0339,0.0235,-0.12,-1.878369470635885,0.0,3.542712688446045,-1.4287067651748657,-0.0,2.199744939804077,4.489966555232666,-0.0,0.2804163694381714,-1.354908291493551,-0.0,-0.014547768048942089,-0.2528794447528284,0.0,-0.013469000346958637,1.458727478981018,0.0,-0.03560718521475792
173.0,156.0,2.9079,2.4532,8.5508,-0.0339,0.0235,-0.12,-1.8783894977965296,0.0,3.4708752632141113,-1.4287270307540894,-0.0,2.163538694381714,4.489946528072021,-0.0,0.2889334261417389,-1.354896370564596,-0.0,-0.036274075508117676,-0.2528794447528284,0.0,-0.005412307567894459,1.4587795734405518,0.0,-0.022026672959327698
173.0,156.0,2.9079,2.4532,8.5508,-0.0339,0.0235,-0.12,-1.878345628777975,0.0,3.44201397895813,-1.4286866188049316,-0.0,2.1722464561462402,4.489902659053467,-0.0,0.28200748562812805,-1.3549931685077112,-0.0,-0.02061980776488781,-0.2528794447528284,0.0,-0.00039909774204716086,1.458775520324707,0.0,-0.016775676980614662
173.0,156.0,2.9079,2.4532,8.5508,-0.0339,0.0235,-0.12,-1.8783818684019984,0.0,3.485678195953369,-1.4287109375,-0.0,2.1468589305877686,4.489942236537598,-0.0,0.2822476923465729,-1.3549163977252405,-0.0,-0.021753229200839996,-0.2529242674456995,0.0,-0.008873607032001019,1.458775520324707,0.0,0.053218044340610504
173.0,156.0,2.9079,2.4532,8.5508,-0.0339,0.0235,-0.12,-1.8783413372435511,0.0,3.47714900970459,-1.4287676811218262,-0.0,2.1073825359344482,4.48997084676709,-0.0,0.28541019558906555,-1.35492450395693,-0.0,-0.026982828974723816,-0.25283557573427373,0.0,-0.00792674906551838,1.4587795734405518,0.0,0.0015200856141746044
173.0,156.0,2.9079,2.4532,8.5508,-0.0339,0.0235,-0.12,-1.8783732853331507,0.0,3.4745993614196777,-1.4287067651748657,-0.0,2.19925856590271,4.489922209376953,-0.0,0.2952878475189209,-1.3549044767962855,-0.0,-0.03319035470485687,-0.25287181535829717,0.0,-0.0012296265922486782,1.4587633609771729,0.0,-0.02497720904648304
173.0,156.0,2.9079,2.4532,8.5508,-0.0339,0.0235,-0.12,-1.8783618412413539,0.0,3.4073615074157715,-1.428755760192871,-0.0,2.091395854949951,4.4899627405354,-0.0,0.28277355432510376,-1.354964558278219,-0.0,-0.023963946849107742,-0.25286800066103154,0.0,-0.008029749616980553,1.4588276147842407,0.0,0.020341670140624046
173.0,156.0,2.9079,2.4532,8.5508,-0.0339,0.0235,-0.12,-1.8783651791014613,0.0,3.544044256210327,-1.4286870956420898,-0.0,2.1609363555908203,4.489942713374756,-0.0,0.2806096374988556,-1.3549287954913538,-0.0,-0.028514210134744644,-0.25286752382387334,0.0,-0.017479991540312767,1.4588077068328857,0.0,0.017873462289571762
180.0,159.0,2.7583,2.3952,8.7236,-0.0299,0.0221,-0.1155,-1.8783651791014613,0.0,3.473212957382202,-1.428707242012024,-0.0,2.1739704608917236,4.489946528072021,-0.0,0.27705812454223633,-1.3549607435809534,-0.0,-0.02869304269552231,-0.25287181535829717,0.0,-0.0037616617046296597,1.4587676525115967,0.0,-0.011949833482503891
180.0,159.0,2.7583,2.3952,8.7236,-0.0299,0.0221,-0.1155,-1.8783775768675746,0.0,3.4970130920410156,-1.4287067651748657,-0.0,2.1749424934387207,4.489966555232666,-0.0,0.2832898497581482,-1.3549163977252405,-0.0,-0.03161957487463951,-0.2528436819659632,0.0,-0.0009988604579120874,1.4587595462799072,0.0,-0.005397426895797253
180.0,159.0,2.7583,2.3952,8.7236,-0.0299,0.0221,-0.1155,-1.8783251247801722,0.0,3.4535279273986816,-1.4287149906158447,-0.0,2.2127442359924316,4.4899303156086425,-0.0,0.2671412229537964,-1.35492450395693,-0.0,-0.034491851925849915,-0.25289613405336553,0.0,0.008721363730728626,1.4588077068328857,0.0,-0.026593726128339767
180.0,159.0,2.7583,2.3952,8.7236,-0.0299,0.0221,-0.1155,-1.8784014187254847,0.0,3.4630351066589355,-1.4287190437316895,-0.0,2.161414623260498,4.4899627405354,-0.0,0.28286850452423096,-1.3549001852618616,-0.0,-0.042773135006427765,-0.2528160254107874,0.0,0.0032117320224642754,1.4587795734405518,0.0,-0.058349862694740295
180.0,159.0,2.7583,2.3952,8.7236,-0.0299,0.0221,-0.1155,-1.8783618412413539,0.0,3.4983596801757812,-1.4286830425262451,-0.0,2.224356174468994,4.489982767696045,-0.0,0.2814178466796875,-1.3549202124225062,-0.0,-0.035556524991989136,-0.25285607973207647,0.0,0.002314978512004018,1.4587355852127075,0.0,0.019763968884944916
180.0,159.0,2.7583,2.3952,8.7236,-0.0299,0.0221,-0.1155,-1.8783813915648402,0.0,3.444582223892212,-1.4287149906158447,-0.0,2.1593129634857178,4.489970369929932,-0.0,0.2840782403945923,-1.354908291493551,-0.0,-0.028346683830022812,-0.2528641859637659,0.0,0.0032147483434528112,1.4587633609771729,0.0,0.02737756446003914
180.0,159.0,2.7583,2.3952,8.7236,-0.0299,0.0221,-0.1155,-1.8783933124937953,0.0,3.4991068840026855,-1.4286949634552002,-0.0,2.1228437423706055,4.489966078395508,-0.0,0.2892785966396332,-1.35492450395693,-0.0,-0.025919761508703232,-0.25288373628725225,0.0,-0.006077244412153959,1.4587676525115967,0.0,-0.0027207210659980774
180.0,159.0,2.7583,2.3952,8.7236,-0.0299,0.0221,-0.1155,-1.87835754970693,0.0,3.500493049621582,-1.4287476539611816,-0.0,2.1044721603393555,4.489970369929932,-0.0,0.2809350788593292,-1.3549369017230433,-0.0,-0.029298104345798492,-0.25286800066103154,0.0,-0.0032031135633587837,1.4587717056274414,0.0,-0.005101294256746769
180.0,159.0,2.7583,2.3952,8.7236,-0.0299,0.0221,-0.1155,-1.878369470635885,0.0,3.5046238899230957,-1.4286308288574219,-0.0,2.1534152030944824,4.489902659053467,-0.0,0.29395321011543274,-1.3549163977252405,-0.0,-0.03698018193244934,-0.2527998129474085,0.0,-0.002398291602730751,1.458783507347107,0.0,0.016228502616286278
180.0,159.0,2.7583,2.3952,8.7236,-0.0299,0.0221,-0.1155,-1.8783771000304164,0.0,3.4656386375427246,-1.4287476539611816,-0.0,2.173153877258301,4.4899627405354,-0.0,0.28674793243408203,-1.3549731413470667,-0.0,-0.030070476233959198,-0.2528756300555628,0.0,-0.004450772888958454,1.4587795734405518,0.0,0.04767899215221405
180.0,159.0,2.7583,2.3952,8.7236,-0.0299,0.0221,-0.1155,-1.878369470635885,0.0,3.5113251209259033,-1.4287067651748657,-0.0,2.155673027038574,4.489938421840332,-0.0,0.2725946307182312,-1.3549688498126429,-0.0,-0.03834500163793564,-0.2528117338763636,0.0,-0.003990627359598875,1.458775520324707,0.0,0.013379490002989769
180.0,159.0,2.7583,2.3952,8.7236,-0.0299,0.0221,-0.1155,-1.8783937893309535,0.0,3.4939920902252197,-1.4287186861038208,-0.0,2.196047067642212,4.489926500911377,-0.0,0.2860482633113861,-1.354941193257467,-0.0,-0.03713885694742203,-0.2528317610370081,0.0,-0.007872880436480045,1.4587153196334839,0.0,-0.009065046906471252
180.0,159.0,2.7583,2.3952,8.7236,-0.0299,0.0221,-0.1155,-1.878369470635885,0.0,3.47976016998291,-1.4287190437316895,-0.0,2.1589343547821045,4.489946528072021,-0.0,0.2767854928970337,-1.3549564520465296,-0.0,-0.033704519271850586,-0.25286752382387334,0.0,-0.010595928877592087,1.458763599395752,0.0,0.019338926300406456
180.0,159.0,2.7583,2.3952,8.7236,-0.0299,0.0221,-0.1155,-1.8783532581725062,0.0,3.4826974868774414,-1.4286748170852661,-0.0,2.135641098022461,4.489954157466553,-0.0,0.27805525064468384,-1.3549330870257776,-0.0,-0.04053095728158951,-0.2528880278216761,0.0,0.0013865577057003975,1.4587596654891968,0.0,-0.011145202443003654
180.0,159.0,2.7583,2.3952,8.7236,-0.0299,0.0221,-0.1155,-1.8783332310118617,0.0,3.4478635787963867,-1.4287149906158447,-0.0,2.1664278507232666,4.489982767696045,-0.0,0.2824329733848572,-1.3549202124225062,-0.0,-0.04380376264452934,-0.25283557573427373,0.0,-0.002229722449555993,1.4587876796722412,0.0,0.009848104789853096
180.0,159.0,2.7583,2.3952,8.7236,-0.0299,0.0221,-0.1155,-1.87835754970693,0.0,3.4501423835754395,-1.4287476539611816,-0.0,2.1798977851867676,4.489950342769287,-0.0,0.28631356358528137,-1.3549044767962855,-0.0,-0.034450504928827286,-0.2528803984271448,0.0,-0.0021522450260818005,1.4588236808776855,0.0,0.038344379514455795
180.0,159.0,2.7583,2.3952,8.7236,-0.0299,0.0221,-0.1155,-1.8783494434752406,0.0,3.4705991744995117,-1.4286788702011108,-0.0,2.1689865589141846,4.489926500911377,-0.0,0.28611767292022705,-1.3549121061908167,-0.0,-0.04018097743391991,-0.2528317610370081,0.0,-0.013316446915268898,1.4587795734405518,0.0,-0.0005650883540511131
180.0,159.0,2.7583,2.3952,8.7236,-0.0299,0.0221,-0.1155,-1.878369470635885,0.0,3.457822799682617,-1.4287190437316895,-0.0,2.123229503631592,4.489938421840332,-0.0,0.27017900347709656,-1.3549492994891565,-0.0,-0.043385669589042664,-0.25285178819765264,0.0,-0.004689300432801247,1.458783507347107,0.0,0.0293384101241827
177.0,158.0,2.7529,2.415,8.6345,-0.0283,0.0241,-0.1168,-1.878397604028219,0.0,3.452638626098633,-1.428722858428955,-0.0,2.161025047302246,4.489954634303711,-0.0,0.280930757522583,-1.3549202124225062,-0.0,-0.023703478276729584,-0.2528603712665003,0.0,-0.00971018336713314,1.4587795734405518,0.0,0.037244901061058044
177.0,158.0,2.7529,2.415,8.6345,-0.0283,0.0241,-0.1168,-1.8783289394774378,0.0,3.4401752948760986,-1.4287595748901367,-0.0,2.1801488399505615,4.4899627405354,-0.0,0.28367045521736145,-1.3549483458148401,-0.0,-0.029784634709358215,-0.2528641859637659,0.0,0.008533943444490433,1.458783507347107,0.0,0.013457098044455051
177.0,158.0,2.7529,2.415,8.6345,-0.0283,0.0241,-0.1168,-1.878397604028219,0.0,3.4815776348114014,-1.42867112159729,-0.0,2.1496095657348633,4.489873571986816,-0.0,0.2825559377670288,-1.3549893538104456,-0.0,-0.031174320727586746,-0.25288373628725225,0.0,-0.004911702126264572,1.4587514400482178,0.0,0.022929657250642776
177.0,158.0,2.7529,2.415,8.6345,-0.0283,0.0241,-0.1168,-1.8783613644041957,0.0,3.459111213684082,-1.4287149906158447,-0.0,2.2078192234039307,4.48990981161084,-0.0,0.2723609507083893,-1.3549044767962855,-0.0,-0.034997131675481796,-0.2529080549823206,0.0,-0.009878220967948437,1.4587476253509521,0.0,0.00792923104017973
177.0,158.0,2.7529,2.415,8.6345,-0.0283,0.0241,-0.1168,-1.8784014187254847,0.0,3.4540371894836426,-1.428743600845337,-0.0,2.175689697265625,4.489922209376953,-0.0,0.2776305377483368,-1.3549369017230433,-0.0,-0.01582537777721882,-0.25285607973207647,0.0,6.632297299802303e-06,1.458775520324707,0.0,-0.003970754332840443
177.0,158.0,2.7529,2.415,8.6345,-0.0283,0.0241,-0.1168,-1.878369470635885,0.0,3.519570827484131,-1.42867112159729,-0.0,2.1713461875915527,4.490002794856689,-0.0,0.2827416956424713,-1.354908291493551,-0.0,-0.03628425672650337,-0.25286800066103154,0.0,-0.017287107184529305,1.458783507347107,0.0,-0.004258390050381422
177.0,158.0,2.7529,2.415,8.6345,-0.0283,0.0241,-0.1168,-1.8783613644041957,0.0,3.4860451221466064,-1.4286824464797974,-0.0,2.1613433361053467,4.4898902612873535,-0.0,0.2899020314216614,-1.35492450395693,-0.0,-0.03502868860960007,-0.2528722921954554,0.0,0.00042755668982863426,1.4587032794952393,0.0,-0.03469386696815491
177.0,158.0,2.7529,2.415,8.6345,-0.0283,0.0241,-0.1168,-1.8783651791014613,0.0,3.452540159225464,-1.428719162940979,-0.0,2.1404314041137695,4.48990981161084,-0.0,0.2783188819885254,-1.3549369017230433,-0.0,-0.024692682549357414,-0.252847973500387,0.0,-0.008903642185032368,1.4587595462799072,0.0,0.006974571384489536
177.0,158.0,2.7529,2.415,8.6345,-0.0283,0.0241,-0.1168,-1.8783494434752406,0.0,3.4629387855529785,-1.4286830425262451,-0.0,2.2077536582946777,4.48990981161084,-0.0,0.287405401468277,-1.3549769560443323,-0.0,-0.042322032153606415,-0.2528918425189417,0.0,-0.004615647718310356,1.458743691444397,0.0,0.01627672277390957
177.0,158.0,2.7529,2.415,8.6345,-0.0283,0.0241,-0.1168,-1.8783618412413539,0.0,3.4726996421813965,-1.4286866188049316,-0.0,2.156003475189209,4.489994688625,-0.0,0.27348434925079346,-1.3549483458148401,-0.0,-0.02854411117732525,-0.2528317610370081,0.0,-0.01258679199963808,1.4587273597717285,0.0,0.0075492532923817635
177.0,158.0,2.7529,2.415,8.6345,-0.0283,0.0241,-0.1168,-1.878369470635885,0.0,3.461787700653076,-1.4287270307540894,-0.0,2.1887142658233643,4.489942236537598,-0.0,0.29386359453201294,-1.3549483458148401,-0.0,-0.03317554295063019,-0.2528756300555628,0.0,-0.0017672597896307707,1.4587714672088623,0.0,-0.00500849261879921
177.0,158.0,2.7529,2.415,8.6345,-0.0283,0.0241,-0.1168,-1.8783613644041957,0.0,3.441364288330078,-1.428690791130066,-0.0,2.2093112468719482,4.4899627405354,-0.0,0.2729637324810028,-1.3549326101886194,-0.0,-0.02374328300356865,-0.2528436819659632,0.0,0.004772396758198738,1.458775520324707,0.0,-0.007367944344878197
177.0,158.0,2.7529,2.415,8.6345,-0.0283,0.0241,-0.1168,-1.878397604028219,0.0,3.4860968589782715,-1.4286588430404663,-0.0,2.180525064468384,4.489978476161621,-0.0,0.2909969687461853,-1.3549326101886194,-0.0,-0.026752132922410965,-0.25286800066103154,0.0,3.7468038499355316e-05,1.4587714672088623,0.0,0.006360020954161882
177.0,158.0,2.7529,2.415,8.6345,-0.0283,0.0241,-0.1168,-1.8783413372435511,0.0,3.4699273109436035,-1.4286949634552002,-0.0,2.2071290016174316,4.489998503322266,-0.0,0.2967589795589447,-1.3549206892596644,-0.0,-0.02275305986404419,-0.2528317610370081,0.0,0.0034483494237065315,1.4587997198104858,0.0,0.011870699934661388
177.0,158.0,2.7529,2.415,8.6345,-0.0283,0.0241,-0.1168,-1.8784057102599085,0.0,3.5200202465057373,-1.4287071228027344,-0.0,2.154463052749634,4.489974661464355,-0.0,0.28098374605178833,-1.3549688498126429,-0.0,-0.033906180411577225,-0.25289994875063115,0.0,-0.008138955570757389,1.458763599395752,0.0,0.026371270418167114
177.0,158.0,2.7529,2.415,8.6345,-0.0283,0.0241,-0.1168,-1.8783532581725062,0.0,3.476330280303955,-1.4286588430404663,-0.0,2.173705816268921,4.489946528072021,-0.0,0.28385233879089355,-1.3549440542804163,-0.0,-0.02720126137137413,-0.25289994875063115,0.0,-0.0022538146004080772,1.4587435722351074,0.0,-0.07542037963867188
177.0,158.0,2.7529,2.415,8.6345,-0.0283,0.0241,-0.1168,-1.8784057102599085,0.0,3.4950342178344727,-1.4287109375,-0.0,2.1398391723632812,4.489934607143066,-0.0,0.28944045305252075,-1.3549888769732874,-0.0,-0.0308137908577919,-0.25289613405336553,0.0,-0.003134664613753557,1.4587757587432861,0.0,0.015402940101921558
177.0,158.0,2.7529,2.415,8.6345,-0.0283,0.0241,-0.1168,-1.878345628777975,0.0,3.463503837585449,-1.4286706447601318,-0.0,2.1498990058898926,4.489922209376953,-0.0,0.274786114692688,-1.3549326101886194,-0.0,-0.029632046818733215,-0.25285178819765264,0.0,3.7639576476067305e-05,1.4587557315826416,0.0,0.0020357873290777206
177.0,153.0,2.747,2.4108,8.8122,-0.0367,0.0231,-0.1199,-1.8783332310118617,0.0,3.4933815002441406,-1.4286664724349976,-0.0,2.1977782249450684,4.489954157466553,-0.0,0.28165537118911743,-1.3549202124225062,-0.0,-0.03158106654882431,-0.2528279463397425,0.0,0.003234641160815954,1.4587194919586182,0.0,0.02266274392604828
177.0,153.0,2.747,2.4108,8.8122,-0.0367,0.0231,-0.1199,-1.8783451519408167,0.0,3.448270559310913,-1.4286870956420898,-0.0,2.1169328689575195,4.489946528072021,-0.0,0.2779470682144165,-1.3549163977252405,-0.0,-0.031177807599306107,-0.25292808214296514,0.0,-1.4596269465982914e-05,1.4587795734405518,0.0,-0.022054040804505348
177.0,153.0,2.747,2.4108,8.8122,-0.0367,0.0231,-0.1199,-1.8784100017943324,0.0,3.524820327758789,-1.4286985397338867,-0.0,2.2030913829803467,4.489978476161621,-0.0,0.2842780649662018,-1.3549688498126429,-0.0,-0.022627834230661392,-0.2528756300555628,0.0,-0.004465173464268446,1.4587396383285522,0.0,-0.024237412959337234
177.0,153.0,2.747,2.4108,8.8122,-0.0367,0.0231,-0.1199,-1.8783894977965296,0.0,3.4774279594421387,-1.4286706447601318,-0.0,2.1696794033050537,4.489926500911377,-0.0,0.27739694714546204,-1.3549650351153772,-0.0,-0.02317531779408455,-0.2528041044818323,0.0,-0.00815252773463726,1.4587676525115967,0.0,0.028395533561706543
177.0,153.0,2.747,2.4108,8.8122,-0.0367,0.0231,-0.1199,-1.878369470635885,0.0,3.483891010284424,-1.428743600845337,-0.0,2.1414997577667236,4.489917917842529,-0.0,0.2860844135284424,-1.3549564520465296,-0.0,-0.022735686972737312,-0.25291616121401006,0.0,-0.001063634641468525,1.4587595462799072,0.0,-0.005261399783194065
177.0,153.0,2.747,2.4108,8.8122,-0.0367,0.0231,-0.1199,-1.8783413372435511,0.0,3.461524486541748,-1.4286706447601318,-0.0,2.1928346157073975,4.489950819606445,-0.0,0.2940409481525421,-1.3549564520465296,-0.0,-0.045662179589271545,-0.2529080549823206,0.0,-0.005006121937185526,1.458727478981018,0.0,0.01952359825372696
177.0,153.0,2.747,2.4108,8.8122,-0.0367,0.0231,-0.1199,-1.8784057102599085,0.0,3.4357776641845703,-1.4287394285202026,-0.0,2.160907745361328,4.489934130305908,-0.0,0.2830190360546112,-1.3549769560443323,-0.0,-0.03296249359846115,-0.25285226503481084,0.0,-0.006682095117866993,1.458707332611084,0.0,-0.017090702429413795
177.0,153.0,2.747,2.4108,8.8122,-0.0367,0.0231,-0.1199,-1.8783375225462855,0.0,3.4406702518463135,-1.4287025928497314,-0.0,2.2018604278564453,4.489954634303711,-0.0,0.28548464179039,-1.3549202124225062,-0.0,-0.031828030943870544,-0.2528436819659632,0.0,-0.015444692224264145,1.458791732788086,0.0,-0.002832974772900343
177.0,153.0,2.747,2.4108,8.8122,-0.0367,0.0231,-0.1199,-1.878369470635885,0.0,3.473756790161133,-1.4287517070770264,-0.0,2.1495819091796875,4.48990170537915,-0.0,0.2707812786102295,-1.3549450079547327,-0.0,-0.031233351677656174,-0.2529080549823206,0.0,-0.007098440546542406,1.4587476253509521,0.0,0.012317966669797897
177.0,153.0,2.747,2.4108,8.8122,-0.0367,0.0231,-0.1199,-1.8783771000304164,0.0,3.480977773666382,-1.428690791130066,-0.0,2.2092037200927734,4.489938421840332,-0.0,0.28403860330581665,-1.354952637349264,-0.0,-0.03180260583758354,-0.2528756300555628,0.0,0.0038108236622065306,1.458707332611084,0.0,0.012190175242722034
177.0,153.0,2.747,2.4108,8.8122,-0.0367,0.0231,-0.1199,-1.8784100017943324,0.0,3.4997191429138184,-1.4287270307540894,-0.0,2.1811957359313965,4.489954157466553,-0.0,0.27665895223617554,-1.3549564520465296,-0.0,-0.028561146929860115,-0.25288373628725225,0.0,-0.013949073851108551,1.4587115049362183,0.0,-0.02046411857008934
177.0,153.0,2.747,2.4108,8.8122,-0.0367,0.0231,-0.1199,-1.8784133396544398,0.0,3.5021283626556396,-1.4287270307540894,-0.0,2.1653013229370117,4.489922209376953,-0.0,0.295534610748291,-1.3549440542804163,-0.0,-0.02749376930296421,-0.2528918425189417,0.0,-0.00410478888079524,1.4587875604629517,0.0,-0.00706741027534008
177.0,153.0,2.747,2.4108,8.8122,-0.0367,0.0231,-0.1199,-1.878385683099264,0.0,3.47257661819458,-1.428699016571045,-0.0,2.182563304901123,4.489954157466553,-0.0,0.2901732623577118,-1.35492450395693,-0.0,-0.02316511981189251,-0.25288373628725225,0.0,0.006197134032845497,1.4588117599487305,0.0,-0.021180178970098495
177.0,153.0,2.747,2.4108,8.8122,-0.0367,0.0231,-0.1199,-1.8783894977965296,0.0,3.4455747604370117,-1.4286949634552002,-0.0,2.163456439971924,4.489873571986816,-0.0,0.28733140230178833,-1.3549483458148401,-0.0,-0.02813497558236122,-0.2528603712665003,0.0,-0.001781522762030363,1.4587554931640625,0.0,-0.0348006896674633
177.0,153.0,2.747,2.4108,8.8122,-0.0367,0.0231,-0.1199,-1.878369470635885,0.0,3.499014377593994,-1.428690791130066,-0.0,2.216830253601074,4.489946528072021,-0.0,0.27056649327278137,-1.354980770741598,-0.0,-0.03760570287704468,-0.25289994875063115,0.0,-0.009947127662599087,1.4587476253509521,0.0,-0.0021071936935186386
177.0,153.0,2.747,2.4108,8.8122,-0.0367,0.0231,-0.1199,-1.8784100017943324,0.0,3.466008186340332,-1.428719162940979,-0.0,2.1624109745025635,4.48993889867749,-0.0,0.2831113338470459,-1.3549564520465296,-0.0,-0.03654656931757927,-0.2528641859637659,0.0,-9.620969649404287e-05,1.4588077068328857,0.0,-0.046520791947841644
177.0,153.0,2.747,2.4108,8.8122,-0.0367,0.0231,-0.1199,-1.8783613644041957,0.0,3.4115254878997803,-1.4287030696868896,-0.0,2.162224054336548,4.4899584490009765,-0.0,0.298671156167984,-1.3549483458148401,-0.0,-0.034451812505722046,-0.25286752382387334,0.0,-0.0038093412294983864,1.4587916135787964,0.0,-0.023972492665052414
177.0,153.0,2.747,2.4108,8.8122,-0.0367,0.0231,-0.1199,-1.8783775768675746,0.0,3.4253311157226562,-1.428755760192871,-0.0,2.160417318344116,4.4899303156086425,-0.0,0.28452879190444946,-1.3549650351153772,-0.0,-0.02843887358903885,-0.25287181535829717,0.0,-0.018486419692635536,1.458763599395752,0.0,0.021652821451425552
175.0,155.0,2.8181,2.4425,8.7015,-0.0341,0.0241,-0.1196,-1.878345628777975,0.0,3.504088878631592,-1.4287190437316895,-0.0,2.142279624938965,4.48990981161084,-0.0,0.26520413160324097,-1.3549369017230433,-0.0,-0.03492666780948639,-0.25286800066103154,0.0,0.0022776112891733646,1.4587076902389526,0.0,-0.009612171910703182
175.0,155.0,2.8181,2.4425,8.7015,-0.0341,0.0241,-0.1196,-1.87835754970693,0.0,3.503572940826416,-1.4287109375,-0.0,2.2085375785827637,4.489966555232666,-0.0,0.27977102994918823,-1.3549326101886194,-0.0,-0.03077131323516369,-0.2528598944293421,0.0,-0.01438997033983469,1.458783507347107,0.0,0.013693231157958508
175.0,155.0,2.8181,2.4425,8.7015,-0.0341,0.0241,-0.1196,-1.8783771000304164,0.0,3.466381072998047,-1.4286830425262451,-0.0,2.176164388656616,4.489978476161621,-0.0,0.2880295515060425,-1.3549483458148401,-0.0,-0.03426757827401161,-0.25281984010805303,0.0,-0.0008119111880660057,1.45881986618042,0.0,-0.013635117560625076
175.0,155.0,2.8181,2.4425,8.7015,-0.0341,0.0241,-0.1196,-1.8783775768675746,0.0,3.4653873443603516,-1.4286706447601318,-0.0,2.2137303352355957,4.489942236537598,-0.0,0.2743331789970398,-1.3549283186541956,-0.0,-0.03257425129413605,-0.25283605257143194,0.0,0.0007092982996255159,1.4587795734405518,0.0,-0.06737816333770752
175.0,155.0,2.8181,2.4425,8.7015,-0.0341,0.0241,-0.1196,-1.878397604028219,0.0,3.491222858428955,-1.4286870956420898,-0.0,2.168016195297241,4.489974661464355,-0.0,0.2690660357475281,-1.3549121061908167,-0.0,-0.034329622983932495,-0.25288373628725225,0.0,-0.011972516775131226,1.4587554931640625,0.0,0.006030223332345486
175.0,155.0,2.8181,2.4425,8.7015,-0.0341,0.0241,-0.1196,-1.8783651791014613,0.0,3.4865036010742188,-1.4286706447601318,-0.0,2.1123931407928467,4.4899303156086425,-0.0,0.2821178734302521,-1.354908291493551,-0.0,-0.03665107488632202,-0.2528918425189417,0.0,0.00100302929058671,1.4587674140930176,0.0,-0.0014783170772716403
175.0,155.0,2.8181,2.4425,8.7015,-0.0341,0.0241,-0.1196,-1.878340860406393,0.0,3.4904112815856934,-1.428743600845337,-0.0,2.171387195587158,4.4899865823933105,-0.0,0.2739565670490265,-1.3549650351153772,-0.0,-0.03653348237276077,-0.2528122107135218,0.0,-0.0031404283363372087,1.458775520324707,0.0,-0.023912571370601654
175.0,155.0,2.8181,2.4425,8.7015,-0.0341,0.0241,-0.1196,-1.8783375225462855,0.0,3.508634090423584,-1.4287067651748657,-0.0,2.1182403564453125,4.489942236537598,-0.0,0.26487094163894653,-1.3549326101886194,-0.0,-0.03645646944642067,-0.25289994875063115,0.0,-0.002329353243112564,1.458811640739441,0.0,0.03536970913410187
175.0,155.0,2.8181,2.4425,8.7015,-0.0341,0.0241,-0.1196,-1.878385683099264,0.0,3.488412380218506,-1.4287149906158447,-0.0,2.202883720397949,4.48997084676709,-0.0,0.2801080644130707,-1.35492450395693,-0.0,-0.029270965605974197,-0.2528880278216761,0.0,0.0001405832590535283,1.458743691444397,0.0,0.009760718792676926
175.0,155.0,2.8181,2.4425,8.7015,-0.0341,0.0241,-0.1196,-1.8783332310118617,0.0,3.470808506011963,-1.4286949634552002,-0.0,2.199411392211914,4.4899865823933105,-0.0,0.2890497148036957,-1.3549369017230433,-0.0,-0.025819703936576843,-0.2528756300555628,0.0,0.002039289101958275,1.4587355852127075,0.0,0.022313788533210754
175.0,155.0,2.8181,2.4425,8.7015,-0.0341,0.0241,-0.1196,-1.878369470635885,0.0,3.4805407524108887,-1.4287476539611816,-0.0,2.179964303970337,4.489962263698242,-0.0,0.29054489731788635,-1.3549564520465296,-0.0,-0.03739791363477707,-0.252939526234762,0.0,0.00486037228256464,1.4587676525115967,0.0,0.029141929000616074
175.0,155.0,2.8181,2.4425,8.7015,-0.0341,0.0241,-0.1196,-1.8783494434752406,0.0,3.5280532836914062,-1.4286830425262451,-0.0,2.1765499114990234,4.489938421840332,-0.0,0.29081863164901733,-1.3549607435809534,-0.0,-0.02762850746512413,-0.25292760530580694,0.0,-0.006667377892881632,1.4587516784667969,0.0,0.026120390743017197
175.0,155.0,2.8181,2.4425,8.7015,-0.0341,0.0241,-0.1196,-1.878385683099264,0.0,3.479534149169922,-1.428690791130066,-0.0,2.102356195449829,4.489954157466553,-0.0,0.2743264138698578,-1.3548925558673304,-0.0,-0.04048768803477287,-0.2528880278216761,0.0,-0.00010966602712869644,1.4587597846984863,0.0,0.03064548410475254
175.0,155.0,2.8181,2.4425,8.7015,-0.0341,0.0241,-0.1196,-1.8783771000304164,0.0,3.5067150592803955,-1.4286911487579346,-0.0,2.1525182723999023,4.489966555232666,-0.0,0.28258800506591797,-1.3549369017230433,-0.0,-0.025324026122689247,-0.2528160254107874,0.0,-0.01030651107430458,1.4587713479995728,0.0,0.024204306304454803
175.0,155.0,2.8181,2.4425,8.7015,-0.0341,0.0241,-0.1196,-1.878385683099264,0.0,3.4911131858825684,-1.4286422729492188,-0.0,2.1700236797332764,4.4899584490009765,-0.0,0.2908671498298645,-1.354952637349264,-0.0,-0.03234945237636566,-0.25285178819765264,0.0,0.009821323677897453,1.4587676525115967,0.0,0.0028728542383760214
175.0,155.0,2.8181,2.4425,8.7015,-0.0341,0.0241,-0.1196,-1.8783732853331507,0.0,3.4637746810913086,-1.4287109375,-0.0,2.162576675415039,4.490006609553955,-0.0,0.28961241245269775,-1.3549888769732874,-0.0,-0.027966897934675217,-0.252904240285055,0.0,0.002211296930909157,1.458743691444397,0.0,-0.037217918783426285
175.0,155.0,2.8181,2.4425,8.7015,-0.0341,0.0241,-0.1196,-1.8783494434752406,0.0,3.447760581970215,-1.4286870956420898,-0.0,2.1578445434570312,4.489978476161621,-0.0,0.28351259231567383,-1.3549121061908167,-0.0,-0.03460592404007912,-0.25285607973207647,0.0,-0.005699674598872662,1.4587795734405518,0.0,-0.04251547157764435
175.0,155.0,2.8181,2.4425,8.7015,-0.0341,0.0241,-0.1196,-1.8784014187254847,0.0,3.4752440452575684,-1.4286746978759766,-0.0,2.138361930847168,4.489942236537598,-0.0,0.2803909480571747,-1.3549731413470667,-0.0,-0.02055422030389309,-0.25287181535829717,0.0,-0.011777765117585659,1.4588077068328857,0.0,-0.017997663468122482
172.0,160.0,2.7811,2.4138,8.7685,-0.0339,0.0241,-0.1148,-1.8783494434752406,0.0,3.482243537902832,-1.4287067651748657,-0.0,2.2099688053131104,4.489954634303711,-0.0,0.2843393087387085,-1.354952637349264,-0.0,-0.03901846334338188,-0.25285178819765264,0.0,-0.010374082252383232,1.4587035179138184,0.0,-0.05073998123407364
172.0,160.0,2.7811,2.4138,8.7685,-0.0339,0.0241,-0.1148,-1.878369470635885,0.0,3.4660322666168213,-1.4287109375,-0.0,2.136798858642578,4.489950819606445,-0.0,0.28014737367630005,-1.354952637349264,-0.0,-0.028533976525068283,-0.25283557573427373,0.0,-0.01018024142831564,1.458723545074463,0.0,0.011066230945289135
172.0,160.0,2.7811,2.4138,8.7685,-0.0339,0.0241,-0.1148,-1.8783775768675746,0.0,3.477890968322754,-1.4286706447601318,-0.0,2.166215419769287,4.4899584490009765,-0.0,0.28385090827941895,-1.3549202124225062,-0.0,-0.04110746085643768,-0.2529037634478968,0.0,-0.009163899347186089,1.4587273597717285,0.0,0.011812778189778328
172.0,160.0,2.7811,2.4138,8.7685,-0.0339,0.0241,-0.1148,-1.8783494434752406,0.0,3.488696336746216,-1.4287394285202026,-0.0,2.173210382461548,4.489978476161621,-0.0,0.2789955735206604,-1.3549688498126429,-0.0,-0.03360971435904503,-0.25285607973207647,0.0,0.0001631719060242176,1.4587676525115967,0.0,-0.0050978269428014755
172.0,160.0,2.7811,2.4138,8.7685,-0.0339,0.0241,-0.1148,-1.8783651791014613,0.0,3.4677696228027344,-1.428690791130066,-0.0,2.1707804203033447,4.489942236537598,-0.0,0.2785012125968933,-1.3549564520465296,-0.0,-0.033592160791158676,-0.25291186967958623,0.0,-0.02111171744763851,1.4587194919586182,0.0,-0.007222970947623253
172.0,160.0,2.7811,2.4138,8.7685,-0.0339,0.0241,-0.1148,-1.8783332310118617,0.0,3.432098388671875,-1.4287104606628418,-0.0,2.1270453929901123,4.4899627405354,-0.0,0.2732959985733032,-1.3549650351153772,-0.0,-0.01563146896660328,-0.25285560289491826,0.0,-0.012773679569363594,1.458775520324707,0.0,-0.01171500887721777
172.0,160.0,2.7811,2.4138,8.7685,-0.0339,0.0241,-0.1148,-1.878345628777975,0.0,3.458193302154541,-1.4287755489349365,-0.0,2.1427602767944336,4.489954157466553,-0.0,0.2832636535167694,-1.354941193257467,-0.0,-0.035519182682037354,-0.25288373628725225,0.0,0.01012969110161066,1.4587595462799072,0.0,-0.003521793056279421
172.0,160.0,2.7811,2.4138,8.7685,-0.0339,0.0241,-0.1148,-1.8783413372435511,0.0,3.498840808868408,-1.428666591644287,-0.0,2.166950225830078,4.489946528072021,-0.0,0.28375303745269775,-1.3549564520465296,-0.0,-0.02395159751176834,-0.2528279463397425,0.0,-0.005708001554012299,1.4587876796722412,0.0,-0.0177571140229702
172.0,160.0,2.7811,2.4138,8.7685,-0.0339,0.0241,-0.1148,-1.878397604028219,0.0,3.4390909671783447,-1.428727149963379,-0.0,2.1989493370056152,4.489926500911377,-0.0,0.2745862305164337,-1.3549121061908167,-0.0,-0.028911665081977844,-0.25283986726869756,0.0,-0.008130653761327267,1.458763599395752,0.0,0.01827569305896759
172.0,160.0,2.7811,2.4138,8.7685,-0.0339,0.0241,-0.1148,-1.878369470635885,0.0,3.4338583946228027,-1.4287636280059814,-0.0,2.239429235458374,4.489934607143066,-0.0,0.28069233894348145,-1.3549202124225062,-0.0,-0.034848447889089584,-0.2528794447528284,0.0,0.0022865391802042723,1.458743691444397,0.0,0.0026070401072502136
172.0,160.0,2.7811,2.4138,8.7685,-0.0339,0.0241,-0.1148,-1.878373762170309,0.0,3.4832310676574707,-1.4286748170852661,-0.0,2.1495659351348877,4.489934130305908,-0.0,0.28749510645866394,-1.3549326101886194,-0.0,-0.03084520250558853,-0.2528880278216761,0.0,-0.006581462919712067,1.4587194919586182,0.0,0.05714639648795128
172.0,160.0,2.7811,2.4138,8.7685,-0.0339,0.0241,-0.1148,-1.878345628777975,0.0,3.4883809089660645,-1.428719162940979,-0.0,2.144339084625244,4.489990397090576,-0.0,0.2752782106399536,-1.3549326101886194,-0.0,-0.02556779980659485,-0.2529037634478968,0.0,-0.014115431345999241,1.458763599395752,0.0,-0.008400999009609222
172.0,160.0,2.7811,2.4138,8.7685,-0.0339,0.0241,-0.1148,-1.8783894977965296,0.0,3.4790282249450684,-1.4286789894104004,-0.0,2.153764247894287,4.489978476161621,-0.0,0.2711387872695923,-1.3549564520465296,-0.0,-0.031293101608753204,-0.2528122107135218,0.0,0.0031234973575919867,1.4587233066558838,0.0,0.011416898109018803
172.0,160.0,2.7811,2.4138,8.7685,-0.0339,0.0241,-0.1148,-1.87835754970693,0.0,3.4426231384277344,-1.4287517070770264,-0.0,2.1739866733551025,4.489914103145264,-0.0,0.2921486794948578,-1.3549564520465296,-0.0,-0.035311996936798096,-0.2528317610370081,0.0,-0.009698159992694855,1.4587314128875732,0.0,-0.005461145658046007
172.0,160.0,2.7811,2.4138,8.7685,-0.0339,0.0241,-0.1148,-1.878413816491598,0.0,3.524482250213623,-1.428743600845337,-0.0,2.1738643646240234,4.489922209376953,-0.0,0.2753891348838806,-1.35492450395693,-0.0,-0.039238180965185165,-0.2528436819659632,0.0,0.005695293191820383,1.4587795734405518,0.0,0.004453156143426895
172.0,160.0,2.7811,2.4138,8.7685,-0.0339,0.0241,-0.1148,-1.878373762170309,0.0,3.4915852546691895,-1.428699016571045,-0.0,2.1720073223114014,4.489922209376953,-0.0,0.2796934247016907,-1.3549121061908167,-0.0,-0.03131503984332085,-0.2529357115374964,0.0,-0.004240734037011862,1.458763599395752,0.0,0.00849655456840992
172.0,160.0,2.7811,2.4138,8.7685,-0.0339,0.0241,-0.1148,-1.8783413372435511,0.0,3.4493331909179688,-1.4287071228027344,-0.0,2.188816785812378,4.489934607143066,-0.0,0.28966018557548523,-1.3549163977252405,-0.0,-0.02868812531232834,-0.252847973500387,0.0,0.0017016604542732239,1.4587717056274414,0.0,0.016400087624788284
172.0,160.0,2.7811,2.4138,8.7685,-0.0339,0.0241,-0.1148,-1.8784057102599085,0.0,3.454127311706543,-1.4287232160568237,-0.0,2.1659164428710938,4.48990981161084,-0.0,0.28219589591026306,-1.3549564520465296,-0.0,-0.039914775639772415,-0.252847973500387,0.0,-0.002725392347201705,1.4587595462799072,0.0,-0.015546251088380814
172.0,160.0,2.7811,2.4138,8.7685,-0.0339,0.0241,-0.1148,-1.878373762170309,0.0,3.4945921897888184,-1.4287109375,-0.0,2.184048652648926,4.489974661464355,-0.0,0.2804318070411682,-1.3549450079547327,-0.0,-0.03655797243118286,-0.25288373628725225,0.0,-0.009246564470231533,1.4587676525115967,0.0,-0.026487449184060097
174.0,158.0,2.662,2.3707,8.7888,-0.0214,0.0264,-0.1153,-1.8783413372435511,0.0,3.468052864074707,-1.4287433624267578,-0.0,2.175477981567383,4.4899584490009765,-0.0,0.2807818055152893,-1.3549326101886194,-0.0,-0.04349558800458908,-0.2528436819659632,0.0,-0.0003917801659554243,1.458743691444397,0.0,-0.01562587171792984
174.0,158.0,2.662,2.3707,8.7888,-0.0214,0.0264,-0.1153,-1.8783775768675746,0.0,3.557246208190918,-1.428719162940979,-0.0,2.1207590103149414,4.4899303156086425,-0.0,0.26946723461151123,-1.3549287954913538,-0.0,-0.030785594135522842,-0.25292760530580694,0.0,-0.002191272797062993,1.4588117599487305,0.0,-0.003590099513530731
174.0,158.0,2.662,2.3707,8.7888,-0.0214,0.0264,-0.1153,-1.8783532581725062,0.0,3.49540376663208,-1.4287149906158447,-0.0,2.190988540649414,4.4899584490009765,-0.0,0.28287214040756226,-1.354941193257467,-0.0,-0.02811313048005104,-0.25289994875063115,0.0,-0.013183416798710823,1.4587676525115967,0.0,-0.025585785508155823
174.0,158.0,2.662,2.3707,8.7888,-0.0214,0.0264,-0.1153,-1.87835754970693,0.0,3.4409546852111816,-1.4286788702011108,-0.0,2.1125850677490234,4.489934607143066,-0.0,0.2739567756652832,-1.354964558278219,-0.0,-0.03550040349364281,-0.25282413164247686,0.0,-0.0037937364540994167,1.4587756395339966,0.0,-0.03516491875052452
174.0,158.0,2.662,2.3707,8.7888,-0.0214,0.0264,-0.1153,-1.8783651791014613,0.0,3.473784923553467,-1.4286788702011108,-0.0,2.1932168006896973,4.489950342769287,-0.0,0.28496241569519043,-1.3549440542804163,-0.0,-0.03364812582731247,-0.2527678648578089,0.0,0.00199001538567245,1.4587757587432861,0.0,-0.06640610098838806
174.0,158.0,2.662,2.3707,8.7888,-0.0214,0.0264,-0.1153,-1.8783732853331507,0.0,3.505772352218628,-1.428731083869934,-0.0,2.1777491569519043,4.489938421840332,-0.0,0.3000588119029999,-1.35492450395693,-0.0,-0.02929355762898922,-0.2528918425189417,0.0,-0.0038243108429014683,1.458743691444397,0.0,0.03445617854595184
174.0,158.0,2.662,2.3707,8.7888,-0.0214,0.0264,-0.1153,-1.8783618412413539,0.0,3.4746649265289307,-1.4287151098251343,-0.0,2.131730318069458,4.489917917842529,-0.0,0.2839386761188507,-1.35492450395693,-0.0,-0.015674471855163574,-0.25286752382387334,0.0,0.008409482426941395,1.458803653717041,0.0,0.015912257134914398
174.0,158.0,2.662,2.3707,8.7888,-0.0214,0.0264,-0.1153,-1.8783771000304164,0.0,3.4782052040100098,-1.4287558794021606,-0.0,2.179182767868042,4.489950819606445,-0.0,0.2797836363315582,-1.3549450079547327,-0.0,-0.037172071635723114,-0.2528794447528284,0.0,0.00046846363693475723,1.4587595462799072,0.0,-0.03793769329786301
174.0,158.0,2.662,2.3707,8.7888,-0.0214,0.0264,-0.1153,-1.87835754970693,0.0,3.4685332775115967,-1.428699016571045,-0.0,2.1415138244628906,4.489970369929932,-0.0,0.3014760911464691,-1.354941193257467,-0.0,-0.023613188415765762,-0.252847973500387,0.0,0.0029393122531473637,1.4587836265563965,0.0,0.003719431348145008
174.0,158.0,2.662,2.3707,8.7888,-0.0214,0.0264,-0.1153,-1.8783771000304164,0.0,3.4318132400512695,-1.4286949634552002,-0.0,2.1715831756591797,4.489966555232666,-0.0,0.293713241815567,-1.3549688498126429,-0.0,-0.022060085088014603,-0.25287181535829717,0.0,0.0003405599854886532,1.4587554931640625,0.0,-0.004784754477441311
174.0,158.0,2.662,2.3707,8.7888,-0.0214,0.0264,-0.1153,-1.8783413372435511,0.0,3.4503238201141357,-1.4287351369857788,-0.0,2.1679370403289795,4.489974661464355,-0.0,0.28602635860443115,-1.3549326101886194,-0.0,-0.02585432678461075,-0.25287181535829717,0.0,-0.010262792930006981,1.458775520324707,0.0,-0.030076295137405396
174.0,158.0,2.662,2.3707,8.7888,-0.0214,0.0264,-0.1153,-1.8783651791014613,0.0,3.4280600547790527,-1.428722858428955,-0.0,2.1551525592803955,4.4899303156086425,-0.0,0.2909714877605438,-1.3549044767962855,-0.0,-0.039532579481601715,-0.2528756300555628,0.0,-0.007211719639599323,1.4587395191192627,0.0,-0.054381802678108215
174.0,158.0,2.662,2.3707,8.7888,-0.0214,0.0264,-0.1153,-1.8783532581725062,0.0,3.5289855003356934,-1.4287477731704712,-0.0,2.1639232635498047,4.4899584490009765,-0.0,0.2950553894042969,-1.3549893538104456,-0.0,-0.03701554238796234,-0.25289994875063115,0.0,-0.009040823206305504,1.4587113857269287,0.0,-0.004720568656921387
174.0,158.0,2.662,2.3707,8.7888,-0.0214,0.0264,-0.1153,-1.8783337078490199,0.0,3.4938395023345947,-1.4287229776382446,-0.0,2.1600029468536377,4.489970369929932,-0.0,0.2886087894439697,-1.3550289312945765,-2.5158118432955234e-07,-0.03315825015306473,-0.25283986726869756,0.0,-0.0007829071255400777,1.4587795734405518,0.0,0.010584588162600994
174.0,158.0,2.662,2.3707,8.7888,-0.0214,0.0264,-0.1153,-1.878369470635885,0.0,3.463261842727661,-1.4286669492721558,-3.0124589045499306e-08,2.1417670249938965,4.490007086391113,-1.966580612133839e-06,0.29192763566970825,-1.3549965063678187,-0.0025075343437492847,-0.030113516375422478,-0.25289613405336553,0.0,0.0019917970057576895,1.458747386932373,0.0,-0.003588872030377388
174.0,158.0,2.662,2.3707,8.7888,-0.0214,0.0264,-0.1153,-1.8783532581725062,0.0,3.4908287525177,-1.428751826286316,-5.422319277609278e-12,2.1658992767333984,4.489990397090576,-8.383842065029512e-09,0.28662052750587463,-1.3550289312945765,-0.0019454756984487176,-0.023133352398872375,-0.2528913656817835,0.0,0.0015052056405693293,1.4587873220443726,0.00206623668782413,0.02633749693632126
174.0,158.0,2.662,2.3707,8.7888,-0.0214,0.0264,-0.1153,-1.8783618412413539,0.0,3.45772123336792,-1.428662896156311,-1.3094262479269528e-17,2.1218552589416504,4.489970369929932,-2.3336734020912298e-12,0.2898504137992859,-1.35500413576235,-0.001033282489515841,-0.030957264825701714,-0.25289613405336553,0.0,-0.009204559959471226,1.4588754177093506,0.0038838593754917383,0.06207413598895073
174.0,158.0,2.662,2.3707,8.7888,-0.0214,0.0264,-0.1153,-1.8783008060851039,0.0,3.5071792602539062,-1.4286431074142456,-2.3569208987571823e-21,2.208829879760742,4.490010424251221,-9.948816164612965e-15,0.2851257920265198,-1.3549960295306605,-0.0007465156959369779,-0.026581060141324997,-0.2528875509845179,0.0,0.010342031717300415,1.4589272737503052,0.003209719667211175,0.04379987716674805
166.0,161.0,2.4562,2.6195,8.4245,-0.0234,0.0857,-0.1264,-1.8783537350096644,0.0,3.4538216590881348,-1.4287232160568237,-5.69168651276601e-27,2.1720728874206543,4.489974184627197,-2.7692896418303014e-18,0.28935152292251587,-1.35500413576235,-0.0005273456918075681,-0.028706055134534836,-0.2528641859637659,0.0,-0.01067249197512865,1.4588394165039062,0.0023526218719780445,0.02278663031756878
166.0,161.0,2.4562,2.6195,8.4245,-0.0234,0.0857,-0.1264,-1.8783413372435511,0.0,3.5169219970703125,-1.4286830425262451,-1.0244833875890996e-30,2.162640333175659,4.489974661464355,-1.1805915905617481e-20,0.28606271743774414,-1.3550527731524866,-0.00044109378359280527,-0.03429080545902252,-0.2529037634478968,0.0,-0.0005105128511786461,1.4589195251464844,0.0020449438598006964,-0.004941361024975777
166.0,161.0,2.4562,2.6195,8.4245,-0.0234,0.0857,-0.1264,-1.8783937893309535,0.0,3.439095973968506,-1.4287034273147583,-2.474007191635697e-36,2.2120838165283203,4.4899627405354,-3.286219995675455e-24,0.28260502219200134,-1.3550127188311976,-0.00045641150791198015,-0.043455809354782104,-0.25285178819765264,0.0,0.007922396063804626,1.45888352394104,0.002055618679150939,0.046003781259059906
166.0,161.0,2.4562,2.6195,8.4245,-0.0234,0.0857,-0.1264,-1.8783818684019984,0.0,3.4705514907836914,-1.4287030696868896,-4.453130337839263e-40,2.1659319400787354,4.4899303156086425,-1.4009670475683584e-26,0.2720690965652466,-1.3550689856158655,-0.0003107507654931396,-0.03306803107261658,-0.25286800066103154,0.0,0.001521912170574069,1.458915114402771,0.0025020430330187082,0.004293523263186216
166.0,161.0,2.4562,2.6195,8.4245,-0.0234,0.0857,-0.1264,-1.8784095249571742,0.0,3.493852138519287,-1.4286588430404663,-1.401298464324817e-45,2.196159839630127,4.489922209376953,-3.899642887779465e-30,0.27727264165878296,-1.355060879384176,-0.00029480154626071453,-0.03849857300519943,-0.25285226503481084,0.0,0.009393460117280483,1.4589675664901733,0.003377472748979926,0.08546874672174454
166.0,161.0,2.4562,2.6195,8.4245,-0.0234,0.0857,-0.1264,-1.8784095249571742,0.0,3.5004029273986816,-1.4286867380142212,-0.0,2.1407604217529297,4.489914103145264,-1.6624785912913263e-32,0.2850223183631897,-1.355032745991842,-0.0002658666926436126,-0.03515545278787613,-0.2528641859637659,0.0,-0.00014910462778061628,1.4589312076568604,0.004411600064486265,0.04160401225090027
166.0,161.0,2.4562,2.6195,8.4245,-0.0234,0.0857,-0.1264,-1.8784343204894007,-0.0005741789354942739,3.4582760334014893,-1.4286308288574219,-0.0,2.135497570037842,4.489978476161621,-4.627569844921579e-36,0.2969895601272583,-1.355060879384176,-0.0002701591874938458,-0.05012883245944977,-0.2528122107135218,0.0,0.0027797408401966095,1.459031343460083,0.008423744700849056,0.0020630359649658203
166.0,161.0,2.4562,2.6195,8.4245,-0.0234,0.0857,-0.1264,-1.878441949883932,-0.0005820756778120995,3.4579544067382812,-1.4286789894104004,-0.0,2.2012104988098145,4.489990397090576,-1.9728057115732077e-38,0.28124260902404785,-1.3550122419940394,-0.00027517956914380193,-0.046024151146411896,-0.25286800066103154,0.0,-0.007635768968611956,1.459099292755127,0.0108213284984231,0.07811978459358215
166.0,161.0,2.4562,2.6195,8.4245,-0.0234,0.0857,-0.1264,-1.8783890209593714,-0.0007287688204087317,3.49836802482605,-1.4286834001541138,-0.0,2.166118621826172,4.489966555232666,-5.491688681688958e-42,0.2756122946739197,-1.3550646940814417,-0.0002543014707043767,-0.0505777969956398,-0.25294381776918584,0.0,-0.00510609894990921,1.459167242050171,0.01345419604331255,0.10012869536876678
166.0,161.0,2.4562,2.6195,8.4245,-0.0234,0.0857,-0.1264,-1.87843718151235,-0.0006566767115145922,3.461167097091675,-1.4286504983901978,-0.0,2.1641199588775635,4.489966555232666,-2.382207389352189e-44,0.27376893162727356,-1.3550284544574183,-0.00028218739316798747,-0.059194404631853104,-0.2528484503375452,0.0,0.00029994186479598284,1.459162950515747,0.014177375473082066,0.1130041778087616
166.0,161.0,2.4562,2.6195,8.4245,-0.0234,0.0857,-0.1264,-1.8784252605833949,-0.00048363805399276316,3.4915709495544434,-1.4287352561950684,-0.0,2.2076823711395264,4.489970369929932,-0.0,0.2807905673980713,-1.3550127188311976,-0.00024022217257879674,-0.035310693085193634,-0.2528756300555628,0.0,-0.009877976030111313,1.4592549800872803,0.013673794455826283,0.043974369764328
166.0,161.0,2.4562,2.6195,8.4245,-0.0234,0.0857,-0.1264,-1.8784009418883265,-0.0004101440717931837,3.505845069885254,-1.4286308288574219,-0.0,2.0915579795837402,4.489982767696045,-0.0,0.2936009168624878,-1.3550403753863733,-0.00021704235405195504,-0.045967936515808105,-0.25287181535829717,0.0,0.004121675156056881,1.459299087524414,0.012647576630115509,0.07840636372566223
166.0,161.0,2.4562,2.6195,8.4245,-0.0234,0.0857,-0.1264,-1.8784219227232875,-0.0003340186085551977,3.4475250244140625,-1.4286670684814453,-0.0,2.1678452491760254,4.489998503322266,-0.0,0.28311240673065186,-1.3550284544574183,-0.00018960078887175769,-0.04071145877242088,-0.2528317610370081,0.0,-0.016640353947877884,1.4593749046325684,0.00990068819373846,0.006098818965256214
166.0,161.0,2.4562,2.6195,8.4245,-0.0234,0.0857,-0.1264,-1.8784052334227503,-0.00029724175692535937,3.4468345642089844,-1.4286710023880005,-0.0,2.1424646377563477,4.489926500911377,-0.0,0.2832987606525421,-1.3550165335284632,-0.0001748627983033657,-0.034880734980106354,-0.25290042558778936,0.0,-0.0030582486651837826,1.4594064950942993,0.007274316158145666,0.04813326895236969
166.0,161.0,2.4562,2.6195,8.4245,-0.0234,0.0857,-0.1264,-1.8784252605833949,-0.0002677608572412282,3.450352191925049,-1.4286870956420898,-0.0,2.186539649963379,4.4899584490009765,-0.0,0.2828039526939392,-1.355032745991842,-0.0001622510317247361,-0.042130909860134125,-0.25283557573427373,0.0,-0.0048509035259485245,1.4593948125839233,0.004488242324441671,0.02076972834765911
166.0,161.0,2.4562,2.6195,8.4245,-0.0234,0.0857,-0.1264,-1.8784414730467738,-0.0002719296608120203,3.5085065364837646,-1.4286953210830688,-0.0,2.194164276123047,4.489994688625,-0.0,0.2835095226764679,-1.3550127188311976,-0.00011910581088159233,-0.04572392255067825,-0.25293189684023076,0.0,-0.0003090453101322055,1.459450602531433,0.001308268983848393,0.0649336501955986
166.0,161.0,2.4562,2.6195,8.4245,-0.0234,0.0857,-0.1264,-1.8784171543517054,-0.0002310689160367474,3.5112180709838867,-1.4286266565322876,-0.0,2.1869187355041504,4.4899627405354,-0.0,0.2871958315372467,-1.3550251165973108,-0.00010998119250871241,-0.04942569136619568,-0.2528274695025843,0.0,-0.0029488932341337204,1.4593628644943237,-0.000562331173568964,0.11961974203586578
166.0,161.0,2.4562,2.6195,8.4245,-0.0234,0.0857,-0.1264,-1.8784295521178187,-0.0014359900960698724,3.464539051055908,-1.428699016571045,-0.0,2.195803642272949,4.489938421840332,-1.2957175385963637e-06,0.2904358506202698,-1.3549602667437952,-0.00010073968587676063,-0.028536789119243622,-0.2528641859637659,0.0,0.008376321755349636,1.459366798400879,-0.0036000811960548162,0.05434414744377136
174.0,157.0,1.8808,3.3458,8.9408,0.0014,0.0079,-0.1457,-1.8784729442992152,-0.0024802456609904766,3.457584857940674,-1.428722858428955,-0.0,2.126768112182617,4.489926500911377,-3.328072853037156e-05,0.28638508915901184,-1.3549764792071741,-9.540003520669416e-05,-0.04062553122639656,-0.2528641859637659,0.0,-0.006143628619611263,1.459270715713501,-0.007015968207269907,0.028078891336917877
174.0,157.0,1.8808,3.3458,8.9408,0.0014,0.0079,-0.1457,-1.8785015545287074,-0.004403254017233849,3.4431653022766113,-1.4286866188049316,-0.0,2.119206428527832,4.489966555232666,-4.7453770093852654e-05,0.2795354723930359,-1.3549965063678187,-6.629343988606706e-05,-0.026824478060007095,-0.25285607973207647,0.0,-0.01927947625517845,1.4592390060424805,-0.010383925400674343,-0.014815190806984901
174.0,157.0,1.8808,3.3458,8.9408,0.0014,0.0079,-0.1457,-1.8785091839232386,-0.005812708754092455,3.4334442615509033,-1.428699016571045,-0.0,2.1289401054382324,4.489926500911377,-6.06515422987286e-05,0.2731044292449951,-1.354992691670553,-6.317848601611331e-05,-0.03507757931947708,-0.2528632322894495,0.0,-0.01627955585718155,1.4591466188430786,-0.012276096269488335,0.01634712517261505
174.0,157.0,1.8808,3.3458,8.9408,0.0014,0.0079,-0.1457,-1.8785811863341273,-0.007260771468281746,3.4668233394622803,-1.4286870956420898,-0.0,2.137119770050049,4.489926500911377,-7.250197813846171e-05,0.28221672773361206,-1.354992691670553,5.811874143546447e-05,-0.0423741415143013,-0.2529047171222132,0.0,-0.007181291934102774,1.4590948820114136,-0.014855930581688881,0.011511695571243763
174.0,157.0,1.8808,3.3458,8.9408,0.0014,0.0079,-0.1457,-1.8785811863341273,-0.006175331771373749,3.4449715614318848,-1.4287109375,-0.0,2.2059638500213623,4.489950819606445,-7.047124381642789e-05,0.2760695219039917,-1.3549726645099085,8.022829570109025e-05,-0.022788584232330322,-0.2527993361102503,0.0,-0.012518540024757385,1.4590232372283936,-0.016644112765789032,-0.0182426068931818
174.0,157.0,1.8808,3.3458,8.9408,0.0014,0.0079,-0.1457,-1.8786050281920375,-0.004128745291382074,3.416363477706909,-1.4287270307540894,-0.0,2.171172618865967,4.489978952998779,-0.0003451398806646466,0.2830576002597809,-1.3549402395831507,7.521150109823793e-05,-0.03996678441762924,-0.2528756300555628,0.0,-0.014188521541655064,1.4589273929595947,-0.018264269456267357,0.021137047559022903
174.0,157.0,1.8808,3.3458,8.9408,0.0014,0.0079,-0.1457,-1.878608842889303,-0.002548003802075982,3.4468977451324463,-1.428699016571045,-0.0,2.15299391746521,4.489934607143066,-0.00035803401260636747,0.2856590449810028,-1.354992691670553,9.457745181862265e-05,-0.03597259894013405,-0.25285178819765264,0.0,-0.0036536487750709057,1.4588356018066406,-0.01887548342347145,0.009893357753753662
174.0,157.0,1.8808,3.3458,8.9408,0.0014,0.0079,-0.1457,-1.8786164722838343,-0.0015231706202030182,3.503981113433838,-1.4287595748901367,-0.0,2.213766098022461,4.4899303156086425,-0.0005816050688736141,0.2789817154407501,-1.354992691670553,8.802185766398907e-05,-0.037961483001708984,-0.25285607973207647,0.0,-0.020141124725341797,1.458707571029663,-0.020069900900125504,0.0065187569707632065
174.0,157.0,1.8808,3.3458,8.9408,0.0014,0.0079,-0.1457,-1.8786374531187953,-0.0008804546669125557,3.4844961166381836,-1.4287067651748657,-0.0,2.1125433444976807,4.48991505681958,-0.0006749715539626777,0.28194862604141235,-1.3550012747394007,8.391802839469165e-05,-0.03352239355444908,-0.25291616121401006,0.0,-0.0061972374096512794,1.458627700805664,-0.02113000489771366,-0.0381636917591095
174.0,157.0,1.8808,3.3458,8.9408,0.0014,0.0079,-0.1457,-1.8786694012083949,-0.0007626044098287821,3.469794988632202,-1.4287837743759155,-0.0,2.141991138458252,4.489898367519043,-0.0009543296764604747,0.27026745676994324,-1.3549483458148401,9.802970453165472e-05,-0.037768635898828506,-0.25287133852113897,0.0,0.004741658456623554,1.4584238529205322,-0.022730551660060883,-0.025930851697921753
174.0,157.0,1.8808,3.3458,8.9408,0.0014,0.0079,-0.1457,-1.8786736927428187,-0.0006227263365872204,3.4595091342926025,-1.4287517070770264,-0.0,2.183398485183716,4.489886446590088,-0.0008385201217606664,0.27911415696144104,-1.3549769560443323,9.394732478540391e-05,-0.030973907560110092,-0.25286752382387334,0.0,-0.006237869616597891,1.4583759307861328,-0.02453763410449028,-0.02195039577782154
174.0,157.0,1.8808,3.3458,8.9408,0.0014,0.0079,-0.1457,-1.878608842889303,-0.0004802605544682592,3.4874889850616455,-1.4287391901016235,-0.0,2.1655523777008057,4.489854975337646,-0.0006852424121461809,0.2956448197364807,-1.3549163977252405,0.00020030287851113826,-0.035305604338645935,-0.25288373628725225,0.0,0.0028974704910069704,1.4581602811813354,-0.025204237550497055,0.03622223809361458
174.0,157.0,1.8808,3.3458,8.9408,0.0014,0.0079,-0.1457,-1.8786012134947718,-0.00015445593453478068,3.528569221496582,-1.428699016571045,-0.0,2.170607089996338,4.489910765285156,-0.0005756099708378315,0.28932613134384155,-1.3549564520465296,0.00021588194067589939,-0.02761039510369301,-0.2528756300555628,0.0,0.010026508010923862,1.4581162929534912,-0.02590104378759861,0.020850421860814095
174.0,157.0,1.8808,3.3458,8.9408,0.0014,0.0079,-0.1457,-1.87860169033193,-0.00012200574565213174,3.446671485900879,-1.4287071228027344,-0.0,2.1527719497680664,4.489906473750732,-0.00040074074058793485,0.2796212434768677,-1.35492450395693,0.00019665814761538059,-0.03319869190454483,-0.2528641859637659,0.0,0.002225280972197652,1.457964301109314,-0.025987543165683746,-0.017394118010997772
174.0,157.0,1.8808,3.3458,8.9408,0.0014,0.0079,-0.1457,-1.878641267816061,-0.00010743846360128373,3.4685051441192627,-1.428731083869934,-0.0,2.190871238708496,4.4899231630512695,-0.000365967774996534,0.27665552496910095,-1.3549163977252405,0.0002137174305971712,-0.02116788923740387,-0.2528956572162073,0.0,-0.0005719822365790606,1.457800269126892,-0.025321271270513535,-0.022347215563058853
174.0,157.0,1.8808,3.3458,8.9408,0.0014,0.0079,-0.1457,-1.8786293468871058,-9.597928146831691e-05,3.505467176437378,-1.428699016571045,-0.0,2.1524887084960938,4.489846392268799,-0.00034843001049011946,0.29013586044311523,-1.3549287954913538,0.0002142902376363054,-0.027654292061924934,-0.25282365480531865,0.0,-0.004284631460905075,1.4578089714050293,-0.024313580244779587,-0.019149430096149445
174.0,157.0,1.8808,3.3458,8.9408,0.0014,0.0079,-0.1457,-1.8786574802794398,-8.274210267700255e-05,3.4788103103637695,-1.428646445274353,-0.0,2.185591220855713,4.489878340358398,-0.0003765230649150908,0.2807871699333191,-1.35492450395693,0.00020893699547741562,-0.031406622380018234,-0.2529204527484339,0.0,-0.0010349865769967437,1.4575769901275635,-0.024979138746857643,-0.03739876300096512
174.0,157.0,1.8808,3.3458,8.9408,0.0014,0.0079,-0.1457,-1.8785931072630824,-7.577530050184578e-05,3.4782052040100098,-1.4287270307540894,-0.0,2.1319351196289062,4.489870710963867,-0.0005343895754776895,0.2720717191696167,-1.3549483458148401,0.00019747896294575185,-0.03583431988954544,-0.25291616121401006,0.0,-8.032738696783781e-05,1.4574968814849854,-0.023671211674809456,-0.04046734422445297
169.0,159.0,2.2134,1.9872,8.9426,-0.0654,0.0399,-0.1634,-1.8786012134947718,-0.0001009105981211178,3.458683490753174,-1.4286545515060425,-0.0,2.1577847003936768,4.4898106294819335,-0.0013465550728142262,0.27653464674949646,-1.3549450079547327,0.00022770911164116114,-0.03125002235174179,-0.2528756300555628,0.0,-0.016802817583084106,1.4573452472686768,-0.02243027091026306,-0.019609134644269943
169.0,159.0,2.2134,1.9872,8.9426,-0.0654,0.0399,-0.1634,-1.878625055352682,-0.00012476187839638442,3.462177276611328,-1.4287030696868896,-0.0,2.1687276363372803,4.489823027248047,-0.0021229141857475042,0.2736395001411438,-1.3549001852618616,0.00020756697631441057,-0.02838420495390892,-0.2529199759112757,0.0,0.013379004783928394,1.4572415351867676,-0.022111481055617332,-0.003241082653403282
169.0,159.0,2.2134,1.9872,8.9426,-0.0654,0.0399,-0.1634,-1.8786450825133265,-0.0002067846362479031,3.455259323120117,-1.4286949634552002,-0.0,2.1953701972961426,4.489762468928955,-0.004579104948788881,0.27565324306488037,-1.3548806349383753,0.00021875588572584093,-0.04620892554521561,-0.2528756300555628,0.0,-0.019391698762774467,1.4571137428283691,-0.02153012715280056,-0.01907110959291458
169.0,159.0,2.2134,1.9872,8.9426,-0.0654,0.0399,-0.1634,-1.878693243066305,-0.0015935417031869292,3.4170074462890625,-1.4287149906158447,-0.0,2.1786675453186035,4.4897185999104,-0.008992441929876804,0.26587069034576416,-1.3548925558673304,0.00023553163919132203,-0.025223709642887115,-0.25287133852113897,0.0,-0.005586006212979555,1.4570698738098145,-0.021397465839982033,-0.05251031368970871
169.0,159.0,2.2134,1.9872,8.9426,-0.0654,0.0399,-0.1634,-1.8786612949767054,-0.0022424079943448305,3.4581375122070312,-1.4286586046218872,-0.0,2.1480519771575928,4.4896508890339355,-0.01599258929491043,0.27737292647361755,-1.354896370564596,0.00024244184896815568,-0.03359728306531906,-0.25290042558778936,0.0,-0.0042314836755394936,1.4569501876831055,-0.021350540220737457,-0.01093199197202921
169.0,159.0,2.2134,1.9872,8.9426,-0.0654,0.0399,-0.1634,-1.8786856136717738,-0.00184717180673033,3.457155466079712,-1.4286390542984009,-0.0,2.2085959911346436,4.489631338710449,-0.016237763687968254,0.2754797637462616,-1.3548887411700647,0.0003225466934964061,-0.03168390318751335,-0.25288373628725225,0.0,-0.002381076104938984,1.456850290298462,-0.0205251295119524,-0.06122405454516411
169.0,159.0,2.2134,1.9872,8.9426,-0.0654,0.0399,-0.1634,-1.878653188745016,-0.0012302123941481113,3.421081066131592,-1.4287067651748657,-0.0,2.1554977893829346,4.489483519191406,-0.013781428337097168,0.2634601891040802,-1.3549049536334437,0.0002763599040918052,-0.02600911259651184,-0.25292808214296514,0.0,-0.0018545850180089474,1.4566941261291504,-0.01950065791606903,-0.032429203391075134
169.0,159.0,2.2134,1.9872,8.9426,-0.0654,0.0399,-0.1634,-1.8787137470641078,-0.0009167810785584152,3.3947062492370605,-1.42867112159729,-0.0,2.1496026515960693,4.489472075099609,-0.010637368075549603,0.27366793155670166,-1.3548887411700647,0.00027011765632778406,-0.02925804629921913,-0.25282413164247686,0.0,-0.015102646313607693,1.4566783905029297,-0.018189985305070877,-0.05083592236042023
169.0,159.0,2.2134,1.9872,8.9426,-0.0654,0.0399,-0.1634,-1.8786326847472132,-0.0005122862057760358,3.412977933883667,-1.4286390542984009,-0.0,2.190098762512207,4.489363833064697,-0.005075068678706884,0.26745355129241943,-1.354896370564596,0.0002536957908887416,-0.01254153810441494,-0.25288373628725225,0.0,0.002786265453323722,1.4565019607543945,-0.017436638474464417,-0.07609917968511581
169.0,159.0,2.2134,1.9872,8.9426,-0.0654,0.0399,-0.1634,-1.8786975346007289,-0.00041718187276273966,3.4215450286865234,-1.428679347038269,-0.0,2.095480442047119,4.489400072688721,-0.0024737336207181215,0.2684619426727295,-1.3548806349383753,0.0002319062186870724,-0.02881520427763462,-0.25288373628725225,0.0,-0.002100264886394143,1.4564100503921509,-0.016743378713726997,-0.021292023360729218
169.0,159.0,2.2134,1.9872,8.9426,-0.0654,0.0399,-0.1634,-1.8786527119078578,-0.0003889313084073365,3.4199557304382324,-1.42867112159729,-0.0,2.133073329925537,4.489423914546631,-0.0004458080802578479,0.27119672298431396,-1.3549006620990198,0.0002054333162959665,-0.02003776654601097,-0.25285178819765264,0.0,-0.012850270606577396,1.4563302993774414,-0.014604530297219753,-0.07279613614082336
169.0,159.0,2.2134,1.9872,8.9426,-0.0654,0.0399,-0.1634,-1.8786488972105921,-0.0003420290886424482,3.4212095737457275,-1.4286028146743774,-0.0,2.0951883792877197,4.489412470454834,-0.00029520204407162964,0.2646535336971283,-1.3548644224749964,0.0001909057900775224,-0.02255556732416153,-0.252847973500387,0.0,0.0005148053169250488,1.4563066959381104,-0.013567603193223476,-0.10417917370796204
169.0,159.0,2.2134,1.9872,8.9426,-0.0654,0.0399,-0.1634,-1.8787056408324183,-0.00028740864945575595,3.401754379272461,-1.4286870956420898,-0.0,2.137380599975586,4.4893714624592285,-0.00019765892648138106,0.27675867080688477,-1.3548811117755335,0.00017259812739212066,-0.0180385559797287,-0.25287133852113897,0.0,0.004380862228572369,1.4562466144561768,-0.012362873181700706,-0.099006786942482
169.0,159.0,2.2134,1.9872,8.9426,-0.0654,0.0399,-0.1634,-1.8786975346007289,-0.00030297620105557144,3.3866825103759766,-1.428670883178711,-0.0,2.173312187194824,4.489379568690918,-0.00016202164988499135,0.28151100873947144,-1.3549049536334437,0.0001622265699552372,-0.02117348648607731,-0.25287133852113897,0.0,0.001865886035375297,1.456154704093933,-0.011554116383194923,-0.063104048371315
169.0,159.0,2.2134,1.9872,8.9426,-0.0654,0.0399,-0.1634,-1.8786736927428187,-0.00028964850935153663,3.4257709980010986,-1.4285826683044434,-0.0,2.106614589691162,4.48940817892041,-0.00012754857016261667,0.2584434151649475,-1.354912583027975,0.00014881347306072712,-0.027771886438131332,-0.252847973500387,0.0,0.004742160439491272,1.4561107158660889,-0.010308513417840004,-0.037141527980566025
169.0,159.0,2.2134,1.9872,8.9426,-0.0654,0.0399,-0.1634,-1.8786975346007289,-0.00027918597334064543,3.4187302589416504,-1.428670883178711,0.00041948544094339013,2.145578622817993,4.489412470454834,-0.0001117078572860919,0.2630825638771057,-1.3549168745623987,0.0001410396653227508,-0.01578586921095848,-0.2529366652118128,0.0,-0.008021078072488308,1.456099033355713,-0.00988857913762331,-0.054657429456710815
169.0,159.0,2.2134,1.9872,8.9426,-0.0654,0.0399,-0.1634,-1.8786446056761683,-0.0002466403821017593,3.4034199714660645,-1.4286513328552246,0.0003279360826127231,2.14857816696167,4.489427729243896,-9.416825923835859e-05,0.2675122022628784,-1.354908291493551,0.00013079075142741203,-0.01803535409271717,-0.2528436819659632,0.0,-0.015454715117812157,1.4560267925262451,-0.008161962032318115,-0.08083994686603546
169.0,159.0,2.2134,1.9872,8.9426,-0.0654,0.0399,-0.1634,-1.878709455529684,-0.0002889276947826147,3.4236812591552734,-1.4286389350891113,0.00028621195815503597,2.1582350730895996,4.489400072688721,-8.524477016180754e-05,0.2736319899559021,-1.3549006620990198,0.00012474757386371493,-0.023135963827371597,-0.2529080549823206,0.0,-0.0005344226374290884,1.4560470581054688,-0.006824165116995573,-0.04766041785478592
168.0,154.0,3.1394,2.3127,8.5316,-0.0289,0.0299,-0.1303,-1.8787251911559046,-0.0006705861887894571,3.371504306793213,-1.4286513328552246,0.00030396704096347094,2.1009156703948975,4.4893714624592285,-7.786753121763468e-05,0.2640359401702881,-1.354908291493551,0.00011923800047952682,-0.028777603060007095,-0.25288373628725225,0.0,-0.00871121697127819,1.4559950828552246,-0.005783011205494404,-0.07188619673252106
168.0,154.0,3.1394,2.3127,8.5316,-0.0289,0.0299,-0.1303,-1.878709455529684,-0.0007592001347802579,3.389035701751709,-1.4286028146743774,0.0002605763147585094,2.1375842094421387,4.48943202077832,-6.892200326547027e-05,0.2562084197998047,-1.354856316243307,0.00011182991147506982,-0.011044422164559364,-0.25288373628725225,0.0,-0.002347893314436078,1.4559710025787354,-0.0036156850401312113,-0.03579864650964737
168.0,154.0,3.1394,2.3127,8.5316,-0.0289,0.0299,-0.1303,-1.8787251911559046,-0.0011155408574268222,3.3541955947875977,-1.4286710023880005,0.00023763993522152305,2.11264705657959,4.489387674922607,-6.401874998118728e-05,0.26950156688690186,-1.354908291493551,0.00010738219134509563,-0.03080068528652191,-0.25289613405336553,0.0,-0.012684889137744904,1.4559390544891357,-0.0025070044212043285,-0.07818090915679932
168.0,154.0,3.1394,2.3127,8.5316,-0.0289,0.0299,-0.1303,-1.878721376458639,-0.0014269304228946567,3.3691184520721436,-1.4286110401153564,0.00020992427016608417,2.096813201904297,4.489395781154297,-5.784594395663589e-05,0.26627427339553833,-1.3549087683307093,8.459444507025182e-05,-0.03889648988842964,-0.2529080549823206,0.0,-0.009720388799905777,1.4559590816497803,-0.0014818503987044096,-0.10897159576416016
168.0,154.0,3.1394,2.3127,8.5316,-0.0289,0.0299,-0.1303,-1.8787414036192835,-0.0017007612623274326,3.329041004180908,-1.4286553859710693,0.00019477921887300909,2.1838104724884033,4.489383860225342,-5.4352225561160594e-05,0.2549561560153961,-1.354908291493551,8.139290730468929e-05,-0.044579725712537766,-0.25283557573427373,0.0,0.0023584633599966764,1.4559671878814697,-0.0010837576119229198,-0.06653061509132385
168.0,154.0,3.1394,2.3127,8.5316,-0.0289,0.0299,-0.1303,-1.8787337742247523,-0.0024409350007772446,3.3233566284179688,-1.4285907745361328,0.00020491352188400924,2.167036294937134,4.489427729243896,-7.390396058326587e-05,0.26072996854782104,-1.354884449635641,7.720311259618029e-05,-0.04839933291077614,-0.2528641859637659,0.0,-0.017344221472740173,1.45595121383667,-0.0007464176742359996,-0.06286686658859253
168.0,154.0,3.1394,2.3127,8.5316,-0.0289,0.0299,-0.1303,-1.8787576160826625,-0.003109907265752554,3.3781986236572266,-1.4286266565322876,0.00019252031052019447,2.0954692363739014,4.489375753993652,-7.082958472892642e-05,0.25550997257232666,-1.3549168745623987,7.464187365258113e-05,-0.04448086768388748,-0.25285178819765264,0.0,-0.0024657484609633684,1.45597505569458,-0.0006181885255500674,-0.016185302287340164
168.0,154.0,3.1394,2.3127,8.5316,-0.0289,0.0299,-0.1303,-1.878817697564596,-0.00429524527862668,3.3445873260498047,-1.4286307096481323,0.00017635314725339413,2.1365697383880615,4.48940817892041,-6.735129136359319e-05,0.2504773736000061,-1.3548925558673304,7.110367732821032e-05,-0.04356342554092407,-0.2529085318194788,0.0,0.004643620457500219,1.4559109210968018,-0.00034855070407502353,-0.03571484237909317
168.0,154.0,3.1394,2.3127,8.5316,-0.0289,0.0299,-0.1303,-1.878801008264059,-0.0055523705668747425,3.3344099521636963,-1.4286231994628906,0.00016700282867532223,2.0745925903320312,4.489363833064697,-7.619077950948849e-05,0.24724388122558594,-1.3548882643329065,6.892543751746416e-05,-0.04841012507677078,-0.2528756300555628,0.0,-0.006421416997909546,1.455935001373291,-0.000354910473106429,-0.08857487142086029
168.0,154.0,3.1394,2.3127,8.5316,-0.0289,0.0299,-0.1303,-1.8788172207274378,-0.005985510069876909,3.3323020935058594,-1.4286229610443115,0.00015470039215870202,2.0897743701934814,4.489335699672363,-0.0011365022510290146,0.25440603494644165,-1.3549049536334437,6.589746044483036e-05,-0.04378914088010788,-0.2528193632708948,0.0,-0.00946060474961996,1.455923080444336,-0.00039597475552000105,-0.02067403309047222
168.0,154.0,3.1394,2.3127,8.5316,-0.0289,0.0299,-0.1303,-1.8788730106749476,-0.006776377558708191,3.2970614433288574,-1.4286431074142456,0.00014745858788955957,2.142245054244995,4.489351912135742,-0.0015342672122642398,0.2434963881969452,-1.3549168745623987,6.40224025119096e-05,-0.05097430199384689,-0.25289994875063115,0.0,-0.01140117272734642,1.4559309482574463,-0.0003615909954532981,-0.011968321166932583
168.0,154.0,3.1394,2.3127,8.5316,-0.0289,0.0299,-0.1303,-1.8789173565306605,-0.006650263909250498,3.2744927406311035,-1.4286792278289795,0.0001507312263129279,2.1053760051727295,4.489355726833008,-0.0016041137278079987,0.2422427088022232,-1.3549450079547327,6.140168261481449e-05,-0.04746676981449127,-0.2528317610370081,0.0,0.00636958796530962,1.4559390544891357,-0.00031424377812072635,-0.010212957859039307
