ramyac6/ROB537/final_project/csv/bad/bad_138.csv
tof_0,tof_1,accelx,accely,accelz,gyrox,gyroy,gyroz,shoulder_lift_joint_position,shoulder_lift_joint_velocity,shoulder_lift_joint_effort,elbow_joint_position,elbow_joint_velocity,elbow_joint_effort,wrist_1_joint_position,wrist_1_joint_velocity,wrist_1_joint_effort,wrist_2_joint_position,wrist_2_joint_velocity,wrist_2_joint_effort,wrist_3_joint_position,wrist_3_joint_velocity,wrist_3_joint_effort,shoulder_pan_joint_position,shoulder_pan_joint_velocity,shoulder_pan_joint_effort
349.0,376.0,1.2562,0.2973,9.478,-0.0373,0.0252,-0.1187,-1.6465350590147914,0.0,2.435176134109497,-1.8421152830123901,-0.0,2.060971260070801,4.800060014217653,0.0,0.29409679770469666,-1.5969179312335413,0.0,-0.004354901611804962,0.7427494525909424,-0.0,-0.008884004317224026,0.80549156665802,0.0,0.02439638413488865
349.0,376.0,1.2562,0.2973,9.478,-0.0373,0.0252,-0.1187,-1.646595140496725,0.0,2.426532745361328,-1.8421751260757446,-0.0,2.056347131729126,4.800084385066786,0.0,0.2888495922088623,-1.5968897978412073,0.0,0.005137363914400339,0.7427178025245667,-0.0,-0.00410211319103837,0.8054795265197754,0.0,0.06016238406300545
349.0,376.0,1.2562,0.2973,9.478,-0.0373,0.0252,-0.1187,-1.6465908489623011,0.0,2.454498529434204,-1.8422082662582397,-0.0,2.048417091369629,4.800064030080595,0.0,0.2903652787208557,-1.5969098250018519,0.0,0.00016470992704853415,0.742813766002655,-0.0,-0.005998814012855291,0.8054555654525757,0.0,-0.009607924148440361
349.0,376.0,1.2562,0.2973,9.478,-0.0373,0.0252,-0.1187,-1.6465312443175257,0.0,2.4341719150543213,-1.842136025428772,-0.0,2.090233325958252,4.800096224039354,0.0,0.2861485779285431,-1.5969021956073206,0.0,-0.005878297612071037,0.7427657842636108,-0.0,0.012609523721039295,0.8054876923561096,0.0,-0.011777883395552635
349.0,376.0,1.2562,0.2973,9.478,-0.0373,0.0252,-0.1187,-1.646578928033346,0.0,2.4461982250213623,-1.842187523841858,-0.0,2.0795655250549316,4.800016212254324,0.0,0.28470903635025024,-1.596921745930807,0.0,-0.021812990307807922,0.7427574992179871,-0.0,0.0004396410658955574,0.8054957389831543,0.0,0.02562451735138893
349.0,376.0,1.2562,0.2973,9.478,-0.0373,0.0252,-0.1187,-1.6465832195677699,0.0,2.427790880203247,-1.8422123193740845,-0.0,2.0725786685943604,4.800127784698763,0.0,0.2926676571369171,-1.596877400075094,0.0,-0.0152679942548275,0.742793619632721,-0.0,0.004060931038111448,0.8054715991020203,0.0,-0.011499317362904549
349.0,376.0,1.2562,0.2973,9.478,-0.0373,0.0252,-0.1187,-1.6465350590147914,0.0,2.4197545051574707,-1.8421196937561035,-0.0,2.0658819675445557,4.800076137274065,0.0,0.2868351340293884,-1.596933666859762,0.0,-0.010048954747617245,0.7427255511283875,-0.0,-0.006614848505705595,0.8054959177970886,0.0,-0.009877188131213188
349.0,376.0,1.2562,0.2973,9.478,-0.0373,0.0252,-0.1187,-1.646578928033346,0.0,2.4124221801757812,-1.8421515226364136,-0.0,2.0767288208007812,4.800055998354711,0.0,0.2806725800037384,-1.5968697706805628,0.0,-0.005732027348130941,0.7428176999092102,-0.0,-0.0022504180669784546,0.8054713606834412,0.0,-0.01998371258378029
349.0,376.0,1.2562,0.2973,9.478,-0.0373,0.0252,-0.1187,-1.6465350590147914,0.0,2.3964805603027344,-1.8421916961669922,-0.0,2.0958914756774902,4.800108144968309,0.0,0.2883387506008148,-1.5969775358783167,0.0,-0.004347239620983601,0.7427534461021423,-0.0,-0.009709443897008896,0.8055038452148438,0.0,0.03350212424993515
353.0,382.0,1.3645,0.3458,9.2746,-0.033,0.025,-0.1208,-1.6465431652464808,0.0,2.437629222869873,-1.8421918153762817,-0.0,2.0924763679504395,4.800088192313471,0.0,0.2877168655395508,-1.5968778769122522,0.0,-0.010353820398449898,0.7427657842636108,-0.0,-0.005044832359999418,0.8054715991020203,0.0,0.03867242485284805
353.0,382.0,1.3645,0.3458,9.2746,-0.033,0.025,-0.1208,-1.6465150318541468,0.0,2.4235763549804688,-1.8421835899353027,-0.0,2.0817606449127197,4.800072255521574,0.0,0.28898122906684875,-1.5969060103045862,0.0,-0.0021249880082905293,0.7427256107330322,-0.0,-0.008637811988592148,0.8054233193397522,0.0,-0.0010509651619940996
353.0,382.0,1.3645,0.3458,9.2746,-0.033,0.025,-0.1208,-1.64660706142568,0.0,2.406219720840454,-1.8421751260757446,-0.0,2.1629981994628906,4.800072255521574,0.0,0.2876514792442322,-1.5968735853778284,0.0,-0.006465293932706118,0.7427575588226318,-0.0,0.0007845066720619798,0.8054918646812439,0.0,-0.03969583660364151
353.0,382.0,1.3645,0.3458,9.2746,-0.033,0.025,-0.1208,-1.6466113529601039,0.0,2.4291911125183105,-1.8421711921691895,-0.0,2.115514039993286,4.8000762713845155,0.0,0.292330801486969,-1.5969179312335413,0.0,0.0020158574916422367,0.7428095936775208,-0.0,-0.01124547515064478,0.8054353594779968,0.0,0.01159085612744093
353.0,382.0,1.3645,0.3458,9.2746,-0.033,0.025,-0.1208,-1.6465193233885707,0.0,2.4466850757598877,-1.8421597480773926,-0.0,2.108452320098877,4.800104129105367,0.0,0.30142277479171753,-1.5969060103045862,0.0,-0.0013583896216005087,0.7427494525909424,-0.0,-0.0022390871308743954,0.8054234385490417,0.0,-0.0155018400400877
353.0,382.0,1.3645,0.3458,9.2746,-0.033,0.025,-0.1208,-1.6465832195677699,0.0,2.3980512619018555,-1.842119574546814,-0.0,2.0879476070404053,4.800104129105367,0.0,0.28953543305397034,-1.5969141165362757,0.0,-0.0009853591909632087,0.742817759513855,-0.0,0.006807556375861168,0.805459201335907,0.0,0.007122460752725601
353.0,382.0,1.3645,0.3458,9.2746,-0.033,0.025,-0.1208,-1.6465307674803675,0.0,2.4005918502807617,-1.8421319723129272,-0.0,2.0733840465545654,4.800088400929727,0.0,0.2867622971534729,-1.5969179312335413,0.0,-0.015147572383284569,0.7427657842636108,-0.0,0.0022813205141574144,0.8054555058479309,0.0,0.03491522744297981
353.0,382.0,1.3645,0.3458,9.2746,-0.033,0.025,-0.1208,-1.6465307674803675,0.0,2.4013917446136475,-1.8421400785446167,-0.0,2.057914972305298,4.800092208176412,0.0,0.2977995276451111,-1.5969060103045862,0.0,-0.0045957379043102264,0.7427534461021423,-0.0,-0.0012644100934267044,0.8054193258285522,0.0,0.023335738107562065
353.0,382.0,1.3645,0.3458,9.2746,-0.033,0.025,-0.1208,-1.6466433010497035,0.0,2.4291229248046875,-1.8421556949615479,-0.0,2.0804879665374756,4.800108144968309,0.0,0.2939192056655884,-1.596893612538473,0.0,-0.011015929281711578,0.7428058981895447,-0.0,-0.0020344078075140715,0.8054757118225098,0.0,-0.011919592507183552
353.0,382.0,1.3645,0.3458,9.2746,-0.033,0.025,-0.1208,-1.6465751133360804,0.0,2.380375862121582,-1.8421670198440552,-0.0,2.078948974609375,4.800112160831251,0.0,0.28531306982040405,-1.5969417730914515,0.0,-0.018408911302685738,0.7427412271499634,-0.0,0.005933506414294243,0.8054757118225098,0.0,0.020126253366470337
353.0,382.0,1.3645,0.3458,9.2746,-0.033,0.025,-0.1208,-1.646578928033346,0.0,2.429868221282959,-1.842187762260437,-0.0,2.069549560546875,4.800112160831251,0.0,0.3056347966194153,-1.5968855063067835,0.0,-0.008639968931674957,0.7426972985267639,-0.0,0.003299958072602749,0.8054633736610413,0.0,0.029067084193229675
353.0,382.0,1.3645,0.3458,9.2746,-0.033,0.025,-0.1208,-1.646578928033346,0.0,2.414155960083008,-1.842179298400879,-0.0,2.1134798526763916,4.800104129105367,0.0,0.2978476285934448,-1.596921745930807,0.0,-0.006267708260565996,0.7427452802658081,-0.0,-0.0031235807109624147,0.805451512336731,0.0,-0.014278297312557697
353.0,382.0,1.3645,0.3458,9.2746,-0.033,0.025,-0.1208,-1.646567007104391,0.0,2.402719736099243,-1.8421597480773926,-0.0,2.0902631282806396,4.800084385066786,0.0,0.29122304916381836,-1.5968816916095179,0.0,-0.016003409400582314,0.7427136301994324,-0.0,-0.0061842151917517185,0.8054312467575073,0.0,-0.012116371653974056
353.0,382.0,1.3645,0.3458,9.2746,-0.033,0.025,-0.1208,-1.6465913257994593,0.0,2.4334192276000977,-1.842144250869751,-0.0,2.1287589073181152,4.800080287247457,0.0,0.2928422689437866,-1.596921745930807,0.0,-0.026328643783926964,0.7427452802658081,-0.0,-0.0031952522695064545,0.805435299873352,0.0,0.044992510229349136
353.0,382.0,1.3645,0.3458,9.2746,-0.033,0.025,-0.1208,-1.6465832195677699,0.0,2.425401449203491,-1.8421999216079712,-0.0,2.109241485595703,4.800120326667585,0.0,0.30346405506134033,-1.5969021956073206,0.0,-0.009408470243215561,0.7427776455879211,-0.0,0.0018450830830261111,0.8054311871528625,0.0,-0.01190834678709507
353.0,382.0,1.3645,0.3458,9.2746,-0.033,0.025,-0.1208,-1.6465832195677699,0.0,2.3888473510742188,-1.8421237468719482,-0.0,2.0967583656311035,4.800072255521574,0.0,0.2934659719467163,-1.5969260374652308,0.0,0.0022535868920385838,0.7427697777748108,-0.0,0.00382254715077579,0.8054394125938416,0.0,0.0021548084914684296
353.0,382.0,1.3645,0.3458,9.2746,-0.033,0.025,-0.1208,-1.6465512714781703,0.0,2.399374485015869,-1.8421711921691895,-0.0,2.074594497680664,4.800104337721624,0.0,0.2955534756183624,-1.5969260374652308,0.0,-0.004133113659918308,0.7427616715431213,-0.0,0.007413240149617195,0.805475652217865,0.0,0.02491307072341442
353.0,382.0,1.3645,0.3458,9.2746,-0.033,0.025,-0.1208,-1.646567007104391,0.0,2.4238219261169434,-1.8421711921691895,-0.0,2.0467793941497803,4.800119745522299,0.0,0.29202011227607727,-1.596921745930807,0.0,-0.0051023224368691444,0.7427657842636108,-0.0,0.00348044466227293,0.8054715991020203,0.0,-0.014319987036287785
337.0,391.0,1.2168,0.3308,9.4929,-0.0328,0.0241,-0.1142,-1.646567007104391,0.0,2.3974061012268066,-1.842119574546814,-0.0,2.0759782791137695,4.800104129105367,0.0,0.3013177514076233,-1.5968855063067835,0.0,-0.010776069946587086,0.7427861094474792,-0.0,-0.00835489947348833,0.8054715991020203,0.0,0.04859445244073868
337.0,391.0,1.2168,0.3308,9.4929,-0.0328,0.0241,-0.1142,-1.6465589008727015,0.0,2.414073944091797,-1.8421597480773926,-0.0,2.0588293075561523,4.800064030080595,0.0,0.2934814691543579,-1.596893612538473,0.0,-0.003108946606516838,0.7427735328674316,-0.0,0.004423154983669519,0.805451512336731,0.0,0.006600791588425636
337.0,391.0,1.2168,0.3308,9.4929,-0.0328,0.0241,-0.1142,-1.6465307674803675,0.0,2.4368505477905273,-1.8421237468719482,-0.0,2.0922353267669678,4.80013212093667,0.0,0.2925083339214325,-1.5968855063067835,0.0,-0.00782825704663992,0.7427738308906555,-0.0,-0.004199852701276541,0.8054473996162415,0.0,0.0041496409103274345
337.0,391.0,1.2168,0.3308,9.4929,-0.0328,0.0241,-0.1142,-1.646526952783102,0.0,2.387338161468506,-1.8421434164047241,-0.0,2.0837364196777344,4.800108144968309,0.0,0.2911105155944824,-1.596877400075094,0.0,-0.0025082742795348167,0.7428017258644104,-0.0,-0.007391578983515501,0.8054754137992859,0.0,0.011241493746638298
337.0,391.0,1.2168,0.3308,9.4929,-0.0328,0.0241,-0.1142,-1.6465307674803675,0.0,2.3679161071777344,-1.842179298400879,-0.0,2.0807175636291504,4.800119790225782,0.0,0.2988020181655884,-1.5969298521624964,0.0,-0.004694891162216663,0.7427136301994324,-0.0,-0.008630521595478058,0.8054876923561096,0.0,0.013131734915077686
337.0,391.0,1.2168,0.3308,9.4929,-0.0328,0.0241,-0.1142,-1.6465627155699671,0.0,2.4318859577178955,-1.842144250869751,-0.0,2.1000020503997803,4.800092208176412,0.0,0.29030299186706543,-1.5969260374652308,0.0,-0.000370177673175931,0.7427255511283875,-0.0,-0.000714913650881499,0.8054473400115967,0.0,0.026818670332431793
337.0,391.0,1.2168,0.3308,9.4929,-0.0328,0.0241,-0.1142,-1.646595140496725,0.0,2.4056501388549805,-1.8421556949615479,-0.0,2.0773844718933105,4.800048093288698,0.0,0.28041985630989075,-1.5968979040728968,0.0,-0.01119482982903719,0.742793619632721,-0.0,-0.0008191214874386787,0.8054394125938416,0.0,0.03829936310648918
337.0,391.0,1.2168,0.3308,9.4929,-0.0328,0.0241,-0.1142,-1.6465469799437464,0.0,2.438746690750122,-1.8421070575714111,-0.0,2.0714566707611084,4.8001360324914835,0.0,0.2942292094230652,-1.5968735853778284,0.0,-0.025998249650001526,0.7427817583084106,-0.0,0.007668814621865749,0.8054555654525757,0.0,-0.033212147653102875
337.0,391.0,1.2168,0.3308,9.4929,-0.0328,0.0241,-0.1142,-1.6465431652464808,0.0,2.4168972969055176,-1.8421597480773926,-0.0,2.0441834926605225,4.800116303354063,0.0,0.2917156517505646,-1.596933666859762,0.0,-0.006081160623580217,0.7427453398704529,-0.0,0.002034065779298544,0.8054270148277283,0.0,-0.008720326237380505
337.0,391.0,1.2168,0.3308,9.4929,-0.0328,0.0241,-0.1142,-1.6465832195677699,0.0,2.4020063877105713,-1.8421638011932373,-0.0,2.0632829666137695,4.800108167320051,0.0,0.29454106092453003,-1.5969098250018519,0.0,-0.01307564228773117,0.742777943611145,-0.0,-0.007047135848551989,0.8055039644241333,0.0,-0.012040495872497559
337.0,391.0,1.2168,0.3308,9.4929,-0.0328,0.0241,-0.1142,-1.646595140496725,0.0,2.3772058486938477,-1.842187523841858,-0.0,2.03818678855896,4.800059984415331,0.0,0.28509461879730225,-1.5969021956073206,0.0,-0.0028150188736617565,0.7427657246589661,-0.0,-0.0006388889160007238,0.805459201335907,0.0,-0.02448640950024128
337.0,391.0,1.2168,0.3308,9.4929,-0.0328,0.0241,-0.1142,-1.6465150318541468,0.0,2.4292173385620117,-1.8421752452850342,-0.0,2.0778322219848633,4.800084385066786,0.0,0.2879916727542877,-1.5968974272357386,0.0,0.004508274141699076,0.7427534461021423,-0.0,-0.014477210119366646,0.805443525314331,0.0,0.022871311753988266
337.0,391.0,1.2168,0.3308,9.4929,-0.0328,0.0241,-0.1142,-1.6465870342650355,0.0,2.362197160720825,-1.842144250869751,-0.0,2.0967941284179688,4.80010815986947,0.0,0.282630980014801,-1.596921745930807,0.0,0.004268835764378309,0.7427136301994324,-0.0,0.007157479412853718,0.8054473400115967,0.0,0.012089371681213379
337.0,391.0,1.2168,0.3308,9.4929,-0.0328,0.0241,-0.1142,-1.6465431652464808,0.0,2.4333364963531494,-1.8421597480773926,-0.0,2.055656909942627,4.800076263933935,0.0,0.2877243757247925,-1.596933666859762,0.0,-0.004764883778989315,0.7426531910896301,-0.0,-0.0006214180029928684,0.805459201335907,0.0,0.021478470414876938
337.0,391.0,1.2168,0.3308,9.4929,-0.0328,0.0241,-0.1142,-1.6465307674803675,0.0,2.412287712097168,-1.8421670198440552,-0.0,2.0648629665374756,4.80011976042346,0.0,0.2993220090866089,-1.5969536940204065,0.0,-0.00819849967956543,0.7426932454109192,-0.0,-0.01536509022116661,0.8055039048194885,0.0,-0.016754262149333954
337.0,391.0,1.2168,0.3308,9.4929,-0.0328,0.0241,-0.1142,-1.6465627155699671,0.0,2.37638258934021,-1.842187762260437,-0.0,2.051602363586426,4.800124357431688,0.0,0.30100226402282715,-1.5969260374652308,0.0,-0.002597618382424116,0.7427452802658081,-0.0,-0.0009813702199608088,0.805451512336731,0.0,0.008966797031462193
337.0,391.0,1.2168,0.3308,9.4929,-0.0328,0.0241,-0.1142,-1.6465350590147914,0.0,2.387953758239746,-1.842187762260437,-0.0,2.068927764892578,4.800024162023821,0.0,0.2949194312095642,-1.596893612538473,0.0,-0.018084701150655746,0.7427494525909424,-0.0,-0.0045799813233315945,0.8054555654525757,0.0,-0.007521502673625946
348.0,388.0,1.2909,0.3476,9.4277,-0.0287,0.0255,-0.1231,-1.646578928033346,0.0,2.404094696044922,-1.842136025428772,-0.0,2.0628855228424072,4.80000818052844,0.0,0.2916851043701172,-1.5969260374652308,0.0,-0.008906505070626736,0.7427136301994324,-0.0,0.00016487331595271826,0.8055039048194885,0.0,-0.02432383969426155
348.0,388.0,1.2909,0.3476,9.4277,-0.0287,0.0255,-0.1231,-1.6465832195677699,0.0,2.4065027236938477,-1.8421835899353027,-0.0,2.086048126220703,4.8001122055347345,0.0,0.298980176448822,-1.596893612538473,0.0,-0.009400159120559692,0.7427014112472534,-0.0,-0.0004313797689974308,0.8054353594779968,0.0,0.018159452825784683
348.0,388.0,1.2909,0.3476,9.4277,-0.0287,0.0255,-0.1231,-1.64652742962026,0.0,2.41782283782959,-1.842179298400879,-0.0,2.1208834648132324,4.800072270422735,0.0,0.2917109429836273,-1.596893612538473,0.0,-0.011211742646992207,0.7427936792373657,-0.0,-0.020252488553524017,0.8054596781730652,0.0,0.005014436319470406
348.0,388.0,1.2909,0.3476,9.4277,-0.0287,0.0255,-0.1231,-1.6465627155699671,0.0,2.414642333984375,-1.8422279357910156,-0.0,2.131301164627075,4.800063992827692,0.0,0.29329121112823486,-1.596921745930807,0.0,-0.01398482359945774,0.7427616119384766,-0.0,-0.011837446130812168,0.8054394125938416,0.0,-0.015864914283156395
348.0,388.0,1.2909,0.3476,9.4277,-0.0287,0.0255,-0.1231,-1.64652742962026,0.0,2.3777871131896973,-1.8421318531036377,-0.0,2.074225902557373,4.80011976042346,0.0,0.29747214913368225,-1.5969417730914515,0.0,-0.014160501770675182,0.7427776455879211,-0.0,0.005488208960741758,0.8054633736610413,0.0,-0.0006924078334122896
348.0,388.0,1.2909,0.3476,9.4277,-0.0287,0.0255,-0.1231,-1.6465751133360804,0.0,2.420905113220215,-1.8421474695205688,-0.0,2.0749526023864746,4.80013187506751,0.0,0.29268717765808105,-1.5968778769122522,0.0,-0.006519454997032881,0.7427418231964111,-0.0,-0.01330524031072855,0.8054555654525757,0.0,-0.04311155900359154
348.0,388.0,1.2909,0.3476,9.4277,-0.0287,0.0255,-0.1231,-1.646578928033346,0.0,2.412755250930786,-1.8421279191970825,-0.0,2.0727856159210205,4.800072225719251,0.0,0.29355740547180176,-1.5968816916095179,0.0,-0.008000622503459454,0.742813766002655,-0.0,-0.0033491402864456177,0.8054876923561096,0.0,0.022178400307893753
348.0,388.0,1.2909,0.3476,9.4277,-0.0287,0.0255,-0.1231,-1.6465913257994593,0.0,2.377229690551758,-1.8421319723129272,-0.0,2.096839427947998,4.800052079349317,0.0,0.2849466800689697,-1.5969260374652308,0.0,0.001258245320059359,0.7427735328674316,-0.0,0.0032190093770623207,0.8054234385490417,0.0,0.013452200219035149
348.0,388.0,1.2909,0.3476,9.4277,-0.0287,0.0255,-0.1231,-1.6465307674803675,0.0,2.463799476623535,-1.8422163724899292,-0.0,2.0877041816711426,4.800072158664026,0.0,0.287531316280365,-1.5969021956073206,0.0,-0.0043082693591713905,0.7427095174789429,-0.0,-0.0030011232011020184,0.8054514527320862,0.0,-0.005077620968222618
348.0,388.0,1.2909,0.3476,9.4277,-0.0287,0.0255,-0.1231,-1.6465431652464808,0.0,2.4015867710113525,-1.8421565294265747,-0.0,2.0483450889587402,4.800104129105367,0.0,0.28572729229927063,-1.5969379583941858,0.0,0.005294769536703825,0.7427178025245667,-0.0,-0.013338029384613037,0.805475652217865,0.0,-0.012257860973477364
348.0,388.0,1.2909,0.3476,9.4277,-0.0287,0.0255,-0.1231,-1.646595140496725,0.0,2.3624677658081055,-1.8421958684921265,-0.0,2.0911712646484375,4.800055946200647,0.0,0.2794461250305176,-1.596933666859762,0.0,-0.01478649489581585,0.7427418231964111,-0.0,0.0028751762583851814,0.8054555654525757,0.0,0.013829989358782768
348.0,388.0,1.2909,0.3476,9.4277,-0.0287,0.0255,-0.1231,-1.6465708218016566,0.0,2.4030961990356445,-1.8421556949615479,-0.0,2.0585556030273438,4.800123791187563,0.0,0.2985781133174896,-1.5969536940204065,0.0,-0.004048637580126524,0.742793619632721,-0.0,-0.0006191564025357366,0.8054353594779968,0.0,-0.021144598722457886
348.0,388.0,1.2909,0.3476,9.4277,-0.0287,0.0255,-0.1231,-1.6465431652464808,0.0,2.4061195850372314,-1.8422082662582397,-0.0,2.1136066913604736,4.800076256483354,0.0,0.29235607385635376,-1.5968697706805628,0.0,-0.003190955612808466,0.7427694797515869,-0.0,0.00044478545896708965,0.8054633736610413,0.0,-0.0412030927836895
348.0,388.0,1.2909,0.3476,9.4277,-0.0287,0.0255,-0.1231,-1.6465832195677699,0.0,2.428757667541504,-1.842179298400879,-0.0,2.0860414505004883,4.800111698895254,0.0,0.289825975894928,-1.596921745930807,0.0,-0.01523958332836628,0.7427452802658081,-0.0,-2.1747429855167866e-05,0.805499792098999,0.0,-0.04157743230462074
348.0,388.0,1.2909,0.3476,9.4277,-0.0287,0.0255,-0.1231,-1.6465751133360804,0.0,2.4210472106933594,-1.842167854309082,-0.0,2.0994014739990234,4.800072158664026,0.0,0.2914624810218811,-1.5969579855548304,0.0,-0.005532121751457453,0.742685079574585,-0.0,-0.004611845128238201,0.8054633736610413,0.0,0.011325128376483917
348.0,388.0,1.2909,0.3476,9.4277,-0.0287,0.0255,-0.1231,-1.6465193233885707,0.0,2.410818099975586,-1.8421483039855957,-0.0,2.103762626647949,4.800092208176412,0.0,0.28583139181137085,-1.5968697706805628,0.0,0.0023149694316089153,0.7427817583084106,-0.0,-0.0033157006837427616,0.8054876923561096,0.0,0.023411812260746956
348.0,388.0,1.2909,0.3476,9.4277,-0.0287,0.0255,-0.1231,-1.6465832195677699,0.0,2.3879714012145996,-1.8421999216079712,-0.0,2.0881474018096924,4.800100344210424,0.0,0.282748818397522,-1.5969417730914515,0.0,0.0001382194459438324,0.7427217960357666,-0.0,-0.0068662092089653015,0.8054596781730652,0.0,0.025666292756795883
348.0,388.0,1.2909,0.3476,9.4277,-0.0287,0.0255,-0.1231,-1.6465546093382777,0.0,2.4287939071655273,-1.8421670198440552,-0.0,2.114044427871704,4.80010815986947,0.0,0.3086049258708954,-1.5969379583941858,0.0,-0.014004308730363846,0.7427136301994324,-0.0,-0.012788854539394379,0.8054596781730652,0.0,-0.022282805293798447
357.0,382.0,1.3735,0.3936,9.1843,-0.0425,0.0324,-0.1283,-1.6465832195677699,0.0,2.3824167251586914,-1.8421474695205688,-0.0,2.1190991401672363,4.800084228604593,0.0,0.2958270013332367,-1.5968778769122522,0.0,-0.011201242916285992,0.7427173852920532,-0.0,-0.011962505988776684,0.8054918646812439,0.0,-0.038863446563482285
357.0,382.0,1.3735,0.3936,9.1843,-0.0425,0.0324,-0.1283,-1.646567007104391,0.0,2.4268698692321777,-1.842136025428772,-0.0,2.042538642883301,4.8001360324914835,0.0,0.30042171478271484,-1.5968816916095179,0.0,-0.007619716227054596,0.7427657842636108,-0.0,-0.010175051167607307,0.8054394125938416,0.0,0.023582225665450096
357.0,382.0,1.3735,0.3936,9.1843,-0.0425,0.0324,-0.1283,-1.6465751133360804,0.0,2.39692759513855,-1.8421558141708374,-0.0,2.090070962905884,4.80010815986947,0.0,0.29417532682418823,-1.596893612538473,0.0,-0.005841425620019436,0.7427657842636108,-0.0,0.01173234824091196,0.805503785610199,0.0,-0.06829444319009781
357.0,382.0,1.3735,0.3936,9.1843,-0.0425,0.0324,-0.1283,-1.6465193233885707,0.0,2.3846347332000732,-1.8421483039855957,-0.0,2.092304229736328,4.800024057715692,0.0,0.29253047704696655,-1.596921745930807,0.0,-0.006176971830427647,0.7427338361740112,-0.0,0.0012066247873008251,0.8054030537605286,0.0,0.004071424249559641
357.0,382.0,1.3735,0.3936,9.1843,-0.0425,0.0324,-0.1283,-1.6465469799437464,0.0,2.4394690990448,-1.842144250869751,-0.0,2.0685501098632812,4.800096238940515,0.0,0.285814106464386,-1.5968979040728968,0.0,-0.01445285975933075,0.742721438407898,-0.0,-0.01890609785914421,0.8054835796356201,0.0,-0.01046637911349535
357.0,382.0,1.3735,0.3936,9.1843,-0.0425,0.0324,-0.1283,-1.6465431652464808,0.0,2.447054862976074,-1.8421752452850342,-0.0,2.083507776260376,4.800144086569109,0.0,0.29490864276885986,-1.5969298521624964,0.0,-0.004981033504009247,0.7427977919578552,-0.0,-0.0056232307106256485,0.80549156665802,0.0,-0.0044684624299407005
357.0,382.0,1.3735,0.3936,9.1843,-0.0425,0.0324,-0.1283,-1.6465913257994593,0.0,2.397644281387329,-1.8421918153762817,-0.0,2.1194372177124023,4.800092454045572,0.0,0.29248058795928955,-1.596933666859762,0.0,0.001189757720567286,0.7427452802658081,-0.0,-0.0014134787488728762,0.805499792098999,0.0,0.017261382192373276
357.0,382.0,1.3735,0.3936,9.1843,-0.0425,0.0324,-0.1283,-1.6465307674803675,0.0,2.4082324504852295,-1.842204213142395,-0.0,2.1046550273895264,4.800127821951666,0.0,0.29100367426872253,-1.5969417730914515,0.0,-0.002290991833433509,0.7427337765693665,-0.0,0.0020414539612829685,0.8055038452148438,0.0,-0.000628388486802578
357.0,382.0,1.3735,0.3936,9.1843,-0.0425,0.0324,-0.1283,-1.6465469799437464,0.0,2.3962979316711426,-1.842127799987793,-0.0,2.060730457305908,4.800055961101808,0.0,0.27879613637924194,-1.5968578497516077,0.0,-0.005470819305628538,0.7427377700805664,-0.0,-0.008098512887954712,0.8055080771446228,0.0,-0.034345146268606186
357.0,382.0,1.3735,0.3936,9.1843,-0.0425,0.0324,-0.1283,-1.6465913257994593,0.0,2.402963638305664,-1.8422000408172607,-0.0,2.058002233505249,4.800084399967947,0.0,0.292239248752594,-1.596854035054342,0.0,-0.007219398394227028,0.7427616119384766,-0.0,0.0011119656264781952,0.8054715991020203,0.0,0.005196476820856333
357.0,382.0,1.3735,0.3936,9.1843,-0.0425,0.0324,-0.1283,-1.646567007104391,0.0,2.4231667518615723,-1.842187762260437,-0.0,2.0768089294433594,4.800072225719251,0.0,0.2947108745574951,-1.596893612538473,0.0,-0.004962473176419735,0.7427095174789429,-0.0,-0.009986711665987968,0.8054555654525757,0.0,-0.02657238021492958
357.0,382.0,1.3735,0.3936,9.1843,-0.0425,0.0324,-0.1283,-1.6465627155699671,0.0,2.3840880393981934,-1.8422040939331055,-0.0,2.07963228225708,4.800092208176412,0.0,0.29860082268714905,-1.596893612538473,0.0,-0.008059628307819366,0.7427494525909424,-0.0,0.00062235735822469,0.8054715394973755,0.0,0.016718242317438126
357.0,382.0,1.3735,0.3936,9.1843,-0.0425,0.0324,-0.1283,-1.6465431652464808,0.0,2.4081852436065674,-1.842136025428772,-0.0,2.065207004547119,4.800084399967947,0.0,0.29553985595703125,-1.5969298521624964,0.0,0.0006300320383161306,0.7428058385848999,-0.0,-0.004857948515564203,0.8054476380348206,0.0,-0.005984030663967133
357.0,382.0,1.3735,0.3936,9.1843,-0.0425,0.0324,-0.1283,-1.6465832195677699,0.0,2.389241933822632,-1.8421516418457031,-0.0,2.0643773078918457,4.800080287247457,0.0,0.2964244484901428,-1.5968697706805628,0.0,-0.01145244762301445,0.7427255511283875,-0.0,0.0018618172034621239,0.8054798245429993,0.0,-0.0016611184692010283
357.0,382.0,1.3735,0.3936,9.1843,-0.0425,0.0324,-0.1283,-1.646567007104391,0.0,2.3828177452087402,-1.8421835899353027,-0.0,2.1043143272399902,4.800116295903482,0.0,0.3002777695655823,-1.5968897978412073,0.0,-0.016120068728923798,0.7426891326904297,-0.0,-0.01167590357363224,0.8054715394973755,0.0,0.06850190460681915
357.0,382.0,1.3735,0.3936,9.1843,-0.0425,0.0324,-0.1283,-1.646595140496725,0.0,2.4138307571411133,-1.8421483039855957,-0.0,2.0701518058776855,4.800104129105367,0.0,0.3037523627281189,-1.5969098250018519,0.0,-0.0016015868168324232,0.7427300214767456,-0.0,-0.006693928502500057,0.805435299873352,0.0,0.011483949609100819
357.0,382.0,1.3735,0.3936,9.1843,-0.0425,0.0324,-0.1283,-1.646567007104391,0.0,2.430457353591919,-1.842203974723816,-0.0,2.1049373149871826,4.800084399967947,0.0,0.29197055101394653,-1.5969179312335413,0.0,-0.002071482129395008,0.7427178025245667,-0.0,-0.0022302826400846243,0.8054918646812439,0.0,-0.01990743726491928
355.0,371.0,1.1605,0.3147,9.6162,-0.0315,0.0162,-0.1017,-1.6465150318541468,0.0,2.382493257522583,-1.8422123193740845,-0.0,2.067323684692383,4.800096238940515,0.0,0.2852039933204651,-1.596921745930807,0.0,-0.0029442489612847567,0.7427857518196106,-0.0,-0.0045565650798380375,0.8054877519607544,0.0,-0.04174240678548813
355.0,371.0,1.1605,0.3147,9.6162,-0.0315,0.0162,-0.1017,-1.646595140496725,0.0,2.409146547317505,-1.8421597480773926,-0.0,2.0826611518859863,4.800055961101808,0.0,0.3051498234272003,-1.5969060103045862,0.0,-0.002410076791420579,0.7427817583084106,-0.0,-0.014848701655864716,0.8054674863815308,0.0,0.0017197401029989123
355.0,371.0,1.1605,0.3147,9.6162,-0.0315,0.0162,-0.1017,-1.6465512714781703,0.0,2.40217661857605,-1.8421556949615479,-0.0,2.0978665351867676,4.800100344210424,0.0,0.29862380027770996,-1.5969060103045862,0.0,-0.0018744532717391849,0.742805540561676,-0.0,0.004230760969221592,0.8054432272911072,0.0,0.047222647815942764
355.0,371.0,1.1605,0.3147,9.6162,-0.0315,0.0162,-0.1017,-1.6465627155699671,0.0,2.442004680633545,-1.842144250869751,-0.0,2.0820393562316895,4.800096246391096,0.0,0.28050974011421204,-1.5968974272357386,0.0,0.00022325548343360424,0.7427657842636108,-0.0,-0.0009641792858019471,0.8054271340370178,0.0,-0.0019682031124830246
355.0,371.0,1.1605,0.3147,9.6162,-0.0315,0.0162,-0.1017,-1.6466113529601039,0.0,2.4382519721984863,-1.842119574546814,-0.0,2.0633902549743652,4.800088177412309,0.0,0.2979204058647156,-1.5969260374652308,0.0,-0.002109019784256816,0.7427775859832764,-0.0,-0.017956973984837532,0.8054357767105103,0.0,-0.01239182148128748
355.0,371.0,1.1605,0.3147,9.6162,-0.0315,0.0162,-0.1017,-1.6465307674803675,0.0,2.3841564655303955,-1.842136025428772,-0.0,2.066105604171753,4.800092208176412,0.0,0.306666761636734,-1.596945587788717,0.0,8.38087871670723e-05,0.742817759513855,-0.0,0.0001754631521180272,0.8055039644241333,0.0,0.009298043325543404
355.0,371.0,1.1605,0.3147,9.6162,-0.0315,0.0162,-0.1017,-1.6465994320311488,0.0,2.4105584621429443,-1.8421751260757446,-0.0,2.0890159606933594,4.800080287247457,0.0,0.27669253945350647,-1.596893612538473,0.0,0.008782027289271355,0.7427289485931396,-0.0,0.0037758229300379753,0.8055080771446228,0.0,-0.03833964839577675
355.0,371.0,1.1605,0.3147,9.6162,-0.0315,0.0162,-0.1017,-1.6465469799437464,0.0,2.397895336151123,-1.8421597480773926,-0.0,2.1033987998962402,4.800072158664026,0.0,0.30190223455429077,-1.5969060103045862,0.0,-0.004640394821763039,0.7427136301994324,-0.0,-0.0015889245551079512,0.8054476380348206,0.0,-0.0005283504724502563
355.0,371.0,1.1605,0.3147,9.6162,-0.0315,0.0162,-0.1017,-1.646639963189596,0.0,2.3836777210235596,-1.842144250869751,-0.0,2.0700855255126953,4.800092208176412,0.0,0.28452450037002563,-1.5969060103045862,0.0,-0.002915999386459589,0.7426855564117432,-0.0,-0.011473112739622593,0.8054674863815308,0.0,-0.012591611593961716
355.0,371.0,1.1605,0.3147,9.6162,-0.0315,0.0162,-0.1017,-1.6465350590147914,0.0,2.466003179550171,-1.8421474695205688,-0.0,2.137047052383423,4.800148199289598,0.0,0.2982802093029022,-1.5969260374652308,0.0,-0.010926361195743084,0.7426892518997192,-0.0,0.0021059787832200527,0.8053905963897705,0.0,-0.007717392407357693
355.0,371.0,1.1605,0.3147,9.6162,-0.0315,0.0162,-0.1017,-1.6465193233885707,0.0,2.365436553955078,-1.8422000408172607,-0.0,2.0715842247009277,4.800072225719251,0.0,0.29716214537620544,-1.596893612538473,0.0,-0.0051001254469156265,0.7427418828010559,-0.0,-0.02287830226123333,0.8054957389831543,0.0,-0.016178425401449203
355.0,371.0,1.1605,0.3147,9.6162,-0.0315,0.0162,-0.1017,-1.6465193233885707,0.0,2.398524045944214,-1.8421670198440552,-0.0,2.091405153274536,4.800068127899923,0.0,0.2939031720161438,-1.596893612538473,0.0,0.011641268618404865,0.7427735328674316,-0.0,-0.012584662064909935,0.8054596781730652,0.0,0.016696061939001083
355.0,371.0,1.1605,0.3147,9.6162,-0.0315,0.0162,-0.1017,-1.6465627155699671,0.0,2.385582447052002,-1.8421916961669922,-0.0,2.1073062419891357,4.800104136555948,0.0,0.3001043200492859,-1.5968897978412073,0.0,0.001302237156778574,0.7427338361740112,-0.0,-0.009703345596790314,0.8054596781730652,0.0,0.014847964979708195
355.0,371.0,1.1605,0.3147,9.6162,-0.0315,0.0162,-0.1017,-1.6465350590147914,0.0,2.4053938388824463,-1.8421474695205688,-0.0,2.0799317359924316,4.800100344210424,0.0,0.29582905769348145,-1.5969379583941858,0.0,-0.004299496300518513,0.7427255511283875,-0.0,-0.006440469529479742,0.8054394125938416,0.0,0.012323709204792976
355.0,371.0,1.1605,0.3147,9.6162,-0.0315,0.0162,-0.1017,-1.6465431652464808,0.0,2.425281047821045,-1.8422237634658813,-0.0,2.099529504776001,4.800055961101808,0.0,0.27934157848358154,-1.596921745930807,0.0,-0.003907498903572559,0.7427616119384766,-0.0,-0.0005945198936387897,0.805427074432373,0.0,-0.037725068628787994
355.0,371.0,1.1605,0.3147,9.6162,-0.0315,0.0162,-0.1017,-1.6466113529601039,0.0,2.412565231323242,-1.8421114683151245,-0.0,2.02594256401062,4.800092208176412,0.0,0.27903032302856445,-1.596893612538473,0.0,0.0008056359365582466,0.7427657842636108,-0.0,-0.0007075951434671879,0.8054391145706177,0.0,-0.02719811722636223
355.0,371.0,1.1605,0.3147,9.6162,-0.0315,0.0162,-0.1017,-1.6465193233885707,0.0,2.3915224075317383,-1.8421751260757446,-0.0,2.09265398979187,4.8001203192170045,0.0,0.2838664650917053,-1.5969021956073206,0.0,-0.015356418676674366,0.7427258491516113,-0.0,0.003213813528418541,0.8054510354995728,0.0,0.034776799380779266
355.0,371.0,1.1605,0.3147,9.6162,-0.0315,0.0162,-0.1017,-1.6465589008727015,0.0,2.4339089393615723,-1.8421597480773926,-0.0,2.0738372802734375,4.800096238940515,0.0,0.2973431944847107,-1.596933666859762,0.0,-0.0020113838836550713,0.7427136301994324,-0.0,0.0032477709464728832,0.8054596781730652,0.0,-0.012613490223884583
344.0,390.0,1.3944,0.1328,9.4714,-0.0415,0.0195,-0.1168,-1.6465307674803675,0.0,2.4133782386779785,-1.842187523841858,-0.0,2.0896663665771484,4.800088177412309,0.0,0.29294317960739136,-1.5969260374652308,0.0,-0.006150861270725727,0.7427657842636108,-0.0,-0.0010018907487392426,0.8054674863815308,0.0,-0.006149671971797943
344.0,390.0,1.3944,0.1328,9.4714,-0.0415,0.0195,-0.1168,-1.6465431652464808,0.0,2.426940441131592,-1.8421515226364136,-0.0,2.1177566051483154,4.800140055805006,0.0,0.2949570119380951,-1.596933666859762,0.0,-0.009198550134897232,0.7427452802658081,-0.0,0.007525898050516844,0.8054998517036438,0.0,0.003343864344060421
344.0,390.0,1.3944,0.1328,9.4714,-0.0415,0.0195,-0.1168,-1.6465589008727015,0.0,2.439188003540039,-1.8421916961669922,-0.0,2.076855421066284,4.80010815986947,0.0,0.29965072870254517,-1.5968897978412073,0.0,0.002842170186340809,0.7427697777748108,-0.0,0.00017793313600122929,0.805451512336731,0.0,-0.017712721601128578
344.0,390.0,1.3944,0.1328,9.4714,-0.0415,0.0195,-0.1168,-1.6465031109251917,0.0,2.4039196968078613,-1.8421556949615479,-0.0,2.0795106887817383,4.800131912320413,0.0,0.28605175018310547,-1.5969021956073206,0.0,0.006403408944606781,0.7427178025245667,-0.0,-0.008689383044838905,0.8054110407829285,0.0,0.02427729219198227
344.0,390.0,1.3944,0.1328,9.4714,-0.0415,0.0195,-0.1168,-1.6465746364989222,0.0,2.4368085861206055,-1.8421958684921265,-0.0,2.0574564933776855,4.800068105548181,0.0,0.29412955045700073,-1.5969179312335413,0.0,-0.002624800894409418,0.7427217960357666,-0.0,-0.015909705311059952,0.8055077195167542,0.0,-0.018908947706222534
344.0,390.0,1.3944,0.1328,9.4714,-0.0415,0.0195,-0.1168,-1.6465431652464808,0.0,2.422412872314453,-1.8421556949615479,-0.0,2.067791223526001,4.800136047392645,0.0,0.29875999689102173,-1.5968735853778284,0.0,-0.007279822137206793,0.7427337765693665,-0.0,-0.0031739724799990654,0.805475652217865,0.0,-0.045779578387737274
344.0,390.0,1.3944,0.1328,9.4714,-0.0415,0.0195,-0.1168,-1.6465188465514125,0.0,2.4129836559295654,-1.842136025428772,-0.0,2.1139297485351562,4.800096238940515,0.0,0.29495978355407715,-1.5969179312335413,0.0,-0.00211288221180439,0.7428259253501892,-0.0,0.003144576447084546,0.805451512336731,0.0,-0.004705669358372688
344.0,390.0,1.3944,0.1328,9.4714,-0.0415,0.0195,-0.1168,-1.646595140496725,0.0,2.424891471862793,-1.8421516418457031,-0.0,2.0656166076660156,4.800123984902658,1.5048804868911247e-08,0.2858342230319977,-1.5969417730914515,0.0,-0.010499796830117702,0.7427574992179871,-0.0,-0.0015652376459911466,0.8055159449577332,0.0,-0.015635788440704346
344.0,390.0,1.3944,0.1328,9.4714,-0.0415,0.0195,-0.1168,-1.6464992962279261,0.0,2.386526346206665,-1.842204213142395,-0.0,2.080394983291626,4.800084228604593,6.415542402882224e-11,0.2974507212638855,-1.596921745930807,0.0,-0.004871835932135582,0.7427296042442322,-0.0,0.0031051444821059704,0.8054674863815308,0.0,-0.03235273435711861
344.0,390.0,1.3944,0.1328,9.4714,-0.0415,0.0195,-0.1168,-1.6465193233885707,0.0,2.433333396911621,-1.8421558141708374,-0.0,2.092359781265259,4.800096238940515,1.7857899065206427e-14,0.293085515499115,-1.5968816916095179,0.0,-0.013780174776911736,0.7427255511283875,-0.0,-0.009012524969875813,0.8054836392402649,0.0,-0.06911257654428482
344.0,390.0,1.3944,0.1328,9.4714,-0.0415,0.0195,-0.1168,-1.6465350590147914,0.0,2.3953757286071777,-1.8421155214309692,-0.0,2.0983872413635254,4.800091999560156,7.61310168967511e-17,0.3015170991420746,-1.596945587788717,0.0,-0.01531510055065155,0.7427296042442322,-0.0,-0.003040195442736149,0.8054633736610413,0.0,0.009921025484800339
344.0,390.0,1.3944,0.1328,9.4714,-0.0415,0.0195,-0.1168,-1.6465312443175257,0.0,2.411092758178711,-1.8421276807785034,3.1622374763173866e-07,2.128450632095337,4.800111698895254,2.1191349473714217e-20,0.2965703010559082,-1.5969575087176722,0.0,0.003152721095830202,0.7427411675453186,-0.0,0.0007192404009401798,0.8055481314659119,0.0,-0.0015476900152862072
344.0,390.0,1.3944,0.1328,9.4714,-0.0415,0.0195,-0.1168,-1.6465512714781703,0.0008785559330135584,2.4476144313812256,-1.8421752452850342,5.6919160357216114e-11,2.0821478366851807,4.800136054843225,9.034203587280382e-23,0.291859894990921,-1.5969575087176722,0.0,-0.008806826546788216,0.7427858114242554,-0.0,-0.011591702699661255,0.8054994940757751,0.0010535001056268811,0.0014122817665338516
344.0,390.0,1.3944,0.1328,9.4714,-0.0415,0.0195,-0.1168,-1.6464868984618128,0.0008366787806153297,2.3820924758911133,-1.8421080112457275,0.0013240318512544036,2.1533148288726807,4.800127851753988,2.514703522495529e-26,0.29595428705215454,-1.5969622770892542,0.0,-0.0015221163630485535,0.7427772283554077,-0.0,-0.00800350308418274,0.8055316805839539,0.0023900065571069717,-3.4807948395609856e-05
344.0,390.0,1.3944,0.1328,9.4714,-0.0415,0.0195,-0.1168,-1.6465031109251917,0.0006837788969278336,2.4140303134918213,-1.842076063156128,0.0013075945898890495,2.0739827156066895,4.800127941160955,6.999769813383873e-30,0.28810471296310425,-1.5969541708575647,-2.256894937602283e-08,-0.022327851504087448,0.7427288889884949,-0.0,-0.0068394956178963184,0.8055516481399536,0.003513026749715209,-0.021090300753712654
344.0,390.0,1.3944,0.1328,9.4714,-0.0415,0.0195,-0.1168,-1.6465150318541468,0.0005746016395278275,2.412899971008301,-1.8421193361282349,0.0011455812491476536,2.087094306945801,4.80010415890769,2.9841117222389853e-32,0.288263201713562,-1.5970099608050745,-9.621495961065207e-11,-0.013595398515462875,0.7427616715431213,-0.0,-0.004991872701793909,0.8055434226989746,0.004681145306676626,0.005133945029228926
344.0,390.0,1.3944,0.1328,9.4714,-0.0415,0.0195,-0.1168,-1.6464907131590785,0.00039092451333999634,2.450922966003418,-1.8421193361282349,0.0009815972298383713,2.066070556640625,4.800127963512697,8.306384309175696e-36,0.2950214743614197,-1.596945587788717,-2.6781785881883902e-14,-0.006958089303225279,0.742813766002655,-0.0,-0.0015117370057851076,0.8056117296218872,0.005339172203093767,0.020880475640296936
344.0,390.0,1.3944,0.1328,9.4714,-0.0415,0.0195,-0.1168,-1.6464868984618128,0.00033301758230663836,2.4175593852996826,-1.8421235084533691,0.0008209660300053656,2.079758644104004,4.800080138235845,3.5411420357021644e-38,0.2887432277202606,-1.5969813505755823,-1.1417494585730636e-16,-0.0083381999284029,0.7427817583084106,-0.0,-0.002924541011452675,0.8056236505508423,0.005247483029961586,-0.024821829050779343
352.0,391.0,1.1898,0.3314,9.5761,-0.056,0.0173,-0.1161,-1.6464907131590785,0.0003270074666943401,2.4198451042175293,-1.842116117477417,0.0005637107533402741,2.061919689178467,4.800100150495329,9.856733398060763e-42,0.2901327311992645,-1.5970256964312952,-3.1781019073194646e-20,-0.002976403571665287,0.7428017258644104,-0.0,0.007189732510596514,0.8056680560112,0.004132774658501148,-0.03245263919234276
352.0,391.0,1.1898,0.3314,9.5761,-0.056,0.0173,-0.1161,-1.646487375298971,0.0003221968072466552,2.4158124923706055,-1.842107892036438,0.0004292314115446061,2.094876527786255,4.800136054843225,2.802596928649634e-45,0.29701897501945496,-1.596949879323141,-8.846363499517138e-24,0.008177957497537136,0.742793619632721,-0.0,-0.004808282945305109,0.8056716918945312,0.002878023311495781,0.03455003723502159
352.0,391.0,1.1898,0.3314,9.5761,-0.056,0.0173,-0.1161,-1.6464711628355921,0.00029283270123414695,2.421339750289917,-1.8421037197113037,0.00043195870239287615,2.0841078758239746,4.800104151457109,0.0,0.28931811451911926,-1.597001854573385,-3.77134338299865e-26,-0.0038117612712085247,0.7427657842636108,-0.0,-0.0007837895536795259,0.805675745010376,0.001662842114455998,-0.03624863550066948
352.0,391.0,1.1898,0.3314,9.5761,-0.056,0.0173,-0.1161,-1.6465112171568812,0.00025731956702657044,2.399461269378662,-1.8420873880386353,0.0003583287470974028,2.0663230419158936,4.80009604522542,0.0,0.28834572434425354,-1.5969699064837855,-1.0497674623351736e-29,6.591924466192722e-05,0.7426891326904297,-0.0,-0.00387691892683506,0.8056837320327759,0.0007841599872335792,0.04929973930120468
352.0,391.0,1.1898,0.3314,9.5761,-0.056,0.0173,-0.1161,-1.6465593777098597,0.00010798859875649214,2.3468687534332275,-1.8421357870101929,0.00032172605278901756,2.0514204502105713,4.800104129105367,0.0,0.29231610894203186,-1.5969660917865198,-4.475324166161763e-32,-0.011141262948513031,0.7427657842636108,-0.0,-0.002993658185005188,0.8056597709655762,0.0004656802921090275,0.043082866817712784
352.0,391.0,1.1898,0.3314,9.5761,-0.056,0.0173,-0.1161,-1.6465031109251917,5.118617627886124e-05,2.439910411834717,-1.8420594930648804,0.0002789811696857214,2.0903091430664062,4.800119775324621,0.0,0.3040698170661926,-1.5969255606280726,-1.2457229636357818e-35,-0.015529780648648739,0.742793619632721,-0.0,-0.002179232891649008,0.8057001233100891,0.00025487435050308704,0.020603787153959274
352.0,391.0,1.1898,0.3314,9.5761,-0.056,0.0173,-0.1161,-1.6465469799437464,7.849431327144885e-09,2.4005191326141357,-1.8421597480773926,0.00024626401136629283,2.0644357204437256,4.800068247109213,0.0,0.29818978905677795,-1.5969622770892542,-6.413798837456852e-05,-0.013832414522767067,0.7427817583084106,-0.0,-0.0038262137677520514,0.8056878447532654,-0.00022312585497274995,0.009136187843978405
352.0,391.0,1.1898,0.3314,9.5761,-0.056,0.0173,-0.1161,-1.6465312443175257,1.4128699295581915e-12,2.4426321983337402,-1.842116117477417,0.0002284062938997522,2.0377275943756104,4.800096246391096,0.0,0.297834187746048,-1.5969141165362757,-6.0076170484535396e-05,-0.010295534506440163,0.7428017854690552,-0.0,-0.0005240995669737458,0.8056638836860657,-0.0002643352490849793,-0.017214391380548477
352.0,391.0,1.1898,0.3314,9.5761,-0.056,0.0173,-0.1161,-1.6465512714781703,3.411914679194173e-18,2.393328905105591,-1.8420873880386353,0.000206000215257518,2.093496561050415,4.800076249032774,0.0,0.2986523509025574,-1.5969575087176722,-4.121175152249634e-05,0.0009985462529584765,0.7427611947059631,-0.0,0.00028825277695432305,0.8056639432907104,-0.0006704275729134679,0.04976079612970352
352.0,391.0,1.1898,0.3314,9.5761,-0.056,0.0173,-0.1161,-1.64652742962026,6.141325313614311e-22,2.3796262741088867,-1.842099666595459,0.00019335503748152405,2.0626301765441895,4.800072166114607,3.360730624990538e-05,0.2923688590526581,-1.596961800252096,-2.580152613518294e-05,-0.0033321173395961523,0.7427330613136292,-0.0,-0.002121826633810997,0.8056236505508423,-0.0006202955264598131,-0.02090591751039028
352.0,391.0,1.1898,0.3314,9.5761,-0.056,0.0173,-0.1161,-1.6465870342650355,1.4830577314435244e-27,2.403620719909668,-1.8421152830123901,0.0001770528469933197,2.0913918018341064,4.800092208176412,3.232505332562141e-05,0.2854003310203552,-1.5969379583941858,-2.3707816581008956e-05,-0.014447476714849472,0.7427534461021423,-0.0,0.001919273636303842,0.805655837059021,-0.0006057228310965002,-0.034304581582546234
352.0,391.0,1.1898,0.3314,9.5761,-0.056,0.0173,-0.1161,-1.6465627155699671,2.6694515152795177e-31,2.4391326904296875,-1.8420915603637695,0.00016763068560976535,2.054641008377075,4.800112212985315,3.120443943771534e-05,0.29377442598342896,-1.5969656149493616,-2.25212424993515e-05,-0.0035612694919109344,0.7427694797515869,-0.0,0.0010004544164985418,0.8056199550628662,-0.0005283507052809,-0.036221206188201904
352.0,391.0,1.1898,0.3314,9.5761,-0.056,0.0173,-0.1161,-1.646567007104391,-0.00034745107404887676,2.435180425643921,-1.8421193361282349,0.00015523884212598205,2.0595505237579346,4.800040031760492,1.4864082004351076e-05,0.2968582808971405,-1.5969656149493616,-9.366755193696008e-08,-0.019908597692847252,0.7427616119384766,-0.0,7.976149208843708e-05,0.8055753111839294,-0.00039167492650449276,-0.0066783977672457695
352.0,391.0,1.1898,0.3314,9.5761,-0.056,0.0173,-0.1161,-1.6465307674803675,-0.0004453537112567574,2.3970260620117188,-1.8420759439468384,0.00014455303607974201,2.048914670944214,4.800068127899923,1.4132243450148962e-05,0.29495808482170105,-1.5969379583941858,-2.6072701289625577e-11,-0.010067950934171677,0.742781400680542,-0.0,-0.00735327135771513,0.8056398034095764,-0.00037266992148943245,0.02865886129438877
352.0,391.0,1.1898,0.3314,9.5761,-0.056,0.0173,-0.1161,-1.646578928033346,-0.0007993360632099211,2.4195022583007812,-1.8420759439468384,0.0001382106711389497,2.0964694023132324,4.800080287247457,1.3701935131393839e-05,0.3008134961128235,-1.5968979040728968,-1.1115201369992639e-13,-0.0030510707292705774,0.7427330613136292,-0.0,0.00803943257778883,0.8056681156158447,-0.0003819485427811742,0.04059941694140434
352.0,391.0,1.1898,0.3314,9.5761,-0.056,0.0173,-0.1161,-1.6465708218016566,-0.000987615785561502,2.441873550415039,-1.8420759439468384,0.0001296760601690039,2.124068260192871,4.80010441222743,1.3103448509355076e-05,0.2842937111854553,-1.596921745930807,-3.093956915563538e-17,-0.01975594088435173,0.7427534461021423,-0.0,0.008686907589435577,0.8056318163871765,-0.0003922260657418519,0.009251928888261318
352.0,391.0,1.1898,0.3314,9.5761,-0.056,0.0173,-0.1161,-1.6466113529601039,-0.0010432556737214327,2.411118745803833,-1.8421038389205933,0.00014233175897970796,2.078688859939575,4.800064007728853,8.432842264483043e-07,0.29076293110847473,-1.596842114125387,-1.319002429990539e-19,-0.0028635000344365835,0.7427412271499634,-0.0,-0.0026381441857665777,0.8055914640426636,-0.0004012077988591045,-0.0025527914986014366
358.0,367.0,1.3466,0.1328,9.4798,-0.0331,0.0316,-0.122,-1.64660706142568,-0.0012081104796379805,2.4389266967773438,-1.8420759439468384,0.00013437203597277403,2.1237900257110596,4.800059962063589,2.3473126220530105e-10,0.29285234212875366,-1.5969098250018519,-3.67149181261939e-23,-0.010351261124014854,0.7427616119384766,-0.0,-0.005613843910396099,0.8055591583251953,-0.0003827782638836652,0.07355090230703354
358.0,367.0,1.3466,0.1328,9.4798,-0.0331,0.0316,-0.122,-1.6466518841185511,-0.0014165439642965794,2.414854049682617,-1.8421440124511719,9.954800771083683e-05,2.067187786102295,4.80002428123311,6.533831906508497e-14,0.30254697799682617,-1.5968974272357386,-1.0219733856853029e-26,-0.009979791939258575,0.7428739070892334,-0.0,-0.0010533552849665284,0.8056120276451111,-0.0004554692131932825,0.0036751129664480686
358.0,367.0,1.3466,0.1328,9.4798,-0.0331,0.0316,-0.122,-1.6466547451415003,-0.0013209569733589888,2.383527994155884,-1.8421202898025513,9.770360338734463e-05,2.0863070487976074,4.800048041134634,2.785474993886259e-16,0.2867695987224579,-1.5968974272357386,-4.3568333035148364e-29,-0.014364087954163551,0.7427371144294739,-0.0,0.0046404143795371056,0.8055835366249084,-0.00041142452391795814,-0.0006073666736483574
358.0,367.0,1.3466,0.1328,9.4798,-0.0331,0.0316,-0.122,-1.6466547451415003,-0.0010125819826498628,2.403599500656128,-1.842088222503662,0.0005933537613600492,2.1147093772888184,4.800076263933935,7.753472135484675e-20,0.29040175676345825,-1.5968735853778284,-1.2127406974804579e-32,-0.0025961301289498806,0.7427977919578552,-0.0,0.0015963660553097725,0.8055714964866638,-0.00032284989720210433,0.027117304503917694
358.0,367.0,1.3466,0.1328,9.4798,-0.0331,0.0316,-0.122,-1.6466032467284144,-0.0007998871151357889,2.3993771076202393,-1.8420841693878174,0.0009761266992427409,2.0741798877716064,4.800104397326269,3.3054269048944594e-22,0.2835369110107422,-1.5968897978412073,-5.170103105236e-35,-0.016180463135242462,0.742781400680542,-0.0,-0.008497423492372036,0.8055753111839294,-0.00028233040939085186,0.014452635310590267
358.0,367.0,1.3466,0.1328,9.4798,-0.0331,0.0316,-0.122,-1.6466146908202113,-0.0005998662090860307,2.407458782196045,-1.8420157432556152,0.0022058808244764805,2.0774998664855957,4.800064007728853,9.200777478944208e-26,0.2939925193786621,-1.5969379583941858,-1.4391174079292474e-38,-0.0025370086077600718,0.742793619632721,-0.0,-0.0014308984391391277,0.8055714964866638,-0.00023760246403981,-0.029704438522458076
358.0,367.0,1.3466,0.1328,9.4798,-0.0331,0.0316,-0.122,-1.646618982354635,-0.0004798899753950536,2.3849120140075684,-1.8420076370239258,0.0038672357331961393,2.0627315044403076,4.800080287247457,2.561070644611104e-29,0.2728007435798645,-1.596893612538473,-4.006312309504652e-42,-0.004380237776786089,0.7427932024002075,-0.0,-0.006294043734669685,0.8056158423423767,-0.00016408834198955446,-0.0019855068530887365
358.0,367.0,1.3466,0.1328,9.4798,-0.0331,0.0316,-0.122,-1.646618982354635,-0.0004234344814904034,2.362156391143799,-1.8420199155807495,0.004963623359799385,2.1423463821411133,4.8000884530837915,1.0918245437217184e-31,0.29553601145744324,-1.5969017187701624,-1.6815581571897805e-44,-0.015899494290351868,0.742781400680542,-0.0,-0.00788548868149519,0.8055955767631531,-0.00015037840057630092,0.0016944196540862322
358.0,367.0,1.3466,0.1328,9.4798,-0.0331,0.0316,-0.122,-1.6466599903502406,-0.0003609325212892145,2.390779733657837,-1.8419721126556396,0.006643553730100393,2.088630199432373,4.800096261292257,3.0391338852867407e-35,0.28356510400772095,-1.5969017187701624,-0.0,-0.012795326299965382,0.742797315120697,-0.0,-0.009211642667651176,0.8055873513221741,-0.000100230063253548,0.03973627835512161
358.0,367.0,1.3466,0.1328,9.4798,-0.0331,0.0316,-0.122,-1.6466547451415003,-0.0002337679179618135,2.3781538009643555,-1.8419721126556396,0.00797134917229414,2.094627857208252,4.800059924810686,1.2956304707657827e-37,0.2893680930137634,-1.5969017187701624,-0.0,0.0014175091637298465,0.7427452802658081,-0.0,0.002127163577824831,0.8056154251098633,0.00012772630725521594,0.030437998473644257
358.0,367.0,1.3466,0.1328,9.4798,-0.0331,0.0316,-0.122,-1.6466509304442347,-0.00030945229809731245,2.399904489517212,-1.8419162034988403,0.00984037946909666,2.0912179946899414,4.800127851753988,3.606381727786349e-41,0.2785016894340515,-1.5968897978412073,-0.0,-0.00783776119351387,0.742817759513855,-0.0,-0.0014771142741665244,0.8056439161300659,0.0009105352801270783,0.017106130719184875
358.0,367.0,1.3466,0.1328,9.4798,-0.0331,0.0316,-0.122,-1.6466108761229457,-0.0007653729408048093,2.3761706352233887,-1.841876745223999,0.011300237849354744,2.1342039108276367,4.800108189671793,1.5414283107572988e-43,0.28658947348594666,-1.5968974272357386,-0.0,-0.011528600938618183,0.7427412271499634,-0.0,-0.007844675332307816,0.8056154847145081,0.000980289070867002,0.039414308965206146
358.0,367.0,1.3466,0.1328,9.4798,-0.0331,0.0316,-0.122,-1.6467071972289027,-0.002478982787579298,2.3144567012786865,-1.8417598009109497,0.01173428539186716,2.086289405822754,4.800088169961729,0.0,0.3026373088359833,-1.5968497435199183,-0.0,-0.010251330211758614,0.742805540561676,-0.0,0.003645972115918994,0.805611252784729,0.0009640225325711071,0.02813403308391571
358.0,367.0,1.3466,0.1328,9.4798,-0.0331,0.0316,-0.122,-1.64671053508901,-0.0034751822240650654,2.2887685298919678,-1.8417038917541504,0.011774765327572823,2.143442153930664,4.800104129105367,0.0,0.28291046619415283,-1.5968855063067835,-0.0,-0.012968920171260834,0.7428296804428101,-0.0,0.002059440826997161,0.8056881427764893,0.0007424844661727548,0.02157157100737095
358.0,367.0,1.3466,0.1328,9.4798,-0.0331,0.0316,-0.122,-1.6466623745360316,-0.004698039498180151,2.3374361991882324,-1.84165620803833,0.012437686324119568,2.1136257648468018,4.800076226681032,0.0,0.28468844294548035,-1.5969179312335413,-0.0,0.004795774817466736,0.7427694797515869,-0.0,-0.007848921231925488,0.8056597709655762,0.0006865139002911747,0.06700674444437027
358.0,367.0,1.3466,0.1328,9.4798,-0.0331,0.0316,-0.122,-1.6467749081053675,-0.005957029759883881,2.256680488586426,-1.841508150100708,0.012577904388308525,2.0737876892089844,4.800059962063589,0.0,0.2724546194076538,-1.5969017187701624,-0.0,0.0008828836726024747,0.7428259253501892,-0.0,-0.0058942572213709354,0.8056352734565735,0.0005338678602129221,6.877118721604347e-05
358.0,367.0,1.3466,0.1328,9.4798,-0.0331,0.0316,-0.122,-1.6467796764769496,-0.0063320668414235115,2.260206699371338,-1.8414530754089355,0.01308625191450119,2.079958438873291,4.800076249032774,0.0,0.26030606031417847,-1.596893612538473,9.349061292596161e-05,0.010815833695232868,0.7428378462791443,-0.0,0.004978932440280914,0.8056799173355103,0.00046490959357470274,0.024195587262511253
358.0,367.0,1.3466,0.1328,9.4798,-0.0331,0.0316,-0.122,-1.646823068658346,-0.007727627642452717,2.2658841609954834,-1.8414251804351807,0.01269566174596548,2.075197219848633,4.80011976042346,0.0,0.26657620072364807,-1.5968616644488733,0.00010692991054384038,0.02133104018867016,0.7427895069122314,-0.0,-0.009183724410831928,0.8056639432907104,0.0003094329440500587,0.008981440216302872
342.0,373.0,0.9176,0.1866,9.603,-0.0281,0.0098,-0.1087,-1.6468950710692347,-0.010126670822501183,2.1988563537597656,-1.841373324394226,0.013481708243489265,2.1065313816070557,4.800080287247457,0.0,0.27238091826438904,-1.5968735853778284,0.00011750580597436056,0.006833923514932394,0.7427330613136292,-0.0,0.001529452856630087,0.8056960701942444,0.00025650765746831894,0.046250663697719574
342.0,373.0,0.9176,0.1866,9.603,-0.0281,0.0098,-0.1087,-1.6469189129271449,-0.012348963879048824,2.173152446746826,-1.8412407636642456,0.013723454438149929,2.131964683532715,4.800084206252851,0.0,0.2550886273384094,-1.5968735853778284,0.00011380728392396122,-0.0013462463393807411,0.7428136467933655,-0.0,0.00018436415120959282,0.8056721687316895,0.00023025447444524616,0.0648813396692276
342.0,373.0,0.9176,0.1866,9.603,-0.0281,0.0098,-0.1087,-1.647043367425436,-0.015710368752479553,2.145158052444458,-1.8412137031555176,0.015428438782691956,2.087489128112793,4.80007221081809,0.0,0.2554779052734375,-1.5968497435199183,0.00012337265070527792,0.020452862605452538,0.7428137063980103,-0.0,-0.00377078540623188,0.8056154847145081,0.00019961083307862282,-0.013553696684539318
342.0,373.0,0.9176,0.1866,9.603,-0.0281,0.0098,-0.1087,-1.647073885003561,-0.018353844061493874,2.1276135444641113,-1.8411256074905396,0.01617388427257538,2.1035995483398438,4.800072166114607,0.0,0.24749553203582764,-1.59682542482485,0.00029150882619433105,0.021978359669446945,0.7427535057067871,-0.0,0.001866509672254324,0.8057404160499573,0.00021999237651471049,0.008614789694547653
342.0,373.0,0.9176,0.1866,9.603,-0.0281,0.0098,-0.1087,-1.6472350559630335,-0.022022750228643417,2.1346206665039062,-1.8410335779190063,0.017854250967502594,2.125892400741577,4.800080287247457,0.0,0.2586861848831177,-1.596797291432516,0.0002889848838094622,0.02071869745850563,0.7427891492843628,-0.0,-0.0028233658522367477,0.8056274652481079,0.00019604898989200592,0.01573927327990532
342.0,373.0,0.9176,0.1866,9.603,-0.0281,0.0098,-0.1087,-1.647334714929098,-0.024409746751189232,2.1311864852905273,-1.84096097946167,0.017898786813020706,2.1200571060180664,4.80007220336751,0.0,0.23659631609916687,-1.59682542482485,0.0002827750286087394,0.023935850709676743,0.7427854537963867,-0.0,0.0037660300731658936,0.8056675791740417,0.00021318993822205812,-0.0019777100533246994
342.0,373.0,0.9176,0.1866,9.603,-0.0281,0.0098,-0.1087,-1.647466321984762,-0.027600547298789024,2.126129150390625,-1.8408293724060059,0.01996292732656002,2.131669044494629,4.8001122427876375,0.0,0.24376484751701355,-1.5968182722674769,0.0002745493547990918,0.030931800603866577,0.7427850961685181,-0.0,-0.00033724194508977234,0.8056557178497314,0.0002593371900729835,0.010024859569966793
342.0,373.0,0.9176,0.1866,9.603,-0.0281,0.0098,-0.1087,-1.6476785145201625,-0.029795266687870026,2.128774642944336,-1.8407174348831177,0.0230408925563097,2.1789278984069824,4.800127836852827,0.0,0.25615042448043823,-1.5968497435199183,0.00025109012494795024,0.023297354578971863,0.7428337335586548,-0.0,-0.0038877229671925306,0.8056755661964417,0.0012018788838759065,-0.06107122451066971
342.0,373.0,0.9176,0.1866,9.603,-0.0281,0.0098,-0.1087,-1.647782941857809,-0.031217046082019806,2.072413444519043,-1.8406180143356323,0.02419271506369114,2.111140251159668,4.800072195916929,0.0,0.2436448484659195,-1.596837345753805,0.00025712524075061083,0.032620757818222046,0.7428737878799438,-0.0,0.005427798256278038,0.8057281374931335,0.0011292340932413936,-0.02346818894147873
342.0,373.0,0.9176,0.1866,9.603,-0.0281,0.0098,-0.1087,-1.6480103931822718,-0.03313450887799263,2.1079635620117188,-1.8404501676559448,0.026371054351329803,2.13787579536438,4.800088169961729,0.0,0.22810345888137817,-1.5968220869647425,0.00023927171423565596,0.03376790136098862,0.7428578734397888,-0.0,-0.0007216664962470531,0.8057198524475098,0.0010885319206863642,0.022854596376419067
342.0,373.0,0.9176,0.1866,9.603,-0.0281,0.0098,-0.1087,-1.648142477075094,-0.03551585227251053,2.076218605041504,-1.8403267860412598,0.027439435943961143,2.1332883834838867,4.800143930106916,0.0,0.2382807731628418,-1.5968292395221155,0.0002317599137313664,0.044779080897569656,0.7428014278411865,-0.0,0.001686824019998312,0.8057317137718201,0.0014030630700290203,-0.06466548144817352
342.0,373.0,0.9176,0.1866,9.603,-0.0281,0.0098,-0.1087,-1.6483222446837367,-0.03775716945528984,2.0492024421691895,-1.840215802192688,0.0287023838609457,2.190199851989746,4.80010016539649,0.0,0.23710298538208008,-1.5967977682696741,0.00020723944180645049,0.038258183747529984,0.7428377866744995,-0.0,0.007467404007911682,0.80573970079422,0.002415680093690753,-0.01941436529159546
342.0,373.0,0.9176,0.1866,9.603,-0.0281,0.0098,-0.1087,-1.6486102543272914,-0.042631134390830994,2.042019844055176,-1.83998703956604,0.03033429943025112,2.151682138442993,4.8001117063458345,0.0,0.23831331729888916,-1.5968335310565394,0.00021832683705724776,0.05255615711212158,0.7428534030914307,-0.0,0.005759468302130699,0.8058041930198669,0.0036225751973688602,-0.009593118913471699
342.0,373.0,0.9176,0.1866,9.603,-0.0281,0.0098,-0.1087,-1.6488148174681605,-0.04355674982070923,2.015101671218872,-1.8398677110671997,0.031846970319747925,2.2102272510528564,4.800167980581083,0.0,0.2561817765235901,-1.596785847340719,0.00023465699632652104,0.050585683435201645,0.7428255081176758,-0.0,0.008363393135368824,0.8057918548583984,0.004552812315523624,-0.09052745997905731
342.0,373.0,0.9176,0.1866,9.603,-0.0281,0.0098,-0.1087,-1.649058004418844,-0.04810889810323715,2.0513176918029785,-1.839667797088623,0.03441951423883438,2.160355567932129,4.800111691444673,0.0,0.24540455639362335,-1.5968096891986292,0.00024025281891226768,0.06545974314212799,0.7427854537963867,-0.0,0.016247909516096115,0.8058237433433533,0.004446341656148434,-0.04927578940987587
342.0,373.0,0.9176,0.1866,9.603,-0.0281,0.0098,-0.1087,-1.649278303185934,-0.050787344574928284,1.9924079179763794,-1.839536190032959,0.037058014422655106,2.1857309341430664,4.800152013986864,0.0,0.2555302381515503,-1.596813980733053,0.0002272439596708864,0.058505065739154816,0.7428375482559204,-0.0,0.01821983978152275,0.8058034777641296,0.004588361829519272,-0.11057104170322418
342.0,373.0,0.9176,0.1866,9.603,-0.0281,0.0098,-0.1087,-1.649585863152975,-0.05535918101668358,2.039494276046753,-1.8392524719238281,0.04073069989681244,2.2106118202209473,4.800123932748594,0.0,0.2579716145992279,-1.5968135038958948,0.00033356965286657214,0.062484752386808395,0.742817759513855,-0.0,0.018085822463035583,0.8058435916900635,0.00400147121399641,-0.09066309034824371
347.0,384.0,1.5547,0.3685,9.2578,-0.0359,-0.0115,-0.1171,-1.6499701939024867,-0.058963533490896225,2.0328330993652344,-1.839004635810852,0.044302817434072495,2.2256016731262207,4.80010815241889,0.0,0.25784051418304443,-1.596773926411764,0.00037067412631586194,0.06664051860570908,0.7427653670310974,-0.0,0.013463206589221954,0.8059003949165344,0.0031074120197445154,-0.0946461409330368
347.0,384.0,1.5547,0.3685,9.2578,-0.0359,-0.0115,-0.1171,-1.6502210102477015,-0.060006462037563324,2.0191760063171387,-1.8387571573257446,0.049419648945331573,2.2145111560821533,4.800132091134348,0.0,0.23909279704093933,-1.5967658201800745,0.0005576685070991516,0.0758887231349945,0.7428137063980103,-0.0,0.011453334242105484,0.8058921098709106,0.002278558909893036,-0.09805408120155334
347.0,384.0,1.5547,0.3685,9.2578,-0.0359,-0.0115,-0.1171,-1.650588174859518,-0.062130287289619446,2.0443859100341797,-1.838477373123169,0.05494355037808418,2.1967921257019043,4.800080093532362,0.0,0.248186856508255,-1.5967620054828089,0.000643506005872041,0.07908013463020325,0.7428697347640991,-0.0,0.009567382745444775,0.8058674931526184,0.0014651705278083682,-0.11006450653076172
347.0,384.0,1.5547,0.3685,9.2578,-0.0359,-0.0115,-0.1171,-1.6508566341795863,-0.061613865196704865,2.0232717990875244,-1.8382222652435303,0.0570531003177166,2.2953944206237793,4.800119775324621,0.0,0.2577654719352722,-1.596729580556051,0.0008445702260360122,0.08467817306518555,0.7428054809570312,-0.0,0.011420813389122486,0.8058838844299316,0.001183756859973073,-0.10591202229261398
347.0,384.0,1.5547,0.3685,9.2578,-0.0359,-0.0115,-0.1171,-1.6512848339476527,-0.06455350667238235,2.044008731842041,-1.837910532951355,0.06167370080947876,2.3053808212280273,4.800156134157934,0.0,0.2414155900478363,-1.5967496077166956,0.0014847457641735673,0.09452655911445618,0.7428255677223206,-0.0,0.014853035099804401,0.8058673739433289,0.0007928783306851983,-0.18458929657936096
347.0,384.0,1.5547,0.3685,9.2578,-0.0359,-0.0115,-0.1171,-1.6515685520567835,-0.06896568089723587,2.0150346755981445,-1.8376556634902954,0.06358446180820465,2.265732526779175,4.800084206252851,0.0,0.26327693462371826,-1.5967496077166956,0.0020006936974823475,0.09247750043869019,0.7428455948829651,-0.0,0.01686447113752365,0.8058916330337524,0.0006497085560113192,-0.19545677304267883
347.0,384.0,1.5547,0.3685,9.2578,-0.0359,-0.0115,-0.1171,-1.651930948297018,-0.07649587094783783,2.0130021572113037,-1.837219476699829,0.06623101234436035,2.287379741668701,4.800068187504568,0.0,0.26256778836250305,-1.5966976324664515,0.004789572674781084,0.10899175703525543,0.7428452968597412,-0.0,0.02269960567355156,0.8058757781982422,0.0005112619837746024,-0.18505756556987762
347.0,384.0,1.5547,0.3685,9.2578,-0.0359,-0.0115,-0.1171,-1.652414938012594,-0.08430767804384232,2.00885009765625,-1.8368133306503296,0.06974004954099655,2.3071212768554688,4.800136092096128,0.0,0.2631795108318329,-1.5966780821429651,0.02152443863451481,0.11530636250972748,0.7428935170173645,-0.0,0.0318547822535038,0.8058998584747314,0.000370950234355405,-0.2087089717388153
347.0,384.0,1.5547,0.3685,9.2578,-0.0359,-0.0115,-0.1171,-1.65281405071401,-0.09055981785058975,1.9855533838272095,-1.8365458250045776,0.0757884681224823,2.3053464889526367,4.800103585212984,-1.0016362466558348e-05,0.2641069293022156,-1.5965541044818323,0.024828113615512848,0.12812845408916473,0.7428534030914307,-0.0,0.009887771680951118,0.8059077858924866,0.00033012533094733953,-0.14979290962219238
347.0,384.0,1.5547,0.3685,9.2578,-0.0359,-0.0115,-0.1171,-1.6533175907530726,-0.09415643662214279,1.9983913898468018,-1.8360103368759155,0.08418058604001999,2.333822727203369,4.800131703704157,-2.7880917574663044e-09,0.2567824721336365,-1.5964258352862757,0.015221904031932354,0.11809584498405457,0.7428133487701416,-0.0,0.03292649984359741,0.8058555722236633,0.0002869036397896707,-0.2084996998310089
347.0,384.0,1.5547,0.3685,9.2578,-0.0359,-0.0115,-0.1171,-1.6536857090392054,-0.09900660812854767,2.0142934322357178,-1.835639238357544,0.09133963286876678,2.295609474182129,4.800139921694555,-1.1886072855127328e-11,0.26508191227912903,-1.5964458624469202,0.006302340421825647,0.11975756287574768,0.7428976893424988,-0.0,0.03176196664571762,0.8059118986129761,8.296013402286917e-05,-0.22889265418052673
347.0,384.0,1.5547,0.3685,9.2578,-0.0359,-0.0115,-0.1171,-1.654341836968893,-0.1057838574051857,2.0196454524993896,-1.8350435495376587,0.10325878113508224,2.3723092079162598,4.800192202418604,-3.3085316560407417e-15,0.2754327654838562,-1.596433464680807,-0.001378637389279902,0.12467072904109955,0.7428656220436096,-0.0,0.0261513814330101,0.805903971195221,1.7526933504541375e-07,-0.22640231251716614
347.0,384.0,1.5547,0.3685,9.2578,-0.0359,-0.0115,-0.1171,-1.6550003490843714,-0.11002729088068008,2.1111011505126953,-1.8343607187271118,0.11331990361213684,2.3633556365966797,4.800143952458658,0.0003041672462131828,0.2764087915420532,-1.5964019934283655,-0.0012180734192952514,0.10238228738307953,0.7427811026573181,-0.0,0.030222229659557343,0.8059080839157104,4.232548285378751e-13,-0.28720822930336
347.0,384.0,1.5547,0.3685,9.2578,-0.0359,-0.0115,-0.1171,-1.655520578423971,-0.11100742965936661,2.063892364501953,-1.8339378833770752,0.12230908870697021,2.3671674728393555,4.800179916411199,0.00034615761251188815,0.2731799781322479,-1.5964296499835413,-0.0007377030560746789,0.13333941996097565,0.7428574562072754,-0.0,0.037631019949913025,0.8058556318283081,7.618437997242812e-17,-0.23275414109230042
347.0,384.0,1.5547,0.3685,9.2578,-0.0359,-0.0115,-0.1171,-1.6562234363951625,-0.1102885827422142,2.0610899925231934,-1.8331589698791504,0.13540153205394745,2.42095685005188,4.800188149302759,0.0002815139596350491,0.2900184094905853,-1.5964496771441858,-0.0004937948542647064,0.13039547204971313,0.7428574562072754,-0.0,0.02789205312728882,0.8058839440345764,1.8397631015834426e-22,-0.19633135199546814
347.0,384.0,1.5547,0.3685,9.2578,-0.0359,-0.0115,-0.1171,-1.6566974125304164,-0.11015792191028595,2.073983907699585,-1.8325753211975098,0.14020243287086487,2.4245965480804443,4.800103600114145,0.00025019547319971025,0.2821301817893982,-1.5964258352862757,-0.00040481804171577096,0.11287201195955276,0.7428819537162781,-0.0,0.02659912407398224,0.8058556318283081,3.311508965774336e-26,-0.2307649403810501
347.0,384.0,1.5547,0.3685,9.2578,-0.0359,-0.0115,-0.1171,-1.6573940716185511,-0.11591015011072159,2.101196765899658,-1.8317248821258545,0.14383530616760254,2.459933280944824,4.800107630878248,0.00017158831178676337,0.27591168880462646,-1.5964339415179651,-0.0003187227703165263,0.12441086769104004,0.7428414821624756,-0.0,0.03257876634597778,0.8058638572692871,7.996905113312109e-32,-0.22401902079582214
347.0,384.0,1.5547,0.3685,9.2578,-0.0359,-0.0115,-0.1171,-1.6580811939635218,-0.1264258772134781,2.0620408058166504,-1.8308069705963135,0.14831174910068512,2.4601194858551025,4.800119864731588,0.00015007697220426053,0.286249577999115,-1.5964415709124964,-0.00026284248451702297,0.1245688796043396,0.7427932620048523,-0.0,0.030182257294654846,0.8058394193649292,-0.0004115866031497717,-0.2345435619354248
332.0,371.0,1.2287,0.4953,11.5238,-0.0403,0.0919,-0.1281,-1.6586057148375453,-0.13252489268779755,2.0621113777160645,-1.8302762508392334,0.1574864536523819,2.460050344467163,4.800155880838194,6.89771186443977e-05,0.2781444787979126,-1.5964139143573206,-0.00019459854229353368,0.1255292147397995,0.7428296208381653,-0.0,0.03408728912472725,0.8058518767356873,-0.0005044080899097025,-0.23294636607170105
332.0,371.0,1.2287,0.4953,11.5238,-0.0403,0.0919,-0.1281,-1.6593605480589808,-0.13570243120193481,2.084141731262207,-1.8291853666305542,0.17246326804161072,2.4802005290985107,4.80013586112813,4.8941979912342504e-05,0.2755833566188812,-1.59642202058901,-0.00016273377696052194,0.12112651765346527,0.742809534072876,6.0834754549432546e-05,0.027718007564544678,0.8058720827102661,-0.0012401621788740158,-0.2808758020401001
332.0,371.0,1.2287,0.4953,11.5238,-0.0403,0.0919,-0.1281,-1.6598836384215296,-0.13633126020431519,2.040879011154175,-1.8284577131271362,0.18305449187755585,2.5041348934173584,4.800107623427667,4.413729038788006e-05,0.27681589126586914,-1.5964577833758753,-0.00014923691924195737,0.13923802971839905,0.7428815960884094,0.00011511412594700232,0.03208448737859726,0.8058158159255981,-0.0018613524734973907,-0.3003253936767578
332.0,371.0,1.2287,0.4953,11.5238,-0.0403,0.0919,-0.1281,-1.6607476673521937,-0.13377945125102997,2.0829522609710693,-1.8273367881774902,0.19798599183559418,2.5502865314483643,4.80017243602828,5.729113763663918e-05,0.274685800075531,-1.596365753804342,-0.0001327275822404772,0.12400011718273163,0.7428014278411865,0.00010713254596339539,0.02967168390750885,0.8058075308799744,-0.0024701496586203575,-0.2871171832084656
332.0,371.0,1.2287,0.4953,11.5238,-0.0403,0.0919,-0.1281,-1.661245962182516,-0.1275935173034668,2.0995359420776367,-1.826458215713501,0.2049802988767624,2.531972885131836,4.800139891892233,7.080430805217475e-05,0.2819462716579437,-1.5964296499835413,-0.00012361131666693836,0.14385411143302917,0.7428174018859863,0.00010226322046946734,0.0375077985227108,0.8057836890220642,-0.002153740730136633,-0.2878600060939789
332.0,371.0,1.2287,0.4953,11.5238,-0.0403,0.0919,-0.1281,-1.6620732746519984,-0.11847838014364243,2.1368815898895264,-1.8252077102661133,0.21518072485923767,2.509166717529297,4.800175840943613,9.50573303271085e-05,0.2874310612678528,-1.59642202058901,-0.00011206597264390439,0.13149306178092957,0.7428411841392517,9.573608986102045e-05,0.024198006838560104,0.8058199286460876,-0.0009584707440808415,-0.29394757747650146
332.0,371.0,1.2287,0.4953,11.5238,-0.0403,0.0919,-0.1281,-1.66286100963735,-0.11998099833726883,2.1241180896759033,-1.823938250541687,0.2272018939256668,2.6127803325653076,4.800071942597189,6.837116234237328e-05,0.29046276211738586,-1.596393887196676,-0.00010249343904433772,0.1311086267232895,0.7428333759307861,8.9992317953147e-05,0.03804997727274895,0.8058075308799744,-0.00035576996742747724,-0.2758888900279999
332.0,371.0,1.2287,0.4953,11.5238,-0.0403,0.0919,-0.1281,-1.663316389123434,-0.12657390534877777,2.1541922092437744,-1.823043942451477,0.2334941029548645,2.6197452545166016,4.800112257688799,9.416972375220212e-07,0.28939157724380493,-1.5964339415179651,-9.697151836007833e-05,0.132960706949234,0.7428734302520752,8.65312249516137e-05,0.03681717440485954,0.8058401942253113,-0.0002783159143291414,-0.30401521921157837
332.0,371.0,1.2287,0.4953,11.5238,-0.0403,0.0919,-0.1281,-1.664075037042135,-0.13995712995529175,2.1785972118377686,-1.8215667009353638,0.23610788583755493,2.529844284057617,4.800084422319689,2.6212490511490216e-10,0.29011988639831543,-1.5964177290545862,-8.972075738711283e-05,0.1276542842388153,0.742901623249054,9.810154006117955e-05,0.030943628400564194,0.8058440089225769,-0.00028237723745405674,-0.3035705089569092
332.0,371.0,1.2287,0.4953,11.5238,-0.0403,0.0919,-0.1281,-1.6646024189391078,-0.14662906527519226,2.0914480686187744,-1.8205996751785278,0.23648694157600403,2.577120780944824,4.800136047392645,1.1174796981858193e-12,0.2876008450984955,-1.59642202058901,-7.49597093090415e-05,0.12624867260456085,0.742837131023407,9.472916281083599e-05,0.029606163501739502,0.805832028388977,-9.342569683212787e-05,-0.3361455202102661
332.0,371.0,1.2287,0.4953,11.5238,-0.0403,0.0919,-0.1281,-1.665372987786764,-0.14917849004268646,2.035630941390991,-1.8190549612045288,0.25629472732543945,2.548095703125,4.800111102848806,0.0004814799758605659,0.29279184341430664,-1.596381966267721,-5.98371698288247e-05,0.13902127742767334,0.7428333759307861,8.999335113912821e-05,0.04339699074625969,0.8057273030281067,-0.00021334263146854937,-0.271043062210083
332.0,371.0,1.2287,0.4953,11.5238,-0.0403,0.0919,-0.1281,-1.6661726437010707,-0.1388157159090042,2.0974338054656982,-1.8175209760665894,0.28107962012290955,2.627498149871826,4.800119864731588,0.00038334535202011466,0.28687381744384766,-1.5964258352862757,-5.6104097893694416e-05,0.13255709409713745,0.7428011298179626,8.570817590225488e-05,0.038610395044088364,0.805772066116333,-0.002051555085927248,-0.33104759454727173
332.0,371.0,1.2287,0.4953,11.5238,-0.0403,0.0919,-0.1281,-1.6667806110777796,-0.128921777009964,2.1431779861450195,-1.8163350820541382,0.29398980736732483,2.6980767250061035,4.800180370896616,0.000293762976070866,0.29236912727355957,-1.5964415709124964,-5.386547854868695e-05,0.13405214250087738,0.7428374290466309,8.30712087918073e-05,0.045036930590867996,0.8057877421379089,-0.002449714345857501,-0.2672424018383026
332.0,371.0,1.2287,0.4953,11.5238,-0.0403,0.0919,-0.1281,-1.6675874195494593,-0.12304104119539261,2.103302001953125,-1.8145664930343628,0.2990402281284332,2.592073440551758,4.800115729659357,0.00019246003648731858,0.29905223846435547,-1.596410099660055,-5.082358984509483e-05,0.13869509100914001,0.7428171038627625,7.940651994431391e-05,0.04218104109168053,0.8057674765586853,-0.0016221586847677827,-0.2766616940498352
332.0,371.0,1.2287,0.4953,11.5238,-0.0403,0.0919,-0.1281,-1.668142934838766,-0.12374316155910492,2.1042213439941406,-1.8132922649383545,0.30871841311454773,2.636868476867676,4.800172078400411,0.00015851284842938185,0.2960174083709717,-1.596410099660055,-4.8979578423313797e-05,0.1327163577079773,0.7428493499755859,7.713786908425391e-05,0.024256475269794464,0.8057757019996643,-0.00025264048599638045,-0.316839337348938
332.0,371.0,1.2287,0.4953,11.5238,-0.0403,0.0919,-0.1281,-1.6690150700011195,-0.1359046846628189,2.140793561935425,-1.8114559650421143,0.32291102409362793,2.693411350250244,4.800119782775202,6.32842056802474e-05,0.2865399122238159,-1.5964534918414515,-4.645159424399026e-05,0.12651053071022034,0.7428333759307861,7.396806176984683e-05,0.029995271936058998,0.805743396282196,-1.5495201788340296e-09,-0.2622755765914917
332.0,371.0,1.2287,0.4953,11.5238,-0.0403,0.0919,-0.1281,-1.6695052585997523,-0.14535634219646454,2.130263328552246,-1.8102145195007324,0.3254697322845459,2.659775972366333,4.800072181015768,5.221410788180947e-07,0.28119540214538574,-1.5964258352862757,-4.4906410039402544e-05,0.11609485745429993,0.7428452968597412,7.199568790383637e-05,0.0365169495344162,0.8058037757873535,-2.7890816284119324e-13,-0.2445719689130783
319.0,308.0,1.1785,0.7107,11.2277,-0.0228,0.2778,-0.1199,-1.6703764400877894,-0.15975582599639893,2.078852653503418,-1.8082464933395386,0.32767948508262634,2.655257225036621,4.800092193275251,1.4533989289855498e-10,0.28460681438446045,-1.596410099660055,-4.277221523807384e-05,0.12737327814102173,0.7428493499755859,6.922681495780125e-05,0.0477088987827301,0.8057515621185303,-6.735304179040191e-19,-0.2896648049354553
319.0,308.0,1.1785,0.7107,11.2277,-0.0228,0.2778,-0.1199,-1.6712280712523402,-0.1625053435564041,2.0899505615234375,-1.8061577081680298,0.3364054560661316,2.6449928283691406,4.800112235337057,-0.00023965588479768485,0.28426456451416016,-1.5964415709124964,-4.083168460056186e-05,0.128346249461174,0.7428775429725647,6.666302942903712e-05,0.034592121839523315,0.805763840675354,-0.00026109180180355906,-0.26002681255340576
319.0,308.0,1.1785,0.7107,11.2277,-0.0228,0.2778,-0.1199,-1.6718150577940882,-0.15283823013305664,2.1212615966796875,-1.8047640323638916,0.34493914246559143,2.6318249702453613,4.8001558659370325,-6.629201379837468e-05,0.2719913721084595,-1.5963900724994105,-3.963297058362514e-05,0.1290820688009262,0.7428696751594543,6.505677447421476e-05,0.0346003919839859,0.8057798147201538,-0.00041084655094891787,-0.25852128863334656
319.0,308.0,1.1785,0.7107,11.2277,-0.0228,0.2778,-0.1199,-1.6726814709105433,-0.13935494422912598,2.148397445678711,-1.8025881052017212,0.3640788495540619,2.682434320449829,4.800119864731588,-1.845262609379006e-08,0.2865736186504364,-1.5964019934283655,-3.796127566602081e-05,0.13898919522762299,0.7427974343299866,6.278746877796948e-05,0.04637431725859642,0.8057314157485962,-0.001058076391927898,-0.25308889150619507
319.0,308.0,1.1785,0.7107,11.2277,-0.0228,0.2778,-0.1199,-1.6732288799681605,-0.13685455918312073,2.169044017791748,-1.8011653423309326,0.37832391262054443,2.7068276405334473,4.800168025284567,-7.866643447762556e-11,0.2882935106754303,-1.5964415709124964,-4.8415975470561534e-05,0.12431064248085022,0.7427811026573181,6.136061711004004e-05,0.03540237620472908,0.8057678937911987,-0.000791980535723269,-0.31419244408607483
319.0,308.0,1.1785,0.7107,11.2277,-0.0228,0.2778,-0.1199,-1.6741043529906214,-0.1338845044374466,2.164447546005249,-1.7989784479141235,0.3842722475528717,2.6949844360351562,4.8000841839011095,-6.669740105280653e-05,0.2798663377761841,-1.596410099660055,-4.7290388465626165e-05,0.11819395422935486,0.7428734302520752,1.5246047951222863e-05,0.024080917239189148,0.8057716488838196,-1.4719204045832157e-05,-0.24147912859916687
319.0,308.0,1.1785,0.7107,11.2277,-0.0228,0.2778,-0.1199,-1.6750313244261683,-0.14450305700302124,2.1663565635681152,-1.796578288078308,0.39056795835494995,2.7203564643859863,4.800092528551378,-0.0004754421242978424,0.2820706069469452,-1.5964296499835413,-4.549760342342779e-05,0.12702494859695435,0.7428374290466309,4.2437933167605024e-09,0.026786740869283676,0.8058037757873535,-3.554515015657955e-11,-0.21972939372062683
319.0,308.0,1.1785,0.7107,11.2277,-0.0228,0.2778,-0.1199,-1.675614973107809,-0.151438370347023,2.1545157432556152,-1.7950407266616821,0.3904111385345459,2.722200393676758,4.800063977926531,-0.0003939404559787363,0.2828916609287262,-1.5964258352862757,-4.4375963625498116e-05,0.12427474558353424,0.7428656220436096,1.8091955017451866e-11,0.03542264550924301,0.8058319687843323,-6.398001533680208e-15,-0.25724366307258606
319.0,308.0,1.1785,0.7107,11.2277,-0.0228,0.2778,-0.1199,-1.6765018902220667,-0.16067278385162354,2.1421098709106445,-1.7926051616668701,0.39809250831604004,2.6544246673583984,4.800123835891046,-0.00031195060000754893,0.27809983491897583,-1.5964058081256312,-4.2793450120370835e-05,0.12606829404830933,0.7427974343299866,5.0359619665834524e-15,0.03870971500873566,0.8058319687843323,-1.5450420370150702e-20,-0.27573317289352417
319.0,308.0,1.1785,0.7107,11.2277,-0.0228,0.2778,-0.1199,-1.6771170101561488,-0.16266244649887085,2.0851290225982666,-1.7910399436950684,0.40728431940078735,2.6874804496765137,4.800120423525133,-0.00027394670178182423,0.2724505662918091,-1.5964940229998987,-4.179970710538328e-05,0.12229028344154358,0.7428374290466309,2.1469093950093284e-17,0.03540366142988205,0.8058120012283325,-2.781021244627888e-24,-0.2544272243976593
319.0,308.0,1.1785,0.7107,11.2277,-0.0228,0.2778,-0.1199,-1.6780163250365199,-0.15764661133289337,2.0889720916748047,-1.7886053323745728,0.4119790196418762,2.6747183799743652,4.800100374012747,-0.00023162682191468775,0.27575141191482544,-1.5964377562152308,-4.0392733353655785e-05,0.11927658319473267,0.7428092360496521,5.9760022822030775e-21,0.047468237578868866,0.8058319687843323,-6.7158388390162e-30,-0.27312418818473816
319.0,308.0,1.1785,0.7107,11.2277,-0.0228,0.2778,-0.1199,-1.6789151630797328,-0.15638947486877441,2.1357030868530273,-1.7861257791519165,0.4252505600452423,2.727574586868286,4.800059939711847,-0.00020063579722773284,0.27649715542793274,-1.5964296499835413,-6.627553830185207e-07,0.12271016836166382,0.7428935170173645,1.663442197416507e-24,0.023805934935808182,0.8057798147201538,0.00012532653636299074,-0.22396741807460785
319.0,308.0,1.1785,0.7107,11.2277,-0.0228,0.2778,-0.1199,-1.6795669994749964,-0.15462908148765564,2.132371425628662,-1.784403920173645,0.42806148529052734,2.6530299186706543,4.800080287247457,-0.00024059407587628812,0.26022404432296753,-1.5964258352862757,-2.825430334141288e-09,0.10985368490219116,0.7428615689277649,7.09151518166284e-27,0.025417659431695938,0.805743396282196,0.00010986949200741947,-0.25742125511169434
319.0,308.0,1.1785,0.7107,11.2277,-0.0228,0.2778,-0.1199,-1.680570741693014,-0.1558823585510254,2.092189311981201,-1.7818235158920288,0.43337246775627136,2.6550941467285156,4.800068127899923,-0.00021396060765255243,0.24616128206253052,-1.5964258352862757,-7.864689260082824e-13,0.11538805067539215,0.7428133487701416,1.9739495468951628e-30,0.03692717105150223,0.8057596683502197,0.0001392928825225681,-0.2738311290740967
319.0,308.0,1.1785,0.7107,11.2277,-0.0228,0.2778,-0.1199,-1.681197305718893,-0.15847693383693695,2.117992639541626,-1.7800673246383667,0.4415434002876282,2.6897857189178467,4.800076241582193,-0.00019537890329957008,0.2517780363559723,-1.5964296499835413,-3.040400429199508e-07,0.11703231185674667,0.7427693009376526,8.415256793677244e-33,0.05032486096024513,0.8057836890220642,0.00016828202933538705,-0.23437967896461487
319.0,308.0,1.1785,0.7107,11.2277,-0.0228,0.2778,-0.1199,-1.6822039089598597,-0.161270409822464,2.1610429286956787,-1.7773420810699463,0.44299542903900146,2.6371867656707764,4.800052153855123,-0.0002062321436824277,0.2550846040248871,-1.596393887196676,-8.463066358821436e-11,0.1022360697388649,0.7428493499755859,2.342417508247298e-36,0.032690614461898804,0.8057913780212402,0.00022982883092481643,-0.24790558218955994
319.0,308.0,1.1785,0.7107,11.2277,-0.0228,0.2778,-0.1199,-1.6828957996764125,-0.16487547755241394,2.144376754760742,-1.7755991220474243,0.4456706643104553,2.679145097732544,4.800080287247457,-0.00022416327556129545,0.2581479847431183,-1.59642202058901,-3.607937787506593e-13,0.1078992486000061,0.742821455001831,9.986092864496444e-39,0.037691839039325714,0.8057795763015747,0.0002640692109707743,-0.27024877071380615
319.0,308.0,1.1785,0.7107,11.2277,-0.0228,0.2778,-0.1199,-1.6838294468321742,-0.17452625930309296,2.0877978801727295,-1.7729815244674683,0.4425194561481476,2.6725258827209473,4.800084422319689,-0.0005046724691055715,0.24021773040294647,-1.5964139143573206,-1.0042826948530401e-16,0.10675080120563507,0.7428696155548096,2.780176153220437e-42,0.03121371567249298,0.8058078289031982,0.00027133390540257096,-0.23640760779380798
304.0,283.0,0.6556,0.4038,10.1868,-0.0406,0.317,-0.1231,-1.6849538288512171,-0.18581537902355194,2.108755111694336,-1.770200490951538,0.4467688500881195,2.7033920288085938,4.800096261292257,-0.000378284981707111,0.25332826375961304,-1.5964339415179651,-2.7954575263578106e-20,0.09744937717914581,0.7428211569786072,1.401298464324817e-45,0.042077697813510895,0.8058158159255981,0.00018382286361884326,-0.20640993118286133
304.0,283.0,0.6556,0.4038,10.1868,-0.0406,0.317,-0.1231,-1.6856123409666957,-0.1887606978416443,2.0876386165618896,-1.7683610916137695,0.45230817794799805,2.6657094955444336,4.800055886596002,-0.0001406400988344103,0.24745385348796844,-1.5964458624469202,-1.1917474418645076e-22,0.1189933493733406,0.7428131103515625,0.0,0.022515403106808662,0.8058240413665771,0.00014835149340797216,-0.20088261365890503
304.0,283.0,0.6556,0.4038,10.1868,-0.0406,0.317,-0.1231,-1.686779638329977,-0.1824289858341217,2.085599899291992,-1.7657361030578613,0.46266376972198486,2.636758804321289,4.800072181015768,-0.0001687134790699929,0.24472153186798096,-1.5964415709124964,-3.317272888911898e-26,0.12021008878946304,0.7427811026573181,0.0,0.027057740837335587,0.8057878017425537,2.0435676560737193e-05,-0.28186818957328796
304.0,283.0,0.6556,0.4038,10.1868,-0.0406,0.317,-0.1231,-1.687510152856344,-0.17236579954624176,2.1003153324127197,-1.7638729810714722,0.4646396338939667,2.7103495597839355,4.800072181015768,-0.0001508750137872994,0.23994851112365723,-1.5964296499835413,-1.4142055433386863e-28,0.11044973880052567,0.7428737282752991,0.0,0.023492958396673203,0.8058363199234009,3.6783494028469477e-09,-0.22526034712791443
304.0,283.0,0.6556,0.4038,10.1868,-0.0406,0.317,-0.1231,-1.688596864739889,-0.16842995584011078,2.1793601512908936,-1.7610721588134766,0.4675024747848511,2.6784257888793945,4.800092565804281,-0.00014986610040068626,0.2568064332008362,-1.5964415709124964,-3.936493131044975e-32,0.11690231412649155,0.7428736686706543,0.0,0.03716953843832016,0.8057918548583984,8.882780307747223e-15,-0.24479711055755615
304.0,283.0,0.6556,0.4038,10.1868,-0.0406,0.317,-0.1231,-1.6897522411742152,-0.18057610094547272,2.146695852279663,-1.758339524269104,0.4672456383705139,2.6419670581817627,4.8000725013907335,-0.00015278717910405248,0.2455260008573532,-1.5964458624469202,-1.0957375900429575e-35,0.11890490353107452,0.7428736090660095,0.0,0.02560610882937908,0.8058282136917114,2.145086931296706e-20,-0.23424774408340454
304.0,283.0,0.6556,0.4038,10.1868,-0.0406,0.317,-0.1231,-1.6905719242491664,-0.1956908404827118,2.12920880317688,-1.756543755531311,0.4677698016166687,2.6288836002349854,4.800060274987974,-0.00021828737226314843,0.24587467312812805,-1.5964258352862757,-4.6713015786066155e-38,0.09780120104551315,0.7427932620048523,0.0,0.02956899255514145,0.8058357834815979,3.8610808838956e-24,-0.2417324036359787
304.0,283.0,0.6556,0.4038,10.1868,-0.0406,0.317,-0.1231,-1.691770692864889,-0.21480929851531982,2.1075832843780518,-1.7537469863891602,0.46989908814430237,2.636324167251587,4.800060647517004,-0.0005126390606164932,0.24020951986312866,-1.5964339415179651,-1.3002648450469978e-41,0.11268822848796844,0.7428897023200989,0.0,0.03198254853487015,0.8058075904846191,0.0009220841457135975,-0.21618351340293884
304.0,283.0,0.6556,0.4038,10.1868,-0.0406,0.317,-0.1231,-1.6925493679442347,-0.21603348851203918,2.135153293609619,-1.7518320083618164,0.46373221278190613,2.6569621562957764,4.800032290607252,-0.0008106841123662889,0.24835363030433655,-1.5964058081256312,-5.605193857299268e-44,0.1131889820098877,0.7428092956542969,0.0,0.04164956137537956,0.8058278560638428,0.000528804783243686,-0.24213126301765442
304.0,283.0,0.6556,0.4038,10.1868,-0.0406,0.317,-0.1231,-1.693820138970846,-0.20291762053966522,2.162294387817383,-1.749023675918579,0.4648997187614441,2.6936399936676025,4.8000762341316126,-0.000598444661591202,0.24559985101222992,-1.5964458624469202,-0.0,0.11711746454238892,0.7427852153778076,0.0,0.021250233054161072,0.8058240413665771,-0.0005125360330566764,-0.2597653269767761
304.0,283.0,0.6556,0.4038,10.1868,-0.0406,0.317,-0.1231,-1.6950026951231898,-0.2000281661748886,2.1591975688934326,-1.7461026906967163,0.46596384048461914,2.633410930633545,4.80006434300498,-0.00022476317826658487,0.24194301664829254,-1.5964377562152308,-0.0,0.1285066157579422,0.7427692413330078,0.0,0.01634243130683899,0.805791437625885,-0.00036145528429187834,-0.22274555265903473
304.0,283.0,0.6556,0.4038,10.1868,-0.0406,0.317,-0.1231,-1.6958700619139613,-0.20383302867412567,2.0798370838165283,-1.7442560195922852,0.4708614647388458,2.6994547843933105,4.800012017577448,-0.00017960627155844122,0.2344798743724823,-1.5964296499835413,-0.0,0.12274149060249329,0.7428134083747864,0.0,0.03257296234369278,0.8058158159255981,-0.0001284789468627423,-0.2907577455043793
304.0,283.0,0.6556,0.4038,10.1868,-0.0406,0.317,-0.1231,-1.6970764599242152,-0.21075183153152466,2.1414406299591064,-1.7414228916168213,0.4687519669532776,2.6553406715393066,4.800012017577448,-0.00025749305495992303,0.2249286025762558,-1.5964339415179651,-0.0,0.12104097008705139,0.7428615093231201,0.0,0.030082233250141144,0.8058158159255981,-3.1026153868296547e-10,-0.30404600501060486
304.0,283.0,0.6556,0.4038,10.1868,-0.0406,0.317,-0.1231,-1.6979676685728968,-0.21293935179710388,2.1564202308654785,-1.7395318746566772,0.4663037359714508,2.692427158355713,4.800020205765524,-0.0002722525387071073,0.24759694933891296,-1.5964339415179651,-0.0,0.1298447847366333,0.7428255081176758,0.0,0.035241931676864624,0.8058237433433533,-5.584598674343924e-14,-0.2685590982437134
304.0,283.0,0.6556,0.4038,10.1868,-0.0406,0.317,-0.1231,-1.6992541752257289,-0.21280135214328766,2.105558395385742,-1.7367596626281738,0.4662625789642334,2.635291576385498,4.800028334348955,-0.00014711386756971478,0.24332129955291748,-1.5964577833758753,-0.0,0.11881954967975616,0.7429015040397644,0.0,0.02593805640935898,0.8057715892791748,-1.3486151081790253e-19,-0.292680948972702
304.0,283.0,0.6556,0.4038,10.1868,-0.0406,0.317,-0.1231,-1.7001096210875453,-0.21376194059848785,2.1793994903564453,-1.734924077987671,0.46920880675315857,2.61677622795105,4.799996349006452,-0.0001547045394545421,0.24620196223258972,-1.59642202058901,-0.0,0.12176750600337982,0.7427892088890076,0.0,0.020791644230484962,0.8058158159255981,-2.427459900579846e-23,-0.2868807315826416
304.0,283.0,0.6556,0.4038,10.1868,-0.0406,0.317,-0.1231,-1.7014485798277796,-0.21731802821159363,2.1560442447662354,-1.7320668697357178,0.46689367294311523,2.611602544784546,4.799996356457033,-0.00015460581926163286,0.22809192538261414,-1.5964377562152308,-0.0,0.11842659115791321,0.742781400680542,0.0,0.02541607990860939,0.8058037757873535,-0.00011356933100614697,-0.31132209300994873
302.0,280.0,0.25,0.2237,9.1316,-0.0481,0.277,-0.1249,-1.7027150593199671,-0.22140468657016754,2.187931537628174,-1.729318618774414,0.4659673869609833,2.6649131774902344,4.799988257675924,-0.0002774109598249197,0.24973076581954956,-1.5964058081256312,-0.0,0.11795859038829803,0.7428734302520752,0.0,0.03473471850156784,0.8058360815048218,-0.0001612707565072924,-0.29476091265678406
302.0,280.0,0.25,0.2237,9.1316,-0.0481,0.277,-0.1249,-1.70355286220693,-0.2230091243982315,2.1659059524536133,-1.7274874448776245,0.46396365761756897,2.5943031311035156,4.7999557358916185,-0.0004649067122954875,0.24197757244110107,-1.5964415709124964,-0.0,0.14039143919944763,0.7428455352783203,0.0,0.01609739474952221,0.8057955503463745,-0.00013925513485446572,-0.3005680441856384
302.0,280.0,0.25,0.2237,9.1316,-0.0481,0.277,-0.1249,-1.704928537408346,-0.22469021379947662,2.169036865234375,-1.7246214151382446,0.4671291708946228,2.667708396911621,4.7999563095863245,-0.0008677241276018322,0.2475886046886444,-1.596381966267721,-0.0,0.13601860404014587,0.7427613735198975,0.0,0.021721210330724716,0.805791437625885,-0.00011301872291369364,-0.32003098726272583
302.0,280.0,0.25,0.2237,9.1316,-0.0481,0.277,-0.1249,-1.7057911358275355,-0.2271387130022049,2.135991334915161,-1.7227866649627686,0.4702443778514862,2.674801826477051,4.799984122603693,-0.0006256112828850746,0.2334987223148346,-1.59642202058901,-0.0,0.12717774510383606,0.7428777813911438,0.0,0.030392516404390335,0.8058239817619324,-0.00010040802590083331,-0.29334309697151184
302.0,280.0,0.25,0.2237,9.1316,-0.0481,0.277,-0.1249,-1.707182069818014,-0.23075421154499054,2.187767505645752,-1.7200524806976318,0.4652283489704132,2.6186084747314453,4.800016651838579,-0.0007043315563350916,0.23155973851680756,-1.5964496771441858,-0.0,0.13154935836791992,0.7428136467933655,0.0,0.022381536662578583,0.8057716488838196,-0.0001288100320380181,-0.31722766160964966
302.0,280.0,0.25,0.2237,9.1316,-0.0481,0.277,-0.1249,-1.7085401020445765,-0.23360675573349,2.2080869674682617,-1.7172130346298218,0.4596909284591675,2.5649943351745605,4.7999682677681825,-0.0023662345483899117,0.22615210711956024,-1.5964019934283655,-0.0,0.13787582516670227,0.7428373694419861,0.0,0.012068485841155052,0.8057716488838196,-0.0001503925450379029,-0.3435649275779724
302.0,280.0,0.25,0.2237,9.1316,-0.0481,0.277,-0.1249,-1.7095080814757289,-0.23690500855445862,2.163459539413452,-1.7153645753860474,0.45599332451820374,2.6506381034851074,4.799980725138941,-0.0035084960982203484,0.21781224012374878,-1.5964377562152308,-0.0,0.12147870659828186,0.7428735494613647,0.0,0.034563466906547546,0.805799663066864,-0.00010415612632641569,-0.3350013494491577
302.0,280.0,0.25,0.2237,9.1316,-0.0481,0.277,-0.1249,-1.7109466991820277,-0.24622881412506104,2.1349704265594482,-1.7126165628433228,0.45808327198028564,2.6577937602996826,4.799916352122583,-0.003201212966814637,0.22174066305160522,-1.5964296499835413,-0.0,0.1266380399465561,0.7428136467933655,0.0,0.020590268075466156,0.8058078289031982,-0.00011491668556118384,-0.3507777154445648
302.0,280.0,0.25,0.2237,9.1316,-0.0481,0.277,-0.1249,-1.7119018040099085,-0.2481757402420044,2.113037586212158,-1.710801124572754,0.4591100811958313,2.6181938648223877,4.799936736911096,-0.0027510288637131453,0.23231953382492065,-1.5964177290545862,-0.0,0.12917904555797577,0.7427772879600525,0.0,0.019092055037617683,0.8058158159255981,-0.00010722180013544858,-0.37424206733703613
302.0,280.0,0.25,0.2237,9.1316,-0.0481,0.277,-0.1249,-1.713431020776266,-0.24598108232021332,2.1894900798797607,-1.708022952079773,0.4598865211009979,2.66947340965271,4.799924599915304,-0.0022095227614045143,0.22823025286197662,-1.5964697043048304,-0.0,0.1308184415102005,0.742821455001831,0.0,0.014462827704846859,0.8057674765586853,-0.00012769069871865213,-0.3588818609714508
302.0,280.0,0.25,0.2237,9.1316,-0.0481,0.277,-0.1249,-1.7144085369505824,-0.24032551050186157,2.2149136066436768,-1.7062565088272095,0.45895060896873474,2.6567814350128174,4.799968707352438,-0.0015180503251031041,0.22877174615859985,-1.596393887196676,-0.0,0.11618371307849884,0.7428655624389648,0.0,0.009694501757621765,0.8058522343635559,-0.00011927811283385381,-0.3602100908756256
302.0,280.0,0.25,0.2237,9.1316,-0.0481,0.277,-0.1249,-1.7158776722350062,-0.24532723426818848,2.135439872741699,-1.7035117149353027,0.46129879355430603,2.644699811935425,4.799904490798273,-0.0007561647216789424,0.2358843982219696,-1.59642202058901,-0.0,0.13236986100673676,0.7428333759307861,0.0,0.015412399545311928,0.8058278560638428,-0.00010849376849364489,-0.3346811532974243
302.0,280.0,0.25,0.2237,9.1316,-0.0481,0.277,-0.1249,-1.717497011224264,-0.2575053572654724,2.214634895324707,-1.7007805109024048,0.45907583832740784,2.6106204986572266,4.799916411727228,-0.0006020955624990165,0.23225176334381104,-1.596410099660055,-0.0,0.14071474969387054,0.7428333759307861,0.0,0.010001648217439651,0.8058199286460876,-7.754484977340326e-05,-0.3477676510810852
302.0,280.0,0.25,0.2237,9.1316,-0.0481,0.277,-0.1249,-1.7185455761351527,-0.2597554624080658,2.2189807891845703,-1.6989045143127441,0.4625503122806549,2.6422266960144043,4.799916724651613,-0.0004925388493575156,0.2361014187335968,-1.596393887196676,-0.0,0.11517146229743958,0.7428452968597412,0.0,0.018061604350805283,0.8057878017425537,-9.15199052542448e-05,-0.30767762660980225
302.0,280.0,0.25,0.2237,9.1316,-0.0481,0.277,-0.1249,-1.7200800381102503,-0.25874459743499756,2.1664817333221436,-1.6961191892623901,0.46110671758651733,2.641145706176758,4.799916732102194,-0.0005065607256256044,0.23657934367656708,-1.5963743368731897,-0.0,0.12847551703453064,0.7428455352783203,0.0,0.01588052697479725,0.8057955503463745,-8.74173638294451e-05,-0.3769630193710327
302.0,280.0,0.25,0.2237,9.1316,-0.0481,0.277,-0.1249,-1.721151968041891,-0.26348739862442017,2.214646100997925,-1.694275140762329,0.46260738372802734,2.6218724250793457,4.799956868379869,-0.00045087424223311245,0.2331477254629135,-1.5964339415179651,-0.0,0.11645191162824631,0.7428373694419861,0.0,0.006161213386803865,0.8057633638381958,-8.336856990354136e-05,-0.3542763590812683
302.0,280.0,0.25,0.2237,9.1316,-0.0481,0.277,-0.1249,-1.7227946720519007,-0.2724059224128723,2.2075541019439697,-1.6915520429611206,0.4672008454799652,2.6528408527374268,4.799900810211458,-0.0003811031056102365,0.24048258364200592,-1.5964258352862757,-0.0,0.12478616833686829,0.742821455001831,0.0,0.003031904809176922,0.8058239817619324,-7.795284182066098e-05,-0.3254737854003906
302.0,280.0,0.25,0.2237,9.1316,-0.0481,0.277,-0.1249,-1.7244483433165492,-0.2710811495780945,2.1627984046936035,-1.6887485980987549,0.46184319257736206,2.6690797805786133,4.799965056567945,-0.0003144223883282393,0.2306412160396576,-1.5964377562152308,-0.0,0.12261465936899185,0.7428136467933655,0.0,0.020108235999941826,0.8058037757873535,-9.646676335250959e-05,-0.3490510880947113
364.0,331.0,0.0849,0.119,8.6507,-0.0531,0.2011,-0.1226,-1.7255493603148402,-0.2671636939048767,2.196718692779541,-1.6868391036987305,0.4612925350666046,2.6513352394104004,4.799884456187048,-0.000329445640090853,0.23538857698440552,-1.5963981787311,-0.0,0.13038690388202667,0.7427653074264526,0.0,0.03164266049861908,0.8057955503463745,-0.00012143106869189069,-0.3620550036430359
364.0,331.0,0.0849,0.119,8.6507,-0.0531,0.2011,-0.1226,-1.7271725140013636,-0.2752091586589813,2.2401301860809326,-1.684067964553833,0.45490238070487976,2.6513562202453613,4.799900765507974,-0.0005478696548379958,0.22138285636901855,-1.5964296499835413,-0.0,0.13773472607135773,0.7428414225578308,0.0,0.0128374844789505,0.8058522939682007,-0.0001104338516597636,-0.33688226342201233
364.0,331.0,0.0849,0.119,8.6507,-0.0531,0.2011,-0.1226,-1.72825350383901,-0.28216174244880676,2.1872074604034424,-1.6821959018707275,0.4534820020198822,2.65586519241333,4.799904870777883,-0.0005450603784993291,0.23846924304962158,-1.5963743368731897,-0.0,0.12608936429023743,0.742805540561676,0.0,0.01465437188744545,0.8058117032051086,-0.00019509920093696564,-0.30746757984161377
364.0,331.0,0.0849,0.119,8.6507,-0.0531,0.2011,-0.1226,-1.729915281335348,-0.28526046872138977,2.273202896118164,-1.679495930671692,0.4495428502559662,2.581861734390259,4.799916732102194,-0.0004188664024695754,0.24480140209197998,-1.5964139143573206,-0.0,0.13338923454284668,0.7428414225578308,0.0,0.007357914000749588,0.8058037757873535,-0.00021194475993979722,-0.3303544223308563
364.0,331.0,0.0849,0.119,8.6507,-0.0531,0.2011,-0.1226,-1.731577535668844,-0.28153327107429504,2.2313239574432373,-1.6767559051513672,0.4490611255168915,2.6275506019592285,4.7999126491840265,-0.00033975133555941284,0.2281617522239685,-1.5964177290545862,-0.0,0.12498068809509277,0.742809534072876,0.0,0.01176036149263382,0.8057877421379089,-0.00023612697259522974,-0.35553282499313354
364.0,331.0,0.0849,0.119,8.6507,-0.0531,0.2011,-0.1226,-1.732633729974264,-0.27925172448158264,2.214944839477539,-1.6749755144119263,0.44821321964263916,2.630462169647217,4.799908633321085,-0.0003017619310412556,0.2349899858236313,-1.5964258352862757,-0.0,0.11787386238574982,0.7428736090660095,0.0,0.003755350597202778,0.8057795166969299,-0.0002089690533466637,-0.33564043045043945
364.0,331.0,0.0849,0.119,8.6507,-0.0531,0.2011,-0.1226,-1.7343975506224574,-0.27833908796310425,2.2885191440582275,-1.6723604202270508,0.452510267496109,2.5971686840057373,4.7998844412858865,-0.0002584230969659984,0.2398272454738617,-1.5963900724994105,-0.0,0.11887803673744202,0.7428574562072754,0.0,0.039239801466464996,0.805807888507843,-0.00017797316832002252,-0.34411484003067017
364.0,331.0,0.0849,0.119,8.6507,-0.0531,0.2011,-0.1226,-1.7354346714415492,-0.2770470380783081,2.273422956466675,-1.6704952716827393,0.4489082098007202,2.6399900913238525,4.799880440324106,-0.0002358440833631903,0.2351861298084259,-1.5964296499835413,-0.0,0.13061359524726868,0.7428695559501648,0.0,0.023972220718860626,0.8058075308799744,-0.0001619581744307652,-0.36970022320747375
364.0,331.0,0.0849,0.119,8.6507,-0.0531,0.2011,-0.1226,-1.7370835743346156,-0.28156059980392456,2.2533583641052246,-1.6679039001464844,0.4465210437774658,2.6772828102111816,4.799908923893728,-0.0002756521280389279,0.24116772413253784,-1.5964458624469202,-0.0,0.14449383318424225,0.7428092956542969,0.0,0.012962361797690392,0.8057918548583984,-0.00014269771054387093,-0.35928574204444885
364.0,331.0,0.0849,0.119,8.6507,-0.0531,0.2011,-0.1226,-1.7382661304869593,-0.28608736395835876,2.237966775894165,-1.6660557985305786,0.44350066781044006,2.6106996536254883,4.79987662562684,-0.00023837282788008451,0.2338213324546814,-1.596393887196676,-0.0,0.13175079226493835,0.7427973747253418,0.0,0.0175570510327816,0.8057918548583984,-0.0001322157186223194,-0.38481807708740234
364.0,331.0,0.0849,0.119,8.6507,-0.0531,0.2011,-0.1226,-1.7399636707701625,-0.29256772994995117,2.2718749046325684,-1.6634316444396973,0.43958932161331177,2.5902645587921143,4.7998926667268655,-0.0010781987803056836,0.23503351211547852,-1.5963576475726526,-0.0,0.13779997825622559,0.7428414225578308,0.0,0.014633235521614552,0.8058158159255981,-8.946198795456439e-05,-0.38633933663368225
364.0,331.0,0.0849,0.119,8.6507,-0.0531,0.2011,-0.1226,-1.7417050800719203,-0.3002331852912903,2.264597177505493,-1.6608275175094604,0.4459124505519867,2.642275810241699,4.799861031561651,-0.0006521707400679588,0.24495333433151245,-1.5964019934283655,-0.0,0.14448562264442444,0.7428452968597412,4.060278779860482e-09,0.008115199394524097,0.8058281540870667,-8.125588647089899e-05,-0.3928442895412445
364.0,331.0,0.0849,0.119,8.6507,-0.0531,0.2011,-0.1226,-1.742882867852682,-0.30181702971458435,2.232041835784912,-1.6591005325317383,0.43917250633239746,2.55452299118042,4.799876670330324,-0.0006780630210414529,0.22895632684230804,-1.5964139143573206,-0.0,0.13964441418647766,0.7428013682365417,1.7309605138127182e-11,0.019640810787677765,0.8057836294174194,-0.00010206927254330367,-0.38868600130081177
364.0,331.0,0.0849,0.119,8.6507,-0.0531,0.2011,-0.1226,-1.7447697124876917,-0.29966238141059875,2.2527101039886475,-1.6563563346862793,0.4370361268520355,2.6461963653564453,4.799841011851587,-0.0005170959047973156,0.24392393231391907,-1.5963981787311,-0.0,0.13851386308670044,0.7427932620048523,4.818192760459687e-15,0.00636993208900094,0.8057592511177063,-0.00011309867113595828,-0.41383618116378784
364.0,331.0,0.0849,0.119,8.6507,-0.0531,0.2011,-0.1226,-1.7459713421263636,-0.298980176448822,2.2492549419403076,-1.6546090841293335,0.43343839049339294,2.6467819213867188,4.79982057490901,-0.0004118859360460192,0.22665607929229736,-1.5964058081256312,-0.0,0.13761739432811737,0.7428373694419861,2.0540707789594393e-17,0.01658148318529129,0.805832028388977,-0.00010945717804133892,-0.3637160658836365
