ramyac6/ROB537/final_project/csv/bad/bad_88.csv
tof_0,tof_1,accelx,accely,accelz,gyrox,gyroy,gyroz,shoulder_lift_joint_position,shoulder_lift_joint_velocity,shoulder_lift_joint_effort,elbow_joint_position,elbow_joint_velocity,elbow_joint_effort,wrist_1_joint_position,wrist_1_joint_velocity,wrist_1_joint_effort,wrist_2_joint_position,wrist_2_joint_velocity,wrist_2_joint_effort,wrist_3_joint_position,wrist_3_joint_velocity,wrist_3_joint_effort,shoulder_pan_joint_position,shoulder_pan_joint_velocity,shoulder_pan_joint_effort
839.0,741.0,4.2473,-1.7486,8.0907,-0.0399,0.0235,-0.1159,-1.5844265423216761,0.0,2.2054998874664307,-1.6959680318832397,-0.0,2.178372859954834,4.340586825008057,0.0,0.2869129478931427,-1.3622224966632288,0.0,-0.023280475288629532,0.7537758350372314,0.0,0.0054556699469685555,0.8981184959411621,0.0,-0.03265802562236786
839.0,741.0,4.2473,-1.7486,8.0907,-0.0399,0.0235,-0.1159,-1.5844108066954554,0.0,2.2166337966918945,-1.6959965229034424,-0.0,2.189143180847168,4.34051434576001,0.0,0.29225534200668335,-1.362251106892721,0.0,-0.023308852687478065,0.7538037300109863,0.0,-0.003708688309416175,0.8981344699859619,0.0,-0.004888799041509628
839.0,741.0,4.2473,-1.7486,8.0907,-0.0399,0.0235,-0.1159,-1.584442754785055,0.0,2.197906494140625,-1.6960089206695557,-0.0,2.1819262504577637,4.340554876918457,0.0,0.3061375916004181,-1.3622549215899866,0.0,-0.022090334445238113,0.7538156509399414,0.0,-0.0019817196298390627,0.8981704711914062,0.0,-0.04087730869650841
839.0,741.0,4.2473,-1.7486,8.0907,-0.0399,0.0235,-0.1159,-1.5844184360899867,0.0,2.2560575008392334,-1.6960170269012451,-0.0,2.1707448959350586,4.340562983150146,0.0,0.2928900122642517,-1.3622472921954554,0.0,-0.02589702233672142,0.7539079189300537,0.0,-0.003577630966901779,0.8981585502624512,0.0,0.019085455685853958
839.0,741.0,4.2473,-1.7486,8.0907,-0.0399,0.0235,-0.1159,-1.584386488000387,0.0,2.2342917919158936,-1.6959644556045532,-0.0,2.2017276287078857,4.340571089381836,0.0,0.27412161231040955,-1.3622306028949183,0.0,-0.029588764533400536,0.753839373588562,0.0,-0.007326868362724781,0.8981385827064514,0.0,0.007975554093718529
839.0,741.0,4.2473,-1.7486,8.0907,-0.0399,0.0235,-0.1159,-1.5844108066954554,0.0,2.2370104789733887,-1.6960610151290894,-0.0,2.153419017791748,4.3405749040791015,0.0,0.29724690318107605,-1.3622306028949183,0.0,-0.03363574668765068,0.753807783126831,0.0,-0.013328462839126587,0.8981102108955383,0.0,-0.02638058178126812
839.0,741.0,4.2473,-1.7486,8.0907,-0.0399,0.0235,-0.1159,-1.5844422779478968,0.0,2.2436530590057373,-1.6960487365722656,-0.0,2.186495542526245,4.340551062221191,0.0,0.2972869873046875,-1.362251106892721,0.0,-0.022400859743356705,0.7538679242134094,0.0,0.0016160316299647093,0.898138165473938,0.0,0.0061462195590138435
844.0,687.0,4.1635,-1.7743,8.2391,-0.033,0.0205,-0.1155,-1.5843945942320765,0.0,2.2447500228881836,-1.6960325241088867,-0.0,2.1959571838378906,4.340562983150146,0.0,0.2845548391342163,-1.3621986548053187,0.0,-0.03167812153697014,0.7538156509399414,0.0,-0.014031273312866688,0.8981262445449829,0.0,-0.01426924578845501
844.0,687.0,4.1635,-1.7743,8.2391,-0.033,0.0205,-0.1155,-1.5844303570189417,0.0,2.2589831352233887,-1.6960325241088867,-0.0,2.2085490226745605,4.3405348497578125,0.0,0.30196261405944824,-1.3622387091266077,0.0,-0.029146485030651093,0.753847599029541,0.0,0.008656030520796776,0.8981102705001831,0.0,-0.022338423877954483
844.0,687.0,4.1635,-1.7743,8.2391,-0.033,0.0205,-0.1155,-1.584442754785055,0.0,2.244847059249878,-1.696053147315979,-0.0,2.1971092224121094,4.340554400081299,0.0,0.29017841815948486,-1.3622306028949183,0.0,-0.020697299391031265,0.7538356781005859,0.0,0.00486784428358078,0.8981344699859619,0.0,-0.03556472063064575
844.0,687.0,4.1635,-1.7743,8.2391,-0.033,0.0205,-0.1155,-1.5843469105162562,0.0,2.2890071868896484,-1.6960129737854004,-0.0,2.2066235542297363,4.34050623952832,0.0,0.2989140450954437,-1.3622224966632288,0.0,-0.019381515681743622,0.75385981798172,0.0,-0.0028375620022416115,0.8981749415397644,0.0,-0.030395112931728363
844.0,687.0,4.1635,-1.7743,8.2391,-0.033,0.0205,-0.1155,-1.584402700463766,0.0,2.2179815769195557,-1.6960170269012451,-0.0,2.137526273727417,4.340510054225586,0.0,0.2975345253944397,-1.362263027821676,0.0,-0.030423326417803764,0.7538118958473206,0.0,0.003455584403127432,0.8981545567512512,0.0,-0.005704381503164768
844.0,687.0,4.1635,-1.7743,8.2391,-0.033,0.0205,-0.1155,-1.5843578777708949,0.0,2.228816509246826,-1.696000576019287,-0.0,2.1747007369995117,4.340530558223389,0.0,0.28893452882766724,-1.3622143904315394,0.0,-0.02697381004691124,0.7537757754325867,0.0,-0.0045651625841856,0.8981061577796936,0.0,0.0037722978740930557
844.0,687.0,4.1635,-1.7743,8.2391,-0.033,0.0205,-0.1155,-1.584386488000387,0.0,2.213135004043579,-1.6960089206695557,-0.0,2.1939210891723633,4.340522451991699,0.0,0.30180084705352783,-1.3622472921954554,0.0,-0.04224080219864845,0.7538156509399414,0.0,-0.0058215027675032616,0.8981385231018066,0.0,-0.03151972219347954
844.0,687.0,4.1635,-1.7743,8.2391,-0.033,0.0205,-0.1155,-1.5843903026976527,0.0,2.2005109786987305,-1.6960129737854004,-0.0,2.2503833770751953,4.340522451991699,0.0,0.2979282736778259,-1.36229116121401,0.0,-0.02890162169933319,0.7538237571716309,0.0,-0.005777849815785885,0.8981667757034302,0.0,0.02252417616546154
844.0,687.0,4.1635,-1.7743,8.2391,-0.033,0.0205,-0.1155,-1.5843903026976527,0.0,2.2146687507629395,-1.696004867553711,-0.0,2.184631824493408,4.3405467706867675,0.0,0.2869354486465454,-1.3622306028949183,0.0,-0.029096880927681923,0.7538037300109863,0.0,-0.004205922596156597,0.8981422185897827,0.0,-0.05674191564321518
844.0,687.0,4.1635,-1.7743,8.2391,-0.033,0.0205,-0.1155,-1.584386488000387,0.0,2.258835554122925,-1.6960244178771973,-0.0,2.164170742034912,4.340518160457275,0.0,0.2931627333164215,-1.362263027821676,0.0,-0.03578371927142143,0.7538159489631653,0.0,-0.008378488942980766,0.8981180787086487,0.0,0.014308784157037735
844.0,687.0,4.1635,-1.7743,8.2391,-0.033,0.0205,-0.1155,-1.5844108066954554,0.0,2.219545602798462,-1.6960569620132446,-0.0,2.1682567596435547,4.3404905039021,0.0,0.27916398644447327,-1.3622186819659632,0.0,-0.027647286653518677,0.7537915110588074,0.0,0.009124921634793282,0.898146390914917,0.0,0.045834191143512726
844.0,687.0,4.1635,-1.7743,8.2391,-0.033,0.0205,-0.1155,-1.5844108066954554,0.0,2.223625421524048,-1.6960170269012451,-0.0,2.168221950531006,4.340566797847412,0.0,0.2800123989582062,-1.3622143904315394,0.0,-0.024213923141360283,0.7537798881530762,0.0,-0.012542655691504478,0.8981344699859619,0.0,-0.051357854157686234
840.0,662.0,4.1557,-1.7797,8.0913,-0.0371,0.0318,-0.0785,-1.5844065151610316,0.0,2.25691556930542,-1.6960170269012451,-0.0,2.148984909057617,4.340507193202637,0.0,0.2852393388748169,-1.362279240285055,0.0,-0.027362052351236343,0.753807783126831,0.0,-0.007627284154295921,0.8981545567512512,0.0,0.0016838954761624336
840.0,662.0,4.1557,-1.7797,8.0913,-0.0371,0.0318,-0.0785,-1.5843578777708949,0.0,2.201449155807495,-1.6960569620132446,-0.0,2.216517925262451,4.3405348497578125,0.0,0.2984073758125305,-1.3621862570392054,0.0,-0.026324748992919922,0.7538678050041199,0.0,0.0021470151841640472,0.898146390914917,0.0,-0.025900626555085182
840.0,662.0,4.1557,-1.7797,8.0913,-0.0371,0.0318,-0.0785,-1.5843540630736292,0.0,2.2157771587371826,-1.6960325241088867,-0.0,2.183953285217285,4.34059111654248,0.0,0.27878254652023315,-1.3622430006610315,0.0,-0.03338555246591568,0.7537996768951416,0.0,-0.009998836554586887,0.8981467485427856,0.0,-0.020268991589546204
840.0,662.0,4.1557,-1.7797,8.0913,-0.0371,0.0318,-0.0785,-1.584346433679098,0.0,2.268338680267334,-1.6960325241088867,-0.0,2.184298515319824,4.340558691615723,0.0,0.28993308544158936,-1.3622186819659632,0.0,-0.02148738130927086,0.7538516521453857,0.0,-0.01246246974915266,0.8981422185897827,0.0,-0.005122045055031776
840.0,662.0,4.1557,-1.7797,8.0913,-0.0371,0.0318,-0.0785,-1.5844065151610316,0.0,2.24064302444458,-1.6960244178771973,-0.0,2.173555374145508,4.340554876918457,0.0,0.2916982173919678,-1.3622592131244105,0.0,-0.027312614023685455,0.7538800835609436,0.0,-0.010549205355346203,0.8981221318244934,0.0,0.0032339352183043957
840.0,662.0,4.1557,-1.7797,8.0913,-0.0371,0.0318,-0.0785,-1.584386488000387,0.0,2.2569515705108643,-1.6960170269012451,-0.0,2.1924021244049072,4.340562983150146,0.0,0.28966784477233887,-1.362263027821676,0.0,-0.026518767699599266,0.7538037896156311,0.0,-0.013300394639372826,0.8981262445449829,0.0,0.006625437177717686
840.0,662.0,4.1557,-1.7797,8.0913,-0.0371,0.0318,-0.0785,-1.5844384632506312,0.0,2.2397141456604004,-1.6960047483444214,-0.0,2.1628499031066895,4.340551062221191,0.0,0.2808564305305481,-1.3622263113604944,0.0,-0.021287832409143448,0.7538037300109863,0.0,-0.01325921155512333,0.8981828093528748,0.0,0.018525157123804092
840.0,662.0,4.1557,-1.7797,8.0913,-0.0371,0.0318,-0.0785,-1.5843984089293421,0.0,2.230260133743286,-1.696000576019287,-0.0,2.2360291481018066,4.340526743526123,0.0,0.2881260812282562,-1.3621986548053187,0.0,-0.027455024421215057,0.7538197636604309,0.0,0.003990630153566599,0.8981627225875854,0.0,-0.027128491550683975
840.0,662.0,4.1557,-1.7797,8.0913,-0.0371,0.0318,-0.0785,-1.58445467571401,0.0,2.2364673614501953,-1.6960089206695557,-0.0,2.2149438858032227,4.340518160457275,0.0,0.29127800464630127,-1.3622430006610315,0.0,-0.025893505662679672,0.7538037896156311,0.0,0.001005067490041256,0.8981024622917175,0.0,0.0029981813859194517
840.0,662.0,4.1557,-1.7797,8.0913,-0.0371,0.0318,-0.0785,-1.5844346485533656,0.0,2.2595627307891846,-1.6960121393203735,-0.0,2.2123825550079346,4.340571089381836,0.0,0.28769633173942566,-1.362263027821676,0.0,-0.0254070945084095,0.7538115382194519,0.0,-0.0007607212755829096,0.898146390914917,0.0,0.05124399811029434
840.0,662.0,4.1557,-1.7797,8.0913,-0.0371,0.0318,-0.0785,-1.5843788586058558,0.0,2.2340469360351562,-1.696044921875,-0.0,2.1783363819122314,4.34051434576001,0.0,0.29063308238983154,-1.362234894429342,0.0,-0.02159435674548149,0.7538115978240967,0.0,-0.0077955094166100025,0.8981505036354065,0.0,0.0643274337053299
840.0,662.0,4.1557,-1.7797,8.0913,-0.0371,0.0318,-0.0785,-1.5844222507872523,0.0,2.2616138458251953,-1.696097731590271,-0.0,2.143270492553711,4.340566797847412,0.0,0.29577386379241943,-1.3622224966632288,0.0,-0.021838046610355377,0.7538718581199646,0.0,-0.005759907886385918,0.898146390914917,0.0,-0.02207529917359352
838.0,640.0,4.2096,-1.7563,8.1147,-0.033,0.0283,-0.1171,-1.5844222507872523,0.0,2.2187304496765137,-1.695980429649353,-0.0,2.1565020084381104,4.3405348497578125,0.0,0.30151525139808655,-1.362279240285055,0.0,-0.025774432346224785,0.7538434267044067,0.0,-0.006426723673939705,0.8981627225875854,0.0,0.008882910944521427
838.0,640.0,4.2096,-1.7563,8.1147,-0.033,0.0283,-0.1171,-1.5844103298582972,0.0,2.2352240085601807,-1.6960368156433105,-0.0,2.1988942623138428,4.340542479152344,0.0,0.2958338260650635,-1.3622143904315394,0.0,-0.0342901349067688,0.7538678646087646,0.0,-0.004054080694913864,0.8981184363365173,0.0,0.008247477933764458
838.0,640.0,4.2096,-1.7563,8.1147,-0.033,0.0283,-0.1171,-1.5843869648375453,0.0,2.2802984714508057,-1.696000576019287,-0.0,2.1932296752929688,4.3405467706867675,0.0,0.29307740926742554,-1.3622029463397425,0.0,-0.02945122681558132,0.7538275122642517,0.0,-0.00100513210054487,0.8981304168701172,0.0,0.027391545474529266
838.0,640.0,4.2096,-1.7563,8.1147,-0.033,0.0283,-0.1171,-1.584414621392721,0.0,2.193453550338745,-1.6960161924362183,-0.0,2.2416536808013916,4.340510054225586,0.0,0.2972334623336792,-1.3621986548053187,0.0,-0.017146676778793335,0.7537798881530762,0.0,0.005753634497523308,0.8981627225875854,0.0,-0.029470788314938545
838.0,640.0,4.2096,-1.7563,8.1147,-0.033,0.0283,-0.1171,-1.5844065151610316,0.0,2.2446506023406982,-1.696028470993042,-0.0,2.1890554428100586,4.340554876918457,0.0,0.27446576952934265,-1.3622143904315394,0.0,-0.037768200039863586,0.7538800835609436,0.0,-0.0006006474723108113,0.8981261849403381,0.0,0.034875087440013885
838.0,640.0,4.2096,-1.7563,8.1147,-0.033,0.0283,-0.1171,-1.5844303570189417,0.0,2.2863240242004395,-1.696044921875,-0.0,2.1701488494873047,4.3405067163654785,0.0,0.2862255871295929,-1.3622592131244105,0.0,-0.033806271851062775,0.7538838982582092,0.0,0.0018532488029450178,0.8981422185897827,0.0,-0.02984338440001011
838.0,640.0,4.2096,-1.7563,8.1147,-0.033,0.0283,-0.1171,-1.584402700463766,0.0,2.2382419109344482,-1.6960170269012451,-0.0,2.14617657661438,4.340566797847412,0.0,0.30439212918281555,-1.3621986548053187,0.0,-0.02536918967962265,0.7538316249847412,0.0,-0.002699312288314104,0.898146390914917,0.0,-0.0015707011334598064
838.0,640.0,4.2096,-1.7563,8.1147,-0.033,0.0283,-0.1171,-1.584402700463766,0.0,2.234572410583496,-1.6960006952285767,-0.0,2.178874969482422,4.340530558223389,0.0,0.30373871326446533,-1.3622472921954554,0.0,-0.014782259240746498,0.753847599029541,0.0,0.0043734218925237656,0.8981585502624512,0.0,-0.023118117824196815
838.0,640.0,4.2096,-1.7563,8.1147,-0.033,0.0283,-0.1171,-1.5844108066954554,0.0,2.295171022415161,-1.696000576019287,-0.0,2.156968116760254,4.3405467706867675,0.0,0.29061055183410645,-1.3622553984271448,0.0,-0.030772116035223007,0.7538197636604309,0.0,-0.0008408826543018222,0.8981422781944275,0.0,-0.02390037663280964
838.0,640.0,4.2096,-1.7563,8.1147,-0.033,0.0283,-0.1171,-1.5844222507872523,0.0,2.222482204437256,-1.696004867553711,-0.0,2.1800639629364014,4.340542479152344,0.0,0.29104509949684143,-1.362251106892721,0.0,-0.015966102480888367,0.7537874579429626,0.0,-0.007027563638985157,0.8981586694717407,0.0,-0.02057461440563202
838.0,640.0,4.2096,-1.7563,8.1147,-0.033,0.0283,-0.1171,-1.5844346485533656,0.0,2.3014254570007324,-1.6960408687591553,-0.0,2.1556477546691895,4.340554876918457,0.0,0.29947635531425476,-1.362234894429342,0.0,-0.02950146608054638,0.7537719011306763,0.0,0.004513915162533522,0.8981184363365173,0.0,0.016564862802624702
838.0,640.0,4.2096,-1.7563,8.1147,-0.033,0.0283,-0.1171,-1.5844222507872523,0.0,2.2827727794647217,-1.696004867553711,-0.0,2.1454288959503174,4.340539141292236,0.0,0.29186421632766724,-1.3622749487506312,0.0,-0.031062137335538864,0.7538759112358093,0.0,-0.007115351501852274,0.8981585502624512,0.0,-0.05768246203660965
882.0,654.0,4.1557,-1.7916,8.2379,-0.0423,0.031,-0.1235,-1.5844465694823207,0.0,2.2533416748046875,-1.6960006952285767,-0.0,2.1997556686401367,4.3405467706867675,0.0,0.2968665659427643,-1.3622263113604944,0.0,-0.02929789386689663,0.7538596987724304,0.0,-0.020292051136493683,0.8981505036354065,0.0,-0.029027774930000305
882.0,654.0,4.1557,-1.7916,8.2379,-0.0423,0.031,-0.1235,-1.5843497715392054,0.0,2.274939775466919,-1.6960612535476685,-0.0,2.165958881378174,4.340530558223389,0.0,0.29959630966186523,-1.3622472921954554,0.0,-0.0318179652094841,0.7537758946418762,0.0,-0.013346372172236443,0.89817875623703,0.0,0.03200500085949898
882.0,654.0,4.1557,-1.7916,8.2379,-0.0423,0.031,-0.1235,-1.5843788586058558,0.0,2.2412197589874268,-1.6960408687591553,-0.0,2.1917178630828857,4.340571089381836,0.0,0.2859265208244324,-1.3622306028949183,0.0,-0.02395297773182392,0.7538397312164307,0.0,-0.004519791807979345,0.8981102108955383,0.0,-0.002136200200766325
882.0,654.0,4.1557,-1.7916,8.2379,-0.0423,0.031,-0.1235,-1.5844227276244105,0.0,2.2236828804016113,-1.696028470993042,-0.0,2.1930017471313477,4.3405467706867675,0.0,0.303468257188797,-1.3622263113604944,0.0,-0.02864803932607174,0.7538156509399414,0.0,-0.005141019355505705,0.8981426358222961,0.0,-0.005983381532132626
882.0,654.0,4.1557,-1.7916,8.2379,-0.0423,0.031,-0.1235,-1.584386488000387,0.0,2.207360029220581,-1.6959965229034424,-0.0,2.2018723487854004,4.340562983150146,0.0,0.30262491106987,-1.3622306028949183,0.0,-0.03554445505142212,0.7538356781005859,0.0,-0.0028449890669435263,0.8981303572654724,0.0,0.014646713621914387
882.0,654.0,4.1557,-1.7916,8.2379,-0.0423,0.031,-0.1235,-1.5843945942320765,0.0,2.2013659477233887,-1.6960408687591553,-0.0,2.2099742889404297,4.340486212367676,0.0,0.2959352433681488,-1.3622186819659632,0.0,-0.023574870079755783,0.7538356184959412,0.0,-0.007032923400402069,0.8981505036354065,0.0,-0.0250005554407835
882.0,654.0,4.1557,-1.7916,8.2379,-0.0423,0.031,-0.1235,-1.5843621693053187,0.0,2.313265562057495,-1.6960211992263794,-0.0,2.1883649826049805,4.3405467706867675,0.0,0.2808648347854614,-1.3622306028949183,0.0,-0.032189249992370605,0.7537955641746521,0.0,0.002935610944405198,0.8981828093528748,0.0,-0.0050291698426008224
882.0,654.0,4.1557,-1.7916,8.2379,-0.0423,0.031,-0.1235,-1.5843707523741664,0.0,2.2587180137634277,-1.696000576019287,-0.0,2.17941951751709,4.340530558223389,0.0,0.29766494035720825,-1.3622306028949183,0.0,-0.04200734198093414,0.7538356781005859,0.0,-0.005619846284389496,0.898146390914917,0.0,0.0016432050615549088
882.0,654.0,4.1557,-1.7916,8.2379,-0.0423,0.031,-0.1235,-1.5844065151610316,0.0,2.230752944946289,-1.6960129737854004,-0.0,2.2068605422973633,4.340571089381836,0.0,0.28168344497680664,-1.362251106892721,0.0,-0.029335521161556244,0.7538275122642517,0.0,-0.009029693901538849,0.8981505036354065,0.0,-0.022912312299013138
882.0,654.0,4.1557,-1.7916,8.2379,-0.0423,0.031,-0.1235,-1.5844065151610316,0.0,2.2283854484558105,-1.6960692405700684,-0.0,2.1943471431732178,4.340571089381836,0.0,0.2896812856197357,-1.3622263113604944,0.0,-0.02804449573159218,0.7538437247276306,0.0,-0.008069934323430061,0.8981304168701172,0.0,-0.012317847460508347
882.0,654.0,4.1557,-1.7916,8.2379,-0.0423,0.031,-0.1235,-1.584386488000387,0.0,2.2423553466796875,-1.696028470993042,-0.0,2.188270092010498,4.340579195613525,0.0,0.29121023416519165,-1.3621986548053187,0.0,-0.019769491627812386,0.753807783126831,0.0,0.00021766242571175098,0.8980861306190491,0.0,0.012003235518932343
882.0,654.0,4.1557,-1.7916,8.2379,-0.0423,0.031,-0.1235,-1.5844103298582972,0.0,2.2484612464904785,-1.6959846019744873,-0.0,2.2016489505767822,4.340530558223389,0.0,0.29317089915275574,-1.3622105757342737,0.0,-0.02671913430094719,0.7538036108016968,0.0,0.005769409239292145,0.8981065154075623,0.0,0.00585275748744607
840.0,623.0,4.1755,-1.7737,8.1248,-0.0435,0.0243,-0.1132,-1.584458967248434,0.0,2.2700374126434326,-1.6960325241088867,-0.0,2.1717491149902344,4.340554876918457,0.0,0.2932592034339905,-1.3622592131244105,0.0,-0.027578184381127357,0.7538597583770752,0.0,-0.014595646411180496,0.8981385827064514,0.0,-0.015525206923484802
840.0,623.0,4.1755,-1.7737,8.1248,-0.0435,0.0243,-0.1132,-1.584402700463766,0.0,2.211714029312134,-1.695980429649353,-0.0,2.170152187347412,4.340510054225586,0.0,0.30006203055381775,-1.3622387091266077,0.0,-0.0284886471927166,0.7538516521453857,0.0,-0.01171603798866272,0.898106575012207,0.0,0.0037188748829066753
840.0,623.0,4.1755,-1.7737,8.1248,-0.0435,0.0243,-0.1132,-1.5843621693053187,0.0,2.2381272315979004,-1.6960487365722656,-0.0,2.1345086097717285,4.340551062221191,0.0,0.2862294018268585,-1.3622224966632288,0.0,-0.032739706337451935,0.7538038492202759,0.0,-0.003605380654335022,0.8981262445449829,0.0,0.007574383169412613
840.0,623.0,4.1755,-1.7737,8.1248,-0.0435,0.0243,-0.1132,-1.5843903026976527,0.0,2.251323699951172,-1.6959965229034424,-0.0,2.1310181617736816,4.340566797847412,0.0,0.27906662225723267,-1.3622306028949183,0.0,-0.016803700476884842,0.7538157105445862,0.0,0.00028687826124951243,0.898146390914917,0.0,3.529805690050125e-05
840.0,623.0,4.1755,-1.7737,8.1248,-0.0435,0.0243,-0.1132,-1.5843421421446742,0.0,2.24153470993042,-1.696028470993042,-0.0,2.1650893688201904,4.340502901668213,0.0,0.2930227518081665,-1.3622553984271448,0.0,-0.03138852119445801,0.753779947757721,0.0,0.0002449537278153002,0.8981304168701172,0.0,-0.04129479452967644
840.0,623.0,4.1755,-1.7737,8.1248,-0.0435,0.0243,-0.1132,-1.5843945942320765,0.0,2.2789230346679688,-1.6960487365722656,-0.0,2.1728413105010986,4.34051434576001,0.0,0.281892329454422,-1.3621943632708948,0.0,-0.04061218723654747,0.7538397312164307,0.0,0.011161765083670616,0.8981344699859619,0.0,-0.008340675383806229
840.0,623.0,4.1755,-1.7737,8.1248,-0.0435,0.0243,-0.1132,-1.5844222507872523,0.0,2.2570009231567383,-1.6960161924362183,-0.0,2.2062461376190186,4.340539141292236,0.0,0.29747843742370605,-1.362234894429342,0.0,-0.031651489436626434,0.7538797855377197,0.0,0.000423218501964584,0.8981385827064514,0.0,0.01417098380625248
840.0,623.0,4.1755,-1.7737,8.1248,-0.0435,0.0243,-0.1132,-1.5844422779478968,0.0,2.2466695308685303,-1.6960047483444214,-0.0,2.189301013946533,4.340551062221191,0.0,0.28542351722717285,-1.3622105757342737,0.0,-0.04576656222343445,0.7538037896156311,0.0,0.0052160704508423805,0.8981221914291382,0.0,-0.0015528108924627304
840.0,623.0,4.1755,-1.7737,8.1248,-0.0435,0.0243,-0.1132,-1.5844265423216761,0.0,2.2817649841308594,-1.696053147315979,-0.0,2.181222915649414,4.340498610133789,0.0,0.29907935857772827,-1.3622105757342737,0.0,-0.018388397991657257,0.7538078427314758,0.0,0.0039872885681688786,0.8981422185897827,0.0,-0.012142667546868324
840.0,623.0,4.1755,-1.7737,8.1248,-0.0435,0.0243,-0.1132,-1.584386488000387,0.0,2.2395808696746826,-1.695976734161377,-0.0,2.1597673892974854,4.340551062221191,0.0,0.28800636529922485,-1.3622472921954554,0.0,-0.02987189218401909,0.7538555860519409,0.0,0.004470237996429205,0.8981422185897827,0.0,-0.020227300003170967
840.0,623.0,4.1755,-1.7737,8.1248,-0.0435,0.0243,-0.1132,-1.5844422779478968,0.0,2.2237887382507324,-1.696044921875,-0.0,2.199610471725464,4.340530558223389,0.0,0.293941855430603,-1.3622224966632288,0.0,-0.034274809062480927,0.7538356781005859,0.0,-0.001108753029257059,0.8981144428253174,0.0,0.004041362088173628
840.0,623.0,4.1755,-1.7737,8.1248,-0.0435,0.0243,-0.1132,-1.5843945942320765,0.0,2.2103066444396973,-1.6960325241088867,-0.0,2.1530537605285645,4.340571089381836,0.0,0.29375123977661133,-1.3622430006610315,0.0,-0.03247182443737984,0.7538516521453857,0.0,-0.009474188089370728,0.8981102705001831,0.0,0.021568838506937027
840.0,623.0,4.1755,-1.7737,8.1248,-0.0435,0.0243,-0.1132,-1.584374567071432,0.0,2.205514907836914,-1.6960203647613525,-0.0,2.151848554611206,4.340551062221191,0.0,0.2948925495147705,-1.3622224966632288,0.0,-0.02246604487299919,0.7537793517112732,0.0,-0.008348674513399601,0.8981340527534485,0.0,0.04544910043478012
818.0,670.0,4.1856,-1.7803,8.1954,-0.0267,0.0284,-0.1182,-1.5843707523741664,0.0,2.180644989013672,-1.6960769891738892,-0.0,2.149031162261963,4.340554876918457,0.0,0.2855752110481262,-1.3622387091266077,0.0,-0.03632571920752525,0.7538078427314758,0.0,0.0027636103332042694,0.8981504440307617,0.0,-0.012213427573442459
818.0,670.0,4.1856,-1.7803,8.1954,-0.0267,0.0284,-0.1182,-1.5844222507872523,0.0,2.2738420963287354,-1.6959763765335083,-0.0,2.1568264961242676,4.3405348497578125,0.0,0.299975723028183,-1.3622143904315394,0.0,-0.012389052659273148,0.7537875175476074,0.0,0.0084315724670887,0.8981708884239197,0.0,-0.028588201850652695
818.0,670.0,4.1856,-1.7803,8.1954,-0.0267,0.0284,-0.1182,-1.584386488000387,0.0,2.231659173965454,-1.695976734161377,-0.0,2.224482536315918,4.340554876918457,0.0,0.28130030632019043,-1.3622224966632288,0.0,-0.02648470737040043,0.7538197636604309,0.0,0.0027347032446414232,0.8981221318244934,0.0,-0.032152995467185974
818.0,670.0,4.1856,-1.7803,8.1954,-0.0267,0.0284,-0.1182,-1.5844222507872523,0.0,2.2809176445007324,-1.696000576019287,-0.0,2.178234815597534,4.340554876918457,0.0,0.28477150201797485,-1.3622430006610315,0.0,-0.03141777217388153,0.753847599029541,0.0,0.007468798663467169,0.8980902433395386,0.0,-0.009867184795439243
818.0,670.0,4.1856,-1.7803,8.1954,-0.0267,0.0284,-0.1182,-1.584386488000387,0.0,2.2574076652526855,-1.6960047483444214,-0.0,2.2111761569976807,4.34051434576001,0.0,0.2894228398799896,-1.3622143904315394,0.0,-0.03355909138917923,0.7538356781005859,0.0,-0.01587299257516861,0.8981344699859619,0.0,-0.002116432413458824
818.0,670.0,4.1856,-1.7803,8.1954,-0.0267,0.0284,-0.1182,-1.5843903026976527,0.0,2.2460522651672363,-1.6960129737854004,-0.0,2.2493577003479004,4.340562983150146,0.0,0.29027968645095825,-1.3622224966632288,0.0,-0.03144700080156326,0.7538638710975647,0.0,-0.01447430718690157,0.8981184363365173,0.0,-0.015773791819810867
818.0,670.0,4.1856,-1.7803,8.1954,-0.0267,0.0284,-0.1182,-1.5843707523741664,0.0,2.2523555755615234,-1.6960368156433105,-0.0,2.1848063468933105,4.340530558223389,0.0,0.2903590202331543,-1.362251106892721,0.0,-0.031478166580200195,0.7538118362426758,0.0,-0.008536693640053272,0.8981102108955383,0.0,-0.02719666063785553
818.0,670.0,4.1856,-1.7803,8.1954,-0.0267,0.0284,-0.1182,-1.5844065151610316,0.0,2.2517590522766113,-1.6959924697875977,-0.0,2.2051165103912354,4.3405348497578125,0.0,0.29179295897483826,-1.3622306028949183,0.0,-0.027762429788708687,0.7538556456565857,0.0,-0.008995995856821537,0.8981225490570068,0.0,0.052918240427970886
818.0,670.0,4.1856,-1.7803,8.1954,-0.0267,0.0284,-0.1182,-1.5843903026976527,0.0,2.2678356170654297,-1.6959882974624634,-0.0,2.184072494506836,4.340518160457275,0.0,0.2807827591896057,-1.3622472921954554,0.0,-0.029270505532622337,0.7538394331932068,0.0,-0.0011002728715538979,0.8981667757034302,0.0,-0.009629620239138603
818.0,670.0,4.1856,-1.7803,8.1954,-0.0267,0.0284,-0.1182,-1.5843783817686976,0.0,2.257956027984619,-1.696004867553711,-0.0,2.1860649585723877,4.340518160457275,0.0,0.2952808737754822,-1.3622263113604944,0.0,-0.0221919734030962,0.7538157105445862,0.0,-0.013680370524525642,0.8981504440307617,0.0,0.007585846818983555
818.0,670.0,4.1856,-1.7803,8.1954,-0.0267,0.0284,-0.1182,-1.5843945942320765,0.0,2.243138313293457,-1.696003794670105,-0.0,2.2162256240844727,4.3405348497578125,0.0,0.2781047224998474,-1.362251106892721,0.0,-0.03211662918329239,0.7538197636604309,0.0,-0.01445881836116314,0.8981266021728516,0.0,0.0004943804815411568
818.0,670.0,4.1856,-1.7803,8.1954,-0.0267,0.0284,-0.1182,-1.5843903026976527,0.0,2.2441864013671875,-1.6959763765335083,-0.0,2.1496059894561768,4.340526743526123,0.0,0.29887741804122925,-1.362218205128805,0.0,-0.02790505439043045,0.7538718581199646,0.0,-0.00967551302164793,0.8981102108955383,0.0,-0.023309841752052307
832.0,618.0,4.1809,-1.8072,8.1679,-0.0368,0.0173,-0.1158,-1.5844384632506312,0.0,2.2715694904327393,-1.6960325241088867,-0.0,2.244777202606201,4.340566797847412,0.0,0.28898656368255615,-1.3621986548053187,0.0,-0.03274035453796387,0.7537915706634521,0.0,-0.015896588563919067,0.8981261849403381,0.0,0.01865965686738491
832.0,618.0,4.1809,-1.8072,8.1679,-0.0368,0.0173,-0.1158,-1.5843945942320765,0.0,2.2168972492218018,-1.6960647106170654,-0.0,2.210500478744507,4.340526743526123,0.0,0.2900669574737549,-1.3622263113604944,0.0,-0.03841878101229668,0.7538437247276306,0.0,-0.005112847313284874,0.8981422185897827,0.0,-0.017114942893385887
832.0,618.0,4.1809,-1.8072,8.1679,-0.0368,0.0173,-0.1158,-1.5843426189818324,0.0,2.270930290222168,-1.6960161924362183,-0.0,2.156041383743286,4.34057538091626,0.0,0.29157453775405884,-1.3622105757342737,0.0,-0.05513294041156769,0.7538477778434753,0.0,0.0036789332516491413,0.8981545567512512,0.0,-0.02883101813495159
832.0,618.0,4.1809,-1.8072,8.1679,-0.0368,0.0173,-0.1158,-1.5843664608397425,0.0,2.2096433639526367,-1.6960529088974,-0.0,2.2107152938842773,4.340551062221191,0.0,0.2874222993850708,-1.3622472921954554,0.0,-0.03892204910516739,0.7538719177246094,0.0,-0.004775845445692539,0.8981262445449829,0.0,-0.016836989670991898
832.0,618.0,4.1809,-1.8072,8.1679,-0.0368,0.0173,-0.1158,-1.5843984089293421,0.0,2.2330403327941895,-1.6960244178771973,-0.0,2.1650891304016113,4.34050623952832,0.0,0.29295289516448975,-1.3622263113604944,0.0,-0.02633059024810791,0.7538078427314758,0.0,-0.0067127784714102745,0.8981385231018066,0.0,-0.044660285115242004
832.0,618.0,4.1809,-1.8072,8.1679,-0.0368,0.0173,-0.1158,-1.5843903026976527,0.0,2.2704789638519287,-1.696028470993042,-0.0,2.1800432205200195,4.340542955989502,0.0,0.2926081120967865,-1.3622468153582972,0.0,-0.038492172956466675,0.7537680268287659,0.0,-0.007094943430274725,0.898138165473938,0.0,-0.005818865727633238
832.0,618.0,4.1809,-1.8072,8.1679,-0.0368,0.0173,-0.1158,-1.5844065151610316,0.0,2.272972822189331,-1.6959723234176636,-0.0,2.1874818801879883,4.340615435237549,0.0,0.291227787733078,-1.3622430006610315,0.0,-0.01847183331847191,0.753923773765564,0.0,-0.001247279578819871,0.8981544375419617,0.0,0.045828141272068024
832.0,618.0,4.1809,-1.8072,8.1679,-0.0368,0.0173,-0.1158,-1.584374567071432,0.0,2.21807861328125,-1.6960244178771973,-0.0,2.1608428955078125,4.340539141292236,0.0,0.2823100686073303,-1.362234894429342,0.0,-0.04138772562146187,0.7538357973098755,0.0,-0.004254022613167763,0.8981503844261169,0.0,0.03626514971256256
832.0,618.0,4.1809,-1.8072,8.1679,-0.0368,0.0173,-0.1158,-1.584386488000387,0.0,2.2339627742767334,-1.6960129737854004,-0.0,2.1569385528564453,4.340566797847412,0.0,0.2943509519100189,-1.3622873465167444,0.0,-0.024009624496102333,0.753831684589386,0.0,0.0043236268684268,0.8981664180755615,0.0,0.02447262406349182
832.0,618.0,4.1809,-1.8072,8.1679,-0.0368,0.0173,-0.1158,-1.5844303570189417,0.0,2.242783546447754,-1.6960047483444214,-0.0,2.203554153442383,4.3405186372944335,0.0,0.28637734055519104,-1.3623231093036097,0.0,-0.02640533447265625,0.7537956237792969,0.0,0.0026493810582906008,0.8981700539588928,0.0004913630546070635,0.039102423936128616
832.0,618.0,4.1809,-1.8072,8.1679,-0.0368,0.0173,-0.1158,-1.5844065151610316,0.0,2.2457969188690186,-1.6960170269012451,-0.0,2.1784462928771973,4.340562983150146,0.0,0.2935809791088104,-1.3622143904315394,0.0,-0.03054935298860073,0.7538718581199646,0.0,0.004761322867125273,0.8982146978378296,0.0004781029711011797,-0.002218085341155529
832.0,618.0,4.1809,-1.8072,8.1679,-0.0368,0.0173,-0.1158,-1.584386488000387,0.0,2.2144875526428223,-1.6960211992263794,-0.0,2.206699848175049,4.340510054225586,0.0,0.28762325644493103,-1.3622387091266077,0.0,-0.020250707864761353,0.7538038492202759,0.0,0.0015483514871448278,0.898178219795227,0.0003318967646919191,0.004391045309603214
789.0,642.0,4.1198,-1.7994,8.2439,-0.0379,0.0214,-0.117,-1.5843821964659632,0.0,2.2520365715026855,-1.6959882974624634,-0.0,2.2004570960998535,4.340530558223389,0.0,0.28775283694267273,-1.3622711340533655,0.0,-0.020383208990097046,0.753851592540741,0.0,-0.009926044382154942,0.8981987237930298,0.0002741225471254438,0.010994933545589447
789.0,642.0,4.1198,-1.7994,8.2439,-0.0379,0.0214,-0.117,-1.5843945942320765,0.0,2.244635581970215,-1.6959924697875977,-0.0,2.162898302078247,4.340526743526123,0.0,0.27870261669158936,-1.3622711340533655,0.0,-0.029019061475992203,0.7538078427314758,0.0,0.0007470912532880902,0.8981905579566956,0.00010370740346843377,-0.025382008403539658
789.0,642.0,4.1198,-1.7994,8.2439,-0.0379,0.0214,-0.117,-1.5844346485533656,-3.159146555464787e-11,2.2304301261901855,-1.696000576019287,-0.0,2.1878809928894043,4.340526743526123,0.0,0.28277015686035156,-1.362251106892721,0.0,-0.041654616594314575,0.7538595795631409,0.0,-0.01809830032289028,0.8982151746749878,4.3835927499458194e-05,-0.015324540436267853
789.0,642.0,4.1198,-1.7994,8.2439,-0.0379,0.0214,-0.117,-1.5844384632506312,-1.0235232012783348e-18,2.253857135772705,-1.696044921875,-0.0,2.198277711868286,4.340594931239746,0.0,0.29668331146240234,-1.3622472921954554,0.0,-0.028024882078170776,0.7537916898727417,0.0,-0.003861553966999054,0.8981704711914062,4.954700898451847e-07,0.02682134136557579
789.0,642.0,4.1198,-1.7994,8.2439,-0.0379,0.0214,-0.117,-1.584390779534811,-2.4716881760919674e-24,2.2261240482330322,-1.6960161924362183,-0.0,2.14290189743042,4.340607329005859,0.0,0.28629231452941895,-1.3622306028949183,0.0,-0.027194060385227203,0.7538037896156311,0.0,-0.00233834283426404,0.8981786966323853,1.196502098788077e-12,-0.016786618158221245
789.0,642.0,4.1198,-1.7994,8.2439,-0.0379,0.0214,-0.117,-1.5843664608397425,-8.007954760209838e-32,2.2068979740142822,-1.6960203647613525,-0.0,2.1486921310424805,4.3405467706867675,0.0,0.29155445098876953,-1.3622105757342737,0.0,-0.013689031824469566,0.7538356781005859,0.0,0.0010581177193671465,0.8981585502624512,3.876514732304994e-20,-0.001918629975989461
789.0,642.0,4.1198,-1.7994,8.2439,-0.0379,0.0214,-0.117,-1.5843426189818324,-2.5944760807281123e-39,2.2266407012939453,-1.6959965229034424,-0.0,2.137464761734009,4.340566321010254,0.0,0.2999058663845062,-1.3622592131244105,0.0,-0.028051843866705894,0.7537875771522522,0.0,-0.005172320641577244,0.898166835308075,1.2559414797866875e-27,0.02805769443511963
789.0,642.0,4.1198,-1.7994,8.2439,-0.0379,0.0214,-0.117,-1.5843221149840296,0.0015513678081333637,2.268406867980957,-1.696028470993042,-0.0,2.228712558746338,4.340586825008057,0.0,0.2880363464355469,-1.3622306028949183,0.0,-0.023352015763521194,0.7538277506828308,0.0,0.00447890255600214,0.8981868028640747,3.032951198261148e-33,0.029602395370602608
789.0,642.0,4.1198,-1.7994,8.2439,-0.0379,0.0214,-0.117,-1.5843268833556117,0.002392297610640526,2.259131908416748,-1.696000576019287,0.0007465541712008417,2.217501163482666,4.34064690648999,0.0,0.28061312437057495,-1.3622430006610315,0.0,-0.023488156497478485,0.7538477182388306,0.0,0.005898411385715008,0.8981298804283142,-0.00016733846860006452,-0.021022465080022812
789.0,642.0,4.1198,-1.7994,8.2439,-0.0379,0.0214,-0.117,-1.584334512750143,0.0011119499104097486,2.2540698051452637,-1.6959927082061768,0.00046110624680295587,2.224097728729248,4.34059922277417,0.0,0.28494539856910706,-1.3622224966632288,0.0,-0.027080049738287926,0.7538437247276306,0.0,0.001591706881299615,0.8981061577796936,-0.00012358700041659176,0.014705732464790344
789.0,642.0,4.1198,-1.7994,8.2439,-0.0379,0.0214,-0.117,-1.5843306980528773,0.0004722176818177104,2.269697666168213,-1.6960325241088867,0.0003526557411532849,2.175199270248413,4.340534372920654,0.0,0.28354042768478394,-1.3622186819659632,0.0,-0.03385525941848755,0.7538597583770752,0.0,-0.0029648258350789547,0.8981381058692932,-0.00010247555474052206,-0.014582272619009018
789.0,642.0,4.1198,-1.7994,8.2439,-0.0379,0.0214,-0.117,-1.584362646142477,0.0002276021841680631,2.2386131286621094,-1.696000576019287,0.00026847771368920803,2.2145872116088867,4.340566321010254,0.0,0.28689903020858765,-1.362234894429342,0.0,-0.016731031239032745,0.7538276314735413,0.0,-0.01687215268611908,0.8981181383132935,-1.7043986417775159e-06,0.027689790353178978
835.0,671.0,4.2652,-1.8239,8.0608,-0.0414,0.0316,-0.1283,-1.5843502483763636,0.00017019810911733657,2.2568891048431396,-1.6960294246673584,0.00021674574236385524,2.1784772872924805,4.340566321010254,0.0,0.28761327266693115,-1.3622506300555628,0.0,-0.026625242084264755,0.7538356781005859,0.0,-0.014008373022079468,0.8981905579566956,-5.522035465607006e-14,0.01098987553268671
835.0,671.0,4.2652,-1.8239,8.0608,-0.0414,0.0316,-0.1283,-1.584318300286764,0.00014312718121800572,2.262281656265259,-1.6959365606307983,0.00018937941058538854,2.118396759033203,4.340590639705322,0.0,0.29258331656455994,-1.3622306028949183,0.0,-0.03395845741033554,0.7538276314735413,0.0,-0.009910615161061287,0.8980779647827148,-1.3335066542907443e-19,0.04341217130422592
835.0,671.0,4.2652,-1.8239,8.0608,-0.0414,0.0316,-0.1283,-1.5843383274474085,0.00011808614362962544,2.242905616760254,-1.6959965229034424,0.000162091848324053,2.128056049346924,4.340586825008057,0.0,0.29526787996292114,-1.3622549215899866,0.0,-0.034666791558265686,0.7538477778434753,0.0,-0.005245960783213377,0.8981386423110962,-4.320392036739232e-27,0.005510540679097176
835.0,671.0,4.2652,-1.8239,8.0608,-0.0414,0.0316,-0.1283,-1.584346433679098,0.00010050290438812226,2.2212657928466797,-1.696036696434021,0.00011334256851114333,2.1708991527557373,4.340542479152344,0.0,0.27932316064834595,-1.3622472921954554,0.0,-0.028190532699227333,0.7538756728172302,0.0,-0.005069185048341751,0.8981663584709167,-1.3997521554596643e-34,-0.013938307762145996
835.0,671.0,4.2652,-1.8239,8.0608,-0.0414,0.0316,-0.1283,-1.5843383274474085,-9.339088865090162e-05,2.282108783721924,-1.6959763765335083,0.00010356078564655036,2.2101187705993652,4.340590639705322,0.0,0.282966673374176,-1.362234894429342,0.0,-0.032968103885650635,0.7538276314735413,0.0,0.0004931772127747536,0.8981667757034302,-3.3802401816136102e-40,0.03635406121611595
835.0,671.0,4.2652,-1.8239,8.0608,-0.0414,0.0316,-0.1283,-1.5843740902342738,-0.0012847990728914738,2.1906542778015137,-1.6959643363952637,6.965990905882791e-05,2.2441532611846924,4.340558691615723,0.0,0.28976333141326904,-1.3622711340533655,0.0,-0.04109711945056915,0.75389564037323,0.0,0.0002594608813524246,0.898146390914917,-0.0,-0.028635066002607346
835.0,671.0,4.2652,-1.8239,8.0608,-0.0414,0.0316,-0.1283,-1.584390779534811,-0.0016040802001953125,2.2769975662231445,-1.6960610151290894,-7.133800681913272e-05,2.1863112449645996,4.340551062221191,0.0,0.2964801788330078,-1.3622387091266077,0.0,-0.024621985852718353,0.7538877129554749,0.0,-0.004273795522749424,0.8981060981750488,0.0,0.0030917301774024963
835.0,671.0,4.2652,-1.8239,8.0608,-0.0414,0.0316,-0.1283,-1.5843821964659632,-0.0008025229908525944,2.2747440338134766,-1.6959965229034424,-6.479035801021382e-05,2.1947920322418213,4.340518160457275,0.0,0.28751975297927856,-1.3622830549823206,0.0,-0.03203417360782623,0.7538436651229858,0.0,0.004155565984547138,0.8981102108955383,0.0,-0.008329498581588268
835.0,671.0,4.2652,-1.8239,8.0608,-0.0414,0.0316,-0.1283,-1.5844065151610316,-0.0005225954810157418,2.2669708728790283,-1.6960129737854004,-6.043947723810561e-05,2.1570675373077393,4.340498610133789,0.0,0.29593366384506226,-1.3622468153582972,0.0,-0.022527456283569336,0.753851592540741,0.0,0.0014259752351790667,0.8981422185897827,0.0,-0.011248838156461716
835.0,671.0,4.2652,-1.8239,8.0608,-0.0414,0.0316,-0.1283,-1.584414621392721,-0.0004280125431250781,2.2258942127227783,-1.696004867553711,-5.547247565118596e-05,2.2426559925079346,4.340461893672607,0.0,0.28496384620666504,-1.3622549215899866,0.0,-0.026074212044477463,0.7538396120071411,0.0,-0.014898071996867657,0.8981544375419617,0.0,-0.004817417822778225
835.0,671.0,4.2652,-1.8239,8.0608,-0.0414,0.0316,-0.1283,-1.5843903026976527,-0.0003250344598200172,2.238497257232666,-1.696028470993042,-5.125999086885713e-05,2.185642957687378,4.340566797847412,0.0,0.3058612048625946,-1.3622549215899866,0.0,-0.024387888610363007,0.7538198232650757,0.0,0.0025951534043997526,0.898138165473938,0.0,-0.0016965261893346906
835.0,671.0,4.2652,-1.8239,8.0608,-0.0414,0.0316,-0.1283,-1.5844384632506312,-0.00032112112967297435,2.2633070945739746,-1.6959965229034424,-4.849774995818734e-05,2.1635892391204834,4.340539141292236,0.0,0.29881590604782104,-1.3622387091266077,0.0,-0.033314116299152374,0.7538836598396301,0.0,-0.011540914885699749,0.8981381058692932,0.0,0.06398165225982666
849.0,699.0,4.1228,-1.9663,7.9699,-0.0293,0.0568,-0.1197,-1.5844422779478968,-0.0002667874505277723,2.2172341346740723,-1.696036696434021,-4.52468593721278e-05,2.2050883769989014,4.340559168452881,0.0,0.2883213758468628,-1.3622906843768519,0.0,-0.0299479141831398,0.7538197636604309,0.0,0.003371850121766329,0.8981865048408508,0.0,-0.01804831251502037
849.0,699.0,4.1228,-1.9663,7.9699,-0.0293,0.0568,-0.1197,-1.584402700463766,-0.00026073219487443566,2.2222797870635986,-1.6960252523422241,-4.240446651238017e-05,2.184952974319458,4.340522451991699,0.0,0.28370168805122375,-1.362279240285055,0.0,-0.03209572657942772,0.7538396716117859,0.0,0.0018446804024279118,0.8981823921203613,0.0,0.00907067395746708
849.0,699.0,4.1228,-1.9663,7.9699,-0.0293,0.0568,-0.1197,-1.5844103298582972,-0.00020578413386829197,2.2090401649475098,-1.6960244178771973,-4.049645212944597e-05,2.1833741664886475,4.340510054225586,0.0,0.2807200849056244,-1.36229116121401,0.0,-0.015471922233700752,0.7538276314735413,0.0,1.8768245354294777e-05,0.8981345295906067,-1.8251897927257232e-05,0.013915229588747025
849.0,699.0,4.1228,-1.9663,7.9699,-0.0293,0.0568,-0.1197,-1.5844103298582972,-2.8703292628051713e-05,2.2359447479248047,-1.695980429649353,-3.8204409065656364e-05,2.1439225673675537,4.340534372920654,0.0,0.2776488661766052,-1.362274471913473,0.0,-0.03607732057571411,0.7538277506828308,0.0,-0.000522339716553688,0.8981340527534485,-1.688960583123844e-05,0.008391734212636948
849.0,699.0,4.1228,-1.9663,7.9699,-0.0293,0.0568,-0.1197,-1.5843264065184535,-2.7078953229037195e-12,2.2397332191467285,-1.6960088014602661,-1.6168174624908715e-05,2.1698849201202393,4.340558691615723,0.0,0.2864662706851959,-1.3622425238238733,0.0,-0.030176231637597084,0.7538356781005859,0.0,-0.002582786837592721,0.8981704711914062,-5.472016611531016e-13,-0.00631693983450532
849.0,699.0,4.1228,-1.9663,7.9699,-0.0293,0.0568,-0.1197,-1.5844065151610316,-6.539247794806827e-18,2.279777765274048,-1.6960088014602661,-5.37803899192113e-08,2.1979689598083496,4.340574427241943,0.0,0.28450313210487366,-1.3622625509845179,0.0,-0.02694042958319187,0.7538435459136963,0.0,-0.007982278242707253,0.898174524307251,-1.3214276459983621e-18,0.03737625479698181
849.0,699.0,4.1228,-1.9663,7.9699,-0.0293,0.0568,-0.1197,-1.5843984089293421,0.0005597254494205117,2.253659248352051,-1.6960088014602661,-1.7424161233246522e-15,2.224379301071167,4.3405749040791015,0.0,0.28794825077056885,-1.3622987906085413,0.0,-0.02901637926697731,0.7538356781005859,0.0,-0.01228090189397335,0.8981345295906067,-4.281257217306481e-26,0.04984842240810394
849.0,699.0,4.1228,-1.9663,7.9699,-0.0293,0.0568,-0.1197,-1.5843388042845667,0.0004504540702328086,2.2661781311035156,-1.6959726810455322,-5.645204758086809e-23,2.214423418045044,4.340558691615723,5.194282130105421e-05,0.29097163677215576,-1.3622944990741175,0.0,-0.023857226595282555,0.7538638114929199,0.0,-0.010238210670650005,0.8981340527534485,-1.3870730483947296e-33,-0.01250939816236496
849.0,699.0,4.1228,-1.9663,7.9699,-0.0293,0.0568,-0.1197,-1.5843588314452113,0.0003602718352340162,2.2829790115356445,-1.696000576019287,-1.3632508536881686e-28,2.1753532886505127,4.340578241939209,4.7946810809662566e-05,0.2879014313220978,-1.3623226324664515,0.0,-0.030328482389450073,0.7539035677909851,0.0,-0.0009050150401890278,0.8981461524963379,-3.3496190075711843e-39,-0.01296115480363369
849.0,699.0,4.1228,-1.9663,7.9699,-0.0293,0.0568,-0.1197,-1.5844108066954554,0.00023764667275827378,2.2706503868103027,-1.695960283279419,-4.416759669828876e-36,2.2120535373687744,4.3406030374714355,4.332983371568844e-05,0.2882884740829468,-1.362298313771383,0.0,-0.029996443539857864,0.7538277506828308,0.0,0.00532105378806591,0.8981786966323853,-0.0,0.06818309426307678
849.0,699.0,4.1228,-1.9663,7.9699,-0.0293,0.0568,-0.1197,-1.584414621392721,0.00015678141789976507,2.2403674125671387,-1.6960169076919556,-1.4293244336113134e-43,2.1758852005004883,4.340586825008057,3.95239912904799e-05,0.2868952751159668,-1.3622944990741175,-0.00021754535555373877,-0.0326976403594017,0.7538396716117859,0.0,0.0010071448050439358,0.8981585502624512,0.0,0.03222724422812462
849.0,699.0,4.1228,-1.9663,7.9699,-0.0293,0.0568,-0.1197,-1.5843945942320765,0.00010529223072808236,2.2042782306671143,-1.6959965229034424,-0.0,2.1379168033599854,4.340522451991699,3.708125223056413e-05,0.288909375667572,-1.3622944990741175,-0.00021953549003228545,-0.05147111788392067,0.7537800669670105,0.0,-0.01193341612815857,0.898166835308075,0.0,0.006545909680426121
849.0,699.0,4.1228,-1.9663,7.9699,-0.0293,0.0568,-0.1197,-1.5844303570189417,-0.00011680312309181318,2.2199931144714355,-1.6960129737854004,-0.0,2.1831674575805664,4.340550585384033,1.71486954059219e-05,0.272910475730896,-1.3623188177691858,-0.00022828324290458113,-0.057393625378608704,0.7537958025932312,0.0,-0.004222339019179344,0.8981304168701172,0.0,0.056160666048526764
845.0,745.0,4.7001,-1.9842,7.8826,-0.0418,0.013,-0.1164,-1.5843945942320765,-0.0005136749823577702,2.201355457305908,-1.6959763765335083,-0.0,2.1340010166168213,4.340578718776367,1.5917301425361075e-05,0.2712491750717163,-1.3623068968402308,-0.00028787448536604643,-0.041895028203725815,0.7538476586341858,0.0,-0.009243089705705643,0.8981385827064514,0.0,0.10263510048389435
845.0,745.0,4.7001,-1.9842,7.8826,-0.0418,0.013,-0.1164,-1.5844108066954554,-0.0006904580513946712,2.1561856269836426,-1.695988416671753,-0.0,2.1557955741882324,4.340542479152344,1.486565361119574e-05,0.28460100293159485,-1.3623350302325647,-0.00036952781374566257,-0.062366239726543427,0.7538396716117859,0.0,-0.0050053950399160385,0.8981585502624512,0.0,0.07840253412723541
845.0,745.0,4.7001,-1.9842,7.8826,-0.0418,0.013,-0.1164,-1.5844551525511683,-0.0008550480124540627,2.175938367843628,-1.6960170269012451,-0.0,2.19539213180542,4.340518160457275,1.4163798368826974e-05,0.2778428792953491,-1.3623226324664515,-0.0005987643962725997,-0.04401480406522751,0.7538436055183411,0.0,0.0028095145244151354,0.8981184959411621,0.0,0.09180508553981781
845.0,745.0,4.7001,-1.9842,7.8826,-0.0418,0.013,-0.1164,-1.5844303570189417,-0.0009664371027611196,2.1212191581726074,-1.6959763765335083,-0.0,2.1573197841644287,4.3405749040791015,1.3325013242138084e-05,0.28441911935806274,-1.3623550573932093,-0.0008576922700740397,-0.061098724603652954,0.7537957429885864,0.0,0.0021314865443855524,0.8981261849403381,0.0,0.16237923502922058
845.0,745.0,4.7001,-1.9842,7.8826,-0.0418,0.013,-0.1164,-1.5843903026976527,-0.0007242077845148742,2.1869258880615234,-1.6959965229034424,-0.0,2.181753158569336,4.340594931239746,1.2579973372339737e-05,0.2724710702896118,-1.3623107115374964,-0.0010239874245598912,-0.08025874197483063,0.7538158893585205,0.0,0.0033130147494375706,0.8981544971466064,0.0,0.19576391577720642
845.0,745.0,4.7001,-1.9842,7.8826,-0.0418,0.013,-0.1164,-1.5844303570189417,-0.0004884950467385352,2.098681688308716,-1.696000576019287,-0.0,2.189089775085449,4.340586825008057,1.2073928701283876e-05,0.28339067101478577,-1.362382713948385,-0.0009774285135790706,-0.07034240663051605,0.7538078427314758,0.0,-0.01411651074886322,0.8981906175613403,6.336173828458413e-05,0.1854339838027954
845.0,745.0,4.7001,-1.9842,7.8826,-0.0418,0.013,-0.1164,-1.5844346485533656,-0.0002724471560213715,2.105149269104004,-1.6959644556045532,-0.0,2.1454415321350098,4.340566321010254,1.1458816516096704e-05,0.27847734093666077,-1.3623583952533167,-0.0006901616579852998,-0.07522007077932358,0.7538078427314758,0.0,0.0039746384136378765,0.8981823921203613,0.0007764443871565163,0.243085116147995
845.0,745.0,4.7001,-1.9842,7.8826,-0.0418,0.013,-0.1164,-1.5844384632506312,-0.00015693447494413704,2.154019594192505,-1.695940613746643,-0.0,2.184692144393921,4.340526266688965,1.0903530892392155e-05,0.27690577507019043,-1.3624151388751429,-0.000613695417996496,-0.09264004975557327,0.7537280321121216,0.0,-0.003950512036681175,0.8982146978378296,0.0008989621419459581,0.2872520685195923
845.0,745.0,4.7001,-1.9842,7.8826,-0.0418,0.013,-0.1164,-1.5844346485533656,-0.00013356581621337682,2.1383001804351807,-1.6959844827651978,-0.0,2.1711530685424805,4.340594931239746,1.6903613868635148e-05,0.27946633100509644,-1.3624189535724085,-0.0006038855644874275,-0.09682932496070862,0.7538515329360962,0.0,-0.003031596541404724,0.8981622457504272,0.0008256928413175046,0.3115495443344116
845.0,745.0,4.7001,-1.9842,7.8826,-0.0418,0.013,-0.1164,-1.5844184360899867,-0.00011150073987664655,2.1766417026519775,-1.6959807872772217,-0.0,2.161344051361084,4.340590639705322,1.5725736375316046e-05,0.28115588426589966,-1.3623984495746058,-0.0005203590262681246,-0.1018601506948471,0.7537916898727417,0.0,-0.011359704658389091,0.8981945514678955,0.0007292212103493512,0.3569658100605011
845.0,745.0,4.7001,-1.9842,7.8826,-0.0418,0.013,-0.1164,-1.5844346485533656,7.769005605950952e-05,2.219205856323242,-1.6960325241088867,-0.0,2.190053701400757,4.340578718776367,1.4698759514431003e-05,0.2889869511127472,-1.362394158040182,-0.000438897026469931,-0.11382506042718887,0.7538318037986755,0.0,-0.0017149485647678375,0.8981904983520508,0.0010879063047468662,0.3488786816596985
845.0,745.0,4.7001,-1.9842,7.8826,-0.0418,0.013,-0.1164,-1.5844141445555628,6.878373824292794e-05,2.1895604133605957,-1.6960325241088867,-0.0,2.211594343185425,4.340542479152344,1.4011895473231561e-05,0.2837856113910675,-1.3623741308795374,-0.00041207365575246513,-0.11342120170593262,0.7538674473762512,0.0,-0.001117271138355136,0.8982344269752502,0.0011793875601142645,0.3955248296260834
841.0,713.0,4.3693,-2.0548,8.0267,-0.0501,0.0182,-0.1193,-1.5844508610167445,5.966352910036221e-05,2.160468816757202,-1.6959844827651978,-0.0,2.209986448287964,4.340554400081299,1.3190749996283557e-05,0.2873222529888153,-1.362438980733053,-0.0004003088397439569,-0.11850570142269135,0.7538197636604309,0.0,-0.006434852257370949,0.8982183933258057,0.0013185165589675307,0.40536952018737793
841.0,713.0,4.3693,-2.0548,8.0267,-0.0501,0.0182,-0.1193,-1.5844265423216761,5.267898450256325e-05,2.1744472980499268,-1.6960129737854004,-0.0,2.220663547515869,4.340590639705322,1.2460254765755963e-05,0.28104546666145325,-1.3623984495746058,-0.0004075503093190491,-0.122464619576931,0.7538276314735413,0.0,0.013738630339503288,0.8982064723968506,0.0016070731217041612,0.4215148091316223
841.0,713.0,4.3693,-2.0548,8.0267,-0.0501,0.0182,-0.1193,-1.584386488000387,2.4327950086444616e-05,2.1518499851226807,-1.695988655090332,-0.0,2.205160617828369,4.340578241939209,1.196319681184832e-05,0.28090816736221313,-1.362438980733053,-0.0003960519388783723,-0.12994392216205597,0.7539113163948059,0.0,-0.0017198146088048816,0.8982343673706055,0.0014495555078610778,0.44525015354156494
841.0,713.0,4.3693,-2.0548,8.0267,-0.0501,0.0182,-0.1193,-1.5844422779478968,2.1860963897779584e-05,2.1415927410125732,-1.6960252523422241,-0.0,2.233407497406006,4.340590639705322,1.1359182281012181e-05,0.27606895565986633,-1.3624385038958948,-0.00044500789954327047,-0.1451561152935028,0.7538078427314758,0.0,-0.01652824692428112,0.898238480091095,0.001494969823397696,0.44770753383636475
841.0,713.0,4.3693,-2.0548,8.0267,-0.0501,0.0182,-0.1193,-1.5844065151610316,1.9925053493352607e-05,2.099541425704956,-1.6959927082061768,-0.0,2.1896519660949707,4.340554400081299,2.021759792114608e-05,0.28910017013549805,-1.3624747435199183,-0.0008308431715704501,-0.1436564028263092,0.7538475394248962,0.0,-0.0033725984394550323,0.8982667326927185,0.0017270996468141675,0.49055370688438416
841.0,713.0,4.3693,-2.0548,8.0267,-0.0501,0.0182,-0.1193,-1.5844265423216761,1.830413384595886e-05,2.169501304626465,-1.6959604024887085,-0.0,2.1594436168670654,4.340594931239746,2.0634954125853255e-05,0.3014870882034302,-1.3624785582171839,-0.0012235259637236595,-0.14502114057540894,0.7538039684295654,0.0,0.002911801217123866,0.8982301354408264,0.002697407966479659,0.5161522030830383
841.0,713.0,4.3693,-2.0548,8.0267,-0.0501,0.0182,-0.1193,-1.5844508610167445,5.89953015150968e-06,2.1373958587646484,-1.696036696434021,-0.0,2.1754555702209473,4.340622587794922,1.9948833141825162e-05,0.28554871678352356,-1.362518612538473,-0.002001316286623478,-0.15095584094524384,0.7538198232650757,0.0,0.0029395446181297302,0.8982461094856262,0.003238447243347764,0.6017634868621826
841.0,713.0,4.3693,-2.0548,8.0267,-0.0501,0.0182,-0.1193,-1.584426065484518,1.9113728069904135e-13,2.1114437580108643,-1.696000576019287,-0.0,2.199995279312134,4.340570612544678,7.152385350650547e-10,0.2845478653907776,-1.362490479146139,-0.002518735360354185,-0.15424582362174988,0.7538435459136963,0.0,0.0045186784118413925,0.8983305096626282,0.005253460258245468,0.6231249570846558
841.0,713.0,4.3693,-2.0548,8.0267,-0.0501,0.0182,-0.1193,-1.584466119805807,6.19260485703763e-21,2.0961999893188477,-1.6960088014602661,-0.0,2.224351406097412,4.340566321010254,1.2999107168551894e-14,0.28749457001686096,-1.362546745930807,-0.006365227047353983,-0.1757381111383438,0.7538836598396301,0.0,0.0035317367874085903,0.8983824849128723,0.006895245984196663,0.5701741576194763
841.0,713.0,4.3693,-2.0548,8.0267,-0.0501,0.0182,-0.1193,-1.5844623051085414,-0.0009657604387030005,2.1275832653045654,-1.6960088014602661,-0.0,2.2116823196411133,4.340550585384033,3.618349801970816e-18,0.2966160476207733,-1.3626192251788538,-0.010484629310667515,-0.17954128980636597,0.7538039684295654,0.0,-0.002818786771968007,0.8984144330024719,0.008115902543067932,0.6220583915710449
841.0,713.0,4.3693,-2.0548,8.0267,-0.0501,0.0182,-0.1193,-1.5844623051085414,-0.0020344348158687353,2.0607876777648926,-1.6960407495498657,-0.0,2.1997485160827637,4.340562506312988,6.576171697863058e-23,0.28972309827804565,-1.3626864592181605,-0.010674535296857357,-0.18389827013015747,0.7538197636604309,0.0,0.006726864259690046,0.898478627204895,0.009955587796866894,0.6323179602622986
841.0,713.0,4.3693,-2.0548,8.0267,-0.0501,0.0182,-0.1193,-1.5844584904112757,-0.0029982945416122675,2.105853796005249,-1.6959763765335083,-0.0,2.191984176635742,4.340566321010254,1.195186671540031e-27,0.2938584089279175,-1.3627703825580042,-0.00754955131560564,-0.1866724193096161,0.7538995742797852,0.0,-0.0008346822578459978,0.8985622525215149,0.010297202505171299,0.6946872472763062
830.0,719.0,3.9607,-1.6271,8.1793,-0.0428,0.0399,-0.1216,-1.5844627819456996,-0.0033822041004896164,2.023862600326538,-1.6960047483444214,-0.0,2.188755512237549,4.340550585384033,3.326846495878012e-31,0.2858440577983856,-1.362786118184225,-0.004958137404173613,-0.1765851378440857,0.7538317441940308,0.0,0.001345309428870678,0.8986461758613586,0.010996903292834759,0.6762763261795044
830.0,719.0,3.9607,-1.6271,8.1793,-0.0428,0.0399,-0.1216,-1.584506174127096,-0.0034322065766900778,2.030918836593628,-1.6959965229034424,-0.0,2.1682610511779785,4.340554400081299,6.046378038025582e-36,0.2793498635292053,-1.3627617994891565,-0.0021762284450232983,-0.1824040710926056,0.7538555264472961,0.0,0.0012987335212528706,0.898673951625824,0.012273897416889668,0.6761810183525085
830.0,719.0,3.9607,-1.6271,8.1793,-0.0428,0.0399,-0.1216,-1.58453430751943,-0.0030374154448509216,1.991029977798462,-1.6959726810455322,-0.0,2.203047752380371,4.3405749040791015,1.0988982557235215e-40,0.27760758996009827,-1.3627942244159144,-0.0011345987441018224,-0.2000105381011963,0.7537682056427002,0.0,-0.015469525009393692,0.898786187171936,0.013274617493152618,0.6733676195144653
830.0,719.0,3.9607,-1.6271,8.1793,-0.0428,0.0399,-0.1216,-1.5845586262144984,-0.002708311192691326,2.003662586212158,-1.6960129737854004,-0.0,2.1928398609161377,4.340570612544678,3.0828566215145976e-44,0.27753645181655884,-1.362854305897848,-0.0010163133265450597,-0.1945015788078308,0.7538198828697205,0.0,0.004390012472867966,0.8989548087120056,0.014003836549818516,0.6561365723609924
830.0,719.0,3.9607,-1.6271,8.1793,-0.0428,0.0399,-0.1216,-1.5845982036986292,-0.0023832169827073812,2.0267937183380127,-1.6959882974624634,-0.0,2.1787047386169434,4.340562983150146,0.0,0.27983149886131287,-1.362866226826803,-0.00157109834253788,-0.1875433772802353,0.7538237571716309,0.0,0.0037842588499188423,0.8990142345428467,0.01356165949255228,0.7225543260574341
830.0,719.0,3.9607,-1.6271,8.1793,-0.0428,0.0399,-0.1216,-1.5846106014647425,-0.0022986335679888725,2.0415802001953125,-1.696053147315979,-0.0,2.190629482269287,4.3405749040791015,0.0,0.2827337682247162,-1.362849537526266,-0.0023141629062592983,-0.1924293041229248,0.7538835406303406,0.0,0.0018848998006433249,0.8991381525993347,0.01377439871430397,0.7542535662651062
830.0,719.0,3.9607,-1.6271,8.1793,-0.0428,0.0399,-0.1216,-1.5845896206297816,-0.0020003884565085173,1.9984054565429688,-1.696000576019287,-0.0,2.1481385231018066,4.340550585384033,0.0,0.2815551161766052,-1.362861458455221,-0.003307843580842018,-0.1994689404964447,0.7538955807685852,0.0,0.0015010109636932611,0.8991816639900208,0.013458022847771645,0.7185566425323486
830.0,719.0,3.9607,-1.6271,8.1793,-0.0428,0.0399,-0.1216,-1.5846463642516078,-0.0015717612113803625,1.9914017915725708,-1.6959844827651978,-0.0,2.180493116378784,4.340574427241943,0.0,0.2864226698875427,-1.3629339377032679,-0.004298616200685501,-0.20300927758216858,0.7538594603538513,0.0,-0.007626784034073353,0.8992172479629517,0.013664094731211662,0.752494752407074
830.0,719.0,3.9607,-1.6271,8.1793,-0.0428,0.0399,-0.1216,-1.5845986805357875,-0.001071420032531023,1.9904836416244507,-1.6959844827651978,-0.0,2.2188446521759033,4.340594931239746,0.0,0.2840919494628906,-1.3629983107196253,-0.0058855339884757996,-0.1988229751586914,0.753831684589386,0.0,0.004645585082471371,0.8994059562683105,0.013977698981761932,0.7622725367546082
830.0,719.0,3.9607,-1.6271,8.1793,-0.0428,0.0399,-0.1216,-1.5846058330931605,-0.0008203421020880342,2.003709316253662,-1.6959967613220215,-0.0,2.2391436100006104,4.340562506312988,0.0,0.28253740072250366,-1.3629983107196253,-0.007122858893126249,-0.20097097754478455,0.7538436055183411,0.0,-0.01844266802072525,0.8994496464729309,0.01476458553224802,0.7536489963531494
830.0,719.0,3.9607,-1.6271,8.1793,-0.0428,0.0399,-0.1216,-1.5846263370909632,-0.0005468122544698417,2.028043270111084,-1.6960325241088867,-0.0,2.2276265621185303,4.340655489558838,0.0,0.30057626962661743,-1.363021198903219,-0.008541414514183998,-0.21303239464759827,0.7538079023361206,6.415070696874636e-09,-0.013253467157483101,0.8995773792266846,0.016751516610383987,0.834626317024231
830.0,719.0,3.9607,-1.6271,8.1793,-0.0428,0.0399,-0.1216,-1.58461393932485,-0.00044629262993112206,1.9981282949447632,-1.6959607601165771,-0.0,2.1962170600891113,4.3406030374714355,0.0,0.3012605309486389,-1.3631137053119105,-0.008850998245179653,-0.21129921078681946,0.7538597583770752,1.1659075126787405e-13,-0.0003742555854842067,0.8997171521186829,0.018226545304059982,0.8803297281265259
823.0,625.0,4.0863,-1.6726,8.2271,-0.0234,0.0197,-0.1016,-1.58469881633901,-0.0004025585949420929,2.0263047218322754,-1.6959927082061768,-0.0,2.200270652770996,4.340558691615723,0.0,0.29189765453338623,-1.3631933371173304,-0.01012355275452137,-0.21770238876342773,0.7538518905639648,2.118979476190353e-18,-0.009103926829993725,0.8998370170593262,0.021064428612589836,0.8539199829101562
823.0,625.0,4.0863,-1.6726,8.2271,-0.0234,0.0197,-0.1016,-1.5846783123412074,-0.00036305442336015403,2.006132125854492,-1.6960047483444214,-0.0,2.2320313453674316,4.34059922277417,0.0,0.298438161611557,-1.3632414976703089,-0.009691789746284485,-0.21356751024723053,0.753827691078186,5.898257704965267e-22,-0.016367178410291672,0.8999531269073486,0.02371775545179844,0.8325506448745728
823.0,625.0,4.0863,-1.6726,8.2271,-0.0234,0.0197,-0.1016,-1.58469881633901,-0.001024558674544096,2.0016164779663086,-1.6959927082061768,4.2958947688021e-07,2.1965813636779785,4.34059922277417,0.0,0.2978774309158325,-1.3632972876178187,-0.010174076072871685,-0.21625417470932007,0.7538476586341858,1.071979309282142e-26,-0.0006514458800666034,0.9001727104187012,0.029585717245936394,0.8937540054321289
823.0,625.0,4.0863,-1.6726,8.2271,-0.0234,0.0197,-0.1016,-1.5846945248045863,-0.0016315336106345057,1.9807047843933105,-1.6959644556045532,1.3918149774784071e-14,2.198615789413452,4.340607329005859,0.0,0.2894464135169983,-1.3634055296527308,-0.012704256922006607,-0.223839670419693,0.7538716793060303,1.948269744326873e-31,-0.009736091829836369,0.9004647135734558,0.03324148803949356,0.8646070957183838
823.0,625.0,4.0863,-1.6726,8.2271,-0.0234,0.0197,-0.1016,-1.584726472894186,-0.0016717222752049565,2.000060796737671,-1.6959763765335083,3.3610694120547927e-20,2.2406113147735596,4.340582533473633,1.9966830677731195e-06,0.2942509055137634,-1.363436524068014,-0.015253845602273941,-0.23347733914852142,0.7538594603538513,5.423080624586866e-35,-0.00309544475749135,0.9006164073944092,0.03988514840602875,0.8870449662208557
823.0,625.0,4.0863,-1.6726,8.2271,-0.0234,0.0197,-0.1016,-1.5847422085204066,-0.001772431773133576,1.992621898651123,-1.6959844827651978,1.0889436128263841e-27,2.205709457397461,4.340550585384033,3.628872202732225e-11,0.2774244248867035,-1.3636129538165491,-0.023789046332240105,-0.22719113528728485,0.7538434863090515,9.856186891659677e-40,0.007395489141345024,0.9010124206542969,0.04751169681549072,0.9037719964981079
823.0,625.0,4.0863,-1.6726,8.2271,-0.0234,0.0197,-0.1016,-1.5846945248045863,-0.0015343520790338516,1.9584321975708008,-1.696000576019287,3.5280390901548895e-35,2.212642192840576,4.340594931239746,6.59529710643589e-16,0.2961941361427307,-1.363885227833883,-0.042636606842279434,-0.21904218196868896,0.7538356781005859,1.8216880036222622e-44,-0.014678976498544216,0.901416003704071,0.05606642737984657,0.9252548217773438
823.0,625.0,4.0863,-1.6726,8.2271,-0.0234,0.0197,-0.1016,-1.5846740208067835,-0.0011330593843013048,1.9908617734909058,-1.6960089206695557,8.519754533248455e-41,2.1971683502197266,4.340586825008057,1.8358251352076122e-19,0.2802577316761017,-1.3641846815692347,-0.0685650110244751,-0.23129495978355408,0.7539114952087402,0.0,-0.004974368028342724,0.9017839431762695,0.0622720867395401,0.9009794592857361
823.0,625.0,4.0863,-1.6726,8.2271,-0.0234,0.0197,-0.1016,-1.5847183666624964,-0.000753167609218508,1.977137565612793,-1.696028470993042,-0.0,2.217773199081421,4.340590639705322,3.3365215140816465e-24,0.2903149127960205,-1.3649995962726038,-0.13339033722877502,-0.25470635294914246,0.7538396716117859,0.0,-0.00675742095336318,0.9022796154022217,0.06974524259567261,0.9527588486671448
823.0,625.0,4.0863,-1.6726,8.2271,-0.0234,0.0197,-0.1016,-1.584726472894186,-0.00041315690032206476,1.9904894828796387,-1.6959283351898193,-0.0,2.264605760574341,4.340562506312988,6.063963161745099e-29,0.3005702793598175,-1.3663857618915003,-0.1727067530155182,-0.25501424074172974,0.7538436055183411,0.0,0.007130695506930351,0.9028872847557068,0.0738091990351677,0.8926849365234375
823.0,625.0,4.0863,-1.6726,8.2271,-0.0234,0.0197,-0.1016,-1.5846978626646937,-0.0003839425917249173,1.9919235706329346,-1.6959809064865112,-0.0,2.1900925636291504,4.340522451991699,1.6879264276818965e-32,0.2923363149166107,-1.3674572149859827,-0.18180981278419495,-0.26268965005874634,0.7538118362426758,0.0,-0.010046345181763172,0.9033709168434143,0.0775468572974205,0.8983266949653625
823.0,625.0,4.0863,-1.6726,8.2271,-0.0234,0.0197,-0.1016,-1.5846978626646937,-0.00034938790486194193,1.9790043830871582,-1.6960129737854004,-0.0,2.2411978244781494,4.3405749040791015,3.0677225980998895e-37,0.2976222336292267,-1.3692343870746058,-0.24818624556064606,-0.29423773288726807,0.7538554668426514,0.0,-0.005306157283484936,0.9040061831474304,0.08022334426641464,0.8917509913444519
842.0,640.0,4.1228,-2.144,8.2068,-0.0284,0.0069,-0.0977,-1.5846826038756312,-0.0002859487140085548,2.0261948108673096,-1.695976734161377,-0.0,2.1928908824920654,4.340578241939209,5.575766589548447e-42,0.285709023475647,-1.3712108770953577,-0.2555064558982849,-0.2918749153614044,0.7538436055183411,0.0,-0.015090195462107658,0.9046456217765808,0.07470997422933578,0.8746861815452576
842.0,640.0,4.1228,-2.144,8.2068,-0.0284,0.0069,-0.0977,-1.5847064457335414,-0.00028763068257831037,1.994707703590393,-1.6960128545761108,-0.0,2.2323691844940186,4.340562506312988,-2.2289186745183542e-05,0.28793540596961975,-1.3729971090899866,-0.30516737699508667,-0.31845659017562866,0.7538197040557861,0.0,0.0008918343810364604,0.9051011204719543,0.07302935421466827,0.8860811591148376
842.0,640.0,4.1228,-2.144,8.2068,-0.0284,0.0069,-0.0977,-1.5847746334471644,-0.0003175975871272385,1.9910186529159546,-1.6959924697875977,-0.0,2.170513391494751,4.340590639705322,-1.8054802097822176e-09,0.2941935658454895,-1.3756054083453577,-0.3546793758869171,-0.331620991230011,0.753831684589386,0.0,-0.010102230124175549,0.9056726694107056,0.07427007704973221,0.9284828901290894
842.0,640.0,4.1228,-2.144,8.2068,-0.0284,0.0069,-0.0977,-1.5847622356810511,-0.0007205865113064647,2.02075457572937,-1.6960047483444214,-0.0,2.1755428314208984,4.340554400081299,-3.2813710787189115e-14,0.28130197525024414,-1.3786333242999476,-0.3923468291759491,-0.3407636880874634,0.753847599029541,0.0,-0.007376937195658684,0.9062839150428772,0.08026334643363953,0.9215078353881836
842.0,640.0,4.1228,-2.144,8.2068,-0.0284,0.0069,-0.0977,-1.5847183666624964,-0.000686126237269491,2.006711959838867,-1.6959726810455322,-0.0,2.170966386795044,4.340558691615723,-9.133817659316687e-18,0.29327699542045593,-1.3811095396624964,-0.43145161867141724,-0.34170791506767273,0.753811776638031,0.0,-0.001732000382617116,0.9067919254302979,0.08497536182403564,0.9129308462142944
842.0,640.0,4.1228,-2.144,8.2068,-0.0284,0.0069,-0.0977,-1.5847622356810511,-0.000532373902387917,2.0288312435150146,-1.695976734161377,-0.0,2.187284469604492,4.340578718776367,-1.6600263823652457e-22,0.28773608803749084,-1.3849285284625452,-0.47857657074928284,-0.35198867321014404,0.7537841200828552,0.0,-0.006993395276367664,0.9074711799621582,0.08715245872735977,0.9082379341125488
842.0,640.0,4.1228,-2.144,8.2068,-0.0284,0.0069,-0.0977,-1.5847541294493617,-0.0009722256218083203,1.9859137535095215,-1.6960252523422241,-0.0,2.146998405456543,4.340586825008057,-3.017014902422287e-27,0.26872527599334717,-1.3890050093280237,-0.5323708653450012,-0.38357964158058167,0.753827691078186,0.0,2.3904838599264622e-05,0.9081141948699951,0.08736561238765717,0.880797266960144
842.0,640.0,4.1228,-2.144,8.2068,-0.0284,0.0069,-0.0977,-1.5847660503783167,-0.003595244139432907,1.987576961517334,-1.696004867553711,-0.0,2.143690586090088,4.340594931239746,-5.483276188782113e-32,0.27866896986961365,-1.3934829870807093,-0.5780476927757263,-0.3635391891002655,0.7538118362426758,0.0,0.014963516965508461,0.9088541269302368,0.09155093878507614,0.8359044194221497
842.0,640.0,4.1228,-2.144,8.2068,-0.0284,0.0069,-0.0977,-1.584785600701803,-0.005516047589480877,1.99678373336792,-1.6960006952285767,-0.0,2.142681121826172,4.340522451991699,-1.5262901619199118e-35,0.27815520763397217,-1.3970711866961878,-0.6129524111747742,-0.35296595096588135,0.7537878155708313,0.0,-0.010774082504212856,0.9094575643539429,0.09135256707668304,0.8029958009719849
842.0,640.0,4.1228,-2.144,8.2068,-0.0284,0.0069,-0.0977,-1.5848380527892054,-0.007166003342717886,1.9197462797164917,-1.696036696434021,-0.0,2.1442208290100098,4.340578241939209,-2.773954388038835e-40,0.2716115117073059,-1.4020379225360315,-0.6317631006240845,-0.33316993713378906,0.7537872791290283,0.0,-0.018713556230068207,0.9101530313491821,0.08511579036712646,0.7309744358062744
842.0,640.0,4.1228,-2.144,8.2068,-0.0284,0.0069,-0.0977,-1.5849062405028285,-0.007098369766026735,1.9226469993591309,-1.6960128545761108,-0.0,2.120568037033081,4.340586825008057,-5.605193857299268e-45,0.2665303945541382,-1.4072383085833948,-0.6610798835754395,-0.33204084634780884,0.7538436055183411,0.0,-0.014644652605056763,0.9107842445373535,0.07889147847890854,0.6976677179336548
842.0,640.0,4.1228,-2.144,8.2068,-0.0284,0.0069,-0.0977,-1.5849019489684046,-0.007393081672489643,1.941342830657959,-1.695976734161377,-0.0,2.156325340270996,4.340607329005859,-0.0,0.2632310688495636,-1.4111316839801233,-0.6773760318756104,-0.31976163387298584,0.7538036704063416,0.0,-0.020320840179920197,0.9112198352813721,0.07261045277118683,0.6822211742401123
842.0,640.0,4.1228,-2.144,8.2068,-0.0284,0.0069,-0.0977,-1.5850497684874476,-0.008120189420878887,1.9553771018981934,-1.6959965229034424,-0.0,2.089047431945801,4.340566321010254,-0.0,0.2538650631904602,-1.4166234175311487,-0.6857149004936218,-0.31192198395729065,0.7538160085678101,0.0,-0.014652526006102562,0.9117634296417236,0.06347972899675369,0.6175564527511597
827.0,660.0,4.0403,-2.1547,8.2989,0.3913,0.0279,-0.0484,-1.5850817165770472,-0.007683974225074053,1.9352078437805176,-1.6960170269012451,-0.0,2.11230206489563,4.340566321010254,-0.0,0.26897791028022766,-1.4222071806537073,-0.6998035907745361,-0.29290083050727844,0.7537676095962524,0.0,-0.015383471734821796,0.9122223258018494,0.05238693952560425,0.5566388368606567
827.0,660.0,4.0403,-2.1547,8.2989,0.3913,0.0279,-0.0484,-1.585193773309225,-0.00785369798541069,1.9858261346817017,-1.6959924697875977,-0.0,2.147784948348999,4.340546293849609,-0.0,0.2666773498058319,-1.4265149275409144,-0.6989573240280151,-0.26662248373031616,0.7537634372711182,0.0,-0.008584517054259777,0.9125382900238037,0.044879328459501266,0.44908392429351807
827.0,660.0,4.0403,-2.1547,8.2989,0.3913,0.0279,-0.0484,-1.5851894817748011,-0.008001839742064476,2.0038294792175293,-1.6960211992263794,-0.0,2.1385841369628906,4.340610666865967,-6.13670126767829e-05,0.2731091380119324,-1.4321196714984339,-0.705274224281311,-0.2771873474121094,0.7538639903068542,0.0,-0.009464274160563946,0.9128543734550476,0.032894283533096313,0.4605734944343567
827.0,660.0,4.0403,-2.1547,8.2989,0.3913,0.0279,-0.0484,-1.5852819881834925,-0.008228779770433903,1.978968620300293,-1.6959965229034424,-0.0,2.1764073371887207,4.34059922277417,2.9601353617181303e-06,0.2701524496078491,-1.4377244154559534,-0.6922983527183533,-0.29384395480155945,0.7538155913352966,0.0,-0.021796025335788727,0.9130176305770874,0.020171992480754852,0.3708568811416626
827.0,660.0,4.0403,-2.1547,8.2989,0.3913,0.0279,-0.0484,-1.5853177509703578,-0.007735527586191893,2.0267133712768555,-1.6959763765335083,-0.0,2.1519951820373535,4.340590639705322,8.23964507734587e-10,0.278420627117157,-1.4417784849749964,-0.687646746635437,-0.26817503571510315,0.7537920475006104,0.0,-0.01578599214553833,0.9131293892860413,0.01198611594736576,0.3048795461654663
827.0,660.0,4.0403,-2.1547,8.2989,0.3913,0.0279,-0.0484,-1.5853897533812464,-0.007127577904611826,2.0989251136779785,-1.6960569620132446,-0.0,2.141665458679199,4.3405749040791015,1.4975146096036715e-14,0.2735629081726074,-1.4472277800189417,-0.6705491542816162,-0.23983371257781982,0.7538160085678101,0.0,-0.022789496928453445,0.9131572246551514,0.0030506530310958624,0.2604333162307739
827.0,660.0,4.0403,-2.1547,8.2989,0.3913,0.0279,-0.0484,-1.5854135952391566,-0.006345366593450308,2.0740280151367188,-1.695948839187622,-0.0,2.1381313800811768,4.34059922277417,2.7216586693043315e-19,0.27833208441734314,-1.4524691740619105,-0.6653509140014648,-0.25802159309387207,0.75382000207901,0.0,-0.013886608183383942,0.9131207466125488,-0.00380982318893075,0.2649843096733093
827.0,660.0,4.0403,-2.1547,8.2989,0.3913,0.0279,-0.0484,-1.5854975185790003,-0.005564488936215639,2.084568977355957,-1.695988655090332,-0.0,2.1464853286743164,4.340550585384033,7.575835800709574e-23,0.29609060287475586,-1.4563801924334925,-0.6461322903633118,-0.24877288937568665,0.7537597417831421,0.0,-0.0023505252320319414,0.9130851030349731,-0.0039147366769611835,0.23504987359046936
827.0,660.0,4.0403,-2.1547,8.2989,0.3913,0.0279,-0.0484,-1.5854889355101527,-0.004362060222774744,2.1154532432556152,-1.6959604024887085,-0.0,2.1566734313964844,4.340611143703125,0.00024087756173685193,0.29802054166793823,-1.4613874594317835,-0.619819164276123,-0.22002434730529785,0.7537750601768494,0.0,-0.016166599467396736,0.9130532145500183,-0.004148976411670446,0.2232861965894699
827.0,660.0,4.0403,-2.1547,8.2989,0.3913,0.0279,-0.0484,-1.5855094395079554,-0.0034497734159231186,2.096879005432129,-1.696000576019287,-0.0,2.1884756088256836,4.340618773097656,0.00032699116854928434,0.2924857437610626,-1.4663174788104456,-0.6080523133277893,-0.22298923134803772,0.7538516521453857,0.0,-0.003586268750950694,0.9130696654319763,-0.003578860079869628,0.1655154675245285
827.0,660.0,4.0403,-2.1547,8.2989,0.3913,0.0279,-0.0484,-1.58555330852651,-0.0026968554593622684,2.1684701442718506,-1.696000576019287,-0.0,2.1958255767822266,4.340582533473633,0.0006544753559865057,0.2954629361629486,-1.4698651472674769,-0.5878406763076782,-0.22119194269180298,0.7538036704063416,0.0,-0.014428909868001938,0.9130418300628662,-0.0038864328525960445,0.1440083086490631
827.0,660.0,4.0403,-2.1547,8.2989,0.3913,0.0279,-0.0484,-1.5856014690794886,-0.002506004646420479,2.1807801723480225,-1.696000576019287,-0.0,2.1355655193328857,4.340638800258301,0.0006890586228109896,0.3115420341491699,-1.4743698279010218,-0.556135892868042,-0.19723786413669586,0.7538237571716309,0.0,0.0018077706918120384,0.913001298904419,-0.0032335517462342978,0.13058871030807495
796.0,688.0,4.584,-0.1286,7.8491,0.6874,0.0345,-0.0863,-1.5856009922423304,-0.002039143117144704,2.174046039581299,-1.6960047483444214,-0.0,2.167450189590454,4.340630694026611,0.0008950920309871435,0.31329524517059326,-1.4787347952472132,-0.529265284538269,-0.20454354584217072,0.7538036704063416,0.0,-0.01649441197514534,0.9129816293716431,-0.0019606230780482292,0.06733790785074234
796.0,688.0,4.584,-0.1286,7.8491,0.6874,0.0345,-0.0863,-1.5855971775450648,-0.0011500883847475052,2.164785623550415,-1.6960047483444214,-0.0,2.202085018157959,4.3406264024921875,0.0011805336689576507,0.32871028780937195,-1.4828479925738733,-0.508604884147644,-0.203386127948761,0.7538036704063416,0.0,0.011032904498279095,0.9129774570465088,-0.0011999618727713823,0.10071627795696259
796.0,688.0,4.584,-0.1286,7.8491,0.6874,0.0345,-0.0863,-1.5855895481505335,-0.0008186888298951089,2.1569690704345703,-1.6959726810455322,-0.0,2.161580801010132,4.340658827418945,0.0010905818780884147,0.32656535506248474,-1.4857948462115687,-0.49097245931625366,-0.21040859818458557,0.7538438439369202,0.0,-0.008624284528195858,0.9129939079284668,-0.0008504819124937057,0.08145172894001007
796.0,688.0,4.584,-0.1286,7.8491,0.6874,0.0345,-0.0863,-1.5856176815428675,-0.0005402343231253326,2.152737617492676,-1.6959807872772217,-0.0,2.165870428085327,4.340654535884521,0.0008122965227812529,0.329704225063324,-1.4896557966815394,-0.46639716625213623,-0.19607272744178772,0.7538397908210754,0.0,-0.015584804117679596,0.9129852652549744,-0.000552151002921164,0.07817400246858597
796.0,688.0,4.584,-0.1286,7.8491,0.6874,0.0345,-0.0863,-1.5855776272215785,-0.00041355457506142557,2.1985416412353516,-1.6960088014602661,8.80273555870642e-13,2.1585092544555664,4.3406383234211425,0.0006127225351519883,0.33051466941833496,-1.4932521025287073,-0.44844770431518555,-0.19053566455841064,0.7537675499916077,0.0,-0.0031911605037748814,0.9129733443260193,-0.0004087989218533039,0.11530934274196625
796.0,688.0,4.584,-0.1286,7.8491,0.6874,0.0345,-0.0863,-1.5856009922423304,-0.0003930630919057876,2.223876953125,-1.6959567070007324,0.0006653664167970419,2.232537031173706,4.340658827418945,0.00044366155634634197,0.31937000155448914,-1.4957626501666468,-0.40990161895751953,-0.17045989632606506,0.7538360357284546,0.0,-0.004557692911475897,0.9129853248596191,-0.00011586001346586272,0.08426615595817566
796.0,688.0,4.584,-0.1286,7.8491,0.6874,0.0345,-0.0863,-1.5856291256346644,-0.0005548803019337356,2.1870245933532715,-1.6959688663482666,0.0005908249295316637,2.1316721439361572,4.340674563045166,0.0004007614334113896,0.33114778995513916,-1.4989450613604944,-0.37841108441352844,-0.14604026079177856,0.753843367099762,0.0,-0.012721793726086617,0.913033664226532,-5.1537972467485815e-05,0.06810887157917023
796.0,688.0,4.584,-0.1286,7.8491,0.6874,0.0345,-0.0863,-1.5856653652586878,-0.0016125517431646585,2.1983344554901123,-1.6959567070007324,0.000496819440741092,2.1993088722229004,4.3406383234211425,0.00037596732727251947,0.33338242769241333,-1.5019310156451624,-0.3470087945461273,-0.14734861254692078,0.7538597583770752,0.0,0.00560449343174696,0.913001298904419,-1.3150382073945366e-05,0.07263215631246567
796.0,688.0,4.584,-0.1286,7.8491,0.6874,0.0345,-0.0863,-1.5856372318663539,-0.0019906992092728615,2.224391460418701,-1.6959688663482666,0.0004420894256327301,2.2120566368103027,4.340662165279053,0.0003804909356404096,0.32192254066467285,-1.503838841115133,-0.3325329124927521,-0.1400558054447174,0.7538397312164307,0.0,0.0006710824090987444,0.913033664226532,-3.175662510734867e-11,0.03816486895084381
796.0,688.0,4.584,-0.1286,7.8491,0.6874,0.0345,-0.0863,-1.5856734714903773,-0.0029013759922236204,2.217592716217041,-1.695957064628601,0.0003944050404243171,2.2527594566345215,4.3406707483479,0.0003962924820370972,0.326489120721817,-1.5062816778766077,-0.29396286606788635,-0.13441359996795654,0.7538761496543884,0.0,-0.012702018022537231,0.9130737781524658,-1.0288742326609404e-18,0.0489099957048893
796.0,688.0,4.584,-0.1286,7.8491,0.6874,0.0345,-0.0863,-1.585733552972311,-0.004332305863499641,2.246649980545044,-1.6959807872772217,0.0003154719597660005,2.2299764156341553,4.3406707483479,0.0004939866485074162,0.32616525888442993,-1.508529011403219,-0.25321823358535767,-0.12172181904315948,0.7538237571716309,0.0,-0.0032402335200458765,0.9130492210388184,-3.333421118160805e-26,0.07128080725669861
796.0,688.0,4.584,-0.1286,7.8491,0.6874,0.0345,-0.0863,-1.5857168636717738,-0.005700433626770973,2.206230640411377,-1.695957064628601,0.00031344551825895905,2.2011852264404297,4.340686007136963,0.0004662669962272048,0.3243851065635681,-1.509881321583883,-0.22572292387485504,-0.0951956957578659,0.7538036704063416,0.0,-0.006238367408514023,0.9130331873893738,0.0005340165225788951,0.07785707712173462
633.0,585.0,4.0319,0.0012,8.473,0.4696,0.082,-0.1199,-1.58579744915151,-0.007778979372233152,2.215846538543701,-1.695948839187622,0.0002669586392585188,2.202658176422119,4.340690298671387,0.000572147429920733,0.3319966197013855,-1.5115984121905726,-0.19308686256408691,-0.08896428346633911,0.753791332244873,0.0,-0.012830128893256187,0.9130655527114868,0.0005344160017557442,0.11860211938619614
633.0,585.0,4.0319,0.0012,8.473,0.4696,0.082,-0.1199,-1.585893293420309,-0.010839562863111496,2.2043163776397705,-1.695948839187622,0.00024308449064847082,2.226083755493164,4.340742750758789,0.0011579189449548721,0.32961517572402954,-1.512911621724264,-0.15027061104774475,-0.06450878083705902,0.7538639307022095,0.0,-0.007195652462542057,0.9130368828773499,0.0005361759685911238,0.07601557672023773
633.0,585.0,4.0319,0.0012,8.473,0.4696,0.082,-0.1199,-1.5859409771361292,-0.012601654976606369,2.168152093887329,-1.695916771888733,0.0007099073845893145,2.2247118949890137,4.3407026964375,0.0019338341662660241,0.33458179235458374,-1.51384145418276,-0.15532997250556946,-0.08457471430301666,0.7538597583770752,0.0,-0.013172104954719543,0.9130933880805969,0.0005529631162062287,0.1238899976015091
633.0,585.0,4.0319,0.0012,8.473,0.4696,0.082,-0.1199,-1.5860492191710414,-0.014088982716202736,2.218264579772949,-1.6958969831466675,0.0013321968726813793,2.2599880695343018,4.3407508569904785,0.002638423815369606,0.32764071226119995,-1.5148113409625452,-0.09525580704212189,-0.06361008435487747,0.7538516521453857,0.0,-0.0013161911629140377,0.9130933880805969,0.00046843552263453603,0.13612398505210876
633.0,585.0,4.0319,0.0012,8.473,0.4696,0.082,-0.1199,-1.586217542687887,-0.01707061193883419,2.2047436237335205,-1.6959011554718018,0.0020298934541642666,2.2134532928466797,4.340794726009033,0.004718851298093796,0.3325767517089844,-1.5151975790606897,-0.013530103489756584,-0.018030302599072456,0.7539040446281433,0.0,-0.007114635780453682,0.9131056666374207,0.0005253906711004674,0.12155750393867493
633.0,585.0,4.0319,0.0012,8.473,0.4696,0.082,-0.1199,-1.5863729916014613,-0.02105243131518364,2.1786506175994873,-1.6959290504455566,0.004832385573536158,2.1994543075561523,4.340822382564209,0.006484354846179485,0.3347013592720032,-1.5150211493121546,0.04357970878481865,-0.000740132643841207,0.7538274526596069,0.0,-0.00028005498461425304,0.913057267665863,0.0018409963231533766,0.15854209661483765
633.0,585.0,4.0319,0.0012,8.473,0.4696,0.082,-0.1199,-1.5865127048888148,-0.022250790148973465,2.1488664150238037,-1.6958969831466675,0.006130609195679426,2.262519121170044,4.340878649348877,0.007638849318027496,0.3402716815471649,-1.5147131125079554,0.06323865056037903,-0.010231707245111465,0.7538438439369202,0.0,-0.006755807437002659,0.9130810499191284,0.002263445872813463,0.1398724913597107
633.0,585.0,4.0319,0.0012,8.473,0.4696,0.082,-0.1199,-1.5867320499815882,-0.024954957887530327,2.164543867111206,-1.6958290338516235,0.0072206007316708565,2.343125343322754,4.340950174922607,0.006944179534912109,0.34579169750213623,-1.514238182698385,0.055912140756845474,-0.0031390604563057423,0.7538959383964539,0.0,-0.001397795625962317,0.9130973815917969,0.002415312919765711,0.17826992273330688
633.0,585.0,4.0319,0.0012,8.473,0.4696,0.082,-0.1199,-1.5868884525694789,-0.027220522984862328,2.157595634460449,-1.6956801414489746,0.008803823962807655,2.274148464202881,4.340961619014404,0.006912255194038153,0.3451545834541321,-1.514019791279928,0.02256561443209648,-0.022114045917987823,0.7538315653800964,0.0,-0.01022435538470745,0.9131171107292175,0.0020180153660476208,0.14896950125694275
633.0,585.0,4.0319,0.0012,8.473,0.4696,0.082,-0.1199,-1.5871368847289027,-0.029657265171408653,2.180006980895996,-1.6956969499588013,0.009821410290896893,2.2521770000457764,4.341038389796875,0.00568362744525075,0.355154812335968,-1.5139392058001917,-0.0033314083702862263,0.0012682224623858929,0.7538032531738281,0.0,-0.001432376098819077,0.9131331443786621,0.0011544255539774895,0.2050670087337494
633.0,585.0,4.0319,0.0012,8.473,0.4696,0.082,-0.1199,-1.5874086819090785,-0.03271317109465599,2.192131519317627,-1.6955928802490234,0.011523089371621609,2.3147084712982178,4.341069384212158,0.005094172433018684,0.357867032289505,-1.5140112082110804,-0.010511484928429127,-0.02884635329246521,0.753847599029541,0.0,0.012775132432579994,0.9131253361701965,0.0004152299661654979,0.13175958395004272
633.0,585.0,4.0319,0.0012,8.473,0.4696,0.082,-0.1199,-1.5876437626280726,-0.033111922442913055,2.150022029876709,-1.695568561553955,0.012369989417493343,2.2844762802124023,4.341077967281006,0.005089246202260256,0.3540636897087097,-1.5140112082110804,-0.0022841503378003836,-0.024680882692337036,0.7538516521453857,0.0,-0.00015520307351835072,0.9131248593330383,0.00021391105838119984,0.12969382107257843
615.0,685.0,3.9308,0.4098,8.2792,0.1136,0.0166,-0.1115,-1.5879126987852992,-0.033016644418239594,2.197636842727661,-1.6954410076141357,0.014322116039693356,2.3219475746154785,4.34116189062085,0.006306254770606756,0.36138617992401123,-1.5140636602984827,-5.412730843090685e-06,-0.0401957742869854,0.7538598775863647,0.0,-0.009095209650695324,0.9131171107292175,0.00017214950639754534,0.16553735733032227
615.0,685.0,3.9308,0.4098,8.2792,0.1136,0.0166,-0.1115,-1.5881911716856898,-0.031484995037317276,2.167161226272583,-1.69540536403656,0.01645364798605442,2.3782010078430176,4.341205282802246,0.008947902359068394,0.3736211359500885,-1.5140436331378382,-9.837369807641494e-11,-0.022443247959017754,0.7538397312164307,0.0,-0.01370208989828825,0.913109302520752,0.00013716297689825296,0.13857685029506683
615.0,685.0,3.9308,0.4098,8.2792,0.1136,0.0166,-0.1115,-1.5883833370604457,-0.03169688954949379,2.183459520339966,-1.695192575454712,0.017131278291344643,2.34409236907959,4.341282053584717,0.01087270863354206,0.3771316409111023,-1.514071289693014,-1.787893428141854e-15,-0.028755562379956245,0.7538557648658752,0.0,0.006445414386689663,0.9130932688713074,-1.623887146706693e-05,0.13456358015537262
615.0,685.0,3.9308,0.4098,8.2792,0.1136,0.0166,-0.1115,-1.5885912380614222,-0.030182942748069763,2.229491710662842,-1.6951086521148682,0.018453622236847878,2.4265966415405273,4.341377897853516,0.011966124176979065,0.368725061416626,-1.5140755812274378,-4.976668048927818e-19,-0.0344778336584568,0.7538598775863647,0.0,-0.01073584146797657,0.9130932688713074,-7.420819747494534e-05,0.1824636459350586
615.0,685.0,3.9308,0.4098,8.2792,0.1136,0.0166,-0.1115,-1.5888515911498011,-0.029621167108416557,2.2173869609832764,-1.6949158906936646,0.0212993361055851,2.391712188720703,4.341465159053467,0.013458124361932278,0.3802187442779541,-1.514003101979391,-9.044847214157986e-24,-0.02635660022497177,0.7538639307022095,0.0,0.002705457853153348,0.9131051898002625,-9.555416909279302e-05,0.11361280083656311
615.0,685.0,3.9308,0.4098,8.2792,0.1136,0.0166,-0.1115,-1.5890990696349085,-0.028255585581064224,2.262238025665283,-1.6947892904281616,0.02438124641776085,2.4210329055786133,4.341601534480713,0.014465676620602608,0.37037044763565063,-1.5140193144427698,-1.643856318802337e-28,-0.035813335329294205,0.753847599029541,0.0,-0.009546758607029915,0.9130532145500183,-0.0001394919236190617,0.14074842631816864
615.0,685.0,3.9308,0.4098,8.2792,0.1136,0.0166,-0.1115,-1.5892425976195277,-0.029410701245069504,2.1923580169677734,-1.6945921182632446,0.02763299271464348,2.4047739505767822,4.341693087215088,0.015239511616528034,0.3814011812210083,-1.5140350500689905,-4.575734599735415e-32,-0.039519380778074265,0.7538434267044067,0.0,-0.01306329108774662,0.9130733013153076,-0.00043648562859743834,0.1637861132621765
615.0,685.0,3.9308,0.4098,8.2792,0.1136,0.0166,-0.1115,-1.5895387134947718,-0.032165925949811935,2.262045383453369,-1.694364309310913,0.03270813450217247,2.437485456466675,4.341797037715576,0.019099276512861252,0.3864436447620392,-1.5140193144427698,-8.316172322897066e-37,-0.04280158877372742,0.7538352608680725,0.0,-0.015985576435923576,0.9130249619483948,-0.0007734876126050949,0.179414302110672
615.0,685.0,3.9308,0.4098,8.2792,0.1136,0.0166,-0.1115,-1.5898071728148402,-0.03518879786133766,2.2476329803466797,-1.6940158605575562,0.03906990587711334,2.4488368034362793,4.342053099269531,0.02535233646631241,0.3998233675956726,-1.5140193144427698,-1.5114405236207477e-41,-0.05015289783477783,0.7538274526596069,0.0,-0.006618925370275974,0.9130774140357971,-0.0006644800305366516,0.1867588758468628
615.0,685.0,3.9308,0.4098,8.2792,0.1136,0.0166,-0.1115,-1.5900341473021449,-0.03608083352446556,2.233851909637451,-1.6938002109527588,0.04339234530925751,2.4610495567321777,4.342168493861816,0.032851725816726685,0.4057968556880951,-1.5140355269061487,-4.203895392974451e-45,-0.05016159266233444,0.7538437843322754,0.0,-0.011401197873055935,0.9130533337593079,-0.0006050933734513819,0.21013180911540985
615.0,685.0,3.9308,0.4098,8.2792,0.1136,0.0166,-0.1115,-1.5903102360167445,-0.04089212045073509,2.197749137878418,-1.6934081315994263,0.04965406656265259,2.4851319789886475,4.342511816615723,0.05022775009274483,0.4044226408004761,-1.514015022908346,-0.0,-0.04052325338125229,0.7538397312164307,0.0,-0.0200466588139534,0.9130414128303528,-0.0005827132845297456,0.1688854843378067
615.0,685.0,3.9308,0.4098,8.2792,0.1136,0.0166,-0.1115,-1.5906621418394984,-0.04928895831108093,2.226994752883911,-1.6930004358291626,0.05343407765030861,2.4829788208007812,4.343035860652588,0.07483574748039246,0.4239703416824341,-1.514071289693014,-0.0,-0.05952364206314087,0.7538880705833435,0.0,-0.012285297736525536,0.9130820631980896,-0.0014925996074452996,0.18157362937927246
582.0,697.0,4.3926,0.5396,8.5262,-0.0322,-0.0023,-0.1289,-1.5910855732359828,-0.056632090359926224,2.1970841884613037,-1.6924961805343628,0.054528795182704926,2.4793801307678223,4.343795462245605,0.09991367906332016,0.4362573027610779,-1.5140350500689905,-0.0,-0.05863294377923012,0.7538117170333862,0.0,-0.007056183181703091,0.9130176305770874,-0.0024521995801478624,0.24802711606025696
582.0,697.0,4.3926,0.5396,8.5262,-0.0322,-0.0023,-0.1289,-1.5914298496642054,-0.06234137713909149,2.1874217987060547,-1.6922286748886108,0.0542389415204525,2.489492177963257,4.344433470363281,0.11291658878326416,0.44091665744781494,-1.5140193144427698,-0.0,-0.0543513149023056,0.753847599029541,0.0,-0.0037107253447175026,0.9129651188850403,-0.0033109961077570915,0.1967190057039261
582.0,697.0,4.3926,0.5396,8.5262,-0.0322,-0.0023,-0.1289,-1.5919729671873988,-0.06614264100790024,2.162414312362671,-1.691780924797058,0.05383269116282463,2.5378260612487793,4.345287485713623,0.11161080747842789,0.4387108385562897,-1.5140512625323694,-0.0,-0.05986544117331505,0.7538597583770752,0.0,-0.012813219800591469,0.9129614233970642,-0.0022113288287073374,0.17698384821414948
582.0,697.0,4.3926,0.5396,8.5262,-0.0322,-0.0023,-0.1289,-1.5925013027586878,-0.06321543455123901,2.208090305328369,-1.6913360357284546,0.055469073355197906,2.521564245223999,4.346238775844238,0.11771620064973831,0.46449074149131775,-1.5139911810504358,-0.0,-0.05003990978002548,0.7538278102874756,0.0,-0.004118399228900671,0.9129378199577332,-0.0017511319601908326,0.20341171324253082
582.0,697.0,4.3926,0.5396,8.5262,-0.0322,-0.0023,-0.1289,-1.5929089985289515,-0.06142758950591087,2.234407901763916,-1.6910080909729004,0.055383119732141495,2.562211513519287,4.34707419454541,0.15414181351661682,0.4784364700317383,-1.514031235371725,-0.0,-0.05396202206611633,0.7538881897926331,0.0,0.00014142223517410457,0.912957489490509,-0.0013807554496452212,0.1561623513698578
582.0,697.0,4.3926,0.5396,8.5262,-0.0322,-0.0023,-0.1289,-1.5934602222838343,-0.06158890202641487,2.2480361461639404,-1.6905442476272583,0.05301304906606674,2.563384532928467,4.348433180446289,0.17630839347839355,0.4922631084918976,-1.5140436331378382,-0.0,-0.052244581282138824,0.7538716793060303,0.0,0.00028750975616276264,0.9129213690757751,-0.0008232796681113541,0.18867480754852295
582.0,697.0,4.3926,0.5396,8.5262,-0.0322,-0.0023,-0.1289,-1.5939551792540492,-0.06189682334661484,2.2659976482391357,-1.6901278495788574,0.0503520593047142,2.5823633670806885,4.349866076106689,0.19447578489780426,0.4932609796524048,-1.5140231291400355,-0.0,-0.05660942941904068,0.7538962960243225,0.0,-0.01686735823750496,0.9129295349121094,-0.0005990700447000563,0.24303346872329712
582.0,697.0,4.3926,0.5396,8.5262,-0.0322,-0.0023,-0.1289,-1.5943390331664027,-0.06089378520846367,2.196187734603882,-1.6898804903030396,0.0481756292283535,2.5095996856689453,4.3511082369038085,0.2119978368282318,0.5029435157775879,-1.5140193144427698,-0.0,-0.06607961654663086,0.753799557685852,0.0,0.0009568107780069113,0.9129615426063538,-0.0005324221565388143,0.26290425658226013
582.0,697.0,4.3926,0.5396,8.5262,-0.0322,-0.0023,-0.1289,-1.5948425732054652,-0.06109469011425972,2.1931092739105225,-1.6894760131835938,0.045813485980033875,2.508681058883667,4.352813883418701,0.20243370532989502,0.4939693808555603,-1.5140231291400355,-0.0,-0.04655391722917557,0.7538761496543884,0.0,-0.0018031653016805649,0.9129054546356201,-0.00035968449083156884,0.22238099575042725
582.0,697.0,4.3926,0.5396,8.5262,-0.0322,-0.0023,-0.1289,-1.595346590081686,-0.06215779110789299,2.2194406986236572,-1.689099907875061,0.04572169482707977,2.4950175285339355,4.354502363795898,0.22422707080841064,0.48356127738952637,-1.5140350500689905,-0.0,-0.0690920427441597,0.7538438439369202,0.0,-0.005463805980980396,0.912953794002533,-0.0002928078465629369,0.2611629366874695
582.0,697.0,4.3926,0.5396,8.5262,-0.0322,-0.0023,-0.1289,-1.5956741772093714,-0.06515984237194061,2.170680522918701,-1.6887799501419067,0.048953425139188766,2.5006344318389893,4.35584466039624,0.23159265518188477,0.4954933524131775,-1.514031235371725,-0.0,-0.048186950385570526,0.7537716627120972,0.0,-0.007729801349341869,0.9129295349121094,-0.0002569743955973536,0.26157698035240173
582.0,697.0,4.3926,0.5396,8.5262,-0.0322,-0.0023,-0.1289,-1.5962048969664515,-0.06834691762924194,2.209747552871704,-1.6883282661437988,0.05579003319144249,2.5418758392333984,4.3578502374836425,0.2682593762874603,0.50269615650177,-1.5140469709979456,-0.0,-0.05513419955968857,0.7538237571716309,0.0,0.0018681734800338745,0.9129295349121094,-7.284315506694838e-05,0.264509379863739
582.0,697.0,4.3926,0.5396,8.5262,-0.0322,-0.0023,-0.1289,-1.5967899761595667,-0.07447231560945511,2.221324920654297,-1.687908411026001,0.06128884479403496,2.49591326713562,4.360123320216797,0.2834070920944214,0.5220680236816406,-1.5140393416034144,-0.0,-0.05874088406562805,0.7538197040557861,0.0,-0.0021569717209786177,0.9129615426063538,-6.269343430176377e-05,0.2868690490722656
588.0,615.0,3.0365,-0.5007,9.2435,-0.0498,0.2092,-0.1278,-1.5973416767516078,-0.0816013514995575,2.236675977706909,-1.6874839067459106,0.06514493376016617,2.5054540634155273,4.361879988307617,0.3159673810005188,0.5547006130218506,-1.5140636602984827,-0.0,-0.06804438680410385,0.7538356781005859,0.0,-0.000715254049282521,0.912937343120575,-5.676215732819401e-05,0.26481059193611145
588.0,615.0,3.0365,-0.5007,9.2435,-0.0498,0.2092,-0.1278,-1.5980197391905726,-0.09244229644536972,2.168766736984253,-1.6869399547576904,0.06369662284851074,2.46435809135437,4.3645240503498535,0.34651273488998413,0.5378798246383667,-1.5140393416034144,-0.0,-0.052881211042404175,0.7538036704063416,0.0,-0.008388776332139969,0.912957489490509,-5.040420001023449e-05,0.23773442208766937
588.0,615.0,3.0365,-0.5007,9.2435,-0.0498,0.2092,-0.1278,-1.5987278423705042,-0.09193871170282364,2.1150431632995605,-1.686436414718628,0.05968789756298065,2.4948883056640625,4.367437048549316,0.36538395285606384,0.5476697683334351,-1.5140436331378382,-0.0,-0.0654999241232872,0.7538316249847412,0.0,-0.004955596290528774,0.912945568561554,-4.532710227067582e-05,0.27096378803253174
588.0,615.0,3.0365,-0.5007,9.2435,-0.0498,0.2092,-0.1278,-1.5992633304991664,-0.08458840847015381,2.14200758934021,-1.686107873916626,0.05703786015510559,2.4900097846984863,4.36978451787915,0.3950890898704529,0.565405547618866,-1.5139992872821253,-0.0,-0.06202462315559387,0.7538356781005859,0.0,0.0013849871465936303,0.9129012823104858,-4.214335058350116e-05,0.28962835669517517
588.0,615.0,3.0365,-0.5007,9.2435,-0.0498,0.2092,-0.1278,-1.5999628506102503,-0.07731764018535614,2.1974198818206787,-1.685736894607544,0.04884108528494835,2.512667179107666,4.373155756587646,0.4225528836250305,0.567054033279419,-1.5139992872821253,-0.0,-0.07566365599632263,0.7537872791290283,0.0,-0.0015093552647158504,0.9129414558410645,-3.853450107271783e-05,0.2949579954147339
588.0,615.0,3.0365,-0.5007,9.2435,-0.0498,0.2092,-0.1278,-1.6006018124022425,-0.08033645153045654,2.122567892074585,-1.6853241920471191,0.03869686648249626,2.4475090503692627,4.376626177425049,0.4364947974681854,0.5731316804885864,-1.5140469709979456,-0.0,-0.06285102665424347,0.753847599029541,0.0,0.002234510611742735,0.9129213690757751,-1.9823643015115522e-05,0.33228978514671326
588.0,615.0,3.0365,-0.5007,9.2435,-0.0498,0.2092,-0.1278,-1.6012217007079066,-0.08795370906591415,2.144087314605713,-1.6850526332855225,0.030000800266861916,2.446150064468384,4.380245848292969,0.4574035108089447,0.5760725140571594,-1.5140474478351038,-0.0,-0.07960240542888641,0.7538196444511414,0.0,-0.009502381086349487,0.9128930568695068,-1.644999792915769e-05,0.3421180248260498
588.0,615.0,3.0365,-0.5007,9.2435,-0.0498,0.2092,-0.1278,-1.6017409763731898,-0.08793997019529343,2.0858664512634277,-1.6848801374435425,0.026028675958514214,2.41151762008667,4.383068724269531,0.4779849648475647,0.5808652639389038,-1.5140274206744593,-0.0,-0.07259181886911392,0.7538475394248962,0.0,-0.005936439149081707,0.9129414558410645,-1.5594883734593168e-05,0.33861541748046875
588.0,615.0,3.0365,-0.5007,9.2435,-0.0498,0.2092,-0.1278,-1.6024328670897425,-0.08577591180801392,2.1624019145965576,-1.6847045421600342,0.0220333319157362,2.4104807376861572,4.3869992929646,0.5033965706825256,0.5938932299613953,-1.5140231291400355,-0.0,-0.05922345817089081,0.7538273930549622,0.0,-0.009996714070439339,0.9129012823104858,-1.4584057680622209e-05,0.30095338821411133
588.0,615.0,3.0365,-0.5007,9.2435,-0.0498,0.2092,-0.1278,-1.6031214199461878,-0.08576429635286331,2.0858683586120605,-1.6845362186431885,0.019307022914290428,2.3931338787078857,4.391139193172119,0.5359596014022827,0.584610641002655,-1.5140588919269007,-0.0,-0.06885338574647903,0.7538393139839172,0.0,-0.01606922782957554,0.9129332304000854,-1.3696309906663373e-05,0.36851203441619873
588.0,615.0,3.0365,-0.5007,9.2435,-0.0498,0.2092,-0.1278,-1.6036697826781214,-0.09077756851911545,2.0981554985046387,-1.6844366788864136,0.015979377552866936,2.349184513092041,4.3944102960773925,0.556861937046051,0.5824405550956726,-1.5140474478351038,-0.0,-0.0704922080039978,0.7538397908210754,0.0,-0.0022208199370652437,0.9129214286804199,-1.5282811318684253e-06,0.3056614100933075
588.0,615.0,3.0365,-0.5007,9.2435,-0.0498,0.2092,-0.1278,-1.6044231853880824,-0.09850243479013443,2.1022140979766846,-1.6843605041503906,0.01026882417500019,2.3461875915527344,4.398973150844238,0.5781835913658142,0.58912193775177,-1.5140393416034144,-0.0,-0.0693536177277565,0.7538237571716309,0.0,-0.01030738651752472,0.9129533767700195,-4.951437141700009e-14,0.3344185948371887
499.0,572.0,4.876,-0.862,8.0824,-0.0693,0.3073,-0.1003,-1.605227609673971,-0.10009850561618805,2.0880751609802246,-1.6843773126602173,0.00503208301961422,2.34413480758667,4.4037391382404785,0.6005208492279053,0.5811095237731934,-1.5140436331378382,-0.0,-0.07280507683753967,0.7537839412689209,0.0,-0.0018266811966896057,0.9129135608673096,-1.604202697205266e-21,0.3162653148174286
499.0,572.0,4.876,-0.862,8.0824,-0.0693,0.3073,-0.1003,-1.605851789514059,-0.10445322841405869,2.130277633666992,-1.6842446327209473,0.0021818082313984632,2.3663482666015625,4.407442732448242,0.6144357919692993,0.5706191658973694,-1.5140231291400355,-0.0,-0.07262970507144928,0.7538274526596069,0.0,-0.007135835476219654,0.9129738807678223,-3.873960705258293e-27,0.2988818883895874
499.0,572.0,4.876,-0.862,8.0824,-0.0693,0.3073,-0.1003,-1.6066814861693324,-0.10660237818956375,2.0344221591949463,-1.6843531131744385,0.000889425165951252,2.3386709690093994,4.4123899179646,0.6276628375053406,0.5882126688957214,-1.5140436331378382,-0.0,-0.07052267342805862,0.7538278102874756,0.0,0.0063371299766004086,0.9128729701042175,-1.2551143484588235e-34,0.3682677745819092
499.0,572.0,4.876,-0.862,8.0824,-0.0693,0.3073,-0.1003,-1.6074768505492152,-0.10834933817386627,2.0709095001220703,-1.684312343597412,0.0005359843489713967,2.3336987495422363,4.417427702541016,0.6372218132019043,0.5813423991203308,-1.5139911810504358,-0.0,-0.08136440068483353,0.7538799047470093,0.0,-0.002064414555206895,0.9129378199577332,-4.066568143470619e-42,0.3048449754714966
499.0,572.0,4.876,-0.862,8.0824,-0.0693,0.3073,-0.1003,-1.6081568203368128,-0.11453776061534882,2.047804832458496,-1.6843531131744385,0.00041296909330412745,2.338207244873047,4.421226187343262,0.6478919386863708,0.5845256447792053,-1.5140474478351038,-0.0,-0.07359973341226578,0.7538516521453857,0.0,-0.00019103579688817263,0.9128894209861755,-0.0,0.3693072199821472
499.0,572.0,4.876,-0.862,8.0824,-0.0693,0.3073,-0.1003,-1.6090370617308558,-0.11933057010173798,2.0678200721740723,-1.6842846870422363,0.0003162182110827416,2.296475410461426,4.426461859340332,0.6589803695678711,0.588638186454773,-1.514031235371725,-0.0,-0.07756158709526062,0.7538999915122986,0.0,-0.00946673471480608,0.9129418134689331,0.0,0.31910476088523865
499.0,572.0,4.876,-0.862,8.0824,-0.0693,0.3073,-0.1003,-1.6099921665587367,-0.11744918674230576,2.066659688949585,-1.6842762231826782,5.180074367672205e-05,2.2723371982574463,4.431731386775635,0.6663413643836975,0.5678515434265137,-1.513974968587057,-0.0,-0.07224807143211365,0.7538397312164307,0.0,-0.009096844121813774,0.9128852486610413,0.0,0.31260234117507935
499.0,572.0,4.876,-0.862,8.0824,-0.0693,0.3073,-0.1003,-1.6107236347594203,-0.1211540475487709,2.0890018939971924,-1.6843326091766357,1.6350780924767605e-06,2.325033187866211,4.435838385219238,0.6656285524368286,0.5782880783081055,-1.5139835516559046,-0.0,-0.0710810199379921,0.7538679838180542,0.0,-0.0009998871246352792,0.912893533706665,0.0,0.37302714586257935
499.0,572.0,4.876,-0.862,8.0824,-0.0693,0.3073,-0.1003,-1.6117516956725062,-0.13053195178508759,2.093111038208008,-1.6842762231826782,5.297445357268886e-14,2.2887156009674072,4.441169424647949,0.6644564270973206,0.5743712186813354,-1.5140154997455042,-0.0,-0.08193644881248474,0.7538192868232727,0.0,-0.010148429311811924,0.9128816723823547,0.0,0.3709002733230591
499.0,572.0,4.876,-0.862,8.0824,-0.0693,0.3073,-0.1003,-1.61271395305776,-0.13541699945926666,2.0479180812835693,-1.6843247413635254,1.7163048553034162e-21,2.292783498764038,4.446453734035156,0.6597074270248413,0.5518324971199036,-1.513974968587057,-2.2071930288802832e-05,-0.0762418657541275,0.7538397312164307,0.0,-0.002130770357325673,0.9128570556640625,-0.0009381124982610345,0.30523425340652466
499.0,572.0,4.876,-0.862,8.0824,-0.0693,0.3073,-0.1003,-1.613826414147848,-0.13309401273727417,2.0698792934417725,-1.6842803955078125,5.560609333717343e-29,2.294808864593506,4.451683683986328,0.6603758931159973,0.5794275999069214,-1.5140517393695276,-2.1048028429504484e-05,-0.0706157311797142,0.7538114190101624,0.0,-0.007701647002249956,0.9128538966178894,-0.002736589638516307,0.2981344759464264
