ramyac6/ROB537/final_project/csv/bad/bad_85.csv
tof_0,tof_1,accelx,accely,accelz,gyrox,gyroy,gyroz,shoulder_lift_joint_position,shoulder_lift_joint_velocity,shoulder_lift_joint_effort,elbow_joint_position,elbow_joint_velocity,elbow_joint_effort,wrist_1_joint_position,wrist_1_joint_velocity,wrist_1_joint_effort,wrist_2_joint_position,wrist_2_joint_velocity,wrist_2_joint_effort,wrist_3_joint_position,wrist_3_joint_velocity,wrist_3_joint_effort,shoulder_pan_joint_position,shoulder_pan_joint_velocity,shoulder_pan_joint_effort
300.0,304.0,5.8935,0.4768,7.1444,-0.0441,0.0246,-0.1202,-1.5814248524107875,0.0,2.159202814102173,-1.3083077669143677,-0.0,2.1253020763397217,3.7258378702351074,0.0,0.26594001054763794,-1.5899937788592737,-0.0,-0.003659751731902361,0.7537364363670349,0.0,-0.001763407257385552,0.7611345648765564,0.0,-0.010274551808834076
300.0,304.0,5.8935,0.4768,7.1444,-0.0441,0.0246,-0.1202,-1.5814372501769007,0.0,2.1862733364105225,-1.3082793951034546,-0.0,2.093953847885132,3.725842161769531,0.0,0.2756722569465637,-1.590006176625387,-0.0,-0.028133247047662735,0.7537519931793213,0.0,-0.00036291114520281553,0.7611666917800903,0.0,0.020524729043245316
300.0,304.0,5.8935,0.4768,7.1444,-0.0441,0.0246,-0.1202,-1.581461092034811,0.0,2.1757750511169434,-1.308311939239502,-0.0,2.115623950958252,3.7258264261433105,0.0,0.27925366163253784,-1.5899699370013636,-0.0,-0.006897281855344772,0.7537037134170532,0.0,-0.005899285897612572,0.7611947655677795,0.0,-0.02742592804133892
300.0,304.0,5.8935,0.4768,7.1444,-0.0441,0.0246,-0.1202,-1.581461092034811,0.0,2.195145845413208,-1.3083161115646362,-0.0,2.112820625305176,3.725818319911621,0.0,0.2620053291320801,-1.5899699370013636,-0.0,-0.024063710123300552,0.7536916732788086,0.0,-0.01039515808224678,0.761198878288269,0.0,-0.02537642978131771
300.0,304.0,5.8935,0.4768,7.1444,-0.0441,0.0246,-0.1202,-1.581461092034811,0.0,2.2051000595092773,-1.308320164680481,-0.0,2.1129820346832275,3.725842161769531,0.0,0.2548123002052307,-1.5899418036090296,-0.0,-0.00514586828649044,0.7537441253662109,0.0,-0.017673958092927933,0.7612311840057373,0.0,-0.018630221486091614
300.0,304.0,5.8935,0.4768,7.1444,-0.0441,0.0246,-0.1202,-1.5814854107298792,0.0,2.1609599590301514,-1.3083605766296387,-0.0,2.139967918395996,3.725802107448242,0.0,0.2608771324157715,-1.589978043233053,-0.0,-0.017489615827798843,0.753715991973877,0.0,-0.0029492054600268602,0.7612107992172241,0.0,0.04314500838518143
300.0,304.0,5.8935,0.4768,7.1444,-0.0441,0.0246,-0.1202,-1.5814525089659632,0.0,2.196129560470581,-1.3082835674285889,-0.0,2.1215338706970215,3.7258102136799316,0.0,0.2645413279533386,-1.5899699370013636,-0.0,-0.0015980142634361982,0.7537000179290771,0.0,-0.030262591317296028,0.7612107396125793,0.0,0.005691069178283215
300.0,304.0,5.8935,0.4768,7.1444,-0.0441,0.0246,-0.1202,-1.581456800500387,0.0,2.217367649078369,-1.3083362579345703,-0.0,2.1203503608703613,3.725842161769531,0.0,0.2851385176181793,-1.5899418036090296,-0.0,-0.013928309082984924,0.7537646889686584,0.0,0.0031930531840771437,0.7612029314041138,0.0,0.027905629947781563
320.0,309.0,6.003,0.5701,6.9278,-0.0328,0.0217,-0.1174,-1.5814129314818324,0.0,2.1618804931640625,-1.308323860168457,-0.0,2.154060125350952,3.725802107448242,0.0,0.2702871859073639,-1.5899656454669397,-0.0,-0.00788293220102787,0.7537200450897217,0.0,-0.0077726151794195175,0.7611786127090454,0.0,-0.014467347413301468
320.0,309.0,6.003,0.5701,6.9278,-0.0328,0.0217,-0.1174,-1.5814734898009242,0.0,2.1834118366241455,-1.3083076477050781,-0.0,2.0940442085266113,3.725842161769531,0.0,0.27543342113494873,-1.5899656454669397,-0.0,-0.016330718994140625,0.7537118196487427,0.0,-0.0020476412028074265,0.7612107992172241,0.0,0.027881132438778877
320.0,309.0,6.003,0.5701,6.9278,-0.0328,0.0217,-0.1174,-1.581456800500387,0.0,2.1469786167144775,-1.3082995414733887,-0.0,2.091249942779541,3.725818319911621,0.0,0.2673780918121338,-1.5899699370013636,-0.0,-0.01969004236161709,0.7537282109260559,0.0,-0.006258316338062286,0.7611984014511108,0.0,-0.011468853801488876
320.0,309.0,6.003,0.5701,6.9278,-0.0328,0.0217,-0.1174,-1.5814525089659632,0.0,2.2069201469421387,-1.308320164680481,-0.0,2.1400556564331055,3.725898428554199,0.0,0.2779340445995331,-1.5899537245379847,-0.0,-0.013145450502634048,0.7537081241607666,0.0,-0.01598556898534298,0.7612025737762451,0.0,-0.018261343240737915
320.0,309.0,6.003,0.5701,6.9278,-0.0328,0.0217,-0.1174,-1.5814372501769007,0.0,2.1714134216308594,-1.3083035945892334,-0.0,2.114353656768799,3.725846453303955,0.0,0.27433040738105774,-1.5899699370013636,-0.0,-0.021694036200642586,0.7536917328834534,0.0,0.00734853558242321,0.76119065284729,0.0,-0.053965307772159576
320.0,309.0,6.003,0.5701,6.9278,-0.0328,0.0217,-0.1174,-1.581432958642477,0.0,2.1813676357269287,-1.3083440065383911,-0.0,2.1401681900024414,3.7257940012165527,0.0,0.2845347821712494,-1.5899537245379847,-0.0,-0.0013864646898582578,0.753715991973877,0.0,-0.011241486296057701,0.7612307667732239,0.0,0.01595018245279789
320.0,309.0,6.003,0.5701,6.9278,-0.0328,0.0217,-0.1174,-1.5815092525877894,0.0,2.219238519668579,-1.3082793951034546,-0.0,2.1479849815368652,3.7258221346088867,0.0,0.27571332454681396,-1.5899699370013636,-0.0,-0.002673499286174774,0.7537000179290771,0.0,-0.009181467816233635,0.7612025737762451,0.0,0.025059949606657028
320.0,309.0,6.003,0.5701,6.9278,-0.0328,0.0217,-0.1174,-1.5814734898009242,0.0,2.1594223976135254,-1.308267593383789,-0.0,2.128283977508545,3.7258059221455078,0.0,0.26736360788345337,-1.589966122304098,-0.0,-0.01355673372745514,0.7537441253662109,0.0,0.005262068938463926,0.76119065284729,0.0,-0.020733008161187172
320.0,309.0,6.003,0.5701,6.9278,-0.0328,0.0217,-0.1174,-1.581461092034811,0.0,2.1513898372650146,-1.3082911968231201,-0.0,2.1713309288024902,3.725802107448242,0.0,0.26780563592910767,-1.5899336973773401,-0.0,-0.005280487705022097,0.7537441253662109,0.0,-0.01937047764658928,0.7612066864967346,0.0,0.015739556401968002
320.0,309.0,6.003,0.5701,6.9278,-0.0328,0.0217,-0.1174,-1.5814854107298792,0.0,2.165605306625366,-1.3083280324935913,-0.0,2.118438720703125,3.7257658678242187,0.0,0.2796439528465271,-1.5899861494647425,-0.0,-0.0060413070023059845,0.7537441253662109,0.0,-0.009983439929783344,0.7612107396125793,0.0,0.01241595670580864
320.0,309.0,6.003,0.5701,6.9278,-0.0328,0.0217,-0.1174,-1.5814372501769007,0.0,2.1356468200683594,-1.308255672454834,-0.0,2.1212215423583984,3.725790186519287,0.0,0.280412495136261,-1.5899580160724085,-0.0,-0.01730690896511078,0.7536876797676086,0.0,-0.0021971147507429123,0.7611947655677795,0.0,0.00734760332852602
320.0,309.0,6.003,0.5701,6.9278,-0.0328,0.0217,-0.1174,-1.5814291439452113,0.0,2.1666550636291504,-1.3082911968231201,-0.0,2.1090376377105713,3.725814028377197,0.0,0.27756768465042114,-1.5899418036090296,-0.0,-0.016841117292642593,0.7536876797676086,0.0,-0.0178925022482872,0.7611423134803772,0.0,-0.0040648020803928375
320.0,309.0,6.003,0.5701,6.9278,-0.0328,0.0217,-0.1174,-1.5814453564085902,0.0,2.185352325439453,-1.3082756996154785,-0.0,2.1767265796661377,3.7257978159138183,0.0,0.2777097225189209,-1.5899298826800745,-0.0,-0.011318182572722435,0.7537400722503662,0.0,-0.00019885203801095486,0.7612030506134033,0.0,-0.0046270620077848434
320.0,309.0,6.003,0.5701,6.9278,-0.0328,0.0217,-0.1174,-1.5814086399474085,0.0,2.1946020126342773,-1.3083035945892334,-0.0,2.1164286136627197,3.725814028377197,0.0,0.26696163415908813,-1.5899537245379847,-0.0,-0.028084173798561096,0.7537118196487427,0.0,-0.004520223010331392,0.7612066864967346,0.0,0.015941523015499115
320.0,309.0,6.003,0.5701,6.9278,-0.0328,0.0217,-0.1174,-1.5814734898009242,0.0,2.190315008163452,-1.3083198070526123,-0.0,2.1024169921875,3.7258059221455078,0.0,0.27010399103164673,-1.589978043233053,-0.0,-0.00971958413720131,0.7537523508071899,0.0,-0.011140085756778717,0.7612066268920898,0.0,0.001787357497960329
320.0,309.0,6.003,0.5701,6.9278,-0.0328,0.0217,-0.1174,-1.5814773044981898,0.0,2.150999069213867,-1.308320164680481,-0.0,2.1419718265533447,3.725777788753174,0.0,0.26743873953819275,-1.5899456183062952,-0.0,-0.01955493353307247,0.7536921501159668,0.0,-0.01413373276591301,0.7612390518188477,0.0,0.004912802949547768
312.0,312.0,5.9067,0.4774,7.1665,-0.044,0.0231,-0.1147,-1.581456800500387,0.0,2.190629243850708,-1.3082752227783203,-0.0,2.1095776557922363,3.725818319911621,0.0,0.2815033197402954,-1.589978043233053,-0.0,-0.00744458194822073,0.753699541091919,0.0,-0.020635079592466354,0.76119065284729,0.0,0.07522936165332794
312.0,312.0,5.9067,0.4774,7.1665,-0.044,0.0231,-0.1147,-1.5814410648741664,0.0,2.150094747543335,-1.3083118200302124,-0.0,2.1458377838134766,3.7258102136799316,0.0,0.26047512888908386,-1.5899255911456507,-0.0,-0.019169684499502182,0.753707766532898,0.0,0.00486336462199688,0.7611902356147766,0.0,0.04539527744054794
312.0,312.0,5.9067,0.4774,7.1665,-0.044,0.0231,-0.1147,-1.5814691982665003,0.0,2.1570210456848145,-1.3083035945892334,-0.0,2.1290335655212402,3.7257858949848632,0.0,0.2703755497932434,-1.5899656454669397,-0.0,-0.009618785232305527,0.7537281513214111,0.0,-0.0017366877291351557,0.76119065284729,0.0,0.00101559329777956
312.0,312.0,5.9067,0.4774,7.1665,-0.044,0.0231,-0.1147,-1.5814649067320765,0.0,2.1480157375335693,-1.3083035945892334,-0.0,2.1430113315582275,3.725834532375,0.0,0.2791360318660736,-1.5899861494647425,-0.0,-0.01749633625149727,0.7537118196487427,0.0,-0.014981841668486595,0.7611704468727112,0.0,0.0215415321290493
312.0,312.0,5.9067,0.4774,7.1665,-0.044,0.0231,-0.1147,-1.5814291439452113,0.0,2.1731109619140625,-1.3082834482192993,-0.0,2.1157779693603516,3.725818319911621,0.0,0.28631049394607544,-1.5899699370013636,-0.0,-0.006645064800977707,0.7537201046943665,0.0,-0.015558753162622452,0.7612146735191345,0.0,-0.029083525761961937
312.0,312.0,5.9067,0.4774,7.1665,-0.044,0.0231,-0.1147,-1.5814649067320765,0.0,2.1999387741088867,-1.3083322048187256,-0.0,2.163966178894043,3.7257820802875976,0.0,0.2822515368461609,-1.5899656454669397,-0.0,-0.015876607969403267,0.7537479400634766,0.0,-0.012858478352427483,0.7612107992172241,0.0,0.04828062653541565
312.0,312.0,5.9067,0.4774,7.1665,-0.044,0.0231,-0.1147,-1.5814854107298792,0.0,2.1883537769317627,-1.3082835674285889,-0.0,2.125910758972168,3.7257982927509765,0.0,0.2771739363670349,-1.5899418036090296,-0.0,-0.015140769071877003,0.7537201046943665,0.0,-0.012888548895716667,0.7611865401268005,0.0,0.006994443945586681
312.0,312.0,5.9067,0.4774,7.1665,-0.044,0.0231,-0.1147,-1.5814525089659632,0.0,2.1745553016662598,-1.3082876205444336,-0.0,2.1155147552490234,3.725829764003418,0.0,0.2761375606060028,-1.5899537245379847,-0.0,-0.005839415360242128,0.7537359595298767,0.0,-0.008252782747149467,0.7612107396125793,0.0,0.018114086240530014
312.0,312.0,5.9067,0.4774,7.1665,-0.044,0.0231,-0.1147,-1.581449647943014,0.0,2.19911527633667,-1.3082793951034546,-0.0,2.1404314041137695,3.7258264261433105,0.0,0.2691390812397003,-1.5899618307696741,-0.0,-0.00899573415517807,0.7537200450897217,0.0,-0.00019071786664426327,0.7611584663391113,0.0,-0.0744301974773407
312.0,312.0,5.9067,0.4774,7.1665,-0.044,0.0231,-0.1147,-1.5814525089659632,0.0,2.1779184341430664,-1.3082715272903442,-0.0,2.1099696159362793,3.725818319911621,0.0,0.2783283293247223,-1.5899699370013636,-0.0,-0.0071177175268530846,0.7537400722503662,0.0,-0.0019277929095551372,0.76119065284729,0.0,0.017923206090927124
312.0,312.0,5.9067,0.4774,7.1665,-0.044,0.0231,-0.1147,-1.5814205608763636,0.0,2.1930975914001465,-1.3082953691482544,-0.0,2.166135311126709,3.7258102136799316,0.0,0.2843342423439026,-1.5899818579303187,-0.0,-0.012519249692559242,0.7536675930023193,0.0,-0.005514213815331459,0.7611544132232666,0.0,-0.019788620993494987
312.0,312.0,5.9067,0.4774,7.1665,-0.044,0.0231,-0.1147,-1.5814935169615687,0.0,2.181305408477783,-1.3082953691482544,-0.0,2.09818959236145,3.7258059221455078,0.0,0.26237908005714417,-1.5899861494647425,-0.0,-0.011484472081065178,0.7537482976913452,0.0,-0.001077113440260291,0.7611786127090454,0.0,0.017515327781438828
312.0,312.0,5.9067,0.4774,7.1665,-0.044,0.0231,-0.1147,-1.5814372501769007,0.0,2.144603729248047,-1.3082634210586548,-0.0,2.1153080463409424,3.7258540826984863,0.0,0.27325206995010376,-1.5899861494647425,-0.0,-0.014128552749752998,0.753723680973053,0.0,-0.0002928772009909153,0.761182427406311,0.0,0.01985357329249382
312.0,312.0,5.9067,0.4774,7.1665,-0.044,0.0231,-0.1147,-1.581428667108053,0.0,2.183633327484131,-1.3082953691482544,-0.0,2.1330726146698,3.7258946138569335,0.0,0.2639862596988678,-1.5899336973773401,-0.0,-0.014641452580690384,0.753715991973877,0.0,-0.0028171506710350513,0.7612427473068237,0.0,-0.02883095294237137
312.0,312.0,5.9067,0.4774,7.1665,-0.044,0.0231,-0.1147,-1.5814410648741664,0.0,2.2227113246917725,-1.3083035945892334,-0.0,2.128802537918091,3.7258264261433105,0.0,0.2749089002609253,-1.589978043233053,-0.0,-0.013209940865635872,0.7537683844566345,0.0,-0.003436445724219084,0.7612107396125793,0.0,0.001592117128893733
312.0,312.0,5.9067,0.4774,7.1665,-0.044,0.0231,-0.1147,-1.5813929043211878,0.0,2.1251072883605957,-1.3083077669143677,-0.0,2.1534152030944824,3.7258059221455078,0.0,0.2686457633972168,-1.5899656454669397,-0.0,-0.012653844431042671,0.7537040710449219,0.0,-0.021288041025400162,0.7612189054489136,0.0,0.002758817747235298
301.0,314.0,5.9922,0.5258,7.1803,-0.0325,0.0234,-0.121,-1.5814691982665003,0.0,2.1610493659973145,-1.308323860168457,-0.0,2.1592350006103516,3.725818319911621,0.0,0.26639851927757263,-1.5899580160724085,-0.0,-0.010849962942302227,0.7537036538124084,0.0,0.005958534311503172,0.7612066268920898,0.0,0.02994500659406185
301.0,314.0,5.9922,0.5258,7.1803,-0.0325,0.0234,-0.121,-1.5814734898009242,0.0,2.120251178741455,-1.3082231283187866,-0.0,2.1200950145721436,3.725818319911621,0.0,0.2784992754459381,-1.589937988911764,-0.0,-0.009958089329302311,0.7537323236465454,0.0,-0.007237101439386606,0.7611947655677795,0.0,-0.0002923109568655491
301.0,314.0,5.9922,0.5258,7.1803,-0.0325,0.0234,-0.121,-1.5814691982665003,0.0,2.1954257488250732,-1.3082711696624756,-0.0,2.107100009918213,3.725842161769531,0.0,0.2694464921951294,-1.5899861494647425,-0.0,0.0029684794135391712,0.7537281513214111,0.0,-0.014098947867751122,0.7611988186836243,0.0,-0.03336074575781822
301.0,314.0,5.9922,0.5258,7.1803,-0.0325,0.0234,-0.121,-1.581456800500387,0.0,2.125349998474121,-1.3082870244979858,-0.0,2.0869996547698975,3.725814028377197,0.0,0.2669067978858948,-1.5899537245379847,-0.0,-0.024889113381505013,0.7537482976913452,0.0,-0.005095171742141247,0.761182427406311,0.0,0.04008619114756584
301.0,314.0,5.9922,0.5258,7.1803,-0.0325,0.0234,-0.121,-1.581461092034811,0.0,2.1767232418060303,-1.3083077669143677,-0.0,2.108076333999634,3.725829764003418,0.0,0.27608004212379456,-1.5899537245379847,-0.0,-0.012105141766369343,0.7537601590156555,0.0,-0.011459103785455227,0.761182427406311,0.0,0.02337726578116417
301.0,314.0,5.9922,0.5258,7.1803,-0.0325,0.0234,-0.121,-1.5814372501769007,0.0,2.168875217437744,-1.3083035945892334,-0.0,2.1105942726135254,3.7258340555378417,0.0,0.2629319727420807,-1.589978043233053,-0.0,-0.01448890008032322,0.753756046295166,0.0,-0.001391004305332899,0.7611988186836243,0.0,0.016619063913822174
301.0,314.0,5.9922,0.5258,7.1803,-0.0325,0.0234,-0.121,-1.5814649067320765,0.0,2.2048916816711426,-1.3082711696624756,-0.0,2.147141456604004,3.7257820802875976,0.0,0.26154154539108276,-1.5899737516986292,-0.0,-0.023510485887527466,0.7536959052085876,0.0,0.0007786700734868646,0.7611544132232666,0.0,-0.012789424508810043
301.0,314.0,5.9922,0.5258,7.1803,-0.0325,0.0234,-0.121,-1.5814486942686976,0.0,2.1845614910125732,-1.3083404302597046,-0.0,2.1120707988739014,3.725869818324707,0.0,0.2679044008255005,-1.5900018850909632,-0.0,-0.007341086398810148,0.7537404894828796,0.0,-0.02177613228559494,0.7611748576164246,0.0,0.00301855499856174
301.0,314.0,5.9922,0.5258,7.1803,-0.0325,0.0234,-0.121,-1.5814734898009242,0.0,2.1863648891448975,-1.3083161115646362,-0.0,2.1158969402313232,3.725802107448242,0.0,0.2666429877281189,-1.5899255911456507,-0.0,-0.01539849303662777,0.7537199854850769,0.0,-0.0048807235434651375,0.7612107396125793,0.0,-0.05403853952884674
301.0,314.0,5.9922,0.5258,7.1803,-0.0325,0.0234,-0.121,-1.5814734898009242,0.0,2.141692876815796,-1.3083362579345703,-0.0,2.15283465385437,3.7258264261433105,0.0,0.2758640944957733,-1.5899742285357874,-0.0,-0.013525302521884441,0.7537519931793213,0.0,-0.0009574503637850285,0.7612025737762451,0.0,-0.027858980000019073
301.0,314.0,5.9922,0.5258,7.1803,-0.0325,0.0234,-0.121,-1.581456800500387,0.0,2.197357416152954,-1.3082634210586548,-0.0,2.1666908264160156,3.7258264261433105,0.0,0.2723541259765625,-1.5899537245379847,-0.0,-0.011901913210749626,0.7536717653274536,0.0,-0.008075248450040817,0.7612107992172241,0.0,0.0656455010175705
301.0,314.0,5.9922,0.5258,7.1803,-0.0325,0.0234,-0.121,-1.5814525089659632,0.0,2.15399169921875,-1.3082711696624756,-0.0,2.1213884353637695,3.7258378702351074,0.0,0.2671182453632355,-1.5899460951434534,-0.0,-0.003649664344266057,0.7537078261375427,0.0,-0.002000476699322462,0.7611585259437561,0.0,-0.013667934574186802
301.0,314.0,5.9922,0.5258,7.1803,-0.0325,0.0234,-0.121,-1.5814734898009242,0.0,2.183762550354004,-1.308311939239502,-0.0,2.144256591796875,3.7258264261433105,0.0,0.2786315679550171,-1.590006176625387,-0.0,-0.014112021774053574,0.7537037134170532,0.0,-0.009003456681966782,0.7611704468727112,0.0,0.004511074163019657
301.0,314.0,5.9922,0.5258,7.1803,-0.0325,0.0234,-0.121,-1.581456800500387,0.0,2.182873249053955,-1.3082958459854126,-0.0,2.148005485534668,3.7258340555378417,0.0,0.26676034927368164,-1.5899503866778772,-0.0,-0.002529110061004758,0.7536958456039429,0.0,-0.0003447507042437792,0.7611988186836243,0.0,0.001841285964474082
301.0,314.0,5.9922,0.5258,7.1803,-0.0325,0.0234,-0.121,-1.5814734898009242,0.0,2.1358907222747803,-1.3082597255706787,-0.0,2.1201894283294678,3.725830240840576,0.0,0.27690842747688293,-1.5899537245379847,-0.0,-0.005002113524824381,0.7537441253662109,0.0,-0.008775693364441395,0.7612148523330688,0.0,0.008582628332078457
305.0,315.0,5.9539,0.4893,7.0708,-0.0325,0.0275,-0.1132,-1.5814486942686976,0.0,2.174558639526367,-1.3082953691482544,-0.0,2.0978846549987793,3.725846453303955,0.0,0.27716341614723206,-1.5899460951434534,-0.0,-0.01632271520793438,0.7537000179290771,0.0,-0.017408519983291626,0.7612025737762451,0.0,-0.0004810476675629616
305.0,315.0,5.9539,0.4893,7.0708,-0.0325,0.0275,-0.1132,-1.5814734898009242,0.0,2.1812281608581543,-1.3082515001296997,-0.0,2.1524500846862793,3.7257858949848632,0.0,0.2621926963329315,-1.5899742285357874,-0.0,-0.01965392753481865,0.7537441253662109,0.0,-0.007316831964999437,0.7611423134803772,0.0,0.024486124515533447
305.0,315.0,5.9539,0.4893,7.0708,-0.0325,0.0275,-0.1132,-1.5814453564085902,0.0,2.217985153198242,-1.308320164680481,-0.0,2.142906665802002,3.72585837423291,0.0,0.2653997242450714,-1.5899699370013636,-0.0,-0.019143810495734215,0.7537441849708557,0.0,-0.013928301632404327,0.7611464858055115,0.0,-0.03153286129236221
305.0,315.0,5.9539,0.4893,7.0708,-0.0325,0.0275,-0.1132,-1.581404825250143,0.0,2.1912190914154053,-1.3082793951034546,-0.0,2.109617233276367,3.725778265590332,0.0,0.27278223633766174,-1.5899580160724085,-0.0,-0.019749727100133896,0.7537000179290771,0.0,-0.005693516694009304,0.7612307071685791,0.0,-0.012033388018608093
305.0,315.0,5.9539,0.4893,7.0708,-0.0325,0.0275,-0.1132,-1.581416746179098,0.0,2.1668121814727783,-1.3082916736602783,-0.0,2.1069750785827637,3.7258059221455078,0.0,0.2723969519138336,-1.5899861494647425,-0.0,-0.011264513246715069,0.7536996006965637,0.0,-0.009095008485019207,0.7611464858055115,0.0,-0.020320197567343712
305.0,315.0,5.9539,0.4893,7.0708,-0.0325,0.0275,-0.1132,-1.5814205608763636,0.0,2.1819167137145996,-1.3082958459854126,-0.0,2.1615307331085205,3.725802107448242,0.0,0.27727800607681274,-1.5899699370013636,-0.0,-0.017672313377261162,0.7536757588386536,0.0,-0.003148275427520275,0.7611943483352661,0.0,0.01745029166340828
305.0,315.0,5.9539,0.4893,7.0708,-0.0325,0.0275,-0.1132,-1.581428667108053,0.0,2.194861888885498,-1.3082911968231201,-0.0,2.1246695518493652,3.7257858949848632,0.0,0.2609917223453522,-1.589994255696432,-0.0,-0.016488319262862206,0.7537201046943665,0.0,-0.014367667958140373,0.7612352967262268,0.0,0.024740710854530334
305.0,315.0,5.9539,0.4893,7.0708,-0.0325,0.0275,-0.1132,-1.5814734898009242,0.0,2.172304153442383,-1.3083200454711914,-0.0,2.1024389266967773,3.725818319911621,0.0,0.2729538679122925,-1.589978043233053,-0.0,-0.008838187903165817,0.7536958456039429,0.0,-0.009525998495519161,0.7611626386642456,0.0,-0.03339771926403046
305.0,315.0,5.9539,0.4893,7.0708,-0.0325,0.0275,-0.1132,-1.581461092034811,0.0,2.162837028503418,-1.3082674741744995,-0.0,2.1089234352111816,3.725829764003418,0.0,0.2674517333507538,-1.5899937788592737,-0.0,-0.011162785813212395,0.7537803649902344,0.0,-0.016658063977956772,0.7611744999885559,0.0,0.03775019943714142
305.0,315.0,5.9539,0.4893,7.0708,-0.0325,0.0275,-0.1132,-1.5814410648741664,0.0,2.1579439640045166,-1.3083398342132568,-0.0,2.11271071434021,3.7258340555378417,0.0,0.27347052097320557,-1.5899580160724085,-0.0,-0.001738621387630701,0.7537482976913452,0.0,0.0003134834114462137,0.7611867785453796,0.0,-0.006472108419984579
305.0,315.0,5.9539,0.4893,7.0708,-0.0325,0.0275,-0.1132,-1.5814935169615687,0.0,2.163876533508301,-1.3082995414733887,-0.0,2.1624953746795654,3.725886030788086,0.0,0.2633429765701294,-1.5899699370013636,-0.0,-0.003217030316591263,0.7537842988967896,0.0,-0.002636266639456153,0.7611423134803772,0.0,0.01934889145195484
305.0,315.0,5.9539,0.4893,7.0708,-0.0325,0.0275,-0.1132,-1.5814734898009242,0.0,2.187859058380127,-1.3082953691482544,-0.0,2.103180170059204,3.7258502680012207,0.0,0.2739294767379761,-1.5899418036090296,-0.0,-0.0017149249324575067,0.7537441253662109,0.0,-0.00904426071792841,0.7611826658248901,0.0,-0.0013430998660624027
305.0,315.0,5.9539,0.4893,7.0708,-0.0325,0.0275,-0.1132,-1.5814453564085902,0.0,2.157362461090088,-1.308340311050415,-0.0,2.1226253509521484,3.725818319911621,0.0,0.27797555923461914,-1.5899623076068323,-0.0,-0.015351701527833939,0.7537118792533875,0.0,-0.002197172259911895,0.76119065284729,0.0,-0.004344245418906212
305.0,315.0,5.9539,0.4893,7.0708,-0.0325,0.0275,-0.1132,-1.5814649067320765,0.0,2.1645617485046387,-1.3083322048187256,-0.0,2.117884397506714,3.725845976466797,0.0,0.27232223749160767,-1.589966122304098,-0.0,-0.007435918785631657,0.7537240982055664,0.0,0.004984789993613958,0.7611587047576904,0.0,-0.0352851003408432
305.0,315.0,5.9539,0.4893,7.0708,-0.0325,0.0275,-0.1132,-1.5814372501769007,0.0,2.1791296005249023,-1.3082793951034546,-0.0,2.1204261779785156,3.7258378702351074,0.0,0.26427140831947327,-1.589978043233053,-0.0,-0.012404191307723522,0.7537200450897217,0.0,0.005166496615856886,0.7612107396125793,0.0,0.02306199260056019
305.0,315.0,5.9539,0.4893,7.0708,-0.0325,0.0275,-0.1132,-1.5814854107298792,0.0,2.177311420440674,-1.3082958459854126,-0.0,2.150465965270996,3.7258378702351074,0.0,0.27261853218078613,-1.5899537245379847,-0.0,-0.0036218867171555758,0.753715991973877,0.0,-0.0055408356711268425,0.7611585259437561,0.0,0.00034730625338852406
313.0,312.0,5.9725,0.5246,6.9835,-0.0374,0.0272,-0.1174,-1.581461092034811,0.0,2.1775598526000977,-1.3083077669143677,-0.0,2.097163677215576,3.7258340555378417,0.0,0.2709120512008667,-1.5899418036090296,-0.0,-0.016312777996063232,0.7537683844566345,0.0,-0.021752983331680298,0.7612066268920898,0.0,0.019701290875673294
313.0,312.0,5.9725,0.5246,6.9835,-0.0374,0.0272,-0.1174,-1.581461092034811,0.0,2.2109503746032715,-1.3082911968231201,-0.0,2.1193954944610596,3.725818319911621,0.0,0.26544567942619324,-1.5899656454669397,-0.0,-0.005749943666160107,0.7537240386009216,0.0,-0.010041696019470692,0.7612389922142029,0.0,0.019000772386789322
313.0,312.0,5.9725,0.5246,6.9835,-0.0374,0.0272,-0.1174,-1.5814372501769007,0.0,2.14920711517334,-1.3082998991012573,-0.0,2.1275839805603027,3.725842161769531,0.0,0.2771543264389038,-1.590006176625387,-0.0,-0.0268417838960886,0.7536958456039429,0.0,-0.004489968530833721,0.7612025737762451,0.0,-0.008699019439518452
313.0,312.0,5.9725,0.5246,6.9835,-0.0374,0.0272,-0.1174,-1.5814453564085902,0.0,2.197221517562866,-1.308311939239502,-0.0,2.1271812915802,3.7257701593586425,0.0,0.2687128782272339,-1.5899580160724085,-0.0,-0.006380810867995024,0.753715991973877,0.0,-0.008957083337008953,0.7611786127090454,0.0,0.012677128426730633
313.0,312.0,5.9725,0.5246,6.9835,-0.0374,0.0272,-0.1174,-1.5814854107298792,0.0,2.1865649223327637,-1.3082835674285889,-0.0,2.164219617843628,3.7258264261433105,0.0,0.2712891101837158,-1.5899580160724085,-0.0,-0.0012722131796181202,0.7537679672241211,0.0,-0.01222864631563425,0.7612066268920898,0.0,0.011965679004788399
313.0,312.0,5.9725,0.5246,6.9835,-0.0374,0.0272,-0.1174,-1.581449647943014,0.0,2.1550211906433105,-1.3082835674285889,-0.0,2.14439058303833,3.7257978159138183,0.0,0.26565366983413696,-1.5899866263019007,-0.0,-0.011995683424174786,0.753707766532898,0.0,0.004655788652598858,0.7611744999885559,0.0,0.014770621433854103
313.0,312.0,5.9725,0.5246,6.9835,-0.0374,0.0272,-0.1174,-1.581505914727682,0.0,2.174468517303467,-1.3082793951034546,-0.0,2.122358798980713,3.725790186519287,0.0,0.26251041889190674,-1.5899537245379847,-0.0,-0.008280276320874691,0.753715991973877,0.0,-0.0057601165026426315,0.761182427406311,0.0,0.010768611915409565
313.0,312.0,5.9725,0.5246,6.9835,-0.0374,0.0272,-0.1174,-1.581388612786764,0.0,2.175440549850464,-1.308247447013855,-0.0,2.1592113971710205,3.725853605861328,0.0,0.2754538357257843,-1.5900018850909632,-0.0,-0.01191916223615408,0.7537642121315002,0.0,-0.007769661024212837,0.7612471580505371,0.0,0.012185309082269669
313.0,312.0,5.9725,0.5246,6.9835,-0.0374,0.0272,-0.1174,-1.581432958642477,0.0,2.1718173027038574,-1.3082995414733887,-0.0,2.1675009727478027,3.725790186519287,0.0,0.2910955548286438,-1.590006176625387,-0.0,-0.00287329638376832,0.7537118792533875,0.0,-0.007218061946332455,0.7611783146858215,0.0,0.05296729505062103
313.0,312.0,5.9725,0.5246,6.9835,-0.0374,0.0272,-0.1174,-1.581456800500387,0.0,2.166360855102539,-1.3083440065383911,-0.0,2.0937283039093018,3.7258340555378417,0.0,0.26011183857917786,-1.5899418036090296,-0.0,-0.007635489106178284,0.7537078261375427,0.0,-0.001138015417382121,0.7612025737762451,0.0,0.012661146931350231
313.0,312.0,5.9725,0.5246,6.9835,-0.0374,0.0272,-0.1174,-1.5814453564085902,0.0,2.1799230575561523,-1.3083522319793701,-0.0,2.149446487426758,3.72585837423291,0.0,0.27614229917526245,-1.5899580160724085,-0.0,-0.018894441425800323,0.7537000179290771,0.0,0.007396643981337547,0.7611786127090454,0.0,-0.010191261768341064
313.0,312.0,5.9725,0.5246,6.9835,-0.0374,0.0272,-0.1174,-1.5814525089659632,0.0,2.161280393600464,-1.3082431554794312,-0.0,2.120147943496704,3.725830240840576,0.0,0.2694701850414276,-1.5900185743915003,-0.0,-0.003907713107764721,0.7536798715591431,0.0,-0.010563449934124947,0.7611704468727112,0.0,0.04544123634696007
313.0,312.0,5.9725,0.5246,6.9835,-0.0374,0.0272,-0.1174,-1.5814691982665003,0.0,2.1619441509246826,-1.3083605766296387,-0.0,2.136686325073242,3.7258145052143554,0.0,0.27774277329444885,-1.589978043233053,-0.0,-0.008344415575265884,0.753715991973877,0.0,-0.012599928304553032,0.7611464858055115,0.0,-0.0373963937163353
313.0,312.0,5.9725,0.5246,6.9835,-0.0374,0.0272,-0.1174,-1.5814773044981898,0.0,2.1803460121154785,-1.3083440065383911,-0.0,2.142284393310547,3.7258383470722656,0.0,0.2786100208759308,-1.589989964162008,-0.0,-0.015216207131743431,0.7537323236465454,0.0,0.003715876489877701,0.7612025737762451,0.0,0.0209632720798254
313.0,312.0,5.9725,0.5246,6.9835,-0.0374,0.0272,-0.1174,-1.5815092525877894,0.0,2.1831960678100586,-1.3083280324935913,-0.0,2.121077060699463,3.7258502680012207,0.0,0.2849641740322113,-1.589978043233053,-0.0,-0.004728699568659067,0.7537000179290771,0.0,0.001175131183117628,0.7611865997314453,0.0,-0.005324727855622768
314.0,292.0,5.8857,0.5204,7.2132,-0.0276,0.0284,-0.1168,-1.581461092034811,0.0,2.1990740299224854,-1.3082995414733887,-0.0,2.1705985069274902,3.725846453303955,0.0,0.2671915590763092,-1.5899418036090296,-0.0,-0.006344147492200136,0.7537363767623901,0.0,-0.0005263164639472961,0.7611626386642456,0.0,-0.04301898181438446
314.0,292.0,5.8857,0.5204,7.2132,-0.0276,0.0284,-0.1168,-1.5814410648741664,0.0,2.157327890396118,-1.3082793951034546,-0.0,2.1503562927246094,3.725842161769531,0.0,0.2755122184753418,-1.5899575392352503,-0.0,-0.020335111767053604,0.7537444829940796,0.0,-0.0014087691670283675,0.7611464858055115,0.0,0.011876298114657402
314.0,292.0,5.8857,0.5204,7.2132,-0.0276,0.0284,-0.1168,-1.581449647943014,0.0,2.160740375518799,-1.308311939239502,-0.0,2.136246681213379,3.7258502680012207,0.0,0.27421835064888,-1.5899656454669397,-0.0,-0.002235241001471877,0.7536917924880981,0.0,0.00041543104453012347,0.7611544728279114,0.0,0.02801581844687462
314.0,292.0,5.8857,0.5204,7.2132,-0.0276,0.0284,-0.1168,-1.5814525089659632,0.0,2.206387519836426,-1.3083077669143677,-0.0,2.1064934730529785,3.725845976466797,0.0,0.2867778241634369,-1.5899699370013636,-0.0,-0.004533147439360619,0.7537323236465454,0.0,-0.0015831243945285678,0.7612348198890686,0.0,0.03668691962957382
314.0,292.0,5.8857,0.5204,7.2132,-0.0276,0.0284,-0.1168,-1.5814205608763636,0.0,2.187692165374756,-1.3083481788635254,-0.0,2.119765520095825,3.7258660036274414,0.0,0.27621620893478394,-1.5899980703936976,-0.0,-0.014815429225564003,0.7537441253662109,0.0,0.0017081822734326124,0.7611626386642456,0.0,-0.005712315905839205
314.0,292.0,5.8857,0.5204,7.2132,-0.0276,0.0284,-0.1168,-1.5814291439452113,0.0,2.213209629058838,-1.3083404302597046,-0.0,2.1281702518463135,3.725845976466797,0.0,0.26938706636428833,-1.5899537245379847,-0.0,-0.01005924865603447,0.7537842392921448,0.0,-0.004477744456380606,0.7612066864967346,0.0,-0.04066826030611992
314.0,292.0,5.8857,0.5204,7.2132,-0.0276,0.0284,-0.1168,-1.5814453564085902,0.0,2.213513135910034,-1.3082953691482544,-0.0,2.0986320972442627,3.7258340555378417,0.0,0.26911771297454834,-1.5899580160724085,-0.0,-0.022988399490714073,0.7537281513214111,0.0,-0.004786555655300617,0.7612553834915161,0.0,0.0012683146633207798
314.0,292.0,5.8857,0.5204,7.2132,-0.0276,0.0284,-0.1168,-1.5814649067320765,0.0,2.1818528175354004,-1.3083035945892334,-0.0,2.093348503112793,3.7257420259663085,0.0,0.287943959236145,-1.5899699370013636,-0.0,-0.007484565023332834,0.753715991973877,0.0,-0.00681672990322113,0.7612026333808899,0.0,-0.007180317770689726
314.0,292.0,5.8857,0.5204,7.2132,-0.0276,0.0284,-0.1168,-1.581489702264303,0.0,2.1601924896240234,-1.3082876205444336,-0.0,2.116973876953125,3.725846453303955,0.0,0.2650975286960602,-1.5899656454669397,-0.0,-0.027437005192041397,0.7537281513214111,0.0,-0.0042697894386947155,0.7612066268920898,0.0,0.03809192404150963
314.0,292.0,5.8857,0.5204,7.2132,-0.0276,0.0284,-0.1168,-1.581428667108053,0.0,2.1668686866760254,-1.3083118200302124,-0.0,2.1250195503234863,3.725853605861328,0.0,0.28556028008461,-1.5899418036090296,-0.0,-0.007746647112071514,0.7536877989768982,0.0,0.008201627992093563,0.7611865997314453,0.0,-0.05656569078564644
314.0,292.0,5.8857,0.5204,7.2132,-0.0276,0.0284,-0.1168,-1.5814372501769007,0.0,2.1428771018981934,-1.3083481788635254,-0.0,2.120684862136841,3.725802107448242,0.0,0.2821204364299774,-1.5899742285357874,-0.0,-0.0005993419326841831,0.7537240982055664,0.0,-0.004075410310178995,0.7612066864967346,0.0,-0.02419396862387657
314.0,292.0,5.8857,0.5204,7.2132,-0.0276,0.0284,-0.1168,-1.5814892254271449,0.0,2.1449384689331055,-1.3082995414733887,-0.0,2.1340131759643555,3.7258221346088867,0.0,0.27367717027664185,-1.5899580160724085,-0.0,-0.0073568448424339294,0.7537200450897217,0.0,-0.003556621028110385,0.7611544728279114,0.0,0.04634089022874832
314.0,292.0,5.8857,0.5204,7.2132,-0.0276,0.0284,-0.1168,-1.5814649067320765,0.0,2.1922214031219482,-1.3082916736602783,-0.0,2.0914788246154785,3.7258340555378417,0.0,0.2668578028678894,-1.5899503866778772,-0.0,-0.01159658096730709,0.7537281513214111,0.0,-0.0077702440321445465,0.7611382603645325,0.0,0.01722111739218235
314.0,292.0,5.8857,0.5204,7.2132,-0.0276,0.0284,-0.1168,-1.5814205608763636,0.0,2.1484482288360596,-1.3082835674285889,-0.0,2.120851993560791,3.7258383470722656,0.0,0.27670884132385254,-1.5899418036090296,-0.0,-0.007298876531422138,0.7536917924880981,0.0,0.005637350492179394,0.7612189650535583,0.0,-0.026139836758375168
314.0,292.0,5.8857,0.5204,7.2132,-0.0276,0.0284,-0.1168,-1.5814935169615687,0.0,2.2196383476257324,-1.3082835674285889,-0.0,2.1121506690979004,3.7258340555378417,0.0,0.27126196026802063,-1.5900018850909632,-0.0,-0.009715182706713676,0.7537000179290771,0.0,-0.00836913287639618,0.7612148523330688,0.0,0.01245369203388691
314.0,292.0,5.8857,0.5204,7.2132,-0.0276,0.0284,-0.1168,-1.5814525089659632,0.0,2.1433844566345215,-1.3082835674285889,-0.0,2.1367580890655518,3.7258097368427734,0.0,0.26502418518066406,-1.5899418036090296,-0.0,-0.006230730563402176,0.7536958456039429,0.0,-0.009521625936031342,0.7612107992172241,0.0,0.007905525155365467
305.0,314.0,5.9934,0.545,7.017,-0.0377,0.0293,-0.1196,-1.5815135441222132,0.0,2.217104911804199,-1.3083440065383911,-0.0,2.108234405517578,3.725802107448242,0.0,0.2642742991447449,-1.5899537245379847,-0.0,-0.004909098148345947,0.753703773021698,0.0,0.00024940443108789623,0.7612066268920898,0.0,0.003182230517268181
305.0,314.0,5.9934,0.545,7.017,-0.0377,0.0293,-0.1196,-1.5814811191954554,0.0,2.1684064865112305,-1.3083161115646362,-0.0,2.086498737335205,3.7258660036274414,0.0,0.2697502672672272,-1.5899861494647425,-0.0,-0.0036247395910322666,0.753768265247345,0.0,-0.004884205758571625,0.7611585259437561,0.0,-0.0009150072000920773
305.0,314.0,5.9934,0.545,7.017,-0.0377,0.0293,-0.1196,-1.5814773044981898,0.0,2.148885488510132,-1.3082995414733887,-0.0,2.141352891921997,3.7258378702351074,0.0,0.27895084023475647,-1.5899818579303187,-0.0,-0.004165036138147116,0.7537761330604553,0.0,-0.019273480400443077,0.7612107396125793,0.0,-0.01887556165456772
305.0,314.0,5.9934,0.545,7.017,-0.0377,0.0293,-0.1196,-1.5814453564085902,0.0,2.208320140838623,-1.3082787990570068,-0.0,2.1109871864318848,3.725829764003418,0.0,0.26709988713264465,-1.5899823347674769,-0.0,-0.01954413205385208,0.7536958456039429,0.0,-0.004599044099450111,0.7612189054489136,0.0,0.025380779057741165
305.0,314.0,5.9934,0.545,7.017,-0.0377,0.0293,-0.1196,-1.5814773044981898,0.0,2.204967975616455,-1.3082876205444336,-0.0,2.13222074508667,3.7258264261433105,0.0,0.26333290338516235,-1.5899699370013636,-0.0,-0.013115808367729187,0.7537482976913452,0.0,-0.004215651657432318,0.7611666917800903,0.0,0.0349310077726841
305.0,314.0,5.9934,0.545,7.017,-0.0377,0.0293,-0.1196,-1.5814773044981898,0.0,2.1691925525665283,-1.3082634210586548,-0.0,2.1226694583892822,3.725870295161865,0.0,0.25637954473495483,-1.5899656454669397,-0.0,-0.00870983861386776,0.753707766532898,0.0,-0.006142030004411936,0.7612348794937134,0.0,-0.02336720936000347
305.0,314.0,5.9934,0.545,7.017,-0.0377,0.0293,-0.1196,-1.5814854107298792,0.0,2.1790597438812256,-1.308320164680481,-0.0,2.1340034008026123,3.7258340555378417,0.0,0.27001363039016724,-1.5899537245379847,-0.0,-0.005600061267614365,0.753672182559967,0.0,-0.0040133059956133366,0.761142373085022,0.0,0.00899207592010498
305.0,314.0,5.9934,0.545,7.017,-0.0377,0.0293,-0.1196,-1.581428667108053,0.0,2.1666488647460938,-1.3083078861236572,-0.0,2.12723445892334,3.7258540826984863,0.0,0.27320411801338196,-1.589937988911764,-0.0,-0.011399097740650177,0.7537200450897217,0.0,-0.015860561281442642,0.7611585259437561,0.0,0.025673456490039825
305.0,314.0,5.9934,0.545,7.017,-0.0377,0.0293,-0.1196,-1.5814649067320765,0.0,2.140521287918091,-1.3083440065383911,-0.0,2.091078281402588,3.725846453303955,0.0,0.2584719955921173,-1.5899537245379847,-0.0,-0.011109128594398499,0.7536959052085876,0.0,-0.015089762397110462,0.76119065284729,0.0,0.005598651245236397
305.0,314.0,5.9934,0.545,7.017,-0.0377,0.0293,-0.1196,-1.5814606151976527,0.0,2.1705703735351562,-1.3082793951034546,-0.0,2.1007533073425293,3.7258540826984863,0.0,0.2746471166610718,-1.5899623076068323,-0.0,-0.016426201909780502,0.7537281513214111,0.0,-0.004642447456717491,0.7612066268920898,0.0,0.0716504380106926
305.0,314.0,5.9934,0.545,7.017,-0.0377,0.0293,-0.1196,-1.5814486942686976,0.0,2.177521228790283,-1.3083035945892334,-0.0,2.0996809005737305,3.7257858949848632,0.0,0.2801710367202759,-1.589949909840719,-0.0,-0.0037726175505667925,0.753715991973877,0.0,0.0013925889506936073,0.761182427406311,0.0,-0.0398501418530941
305.0,314.0,5.9934,0.545,7.017,-0.0377,0.0293,-0.1196,-1.581456800500387,0.0,2.1702208518981934,-1.3083481788635254,-0.0,2.0885934829711914,3.725773974055908,0.0,0.281342476606369,-1.589978043233053,-0.0,-0.005782516673207283,0.7537360191345215,0.0,-0.008849197998642921,0.7611947655677795,0.0,0.0038229445926845074
305.0,314.0,5.9934,0.545,7.017,-0.0377,0.0293,-0.1196,-1.5814691982665003,0.0,2.170577049255371,-1.3082953691482544,-0.0,2.1319243907928467,3.7258502680012207,0.0,0.2827976644039154,-1.589989964162008,-0.0,-0.016969498246908188,0.7537240982055664,0.0,-0.005722651258111,0.7611464858055115,0.0,0.052508722990751266
305.0,314.0,5.9934,0.545,7.017,-0.0377,0.0293,-0.1196,-1.581432958642477,0.0,2.1738383769989014,-1.3082995414733887,-0.0,2.1492300033569336,3.725842161769531,0.0,0.26907819509506226,-1.5899460951434534,-0.0,-0.022402703762054443,0.7536718249320984,0.0,-0.009487591683864594,0.7611666917800903,0.0,-0.0029286984354257584
305.0,314.0,5.9934,0.545,7.017,-0.0377,0.0293,-0.1196,-1.5814205608763636,0.0,2.1319406032562256,-1.3082756996154785,-0.0,2.1294398307800293,3.7258340555378417,0.0,0.2801706790924072,-1.589949909840719,-0.0,-0.004620843566954136,0.7537482380867004,0.0,0.005264608189463615,0.7611988186836243,0.0,0.0163288451731205
305.0,314.0,5.9934,0.545,7.017,-0.0377,0.0293,-0.1196,-1.581461092034811,0.0,2.1775741577148438,-1.3083076477050781,-0.0,2.1313018798828125,3.725818319911621,0.0,0.27558133006095886,-1.5899460951434534,-0.0,-0.0032376537565141916,0.7537038326263428,0.0,-0.0038551324978470802,0.7611744999885559,0.0,-0.0003428335767239332
320.0,306.0,6.0766,0.6096,6.8495,-0.0383,0.0241,-0.1184,-1.581461092034811,0.0,2.1376609802246094,-1.3082995414733887,-0.0,2.127117872238159,3.7258378702351074,0.0,0.28219616413116455,-1.5899704138385218,-0.0,-0.013484850525856018,0.7537923455238342,0.0,0.0020284862257540226,0.7611783742904663,0.0,-0.016237597912549973
320.0,306.0,6.0766,0.6096,6.8495,-0.0383,0.0241,-0.1184,-1.5815092525877894,0.0,2.1491990089416504,-1.3082995414733887,-0.0,2.097778081893921,3.725846453303955,0.0,0.28117018938064575,-1.589949909840719,-0.0,-0.015556713566184044,0.7537240982055664,0.0,-0.015839669853448868,0.7612189054489136,0.0,-0.003936609718948603
320.0,306.0,6.0766,0.6096,6.8495,-0.0383,0.0241,-0.1184,-1.581461092034811,0.0,2.1990227699279785,-1.3082953691482544,-0.0,2.141761541366577,3.7258259493061523,0.0,0.27049827575683594,-1.5899537245379847,-0.0,-0.0032589156180620193,0.7536759376525879,0.0,-0.011525288224220276,0.7611383199691772,0.0,-0.013677671551704407
320.0,306.0,6.0766,0.6096,6.8495,-0.0383,0.0241,-0.1184,-1.5814653835692347,0.0,2.118135452270508,-1.308303713798523,-0.0,2.09867000579834,3.7258502680012207,0.0,0.27281156182289124,-1.5899012724505823,-0.0,-0.013028385117650032,0.7537441253662109,0.0,-0.019706612452864647,0.7611865997314453,0.0,-0.018358521163463593
320.0,306.0,6.0766,0.6096,6.8495,-0.0383,0.0241,-0.1184,-1.5814773044981898,0.0,2.1888880729675293,-1.308380365371704,-0.0,2.131816864013672,3.7258378702351074,0.0,0.27283626794815063,-1.5899537245379847,-0.0,0.00232298974879086,0.7537682056427002,0.0,-0.020947424694895744,0.7612066268920898,0.0,-0.03248368203639984
320.0,306.0,6.0766,0.6096,6.8495,-0.0383,0.0241,-0.1184,-1.5814815960326136,0.0,2.1739699840545654,-1.308311939239502,-0.0,2.1369643211364746,3.725802107448242,0.0,0.272847056388855,-1.58998948732485,-0.0,-0.006364151835441589,0.7537200450897217,0.0,-0.007142618764191866,0.7612189054489136,0.0,-0.021787745878100395
320.0,306.0,6.0766,0.6096,6.8495,-0.0383,0.0241,-0.1184,-1.5814773044981898,0.0,2.1707611083984375,-1.3083440065383911,-0.0,2.1207268238067627,3.725802107448242,0.0,0.28097206354141235,-1.5899742285357874,-0.0,-0.012439688667654991,0.753715991973877,0.0,0.005560323596000671,0.7612107396125793,0.0,0.002874515950679779
320.0,306.0,6.0766,0.6096,6.8495,-0.0383,0.0241,-0.1184,-1.581473012963766,0.0,2.151852607727051,-1.3082876205444336,-0.0,2.104912757873535,3.7258540826984863,0.0,0.28819596767425537,-1.5899742285357874,-0.0,-0.01308044046163559,0.753771960735321,0.0,-0.007701904512941837,0.7611662745475769,0.0,-0.009787175804376602
320.0,306.0,6.0766,0.6096,6.8495,-0.0383,0.0241,-0.1184,-1.5814205608763636,0.0,2.172734260559082,-1.3082876205444336,-0.0,2.135328531265259,3.725802107448242,0.0,0.27376747131347656,-1.5899255911456507,-0.0,-0.025251906365156174,0.7537679672241211,0.0,-0.027174998074769974,0.7611462473869324,0.0,-0.02122705616056919
320.0,306.0,6.0766,0.6096,6.8495,-0.0383,0.0241,-0.1184,-1.5814453564085902,0.0,2.1896188259124756,-1.308267593383789,-0.0,2.157371997833252,3.7257978159138183,0.0,0.2619059085845947,-1.5900266806231897,-0.0,-0.013154774904251099,0.7537121772766113,0.0,0.004963540472090244,0.7612147927284241,0.0,-0.00992867723107338
320.0,306.0,6.0766,0.6096,6.8495,-0.0383,0.0241,-0.1184,-1.581449647943014,0.0,2.180685043334961,-1.3083035945892334,-0.0,2.1546998023986816,3.7258779245563964,0.0,0.27962327003479004,-1.5899580160724085,-0.0,-0.0007454236038029194,0.7536959052085876,0.0,-0.0018683304078876972,0.7611826658248901,0.0,-0.006357687059789896
320.0,306.0,6.0766,0.6096,6.8495,-0.0383,0.0241,-0.1184,-1.5813929043211878,0.0,2.172084093093872,-1.3082550764083862,-0.0,2.108325481414795,3.725802107448242,0.0,0.27579668164253235,-1.5899336973773401,-0.0,-0.0014683983754366636,0.7537322640419006,0.0,0.001400183653458953,0.7611865997314453,0.0,-0.02496003732085228
320.0,306.0,6.0766,0.6096,6.8495,-0.0383,0.0241,-0.1184,-1.5814248524107875,0.0,2.15442156791687,-1.3082711696624756,-0.0,2.077437400817871,3.7257978159138183,0.0,0.2635572552680969,-1.5899861494647425,-0.0,-0.025227153673768044,0.7537000179290771,0.0,-0.01347203366458416,0.7611865997314453,0.0,-0.005185218527913094
320.0,306.0,6.0766,0.6096,6.8495,-0.0383,0.0241,-0.1184,-1.5814649067320765,0.0,2.1702218055725098,-1.3082395792007446,-0.0,2.1602344512939453,3.725773974055908,0.0,0.27776235342025757,-1.5899418036090296,-0.0,-0.008468281477689743,0.753756046295166,0.0,-0.003929428290575743,0.7611666917800903,0.0,-0.04464506357908249
320.0,306.0,6.0766,0.6096,6.8495,-0.0383,0.0241,-0.1184,-1.5814815960326136,0.0,2.1702756881713867,-1.3083035945892334,-0.0,2.0939230918884277,3.7258340555378417,0.0,0.26771920919418335,-1.5899980703936976,-0.0,-0.011041434481739998,0.7536959052085876,0.0,-0.008077586069703102,0.7611748576164246,0.0,-0.013704018667340279
304.0,310.0,5.9886,0.8076,7.0487,-0.0156,0.027,-0.1246,-1.5814367733397425,0.0,2.149953842163086,-1.3082835674285889,-0.0,2.1201584339141846,3.7258340555378417,0.0,0.27160927653312683,-1.5899580160724085,-0.0,-0.010246493853628635,0.7537683248519897,0.0,-0.00763551564887166,0.7611305117607117,0.0,0.0352105014026165
304.0,310.0,5.9886,0.8076,7.0487,-0.0156,0.027,-0.1246,-1.581456800500387,0.0,2.179905891418457,-1.3083322048187256,-0.0,2.1195003986358643,3.725818319911621,0.0,0.2739051580429077,-1.5899823347674769,-0.0,-0.015051442198455334,0.753715991973877,0.0,-0.005384960677474737,0.7611708045005798,0.0,0.03563898429274559
304.0,310.0,5.9886,0.8076,7.0487,-0.0156,0.027,-0.1246,-1.581404825250143,0.0,2.1904821395874023,-1.3082916736602783,1.9442852305928682e-07,2.108887195587158,3.725886507625244,6.666117258191662e-08,0.2634863257408142,-1.5899294058429163,-0.0,-0.014748010784387589,0.753703773021698,0.0,-0.0023915166966617107,0.7611988186836243,0.0,-0.017461296170949936
304.0,310.0,5.9886,0.8076,7.0487,-0.0156,0.027,-0.1246,-1.5813929043211878,0.0008785874233581126,2.2015113830566406,-1.3082916736602783,0.0016698373947292566,2.1680140495300293,3.725874109859131,0.0013384638587012887,0.27097082138061523,-1.5899418036090296,-0.0,-0.0003965534269809723,0.7536838054656982,0.0,0.003443586640059948,0.7611587047576904,0.0,-0.0011916793882846832
304.0,310.0,5.9886,0.8076,7.0487,-0.0156,0.027,-0.1246,-1.5813895664610804,0.0038460842333734035,2.1557483673095703,-1.308239459991455,0.001896942500025034,2.1218106746673584,3.7258779245563964,0.0012140331091359258,0.276525616645813,-1.5899699370013636,-0.0,-0.00211369339376688,0.7537519931793213,0.0,-0.00861305370926857,0.7611988186836243,0.0,0.029645130038261414
304.0,310.0,5.9886,0.8076,7.0487,-0.0156,0.027,-0.1246,-1.581308504144186,0.0060843899846076965,2.1669907569885254,-1.308231234550476,0.0009018637356348336,2.1464972496032715,3.725893660182617,0.0005304351798258722,0.2767121493816376,-1.5899742285357874,-0.0,-0.009343399666249752,0.7537118792533875,0.0,-0.00996908638626337,0.7611345648765564,0.0,0.012424051761627197
304.0,310.0,5.9886,0.8076,7.0487,-0.0156,0.027,-0.1246,-1.5812894306578578,0.007142022717744112,2.1712145805358887,-1.3082637786865234,0.0005629308288916945,2.104299306869507,3.7258779245563964,0.0002445628633722663,0.2696835696697235,-1.5899212996112269,-0.0,-0.009068094193935394,0.7536956071853638,0.0,-0.009006636217236519,0.7611505389213562,0.0,-0.001252646092325449
304.0,310.0,5.9886,0.8076,7.0487,-0.0156,0.027,-0.1246,-1.581245561639303,0.006552452687174082,2.18068528175354,-1.3081949949264526,0.00045021489495411515,2.1343533992767334,3.725942297572754,0.00019219152454752475,0.27069658041000366,-1.5899742285357874,-0.0,-0.015277414582669735,0.7536840438842773,0.0,-0.005023101344704628,0.7611263990402222,0.0,0.0008813815657049417
304.0,310.0,5.9886,0.8076,7.0487,-0.0156,0.027,-0.1246,-1.5812293491759242,0.004470746498554945,2.238037109375,-1.3082354068756104,0.00034624963882379234,2.157508373260498,3.7259136873432617,0.00014551875938195735,0.2727815806865692,-1.5899656454669397,-0.0,-0.008930517360568047,0.7536841034889221,0.0,-0.004606029484421015,0.7611505389213562,0.0,0.021213283762335777
304.0,310.0,5.9886,0.8076,7.0487,-0.0156,0.027,-0.1246,-1.5811969242491664,0.0026222234591841698,2.2134506702423096,-1.3082998991012573,0.00022736766550224274,2.07328462600708,3.7259060579487304,6.649868009844795e-05,0.27197372913360596,-1.5899623076068323,-0.0,-0.016857001930475235,0.7537240982055664,0.0,-0.007014717906713486,0.7611984014511108,0.0,-0.0006958607118576765
304.0,310.0,5.9886,0.8076,7.0487,-0.0156,0.027,-0.1246,-1.5812050304808558,0.0011967570753768086,2.1741702556610107,-1.3083076477050781,-9.841615974437445e-05,2.0882644653320312,3.7258946138569335,6.5979588725895155e-06,0.2759893536567688,-1.5899861494647425,-0.0,-0.016709771007299423,0.7537363171577454,0.0,-0.0002458867966197431,0.7611666917800903,-3.4307162422919646e-05,-0.013175837695598602
304.0,310.0,5.9886,0.8076,7.0487,-0.0156,0.027,-0.1246,-1.5812131367125453,4.5604450860992074e-05,2.17887544631958,-1.3082473278045654,-0.0001381003821734339,2.143514394760132,3.725814028377197,1.8365661214048146e-09,0.26785919070243835,-1.589937988911764,-0.0,-0.010108382441103458,0.7537602782249451,0.0,-0.0027937868144363165,0.7611464858055115,-5.201703970669769e-05,0.02459098957479
304.0,310.0,5.9886,0.8076,7.0487,-0.0156,0.027,-0.1246,-1.581216951409811,1.1012938477827916e-10,2.155484676361084,-1.3083117008209229,-0.00014590549108106643,2.092489004135132,3.7258779245563964,5.112149852742887e-13,0.2758565843105316,-1.5899212996112269,-0.0,-0.006374840624630451,0.7537721991539001,0.0,-0.006943168118596077,0.7611865997314453,0.0001370539393974468,0.007430406287312508
304.0,310.0,5.9886,0.8076,7.0487,-0.0156,0.027,-0.1246,-1.5812527141966761,-0.0017720555188134313,2.1563491821289062,-1.308231234550476,-0.0005115123931318521,2.1212947368621826,3.725802107448242,1.4229857052340707e-16,0.2806050181388855,-1.5899580160724085,-0.0,-0.01829739473760128,0.7537522912025452,0.0,-0.010414212942123413,0.7611947655677795,6.399771024234724e-08,0.026384826749563217
304.0,310.0,5.9886,0.8076,7.0487,-0.0156,0.027,-0.1246,-1.5812694034972132,-0.002381182974204421,2.173229217529297,-1.3083035945892334,-0.0006057752179913223,2.104647636413574,3.7258102136799316,6.066411814529545e-19,0.2744068205356598,-1.589949909840719,-0.0,-0.008169549517333508,0.7537641525268555,0.0,-0.007365079130977392,0.7611464858055115,1.1519361853284948e-11,-0.03275745362043381
304.0,310.0,5.9886,0.8076,7.0487,-0.0156,0.027,-0.1246,-1.581313272515768,-0.002367418957874179,2.1535897254943848,-1.3083398342132568,-0.000952051836065948,2.117511034011841,3.7258378702351074,1.6886081382477238e-22,0.26887381076812744,-1.5899623076068323,-0.0,-0.00914904847741127,0.7537519931793213,0.0,-0.005686743184924126,0.7611505389213562,2.781790532914601e-17,-0.004773446824401617
313.0,305.0,5.01,0.2674,7.2072,-0.0292,0.0582,-0.1185,-1.581313272515768,-0.002006689552217722,2.194614887237549,-1.308364748954773,-0.0007262603030540049,2.1324288845062256,3.725846453303955,4.7003032116477937e-26,0.28953486680984497,-1.5899537245379847,-0.0,-0.01876462623476982,0.7536841034889221,0.0,0.0032645491883158684,0.7611427307128906,6.717697130792053e-23,-0.0067170290276408195
313.0,305.0,5.01,0.2674,7.2072,-0.0292,0.0582,-0.1185,-1.581337114373678,-0.0016361004672944546,2.172020673751831,-1.3083322048187256,-0.0005395653424784541,2.102267265319824,3.7258340555378417,1.308346803945442e-29,0.26271069049835205,-1.5899336973773401,-0.0,-0.008523884229362011,0.7537201046943665,0.0,-0.0016052868450060487,0.7611143589019775,1.6222447366726386e-28,0.0051451195031404495
313.0,305.0,5.01,0.2674,7.2072,-0.0292,0.0582,-0.1185,-1.5813290081419886,-0.0013680511619895697,2.172922372817993,-1.308327555656433,-0.0004904612433165312,2.122903823852539,3.725738211269043,-0.0002863659174181521,0.2850887179374695,-1.5899503866778772,-0.0,-0.01888388954102993,0.7536959052085876,0.0,0.004311054013669491,0.7611345648765564,3.91753053372209e-34,0.017193768173456192
313.0,305.0,5.01,0.2674,7.2072,-0.0292,0.0582,-0.1185,-1.581365247766012,-0.001320094452239573,2.1961922645568848,-1.308327555656433,-0.0004324541368987411,2.1101231575012207,3.7258025842854003,-0.0002944587031379342,0.273960143327713,-1.5899418036090296,-0.0,-0.008380768820643425,0.7537118792533875,0.0,-0.0063902847468853,0.7611427307128906,9.460376127426489e-40,0.01136220432817936
313.0,305.0,5.01,0.2674,7.2072,-0.0292,0.0582,-0.1185,-1.5814172230162562,-0.002234997693449259,2.122781753540039,-1.3083596229553223,-0.0013165888376533985,2.088590383529663,3.725842161769531,-0.0002925371518358588,0.2724132835865021,-1.5899260679828089,-0.0,-0.0063756778836250305,0.7536877989768982,0.0,0.008345508016645908,0.7611468434333801,-0.0003177557955496013,0.014786533080041409
313.0,305.0,5.01,0.2674,7.2072,-0.0292,0.0582,-0.1185,-1.5814410648741664,-0.0032591635826975107,2.126939535140991,-1.308327555656433,-0.001804996281862259,2.1123814582824707,3.7257820802875976,-0.0002889485622290522,0.26796457171440125,-1.5899174849139612,-0.0,-0.008385172113776207,0.7536478042602539,0.0,-0.007711512036621571,0.7611184120178223,-0.00034278538078069687,0.023999514058232307
313.0,305.0,5.01,0.2674,7.2072,-0.0292,0.0582,-0.1185,-1.5814773044981898,-0.006325926631689072,2.193737506866455,-1.3084279298782349,-0.00418104650452733,2.142324686050415,3.7258025842854003,-0.0002734885783866048,0.28158247470855713,-1.5899260679828089,-0.0,-0.014789573848247528,0.7536519169807434,0.0,0.00353226438164711,0.7611386775970459,-0.000279021798633039,-0.026433192193508148
313.0,305.0,5.01,0.2674,7.2072,-0.0292,0.0582,-0.1185,-1.58152498821401,-0.01104474812746048,2.166315793991089,-1.30840003490448,-0.007258355151861906,2.1139349937438965,3.7257582384296875,-0.0002986265462823212,0.2703869044780731,-1.5899542013751429,-3.6169727213319902e-09,-0.007386474404484034,0.7537240982055664,0.0,-0.004330579657107592,0.761142373085022,-0.0002352548181079328,-0.01789374276995659
313.0,305.0,5.01,0.2674,7.2072,-0.0292,0.0582,-0.1185,-1.5816174946227015,-0.012924978509545326,2.1348819732666016,-1.3085081577301025,-0.009568687528371811,2.106015205383301,3.725722475642822,-0.0002993044618051499,0.27279916405677795,-1.589966122304098,-1.0067976183650296e-12,0.004439810290932655,0.7537441253662109,0.0,-0.0015000547282397747,0.7611427307128906,-0.00020335747103672475,-0.01686740480363369
313.0,305.0,5.01,0.2674,7.2072,-0.0292,0.0582,-0.1185,-1.5817371807494105,-0.013675142079591751,2.17094087600708,-1.3085559606552124,-0.009452209807932377,2.0671873092651367,3.7257906633564453,-0.00025666566216386855,0.2662324607372284,-1.5899623076068323,-2.802458269176504e-16,-0.021581802517175674,0.7536681294441223,0.0,-0.01447606086730957,0.7611225247383118,-0.00017907847359310836,-0.048830918967723846
313.0,305.0,5.01,0.2674,7.2072,-0.0292,0.0582,-0.1185,-1.5818330250182093,-0.014308908954262733,2.208665132522583,-1.3086321353912354,-0.009635488502681255,2.1327600479125977,3.725802107448242,-0.0002620202430989593,0.2761991620063782,-1.589937988911764,7.441692287102342e-05,-0.011624384671449661,0.7537400722503662,0.0,-0.007354220375418663,0.761150598526001,-0.0001292783854296431,-0.0826699510216713
313.0,305.0,5.01,0.2674,7.2072,-0.0292,0.0582,-0.1185,-1.5819531879820765,-0.01589292474091053,2.1137194633483887,-1.3086724281311035,-0.00855484139174223,2.0558576583862305,3.7258145052143554,-0.00023298599990084767,0.27104100584983826,-1.5899623076068323,6.327868322841823e-05,-0.015979724004864693,0.7536959052085876,0.0,-0.016950104385614395,0.7611587047576904,-8.673797856317833e-05,0.0019218885572627187
313.0,305.0,5.01,0.2674,7.2072,-0.0292,0.0582,-0.1185,-1.5820328197874964,-0.01715940050780773,2.132399082183838,-1.3087645769119263,-0.007749487645924091,2.1203644275665283,3.7257706361958007,-0.00021693842427339405,0.28451162576675415,-1.5899460951434534,5.547456021304242e-05,0.003917790949344635,0.7537040710449219,0.0,-0.00020524859428405762,0.7611947059631348,-8.15529128885828e-05,0.04355330765247345
313.0,305.0,5.01,0.2674,7.2072,-0.0292,0.0582,-0.1185,-1.5821167431273402,-0.02006455883383751,2.130232810974121,-1.3087687492370605,-0.005921310745179653,2.0984320640563965,3.725766821498535,-0.00022374818217940629,0.27621591091156006,-1.5899418036090296,5.8623033538651725e-08,-0.012812917120754719,0.7537119388580322,0.0,-0.014596361666917801,0.7611704468727112,0.00010649356408976018,0.02220592275261879
313.0,305.0,5.01,0.2674,7.2072,-0.0292,0.0582,-0.1185,-1.5822683773436488,-0.02204996719956398,2.153738498687744,-1.3088246583938599,-0.0041788117960095406,2.1342971324920654,3.7257906633564453,-0.00020547222811728716,0.2761845886707306,-1.5899418036090296,1.6317940054744184e-11,-0.004768866114318371,0.7536921501159668,0.0,-0.010411685332655907,0.7611828446388245,0.0001478349295211956,-0.019693592563271523
313.0,305.0,5.01,0.2674,7.2072,-0.0292,0.0582,-0.1185,-1.582360406915182,-0.02176584117114544,2.1459462642669678,-1.3087843656539917,-0.0016336821718141437,2.1402292251586914,3.725766821498535,-0.00018926759366877377,0.29441720247268677,-1.5899136702166956,4.5421586989931404e-15,-0.010516030713915825,0.7536799907684326,0.0,-0.00033452187199145555,0.76119065284729,0.0005037186201661825,-0.007905660197138786
304.0,309.0,5.589,-0.0323,6.8883,-0.0446,-0.0006,-0.1112,-1.582468648950094,-0.02017841674387455,2.109584093093872,-1.3087718486785889,-0.0006238945061340928,2.116806983947754,3.725738211269043,-0.0001754317054292187,0.2895033657550812,-1.5899580160724085,1.2643267479283672e-18,-0.0011442762333899736,0.753715991973877,0.0,-0.015373168513178825,0.7612587809562683,0.0005290405242703855,-0.053286030888557434
304.0,309.0,5.589,-0.0323,6.8883,-0.0446,-0.0006,-0.1112,-1.582639833489889,-0.018068991601467133,2.1526737213134766,-1.3088328838348389,-0.00041032303124666214,2.0753090381622314,3.725766821498535,-0.00016348152712453157,0.26198679208755493,-1.5899136702166956,3.5193003491630834e-22,-0.00863987673074007,0.7537000775337219,0.0,-0.012004457414150238,0.7612386345863342,0.0006295391940511763,0.02390429563820362
304.0,309.0,5.589,-0.0323,6.8883,-0.0446,-0.0006,-0.1112,-1.5827809772887171,-0.01516477670520544,2.102325677871704,-1.3088164329528809,-0.0003057319263461977,2.130321502685547,3.725754423732422,-0.00015305556007660925,0.2900036573410034,-1.5899017492877405,9.796101221830559e-26,-0.014090062119066715,0.7536961436271667,0.0,-0.008963553234934807,0.7612506151199341,0.0006222052033990622,0.02351342886686325
304.0,309.0,5.589,-0.0323,6.8883,-0.0446,-0.0006,-0.1112,-1.5827881298460902,-0.014301300048828125,2.1930606365203857,-1.3088204860687256,-0.0002618124126456678,2.0980498790740967,3.7257463175007324,-0.000146813370520249,0.28691616654396057,-1.5899255911456507,4.176231750762975e-28,-0.0043233176693320274,0.7536961436271667,0.0,-0.016008848324418068,0.7612065672874451,0.0005937538226135075,0.00809960626065731
304.0,309.0,5.589,-0.0323,6.8883,-0.0446,-0.0006,-0.1112,-1.5828472576537074,-0.01480825338512659,2.1915740966796875,-1.3088123798370361,-0.00015871528012212366,2.1483583450317383,3.725710554713867,-0.00013352454698178917,0.2760923504829407,-1.5899704138385218,1.1624696383163064e-31,-0.021992510184645653,0.7536959052085876,0.0,0.004072524607181549,0.7612307071685791,0.0004762121243402362,0.03145606815814972
304.0,309.0,5.589,-0.0323,6.8883,-0.0446,-0.0006,-0.1112,-1.5830160580077113,-0.017104988917708397,2.1777639389038086,-1.3088483810424805,-0.0010420751059427857,2.10027813911438,3.725766821498535,-0.00016972886805888265,0.28332293033599854,-1.5899136702166956,3.235776928420965e-35,-0.006808298174291849,0.7537280321121216,0.0,-0.006224189884960651,0.7612106800079346,0.0003757464583031833,-0.021545693278312683
304.0,309.0,5.589,-0.0323,6.8883,-0.0446,-0.0006,-0.1112,-1.5830675564207972,-0.020020799711346626,2.1239013671875,-1.3088206052780151,-0.0026638295967131853,2.123842716217041,3.7257467943378906,-0.0005468942690640688,0.27231281995773315,-1.5899336973773401,9.006903332684799e-39,-0.007981435395777225,0.7536880970001221,0.0,-0.005453890655189753,0.7612189054489136,0.00030045671155676246,-0.033556241542100906
304.0,309.0,5.589,-0.0323,6.8883,-0.0446,-0.0006,-0.1112,-1.5832239590086878,-0.02278352901339531,2.1005401611328125,-1.3088563680648804,-0.004162572789937258,2.1285552978515625,3.7257587152668457,-0.00048579886788502336,0.27344149351119995,-1.5899418036090296,2.5069229526770977e-42,-0.013944197446107864,0.7537121176719666,0.0,0.0016029824037104845,0.7612465023994446,0.0002503099967725575,-0.02443138137459755
304.0,309.0,5.589,-0.0323,6.8883,-0.0446,-0.0006,-0.1112,-1.5833879909911097,-0.023351145908236504,2.07973575592041,-1.3088926076889038,-0.006025055889040232,2.1072568893432617,3.7257305818745117,-0.00044591710320673883,0.28113511204719543,-1.5899336973773401,1.401298464324817e-45,0.0011462593683972955,0.7536961436271667,0.0,-0.009975796565413475,0.7612225413322449,0.00021451027714647353,-0.032040342688560486
304.0,309.0,5.589,-0.0323,6.8883,-0.0446,-0.0006,-0.1112,-1.583470960656637,-0.02414551191031933,2.136265277862549,-1.3090100288391113,-0.006488038692623377,2.094688892364502,3.7257587152668457,-0.0004287656338419765,0.26638901233673096,-1.5899294058429163,0.0,-0.0030221431516110897,0.7537120580673218,0.0,-0.012475181370973587,0.7612225413322449,0.00018766976427286863,0.004024331457912922
304.0,309.0,5.589,-0.0323,6.8883,-0.0446,-0.0006,-0.1112,-1.5836154423155726,-0.02470308728516102,2.104501724243164,-1.3090131282806396,-0.0074850162491202354,2.11944317817688,3.7256948190876464,-0.0004315547412261367,0.2646109163761139,-1.5899418036090296,0.0,-0.015100996941328049,0.7537321448326111,0.0,-0.015732308849692345,0.7612189054489136,0.0001426679955329746,-0.03229255974292755
304.0,309.0,5.589,-0.0323,6.8883,-0.0446,-0.0006,-0.1112,-1.5838033161559046,-0.02623680979013443,2.0827524662017822,-1.3090007305145264,-0.009457332082092762,2.048837900161743,3.7256380754658203,-0.0004605282738339156,0.2702600061893463,-1.5899542013751429,0.0,-0.0028183606918901205,0.7536962032318115,0.0,-0.008026016876101494,0.7612509727478027,0.00012423013686202466,-0.027878601104021072
304.0,309.0,5.589,-0.0323,6.8883,-0.0446,-0.0006,-0.1112,-1.5839630566039027,-0.029493005946278572,2.0524001121520996,-1.309113621711731,-0.009369952604174614,2.0631930828094482,3.725674791927002,-0.0005356893525458872,0.26117661595344543,-1.589921776448385,0.0,-0.017416559159755707,0.7537081241607666,0.0,-0.008671400137245655,0.7612348198890686,-8.299727051053196e-05,-0.08605992048978806
304.0,309.0,5.589,-0.0323,6.8883,-0.0446,-0.0006,-0.1112,-1.5841027698912562,-0.03338558226823807,2.0601930618286133,-1.3091332912445068,-0.008325436152517796,2.0627307891845703,3.725715323085449,-0.0008183281170204282,0.25801539421081543,-1.5899298826800745,0.0,0.00469064898788929,0.7536802291870117,0.0,-0.022513870149850845,0.7612389922142029,-0.00017117081733886153,-0.10322009027004242
304.0,309.0,5.589,-0.0323,6.8883,-0.0446,-0.0006,-0.1112,-1.5843154392638148,-0.03789461776614189,1.985978603363037,-1.3092255592346191,-0.010602596215903759,2.0345170497894287,3.7256991106220703,-0.0013642224948853254,0.2665097117424011,-1.5899542013751429,0.0,0.014918547123670578,0.7536601424217224,0.0,-0.018733128905296326,0.7612307071685791,-0.0006245570257306099,-0.0770256295800209
319.0,307.0,6.1968,0.548,6.7394,-0.0686,-0.0105,-0.1264,-1.5845300159850062,-0.04489145800471306,1.993520736694336,-1.309289813041687,-0.010919132269918919,1.9798344373703003,3.7256952959248046,-0.0008884106064215302,0.2659616470336914,-1.589893643056051,0.0,0.008088566362857819,0.7536802291870117,0.0,-0.012232154607772827,0.7612189054489136,-0.0005296047311276197,-0.08336621522903442
319.0,307.0,6.1968,0.548,6.7394,-0.0686,-0.0105,-0.1264,-1.5847941837706507,-0.04832092300057411,1.9231650829315186,-1.3093254566192627,-0.007644594181329012,2.069502830505371,3.7256623941608886,-0.0006665515247732401,0.2572098672389984,-1.5899179617511194,0.00012524121848400682,0.026216235011816025,0.7537040710449219,0.0,-0.020198922604322433,0.7611626386642456,-0.00047735340194776654,-0.14925332367420197
319.0,307.0,6.1968,0.548,6.7394,-0.0686,-0.0105,-0.1264,-1.5850182972350062,-0.051950663328170776,1.9913082122802734,-1.3093581199645996,-0.005672837607562542,2.0404791831970215,3.725691004390381,-0.0005679964669980109,0.24701698124408722,-1.5899260679828089,0.000130616215756163,0.022059312090277672,0.7536841034889221,0.0,-0.023769449442625046,0.7611905932426453,-0.00047345718485303223,-0.053519945591688156
319.0,307.0,6.1968,0.548,6.7394,-0.0686,-0.0105,-0.1264,-1.5853177509703578,-0.05806063488125801,1.9365177154541016,-1.3093942403793335,-0.002680291421711445,1.9844658374786377,3.7256790834614257,-0.0005108384066261351,0.26210010051727295,-1.58990985551943,0.00012020152644254267,0.025260992348194122,0.753663957118988,0.0,-0.012375883758068085,0.7611662745475769,-0.0003581350902095437,-0.14046061038970947
319.0,307.0,6.1968,0.548,6.7394,-0.0686,-0.0105,-0.1264,-1.585682054559225,-0.06250373274087906,1.9767177104949951,-1.3093249797821045,-0.0011944477446377277,1.9833815097808838,3.7257348734089355,-0.0004212025669403374,0.2451443076133728,-1.5899174849139612,0.00013278197729960084,0.010202515870332718,0.7537001967430115,-1.526655614725314e-05,-0.007692153565585613,0.7611464858055115,-0.0002881709369830787,-0.16159413754940033
319.0,307.0,6.1968,0.548,6.7394,-0.0686,-0.0105,-0.1264,-1.5860897503294886,-0.06758217513561249,1.9556701183319092,-1.30936598777771,-0.000257853971561417,2.048434257507324,3.7256709772297363,-0.00035829778062179685,0.24702760577201843,-1.5899179617511194,0.00012431642971932888,0.019279632717370987,0.753716230392456,-0.00012621544010471553,-0.02463351935148239,0.7612025737762451,-0.00029004213865846395,-0.18584278225898743
319.0,307.0,6.1968,0.548,6.7394,-0.0686,-0.0105,-0.1264,-1.586513181725973,-0.07122747600078583,1.9498157501220703,-1.3093290328979492,-0.0001764723565429449,2.022329330444336,3.7257186609455566,-0.0003117443120572716,0.24489924311637878,-1.5899260679828089,0.00011628504580585286,0.01814095489680767,0.753628134727478,-0.00013817634317092597,-0.014500126242637634,0.7611704468727112,-0.0002498100802768022,-0.11024993658065796
319.0,307.0,6.1968,0.548,6.7394,-0.0686,-0.0105,-0.1264,-1.5869609318175257,-0.07365985214710236,1.946598768234253,-1.3093500137329102,-0.00020440998196136206,2.053680419921875,3.7257067400166015,-0.0002758997434284538,0.25471436977386475,-1.5899460951434534,0.00012621995119843632,0.02627944014966488,0.7537083029747009,-0.00015054619871079922,-0.02594195306301117,0.7611905932426453,-0.00021936393750365824,-0.08448381721973419
319.0,307.0,6.1968,0.548,6.7394,-0.0686,-0.0105,-0.1264,-1.5874368153014125,-0.07451579719781876,1.9242753982543945,-1.3093376159667969,-0.00016664971190039068,2.0079729557037354,3.725698633784912,-0.000247448799200356,0.24676088988780975,-1.5898779074298304,0.00012014196545351297,0.01644761860370636,0.7536361217498779,-0.00016125180991366506,-0.03751625120639801,0.7611626386642456,-0.0002281217894051224,-0.0774931013584137
319.0,307.0,6.1968,0.548,6.7394,-0.0686,-0.0105,-0.1264,-1.5877686939635218,-0.07440860569477081,1.9350602626800537,-1.3093814849853516,-0.00014833534078206867,1.9895893335342407,3.7256790834614257,-0.00023153284564614296,0.25562089681625366,-1.5898616949664515,0.00011572828952921554,0.026410048827528954,0.7536921501159668,-0.000298438681056723,-0.023562733083963394,0.7611626386642456,-0.00021271654986776412,-0.13304436206817627
319.0,307.0,6.1968,0.548,6.7394,-0.0686,-0.0105,-0.1264,-1.5882321796812953,-0.07210014015436172,1.9690256118774414,-1.3093613386154175,-0.00016972208686638623,2.0194015502929688,3.7256623941608886,-0.00021115978597663343,0.2506469786167145,-1.589897934590475,0.00010968366404995322,0.031552571803331375,0.7537044882774353,-0.00031721562845632434,-0.025502720847725868,0.76119065284729,-0.0001931511942530051,-0.1436004340648651
319.0,307.0,6.1968,0.548,6.7394,-0.0686,-0.0105,-0.1264,-1.5887114010252894,-0.07204890996217728,1.976404070854187,-1.30940580368042,-0.00024888612097129226,2.0373282432556152,3.725658579463623,-0.00013457833847496659,0.254211962223053,-1.5898616949664515,0.00010423910134704784,0.016196954995393753,0.7536439895629883,-0.0003150250413455069,-0.044837646186351776,0.7612107396125793,-0.0001768820220604539,-0.11169528216123581
319.0,307.0,6.1968,0.548,6.7394,-0.0686,-0.0105,-0.1264,-1.5891710720457972,-0.07576930522918701,1.9343929290771484,-1.3094741106033325,-0.004043954890221357,2.0537192821502686,3.7256428438374023,-0.00016151471936609596,0.24342840909957886,-1.5899179617511194,9.930967644322664e-05,0.024705087766051292,0.7536040544509888,-0.0003120459441561252,-0.026619575917720795,0.7612069845199585,-0.00016314067761413753,-0.12044289708137512
319.0,307.0,6.1968,0.548,6.7394,-0.0686,-0.0105,-0.1264,-1.5896669826903285,-0.08434139937162399,1.9611830711364746,-1.3094741106033325,-0.006574878469109535,2.0203588008880615,3.7256623941608886,-0.0006469137733802199,0.24714067578315735,-1.58990985551943,0.00010831224062712863,0.004944132175296545,0.7536644339561462,-0.0002773866872303188,-0.03611770272254944,0.7611263990402222,-0.00015138050366658717,-0.1352803260087967
319.0,307.0,6.1968,0.548,6.7394,-0.0686,-0.0105,-0.1264,-1.5901900730528773,-0.09576661884784698,1.9163191318511963,-1.3095186948776245,-0.007248519454151392,2.0180797576904297,3.7256790834614257,-0.00105375109706074,0.24529387056827545,-1.5898736158954065,0.00010368959192419425,0.023544667288661003,0.7536242008209229,-0.00028999391361139715,-0.043216489255428314,0.7611503601074219,-0.00014120175910647959,-0.10319115966558456
319.0,307.0,6.1968,0.548,6.7394,-0.0686,-0.0105,-0.1264,-1.5907908878722132,-0.10379544645547867,1.9015986919403076,-1.3094980716705322,-0.0062590125016868114,1.95035982131958,3.7256833749958496,-0.0010345327900722623,0.24557672441005707,-1.5899179617511194,9.939540905179456e-05,0.029505819082260132,0.753688395023346,-0.00029155146330595016,-0.035471200942993164,0.7612147331237793,-0.00013230562035460025,-0.15821030735969543
315.0,307.0,5.1506,0.3924,7.2808,-0.0363,-0.0721,-0.1119,-1.5911861858763636,-0.10977615416049957,1.8308649063110352,-1.309541940689087,-0.004217921290546656,1.938676357269287,3.7256833749958496,-0.0008256317232735455,0.24671491980552673,-1.589881722127096,9.672484156908467e-05,0.030890516936779022,0.7536561489105225,-0.0002631783136166632,-0.040594086050987244,0.7611789107322693,-0.00012697273632511497,-0.17918109893798828
315.0,307.0,5.1506,0.3924,7.2808,-0.0363,-0.0721,-0.1119,-1.5918456516661585,-0.11656708270311356,1.8913911581039429,-1.309517741203308,-0.0016563214594498277,2.037276029586792,3.725715323085449,-0.0006141607300378382,0.24542254209518433,-1.5899260679828089,9.297759243054315e-05,0.03268032893538475,0.7536442279815674,-0.0002665321226231754,-0.05130615085363388,0.7611867189407349,-0.0001368377124890685,-0.1208866685628891
315.0,307.0,5.1506,0.3924,7.2808,-0.0363,-0.0721,-0.1119,-1.5926052532591761,-0.11943534761667252,1.900937557220459,-1.3094855546951294,-5.33859092683997e-05,2.01090669631958,3.7257067400166015,-0.00042812179890461266,0.241706982254982,-1.5898779074298304,8.950992923928425e-05,0.03782954439520836,0.7537004351615906,-0.00023755835718475282,-0.05081756412982941,0.7611824870109558,-0.0001294570683967322,-0.10967445373535156
315.0,307.0,5.1506,0.3924,7.2808,-0.0363,-0.0721,-0.1119,-1.593356271783346,-0.11828760802745819,1.9684417247772217,-1.309502124786377,-1.2892069356507108e-10,2.067171573638916,3.725674791927002,-0.0001277113624382764,0.23708891868591309,-1.589893643056051,8.629164949525148e-05,0.01678754761815071,0.7536641955375671,-0.00024376105284318328,-0.05268431454896927,0.7612025737762451,-0.00010747765190899372,-0.12662677466869354
315.0,307.0,5.1506,0.3924,7.2808,-0.0363,-0.0721,-0.1119,-1.594180246392721,-0.11671087145805359,1.9459037780761719,-1.3095383644104004,-3.1132828325229817e-16,2.0610485076904297,3.725658579463623,-0.00010383703920524567,0.24034735560417175,-1.5899141470538538,8.32967707538046e-05,0.015584650449454784,0.7536202669143677,-0.00022139835346024483,-0.05364163592457771,0.7612307071685791,-3.617061520344578e-05,-0.10949520766735077
315.0,307.0,5.1506,0.3924,7.2808,-0.0363,-0.0721,-0.1119,-1.5949436626830042,-0.12224391102790833,1.9470621347427368,-1.3095338344573975,-7.518211972829203e-22,1.9972578287124634,3.7256509500690917,-0.00013271422358229756,0.2509070932865143,-1.589881722127096,8.050280302995816e-05,0.016916625201702118,0.7536523342132568,-0.00019982049707323313,-0.04791925847530365,0.7611784338951111,-1.7052670955308713e-05,-0.15465956926345825
315.0,307.0,5.1506,0.3924,7.2808,-0.0363,-0.0721,-0.1119,-1.595795293847555,-0.1383223533630371,1.9383666515350342,-1.3096020221710205,-0.006184340920299292,1.9932844638824463,3.7256552416035156,-0.00015408260514959693,0.23669004440307617,-1.589897934590475,3.394013674551388e-07,0.019915327429771423,0.7536283135414124,-0.00017459587252233177,-0.06723110377788544,0.7612065672874451,-3.012158966697598e-09,-0.17014199495315552
315.0,307.0,5.1506,0.3924,7.2808,-0.0363,-0.0721,-0.1119,-1.5963384113707484,-0.15182232856750488,1.9288184642791748,-1.3096057176589966,-0.008282112888991833,2.0102360248565674,3.7256790834614257,-0.0001774971024133265,0.24232858419418335,-1.5898860136615198,1.4469212494816475e-09,0.028572341427206993,0.7536521553993225,-0.00017789563571568578,-0.05822240561246872,0.7611865997314453,-5.421780103868901e-13,-0.1475246250629425
315.0,307.0,5.1506,0.3924,7.2808,-0.0363,-0.0721,-0.1119,-1.5971971950926722,-0.16702748835086823,1.9230554103851318,-1.3097388744354248,-0.008476600050926208,2.024843692779541,3.7256509500690917,-0.00027309294091537595,0.2504246234893799,-1.589897934590475,6.646126712439582e-05,0.01766446977853775,0.7536243200302124,-0.00017546485469210893,-0.053106632083654404,0.7612147331237793,-1.3092962151346594e-18,-0.09601889550685883
315.0,307.0,5.1506,0.3924,7.2808,-0.0363,-0.0721,-0.1119,-1.5982452831664027,-0.1749831885099411,1.8822636604309082,-1.3097103834152222,-0.005307442042976618,1.9993250370025635,3.725647135371826,-0.0002420287491986528,0.23989219963550568,-1.5899022261248987,6.560308975167572e-05,0.031336598098278046,0.7536362409591675,-0.00018561602337285876,-0.04970969259738922,0.7611503601074219,-3.161796317753792e-24,-0.12367832660675049
315.0,307.0,5.1506,0.3924,7.2808,-0.0363,-0.0721,-0.1119,-1.5992886028685511,-0.16598014533519745,1.8957585096359253,-1.3096296787261963,-0.0014311544364318252,2.064197063446045,3.725674791927002,-0.00016676870291121304,0.24167734384536743,-1.5899055639850062,6.285466224653646e-05,0.03143727406859398,0.7535842657089233,-0.00017131119966506958,-0.04819967597723007,0.7611585259437561,-7.635365815483656e-30,-0.16128842532634735
315.0,307.0,5.1506,0.3924,7.2808,-0.0363,-0.0721,-0.1119,-1.6002875767149867,-0.15612228214740753,1.9261634349822998,-1.3096575736999512,0.00032988301245495677,2.0253746509552,3.7256952959248046,-0.00013179161760490388,0.2437657117843628,-1.5898860136615198,6.0326827224344015e-05,0.039726532995700836,0.7536523342132568,-0.00015838963736314327,-0.059910327196121216,0.7612188458442688,-1.843850706957959e-35,-0.16081254184246063
315.0,307.0,5.1506,0.3924,7.2808,-0.0363,-0.0721,-0.1119,-1.6012870273985804,-0.16238898038864136,1.9421758651733398,-1.3097423315048218,2.77849974139599e-08,2.057295083999634,3.725658579463623,-0.00010800710879266262,0.23708675801753998,-1.58990985551943,5.7994384405901656e-05,0.022471962496638298,0.7536482810974121,-0.00016831440734677017,-0.059281110763549805,0.7612229585647583,-4.452625870392106e-41,-0.1536661684513092
315.0,307.0,5.1506,0.3924,7.2808,-0.0363,-0.0721,-0.1119,-1.6023303471007289,-0.17777703702449799,1.9251506328582764,-1.3097337484359741,-0.0036665373481810093,1.9887354373931885,3.7256666856953125,-0.00013686380407307297,0.25603190064430237,-1.589893643056051,5.5835665989434347e-05,0.023924734443426132,0.7536041736602783,-0.00015728894504718482,-0.0540304072201252,0.7612188458442688,0.0001794682611944154,-0.14800386130809784
315.0,307.0,5.1506,0.3924,7.2808,-0.0363,-0.0721,-0.1119,-1.6030422649779261,-0.19207827746868134,1.9442247152328491,-1.3097901344299316,-0.0072440640069544315,2.0257599353790283,3.725647135371826,-0.00016469150432385504,0.2535807490348816,-1.5899141470538538,5.448361480375752e-05,0.0253719724714756,0.7536323070526123,-0.0001507043489255011,-0.04971309006214142,0.7612066268920898,0.00014962205023039132,-0.21007788181304932
319.0,305.0,7.1498,0.6574,5.9964,0.0078,-0.2315,-0.109,-1.60416903118276,-0.20539754629135132,1.9229145050048828,-1.3097983598709106,-0.00783296674489975,2.030210018157959,3.725634737605713,-0.00014593715604860336,0.24007518589496613,-1.5899103323565882,5.257398879621178e-05,0.029760248959064484,0.7536121606826782,-0.00016062374925240874,-0.06072574108839035,0.7612107396125793,5.991159559926018e-05,-0.1571248322725296
319.0,305.0,7.1498,0.6574,5.9964,0.0078,-0.2315,-0.109,-1.6054002247252406,-0.2062724530696869,1.9320073127746582,-1.3097983598709106,-0.004908082541078329,2.0141165256500244,3.725747271175049,-0.00013011126429773867,0.24717706441879272,-1.5898574034320276,5.079369293525815e-05,0.02856060490012169,0.7535921335220337,-0.0001451317803002894,-0.06266874074935913,0.7611546516418457,1.4467943509899328e-10,-0.15339627861976624
319.0,305.0,7.1498,0.6574,5.9964,0.0078,-0.2315,-0.109,-1.6065989933409632,-0.19932280480861664,1.924586534500122,-1.3098020553588867,-0.0017074986826628447,2.026172637939453,3.725647135371826,-8.805451943771914e-05,0.2403508871793747,-1.5898898283587855,3.5631046557682566e-06,0.034108713269233704,0.7536482214927673,-0.00015192886348813772,-0.0671328604221344,0.7611708045005798,-0.0008957067620940506,-0.14843954145908356
319.0,305.0,7.1498,0.6574,5.9964,0.0078,-0.2315,-0.109,-1.6078101597227992,-0.19730399549007416,1.9305851459503174,-1.3098305463790894,-0.0001544528640806675,1.9929823875427246,3.725658579463623,7.764294423395768e-05,0.24745745956897736,-1.5898779074298304,9.91803195127261e-10,0.029760926961898804,0.753628134727478,-0.0001459169725421816,-0.05915961414575577,0.7611546516418457,-0.0008340750355273485,-0.15260976552963257
319.0,305.0,7.1498,0.6574,5.9964,0.0078,-0.2315,-0.109,-1.608981271783346,-0.20603540539741516,1.9198189973831177,-1.3099029064178467,-0.0002037341910181567,2.0023884773254395,3.725715323085449,0.00010963098611682653,0.23805785179138184,-1.589881722127096,2.7607205258829703e-13,0.029158074408769608,0.7536443471908569,-0.00013497628970071673,-0.06563915312290192,0.76119065284729,-0.00018796161748468876,-0.1532875895500183
319.0,305.0,7.1498,0.6574,5.9964,0.0078,-0.2315,-0.109,-1.6103087864317835,-0.2119191288948059,1.993472695350647,-1.3098020553588867,-0.0002777756308205426,1.9933825731277466,3.725687189693115,9.799064719118178e-05,0.24983616173267365,-1.5899022261248987,7.684566124132751e-17,0.01598323881626129,0.7536402344703674,-0.0001463030930608511,-0.07244567573070526,0.7611908316612244,-1.7514388161998795e-07,-0.14225713908672333
319.0,305.0,7.1498,0.6574,5.9964,0.0078,-0.2315,-0.109,-1.6111442051329554,-0.21813976764678955,1.97623872756958,-1.3098461627960205,-0.00017327169189229608,2.0286777019500732,3.725658579463623,9.135832078754902e-05,0.2466244399547577,-1.5898779074298304,3.2760516594496218e-19,0.031697262078523636,0.7536001205444336,-0.00013997656060382724,-0.0561525858938694,0.7611503601074219,-3.15252823845924e-11,-0.09453244507312775
319.0,305.0,7.1498,0.6574,5.9964,0.0078,-0.2315,-0.109,-1.6125151119627894,-0.2316429764032364,1.9517844915390015,-1.3098822832107544,-0.0003335321380291134,2.049386739730835,3.725674791927002,8.293837163364515e-05,0.2512591481208801,-1.5899298826800745,9.11901055221271e-23,0.03955407440662384,0.753628134727478,-0.00014751681010238826,-0.06786656379699707,0.7611427307128906,-7.612985222644862e-17,-0.1166706532239914
319.0,305.0,7.1498,0.6574,5.9964,0.0078,-0.2315,-0.109,-1.6138297520079554,-0.23316511511802673,1.988044261932373,-1.3098461627960205,-0.000658419041428715,2.021822214126587,3.72575490056958,0.00010113852476933971,0.25339072942733765,-1.589897934590475,2.5383098769354766e-26,0.00872650183737278,0.7536001205444336,-0.00014115512021817267,-0.08922404795885086,0.7611908316612244,-1.83844639806932e-22,-0.12479762732982635
319.0,305.0,7.1498,0.6574,5.9964,0.0078,-0.2315,-0.109,-1.6152006588377894,-0.23063986003398895,1.987342119216919,-1.309818148612976,-0.0003659734793473035,2.032716751098633,3.7257186609455566,0.00034350392525084317,0.23698177933692932,-1.589897934590475,7.065480135673935e-30,0.011548716574907303,0.7536401748657227,-0.00013331481022760272,-0.06808401644229889,0.761130690574646,-4.439631559607096e-28,-0.15128985047340393
319.0,305.0,7.1498,0.6574,5.9964,0.0078,-0.2315,-0.109,-1.6166283092894496,-0.2315189391374588,1.9548380374908447,-1.3098543882369995,-0.00021031183132436126,2.0909974575042725,3.7257343965717773,0.002063724445179105,0.25442415475845337,-1.5898860136615198,1.9667021496164992e-33,0.01081814058125019,0.7536684274673462,-0.0001444718800485134,-0.06482963263988495,0.7611346244812012,-1.0721188062170831e-33,-0.11870548129081726
319.0,305.0,7.1498,0.6574,5.9964,0.0078,-0.2315,-0.109,-1.617995401422018,-0.23465797305107117,1.9966387748718262,-1.3098667860031128,0.00014891788305249065,2.0806617736816406,3.725750609035156,0.0015421215211972594,0.2530287504196167,-1.589897934590475,5.474387017705755e-37,0.014600278809666634,0.753616213798523,-0.00015131273539736867,-0.05638108402490616,0.7611789107322693,-2.5890404439849963e-39,-0.12460556626319885
319.0,305.0,7.1498,0.6574,5.9964,0.0078,-0.2315,-0.109,-1.6194139919676722,-0.23375815153121948,1.9561874866485596,-1.3098423480987549,0.00011930207256227732,2.0810139179229736,3.725750609035156,0.0008355383761227131,0.26423361897468567,-1.5899222532855433,1.5238139890607358e-40,0.02255220338702202,0.753632128238678,-0.00014537265815306455,-0.06366065889596939,0.7611587047576904,-5.605193857299268e-45,-0.11937928944826126
319.0,305.0,7.1498,0.6574,5.9964,0.0078,-0.2315,-0.109,-1.6203566990294398,-0.2317020446062088,2.073856830596924,-1.309826374053955,0.00010533664317335933,2.098358392715454,3.7257425028034667,0.0007288352935574949,0.2545034885406494,-1.589897934590475,6.502024874467151e-43,0.021726638078689575,0.7536361813545227,-0.00015791007899679244,-0.0822916105389595,0.7611988186836243,0.0,-0.11251109838485718
319.0,305.0,7.1498,0.6574,5.9964,0.0078,-0.2315,-0.109,-1.6218201122679652,-0.23796243965625763,2.0607686042785645,-1.3098021745681763,4.502013689489104e-05,2.041701316833496,3.7257625299641113,0.0005490840994752944,0.2600935101509094,-1.5898860136615198,0.0,0.015992848202586174,0.7536762952804565,-0.00014948046009521931,-0.07102613896131516,0.7612351775169373,0.0,-0.07772321999073029
319.0,305.0,7.1498,0.6574,5.9964,0.0078,-0.2315,-0.109,-1.623274942437643,-0.2500874102115631,2.0683751106262207,-1.3098748922348022,3.898020077031106e-05,2.1202077865600586,3.725782557124756,0.0004351984534878284,0.26450619101524353,-1.5899460951434534,0.0,0.0031995605677366257,0.753612220287323,-0.00015913904644548893,-0.08588515222072601,0.7611744999885559,0.0,-0.06283695250749588
311.0,308.0,6.4373,0.2483,6.1998,0.0027,-0.2517,-0.1121,-1.6248303852477015,-0.2555561661720276,2.0325939655303955,-1.3098104000091553,4.7025449021020904e-05,2.093256950378418,3.7257062631794433,0.00036045865272171795,0.25392669439315796,-1.5899141470538538,0.0,0.006439420394599438,0.7535884380340576,-0.00014954530342947692,-0.07673536986112595,0.7612069249153137,0.0,-0.08640271425247192
311.0,308.0,6.4373,0.2483,6.1998,0.0027,-0.2517,-0.1121,-1.6263615093626917,-0.2472655028104782,2.141352653503418,-1.3098186254501343,0.00013097177725285292,2.103884696960449,3.725818319911621,0.0002829038421623409,0.25751620531082153,-1.589893643056051,0.0,0.02235197089612484,0.7536201477050781,-0.00019502444774843752,-0.07779746502637863,0.7611587047576904,-6.508769001811743e-05,-0.07065875828266144
311.0,308.0,6.4373,0.2483,6.1998,0.0027,-0.2517,-0.1121,-1.6278158626952113,-0.24541020393371582,2.118361234664917,-1.3098227977752686,0.0007039293996058404,2.088313579559326,3.7258307176777343,0.000888006528839469,0.2594420611858368,-1.5898616949664515,0.0,-0.0023550945334136486,0.753548264503479,-0.00017588054470252246,-0.06919816136360168,0.7611265182495117,-5.9812107792822644e-05,-0.09967198222875595
311.0,308.0,6.4373,0.2483,6.1998,0.0027,-0.2517,-0.1121,-1.6293302975096644,-0.25324133038520813,2.1065235137939453,-1.309842824935913,0.0004804612835869193,2.085425615310669,3.7257582384296875,0.0008326387614943087,0.2724801301956177,-1.5899341742144983,0.0,0.003904760116711259,0.7535326480865479,-0.00018888524209614843,-0.07525260746479034,0.7611744999885559,-2.7195190341444686e-05,-0.12138435244560242
311.0,308.0,6.4373,0.2483,6.1998,0.0027,-0.2517,-0.1121,-1.6303454838194789,-0.2519068717956543,2.1593093872070312,-1.309834599494934,0.0003958838642574847,2.1132822036743164,3.7257582384296875,0.0006996525917202234,0.2715807855129242,-1.5899055639850062,0.0,0.002083961386233568,0.753592312335968,-0.00017655025294516236,-0.07241833955049515,0.7612147331237793,-2.5645147616160102e-05,-0.10563909262418747
311.0,308.0,6.4373,0.2483,6.1998,0.0027,-0.2517,-0.1121,-1.631852766076559,-0.2441137284040451,2.169769048690796,-1.3098505735397339,0.00025146311963908374,2.1611194610595703,3.7257863718220214,0.0005995578248985112,0.2709576487541199,-1.58990985551943,0.0,-0.0017358148470520973,0.7535884380340576,-0.0001840353215811774,-0.08325639367103577,0.7611744999885559,-2.3625543690286577e-05,-0.0593721941113472
311.0,308.0,6.4373,0.2483,6.1998,0.0027,-0.2517,-0.1121,-1.6333357296385707,-0.2477901428937912,2.1257004737854004,-1.3098341226577759,0.00020727368246298283,2.131432294845581,3.72585837423291,0.000479771668324247,0.2760046720504761,-1.5898779074298304,0.0,0.002066913992166519,0.7536003589630127,-0.00017219284200109541,-0.08656670153141022,0.7611708045005798,-2.1900797946727835e-05,-0.06898736953735352
311.0,308.0,6.4373,0.2483,6.1998,0.0027,-0.2517,-0.1121,-1.634822507897848,-0.2539893090724945,2.1243696212768555,-1.3098790645599365,0.00017674163973424584,2.101309299468994,3.72577874242749,0.000402251462219283,0.26921388506889343,-1.5899022261248987,0.0,-0.013344816863536835,0.753568172454834,-0.00015914351388346404,-0.08349310606718063,0.7611947059631348,-1.5445743295483538e-10,-0.08180584013462067
311.0,308.0,6.4373,0.2483,6.1998,0.0027,-0.2517,-0.1121,-1.636346002618307,-0.2503352761268616,2.1462512016296387,-1.3098067045211792,4.972517490386963e-05,2.1288979053497314,3.725830240840576,0.00034802418667823076,0.28188449144363403,-1.5899298826800745,0.0,-0.002892514690756798,0.7536043524742126,-0.00016628677258268,-0.07338455319404602,0.7611748576164246,-3.729965434469271e-16,-0.004397772252559662
311.0,308.0,6.4373,0.2483,6.1998,0.0027,-0.2517,-0.1121,-1.637780328790182,-0.24397416412830353,2.2078194618225098,-1.3098268508911133,8.519725815858692e-05,2.135075092315674,3.7258340555378417,0.0009568976820446551,0.2737162411212921,-1.5899341742144983,0.0,-0.0047476524487137794,0.7535843253135681,-0.00015793836791999638,-0.08267711848020554,0.7611545324325562,-9.007428385979733e-22,-0.03947887569665909
311.0,308.0,6.4373,0.2483,6.1998,0.0027,-0.2517,-0.1121,-1.6391831837096156,-0.23909986019134521,2.211212158203125,-1.3097777366638184,0.00014918243687134236,2.1777021884918213,3.7258946138569335,0.0012244351673871279,0.2829379141330719,-1.589921776448385,0.0,-0.006962057668715715,0.7536242604255676,-0.00014818702766206115,-0.07906860113143921,0.7611907124519348,-2.1751880348357096e-27,-0.022483032196760178
311.0,308.0,6.4373,0.2483,6.1998,0.0027,-0.2517,-0.1121,-1.6401339970030726,-0.23844753205776215,2.2536401748657227,-1.3098227977752686,0.0004669942718464881,2.1347432136535645,3.72591416418042,0.0008518731337971985,0.28165778517723083,-1.5899141470538538,0.0,-0.012257045134902,0.753612220287323,-0.00014232815010473132,-0.0682816356420517,0.7611626386642456,-3.9152613520804226e-31,-0.013950450345873833
311.0,308.0,6.4373,0.2483,6.1998,0.0027,-0.2517,-0.1121,-1.6415168247618617,-0.2322382777929306,2.2305474281311035,-1.3098186254501343,0.0003562165657058358,2.1477599143981934,3.725845976466797,0.0005777588812634349,0.27247077226638794,-1.58990985551943,0.0,-0.009571889415383339,0.7536122798919678,-0.0001343600160907954,-0.07292036712169647,0.7612029314041138,-9.454895705184453e-37,-0.024914544075727463
311.0,308.0,6.4373,0.2483,6.1998,0.0027,-0.2517,-0.1121,-1.642940183679098,-0.23537664115428925,2.254481315612793,-1.3098021745681763,0.00023027735005598515,2.1629772186279297,3.7257978159138183,0.00020110920013394207,0.27021530270576477,-1.5899141470538538,0.0,-0.018004946410655975,0.7536002993583679,-0.00012895344116259366,-0.07929924130439758,0.7612469792366028,-2.282715198385127e-42,-0.07001170516014099
311.0,308.0,6.4373,0.2483,6.1998,0.0027,-0.2517,-0.1121,-1.6443988285460414,-0.23867544531822205,2.219790458679199,-1.309862494468689,0.00019319597049616277,2.1214587688446045,3.7258340555378417,0.00014399280189536512,0.267919659614563,-1.5898898283587855,0.0,0.0037613031454384327,0.753568172454834,-0.00011879901285283267,-0.07622680068016052,0.76119065284729,0.0,-0.03785848617553711
311.0,308.0,6.4373,0.2483,6.1998,0.0027,-0.2517,-0.1121,-1.6457458935179652,-0.23616734147071838,2.208527088165283,-1.3098227977752686,0.00016640376998111606,2.211176633834839,3.7258340555378417,0.0001161064938060008,0.2640369236469269,-1.5899298826800745,0.0,-0.025854507461190224,0.7535682916641235,-0.00011008026194758713,-0.07703809440135956,0.7612147331237793,0.0,-0.0029404652304947376
304.0,331.0,7.2706,0.2243,6.1089,-0.0072,-0.2546,-0.1142,-1.6470681629576625,-0.2302236109972,2.305508852005005,-1.3098227977752686,5.3887128160567954e-05,2.161623954772949,3.7258621889301757,9.727413271320984e-05,0.2820354402065277,-1.5899141470538538,0.0,-0.019614234566688538,0.7536082863807678,-0.00010255377128487453,-0.0822179764509201,0.7611424326896667,0.0,-0.07510116696357727
304.0,331.0,7.2706,0.2243,6.1089,-0.0072,-0.2546,-0.1142,-1.6484958134093226,-0.22801434993743896,2.2831265926361084,-1.3097983598709106,4.5679153117816895e-05,2.1727852821350098,3.725841684932373,0.00012535326823126525,0.2785945534706116,-1.5899022261248987,0.0,-0.002790922299027443,0.753564178943634,-0.00011518313840497285,-0.07539889961481094,0.761170506477356,0.0,-0.08643399924039841
304.0,331.0,7.2706,0.2243,6.1089,-0.0072,-0.2546,-0.1142,-1.6493755779662074,-0.22797025740146637,2.285771131515503,-1.3097622394561768,8.27376643428579e-05,2.1169517040252686,3.725857897395752,0.00011486424773465842,0.25682833790779114,-1.5898616949664515,0.0,-0.006529964506626129,0.753608226776123,-0.00011047552834497765,-0.08066830039024353,0.7611867785453796,0.0,-0.05773048847913742
304.0,331.0,7.2706,0.2243,6.1089,-0.0072,-0.2546,-0.1142,-1.650773664514059,-0.22190608084201813,2.326805353164673,-1.3097741603851318,0.00014531212218571454,2.126852512359619,3.725869818324707,0.00013565925473812968,0.27423983812332153,-1.5899418036090296,0.0,-0.023020736873149872,0.7535884380340576,-0.00010408696834929287,-0.07297109067440033,0.7611988186836243,0.0,-0.005656124092638493
304.0,331.0,7.2706,0.2243,6.1089,-0.0072,-0.2546,-0.1142,-1.6520801983275355,-0.20938824117183685,2.302091121673584,-1.3097379207611084,0.00046599353663623333,2.132380962371826,3.7258335787006835,9.016224066726863e-05,0.2717033922672272,-1.5898736158954065,0.0,-0.007076871581375599,0.7535843849182129,-0.00011472396727185696,-0.08263666927814484,0.7611826658248901,0.0,-0.03648120164871216
304.0,331.0,7.2706,0.2243,6.1089,-0.0072,-0.2546,-0.1142,-1.653386732141012,-0.21320371329784393,2.2903823852539062,-1.309810757637024,0.0003062655159737915,2.14963436126709,3.725830240840576,7.474776793969795e-05,0.2742709517478943,-1.58990985551943,0.0,-0.018099680542945862,0.7535884380340576,-0.000108846346847713,-0.07303617149591446,0.76119065284729,0.00016146263806149364,-0.05086452513933182
304.0,331.0,7.2706,0.2243,6.1089,-0.0072,-0.2546,-0.1142,-1.6547008953490199,-0.22562448680400848,2.3338370323181152,-1.309814453125,0.00010125237895408645,2.0913052558898926,3.7258497911640625,3.324284261907451e-05,0.28289473056793213,-1.5899298826800745,0.0,-0.009748801589012146,0.753552258014679,-0.00010348266368964687,-0.09616446495056152,0.7612147331237793,0.00017647925415076315,-0.06602161377668381
304.0,331.0,7.2706,0.2243,6.1089,-0.0072,-0.2546,-0.1142,-1.656111856500143,-0.22552798688411713,2.3581650257110596,-1.3097580671310425,0.0001250548957614228,2.1163952350616455,3.7258621889301757,2.9917870051576756e-05,0.2763310372829437,-1.5899141470538538,0.0,-0.02678649127483368,0.7536002993583679,-9.862268780125305e-05,-0.08188530802726746,0.7611626386642456,0.00016072193102445453,-0.015204652212560177
304.0,331.0,7.2706,0.2243,6.1089,-0.0072,-0.2546,-0.1142,-1.657393594781393,-0.2137443572282791,2.33685302734375,-1.3098188638687134,0.00018118864682037383,2.1342194080352783,3.7258621889301757,2.7204541765968315e-05,0.2733425199985504,-1.589897934590475,0.0,-0.015488704666495323,0.7535204291343689,-9.419881826033816e-05,-0.0687701478600502,0.7611824870109558,0.0001229575282195583,-0.016604937613010406
304.0,331.0,7.2706,0.2243,6.1089,-0.0072,-0.2546,-0.1142,-1.6583053074278773,-0.21194328367710114,2.296508312225342,-1.3097983598709106,0.00020674135885201395,2.1834723949432373,3.7258502680012207,2.565356408013031e-05,0.2911074459552765,-1.5899418036090296,0.0,-0.007088115904480219,0.753548264503479,-9.14636766538024e-05,-0.0600498765707016,0.7611744999885559,0.00011658491712296382,0.008028279058635235
304.0,331.0,7.2706,0.2243,6.1089,-0.0072,-0.2546,-0.1142,-1.6596118412413539,-0.21367773413658142,2.3869051933288574,-1.3098227977752686,0.00013594178017228842,2.1534178256988525,3.725845976466797,2.3632575903320685e-05,0.27979329228401184,-1.589937988911764,0.0,-0.00439411262050271,0.7535367012023926,-8.764633093960583e-05,-0.07136653363704681,0.7612189054489136,0.00012951476674061269,-0.022716155275702477
304.0,331.0,7.2706,0.2243,6.1089,-0.0072,-0.2546,-0.1142,-1.660955091516012,-0.219259113073349,2.3629724979400635,-1.309798240661621,0.00011793485464295372,2.1848948001861572,3.7258779245563964,2.190674058510922e-05,0.27336394786834717,-1.5899260679828089,0.0,-0.01432250440120697,0.753568172454834,-8.417924982495606e-05,-0.07741865515708923,0.7612025737762451,0.00012108031660318375,-0.007560922764241695
304.0,331.0,7.2706,0.2243,6.1089,-0.0072,-0.2546,-0.1142,-1.662224908868307,-0.2098168432712555,2.3897650241851807,-1.3097782135009766,0.00010427086817799136,2.1716296672821045,3.725829764003418,2.041585321421735e-05,0.2825377285480499,-1.58990985551943,0.0,-0.0038713656831532717,0.7535366415977478,-4.04994934797287e-05,-0.0717204362154007,0.7612228989601135,9.675403998699039e-05,0.0022696051746606827
304.0,331.0,7.2706,0.2243,6.1089,-0.0072,-0.2546,-0.1142,-1.6634394131102503,-0.20367395877838135,2.4247143268585205,-1.3098067045211792,-3.746907168533653e-05,2.1773242950439453,3.7258502680012207,1.9114979295409285e-05,0.28277891874313354,-1.58990985551943,0.0,-0.020628202706575394,0.7536360621452332,-3.792860661633313e-05,-0.06136919558048248,0.7612188458442688,0.0001067215416696854,-0.0035504037514328957
304.0,331.0,7.2706,0.2243,6.1089,-0.0072,-0.2546,-0.1142,-1.6647302112975062,-0.20936523377895355,2.380523681640625,-1.3097902536392212,-0.00012165852240286767,2.1609623432159424,3.7258378702351074,4.638073278329102e-06,0.2905329167842865,-1.5899460951434534,0.0,-0.016437120735645294,0.753640353679657,-3.567346720956266e-05,-0.07155048102140427,0.7612307071685791,0.00011731115955626592,-0.03699836879968643
319.0,398.0,7.2945,0.4869,5.6124,-0.0185,-0.2022,-0.1174,-1.665997167626852,-0.21901419758796692,2.350811004638672,-1.3098104000091553,-0.0005463628331199288,2.1148762702941895,3.7258259493061523,1.2910246205422027e-09,0.28433823585510254,-1.589937988911764,0.0,-0.021743860095739365,0.753612220287323,-3.3671480196062475e-05,-0.04945924133062363,0.7611903548240662,0.00011131060455227271,-0.030454792082309723
319.0,398.0,7.2945,0.4869,5.6124,-0.0185,-0.2022,-0.1174,-1.6668082676329554,-0.21901434659957886,2.3598599433898926,-1.309794306755066,-0.00035339334863238037,2.166675567626953,3.7258378702351074,5.503840872639332e-12,0.2781383991241455,-1.5899136702166956,0.0,-0.01912941038608551,0.7535842657089233,-1.8353475752519444e-05,-0.05696360021829605,0.7611944079399109,0.00010751152149168774,-0.09901265799999237
319.0,398.0,7.2945,0.4869,5.6124,-0.0185,-0.2022,-0.1174,-1.6680180035033167,-0.21146708726882935,2.419236660003662,-1.3097822666168213,0.00026069971499964595,2.1769931316375732,3.7258378702351074,1.532014409776105e-15,0.27236682176589966,-1.5898779074298304,0.0,-0.009131602011620998,0.7536442875862122,-1.539631193736568e-05,-0.06788640469312668,0.761170506477356,5.151265941094607e-05,-0.010010533966124058
319.0,398.0,7.2945,0.4869,5.6124,-0.0185,-0.2022,-0.1174,-1.6692849598326625,-0.20269775390625,2.377657890319824,-1.309749722480774,0.0004751180240418762,2.171666145324707,3.725813551540039,4.2644184956223224e-19,0.2762438952922821,-1.5899174849139612,0.0,-0.017038458958268166,0.7536280751228333,-1.4644192560808733e-05,-0.04747658222913742,0.7611944079399109,4.7437068133149296e-05,-0.02618417888879776
319.0,398.0,7.2945,0.4869,5.6124,-0.0185,-0.2022,-0.1174,-1.6704193554320277,-0.19838306307792664,2.40804386138916,-1.3097662925720215,0.0005909075844101608,2.129089832305908,3.725841684932373,1.1870165483525886e-22,0.27724865078926086,-1.58990985551943,0.0,-0.02518138661980629,0.7535683512687683,-1.3962624507257715e-05,-0.07061007618904114,0.7612065672874451,6.594195292564109e-05,-0.021637167781591415
319.0,398.0,7.2945,0.4869,5.6124,-0.0185,-0.2022,-0.1174,-1.6716505489745082,-0.19872771203517914,2.4169867038726807,-1.3098186254501343,0.0002917087113019079,2.182343006134033,3.7258102136799316,3.304104150324156e-26,0.27455589175224304,-1.589937988911764,0.0,-0.01585286669433117,0.7536161541938782,-1.3341670637601055e-05,-0.05492325872182846,0.7612228989601135,8.190929656848311e-05,-0.028847217559814453
319.0,398.0,7.2945,0.4869,5.6124,-0.0185,-0.2022,-0.1174,-1.6728579006590785,-0.19602929055690765,2.4431660175323486,-1.3097741603851318,0.00021370983449742198,2.1612443923950195,3.725870295161865,9.19709638885619e-30,0.2860006093978882,-1.58990985551943,0.0,-0.020336132496595383,0.7535843849182129,-1.4426699834757528e-08,-0.0590628907084465,0.7612266540527344,7.668542093597353e-05,-0.03770371153950691
319.0,398.0,7.2945,0.4869,5.6124,-0.0185,-0.2022,-0.1174,-1.6740242443480433,-0.19843865931034088,2.4660019874572754,-1.3098227977752686,0.00017269363161176443,2.1550443172454834,3.7258621889301757,2.560045780163511e-33,0.2834266126155853,-1.58990985551943,0.0,-0.017719930037856102,0.7536442279815674,-4.0157243849647806e-12,-0.045866724103689194,0.7612429261207581,7.20793177606538e-05,-0.02719876915216446
319.0,398.0,7.2945,0.4869,5.6124,-0.0185,-0.2022,-0.1174,-1.6747752628722132,-0.201177179813385,2.371284008026123,-1.3098304271697998,0.00015310496382880956,2.174604892730713,3.7258502680012207,1.0913877443702491e-35,0.272394597530365,-1.589937988911764,0.0,-0.021477557718753815,0.753608226776123,-1.7119665805961047e-14,-0.05956939607858658,0.7611582279205322,6.930412200745195e-05,-0.05383707582950592
319.0,398.0,7.2945,0.4869,5.6124,-0.0185,-0.2022,-0.1174,-1.6759540043272914,-0.19954799115657806,2.442387580871582,-1.3097538948059082,0.0001308437786065042,2.1473515033721924,3.7258779245563964,3.037918381062165e-39,0.27105477452278137,-1.5899665991412562,0.0,-0.018104802817106247,0.7536042928695679,-4.765321334468988e-18,-0.04783274978399277,0.7612388730049133,6.552008562721312e-05,-0.018725072965025902
319.0,398.0,7.2945,0.4869,5.6124,-0.0185,-0.2022,-0.1174,-1.67712463955068,-0.19453741610050201,2.444014072418213,-1.3097941875457764,0.00015076319687068462,2.1502561569213867,3.7258822160908203,8.449829739878647e-43,0.281342476606369,-1.58990985551943,0.0,-0.007040234748274088,0.7536323070526123,-1.3264447977204967e-21,-0.04798988252878189,0.7612188458442688,6.212793960003182e-05,-0.007951654493808746
319.0,398.0,7.2945,0.4869,5.6124,-0.0185,-0.2022,-0.1174,-1.6782194576659144,-0.18737098574638367,2.5001745223999023,-1.3097662925720215,0.0001351574610453099,2.127443790435791,3.7258335787006835,0.0,0.26723694801330566,-1.5899174849139612,0.0,-0.024965763092041016,0.753608226776123,-3.6922077535855145e-25,-0.050379954278469086,0.7611984610557556,5.9069770941277966e-05,-0.07283761352300644
319.0,398.0,7.2945,0.4869,5.6124,-0.0185,-0.2022,-0.1174,-1.679378171960348,-0.19060666859149933,2.47157621383667,-1.3098350763320923,0.00012147491361247376,2.160499334335327,3.7259060579487304,0.0,0.28064799308776855,-1.589937988911764,0.0,-0.015720615163445473,0.7536042332649231,-1.0277395332719508e-28,-0.035582881420850754,0.7612228989601135,5.629852967103943e-05,-0.025623667985200882
319.0,398.0,7.2945,0.4869,5.6124,-0.0185,-0.2022,-0.1174,-1.6805492840208949,-0.19054773449897766,2.466097831726074,-1.3098067045211792,0.00011030815221602097,2.172823190689087,3.7258660036274414,0.0,0.26847270131111145,-1.5899055639850062,0.0,-0.011293698102235794,0.7536280751228333,-2.860750643086291e-32,-0.04403887316584587,0.7611784338951111,5.3775635024067014e-05,0.012001123279333115
319.0,398.0,7.2945,0.4869,5.6124,-0.0185,-0.2022,-0.1174,-1.6816522083678187,-0.18610548973083496,2.474731683731079,-1.3097822666168213,0.00010102194210048765,2.1430084705352783,3.7258335787006835,0.0,0.2732399106025696,-1.5899174849139612,0.0,-0.031328290700912476,0.7536161541938782,-7.963002779463202e-36,-0.03143738955259323,0.7611784338951111,5.146921466803178e-05,-0.014289958402514458
