ramyac6/ROB537/final_project/csv/bad/bad_73.csv
tof_0,tof_1,accelx,accely,accelz,gyrox,gyroy,gyroz,shoulder_lift_joint_position,shoulder_lift_joint_velocity,shoulder_lift_joint_effort,elbow_joint_position,elbow_joint_velocity,elbow_joint_effort,wrist_1_joint_position,wrist_1_joint_velocity,wrist_1_joint_effort,wrist_2_joint_position,wrist_2_joint_velocity,wrist_2_joint_effort,wrist_3_joint_position,wrist_3_joint_velocity,wrist_3_joint_effort,shoulder_pan_joint_position,shoulder_pan_joint_velocity,shoulder_pan_joint_effort
138.0,169.0,-1.9448,-0.2542,9.4223,-0.0373,0.0186,-0.1145,-2.20406498531484,0.0,4.571045398712158,-1.3159286975860596,-0.0,2.0060417652130127,5.181480514794149,-0.0,0.2655249834060669,-1.5140426794635218,-0.0,-0.011552471667528152,1.022934913635254,0.0,0.005741700064390898,1.3754746913909912,0.0,0.04065622389316559
138.0,169.0,-1.9448,-0.2542,9.4223,-0.0373,0.0186,-0.1145,-2.2040730915465296,0.0,4.623753547668457,-1.3158882856369019,-0.0,2.0245752334594727,5.181513148337164,-0.0,0.2679697573184967,-1.5141118208514612,-0.0,-0.023999353870749474,1.0229864120483398,0.0,0.012299422174692154,1.3754504919052124,0.0,0.0036948630586266518
138.0,169.0,-1.9448,-0.2542,9.4223,-0.0373,0.0186,-0.1145,-2.204081197778219,0.0,4.5667877197265625,-1.3159937858581543,-0.0,2.0331687927246094,5.181500929384985,-0.0,0.2626092731952667,-1.5140669981585901,-0.0,-0.016434691846370697,1.022926926612854,0.0,0.007069909479469061,1.3755069971084595,0.0,-0.027735333889722824
138.0,169.0,-1.9448,-0.2542,9.4223,-0.0373,0.0186,-0.1145,-2.204053064385885,0.0,4.582498550415039,-1.3159688711166382,-0.0,2.0480194091796875,5.1814849255378626,-0.0,0.265935480594635,-1.5140951315509241,-0.0,-0.014188731089234352,1.022934913635254,0.0,0.00820132065564394,1.375478744506836,0.0,-0.010356033220887184
138.0,169.0,-1.9448,-0.2542,9.4223,-0.0373,0.0186,-0.1145,-2.204109331170553,0.0,4.5623555183410645,-1.315936803817749,-0.0,2.0727057456970215,5.181480842619695,-0.0,0.26178866624832153,-1.5140951315509241,-0.0,-0.011971943080425262,1.0229625701904297,0.0,0.019040990620851517,1.3754706382751465,0.0,-0.0026571564376354218
138.0,169.0,-1.9448,-0.2542,9.4223,-0.0373,0.0186,-0.1145,-2.2040492496886195,0.0,4.606930732727051,-1.3159208297729492,-0.0,2.055771827697754,5.18150086978034,-0.0,0.25542041659355164,-1.5140631834613245,-0.0,-0.025826629251241684,1.0229308605194092,0.0,-0.0035189096815884113,1.3754987716674805,0.0,-0.017611609771847725
138.0,169.0,-1.9448,-0.2542,9.4223,-0.0373,0.0186,-0.1145,-2.2040492496886195,0.0,4.590492248535156,-1.3159286975860596,-0.0,2.021343469619751,5.181524681835928,-0.0,0.2583569288253784,-1.514083210621969,-0.0,-0.018601249903440475,1.0229586362838745,0.0,0.015967482700943947,1.3754827976226807,0.0,-0.004680842626839876
138.0,169.0,-1.9448,-0.2542,9.4223,-0.0373,0.0186,-0.1145,-2.204085489312643,0.0,4.58332633972168,-1.3159527778625488,-0.0,2.022952079772949,5.181492674141683,-0.0,0.2755131423473358,-1.5140956083880823,-0.0,-0.009760014712810516,1.022938847541809,0.0,0.015655238181352615,1.375486969947815,0.0,0.006019864697009325
138.0,169.0,-1.9448,-0.2542,9.4223,-0.0373,0.0186,-0.1145,-2.2040449581541957,0.0,4.591987133026123,-1.3159372806549072,-0.0,2.046328544616699,5.181476729899206,-0.0,0.25986531376838684,-1.5140951315509241,-0.0,-0.012124239467084408,1.0229586362838745,0.0,0.028624188154935837,1.3755106925964355,0.0,0.025221820920705795
138.0,169.0,-1.9448,-0.2542,9.4223,-0.0373,0.0186,-0.1145,-2.204085489312643,0.0,4.594518661499023,-1.3159527778625488,-0.0,2.0153095722198486,5.181460666447439,-0.0,0.27274972200393677,-1.5141156355487269,-0.0,-0.01831524446606636,1.0229706764221191,0.0,0.012085579335689545,1.3755066394805908,0.0,0.020846392959356308
136.0,176.0,-2.0142,-0.2339,9.4146,-0.0373,0.0267,-0.1037,-2.2040816746153773,0.0,4.5724334716796875,-1.3159167766571045,-0.0,2.0173656940460205,5.181509035616674,-0.0,0.27714961767196655,-1.5141037146197718,-0.0,-0.028140174224972725,1.0229588747024536,0.0,0.009931817650794983,1.3754583597183228,0.0,0.003185066394507885
136.0,176.0,-2.0142,-0.2339,9.4146,-0.0373,0.0267,-0.1037,-2.2041131458678187,0.0,4.5735015869140625,-1.3159167766571045,-0.0,2.0145978927612305,5.181500929384985,-0.0,0.2678406834602356,-1.514127556477682,-0.0,-0.026082560420036316,1.022926926612854,0.0,0.007525886874645948,1.3754504919052124,0.0,0.016941692680120468
136.0,176.0,-2.0142,-0.2339,9.4146,-0.0373,0.0267,-0.1037,-2.204073568383688,0.0,4.6173624992370605,-1.315924882888794,-0.0,2.083116054534912,5.181472736388006,-0.0,0.26449474692344666,-1.514099423085348,-0.0,-0.013581085950136185,1.0229705572128296,0.0,0.0087958425283432,1.3754827976226807,0.0,0.01152951829135418
136.0,176.0,-2.0142,-0.2339,9.4146,-0.0373,0.0267,-0.1037,-2.2040611706175746,0.0,4.585920333862305,-1.315948724746704,-0.0,2.007828712463379,5.18150086978034,-0.0,0.25419965386390686,-1.5141037146197718,-0.0,-0.014055158011615276,1.022918462753296,0.0,0.008741066791117191,1.375486969947815,0.0,0.0060075330547988415
136.0,176.0,-2.0142,-0.2339,9.4146,-0.0373,0.0267,-0.1037,-2.2040492496886195,0.0,4.578245162963867,-1.3158925771713257,-0.0,2.067007064819336,5.181480842619695,-0.0,0.2632618844509125,-1.5140956083880823,-0.0,-0.024486573413014412,1.0229699611663818,0.0,0.0054860711097717285,1.3754947185516357,0.0,0.03049486130475998
136.0,176.0,-2.0142,-0.2339,9.4146,-0.0373,0.0267,-0.1037,-2.2041055164732875,0.0,4.579714298248291,-1.315936803817749,-0.0,2.027191162109375,5.181496846466818,-0.0,0.2636079788208008,-1.5140631834613245,-0.0,-0.008077230304479599,1.022898554801941,0.0,0.009444376453757286,1.3755066394805908,0.0,-0.015878889709711075
136.0,176.0,-2.0142,-0.2339,9.4146,-0.0373,0.0267,-0.1037,-2.204053064385885,0.0,4.575223445892334,-1.3158842325210571,-0.0,2.0133938789367676,5.181532907276907,-0.0,0.2724529504776001,-1.514083210621969,-0.0,-0.006391356233507395,1.022934913635254,0.0,0.010151560418307781,1.3754583597183228,0.0,-0.007184579037129879
136.0,176.0,-2.0142,-0.2339,9.4146,-0.0373,0.0267,-0.1037,-2.20406498531484,0.0,4.602295875549316,-1.3159048557281494,-0.0,2.0619125366210938,5.181524681835928,-0.0,0.2687876224517822,-1.5141194502459925,-0.0,-0.014857972040772438,1.0229427814483643,0.0,0.020510289818048477,1.375538945198059,0.0,0.0346711203455925
136.0,176.0,-2.0142,-0.2339,9.4146,-0.0373,0.0267,-0.1037,-2.2040492496886195,0.0,4.591978073120117,-1.3159244060516357,-0.0,2.0608673095703125,5.181492703944006,-0.0,0.2674725651741028,-1.5140798727618616,-0.0,-0.01282555516809225,1.022938847541809,0.0,0.005600355565547943,1.3754664659500122,0.0,0.02756326273083687
136.0,176.0,-2.0142,-0.2339,9.4146,-0.0373,0.0267,-0.1037,-2.2041131458678187,0.0,4.543376922607422,-1.3159693479537964,-0.0,2.0771450996398926,5.181488680630483,-0.0,0.2612219750881195,-1.5141194502459925,-0.0,-0.023278580978512764,1.022914171218872,0.0,0.01868806965649128,1.3754504919052124,0.0,0.008954774588346481
136.0,176.0,-2.0142,-0.2339,9.4146,-0.0373,0.0267,-0.1037,-2.204069276849264,0.0,4.606976509094238,-1.3159812688827515,-0.0,2.050859212875366,5.1814767000968835,-0.0,0.26495006680488586,-1.5140674749957483,-0.0,-0.008172161877155304,1.022926688194275,0.0,0.01050654798746109,1.3754827976226807,0.0,-0.008648541755974293
136.0,176.0,-2.0142,-0.2339,9.4146,-0.0373,0.0267,-0.1037,-2.2040492496886195,0.0,4.632134914398193,-1.3159290552139282,-0.0,2.0081305503845215,5.181517231255331,-0.0,0.2690356373786926,-1.5141237417804163,-0.0,-0.006137536838650703,1.0229830741882324,0.0,0.0010347147472202778,1.3754947185516357,0.0,-0.03244602680206299
136.0,176.0,-2.0142,-0.2339,9.4146,-0.0373,0.0267,-0.1037,-2.2040616474547328,0.0,4.589843273162842,-1.315936803817749,-0.0,2.085702657699585,5.18149687626914,-0.0,0.2700651288032532,-1.514083210621969,-0.0,-0.023861832916736603,1.0228899717330933,0.0,0.008640632964670658,1.3754827976226807,0.0,-0.018272224813699722
136.0,176.0,-2.0142,-0.2339,9.4146,-0.0373,0.0267,-0.1037,-2.2040611706175746,0.0,4.58376407623291,-1.3159008026123047,-0.0,2.0531303882598877,5.181524652033605,-0.0,0.25951269268989563,-1.5140956083880823,-0.0,-0.02394224889576435,1.022926688194275,0.0,0.006098676007241011,1.3754987716674805,0.0,-0.008627308532595634
136.0,176.0,-2.0142,-0.2339,9.4146,-0.0373,0.0267,-0.1037,-2.204081197778219,0.0,4.578034400939941,-1.3159527778625488,-0.0,2.0371286869049072,5.1814767000968835,-0.0,0.2664981484413147,-1.5141194502459925,-0.0,-0.004642247222363949,1.02293860912323,0.0,0.007548905443400145,1.375478744506836,0.0,-0.0021006017923355103
136.0,176.0,-2.0142,-0.2339,9.4146,-0.0373,0.0267,-0.1037,-2.2040449581541957,0.0,4.569890022277832,-1.3159127235412598,-0.0,2.0799124240875244,5.181488680630483,-0.0,0.25543105602264404,-1.5140875021563929,-0.0,-0.00933875422924757,1.0229268074035645,0.0,0.018331849947571754,1.3754827976226807,0.0,0.03579266369342804
136.0,176.0,-2.0142,-0.2339,9.4146,-0.0373,0.0267,-0.1037,-2.204069276849264,0.0,4.6075239181518555,-1.3159891366958618,-0.0,2.037863254547119,5.18154068568305,-0.0,0.26287588477134705,-1.5140917936908167,-0.0,-0.01571517065167427,1.0229860544204712,0.0,0.012736549600958824,1.375486969947815,0.0,0.012714831158518791
136.0,176.0,-2.0142,-0.2339,9.4146,-0.0373,0.0267,-0.1037,-2.20406498531484,0.0,4.604251861572266,-1.3159167766571045,-0.0,1.994300127029419,5.181509005814352,-0.0,0.26003187894821167,-1.514071289693014,-0.0,-0.011064277961850166,1.022958755493164,0.0,0.018999647349119186,1.3754664659500122,0.0,0.0005163548048585653
138.0,174.0,-2.0285,-0.2794,9.5258,-0.0341,0.029,-0.1124,-2.204057355920309,0.0,4.59957218170166,-1.3158842325210571,-0.0,2.0229153633117676,5.181456851750173,-0.0,0.27764973044395447,-1.5141156355487269,-0.0,-0.011426964774727821,1.0229387283325195,0.0,0.015606861561536789,1.3754827976226807,0.0,-0.0374649278819561
138.0,174.0,-2.0285,-0.2794,9.5258,-0.0341,0.029,-0.1124,-2.204097410241598,0.0,4.569553852081299,-1.3159244060516357,-0.0,2.0344557762145996,5.181492674141683,-0.0,0.27081742882728577,-1.5140588919269007,-0.0,-0.016136091202497482,1.0229307413101196,0.0,0.018777551129460335,1.3754504919052124,0.0,0.03297607973217964
138.0,174.0,-2.0285,-0.2794,9.5258,-0.0341,0.029,-0.1124,-2.2040492496886195,0.0,4.607530117034912,-1.315936803817749,-0.0,2.0196645259857178,5.181509035616674,-0.0,0.2660038471221924,-1.5140917936908167,-0.0,-0.0012140568578615785,1.0229308605194092,0.0,0.02175726369023323,1.3754706382751465,0.0,0.028594307601451874
138.0,174.0,-2.0285,-0.2794,9.5258,-0.0341,0.029,-0.1124,-2.2041174374022425,0.0,4.59147834777832,-1.3159565925598145,-0.0,1.9851744174957275,5.181513148337164,-0.0,0.2598530948162079,-1.5140798727618616,-0.0,-0.006361732259392738,1.022958755493164,0.0,-0.0072003635577857494,1.375478744506836,0.0,-0.01629246398806572
138.0,174.0,-2.0285,-0.2794,9.5258,-0.0341,0.029,-0.1124,-2.2040611706175746,0.0,4.557525634765625,-1.3159167766571045,-0.0,2.0375607013702393,5.181480842619695,-0.0,0.2608507573604584,-1.5141118208514612,-0.0,-0.0197486262768507,1.0229307413101196,0.0,0.013089318759739399,1.3754827976226807,0.0,-0.01291983388364315
138.0,174.0,-2.0285,-0.2794,9.5258,-0.0341,0.029,-0.1124,-2.2040611706175746,0.0,4.533320426940918,-1.3159693479537964,-0.0,2.036032199859619,5.181492674141683,-0.0,0.2598832845687866,-1.5140588919269007,-0.0,-0.007842915132641792,1.0228939056396484,0.0,0.009008721448481083,1.3754827976226807,0.0,-0.04217005521059036
138.0,174.0,-2.0285,-0.2794,9.5258,-0.0341,0.029,-0.1124,-2.204073568383688,0.0,4.616549491882324,-1.3159048557281494,-0.0,1.9817798137664795,5.181520688324728,-0.0,0.2705571949481964,-1.5140588919269007,-0.0,-0.019482668489217758,1.022914171218872,0.0,0.012389030307531357,1.3754987716674805,0.0,0.0002838630462065339
138.0,174.0,-2.0285,-0.2794,9.5258,-0.0341,0.029,-0.1124,-2.204073568383688,0.0,4.611407279968262,-1.3159208297729492,-0.0,2.0317177772521973,5.181505012303152,-0.0,0.27089741826057434,-1.5140631834613245,-0.0,-0.01866402104496956,1.0229185819625854,0.0,0.00518809026107192,1.3754987716674805,0.0,-0.0156461913138628
138.0,174.0,-2.0285,-0.2794,9.5258,-0.0341,0.029,-0.1124,-2.2041012249388636,0.0,4.583746433258057,-1.3159527778625488,-0.0,2.0295827388763428,5.181480842619695,-0.0,0.2550410330295563,-1.5141237417804163,-0.0,-0.028197094798088074,1.0229628086090088,0.0,0.006227605976164341,1.375478744506836,0.0,-0.00032013101736083627
138.0,174.0,-2.0285,-0.2794,9.5258,-0.0341,0.029,-0.1124,-2.2040773830809535,0.0,4.58418083190918,-1.3159527778625488,-0.0,2.0315728187561035,5.18155266621665,-0.0,0.26445356011390686,-1.514083210621969,-0.0,-0.012472519651055336,1.022958755493164,0.0,0.01728537492454052,1.3755147457122803,0.0,-0.006138532888144255
138.0,174.0,-2.0285,-0.2794,9.5258,-0.0341,0.029,-0.1124,-2.204073568383688,0.0,4.591582298278809,-1.3159527778625488,-0.0,2.036457061767578,5.181528854161062,-0.0,0.2651783227920532,-1.5140755812274378,-0.0,-0.01292401272803545,1.023022174835205,0.0,0.007645679637789726,1.375478744506836,0.0,-0.01985468529164791
138.0,174.0,-2.0285,-0.2794,9.5258,-0.0341,0.029,-0.1124,-2.204109331170553,0.0,4.621212959289551,-1.3158600330352783,-0.0,2.0599002838134766,5.181513178139486,-0.0,0.276006817817688,-1.5140875021563929,-0.0,-0.004264724440872669,1.0229308605194092,0.0,0.0022050999104976654,1.375478744506836,0.0,-0.03549608960747719
138.0,174.0,-2.0285,-0.2794,9.5258,-0.0341,0.029,-0.1124,-2.204081197778219,0.0,4.5876078605651855,-1.3159048557281494,-0.0,2.030735969543457,5.181512522488394,-0.0,0.26694267988204956,-1.5140998999225062,-0.0,-0.020271044224500656,1.0229392051696777,0.0,0.009209565818309784,1.3755069971084595,0.0,0.028750527650117874
138.0,174.0,-2.0285,-0.2794,9.5258,-0.0341,0.029,-0.1124,-2.204036851922506,0.0,4.596363544464111,-1.3159167766571045,-0.0,2.0502922534942627,5.181541013508596,-0.0,0.2541663646697998,-1.514071289693014,-0.0,-0.02238391526043415,1.0229427814483643,0.0,0.022223932668566704,1.3755189180374146,0.0,0.029662225395441055
138.0,174.0,-2.0285,-0.2794,9.5258,-0.0341,0.029,-0.1124,-2.204069276849264,0.0,4.564457893371582,-1.3158966302871704,-0.0,2.0495798587799072,5.181484627514639,-0.0,0.2647551894187927,-1.514083210621969,-0.0,-0.026377379894256592,1.0229268074035645,0.0,0.014536913484334946,1.3754987716674805,0.0,0.012563259340822697
138.0,174.0,-2.0285,-0.2794,9.5258,-0.0341,0.029,-0.1124,-2.2040611706175746,0.0,4.598654747009277,-1.3159770965576172,-0.0,2.0768516063690186,5.181520688324728,-0.0,0.26963362097740173,-1.5140956083880823,-0.0,-0.004822055343538523,1.0230060815811157,0.0,0.01177225261926651,1.375442385673523,0.0,0.02403588406741619
138.0,174.0,-2.0285,-0.2794,9.5258,-0.0341,0.029,-0.1124,-2.2041174374022425,0.0,4.600787162780762,-1.315936803817749,-0.0,2.011032819747925,5.181520688324728,-0.0,0.2647247016429901,-1.5140875021563929,-0.0,-0.016510847955942154,1.0229387283325195,0.0,0.00840829685330391,1.3754464387893677,0.0,-0.0020619952119886875
138.0,174.0,-2.0285,-0.2794,9.5258,-0.0341,0.029,-0.1124,-2.2040935955443324,0.0,4.5828680992126465,-1.315945029258728,-0.0,2.0664477348327637,5.181492674141683,-0.0,0.2720256745815277,-1.5141399542437952,-0.0,-0.014101652428507805,1.022902011871338,0.0,0.0037595003377646208,1.3754987716674805,0.0,-0.009206775575876236
130.0,177.0,-2.0046,-0.2154,9.4905,-0.0301,0.0212,-0.1069,-2.204085489312643,0.0,4.624788284301758,-1.3159290552139282,-0.0,2.051788568496704,5.181416529207983,-0.0,0.26692840456962585,-1.5140469709979456,-0.0,-0.011964572593569756,1.0229706764221191,0.0,0.016205105930566788,1.3754546642303467,0.0,-0.007746632676571608
130.0,177.0,-2.0046,-0.2154,9.4905,-0.0301,0.0212,-0.1069,-2.2040611706175746,0.0,4.580083847045898,-1.315864086151123,-0.0,2.0670971870422363,5.181532877474584,-0.0,0.2693527936935425,-1.514099423085348,-0.0,-0.0055352384224534035,1.0229706764221191,0.0,0.008077279664576054,1.3754464387893677,0.0,-0.009534885175526142
130.0,177.0,-2.0046,-0.2154,9.4905,-0.0301,0.0212,-0.1069,-2.204097410241598,0.0,4.601004600524902,-1.3159607648849487,-0.0,2.0316715240478516,5.181505012303152,-0.0,0.2602531909942627,-1.514099423085348,-0.0,-0.022860050201416016,1.0229268074035645,0.0,-0.004208990838378668,1.3755308389663696,0.0,0.012809151783585548
130.0,177.0,-2.0046,-0.2154,9.4905,-0.0301,0.0212,-0.1069,-2.2040893040099085,0.0,4.5868706703186035,-1.3159008026123047,-0.0,2.0198798179626465,5.181536990195074,-0.0,0.2613605856895447,-1.514083210621969,-0.0,-0.017169294878840446,1.0229547023773193,0.0,0.02583424374461174,1.3754706382751465,0.0,-0.009211832657456398
130.0,177.0,-2.0046,-0.2154,9.4905,-0.0301,0.0212,-0.1069,-2.2041012249388636,0.0,4.578745365142822,-1.3158842325210571,-0.0,2.030251979827881,5.1814849255378626,-0.0,0.269970566034317,-1.5141156355487269,-0.0,-0.007604286074638367,1.022994041442871,0.0,0.00526707386597991,1.3754706382751465,0.0,-0.0028509129770100117
130.0,177.0,-2.0046,-0.2154,9.4905,-0.0301,0.0212,-0.1069,-2.2040616474547328,0.0,4.60235595703125,-1.3159286975860596,-0.0,2.072601556777954,5.181480842619695,-0.0,0.26825952529907227,-1.5141037146197718,-0.0,-0.014834579080343246,1.0229511260986328,0.0,0.0015448929043486714,1.3755069971084595,0.0,-0.030822839587926865
130.0,177.0,-2.0046,-0.2154,9.4905,-0.0301,0.0212,-0.1069,-2.2040935955443324,0.0,4.612910747528076,-1.3159770965576172,-0.0,2.060634136199951,5.181509005814352,-0.0,0.2612215280532837,-1.5141156355487269,-0.0,-0.011063799262046814,1.0229872465133667,0.0,0.002094917232170701,1.3755348920822144,0.0,0.0022578020580112934
130.0,177.0,-2.0046,-0.2154,9.4905,-0.0301,0.0212,-0.1069,-2.204073568383688,0.0,4.573995590209961,-1.3159688711166382,-0.0,2.049248218536377,5.181524681835928,-0.0,0.27116188406944275,-1.5140388647662562,-0.0,-0.014990951865911484,1.022946834564209,0.0,0.011390971019864082,1.3754464387893677,0.0,-0.03453309088945389
130.0,177.0,-2.0046,-0.2154,9.4905,-0.0301,0.0212,-0.1069,-2.2040449581541957,0.0,4.555761337280273,-1.315956950187683,-0.0,2.010828971862793,5.181500929384985,-0.0,0.25818949937820435,-1.5141037146197718,-0.0,-0.005278678610920906,1.0229427814483643,0.0,0.008792540058493614,1.3755147457122803,0.0,0.06447108834981918
130.0,177.0,-2.0046,-0.2154,9.4905,-0.0301,0.0212,-0.1069,-2.2040935955443324,0.0,4.568112373352051,-1.3158923387527466,-0.0,2.0075488090515137,5.181500929384985,-0.0,0.26208004355430603,-1.5140956083880823,-0.0,-0.008210151456296444,1.0229711532592773,0.0,0.010437003336846828,1.3754264116287231,0.0,0.026159197092056274
130.0,177.0,-2.0046,-0.2154,9.4905,-0.0301,0.0212,-0.1069,-2.2040611706175746,0.0,4.5758056640625,-1.3159688711166382,-0.0,1.9951295852661133,5.181492703944006,-0.0,0.2651568055152893,-1.5140674749957483,-0.0,-0.00716620497405529,1.022914171218872,0.0,0.017312772572040558,1.3754947185516357,0.0,-0.0062786852940917015
130.0,177.0,-2.0046,-0.2154,9.4905,-0.0301,0.0212,-0.1069,-2.204053064385885,0.0,4.6063737869262695,-1.315936803817749,-0.0,2.052612543106079,5.18152882435874,-0.0,0.26327580213546753,-1.5141037146197718,-0.0,-0.003050972707569599,1.0229547023773193,0.0,-0.0020107245072722435,1.3755106925964355,0.0,0.0015523429028689861
130.0,177.0,-2.0046,-0.2154,9.4905,-0.0301,0.0212,-0.1069,-2.2040769062437953,0.0,4.598030090332031,-1.3158842325210571,-0.0,1.9914164543151855,5.181496846466818,-0.0,0.2617509365081787,-1.5140388647662562,-0.0,-0.010990667156875134,1.0230101346969604,0.0,0.002061678096652031,1.3754746913909912,0.0,0.008678395301103592
130.0,177.0,-2.0046,-0.2154,9.4905,-0.0301,0.0212,-0.1069,-2.2040611706175746,0.0,4.574669361114502,-1.315936803817749,-0.0,2.0874693393707275,5.181488680630483,-0.0,0.2668834924697876,-1.514071289693014,-0.0,-0.012474616058170795,1.0229350328445435,0.0,0.013225935399532318,1.3754746913909912,0.0,-0.001316032838076353
130.0,177.0,-2.0046,-0.2154,9.4905,-0.0301,0.0212,-0.1069,-2.2040611706175746,0.0,4.5594563484191895,-1.3159208297729492,-0.0,2.022481918334961,5.181509005814352,-0.0,0.25954538583755493,-1.5141194502459925,-0.0,-0.025933116674423218,1.0229979753494263,0.0,0.01197865977883339,1.3754386901855469,0.0,0.005811777897179127
130.0,177.0,-2.0046,-0.2154,9.4905,-0.0301,0.0212,-0.1069,-2.204081197778219,0.0,4.589600563049316,-1.3159327507019043,-0.0,2.055241107940674,5.181496786862173,-0.0,0.2655303478240967,-1.5141075293170374,-0.0,-0.009787432849407196,1.0230062007904053,0.0,0.011909891851246357,1.3754745721817017,0.0,-0.021291831508278847
130.0,177.0,-2.0046,-0.2154,9.4905,-0.0301,0.0212,-0.1069,-2.2040611706175746,0.0,4.57220458984375,-1.3159048557281494,-0.0,2.0458922386169434,5.181524681835928,-0.0,0.2658996880054474,-1.5141156355487269,-0.0,-0.005956039763987064,1.0229586362838745,0.0,0.0005308818072080612,1.3755147457122803,0.0,0.03470025956630707
130.0,177.0,-2.0046,-0.2154,9.4905,-0.0301,0.0212,-0.1069,-2.2041012249388636,0.0,4.570352077484131,-1.3158884048461914,-0.0,2.0620689392089844,5.181500959187307,-0.0,0.2631451189517975,-1.5141075293170374,-0.0,-0.0149459857493639,1.022971272468567,0.0,0.024097729474306107,1.3754624128341675,0.0,-0.04685316979885101
143.0,182.0,-2.0291,-0.2345,9.5982,-0.0365,0.0254,-0.1127,-2.2040568790831507,0.0,4.623055458068848,-1.3159208297729492,-0.0,2.0405967235565186,5.181516605406561,-0.0,0.27178552746772766,-1.514071289693014,-0.0,-0.009847527369856834,1.0229860544204712,0.0,0.00988004170358181,1.3754987716674805,0.0,0.04098593071103096
143.0,182.0,-2.0291,-0.2345,9.5982,-0.0365,0.0254,-0.1127,-2.204069276849264,0.0,4.586887359619141,-1.315936803817749,-0.0,2.0292468070983887,5.181532907276907,-0.0,0.26220571994781494,-1.5140875021563929,-0.0,-0.0013867056695744395,1.0229506492614746,0.0,0.013089335523545742,1.3754950761795044,0.0,-0.023167919367551804
143.0,182.0,-2.0291,-0.2345,9.5982,-0.0365,0.0254,-0.1127,-2.204069276849264,0.0,4.575707912445068,-1.315953254699707,-0.0,2.0061538219451904,5.181505012303152,-0.0,0.25877147912979126,-1.514099423085348,-0.0,-0.02575724758207798,1.0229060649871826,0.0,0.011051548644900322,1.3754987716674805,0.0,0.028545256704092026
143.0,182.0,-2.0291,-0.2345,9.5982,-0.0365,0.0254,-0.1127,-2.20406498531484,0.0,4.585943698883057,-1.3159167766571045,-0.0,2.01517915725708,5.181513178139486,-0.0,0.2720203995704651,-1.514071289693014,-0.0,-0.018193503841757774,1.0229671001434326,0.0,-9.062746539711952e-05,1.375535011291504,0.0,-0.02286701276898384
143.0,182.0,-2.0291,-0.2345,9.5982,-0.0365,0.0254,-0.1127,-2.204069276849264,0.0,4.611751556396484,-1.3159688711166382,-0.0,1.9910197257995605,5.1814849255378626,-0.0,0.2720029354095459,-1.5140875021563929,-0.0,-0.014245160855352879,1.0228981971740723,0.0,0.02055271714925766,1.375486969947815,0.0,0.009575383737683296
143.0,182.0,-2.0291,-0.2345,9.5982,-0.0365,0.0254,-0.1127,-2.204053064385885,0.0,4.576236724853516,-1.3159290552139282,-0.0,2.0473594665527344,5.181516635208883,-0.0,0.2700392007827759,-1.5140751043902796,-0.0,-0.009352224878966808,1.0229666233062744,0.0,0.005205621011555195,1.3754664659500122,0.0,0.04498467594385147
143.0,182.0,-2.0291,-0.2345,9.5982,-0.0365,0.0254,-0.1127,-2.2040893040099085,0.0,4.573101997375488,-1.3158966302871704,-0.0,2.014216899871826,5.181513178139486,-0.0,0.266185998916626,-1.5140793959247034,-0.0,-0.014173286035656929,1.022874116897583,0.0,-0.007556751370429993,1.3755147457122803,0.0,-0.010634894482791424
143.0,182.0,-2.0291,-0.2345,9.5982,-0.0365,0.0254,-0.1127,-2.20406498531484,0.0,4.594198226928711,-1.3158882856369019,-0.0,2.034045696258545,5.181564855366506,-0.0,0.2555452883243561,-1.5141156355487269,-0.0,-0.006815200671553612,1.0229060649871826,0.0,0.011266077868640423,1.3754664659500122,0.0,0.04661692678928375
143.0,182.0,-2.0291,-0.2345,9.5982,-0.0365,0.0254,-0.1127,-2.204073568383688,0.0,4.621049880981445,-1.315924882888794,-0.0,2.0215671062469482,5.18152882435874,-0.0,0.2678895890712738,-1.5140913168536585,-0.0,0.002466042758896947,1.0229387283325195,0.0,0.00017143646255135536,1.3754664659500122,0.0,0.010126741603016853
143.0,182.0,-2.0291,-0.2345,9.5982,-0.0365,0.0254,-0.1127,-2.204069276849264,0.0,4.606548309326172,-1.3159688711166382,-0.0,1.9801561832427979,5.181548940926351,-0.0,0.26794809103012085,-1.5141194502459925,-0.0,-0.02367602102458477,1.022958755493164,0.0,0.0090668685734272,1.3754546642303467,0.0,0.05027462914586067
143.0,182.0,-2.0291,-0.2345,9.5982,-0.0365,0.0254,-0.1127,-2.2040893040099085,0.0,4.558833122253418,-1.315948724746704,-0.0,2.0096969604492188,5.181484627514639,-0.0,0.2634463608264923,-1.5140875021563929,-0.0,-0.02107785828411579,1.0229547023773193,0.0,0.01737370155751705,1.3754987716674805,0.0,0.011813314631581306
143.0,182.0,-2.0291,-0.2345,9.5982,-0.0365,0.0254,-0.1127,-2.2041012249388636,0.0,4.6579389572143555,-1.3158481121063232,-0.0,2.1041343212127686,5.181513178139486,-0.0,0.2647635340690613,-1.5140426794635218,-0.0,-0.02439669892191887,1.0229307413101196,0.0,0.009755488485097885,1.3754827976226807,0.0,0.007570704910904169
143.0,182.0,-2.0291,-0.2345,9.5982,-0.0365,0.0254,-0.1127,-2.2040287456908167,0.0,4.603013038635254,-1.3159689903259277,-0.0,2.0251760482788086,5.181548911124029,-0.0,0.2726247310638428,-1.5140469709979456,-0.0,-0.008159151300787926,1.0228699445724487,0.0,0.00873546488583088,1.375478744506836,0.0,-0.0035771336406469345
143.0,182.0,-2.0291,-0.2345,9.5982,-0.0365,0.0254,-0.1127,-2.204085489312643,0.0,4.601574420928955,-1.3159006834030151,-0.0,2.0459156036376953,5.181544828205862,-0.0,0.27274852991104126,-1.5141194502459925,-0.0,-0.009119047783315182,1.0229146480560303,0.0,0.011761936359107494,1.3754947185516357,0.0,0.004877186380326748
143.0,182.0,-2.0291,-0.2345,9.5982,-0.0365,0.0254,-0.1127,-2.2040449581541957,0.0,4.575316429138184,-1.3159446716308594,-0.0,2.0279319286346436,5.181448864727773,-0.0,0.2573472261428833,-1.5141075293170374,-0.0,-0.01481344923377037,1.0229101181030273,0.0,0.0016490607522428036,1.3754987716674805,0.0,-0.06585713475942612
143.0,182.0,-2.0291,-0.2345,9.5982,-0.0365,0.0254,-0.1127,-2.2041174374022425,0.0,4.619706153869629,-1.3159730434417725,-0.0,2.0822834968566895,5.181488680630483,-0.0,0.26740747690200806,-1.5141037146197718,-0.0,-0.017284812405705452,1.022926688194275,0.0,0.0037416676059365273,1.3754706382751465,0.0,0.007328399457037449
143.0,182.0,-2.0291,-0.2345,9.5982,-0.0365,0.0254,-0.1127,-2.204085489312643,0.0,4.551583766937256,-1.3159773349761963,-0.0,1.9997183084487915,5.181516605406561,-0.0,0.2650443911552429,-1.5141037146197718,-0.0,-0.01018200907856226,1.022926688194275,0.0,0.014618792571127415,1.3754624128341675,0.0,-0.037952035665512085
143.0,182.0,-2.0291,-0.2345,9.5982,-0.0365,0.0254,-0.1127,-2.204081197778219,0.0,4.558495044708252,-1.3158599138259888,-0.0,2.080369472503662,5.181492674141683,-0.0,0.25759413838386536,-1.514055077229635,-0.0,-0.018250567838549614,1.0229830741882324,0.0,0.003487665206193924,1.3755024671554565,0.0,-0.022930007427930832
143.0,166.0,-1.9693,-0.2183,9.4181,-0.036,0.0266,-0.1072,-2.204109331170553,0.0,4.597017765045166,-1.3159688711166382,-0.0,2.021207332611084,5.181505012303152,-0.0,0.2578633427619934,-1.5141037146197718,-0.0,-0.00848439335823059,1.0230021476745605,0.0,0.002227790653705597,1.375486969947815,0.0,-0.006618828978389502
143.0,166.0,-1.9693,-0.2183,9.4181,-0.036,0.0266,-0.1072,-2.204073568383688,0.0,4.6006760597229,-1.315936803817749,-0.0,2.017723560333252,5.181532907276907,-0.0,0.26001864671707153,-1.5141194502459925,-0.0,-0.019951848313212395,1.0229666233062744,0.0,0.01047925092279911,1.3755147457122803,0.0,-0.04381769150495529
143.0,166.0,-1.9693,-0.2183,9.4181,-0.036,0.0266,-0.1072,-2.204040666619772,0.0,4.637986183166504,-1.3159167766571045,-0.0,2.023216724395752,5.1814686236675165,-0.0,0.26335400342941284,-1.5140793959247034,-0.0,-0.010620108805596828,1.022935152053833,0.0,-0.009213953278958797,1.3755229711532593,0.0,-0.01382189430296421
143.0,166.0,-1.9693,-0.2183,9.4181,-0.036,0.0266,-0.1072,-2.2040616474547328,0.0,4.55415153503418,-1.3159290552139282,-0.0,2.057940721511841,5.181484627514639,-0.0,0.2714778482913971,-1.5141075293170374,-0.0,-0.010818911716341972,1.022946834564209,0.0,0.020975034683942795,1.3754827976226807,0.0,0.04742981866002083
143.0,166.0,-1.9693,-0.2183,9.4181,-0.036,0.0266,-0.1072,-2.2040616474547328,0.0,4.599902629852295,-1.3159245252609253,-0.0,2.024078845977783,5.181496846466818,-0.0,0.26052331924438477,-1.514099423085348,-0.0,-0.013392530381679535,1.0229101181030273,0.0,0.018151799216866493,1.375478744506836,0.0,-0.020556464791297913
143.0,166.0,-1.9693,-0.2183,9.4181,-0.036,0.0266,-0.1072,-2.204081197778219,0.0,4.583186149597168,-1.315940499305725,-0.0,2.0647740364074707,5.181496846466818,-0.0,0.2658839523792267,-1.5141075293170374,-0.0,-0.009761666879057884,1.0229147672653198,0.0,0.009704507887363434,1.3754706382751465,0.0,0.050455693155527115
143.0,166.0,-1.9693,-0.2183,9.4181,-0.036,0.0266,-0.1072,-2.204085489312643,0.0,4.597442626953125,-1.315936803817749,-0.0,1.9976985454559326,5.181520688324728,-0.0,0.2562709152698517,-1.5140426794635218,-0.0,-0.01664797216653824,1.0229628086090088,0.0,0.006447199732065201,1.3755147457122803,0.0,-0.012520781718194485
143.0,166.0,-1.9693,-0.2183,9.4181,-0.036,0.0266,-0.1072,-2.204036851922506,0.0,4.589924335479736,-1.315924882888794,-0.0,2.0310792922973633,5.1814767000968835,-0.0,0.26462477445602417,-1.5140674749957483,-0.0,-0.01857037842273712,1.0229820013046265,0.0,0.021274928003549576,1.3754664659500122,0.0,0.007829546928405762
143.0,166.0,-1.9693,-0.2183,9.4181,-0.036,0.0266,-0.1072,-2.204097410241598,0.0,4.576218605041504,-1.315956950187683,-0.0,2.0355591773986816,5.181464838772573,-0.0,0.25876885652542114,-1.5141075293170374,-0.0,-0.01875649020075798,1.0229780673980713,0.0,0.0043349917978048325,1.3755470514297485,0.0,0.030075684189796448
143.0,166.0,-1.9693,-0.2183,9.4181,-0.036,0.0266,-0.1072,-2.204073568383688,0.0,4.582242965698242,-1.3159208297729492,-0.0,2.015834331512451,5.181480842619695,-0.0,0.26199495792388916,-1.5140875021563929,-0.0,-0.02848464623093605,1.022914171218872,0.0,0.004674267023801804,1.3755229711532593,0.0,-0.003911788575351238
143.0,166.0,-1.9693,-0.2183,9.4181,-0.036,0.0266,-0.1072,-2.204053064385885,0.0,4.578351974487305,-1.315936803817749,-0.0,2.04618501663208,5.181524681835928,-0.0,0.2611313462257385,-1.5141075293170374,-0.0,-0.014379719272255898,1.022958755493164,0.0,-0.0006041035521775484,1.3755029439926147,0.0,-0.002528107725083828
143.0,166.0,-1.9693,-0.2183,9.4181,-0.036,0.0266,-0.1072,-2.204057355920309,0.0,4.6274309158325195,-1.3159528970718384,-0.0,2.0490663051605225,5.1815212843711755,-0.0,0.2656095623970032,-1.5140588919269007,-0.0,-0.0064241401851177216,1.0229387283325195,0.0,0.007082910276949406,1.3754827976226807,0.0,-0.009034351445734501
143.0,166.0,-1.9693,-0.2183,9.4181,-0.036,0.0266,-0.1072,-2.2041012249388636,0.0,4.607615947723389,-1.3158965110778809,-0.0,2.03328537940979,5.181532609253683,-0.0,0.27540385723114014,-1.514071289693014,-0.0,-0.013137390837073326,1.022918462753296,0.0,0.011909018270671368,1.3754745721817017,0.0,-0.02948310598731041
143.0,166.0,-1.9693,-0.2183,9.4181,-0.036,0.0266,-0.1072,-2.2040492496886195,0.0,4.640899658203125,-1.3159048557281494,-0.0,2.068380117416382,5.181544798403539,-0.0,0.26710647344589233,-1.5140674749957483,-0.0,-0.01789681799709797,1.0229547023773193,0.0,0.005675072316080332,1.3754501342773438,0.0,0.02874426357448101
143.0,166.0,-1.9693,-0.2183,9.4181,-0.036,0.0266,-0.1072,-2.204081197778219,0.0,4.604930877685547,-1.3159167766571045,-0.0,2.0236973762512207,5.181472676783361,-0.0,0.2665148973464966,-1.514083210621969,-0.0,-0.019476260989904404,1.0229671001434326,0.0,0.010518880560994148,1.3754624128341675,0.0,-0.023684512823820114
143.0,166.0,-1.9693,-0.2183,9.4181,-0.036,0.0266,-0.1072,-2.204073568383688,0.0,4.571236610412598,-1.3159127235412598,-0.0,2.0361239910125732,5.181509035616674,-0.0,0.2724253535270691,-1.5141118208514612,-0.0,-0.008172445930540562,1.0229979753494263,0.0,0.011475317180156708,1.3754706382751465,0.0,0.002516409382224083
143.0,166.0,-1.9693,-0.2183,9.4181,-0.036,0.0266,-0.1072,-2.204069276849264,0.0,4.546531677246094,-1.3159327507019043,-0.0,2.0365285873413086,5.181513148337164,-0.0,0.2764431834220886,-1.5141118208514612,-0.0,-0.00404460309073329,1.0229467153549194,0.0,0.0036814725026488304,1.3754905462265015,0.0,-0.024436071515083313
143.0,166.0,-1.9693,-0.2183,9.4181,-0.036,0.0266,-0.1072,-2.2040611706175746,0.0,4.5992913246154785,-1.3159048557281494,-0.0,2.0138278007507324,5.181488710432806,-0.0,0.26203453540802,-1.514071289693014,-0.0,-0.011251954361796379,1.0229346752166748,0.0,-0.00529820378869772,1.3754866123199463,0.0,0.0046543823555111885
143.0,166.0,-1.9693,-0.2183,9.4181,-0.036,0.0266,-0.1072,-2.204069276849264,0.0,4.602148056030273,-1.315956950187683,-0.0,2.057494878768921,5.1814767000968835,-0.0,0.26709404587745667,-1.5140798727618616,-0.0,-0.0019107500556856394,1.0229781866073608,0.0,0.016365058720111847,1.3755066394805908,0.0,0.011343518272042274
141.0,176.0,-1.9759,-0.2363,9.4026,-0.0348,0.0278,-0.1124,-2.204069276849264,0.0,4.607368469238281,-1.315945029258728,-0.0,2.0683794021606445,5.181509005814352,-0.0,0.2687711715698242,-1.5140631834613245,-0.0,-0.006506677251309156,1.0228822231292725,0.0,0.0021811756305396557,1.3755226135253906,0.0,0.02816610410809517
141.0,176.0,-1.9759,-0.2363,9.4026,-0.0348,0.0278,-0.1124,-2.204069276849264,0.0,4.572931289672852,-1.3159611225128174,-0.0,2.024676561355591,5.181509005814352,-0.0,0.2736968696117401,-1.5140875021563929,-0.0,-0.0174480639398098,1.0229706764221191,0.0,0.0101739801466465,1.3754664659500122,0.0,-0.006963749416172504
141.0,176.0,-1.9759,-0.2363,9.4026,-0.0348,0.0278,-0.1124,-2.204069276849264,0.0,4.573117256164551,-1.3159770965576172,-0.0,2.0487005710601807,5.181509095221319,-0.0,0.2653113901615143,-1.5140588919269007,-0.0,-0.010572616942226887,1.0228822231292725,0.0,0.005251421593129635,1.3754910230636597,0.0,-0.005029506981372833
141.0,176.0,-1.9759,-0.2363,9.4026,-0.0348,0.0278,-0.1124,-2.204024930993551,0.0,4.603692054748535,-1.3158842325210571,-0.0,2.0683765411376953,5.181468653469839,-0.0,0.2754998505115509,-1.5140917936908167,-0.0,-0.010905909352004528,1.0229506492614746,0.0,-0.0031690357718616724,1.3755029439926147,0.0,0.0012901602312922478
141.0,176.0,-1.9759,-0.2363,9.4026,-0.0348,0.0278,-0.1124,-2.20406498531484,0.0,4.623988628387451,-1.3159527778625488,-0.0,2.0149049758911133,5.181505012303152,-0.0,0.25958895683288574,-1.5140674749957483,-0.0,-0.012743087485432625,1.022958755493164,0.0,0.0105845145881176,1.3754746913909912,0.0,-0.07468356937170029
141.0,176.0,-1.9759,-0.2363,9.4026,-0.0348,0.0278,-0.1124,-2.2040568790831507,0.0,4.604243278503418,-1.3159451484680176,-0.0,1.9990378618240356,5.181517201453008,-0.0,0.2688027620315552,-1.5140951315509241,-0.0,-0.02458188310265541,1.022958755493164,0.0,0.012273668311536312,1.3755470514297485,0.0,0.01787976548075676
141.0,176.0,-1.9759,-0.2363,9.4026,-0.0348,0.0278,-0.1124,-2.204093118707174,0.0,4.5767951011657715,-1.3159008026123047,-0.0,2.0349457263946533,5.181548911124029,-0.0,0.2607306241989136,-1.5140674749957483,-0.0,-0.00863364152610302,1.0229980945587158,0.0,0.016639042645692825,1.3755106925964355,0.0,0.05319741368293762
141.0,176.0,-1.9759,-0.2363,9.4026,-0.0348,0.0278,-0.1124,-2.204121252099508,0.0,4.594574451446533,-1.3159167766571045,-0.0,2.0223824977874756,5.181520688324728,-0.0,0.2550170421600342,-1.5140631834613245,-0.0,-0.011571705341339111,1.022946834564209,0.0,0.011637991294264793,1.3754624128341675,0.0,0.0018527363426983356
141.0,176.0,-1.9759,-0.2363,9.4026,-0.0348,0.0278,-0.1124,-2.2041012249388636,0.0,4.596596717834473,-1.3159286975860596,-0.0,2.0258677005767822,5.181513148337164,-0.0,0.2661688029766083,-1.5141037146197718,-0.0,-0.00922577828168869,1.0229671001434326,0.0,0.007777527906000614,1.3755147457122803,0.0,0.026697099208831787
141.0,176.0,-1.9759,-0.2363,9.4026,-0.0348,0.0278,-0.1124,-2.204081197778219,0.0,4.635947227478027,-1.3159854412078857,-0.0,2.0453474521636963,5.181517261057653,-0.0,0.2658543288707733,-1.514083210621969,-0.0,-0.0068311793729662895,1.0229820013046265,0.0,0.016412485390901566,1.3755189180374146,0.0,0.010106666013598442
141.0,176.0,-1.9759,-0.2363,9.4026,-0.0348,0.0278,-0.1124,-2.204069276849264,0.0,4.599384784698486,-1.3159048557281494,-0.0,2.037196397781372,5.181460755854406,-0.0,0.266486793756485,-1.5140469709979456,-0.0,-0.01870940439403057,1.0229592323303223,0.0,0.015890730544924736,1.375478744506836,0.0,-0.019035939127206802
141.0,176.0,-1.9759,-0.2363,9.4026,-0.0348,0.0278,-0.1124,-2.2040730915465296,0.0,4.583966255187988,-1.3159327507019043,-0.0,2.084676742553711,5.181505042105474,-0.0,0.27871716022491455,-1.5140913168536585,-0.0,-0.0051227048970758915,1.0229308605194092,0.0,0.00959288701415062,1.375478744506836,0.0,-0.0013204403221607208
141.0,176.0,-1.9759,-0.2363,9.4026,-0.0348,0.0278,-0.1124,-2.204085489312643,0.0,4.602008819580078,-1.3159290552139282,-0.0,2.004725456237793,5.181505042105474,-0.0,0.2580873370170593,-1.5140875021563929,-0.0,-0.015346036292612553,1.023002028465271,0.0,0.0011374307796359062,1.375486969947815,0.0,-0.034249454736709595
141.0,176.0,-1.9759,-0.2363,9.4026,-0.0348,0.0278,-0.1124,-2.2040773830809535,0.0,4.598996639251709,-1.3159528970718384,-0.0,2.0531201362609863,5.181513148337164,-0.0,0.27153152227401733,-1.5140755812274378,-0.0,-0.016391506418585777,1.0229671001434326,0.0,0.011805523186922073,1.3754947185516357,0.0,-0.02192668803036213
141.0,176.0,-1.9759,-0.2363,9.4026,-0.0348,0.0278,-0.1124,-2.2040935955443324,0.0,4.541040897369385,-1.3159446716308594,-0.0,2.0197813510894775,5.181468981295385,-0.0,0.2678718864917755,-1.5140917936908167,-0.0,-0.013726646080613136,1.022946834564209,0.0,0.015584766864776611,1.375478744506836,0.0,0.015646589919924736
141.0,176.0,-1.9759,-0.2363,9.4026,-0.0348,0.0278,-0.1124,-2.204073568383688,0.0,4.608386516571045,-1.315936803817749,-0.0,2.057096004486084,5.181472736388006,-0.0,0.2585122585296631,-1.5140917936908167,-0.0,-0.013986820355057716,1.0229551792144775,0.0,0.007368199527263641,1.375478744506836,0.0,0.02316984161734581
141.0,176.0,-1.9759,-0.2363,9.4026,-0.0348,0.0278,-0.1124,-2.204053064385885,0.0,4.587861061096191,-1.3158843517303467,-0.0,2.027527093887329,5.181516605406561,-0.0,0.2636277675628662,-1.5140631834613245,-0.0,-0.005212064366787672,1.0229467153549194,0.0,0.007606718223541975,1.3754706382751465,0.0,0.011827871203422546
141.0,176.0,-1.9759,-0.2363,9.4026,-0.0348,0.0278,-0.1124,-2.2040616474547328,0.0,4.597989082336426,-1.3159327507019043,-0.0,2.0634799003601074,5.181484627514639,-0.0,0.26812800765037537,-1.5140875021563929,-0.0,-0.024212542921304703,1.0229426622390747,0.0,0.0028922935016453266,1.3755226135253906,0.0,-0.021018002182245255
138.0,177.0,-2.0267,-0.2309,9.4822,-0.0357,0.0263,-0.108,-2.2040893040099085,0.0,4.586716651916504,-1.3159167766571045,-0.0,2.0357747077941895,5.181509035616674,-0.0,0.273860901594162,-1.5140588919269007,-0.0,-0.009685652330517769,1.0229830741882324,0.0,0.016323920339345932,1.3755069971084595,0.0,0.0637492761015892
138.0,177.0,-2.0267,-0.2309,9.4822,-0.0357,0.0263,-0.108,-2.204057355920309,0.0,4.595122814178467,-1.3159451484680176,-0.0,2.016136646270752,5.1815445003803156,-0.0,0.2659064531326294,-1.5140875021563929,-0.0,-0.013516223058104515,1.0229747295379639,0.0,0.010514035820960999,1.3754947185516357,0.0,-0.05775270611047745
138.0,177.0,-2.0267,-0.2309,9.4822,-0.0357,0.0263,-0.108,-2.2041055164732875,0.0,4.5839080810546875,-1.3159167766571045,-0.0,1.9913086891174316,5.181540626078405,-0.0,0.26774632930755615,-1.514071289693014,-0.0,-0.01655431091785431,1.0229350328445435,0.0,0.014784685336053371,1.3754827976226807,0.0,-0.01377521175891161
138.0,177.0,-2.0267,-0.2309,9.4822,-0.0357,0.0263,-0.108,-2.204040666619772,0.0,4.585946559906006,-1.315940499305725,-0.0,2.0399913787841797,5.181509005814352,-0.0,0.2584272027015686,-1.5140631834613245,-0.0,-0.004263982176780701,1.0229547023773193,0.0,0.0033051581121981144,1.3754987716674805,0.0,0.03506256639957428
138.0,177.0,-2.0267,-0.2309,9.4822,-0.0357,0.0263,-0.108,-2.204069276849264,0.0,4.607541084289551,-1.3159291744232178,-0.0,2.0293054580688477,5.181513178139486,-0.0,0.2659957706928253,-1.5140956083880823,-0.0,-0.011959875002503395,1.022946834564209,0.0,0.007598561700433493,1.3755069971084595,0.0,-0.01992112211883068
138.0,177.0,-2.0267,-0.2309,9.4822,-0.0357,0.0263,-0.108,-2.204097410241598,0.0,4.590965270996094,-1.315956950187683,-0.0,2.0361757278442383,5.181480872422018,-0.0,0.2701175808906555,-1.5141194502459925,-0.0,-0.010701935738325119,1.0229780673980713,0.0,0.016394149512052536,1.3754624128341675,0.0,0.01685290038585663
138.0,177.0,-2.0267,-0.2309,9.4822,-0.0357,0.0263,-0.108,-2.204053064385885,0.0,4.5335917472839355,-1.315936803817749,-0.0,2.077000617980957,5.181548851519384,-0.0,0.26927751302719116,-1.514071289693014,-0.0,-0.020750120282173157,1.0229387283325195,0.0,0.008541927672922611,1.3754987716674805,0.0,-0.05399303138256073
138.0,177.0,-2.0267,-0.2309,9.4822,-0.0357,0.0263,-0.108,-2.2040492496886195,0.0,4.598684787750244,-1.3159446716308594,-0.0,2.0181446075439453,5.181500929384985,-0.0,0.2585221827030182,-1.514099423085348,-0.0,-0.011577564291656017,1.022958755493164,0.0,0.011205725371837616,1.3754827976226807,0.0,-0.005814430303871632
138.0,177.0,-2.0267,-0.2309,9.4822,-0.0357,0.0263,-0.108,-2.204020162621969,0.0,4.5858869552612305,-1.3159245252609253,-0.0,2.0263514518737793,5.181513148337164,-0.0,0.25386130809783936,-1.5140631834613245,-0.0,-0.016550779342651367,1.0229268074035645,0.0,0.009998777881264687,1.3754987716674805,0.0,-0.05419304221868515
138.0,177.0,-2.0267,-0.2309,9.4822,-0.0357,0.0263,-0.108,-2.2041012249388636,0.0,4.6036295890808105,-1.3159130811691284,-0.0,2.023257255554199,5.181500929384985,-0.0,0.2591632604598999,-1.5141070524798792,-0.0,-0.010048878379166126,1.0229268074035645,0.0,0.013330012559890747,1.3755189180374146,0.0,0.010402116924524307
138.0,177.0,-2.0267,-0.2309,9.4822,-0.0357,0.0263,-0.108,-2.204053064385885,0.0,4.590971946716309,-1.315936803817749,-0.0,2.0117058753967285,5.181508976012029,-0.0,0.26291656494140625,-1.5140875021563929,-0.0,-0.01190662570297718,1.0229308605194092,0.0,0.0008106754394248128,1.3754624128341675,0.0,0.018918514251708984
138.0,177.0,-2.0267,-0.2309,9.4822,-0.0357,0.0263,-0.108,-2.2040492496886195,0.0,4.58492374420166,-1.315936803817749,-0.0,2.034393310546875,5.181524681835928,-0.0,0.26053372025489807,-1.5141037146197718,-0.0,-0.017761290073394775,1.0229308605194092,0.0,0.004280975088477135,1.3755024671554565,0.0,0.004540819674730301
138.0,177.0,-2.0267,-0.2309,9.4822,-0.0357,0.0263,-0.108,-2.204069276849264,0.0,4.621315956115723,-1.3159773349761963,-0.0,2.0477771759033203,5.181520658522405,-0.0,0.26931726932525635,-1.514083210621969,-0.0,-0.016368646174669266,1.0229511260986328,0.0,0.004368912428617477,1.3754947185516357,0.0,0.010988999158143997
138.0,177.0,-2.0267,-0.2309,9.4822,-0.0357,0.0263,-0.108,-2.204121252099508,0.0,4.623830795288086,-1.3158882856369019,-0.0,2.0684850215911865,5.181520688324728,-0.0,0.275195837020874,-1.514055077229635,-0.0,-0.013258610852062702,1.0228941440582275,0.0,-0.004548721015453339,1.3754587173461914,0.0,-0.022275034338235855
138.0,177.0,-2.0267,-0.2309,9.4822,-0.0357,0.0263,-0.108,-2.2040773830809535,0.0,4.600136756896973,-1.31589674949646,-0.0,2.0921764373779297,5.181488710432806,-0.0,0.26914358139038086,-1.514083210621969,-0.0,-0.014604544267058372,1.0229747295379639,0.0,0.0039018657989799976,1.3754827976226807,0.0,0.0347772091627121
138.0,177.0,-2.0267,-0.2309,9.4822,-0.0357,0.0263,-0.108,-2.2040611706175746,0.0,4.6134819984436035,-1.315941333770752,-0.0,2.0561130046844482,5.181480842619695,-0.0,0.28094130754470825,-1.5140507856952112,-0.0,-0.01655600219964981,1.0229185819625854,0.0,-0.001464450266212225,1.375478744506836,0.0,-0.004190478473901749
138.0,177.0,-2.0267,-0.2309,9.4822,-0.0357,0.0263,-0.108,-2.204073568383688,0.0,4.659453392028809,-1.3158965110778809,-0.0,2.078230857849121,5.181536632567205,-0.0,0.2640354037284851,-1.5141075293170374,-0.0,-0.012387481518089771,1.0229628086090088,0.0,0.018727991729974747,1.3754910230636597,0.0,-0.051313161849975586
138.0,177.0,-2.0267,-0.2309,9.4822,-0.0357,0.0263,-0.108,-2.20404114345693,0.0,4.599417686462402,-1.3159208297729492,-0.0,1.998517394065857,5.181505012303152,-0.0,0.26667043566703796,-1.514071289693014,-0.0,-0.006189918145537376,1.023002028465271,0.0,0.005084598436951637,1.3755069971084595,0.0,-0.04673135280609131
140.0,175.0,-2.0183,-0.2441,9.5061,-0.0339,0.0244,-0.1075,-2.204093118707174,0.0,4.674097061157227,-1.3159611225128174,-0.0,2.113799571990967,5.181464868574896,-0.0,0.26509010791778564,-1.5140674749957483,-0.0,-0.0067955367267131805,1.0229910612106323,0.0,0.010351299308240414,1.3755106925964355,0.0,0.027765557169914246
140.0,175.0,-2.0183,-0.2441,9.5061,-0.0339,0.0244,-0.1075,-2.2040730915465296,0.0,4.581979751586914,-1.315940499305725,-0.0,2.047861337661743,5.181528854161062,-0.0,0.26076772809028625,-1.514071289693014,-0.0,-0.013315418735146523,1.0229060649871826,0.0,0.01749948412179947,1.375478744506836,0.0,0.002122404519468546
140.0,175.0,-2.0183,-0.2441,9.5061,-0.0339,0.0244,-0.1075,-2.2040492496886195,0.0,4.56196403503418,-1.3159167766571045,-0.0,2.0361995697021484,5.181488680630483,-0.0,0.25632160902023315,-1.5140917936908167,-0.0,-0.014493493363261223,1.022902011871338,0.0,0.00013614032650366426,1.3754947185516357,0.0,-0.006716105155646801
140.0,175.0,-2.0183,-0.2441,9.5061,-0.0339,0.0244,-0.1075,-2.204069276849264,0.0,4.6047468185424805,-1.3158681392669678,-0.0,2.0235471725463867,5.181532937079229,-0.0,0.27068617939949036,-1.5140917936908167,-0.0,-0.02361568808555603,1.0229387283325195,0.0,0.010400994680821896,1.375470519065857,0.0,-0.056814976036548615
140.0,175.0,-2.0183,-0.2441,9.5061,-0.0339,0.0244,-0.1075,-2.2040449581541957,0.0,4.622617244720459,-1.3159127235412598,-0.0,2.069610595703125,5.181532549649038,-0.0,0.2768573462963104,-1.514071289693014,-0.0,-0.005941756535321474,1.0229387283325195,0.0,0.002416289411485195,1.3754664659500122,0.0,-0.010356497019529343
140.0,175.0,-2.0183,-0.2441,9.5061,-0.0339,0.0244,-0.1075,-2.204069276849264,0.0,4.619444847106934,-1.3158923387527466,-0.0,1.9585726261138916,5.181516575604238,-0.0,0.278872549533844,-1.514111344014303,-0.0,-0.01702086441218853,1.0229666233062744,0.0,-0.001900684554129839,1.3754987716674805,0.0,-0.0020671244710683823
140.0,175.0,-2.0183,-0.2441,9.5061,-0.0339,0.0244,-0.1075,-2.204053064385885,0.0,4.582515716552734,-1.315924882888794,-0.0,2.0902457237243652,5.181492674141683,-0.0,0.26307034492492676,-1.5141356627093714,-0.0,-0.012527219019830227,1.022882103919983,0.0,0.010254036635160446,1.3754947185516357,0.0,-0.015270600095391273
140.0,175.0,-2.0183,-0.2441,9.5061,-0.0339,0.0244,-0.1075,-2.204097410241598,0.0,4.581523895263672,-1.3159127235412598,-0.0,2.0331146717071533,5.181484657316961,-0.0,0.26780110597610474,-1.5141118208514612,-0.0,-0.012471153400838375,1.0228900909423828,0.0,0.005256157834082842,1.3754664659500122,0.0,0.0024012187495827675
140.0,175.0,-2.0183,-0.2441,9.5061,-0.0339,0.0244,-0.1075,-2.204097410241598,0.0,4.625453948974609,-1.315981388092041,-0.0,2.0723233222961426,5.1814767000968835,-0.0,0.25908195972442627,-1.514071289693014,-0.0,-0.00783533789217472,1.0229060649871826,0.0,0.01574065536260605,1.3754746913909912,0.0,-0.0037420829758048058
140.0,175.0,-2.0183,-0.2441,9.5061,-0.0339,0.0244,-0.1075,-2.204073568383688,0.0,4.586215972900391,-1.3159167766571045,-0.0,2.0469534397125244,5.18149687626914,-0.0,0.26076769828796387,-1.5141156355487269,-0.0,-0.021663419902324677,1.022958755493164,0.0,-0.002261790679767728,1.3754664659500122,0.0,0.005316674709320068
140.0,175.0,-2.0183,-0.2441,9.5061,-0.0339,0.0244,-0.1075,-2.204081197778219,0.0,4.5667877197265625,-1.3159043788909912,-0.0,2.078920364379883,5.181532907276907,-0.0,0.26849043369293213,-1.5141037146197718,-0.0,-0.0034338312689214945,1.0228981971740723,0.0,0.005249183624982834,1.3754827976226807,0.0,0.004458178300410509
140.0,175.0,-2.0183,-0.2441,9.5061,-0.0339,0.0244,-0.1075,-2.204097410241598,0.0,4.591348648071289,-1.3159167766571045,-0.0,2.065195322036743,5.181464898377218,-0.0,0.25782883167266846,-1.514071289693014,-0.0,-0.003630171762779355,1.0229551792144775,0.0,0.0069189900532364845,1.375486969947815,0.0,0.009464365430176258
140.0,175.0,-2.0183,-0.2441,9.5061,-0.0339,0.0244,-0.1075,-2.2040769062437953,0.0,4.6226487159729,-1.315948724746704,-0.0,2.068812131881714,5.181520658522405,-0.0,0.26329928636550903,-1.5141156355487269,-0.0,-0.010707283392548561,1.022990107536316,0.0,0.004606332164257765,1.375502586364746,0.0,-0.04526274651288986
140.0,175.0,-2.0183,-0.2441,9.5061,-0.0339,0.0244,-0.1075,-2.204081197778219,0.0,4.628886699676514,-1.3159127235412598,-0.0,2.02443790435791,5.181513178139486,-0.0,0.2676675319671631,-1.5141194502459925,-0.0,-0.01558062806725502,1.0229147672653198,0.0,0.006398588418960571,1.3754827976226807,0.0,0.004771373700350523
140.0,175.0,-2.0183,-0.2441,9.5061,-0.0339,0.0244,-0.1075,-2.204036851922506,0.0,4.602503776550293,-1.315948724746704,-0.0,2.061760663986206,5.181548940926351,-0.0,0.2690974175930023,-1.5140751043902796,-0.0,-0.01815488561987877,1.022866129875183,0.0,0.012311150319874287,1.375486969947815,0.0,0.0016244584694504738
140.0,175.0,-2.0183,-0.2441,9.5061,-0.0339,0.0244,-0.1075,-2.204053064385885,0.0,4.589786052703857,-1.315936803817749,-0.0,2.0356502532958984,5.181488680630483,-0.0,0.2565131187438965,-1.5141237417804163,-0.0,-0.022303365170955658,1.02301025390625,0.0,0.017522448673844337,1.3754546642303467,0.0,-0.016107918694615364
140.0,175.0,-2.0183,-0.2441,9.5061,-0.0339,0.0244,-0.1075,-2.2040325603880824,0.0,4.616074085235596,-1.315920352935791,-0.0,2.0726099014282227,5.181513148337164,-0.0,0.26116520166397095,-1.5140875021563929,-0.0,-0.007808144204318523,1.0229629278182983,0.0,0.005969928577542305,1.3754706382751465,0.0,0.03210236132144928
140.0,175.0,-2.0183,-0.2441,9.5061,-0.0339,0.0244,-0.1075,-2.204024454156393,0.0,4.582467079162598,-1.3159286975860596,-0.0,2.001668930053711,5.181528854161062,-0.0,0.2653677463531494,-1.5141194502459925,-0.0,-0.002004020381718874,1.0229671001434326,0.0,-0.005601951386779547,1.3754624128341675,0.0,0.06599779427051544
137.0,174.0,-2.0806,-0.2722,9.6921,-0.0321,0.0177,-0.1113,-2.204121252099508,0.0,4.572726249694824,-1.3158842325210571,-0.0,1.9938504695892334,5.181548911124029,-0.0,0.27385619282722473,-1.5140588919269007,-0.0,-0.022364675998687744,1.0229268074035645,0.0,0.00247824564576149,1.375486969947815,0.0,0.017147080972790718
137.0,174.0,-2.0806,-0.2722,9.6921,-0.0321,0.0177,-0.1113,-2.2041012249388636,0.0,4.569949150085449,-1.3158923387527466,-0.0,2.004547357559204,5.181492674141683,-0.0,0.2648862600326538,-1.5141194502459925,-0.0,-0.012364122085273266,1.0229060649871826,0.0,0.01017748937010765,1.3754947185516357,0.0,-0.003382340306416154
137.0,174.0,-2.0806,-0.2722,9.6921,-0.0321,0.0177,-0.1113,-2.204093118707174,0.0,4.61317253112793,-1.3158562183380127,-0.0,2.061048984527588,5.181480842619695,-0.0,0.269620805978775,-1.5140836874591272,-0.0,-0.010570036247372627,1.0229227542877197,0.0,0.02150011621415615,1.3755147457122803,0.0,0.005816708784550428
137.0,174.0,-2.0806,-0.2722,9.6921,-0.0321,0.0177,-0.1113,-2.204081197778219,0.0,4.622961044311523,-1.315924882888794,-0.0,2.058922290802002,5.181472706585684,-0.0,0.26521915197372437,-1.514127556477682,-0.0,-0.022415371611714363,1.0229860544204712,0.0,0.009388430044054985,1.3755029439926147,0.0,0.008315605111420155
137.0,174.0,-2.0806,-0.2722,9.6921,-0.0321,0.0177,-0.1113,-2.20404114345693,0.0,4.61082649230957,-1.3159167766571045,-0.0,2.002020835876465,5.181553023844518,-0.0,0.26137030124664307,-1.514055077229635,-0.0,-0.0030331038869917393,1.0229308605194092,0.0,0.012540115043520927,1.3754947185516357,0.0,-0.030485190451145172
137.0,174.0,-2.0806,-0.2722,9.6921,-0.0321,0.0177,-0.1113,-2.20406498531484,0.0,4.600284576416016,-1.3159085512161255,-0.0,2.089843511581421,5.181492703944006,-0.0,0.2582843005657196,-1.5140917936908167,-0.0,-0.014691978693008423,1.022946834564209,0.0,0.01964527927339077,1.3755189180374146,0.0,0.06323310732841492
137.0,174.0,-2.0806,-0.2722,9.6921,-0.0321,0.0177,-0.1113,-2.2041012249388636,0.0,4.603119373321533,-1.3159167766571045,-0.0,2.037991523742676,5.181492703944006,-0.0,0.2751881182193756,-1.5141156355487269,-0.0,-0.0075562577694654465,1.022958755493164,0.0,0.00926162302494049,1.3754987716674805,0.0,-0.039057862013578415
137.0,174.0,-2.0806,-0.2722,9.6921,-0.0321,0.0177,-0.1113,-2.204008241693014,0.0,4.582159519195557,-1.315948724746704,-0.0,2.115516185760498,5.181480842619695,-0.0,0.2623097896575928,-1.5141037146197718,-0.0,-0.013655740767717361,1.022946834564209,0.0,-0.0014880523085594177,1.375478744506836,0.0,0.011984213255345821
137.0,174.0,-2.0806,-0.2722,9.6921,-0.0321,0.0177,-0.1113,-2.204109331170553,0.0,4.572422027587891,-1.3158924579620361,-0.0,1.9911770820617676,5.181480842619695,-0.0,0.2707076370716095,-1.514099423085348,-0.0,-0.012451570481061935,1.022990107536316,0.0,-0.003788591595366597,1.3754624128341675,0.0,0.014035473577678204
137.0,174.0,-2.0806,-0.2722,9.6921,-0.0321,0.0177,-0.1113,-2.2041012249388636,0.0,4.589881896972656,-1.3158923387527466,-0.0,2.0484976768493652,5.1814767000968835,-0.0,0.2685682773590088,-1.5140793959247034,-0.0,-0.010244028642773628,1.022958755493164,0.0,0.005460626445710659,1.3755106925964355,0.0,0.015515008009970188
137.0,174.0,-2.0806,-0.2722,9.6921,-0.0321,0.0177,-0.1113,-2.204097410241598,0.0,4.618156909942627,-1.315924882888794,-0.0,2.0822091102600098,5.181492674141683,-0.0,0.25829261541366577,-1.5140875021563929,-0.0,-0.013059655204415321,1.0229142904281616,0.0,0.0029583110008388758,1.3754827976226807,0.0,-0.023518938571214676
137.0,174.0,-2.0806,-0.2722,9.6921,-0.0321,0.0177,-0.1113,-2.2041012249388636,0.0,4.615646839141846,-1.3159327507019043,-0.0,2.0775063037872314,5.181476670294561,-0.0,0.26231056451797485,-1.5141194502459925,-0.0,-0.008205192163586617,1.0229101181030273,0.0,0.004949582740664482,1.3755348920822144,0.0,-0.007821405306458473
137.0,174.0,-2.0806,-0.2722,9.6921,-0.0321,0.0177,-0.1113,-2.2040492496886195,0.0,4.6284284591674805,-1.3158721923828125,-0.0,2.0463626384735107,5.181488680630483,-0.0,0.25831735134124756,-1.514099423085348,-0.0,-0.019493086263537407,1.022918701171875,0.0,-0.003870881162583828,1.3754866123199463,0.0,0.013895452953875065
137.0,174.0,-2.0806,-0.2722,9.6921,-0.0321,0.0177,-0.1113,-2.2040611706175746,0.0,4.600433349609375,-1.31589674949646,-0.0,2.0429348945617676,5.181517231255331,-0.0,0.2649153172969818,-1.5141156355487269,-0.0,-0.018161550164222717,1.0229628086090088,0.0,0.0007483339868485928,1.3755226135253906,0.0,-0.013368969783186913
137.0,174.0,-2.0806,-0.2722,9.6921,-0.0321,0.0177,-0.1113,-2.204073568383688,0.0,4.578777313232422,-1.315981388092041,-0.0,2.043436050415039,5.181548911124029,-0.0,0.2553946077823639,-1.5140951315509241,-0.0,-0.011463679373264313,1.022958755493164,0.0,0.00465241027995944,1.3754947185516357,0.0,0.02223825827240944
137.0,174.0,-2.0806,-0.2722,9.6921,-0.0321,0.0177,-0.1113,-2.204085489312643,0.0,4.6108717918396,-1.3159127235412598,1.195570087375586e-09,2.0266783237457275,5.181496816664495,-0.0,0.26611217856407166,-1.5140875021563929,-0.0,-0.013919545337557793,1.0229387283325195,0.0,0.010993651114404202,1.375490665435791,0.0,0.030825238674879074
137.0,174.0,-2.0806,-0.2722,9.6921,-0.0321,0.0177,-0.1113,-2.2041217289366664,0.0,4.6117939949035645,-1.3159008026123047,2.887161352143697e-15,2.0319266319274902,5.181480842619695,-0.0,0.27057725191116333,-1.5141037146197718,-0.0,-0.017803745344281197,1.0229268074035645,0.0,0.0025064153596758842,1.375502586364746,0.0,-0.02492217905819416
137.0,174.0,-2.0806,-0.2722,9.6921,-0.0321,0.0177,-0.1113,-2.2040568790831507,0.0,4.547844886779785,-1.3159167766571045,5.1967885647464215e-19,2.0291409492492676,5.181496846466818,-0.0,0.25991350412368774,-1.5140875021563929,-0.0,-0.013336487114429474,1.022990107536316,0.0,0.011421588249504566,1.375490665435791,-4.1117986793182126e-10,0.02440805733203888
138.0,173.0,-2.1811,-0.216,9.338,-0.0397,0.0228,-0.1113,-2.2041174374022425,0.0,4.602578163146973,-1.3158966302871704,1.2549631181601464e-24,2.012631893157959,5.181492674141683,-0.0,0.2705366611480713,-1.5141156355487269,-0.0,-0.021548036485910416,1.023013949394226,0.0,0.01601184345781803,1.3755266666412354,-9.92950889561325e-16,0.012915980070829391
138.0,173.0,-2.1811,-0.216,9.338,-0.0397,0.0228,-0.1113,-2.2041131458678187,8.341977775216947e-09,4.588391304016113,-1.3159565925598145,2.258889527997762e-28,2.0116100311279297,5.181480872422018,-5.158478444400316e-08,0.250438928604126,-1.5140798727618616,-0.0,-0.007679281756281853,1.0228863954544067,0.0,0.0029896164778620005,1.375454306602478,-1.7872764833401972e-19,0.052807778120040894
138.0,173.0,-2.1811,-0.216,9.338,-0.0397,0.0228,-0.1113,-2.204068800012106,2.014489649312251e-14,4.591089248657227,-1.3159327507019043,5.454951789145386e-34,2.0611162185668945,5.181464838772573,-1.435881188255328e-11,0.27462056279182434,-1.5141037146197718,-0.0,-0.007410531397908926,1.0230144262313843,0.0,0.003020597156137228,1.3754984140396118,-4.316063116299513e-25,0.04753855988383293
138.0,173.0,-2.1811,-0.216,9.338,-0.0397,0.0228,-0.1113,-2.2040769062437953,3.626010735213976e-18,4.598360538482666,-1.3159527778625488,9.818720094359331e-38,2.0167148113250732,5.181500899582662,-6.121387169941497e-14,0.2573724091053009,-1.514083210621969,-0.0,-0.01998715288937092,1.0229830741882324,0.0,-0.0015795958461239934,1.3755508661270142,-7.768762042889546e-29,0.013968556188046932
138.0,173.0,-2.1811,-0.216,9.338,-0.0397,0.0228,-0.1113,-2.2041455707945765,8.75638918011125e-24,4.596275329589844,-1.3158966302871704,2.368194404708941e-43,2.034393548965454,5.181492674141683,-1.7039108327230843e-17,0.2848977744579315,-1.5140793959247034,-0.0,-0.030014973133802414,1.0229345560073853,0.0,0.015402325429022312,1.3755265474319458,-1.876064647505889e-34,-0.023666387423872948
138.0,173.0,-2.1811,-0.216,9.338,-0.0397,0.0228,-0.1113,-2.2041174374022425,1.5761191478388018e-27,4.604449272155762,-1.3159327507019043,0.0,2.0260634422302246,5.181480842619695,-7.264037768090145e-20,0.26029539108276367,-1.5140875021563929,-0.0,-0.01278349943459034,1.0229268074035645,0.0,0.004532738123089075,1.375478744506836,-3.37684959984933e-38,-0.008440131321549416
138.0,173.0,-2.1811,-0.216,9.338,-0.0397,0.0228,-0.1113,-2.2041336498656214,3.8061423420771005e-33,4.605556011199951,-1.3159290552139282,-0.0,2.0351572036743164,5.181524681835928,-2.0219718268886762e-23,0.273530513048172,-1.5140674749957483,-0.0,-0.014797477051615715,1.0229227542877197,0.0,0.0030593019910156727,1.3755143880844116,-8.127531093083939e-44,0.002035105600953102
138.0,173.0,-2.1811,-0.216,9.338,-0.0397,0.0228,-0.1113,-2.204109331170553,6.850921287153516e-37,4.622921943664551,-1.3159127235412598,-0.0,2.0183756351470947,5.181480842619695,-8.619982951558313e-26,0.2675479054450989,-1.5140836874591272,-0.0,-0.0036413827911019325,1.0229871273040771,0.0,0.011034872382879257,1.3755549192428589,-0.0,0.00929359532892704
138.0,173.0,-2.1811,-0.216,9.338,-0.0397,0.0228,-0.1113,-2.204109331170553,1.654933486367609e-42,4.587126731872559,-1.315948724746704,-0.0,2.065516471862793,5.181509065418997,-2.3994040225707627e-29,0.2648383677005768,-1.5140875021563929,-0.0,-0.01289359014481306,1.0229307413101196,0.0,-0.004796542227268219,1.3755143880844116,0.0,-0.004517067223787308
138.0,173.0,-2.1811,-0.216,9.338,-0.0397,0.0228,-0.1113,-2.2040449581541957,0.0,4.552516460418701,-1.3158923387527466,-0.0,2.008873701095581,5.181532907276907,-1.0229035466914814e-31,0.2618856728076935,-1.5140674749957483,-0.0,-0.010085846297442913,1.0228900909423828,0.0,0.008580491878092289,1.3755106925964355,0.0,-0.009721102192997932
138.0,173.0,-2.1811,-0.216,9.338,-0.0397,0.0228,-0.1113,-2.2040769062437953,0.0,4.58698844909668,-1.3159446716308594,-0.0,2.0667853355407715,5.181505012303152,-2.8472898207986225e-35,0.26416313648223877,-1.5140674749957483,-0.0,-0.007358071394264698,1.022946834564209,0.0,0.009471534751355648,1.375518560409546,0.0,0.0005746707320213318
138.0,173.0,-2.1811,-0.216,9.338,-0.0397,0.0228,-0.1113,-2.20406498531484,0.0,4.595005989074707,-1.3159527778625488,-0.0,2.0260772705078125,5.18152882435874,-1.213844302466789e-37,0.26277586817741394,-1.5140793959247034,-0.0,-0.01943810284137726,1.0229628086090088,0.0,0.0033989029470831156,1.3755066394805908,5.67956012673676e-05,0.01251046173274517
138.0,173.0,-2.1811,-0.216,9.338,-0.0397,0.0228,-0.1113,-2.2040730915465296,0.0,4.569843292236328,-1.3158966302871704,-0.0,2.0548930168151855,5.181480842619695,-3.378810857179999e-41,0.2636966109275818,-1.514083210621969,-0.0,-0.011974809691309929,1.0229747295379639,0.0,0.0005746115930378437,1.3755106925964355,5.1910217734985054e-05,0.013104038313031197
138.0,173.0,-2.1811,-0.216,9.338,-0.0397,0.0228,-0.1113,-2.2040935955443324,0.0,4.618897438049316,-1.3159770965576172,-0.0,2.0376598834991455,5.181492703944006,-1.4433374182545616e-43,0.25677990913391113,-1.5141075293170374,-0.0,-0.024609604850411415,1.022946834564209,0.0,-0.0006235830951482058,1.3755029439926147,2.4878145268303342e-05,-0.03581537306308746
138.0,173.0,-2.1811,-0.216,9.338,-0.0397,0.0228,-0.1113,-2.204081197778219,0.0,4.5718994140625,-1.315936803817749,-0.0,2.0418083667755127,5.181509035616674,-0.0,0.2562021315097809,-1.5141156355487269,-0.0,-0.0026838011108338833,1.022874116897583,0.0,0.003341132774949074,1.375478744506836,2.268414755235426e-05,0.04984162747859955
138.0,173.0,-2.1811,-0.216,9.338,-0.0397,0.0228,-0.1113,-2.2040492496886195,0.0,4.622193336486816,-1.3159245252609253,-0.0,2.099578857421875,5.181500929384985,-0.0,0.2659454345703125,-1.5141194502459925,-0.0,-0.017827151343226433,1.022946834564209,0.0,0.008232655934989452,1.3755066394805908,2.159553514502477e-05,-0.012911620549857616
138.0,173.0,-2.1811,-0.216,9.338,-0.0397,0.0228,-0.1113,-2.2040492496886195,0.0,4.62285041809082,-1.3159692287445068,-0.0,2.0497941970825195,5.181532907276907,-0.0,0.2489439845085144,-1.5140755812274378,-0.0,-0.015414239838719368,1.0229628086090088,0.0,0.01945788785815239,1.3755348920822144,2.060661427094601e-05,0.04263361543416977
138.0,173.0,-2.1811,-0.216,9.338,-0.0397,0.0228,-0.1113,-2.204057355920309,0.0,4.640188217163086,-1.315981388092041,-0.0,2.0310933589935303,5.18148900845603,-0.0,0.2547447085380554,-1.514099423085348,-0.0,-0.008859544061124325,1.0229666233062744,0.0,-0.002317285630851984,1.3755226135253906,1.928217534441501e-05,0.02543693780899048
150.0,178.0,-2.01,-0.4146,9.4857,-0.055,0.0276,-0.1124,-2.2040611706175746,0.0,4.57366943359375,-1.3158717155456543,-0.0,2.020050048828125,5.18146892169074,-0.0,0.2737535238265991,-1.5141037146197718,-0.0,-0.017251446843147278,1.0229979753494263,0.0,-0.0084920609369874,1.375486969947815,1.8489854483050294e-05,0.04392923042178154
150.0,178.0,-2.01,-0.4146,9.4857,-0.055,0.0276,-0.1124,-2.204069276849264,3.845537867164239e-05,4.599475383758545,-1.3159048557281494,-0.0,2.02846097946167,5.181532907276907,-0.0,0.25601381063461304,-1.5141194502459925,-0.0,-0.02020467445254326,1.022926688194275,0.0,0.01257708016782999,1.3754947185516357,1.7416447008145042e-05,0.02280442789196968
150.0,178.0,-2.01,-0.4146,9.4857,-0.055,0.0276,-0.1124,-2.2040206394591273,5.38508320460096e-05,4.56245231628418,-1.3159291744232178,-0.0,2.035212278366089,5.181513178139486,-0.0,0.2753034234046936,-1.5141194502459925,-0.0,-0.008573389612138271,1.0229147672653198,0.0,-0.00256269215606153,1.3755308389663696,1.6767509805504233e-05,-0.0014382577501237392
150.0,178.0,-2.01,-0.4146,9.4857,-0.055,0.0276,-0.1124,-2.2040168247618617,0.0005118485423736274,4.59412956237793,-1.3158721923828125,6.804754229960963e-05,2.050668478012085,5.181552994042196,-0.0,0.25822994112968445,-1.514127556477682,-0.0,-0.018258055672049522,1.022990107536316,0.0,0.017116403207182884,1.3755266666412354,3.175955862388946e-05,0.025874819606542587
150.0,178.0,-2.01,-0.4146,9.4857,-0.055,0.0276,-0.1124,-2.2040006122984828,0.00088256731396541,4.574735641479492,-1.3159006834030151,0.0010991062736138701,2.015091896057129,5.181484627514639,-0.0,0.2630789279937744,-1.5141390005694788,-0.0,-0.025430556386709213,1.022902011871338,0.0,0.0033852658234536648,1.3755266666412354,4.599158637574874e-05,-0.003010486252605915
150.0,178.0,-2.01,-0.4146,9.4857,-0.055,0.0276,-0.1124,-2.2040211162962855,0.0014028085861355066,4.601201057434082,-1.3158965110778809,0.0010689185000956059,2.0504140853881836,5.1814767000968835,-0.0,0.26369941234588623,-1.5141194502459925,-0.0,-0.006483694072812796,1.022946834564209,0.0,0.00808224268257618,1.3755466938018799,0.00011195143451914191,-0.013337047770619392
150.0,178.0,-2.01,-0.4146,9.4857,-0.055,0.0276,-0.1124,-2.2039886913695277,0.0012597983004525304,4.6336350440979,-1.3158406019210815,0.0007261794526129961,2.0100040435791016,5.181500929384985,-0.0,0.2673662304878235,-1.514111344014303,-0.0,-0.009122541174292564,1.022946834564209,0.0,0.002798082772642374,1.3755508661270142,0.0016269241459667683,0.004559810273349285
150.0,178.0,-2.01,-0.4146,9.4857,-0.055,0.0276,-0.1124,-2.2040745220580042,0.0009295076015405357,4.589576244354248,-1.3159006834030151,0.0001577397488290444,2.0449719429016113,5.18146892169074,-0.0,0.2707963287830353,-1.5141237417804163,-0.0,-0.024345021694898605,1.0229979753494263,0.0,0.015959998592734337,1.3755583763122559,0.0023764031939208508,0.0037843170575797558
150.0,178.0,-2.01,-0.4146,9.4857,-0.055,0.0276,-0.1124,-2.204073568383688,0.0007387993973679841,4.590450286865234,-1.3158882856369019,0.00011105329031124711,2.02109956741333,5.181448864727773,-0.0,0.2664397358894348,-1.514111344014303,-0.0,-0.01951146125793457,1.0229185819625854,0.0,0.006186649668961763,1.375618577003479,0.0029242560267448425,0.017934605479240417
150.0,178.0,-2.01,-0.4146,9.4857,-0.055,0.0276,-0.1124,-2.2040373287596644,0.0005648473161272705,4.534539222717285,-1.3159130811691284,8.103689469862729e-05,2.0163607597351074,5.181492674141683,-0.0,0.2661226987838745,-1.5141189734088343,-0.0,-0.011997084133327007,1.0228700637817383,0.0,0.02383519895374775,1.3756062984466553,0.0028738146647810936,0.004106846638023853
150.0,178.0,-2.01,-0.4146,9.4857,-0.055,0.0276,-0.1124,-2.204097410241598,0.0004272347432561219,4.578551292419434,-1.3159332275390625,6.866714829811826e-05,2.041632890701294,5.18148900845603,-0.0,0.25915175676345825,-1.514111344014303,-0.0,-0.02205672115087509,1.0229666233062744,0.0,0.01374470628798008,1.3756062984466553,0.002076414879411459,0.03702465444803238
150.0,178.0,-2.01,-0.4146,9.4857,-0.055,0.0276,-0.1124,-2.2040449581541957,0.00012177032476756722,4.578843116760254,-1.3158602714538574,0.00011173871462233365,2.035240888595581,5.1814849255378626,-0.0,0.2634788751602173,-1.5141471068011683,-0.0,-0.01732765883207321,1.0230220556259155,0.0,0.014285406097769737,1.3756226301193237,0.001135875703766942,0.03424260765314102
150.0,178.0,-2.01,-0.4146,9.4857,-0.055,0.0276,-0.1124,-2.2040206394591273,5.327149119693786e-05,4.579228401184082,-1.3159009218215942,0.00019984884420409799,1.9992934465408325,5.181457000761785,-0.0,0.2664395272731781,-1.5141714254962366,-0.0,-0.01341310702264309,1.023002028465271,0.0,0.0035406958777457476,1.3756226301193237,0.0008345389505848289,-0.022657612338662148
150.0,178.0,-2.01,-0.4146,9.4857,-0.055,0.0276,-0.1124,-2.204097410241598,3.119670077822434e-09,4.564640998840332,-1.3158929347991943,0.0004569590964820236,2.0484280586242676,5.181444811611929,-6.963886698940769e-05,0.2833831310272217,-1.5141351858722132,-0.0,-0.018345732241868973,1.0230101346969604,0.0,0.01399641390889883,1.3755862712860107,0.0006823409348726273,0.0028182975947856903
150.0,178.0,-2.01,-0.4146,9.4857,-0.055,0.0276,-0.1124,-2.204073568383688,5.615295012827148e-13,4.577939033508301,-1.3159254789352417,0.0003571648558136076,2.04240083694458,5.181485283165731,-0.0008815320325084031,0.2674184739589691,-1.5141308943377894,-4.290196375222877e-05,-0.011665090918540955,1.0229387283325195,0.0,0.012001249939203262,1.3756706714630127,0.0005736213061027229,-0.007286411710083485
150.0,178.0,-2.01,-0.4146,9.4857,-0.055,0.0276,-0.1124,-2.2041131458678187,1.3560275770456896e-18,4.603118419647217,-1.315868616104126,0.0003047152131330222,2.0298171043395996,5.181412774115362,-0.0025258762761950493,0.25859230756759644,-1.5141633192645472,-5.01209833601024e-05,0.00638226605951786,1.0229666233062744,0.0,0.022349262610077858,1.3756144046783447,0.0004500933864619583,0.021511835977435112
150.0,178.0,-2.01,-0.4146,9.4857,-0.055,0.0276,-0.1124,-2.2040773830809535,2.4408017788521043e-22,4.60952091217041,-1.3158726692199707,0.0002778364287223667,2.072627544403076,5.1814452586467645,-0.0027574473060667515,0.2633139193058014,-1.5141671339618128,-1.6405830365329166e-06,-0.018625937402248383,1.0229941606521606,0.0,0.020145658403635025,1.3756542205810547,0.0013842813204973936,0.012540072202682495
150.0,178.0,-2.01,-0.4146,9.4857,-0.055,0.0276,-0.1124,-2.204093118707174,5.894248890968859e-28,4.623053073883057,-1.3158488273620605,0.00024537130957469344,2.035153388977051,5.181409168034353,-0.003381428774446249,0.2672467529773712,-1.5141351858722132,-4.566622913149132e-10,-0.006721867248415947,1.022918462753296,0.0,0.014179028570652008,1.3756664991378784,0.002612992189824581,0.042369261384010315
150.0,178.0,-2.01,-0.4146,9.4857,-0.055,0.0276,-0.1124,-2.204069276849264,1.0609439544773117e-31,4.616535186767578,-1.3158528804779053,0.0002597056154627353,2.0935537815093994,5.181389051466741,-0.003905470948666334,0.2622394263744354,-1.5141390005694788,-1.946822694373629e-12,-0.015445017255842686,1.0229346752166748,0.0,0.00042500265408307314,1.3756985664367676,0.0025770175270736217,0.03487765043973923
143.0,180.0,-1.934,-0.4756,9.81,-0.0782,0.0289,-0.1029,-2.2041131458678187,1.9096618889132912e-35,4.619519233703613,-1.3158726692199707,0.0002426243736408651,2.034420967102051,5.1813730774219415,-0.004299101885408163,0.2687039077281952,-1.514123264943258,-8.299610829056846e-15,-0.015501730144023895,1.0229268074035645,0.0,0.013228449039161205,1.3756664991378784,0.0021342041436582804,0.04388003796339035
143.0,180.0,-1.934,-0.4756,9.81,-0.0782,0.0289,-0.1029,-2.2040616474547328,4.611673246092973e-41,4.6070733070373535,-1.3158560991287231,0.00022034795256331563,2.0586190223693848,5.181381332665243,-0.0054551963694393635,0.2746981084346771,-1.5141151587115687,-2.3102271493302163e-18,-0.0029891899321228266,1.0229547023773193,0.0,0.017975419759750366,1.3757025003433228,0.0013962029479444027,0.023248860612511635
143.0,180.0,-1.934,-0.4756,9.81,-0.0782,0.0289,-0.1029,-2.2040325603880824,8.407790785948902e-45,4.619354724884033,-1.3158560991287231,0.0002076387027045712,2.0713562965393066,5.1813653884227655,-0.004698534030467272,0.2764739692211151,-1.5141432921039026,-9.848859890692436e-21,-0.008458576165139675,1.0229860544204712,0.0,0.011284560896456242,1.3756217956542969,0.0008617813000455499,-0.0170762836933136
143.0,180.0,-1.934,-0.4756,9.81,-0.0782,0.0289,-0.1029,-2.20406498531484,0.0,4.618166446685791,-1.3158364295959473,0.0001911048893816769,2.052786350250244,5.181317078858175,-0.002954708179458976,0.2722291350364685,-1.5141270796405237,-2.741466181118296e-24,-0.008604557253420353,1.0229941606521606,0.0,0.012848187237977982,1.3756582736968994,0.0006564747891388834,0.02011415734887123
143.0,180.0,-1.934,-0.4756,9.81,-0.0782,0.0289,-0.1029,-2.204125543633932,0.0,4.578125476837158,-1.3158804178237915,0.00018147160881198943,2.033458709716797,5.181277471571722,-0.0023896130733191967,0.2621914744377136,-1.5141633192645472,-1.168730017819588e-26,0.002993728034198284,1.0229506492614746,0.0,0.018483499065041542,1.3756942749023438,0.0005280165350995958,0.0299973264336586
143.0,180.0,-1.934,-0.4756,9.81,-0.0782,0.0289,-0.1029,-2.2041455707945765,0.0,4.561074733734131,-1.3158965110778809,8.98905927897431e-05,2.046459674835205,5.181262033968725,-0.002297341590747237,0.2614750862121582,-1.514083210621969,-3.25320299731312e-30,-0.012929737567901611,1.0229387283325195,0.0,0.006217868998646736,1.3757308721542358,0.0004082239465788007,-0.011449774727225304
143.0,180.0,-1.934,-0.4756,9.81,-0.0782,0.0289,-0.1029,-2.2041007481017054,-0.0009226310648955405,4.581227779388428,-1.3158965110778809,3.7643854739144444e-05,2.002152442932129,5.181281643896856,-0.003668868914246559,0.2690817713737488,-1.5141351858722132,-1.3868915814543214e-32,0.002342267893254757,1.0230025053024292,0.0,-0.0027576754800975323,1.3756459951400757,0.0002979388227686286,0.009519564919173717
143.0,180.0,-1.934,-0.4756,9.81,-0.0782,0.0289,-0.1029,-2.204125066796774,-0.0012432762887328863,4.5427398681640625,-1.3158680200576782,4.1632283398485015e-08,2.008817672729492,5.181213575392523,-0.004846722353249788,0.2594301700592041,-1.5141032377826136,-3.860463640724996e-36,0.0012889704667031765,1.0229777097702026,0.0,-5.384441465139389e-05,1.375641942024231,0.00024685950484126806,0.019898368045687675
143.0,180.0,-1.934,-0.4756,9.81,-0.0782,0.0289,-0.1029,-2.2041412792601527,-0.0011368509149178863,4.591473579406738,-1.315868616104126,7.49366367569504e-12,2.0536463260650635,5.18119769075469,-0.005005195736885071,0.2627447247505188,-1.5141356627093714,-1.6457764212927856e-38,-0.013718890957534313,1.0230060815811157,0.0,0.023088617250323296,1.37565016746521,0.00022245047148317099,0.004967713262885809
143.0,180.0,-1.934,-0.4756,9.81,-0.0782,0.0289,-0.1029,-2.204160829583639,-0.0007448158576153219,4.612383842468262,-1.3158804178237915,1.8096316287606292e-17,2.025141716003418,5.181173968106069,-0.004726105835288763,0.255088210105896,-1.5141156355487269,-4.580844679877827e-42,-0.01285145990550518,1.0229026079177856,0.0,0.017759067937731743,1.3756300210952759,0.00019371943199075758,0.008816296234726906
143.0,180.0,-1.934,-0.4756,9.81,-0.0782,0.0289,-0.1029,-2.204136987725729,-0.0005594230606220663,4.563037872314453,-1.3159451484680176,3.2572728662429494e-21,2.0854392051696777,5.181109595089712,-0.0048793889582157135,0.26004722714424133,-1.5141156355487269,-1.961817850054744e-44,-0.012626130133867264,1.0229740142822266,0.0,0.023718208074569702,1.3756382465362549,0.00017836201004683971,0.006805227138102055
143.0,180.0,-1.934,-0.4756,9.81,-0.0782,0.0289,-0.1029,-2.204121252099508,-0.00032606220338493586,4.62169075012207,-1.3159047365188599,7.865931612300947e-27,2.066880226135254,5.181069779187002,-0.0033837922383099794,0.2701224684715271,-1.5140388647662562,-0.0,-0.022303570061922073,1.0229346752166748,0.0,0.008543143048882484,1.3756542205810547,0.0001384534261887893,0.006036841310560703
143.0,180.0,-1.934,-0.4756,9.81,-0.0782,0.0289,-0.1029,-2.204205175439352,-0.0002152605156879872,4.630984306335449,-1.3159006834030151,1.4158398754524312e-30,2.0502030849456787,5.181101786881246,-0.002209892263635993,0.26752984523773193,-1.5141037146197718,-0.0,-0.02316977083683014,1.0229307413101196,0.0,0.022969000041484833,1.3756300210952759,0.00011908965825568885,0.02473677322268486
143.0,180.0,-1.934,-0.4756,9.81,-0.0782,0.0289,-0.1029,-2.204137464562887,0.00014662675675936043,4.605607986450195,-1.3158644437789917,3.419087179428602e-36,2.0592143535614014,5.181097703963079,-0.0010353440884500742,0.25571927428245544,-1.5141037146197718,-0.0,-0.01465983223170042,1.0229666233062744,0.0,0.013923190534114838,1.3756542205810547,0.00010833625856321305,0.041063010692596436
143.0,180.0,-1.934,-0.4756,9.81,-0.0782,0.0289,-0.1029,-2.204109331170553,0.00019076853641308844,4.607946395874023,-1.3158644437789917,6.154236608606375e-40,2.057922601699829,5.181121992855825,-0.000747423735447228,0.27562689781188965,-1.514083210621969,-0.0,-0.010789656080305576,1.0229740142822266,0.0,0.028533505275845528,1.3756263256072998,0.00010218595707556233,0.029675744473934174
143.0,180.0,-1.934,-0.4756,9.81,-0.0782,0.0289,-0.1029,-2.204064031640524,0.0001574748457642272,4.608647346496582,-1.3158044815063477,1.401298464324817e-45,2.027775287628174,5.181105959206381,-0.0005277966265566647,0.2627696990966797,-1.5140917936908167,-0.0,-0.01740858517587185,1.0229780673980713,0.0,0.01847744733095169,1.3756542205810547,7.157092477427796e-05,0.015171181410551071
143.0,180.0,-1.934,-0.4756,9.81,-0.0782,0.0289,-0.1029,-2.2041050396361292,0.0001880028285086155,4.594041347503662,-1.3158406019210815,-0.0,2.0622949600219727,5.1811177907283685,-0.00044140854151919484,0.2653634548187256,-1.514055077229635,-0.0,-0.010748365893959999,1.0229426622390747,0.0,0.02216072753071785,1.3756099939346313,6.71143425279297e-05,-0.019972875714302063
143.0,180.0,-1.934,-0.4756,9.81,-0.0782,0.0289,-0.1029,-2.204080720941061,0.00016158417565748096,4.54572057723999,-1.3158643245697021,-0.0,2.0386803150177,5.181073921709814,-0.0003544270293787122,0.27021852135658264,-1.5140956083880823,-0.0,-0.012036008760333061,1.022981882095337,3.130401819362305e-05,0.020765241235494614,1.3756542205810547,8.327503746841103e-05,0.03916895017027855
139.0,176.0,-2.0309,-0.0574,9.2076,-0.0298,0.0278,-0.1071,-2.204109331170553,0.0001368677185382694,4.612768650054932,-1.3158447742462158,-0.0,2.0369625091552734,5.181097733765402,-0.00036524294409900904,0.26355165243148804,-1.5141194502459925,-0.0,-0.009164828807115555,1.0229979753494263,5.380524817155674e-05,0.018989289179444313,1.3756664991378784,7.959323556860909e-05,-0.008383428677916527
139.0,176.0,-2.0309,-0.0574,9.2076,-0.0298,0.0278,-0.1071,-2.2041450939574183,0.00011144098243676126,4.591218948364258,-1.3158890008926392,-0.0,2.0633277893066406,5.181057977467336,-0.0002491074556019157,0.2700427174568176,-1.5140913168536585,-0.0,-0.013200003653764725,1.0229706764221191,6.757282244507223e-05,0.023272890597581863,1.3756705522537231,2.0511686670943163e-05,-0.00024897046387195587
139.0,176.0,-2.0309,-0.0574,9.2076,-0.0298,0.0278,-0.1071,-2.2041574917235316,4.9609359848545864e-05,4.596985340118408,-1.3158528804779053,-0.0,2.0619924068450928,5.181101786881246,-0.0003247030545026064,0.262359619140625,-1.514055077229635,-0.0,-0.017365163192152977,1.0229666233062744,7.118267240002751e-05,0.021779261529445648,1.3756543397903442,3.709950760821812e-05,-0.019981713965535164
139.0,176.0,-2.0309,-0.0574,9.2076,-0.0298,0.0278,-0.1071,-2.2041532001891078,4.465936217457056e-05,4.5926594734191895,-1.3159009218215942,-0.0,2.0420544147491455,5.181033718376913,-0.0012407335452735424,0.2781945765018463,-1.5140951315509241,-0.0,-0.020506389439105988,1.0229345560073853,7.953502790769562e-05,0.018761031329631805,1.3756821155548096,5.440915629151277e-05,0.0466538667678833
139.0,176.0,-2.0309,-0.0574,9.2076,-0.0298,0.0278,-0.1071,-2.204125066796774,1.0784709930655723e-10,4.5857133865356445,-1.315876841545105,-0.0,2.0311222076416016,5.18107836225585,-0.002197826514020562,0.26538220047950745,-1.5141075293170374,-0.0,-0.02460206300020218,1.0229148864746094,0.00037342272116802633,0.026003003120422363,1.3756582736968994,0.000785739510320127,0.016816960647702217
139.0,176.0,-2.0309,-0.0574,9.2076,-0.0298,0.0278,-0.1071,-2.204193254510397,1.941209949133261e-14,4.620385646820068,-1.3158560991287231,-0.0,2.077235221862793,5.181030052691259,-0.0026855445466935635,0.2682171165943146,-1.5140917936908167,-0.0,-0.009683120995759964,1.022977590560913,0.00038346537621691823,0.022947002202272415,1.375690221786499,0.0016442667692899704,0.11900896579027176
139.0,176.0,-2.0309,-0.0574,9.2076,-0.0298,0.0278,-0.1071,-2.2041412792601527,4.6877937669339703e-20,4.594848155975342,-1.3158447742462158,-0.0,2.035825729370117,5.181022274285116,-0.0024999724701046944,0.25186875462532043,-1.5140674749957483,-0.0,-0.014827044680714607,1.022965908050537,0.00034345724270679057,0.032162971794605255,1.3756980895996094,0.0025027235969901085,0.03532906994223595
139.0,176.0,-2.0309,-0.0574,9.2076,-0.0298,0.0278,-0.1071,-2.204121252099508,8.437863712662015e-24,4.601797103881836,-1.3158643245697021,-0.0,2.008131504058838,5.181010025530615,-0.002272164449095726,0.2691294550895691,-1.5141237417804163,-0.0,-0.014582142233848572,1.023021936416626,0.000331475748680532,0.04089812561869621,1.3757582902908325,0.0024568738881498575,-0.010677752085030079
139.0,176.0,-2.0309,-0.0574,9.2076,-0.0298,0.0278,-0.1071,-2.2041532001891078,2.0376447145176327e-29,4.592937469482422,-1.3158241510391235,-0.0,2.0385961532592773,5.180994021683492,-0.0017188176279887557,0.2727094292640686,-1.514083210621969,-0.0,-0.018676182255148888,1.0229735374450684,0.00032179817208088934,0.02149796113371849,1.375806212425232,0.003318805480375886,0.03482748568058014
139.0,176.0,-2.0309,-0.0574,9.2076,-0.0298,0.0278,-0.1071,-2.204161306420797,3.667688944017405e-33,4.610383033752441,-1.315876841545105,-0.0,2.079939365386963,5.180985736637869,-0.0013853913405910134,0.2607317268848419,-1.514151398335592,-0.0,-0.009427273645997047,1.0229780673980713,0.0002999671269208193,0.0326821468770504,1.375781774520874,0.0032881521619856358,-0.014700391329824924
139.0,176.0,-2.0309,-0.0574,9.2076,-0.0298,0.0278,-0.1071,-2.204161306420797,8.857037264522189e-39,4.5454511642456055,-1.3158570528030396,0.00018805112631525844,2.0514864921569824,5.180966067105093,-0.0008828932186588645,0.2674797773361206,-1.514111344014303,-0.0,-0.005707922857254744,1.0229185819625854,0.0002666535438038409,0.031393133103847504,1.3758423328399658,0.0037618514616042376,0.047472696751356125
139.0,176.0,-2.0309,-0.0574,9.2076,-0.0298,0.0278,-0.1071,-2.2041574917235316,1.5946776524016418e-42,4.551578521728516,-1.3158323764801025,0.0011911801993846893,2.0480568408966064,5.180966096907415,-0.0006305190036073327,0.28202810883522034,-1.5140875021563929,-0.0,-0.014221973717212677,1.0229899883270264,0.0002375993790337816,0.03079972043633461,1.3758018016815186,0.004146237391978502,-0.006859944202005863
139.0,176.0,-2.0309,-0.0574,9.2076,-0.0298,0.0278,-0.1071,-2.2041331730284632,0.0,4.615856647491455,-1.3158084154129028,0.0014203963801264763,2.0381650924682617,5.180985826044836,-0.0005322024808265269,0.25958991050720215,-1.514055077229635,-0.0,-0.016282327473163605,1.0229859352111816,0.0002047709422186017,0.02386108785867691,1.375821828842163,0.004410695284605026,-0.0030953153036534786
139.0,176.0,-2.0309,-0.0574,9.2076,-0.0298,0.0278,-0.1071,-2.2041532001891078,0.0,4.601405620574951,-1.3158528804779053,0.0016408480005338788,2.0758416652679443,5.180958020478048,-0.0004446542006917298,0.27903908491134644,-1.5140751043902796,-0.0,-0.01361713744699955,1.0229699611663818,0.0001876856986200437,0.03719063475728035,1.3758500814437866,0.0038245937321335077,0.01668902486562729
139.0,176.0,-2.0309,-0.0574,9.2076,-0.0298,0.0278,-0.1071,-2.204161306420797,0.0,4.629669189453125,-1.315780520439148,0.001959150191396475,2.0579581260681152,5.180990326195516,-0.00041379270260222256,0.26843732595443726,-1.5140875021563929,-0.0,-0.020109789445996284,1.0229780673980713,0.00016680934641044587,0.03355434536933899,1.3758697509765625,0.003441394306719303,0.057903602719306946
139.0,176.0,-2.0309,-0.0574,9.2076,-0.0298,0.0278,-0.1071,-2.2041131458678187,0.0,4.568289756774902,-1.3157200813293457,0.002266327850520611,2.069324493408203,5.1809861836727045,-0.00036732558510266244,0.2698654234409332,-1.514071289693014,-0.0,-0.025198834016919136,1.0230096578598022,0.00015529459051322192,0.03620384633541107,1.375841498374939,0.0030078659765422344,0.0036147497594356537
139.0,176.0,-2.0309,-0.0574,9.2076,-0.0298,0.0278,-0.1071,-2.2041574917235316,0.0,4.615099906921387,-1.3157562017440796,0.0028013233095407486,2.0234084129333496,5.18103044012145,-0.00035423869849182665,0.26217299699783325,-1.5140913168536585,-0.0,-0.014888312667608261,1.022981882095337,0.00014072372869122773,0.038923658430576324,1.3758974075317383,0.003083513816818595,0.013619889505207539
139.0,176.0,-2.0309,-0.0574,9.2076,-0.0298,0.0278,-0.1071,-2.2041694126524867,0.0,4.575006484985352,-1.3157684803009033,0.0031135370954871178,2.0854363441467285,5.18099399188117,-0.0003250539302825928,0.27409034967422485,-1.5140951315509241,-0.0,0.002980068325996399,1.023005485534668,0.0001324396434938535,0.0323321670293808,1.3759498596191406,0.002806197851896286,-0.05249195545911789
145.0,167.0,-1.8425,-0.0036,9.3033,-0.0296,0.029,-0.1127,-2.2041532001891078,0.0,4.570107936859131,-1.3157607316970825,0.004254036117345095,2.0629048347473145,5.180982100754537,-0.00021904960158281028,0.2623598277568817,-1.5141313711749476,-0.0,-0.015943240374326706,1.0230259895324707,0.00014592292427551,0.03551565110683441,1.3759737014770508,0.003000076860189438,-0.03237195312976837
145.0,167.0,-1.8425,-0.0036,9.3033,-0.0296,0.029,-0.1127,-2.2041694126524867,0.0,4.562447547912598,-1.3157328367233276,0.004406351130455732,2.1114416122436523,5.1809579012687585,-0.00023927720030769706,0.2659088373184204,-1.5141070524798792,-0.0,-0.016926104202866554,1.0229699611663818,0.000138538729515858,0.035809580236673355,1.3759534358978271,0.0030720026697963476,0.04595694690942764
145.0,167.0,-1.8425,-0.0036,9.3033,-0.0296,0.029,-0.1127,-2.2041455707945765,0.0,4.574915885925293,-1.3157002925872803,0.005273232236504555,2.1032674312591553,5.180990326195516,-0.00021136715076863766,0.25986790657043457,-1.514099423085348,-0.0,-0.013604806736111641,1.0229936838150024,0.00012863773736171424,0.03902021050453186,1.3759534358978271,0.002704610815271735,-0.017076900228857994
145.0,167.0,-1.8425,-0.0036,9.3033,-0.0296,0.029,-0.1127,-2.2041532001891078,0.0,4.553503513336182,-1.3156276941299438,0.006188228726387024,2.096069097518921,5.180970179825582,-0.00022755820828024298,0.25237947702407837,-1.5141399542437952,-0.0,-0.01778688281774521,1.0230059623718262,0.00012278744543436915,0.04182596132159233,1.375969409942627,0.002691643312573433,-0.032140813767910004
145.0,167.0,-1.8425,-0.0036,9.3033,-0.0296,0.029,-0.1127,-2.2041574917235316,0.0,4.556823253631592,-1.315619945526123,0.006969825830310583,2.09293794631958,5.1810063300426386,-0.00021320355881471187,0.26725292205810547,-1.514083210621969,-0.0,-0.010220615193247795,1.0229740142822266,0.00011744613584596664,0.03519205003976822,1.3759251832962036,0.002528401790186763,-0.010079188272356987
145.0,167.0,-1.8425,-0.0036,9.3033,-0.0296,0.029,-0.1127,-2.204161306420797,0.0,4.582839012145996,-1.3156158924102783,0.008274398744106293,2.0735867023468018,5.181010025530615,-0.00019355516997165978,0.27672287821769714,-1.514127556477682,-0.0,-0.022537309676408768,1.0230178833007812,0.00011025222192984074,0.03150605410337448,1.3759816884994507,0.0019140104996040463,-0.030283045023679733
145.0,167.0,-1.8425,-0.0036,9.3033,-0.0296,0.029,-0.1127,-2.204165121118063,0.0,4.567052364349365,-1.3155152797698975,0.008709813468158245,2.102097988128662,5.180953848152914,-0.00018234927847515792,0.2653248906135559,-1.5141037146197718,-0.0,-0.025195041671395302,1.0229978561401367,0.0001059265632648021,0.03128998354077339,1.3759653568267822,0.0015758415684103966,-0.020897140726447105
145.0,167.0,-1.8425,-0.0036,9.3033,-0.0296,0.029,-0.1127,-2.2041532001891078,0.0,4.547162055969238,-1.3155039548873901,0.010248705744743347,2.089536190032959,5.180941629200735,-0.00017953656788449734,0.2723546624183655,-1.5141432921039026,-0.0,-0.015892067924141884,1.023002028465271,0.00010003924398915842,0.04240339994430542,1.3760054111480713,0.0012297581415623426,-0.03433609753847122
145.0,167.0,-1.8425,-0.0036,9.3033,-0.0296,0.029,-0.1127,-2.2041455707945765,0.0,4.569101333618164,-1.3154759407043457,0.010833200067281723,2.125837564468384,5.180994021683492,-0.00018199862097389996,0.2677108645439148,-1.514111344014303,-0.0,-0.008053283207118511,1.0229544639587402,9.646505350247025e-05,0.04158003628253937,1.3760215044021606,0.0009827592875808477,-0.006810788996517658
145.0,167.0,-1.8425,-0.0036,9.3033,-0.0296,0.029,-0.1127,-2.2041331730284632,0.0,4.584578990936279,-1.315367341041565,0.012972705066204071,2.134631633758545,5.1809661267097376,-0.00018117263971362263,0.27466171979904175,-1.5141037146197718,-0.0,-0.02829054184257984,1.023021936416626,9.15581185836345e-05,0.018786374479532242,1.37602961063385,0.0009858232224360108,-0.02087503671646118
145.0,167.0,-1.8425,-0.0036,9.3033,-0.0296,0.029,-0.1127,-2.204121252099508,0.0,4.566263198852539,-1.3152910470962524,0.014266833662986755,2.099799156188965,5.180926012783804,-0.00020110374316573143,0.27419885993003845,-1.514083210621969,-0.0,-0.00724403141066432,1.022977590560913,0.0001023345539579168,0.031603243201971054,1.375944972038269,0.000971259898506105,-0.013292301446199417
145.0,167.0,-1.8425,-0.0036,9.3033,-0.0296,0.029,-0.1127,-2.2041732273497523,0.0,4.606509208679199,-1.3152351379394531,0.01607571914792061,2.0837795734405518,5.1809337613876245,-0.0007972786552272737,0.267013818025589,-1.514151398335592,-0.0,-0.021604999899864197,1.023021936416626,9.846962348092347e-05,0.03594645857810974,1.3760173320770264,0.0009555441210977733,-0.06695926189422607
145.0,167.0,-1.8425,-0.0036,9.3033,-0.0296,0.029,-0.1127,-2.2041532001891078,0.0,4.5365190505981445,-1.3151270151138306,0.018129710108041763,2.113140344619751,5.180970179825582,-0.000947305466979742,0.2674750089645386,-1.5141032377826136,-0.0,-0.02122209593653679,1.0230262279510498,9.54849092522636e-05,0.028978554531931877,1.376060962677002,0.0009443497401662171,-0.060029711574316025
145.0,167.0,-1.8425,-0.0036,9.3033,-0.0296,0.029,-0.1127,-2.2041813335814417,0.0,4.6053853034973145,-1.315086841583252,0.020482568070292473,2.1024818420410156,5.180905926018514,-0.0019441412296146154,0.2638106346130371,-1.5141313711749476,-0.0,-0.01948067545890808,1.022977590560913,9.133210551226512e-05,0.04156328737735748,1.3760772943496704,0.0010866974480450153,-0.039583876729011536
145.0,167.0,-1.8425,-0.0036,9.3033,-0.0296,0.029,-0.1127,-2.204165121118063,0.0,4.550037384033203,-1.3150357007980347,0.023158473894000053,2.1435282230377197,5.18086205699996,-0.0023205422330647707,0.26768481731414795,-1.5140751043902796,-0.0,-0.017188282683491707,1.0229895114898682,8.875863568391651e-05,0.015584141947329044,1.376001000404358,0.0010501411743462086,-0.01966860145330429
145.0,167.0,-1.8425,-0.0036,9.3033,-0.0296,0.029,-0.1127,-2.204177518884176,0.0,4.607876300811768,-1.3147944211959839,0.026718923822045326,2.147292137145996,5.180890339403906,-0.0033028554171323776,0.27790313959121704,-1.5141432921039026,-0.0,-0.019988052546977997,1.0229699611663818,8.515924855601043e-05,0.0369686484336853,1.3760251998901367,0.0008045987924560905,0.01882091350853443
145.0,167.0,-1.8425,-0.0036,9.3033,-0.0296,0.029,-0.1127,-2.2041169605650843,0.0,4.548592567443848,-1.3147187232971191,0.027238257229328156,2.114675760269165,5.180826324015417,-0.004310816992074251,0.2623245120048523,-1.5140951315509241,-0.0,-0.008148236200213432,1.0229899883270264,8.291758422274143e-05,0.041132841259241104,1.3760772943496704,0.0007316170376725495,-0.0015345136635005474
145.0,167.0,-1.8425,-0.0036,9.3033,-0.0296,0.029,-0.1127,-2.2042094669737757,0.0,4.511617660522461,-1.3144779205322266,0.030148746445775032,2.1151175498962402,5.180834489851751,-0.005564348306506872,0.2599239945411682,-1.5141037146197718,-0.0,-0.021648559719324112,1.0229740142822266,9.115058492170647e-05,0.041641268879175186,1.3760050535202026,0.0004905633977614343,0.01956138014793396
140.0,166.0,-2.0106,-0.1675,9.6467,-0.0264,0.0341,-0.1074,-2.204160829583639,0.0,4.540060520172119,-1.314361333847046,0.032793816179037094,2.109767198562622,5.180814492493429,-0.006045679096132517,0.26086312532424927,-1.5141070524798792,-0.0,-0.007596908137202263,1.0230345726013184,8.891188917914405e-05,0.05458112061023712,1.3760490417480469,0.0003964192292187363,-0.031069636344909668
140.0,166.0,-2.0106,-0.1675,9.6467,-0.0264,0.0341,-0.1074,-2.204148908654684,0.0,4.553988933563232,-1.3141371011734009,0.03254004567861557,2.113393783569336,5.180722164898672,-0.005556876305490732,0.25082382559776306,-1.514083210621969,-0.0,-0.011398598551750183,1.022977590560913,8.573569357395172e-05,0.02891474962234497,1.3760732412338257,0.00037612507003359497,-0.07202742993831635
140.0,166.0,-2.0106,-0.1675,9.6467,-0.0264,0.0341,-0.1074,-2.204189439813131,0.0,4.573317527770996,-1.3140252828598022,0.0326203778386116,2.1513514518737793,5.180770653277197,-0.004947020206600428,0.25759825110435486,-1.5141194502459925,-0.0,0.0027614696882665157,1.0230178833007812,8.374136086786166e-05,0.04370611533522606,1.3760210275650024,0.00036614129203371704,-0.11951480805873871
140.0,166.0,-2.0106,-0.1675,9.6467,-0.0264,0.0341,-0.1074,-2.2041408024229945,0.0,4.546139240264893,-1.3138165473937988,0.032676275819540024,2.118795394897461,5.180710422783651,-0.0040448508225381374,0.2568358778953552,-1.5141351858722132,-0.0,-0.012170853093266487,1.0230345726013184,8.091795461950824e-05,0.037016987800598145,1.3760892152786255,0.0003717918007168919,-0.07960833609104156
140.0,166.0,-2.0106,-0.1675,9.6467,-0.0264,0.0341,-0.1074,-2.2042094669737757,0.0,4.5346221923828125,-1.313725233078003,0.03156159818172455,2.152146339416504,5.18072276094512,-0.0032028313726186752,0.2604440450668335,-1.514083210621969,-0.0,-0.003675210289657116,1.023013949394226,2.0333745851530693e-05,0.04139000177383423,1.3760569095611572,0.0004259512643329799,-0.052963003516197205
140.0,166.0,-2.0106,-0.1675,9.6467,-0.0264,0.0341,-0.1074,-2.2041331730284632,0.0,4.5082526206970215,-1.3134757280349731,0.029512226581573486,2.071073532104492,5.18071864822463,-0.0027227248065173626,0.25183045864105225,-1.5141475836383265,-0.0,-0.008358921855688095,1.0229616165161133,5.65997160251186e-09,0.03723897412419319,1.3760251998901367,0.0012328567681834102,-0.0490337572991848
140.0,166.0,-2.0106,-0.1675,9.6467,-0.0264,0.0341,-0.1074,-2.2041532001891078,0.0,4.490055084228516,-1.3133556842803955,0.02819063887000084,2.16963529586792,5.180682676821508,-0.0025167837738990784,0.2458810806274414,-1.514151398335592,-0.0,-0.016999924555420876,1.0229899883270264,2.4129349560086943e-11,0.039240509271621704,1.3760690689086914,0.0016708903713151813,-0.06319081038236618
140.0,166.0,-2.0106,-0.1675,9.6467,-0.0264,0.0341,-0.1074,-2.204161306420797,0.0,4.5038065910339355,-1.3132996559143066,0.027153009548783302,2.111703872680664,5.1806547222431085,-0.0027526759076863527,0.25726497173309326,-1.5141475836383265,-0.0,-0.0027846344746649265,1.0229698419570923,1.0286719799535923e-13,0.030135788023471832,1.3760850429534912,0.0020904901903122663,-0.09269175678491592
140.0,166.0,-2.0106,-0.1675,9.6467,-0.0264,0.0341,-0.1074,-2.204217573205465,0.0,4.495416164398193,-1.3131359815597534,0.02582094632089138,2.162113666534424,5.180650967150488,-0.003671596758067608,0.250774085521698,-1.5141313711749476,-0.0,-0.03031143732368946,1.0230098962783813,5.4371652367990464e-05,0.037957753986120224,1.3761006593704224,0.002753377892076969,-0.023979460820555687
140.0,166.0,-2.0106,-0.1675,9.6467,-0.0264,0.0341,-0.1074,-2.204160829583639,0.0,4.4955596923828125,-1.3130394220352173,0.02417452447116375,2.116621732711792,5.18059070685462,-0.00404695700854063,0.24876141548156738,-1.514111344014303,-0.0,-0.011124566197395325,1.0230300426483154,5.30992001586128e-05,0.035431310534477234,1.3761571645736694,0.003443341702222824,-0.0287130456417799
140.0,166.0,-2.0106,-0.1675,9.6467,-0.0264,0.0341,-0.1074,-2.2041403255858363,-0.00010168890003114939,4.501119613647461,-1.3128750324249268,0.022250307723879814,2.1353533267974854,5.180598962097921,-0.005225410684943199,0.24596592783927917,-1.514123264943258,-0.0,-0.020197628065943718,1.0229774713516235,5.128383054398e-05,0.05169791728258133,1.376128911972046,0.0046093338169157505,-0.041422780603170395
140.0,166.0,-2.0106,-0.1675,9.6467,-0.0264,0.0341,-0.1074,-2.2042018375792445,-0.00011847415589727461,4.496935844421387,-1.3128478527069092,0.020616263151168823,2.088693618774414,5.180575120240011,-0.006289941258728504,0.24317148327827454,-1.5141270796405237,-0.0,-0.0011530816555023193,1.023013710975647,5.50858567294199e-05,0.04495656490325928,1.376112461090088,0.004968089051544666,-0.017352856695652008
140.0,166.0,-2.0106,-0.1675,9.6467,-0.0264,0.0341,-0.1074,-2.2041813335814417,-0.00014986516907811165,4.493051052093506,-1.31269109249115,0.018327318131923676,2.115671396255493,5.1805070517356775,-0.007967467419803143,0.25124967098236084,-1.5141151587115687,-0.0,-0.01301553100347519,1.0230095386505127,1.271723562012994e-07,0.02949327416718006,1.3761928081512451,0.004844987764954567,-0.03229493275284767
140.0,166.0,-2.0106,-0.1675,9.6467,-0.0264,0.0341,-0.1074,-2.2041241131224574,-0.0005750386044383049,4.4900407791137695,-1.3126232624053955,0.017281392589211464,2.131970167160034,5.180471527367391,-0.009450558573007584,0.23854121565818787,-1.5140951315509241,-0.0,-0.0018857114482671022,1.022993564605713,5.421557092155638e-10,0.03614728897809982,1.3761686086654663,0.00475804740563035,-0.04805079847574234
140.0,166.0,-2.0106,-0.1675,9.6467,-0.0264,0.0341,-0.1074,-2.204184671441549,-0.0005111498758196831,4.523019313812256,-1.3125715255737305,0.015493872575461864,2.145885944366455,5.180395233422079,-0.010660788044333458,0.2443442940711975,-1.514111344014303,-0.0,-0.014851689338684082,1.022985816001892,1.5091103551263113e-13,0.03812556341290474,1.3762929439544678,0.0039187208749353886,-0.019368387758731842
140.0,166.0,-2.0106,-0.1675,9.6467,-0.0264,0.0341,-0.1074,-2.2042013607420863,-0.0005013744812458754,4.512683868408203,-1.3124585151672363,0.01498749665915966,2.1839652061462402,5.180375593691625,-0.010348707437515259,0.23943695425987244,-1.514127556477682,-0.0,-0.01731940731406212,1.023086667060852,6.433574694003402e-16,0.04406676068902016,1.3762245178222656,0.003749529365450144,-0.020352017134428024
140.0,166.0,-2.0106,-0.1675,9.6467,-0.0264,0.0341,-0.1074,-2.204177042047018,-0.0004047327965963632,4.501873016357422,-1.3123911619186401,0.01415439322590828,2.1011383533477783,5.180307584791937,-0.010057543404400349,0.23849749565124512,-1.5141351858722132,-0.0,-0.02272661030292511,1.0230340957641602,1.79080880304974e-19,0.030894290655851364,1.3762201070785522,0.0033510427456349134,-0.020695218816399574
140.0,166.0,-2.0106,-0.1675,9.6467,-0.0264,0.0341,-0.1074,-2.2041570148863734,-0.000358644756488502,4.521616458892822,-1.31230628490448,0.01360655203461647,2.128990888595581,5.180255490332403,-0.008823782205581665,0.22696349024772644,-1.5141714254962366,-4.2450130877114134e-07,-0.009904072619974613,1.0230419635772705,7.634498400629939e-22,0.04782852530479431,1.376272439956665,0.003166631795465946,0.0004945900291204453
132.0,182.0,-1.8909,-0.3362,9.3966,-0.0409,0.0302,-0.1109,-2.204188962975973,-0.00030632325797341764,4.5087995529174805,-1.3122544288635254,0.012694236822426319,2.1225333213806152,5.180251824646749,-0.006557418964803219,0.23422899842262268,-1.5141475836383265,-1.1816150835564088e-10,-0.01505851000547409,1.0230262279510498,2.12509069889999e-25,0.025466760620474815,1.3762965202331543,0.003181151580065489,-0.04505571350455284
132.0,182.0,-1.8909,-0.3362,9.3966,-0.0409,0.0302,-0.1109,-2.2041970692076625,-0.00027917296392843127,4.496976852416992,-1.312186598777771,0.01259696576744318,2.125617504119873,5.180223661452093,-0.0044476925395429134,0.23861819505691528,-1.5141351858722132,-5.037410375982598e-13,-0.01125337090343237,1.0230381488800049,9.059595643626946e-28,0.05256957560777664,1.3763489723205566,0.003101962385699153,-0.0016151671297848225
132.0,182.0,-1.8909,-0.3362,9.3966,-0.0409,0.0302,-0.1109,-2.2042094669737757,-0.00024641319760121405,4.504359245300293,-1.312077283859253,0.012517884373664856,2.1681108474731445,5.180216061859884,-0.0021217605099081993,0.24683243036270142,-1.5141156355487269,-1.402181649607219e-16,-0.008766284212470055,1.0230464935302734,0.00011009485024260357,0.04476447403430939,1.3763607740402222,0.0032748791854828596,-0.010270169004797935
132.0,182.0,-1.8909,-0.3362,9.3966,-0.0409,0.0302,-0.1109,-2.204160829583639,-0.00022853475820738822,4.503093242645264,-1.3120622634887695,0.01255395170301199,2.125455379486084,5.180216061859884,-0.001249623717740178,0.2334170639514923,-1.5141356627093714,-5.977719441300078e-19,-0.018994741141796112,1.0229859352111816,0.00012968224473297596,0.04405488818883896,1.376304268836975,0.003053314285352826,-0.01897173561155796
