ramyac6/ROB537/final_project/csv/bad/bad_70.csv
tof_0,tof_1,accelx,accely,accelz,gyrox,gyroy,gyroz,shoulder_lift_joint_position,shoulder_lift_joint_velocity,shoulder_lift_joint_effort,elbow_joint_position,elbow_joint_velocity,elbow_joint_effort,wrist_1_joint_position,wrist_1_joint_velocity,wrist_1_joint_effort,wrist_2_joint_position,wrist_2_joint_velocity,wrist_2_joint_effort,wrist_3_joint_position,wrist_3_joint_velocity,wrist_3_joint_effort,shoulder_pan_joint_position,shoulder_pan_joint_velocity,shoulder_pan_joint_effort
658.0,570.0,-3.4373,-0.0126,9.2112,-0.0318,0.0312,-0.1197,-2.1470071278014125,0.0,4.10221004486084,-1.6561449766159058,-0.0,1.7064952850341797,5.6166008589561365,-0.0,0.23495596647262573,-1.5140870253192347,0.0,-0.007029533851891756,0.9542701840400696,-0.0,0.003240292426198721,1.1079915761947632,0.0,0.004333647899329662
658.0,570.0,-3.4373,-0.0126,9.2112,-0.0318,0.0312,-0.1197,-2.1470395527281703,0.0,4.102509021759033,-1.6562124490737915,-0.0,1.7337994575500488,5.616512703686514,-0.0,0.24212345480918884,-1.5141037146197718,0.0,-0.015155652537941933,0.9542660713195801,-0.0,-0.008170604705810547,1.1080361604690552,0.0,-0.005088485311716795
658.0,570.0,-3.4373,-0.0126,9.2112,-0.0318,0.0312,-0.1197,-2.1470195255675257,0.0,4.0923919677734375,-1.6562209129333496,-0.0,1.746700644493103,5.616572844773092,-0.0,0.2517370283603668,-1.5141313711749476,0.0,-0.014267930760979652,0.9542341232299805,-0.0,-0.0008882677648216486,1.1079673767089844,0.0,0.015030182898044586
658.0,570.0,-3.4373,-0.0126,9.2112,-0.0318,0.0312,-0.1197,-2.1470471821227015,0.0,4.079041957855225,-1.6561572551727295,-0.0,1.7686851024627686,5.616512703686514,-0.0,0.2421506643295288,-1.5140875021563929,0.0,-0.02197224646806717,0.954230010509491,-0.0,0.007387455087155104,1.1080116033554077,0.0,0.00929927546530962
658.0,570.0,-3.4373,-0.0126,9.2112,-0.0318,0.0312,-0.1197,-2.1469866238036097,0.0,4.099379539489746,-1.6562049388885498,-0.0,1.7880178689956665,5.616580712586202,-0.0,0.2417239248752594,-1.514127556477682,0.0,-0.016269538551568985,0.9543221592903137,-0.0,0.006357744336128235,1.108003854751587,0.0,0.007119705434888601
658.0,570.0,-3.4373,-0.0126,9.2112,-0.0318,0.0312,-0.1197,-2.1470195255675257,0.0,4.128655910491943,-1.656229019165039,-0.0,1.7073495388031006,5.616584765702047,-0.0,0.2360333800315857,-1.5141156355487269,0.0,-0.014384279027581215,0.9542378783226013,-0.0,-0.002364772604778409,1.108015775680542,0.0,0.007700575049966574
658.0,570.0,-3.4373,-0.0126,9.2112,-0.0318,0.0312,-0.1197,-2.1470195255675257,0.0,4.094671249389648,-1.6562414169311523,-0.0,1.770066499710083,5.616588580399313,-0.0,0.23958291113376617,-1.5140631834613245,0.0,-0.012912549078464508,0.9542015194892883,-0.0,-0.008378565311431885,1.108015775680542,0.0,-0.03492100164294243
658.0,570.0,-3.4373,-0.0126,9.2112,-0.0318,0.0312,-0.1197,-2.146994730035299,0.0,4.126089572906494,-1.6562049388885498,-0.0,1.7680983543395996,5.616516816407003,-0.0,0.24425062537193298,-1.514055077229635,0.0,-0.0154163409024477,0.9542460441589355,-0.0,0.0030666827224195004,1.107987880706787,0.0,-0.034207411110401154
658.0,570.0,-3.4373,-0.0126,9.2112,-0.0318,0.0312,-0.1197,-2.1470352611937464,0.0,4.109048366546631,-1.6561970710754395,-0.0,1.7441256046295166,5.616596686631002,-0.0,0.22665685415267944,-1.5140870253192347,0.0,-0.010471558198332787,0.9542582035064697,-0.0,0.0026402343064546585,1.1080116033554077,0.0,-0.02942107990384102
658.0,570.0,-3.4373,-0.0126,9.2112,-0.0318,0.0312,-0.1197,-2.1469866238036097,0.0,4.074578285217285,-1.6561528444290161,-0.0,1.7147102355957031,5.616556632309713,-0.0,0.24852320551872253,-1.514083210621969,0.0,-0.002720179967582226,0.9543182253837585,-0.0,-0.0019300486892461777,1.1079996824264526,0.0,0.00038026459515094757
658.0,570.0,-3.4373,-0.0126,9.2112,-0.0318,0.0312,-0.1197,-2.1470071278014125,0.0,4.126141548156738,-1.6562124490737915,-0.0,1.7300314903259277,5.6165926335151575,-0.0,0.24929121136665344,-1.514099423085348,0.0,-0.018620168790221214,0.9542341232299805,-0.0,0.0009107081568799913,1.1080480813980103,0.0,0.05624888092279434
685.0,581.0,-3.4319,-0.0179,9.195,-0.0255,0.0249,-0.1176,-2.146998544732565,0.0,4.096834182739258,-1.6561931371688843,-0.0,1.7452809810638428,5.6165926335151575,-3.677119764233794e-08,0.22907665371894836,-1.5140755812274378,0.0,-0.013720573857426643,0.9542579650878906,-0.0,-0.004002744797617197,1.1080116033554077,0.0,0.05583516135811806
685.0,581.0,-3.4319,-0.0179,9.195,-0.0255,0.0249,-0.1176,-2.1470195255675257,0.0,4.06964635848999,-1.6561329364776611,-0.0,1.7557976245880127,5.616580712586202,-1.567613677755375e-10,0.2526390850543976,-1.5140956083880823,0.0,-0.017435869202017784,0.9542419910430908,-0.0,0.01537325605750084,1.108007550239563,0.0,-0.03890913724899292
685.0,581.0,-3.4319,-0.0179,9.195,-0.0255,0.0249,-0.1176,-2.1470071278014125,0.0,4.052946090698242,-1.6562329530715942,-0.0,1.740906000137329,5.616564738541403,-6.682982617821354e-13,0.242739737033844,-1.5141156355487269,0.0,-0.01737527921795845,0.9542624354362488,-0.0,0.018576722592115402,1.107967495918274,0.0,0.017077434808015823
685.0,581.0,-3.4319,-0.0179,9.195,-0.0255,0.0249,-0.1176,-2.1470195255675257,0.0,4.078278064727783,-1.6561886072158813,-0.0,1.7965877056121826,5.616588938027181,-2.8490605396267778e-15,0.2475007176399231,-1.5141237417804163,0.0,-0.017404332756996155,0.9541933536529541,-0.0,-0.0015616463497281075,1.1080321073532104,0.0,0.026815097779035568
685.0,581.0,-3.4319,-0.0179,9.195,-0.0255,0.0249,-0.1176,-2.146966596642965,0.0,4.06892204284668,-1.6561970710754395,-0.0,1.7291685342788696,5.616584825306692,-7.930464358893559e-19,0.23752525448799133,-1.5140674749957483,0.0,-0.019525831565260887,0.9542980790138245,-0.0,0.004423114936798811,1.1080279350280762,0.0,-0.002239452674984932
685.0,581.0,-3.4319,-0.0179,9.195,-0.0255,0.0249,-0.1176,-2.1469904385008753,0.0,4.1016693115234375,-1.6561846733093262,-0.0,1.751702070236206,5.616568791657247,-3.3808814378570747e-21,0.23478242754936218,-1.5141037146197718,0.0,-0.018490243703126907,0.9543021321296692,-0.0,0.0012212193105369806,1.10806405544281,0.0,-0.07674300670623779
685.0,581.0,-3.4319,-0.0179,9.195,-0.0255,0.0249,-0.1176,-2.146994730035299,0.0,4.092810153961182,-1.6562163829803467,-0.0,1.720931887626648,5.616588878422537,-1.4413227112195173e-23,0.23144856095314026,-1.5141194502459925,0.0,-0.010751304216682911,0.954230010509491,-0.0,0.0028882084880024195,1.1079756021499634,0.0,0.026810411363840103
685.0,581.0,-3.4319,-0.0179,9.195,-0.0255,0.0249,-0.1176,-2.1470195255675257,0.0,4.091823577880859,-1.6562368869781494,-0.0,1.767125129699707,5.616564798146047,-6.14458550218619e-26,0.23899723589420319,-1.5141194502459925,0.0,-0.01082465797662735,0.9542261958122253,-0.0,-0.0014791414141654968,1.1080402135849,0.0,-0.02992379479110241
685.0,581.0,-3.4319,-0.0179,9.195,-0.0255,0.0249,-0.1176,-2.147015234033102,0.0,4.090043067932129,-1.6562494039535522,-0.0,1.7284867763519287,5.616572904377737,-2.6195331508526397e-28,0.2425711750984192,-1.5141313711749476,0.0,-0.025869587436318398,0.9541892409324646,-0.0,0.0057166689075529575,1.108024001121521,0.0,0.00804898701608181
685.0,581.0,-3.4319,-0.0179,9.195,-0.0255,0.0249,-0.1176,-2.1470352611937464,0.0,4.098043441772461,-1.6562453508377075,-0.0,1.7233502864837646,5.616564738541403,-7.291567360516458e-32,0.2378135770559311,-1.5140674749957483,0.0,-0.016946125775575638,0.9541974067687988,-0.0,0.0015384978614747524,1.1079915761947632,0.0,0.02464207261800766
685.0,581.0,-3.4319,-0.0179,9.195,-0.0255,0.0249,-0.1176,-2.1470514736571253,0.0,4.072335243225098,-1.6562165021896362,-0.0,1.7559916973114014,5.616584586888113,-3.108509862915593e-34,0.23758965730667114,-1.5140917936908167,0.0,-0.0014652716927230358,0.9542140364646912,-0.0,0.010390989482402802,1.1079837083816528,0.0,0.056691523641347885
685.0,581.0,-3.4319,-0.0179,9.195,-0.0255,0.0249,-0.1176,-2.1470233402647914,0.0,4.118051052093506,-1.6561408042907715,-0.0,1.7901475429534912,5.616596746235647,-1.3252062985745977e-36,0.2402750700712204,-1.5141037146197718,0.0,-0.005391523241996765,0.9542701840400696,-0.0,0.013355372473597527,1.1080116033554077,0.0,-0.003982691094279289
685.0,581.0,-3.4319,-0.0179,9.195,-0.0255,0.0249,-0.1176,-2.1470028362669886,0.0,4.053104400634766,-1.656233310699463,-0.0,1.7276191711425781,5.616596746235647,-5.6495617692767206e-39,0.24111482501029968,-1.5140875021563929,0.0,-0.02169780619442463,0.9542259573936462,-0.0,-0.005704987328499556,1.1080361604690552,0.0,-0.018999582156538963
685.0,581.0,-3.4319,-0.0179,9.195,-0.0255,0.0249,-0.1176,-2.1470352611937464,0.0,4.098774433135986,-1.6561970710754395,-0.0,1.7355854511260986,5.616544651776113,-2.4085518004814956e-41,0.23528966307640076,-1.5140631834613245,0.0,-0.011146839708089828,0.9542341232299805,-0.0,-0.005206112749874592,1.1079998016357422,0.0,-0.003777852049097419
685.0,581.0,-3.4319,-0.0179,9.195,-0.0255,0.0249,-0.1176,-2.14709534267568,0.0,4.0881571769714355,-1.6562124490737915,-0.0,1.731618881225586,5.616548764496603,-7.006492321624085e-45,0.24407821893692017,-1.514083210621969,0.0,-0.022883955389261246,0.9542262554168701,-0.0,0.002716099377721548,1.108052134513855,0.0,-0.0016841907054185867
685.0,581.0,-3.4319,-0.0179,9.195,-0.0255,0.0249,-0.1176,-2.1470028362669886,0.0,4.142851829528809,-1.656180739402771,-0.0,1.7514936923980713,5.616612720280447,-0.0,0.2328552007675171,-1.514083210621969,0.0,-0.010759423486888409,0.9542861580848694,-0.0,-0.00037046161014586687,1.1079919338226318,0.0,0.050493255257606506
685.0,581.0,-3.4319,-0.0179,9.195,-0.0255,0.0249,-0.1176,-2.1470633945860804,0.0,4.096773147583008,-1.6562050580978394,-0.0,1.7528263330459595,5.616600501328268,-0.0,0.23851460218429565,-1.5140875021563929,0.0,-0.008225533179938793,0.9542378783226013,-0.0,0.00026072002947330475,1.1080198287963867,0.0,-0.026901977136731148
685.0,581.0,-3.4319,-0.0179,9.195,-0.0255,0.0249,-0.1176,-2.146998544732565,0.0,4.047029495239258,-1.6561248302459717,-0.0,1.7518532276153564,5.616568791657247,-0.0,0.24149766564369202,-1.514111344014303,0.0,-0.010556873865425587,0.9542542099952698,-0.0,0.017064884305000305,1.1079914569854736,0.0,-0.061794839799404144
685.0,581.0,-3.4319,-0.0179,9.195,-0.0255,0.0249,-0.1176,-2.147031446496481,0.0,4.121770858764648,-1.6562129259109497,-0.0,1.7535021305084229,5.616516816407003,-0.0,0.22407057881355286,-1.5140951315509241,0.0,-0.010278859175741673,0.9541736245155334,-0.0,0.000741975090932101,1.1080321073532104,0.0,0.025354335084557533
685.0,581.0,-3.4319,-0.0179,9.195,-0.0255,0.0249,-0.1176,-2.147010942498678,0.0,4.093756198883057,-1.6561726331710815,-0.0,1.7491483688354492,5.616580712586202,-0.0,0.22705936431884766,-1.514127556477682,0.0,-0.01460975967347622,0.9542582631111145,-0.0,0.005568718072026968,1.1080238819122314,0.0,0.017346464097499847
685.0,581.0,-3.4319,-0.0179,9.195,-0.0255,0.0249,-0.1176,-2.147015234033102,0.0,4.115360260009766,-1.6562124490737915,-0.0,1.7754030227661133,5.616620886116781,-0.0,0.2321222573518753,-1.5140951315509241,0.0,-0.0260811485350132,0.9543182253837585,-0.0,0.0004651956260204315,1.1079998016357422,0.0,-0.013473782688379288
655.0,600.0,-3.4522,-0.0227,9.2148,-0.0437,0.0238,-0.1106,-2.147010942498678,0.0,4.099270820617676,-1.6562010049819946,-0.0,1.7588802576065063,5.616588878422537,-0.0,0.24844509363174438,-1.5141156355487269,0.0,-0.025916077196598053,0.9541736841201782,-0.0,0.0069937570951879025,1.1080116033554077,0.0,0.0028167073614895344
655.0,600.0,-3.4522,-0.0227,9.2148,-0.0437,0.0238,-0.1106,-2.1470471821227015,0.0,4.091707229614258,-1.656229019165039,-0.0,1.7428016662597656,5.616560685425558,-0.0,0.23558276891708374,-1.5140793959247034,0.0,-0.0013647954910993576,0.9542862176895142,-0.0,0.008792639710009098,1.1079715490341187,0.0,0.023167017847299576
655.0,600.0,-3.4522,-0.0227,9.2148,-0.0437,0.0238,-0.1106,-2.146970888177389,0.0,4.083869934082031,-1.6561567783355713,-0.0,1.7689660787582397,5.616568493634023,-0.0,0.2411687672138214,-1.5140951315509241,0.0,-0.022392310202121735,0.9542222023010254,-0.0,0.013149146921932697,1.1080398559570312,0.0,0.01511809229850769
655.0,600.0,-3.4522,-0.0227,9.2148,-0.0437,0.0238,-0.1106,-2.146998544732565,0.0,4.100944519042969,-1.6561726331710815,-0.0,1.8026072978973389,5.616564738541403,-0.0,0.23566100001335144,-1.5141037146197718,0.0,-0.02290985733270645,0.9542055726051331,-0.0,-0.00025858497247099876,1.107979655265808,0.0,-0.03365921601653099
655.0,600.0,-3.4522,-0.0227,9.2148,-0.0437,0.0238,-0.1106,-2.1470233402647914,0.0,4.084395408630371,-1.6562124490737915,-0.0,1.7383253574371338,5.616592991143026,-0.0,0.2463679015636444,-1.5140793959247034,0.0,-0.02940109185874462,0.9542660713195801,-0.0,0.004908572882413864,1.107995629310608,0.0,0.034679219126701355
655.0,600.0,-3.4522,-0.0227,9.2148,-0.0437,0.0238,-0.1106,-2.1470309696593226,0.0,4.099969387054443,-1.6562124490737915,-0.0,1.7794196605682373,5.616568791657247,-0.0,0.24115189909934998,-1.5141475836383265,0.0,-0.016652878373861313,0.9542182087898254,-0.0,0.01450870931148529,1.1079914569854736,0.0,0.022587930783629417
655.0,600.0,-3.4522,-0.0227,9.2148,-0.0437,0.0238,-0.1106,-2.1470352611937464,0.0,4.098111629486084,-1.6562204360961914,-0.0,1.7787330150604248,5.616568791657247,-0.0,0.24048501253128052,-1.514111344014303,0.0,-0.01401110552251339,0.9542014598846436,-0.0,-0.010721737518906593,1.1080600023269653,0.0,-0.00047548467409797013
655.0,600.0,-3.4522,-0.0227,9.2148,-0.0437,0.0238,-0.1106,-2.146970888177389,0.0,4.113187313079834,-1.6561970710754395,-0.0,1.7370810508728027,5.616580712586202,-0.0,0.23670318722724915,-1.5140588919269007,0.0,-0.02104470692574978,0.9542582035064697,-0.0,0.011216734535992146,1.1079915761947632,0.0,-0.015613581985235214
655.0,600.0,-3.4522,-0.0227,9.2148,-0.0437,0.0238,-0.1106,-2.147015234033102,0.0,4.065046310424805,-1.6562124490737915,-0.0,1.7171151638031006,5.616560685425558,-0.0,0.2306199073791504,-1.514099423085348,0.0,-0.013840221799910069,0.9542665481567383,-0.0,0.002970172092318535,1.1080279350280762,0.0,0.0013288282789289951
655.0,600.0,-3.4522,-0.0227,9.2148,-0.0437,0.0238,-0.1106,-2.1469909153380335,0.0,4.070750713348389,-1.6561886072158813,-0.0,1.7416343688964844,5.616564738541403,-0.0,0.25080564618110657,-1.5141356627093714,0.0,-0.012282545678317547,0.9541696310043335,-0.0,-0.004949207417666912,1.1080198287963867,0.0,0.029451735317707062
655.0,600.0,-3.4522,-0.0227,9.2148,-0.0437,0.0238,-0.1106,-2.1470028362669886,0.0,4.118844985961914,-1.6562124490737915,-0.0,1.7602343559265137,5.616576659470358,-0.0,0.23604121804237366,-1.514071289693014,0.0,0.0008503978606313467,0.9541700482368469,-0.0,0.00206073303706944,1.107967495918274,0.0,0.038657478988170624
655.0,600.0,-3.4522,-0.0227,9.2148,-0.0437,0.0238,-0.1106,-2.147043367425436,0.0,4.112555503845215,-1.656180739402771,-0.0,1.7471492290496826,5.616544651776113,-0.0,0.24612045288085938,-1.5140875021563929,0.0,-0.01380343921482563,0.9542582035064697,-0.0,0.006270621903240681,1.1080317497253418,0.0,-0.03796081990003586
655.0,600.0,-3.4522,-0.0227,9.2148,-0.0437,0.0238,-0.1106,-2.1469904385008753,0.0,4.128246307373047,-1.6561726331710815,-0.0,1.7572071552276611,5.6165528176124475,-0.0,0.25065797567367554,-1.514123264943258,0.0,-0.021209873259067535,0.9542460441589355,-0.0,0.0050819069147109985,1.1080321073532104,0.0,0.08074227720499039
655.0,600.0,-3.4522,-0.0227,9.2148,-0.0437,0.0238,-0.1106,-2.146982809106344,0.0,4.08885383605957,-1.6561886072158813,-0.0,1.7606858015060425,5.61662523725585,-0.0,0.249457448720932,-1.5141237417804163,0.0,-0.0038765897043049335,0.954254150390625,-0.0,0.011305318213999271,1.1080480813980103,0.0,-0.005496370140463114
655.0,600.0,-3.4522,-0.0227,9.2148,-0.0437,0.0238,-0.1106,-2.146998544732565,0.0,4.062536239624023,-1.6562004089355469,-0.0,1.7277754545211792,5.616584825306692,-0.0,0.25058430433273315,-1.5141194502459925,0.0,-0.006601822562515736,0.9542784690856934,-0.0,0.0033556651324033737,1.108015775680542,0.0,-0.02808970957994461
655.0,600.0,-3.4522,-0.0227,9.2148,-0.0437,0.0238,-0.1106,-2.1470028362669886,0.0,4.125598430633545,-1.6561692953109741,-0.0,1.7687129974365234,5.616560685425558,-0.0,0.24117828905582428,-1.5141070524798792,0.0,-0.019719216972589493,0.9542701840400696,-0.0,0.005250127986073494,1.1080198287963867,0.0,0.011694669723510742
655.0,600.0,-3.4522,-0.0227,9.2148,-0.0437,0.0238,-0.1106,-2.147010942498678,0.0,4.103272438049316,-1.6561970710754395,-0.0,1.7521544694900513,5.616556572705068,-4.6982266965756025e-09,0.23922201991081238,-1.514127556477682,0.0,-0.023649729788303375,0.954217791557312,-0.0,0.007005541585385799,1.108072280883789,0.0,0.012616302818059921
655.0,600.0,-3.4522,-0.0227,9.2148,-0.0437,0.0238,-0.1106,-2.1470471821227015,0.0,4.078089237213135,-1.6562329530715942,-0.0,1.715315341949463,5.616536843567648,-2.0029276848188005e-11,0.24670380353927612,-1.514111344014303,0.0,-0.011944407597184181,0.9542500972747803,-0.0,0.020319698378443718,1.1080280542373657,0.0,0.0281083881855011
655.0,600.0,-3.4522,-0.0227,9.2148,-0.0437,0.0238,-0.1106,-2.147043367425436,0.0,4.073451995849609,-1.6561726331710815,-0.0,1.8002272844314575,5.616572904377737,-5.575223798387008e-15,0.23655958473682404,-1.5140469709979456,0.0,-0.005698432680219412,0.9542500972747803,-0.0,0.008522504940629005,1.1080402135849,0.0,0.029848329722881317
655.0,600.0,-3.4522,-0.0227,9.2148,-0.0437,0.0238,-0.1106,-2.146998544732565,0.0,4.096007823944092,-1.656209111213684,-0.0,1.770691990852356,5.616600799351492,-2.3768052211143537e-17,0.24675989151000977,-1.514099423085348,0.0,-0.008808556012809277,0.954230010509491,-0.0,0.002443305915221572,1.1080563068389893,0.0,-0.03692794591188431
655.0,600.0,-3.4522,-0.0227,9.2148,-0.0437,0.0238,-0.1106,-2.147015234033102,0.0,4.073566913604736,-1.6562010049819946,-0.0,1.7610657215118408,5.616564738541403,-1.0132693670075509e-19,0.2356591373682022,-1.5141037146197718,0.0,0.0005036293296143413,0.9542262554168701,-0.0,-0.010109419003129005,1.1079998016357422,0.0,-0.016925973817706108
672.0,573.0,-3.4092,-0.0371,9.1316,-0.0373,0.025,-0.1147,-2.147015234033102,0.0,4.085186004638672,-1.6561726331710815,-0.0,1.7579021453857422,5.616564738541403,-4.319726586343359e-22,0.24378657341003418,-1.5140751043902796,0.0,-0.019288398325443268,0.9542381763458252,-0.0,0.004081329796463251,1.107987880706787,0.0,0.0004318603314459324
672.0,573.0,-3.4092,-0.0371,9.1316,-0.0373,0.025,-0.1147,-2.1469861469664515,0.0,4.064791202545166,-1.656180739402771,-0.0,1.7562174797058105,5.616580712586202,-1.2024116205408449e-25,0.23698461055755615,-1.514055077229635,0.0,-0.006452541798353195,0.9542582631111145,-0.0,0.005490661598742008,1.1080279350280762,0.0,0.030165277421474457
672.0,573.0,-3.4092,-0.0371,9.1316,-0.0373,0.025,-0.1147,-2.147010942498678,0.0,4.085979461669922,-1.6562010049819946,-0.0,1.7696866989135742,5.616568493634023,-5.126069102973164e-28,0.2518956661224365,-1.5141356627093714,0.0,-0.02487877756357193,0.9542259573936462,-0.0,-0.003878724528476596,1.107979655265808,0.0,-0.01534795667976141
672.0,573.0,-3.4092,-0.0371,9.1316,-0.0373,0.025,-0.1147,-2.147031446496481,0.0,4.081790924072266,-1.6561089754104614,-0.0,1.7588777542114258,5.616564261704244,-2.185323555636296e-30,0.24147045612335205,-1.5140913168536585,0.0,-0.01401249598711729,0.9542902708053589,-0.0,-4.145727143622935e-05,1.1080238819122314,0.0,-0.009017755277454853
672.0,573.0,-3.4092,-0.0371,9.1316,-0.0373,0.025,-0.1147,-2.1470071278014125,0.0,4.114476680755615,-1.6562124490737915,-0.0,1.7475128173828125,5.616520511894979,-9.316378273390132e-33,0.23443230986595154,-1.5140951315509241,0.0,-0.03274000063538551,0.954254150390625,-0.0,0.0006723715923726559,1.1080238819122314,0.0,0.015928536653518677
672.0,573.0,-3.4092,-0.0371,9.1316,-0.0373,0.025,-0.1147,-2.1469785175719203,0.0,4.088637828826904,-1.656180739402771,-0.0,1.6938374042510986,5.616572904377737,-3.9717181830244826e-35,0.23319178819656372,-1.514139477406637,0.0,-0.007089309394359589,0.9542500972747803,-0.0,-0.001313219778239727,1.108015775680542,0.0,-0.02548382431268692
672.0,573.0,-3.4092,-0.0371,9.1316,-0.0373,0.025,-0.1147,-2.146982809106344,0.0,4.0902299880981445,-1.6561692953109741,-0.0,1.7365905046463013,5.616596746235647,-1.1055423722622712e-38,0.24596351385116577,-1.5140793959247034,0.0,0.001943227369338274,0.9542784690856934,-0.0,0.0011327977990731597,1.108015775680542,0.0,0.018919045105576515
672.0,573.0,-3.4092,-0.0371,9.1316,-0.0373,0.025,-0.1147,-2.1469785175719203,0.0,4.115658283233643,-1.6561970710754395,-0.0,1.746294617652893,5.616564738541403,-4.71312725491009e-41,0.2402551770210266,-1.514111344014303,0.0,-0.020738914608955383,0.9542099237442017,-0.0,0.02500036545097828,1.107987403869629,0.0,-0.0033629005774855614
672.0,573.0,-3.4092,-0.0371,9.1316,-0.0373,0.025,-0.1147,-2.1470395527281703,0.0,4.072292804718018,-1.6562204360961914,-0.0,1.738914966583252,5.6166045544441126,-2.0038568039844884e-43,0.24594008922576904,-1.5140917936908167,0.0,-0.004371065646409988,0.9542582631111145,-0.0,-0.004361544735729694,1.108007550239563,0.0,0.0033728654962033033
672.0,573.0,-3.4092,-0.0371,9.1316,-0.0373,0.025,-0.1147,-2.1470028362669886,0.0,4.1161909103393555,-1.6561846733093262,-0.0,1.754621982574463,5.616556572705068,-1.401298464324817e-45,0.23682095110416412,-1.5141037146197718,0.0,-0.01999778300523758,0.954302191734314,-0.0,0.009531248360872269,1.108007550239563,0.0,-0.004290227312594652
672.0,573.0,-3.4092,-0.0371,9.1316,-0.0373,0.025,-0.1147,-2.146982809106344,0.0,4.07105016708374,-1.6561766862869263,-0.0,1.7414100170135498,5.616572904377737,-0.0,0.2472389191389084,-1.5140913168536585,0.0,-0.018550612032413483,0.9542506337165833,-0.0,-0.0021989038214087486,1.108043909072876,0.0,-0.005175943952053785
672.0,573.0,-3.4092,-0.0371,9.1316,-0.0373,0.025,-0.1147,-2.147043367425436,0.0,4.089221954345703,-1.6562050580978394,-0.0,1.7597167491912842,5.616580712586202,-0.0,0.2442457377910614,-1.5141156355487269,0.0,-0.024215517565608025,0.9542341232299805,-0.0,0.005376940593123436,1.108003854751587,0.0,-0.01730184815824032
672.0,573.0,-3.4092,-0.0371,9.1316,-0.0373,0.025,-0.1147,-2.147015234033102,0.0,4.099873065948486,-1.6561846733093262,-0.0,1.7372212409973145,5.616556572705068,-0.0,0.24194902181625366,-1.5140875021563929,0.0,-0.005289547145366669,0.9542263150215149,-0.0,0.009230499155819416,1.108015775680542,0.0,0.006751058157533407
672.0,573.0,-3.4092,-0.0371,9.1316,-0.0373,0.025,-0.1147,-2.147055288354391,0.0,4.104671955108643,-1.6561931371688843,-0.0,1.7490456104278564,5.616544651776113,-0.0,0.24182051420211792,-1.5140751043902796,0.0,-0.014648264274001122,0.9542139172554016,-0.0,-0.004310794174671173,1.108003854751587,0.0,0.021460454910993576
672.0,573.0,-3.4092,-0.0371,9.1316,-0.0373,0.025,-0.1147,-2.146998544732565,0.0,4.062704563140869,-1.6561846733093262,-0.0,1.769850254058838,5.616556572705068,-0.0,0.2548978626728058,-1.5140793959247034,0.0,-0.022742699831724167,0.9541776776313782,-0.0,0.0013272501528263092,1.1080279350280762,0.0,0.010861720889806747
672.0,573.0,-3.4092,-0.0371,9.1316,-0.0373,0.025,-0.1147,-2.147027154962057,0.0,4.11436653137207,-1.6562010049819946,-0.0,1.724144697189331,5.616524565010824,-0.0,0.24013960361480713,-1.5140917936908167,0.0,-0.017948154360055923,0.9542465209960938,-0.0,0.0038549581076949835,1.107979655265808,0.0,-0.04069620743393898
672.0,573.0,-3.4092,-0.0371,9.1316,-0.0373,0.025,-0.1147,-2.147010942498678,0.0,4.0860419273376465,-1.656180739402771,-0.0,1.706617832183838,5.616528200894155,-0.0,0.24826928973197937,-1.5141156355487269,0.0,-0.019359802827239037,0.9542701244354248,-0.0,0.00868239626288414,1.1080116033554077,0.0,0.014478090219199657
672.0,573.0,-3.4092,-0.0371,9.1316,-0.0373,0.025,-0.1147,-2.1469785175719203,0.0,4.13387393951416,-1.6562050580978394,-0.0,1.7022473812103271,5.616604971676626,-0.0,0.23849231004714966,-1.5141356627093714,0.0,-0.009071670472621918,0.9542698860168457,-0.0,-0.005455047823488712,1.1079915761947632,0.0,-0.03053172491490841
672.0,573.0,-3.4092,-0.0371,9.1316,-0.0373,0.025,-0.1147,-2.146982809106344,0.0,4.079370498657227,-1.656180739402771,-0.0,1.7330396175384521,5.616576659470358,-0.0,0.2375575304031372,-1.5140917936908167,0.0,-0.014152219519019127,0.9542701840400696,-0.0,-0.003232948947697878,1.1080116033554077,0.0,0.07146177440881729
672.0,573.0,-3.4092,-0.0371,9.1316,-0.0373,0.025,-0.1147,-2.1470028362669886,0.0,4.1227335929870605,-1.6561846733093262,-0.0,1.7708125114440918,5.616552519589224,-0.0,0.24320247769355774,-1.514111344014303,0.0,-0.021437477320432663,0.9542222023010254,-0.0,-0.006999228615313768,1.1080116033554077,0.0,-0.006364962086081505
645.0,585.0,-3.4546,-0.0562,9.1167,-0.031,0.0237,-0.1118,-2.1470195255675257,0.0,4.066154479980469,-1.6562244892120361,-0.0,1.7623308897018433,5.616596746235647,-0.0,0.23112186789512634,-1.514127556477682,0.0,-0.007199302781373262,0.9542341232299805,-0.0,0.00722826924175024,1.1079961061477661,0.0,-0.016435684636235237
645.0,585.0,-3.4546,-0.0562,9.1167,-0.031,0.0237,-0.1118,-2.146998544732565,0.0,4.088675498962402,-1.6561970710754395,-0.0,1.7215306758880615,5.616572904377737,-0.0,0.23935899138450623,-1.5140956083880823,0.0,-0.0006008297204971313,0.9542660713195801,-0.0,0.005518915131688118,1.1080362796783447,0.0,-0.020916350185871124
645.0,585.0,-3.4546,-0.0562,9.1167,-0.031,0.0237,-0.1118,-2.1469503841795863,0.0,4.117187023162842,-1.6562085151672363,-0.0,1.7418928146362305,5.616584825306692,-0.0,0.24199169874191284,-1.5141313711749476,0.0,-0.011193761602044106,0.9542422294616699,-0.0,0.010714804753661156,1.1079915761947632,0.0,0.015513869933784008
645.0,585.0,-3.4546,-0.0562,9.1167,-0.031,0.0237,-0.1118,-2.146998544732565,0.0,4.095705986022949,-1.6562124490737915,-0.0,1.7722268104553223,5.616568851261892,-0.0,0.24939921498298645,-1.5141075293170374,0.0,-0.025341957807540894,0.9542902708053589,-0.0,0.002430256688967347,1.107987880706787,0.0,0.015208889730274677
645.0,585.0,-3.4546,-0.0562,9.1167,-0.031,0.0237,-0.1118,-2.1470028362669886,0.0,4.116211891174316,-1.6561487913131714,-0.0,1.7761480808258057,5.616556572705068,-0.0,0.2486402988433838,-1.5140951315509241,0.0,-0.01314845122396946,0.9542459845542908,-0.0,0.009050026535987854,1.107987880706787,0.0,0.01347244530916214
645.0,585.0,-3.4546,-0.0562,9.1167,-0.031,0.0237,-0.1118,-2.146994730035299,0.0,4.085280418395996,-1.656192660331726,-0.0,1.7655014991760254,5.616588878422537,-0.0,0.2419567108154297,-1.514151398335592,0.0,-0.011697078123688698,0.9542460441589355,-0.0,0.0037860090378671885,1.108015775680542,0.0,0.03348264843225479
645.0,585.0,-3.4546,-0.0562,9.1167,-0.031,0.0237,-0.1118,-2.1470071278014125,0.0,4.132136821746826,-1.6562204360961914,-0.0,1.766183614730835,5.616556870728292,-0.0,0.23346661031246185,-1.5140793959247034,0.0,-0.019748451188206673,0.9542779922485352,-0.0,0.009216776117682457,1.1080116033554077,0.0,0.06026594340801239
645.0,585.0,-3.4546,-0.0562,9.1167,-0.031,0.0237,-0.1118,-2.146994730035299,0.0,4.134015083312988,-1.6562004089355469,-0.0,1.7306079864501953,5.616580712586202,-0.0,0.24940252304077148,-1.514099423085348,0.0,-0.019830169156193733,0.9542262554168701,-0.0,0.0006241016671992838,1.1080116033554077,0.0,0.013191841542720795
645.0,585.0,-3.4546,-0.0562,9.1167,-0.031,0.0237,-0.1118,-2.147010942498678,0.0,4.076798439025879,-1.656140685081482,-0.0,1.748630404472351,5.616580712586202,-0.0,0.2379472255706787,-1.5140350500689905,0.0,-0.019058341160416603,0.954241931438446,-0.0,0.002628539688885212,1.1080238819122314,0.0,0.022051550447940826
645.0,585.0,-3.4546,-0.0562,9.1167,-0.031,0.0237,-0.1118,-2.1469747028746546,0.0,4.1326704025268555,-1.6561768054962158,-0.0,1.736577033996582,5.616524565010824,-0.0,0.2444964200258255,-1.5141194502459925,0.0,-0.015872793272137642,0.9542422294616699,-0.0,0.010778062976896763,1.1080398559570312,0.0,0.026582535356283188
645.0,585.0,-3.4546,-0.0562,9.1167,-0.031,0.0237,-0.1118,-2.147027631799215,0.0,4.119426727294922,-1.6561846733093262,-0.0,1.760227918624878,5.616560625820913,-0.0,0.24672432243824005,-1.514083210621969,0.0,-0.025311026722192764,0.9542140364646912,-0.0,-0.00012967432849109173,1.1080116033554077,0.0,0.016086800023913383
645.0,585.0,-3.4546,-0.0562,9.1167,-0.031,0.0237,-0.1118,-2.1470028362669886,0.0,4.115200519561768,-1.6562010049819946,-0.0,1.7671208381652832,5.616608726769247,-0.0,0.23697486519813538,-1.514099423085348,0.0,-0.021478071808815002,0.9542018175125122,-0.0,0.007238402962684631,1.1080079078674316,0.0,-0.04442001134157181
645.0,585.0,-3.4546,-0.0562,9.1167,-0.031,0.0237,-0.1118,-2.1469904385008753,0.0,4.098696708679199,-1.6562124490737915,-0.0,1.7524371147155762,5.616544651776113,-0.0,0.23648063838481903,-1.5141194502459925,0.0,-0.021765049546957016,0.9542779922485352,-0.0,-0.009906720370054245,1.1080480813980103,0.0,-0.0355643630027771
645.0,585.0,-3.4546,-0.0562,9.1167,-0.031,0.0237,-0.1118,-2.1470028362669886,0.0,4.080245018005371,-1.6562044620513916,-0.0,1.7000913619995117,5.6165528176124475,-0.0,0.24181269109249115,-1.5140793959247034,0.0,-0.00959163997322321,0.9542222023010254,-0.0,0.00928347185254097,1.1080279350280762,0.0,0.029773956164717674
645.0,585.0,-3.4546,-0.0562,9.1167,-0.031,0.0237,-0.1118,-2.1470071278014125,0.0,4.111670017242432,-1.6561366319656372,-0.0,1.7442553043365479,5.616564738541403,-0.0,0.23566100001335144,-1.5140913168536585,0.0,-0.025519758462905884,0.9542262554168701,-0.0,0.001211507129482925,1.1080198287963867,0.0,0.0270602498203516
645.0,585.0,-3.4546,-0.0562,9.1167,-0.031,0.0237,-0.1118,-2.1470233402647914,0.0,4.091499328613281,-1.6562010049819946,-0.0,1.7318010330200195,5.616592693119802,-0.0,0.23651468753814697,-1.514099423085348,0.0,-0.01159616932272911,0.954230010509491,-0.0,0.001423821784555912,1.1080361604690552,0.0,-0.0013035631272941828
645.0,585.0,-3.4546,-0.0562,9.1167,-0.031,0.0237,-0.1118,-2.1469904385008753,0.0,4.099201202392578,-1.6562011241912842,-0.0,1.7088749408721924,5.616572606354513,-0.0,0.2400447428226471,-1.5141037146197718,0.0,-0.005816049873828888,0.9543340802192688,-0.0,-0.009408807381987572,1.1080279350280762,0.0,0.06987166404724121
645.0,585.0,-3.4546,-0.0562,9.1167,-0.031,0.0237,-0.1118,-2.1470233402647914,0.0,4.112663745880127,-1.656180739402771,-0.0,1.7318936586380005,5.616532790451803,-0.0,0.23789189755916595,-1.5141356627093714,0.0,-0.029947057366371155,0.95423823595047,-0.0,-0.003442173358052969,1.1079961061477661,0.0,0.009497915394604206
645.0,585.0,-3.4546,-0.0562,9.1167,-0.031,0.0237,-0.1118,-2.146998544732565,0.0,4.158039093017578,-1.6561846733093262,-0.0,1.7319960594177246,5.616560685425558,-0.0,0.2383359968662262,-1.5141075293170374,0.0,-0.015865828841924667,0.9542582631111145,-0.0,0.007008459884673357,1.108003854751587,0.0,0.049308303743600845
645.0,585.0,-3.4546,-0.0562,9.1167,-0.031,0.0237,-0.1118,-2.146982809106344,0.0,4.073514461517334,-1.656245470046997,-0.0,1.7349203824996948,5.616588580399313,-0.0,0.24385984241962433,-1.514083210621969,0.0,-0.0040907664224505424,0.9542582035064697,-0.0,-0.010852114297449589,1.1079915761947632,0.0,-0.054048966616392136
645.0,585.0,-3.4546,-0.0562,9.1167,-0.031,0.0237,-0.1118,-2.147031446496481,0.0,4.094155788421631,-1.6561768054962158,-0.0,1.745802879333496,5.616580772190847,-0.0,0.23333141207695007,-1.5140751043902796,0.0,-0.019785456359386444,0.9542345404624939,-0.0,-0.003355925902724266,1.1080321073532104,0.0,0.003910316154360771
722.0,516.0,-3.4481,-0.0299,9.1639,-0.0371,0.0278,-0.1167,-2.1469785175719203,0.0,4.0740838050842285,-1.6562250852584839,-0.0,1.7495917081832886,5.616576659470358,-0.0,0.23416006565093994,-1.5141156355487269,0.0,-0.013951312750577927,0.9542902708053589,-0.0,0.009810825809836388,1.1080321073532104,0.0,0.02069317176938057
722.0,516.0,-3.4481,-0.0299,9.1639,-0.0371,0.0278,-0.1167,-2.1470028362669886,0.0,4.099232196807861,-1.656229019165039,-0.0,1.760558843612671,5.616548704891958,-0.0,0.23873576521873474,-1.5141237417804163,0.0,-0.015904344618320465,0.954230546951294,-0.0,-0.010404381901025772,1.1080398559570312,0.0,0.0176471509039402
722.0,516.0,-3.4481,-0.0299,9.1639,-0.0371,0.0278,-0.1167,-2.146982809106344,0.0,4.100409030914307,-1.656245470046997,-0.0,1.7125656604766846,5.616548704891958,-0.0,0.24175313115119934,-1.5140875021563929,0.0,-0.000964050879701972,0.9542099833488464,-0.0,-0.0018619797192513943,1.1080198287963867,0.0,0.0182785764336586
722.0,516.0,-3.4481,-0.0299,9.1639,-0.0371,0.0278,-0.1167,-2.147015234033102,0.0,4.0916523933410645,-1.65618896484375,-0.0,1.7200406789779663,5.616584765702047,-0.0,0.23434647917747498,-1.5140507856952112,0.0,-0.011202633380889893,0.9542219042778015,-0.0,0.009126029908657074,1.108055830001831,0.0,-0.000928984023630619
722.0,516.0,-3.4481,-0.0299,9.1639,-0.0371,0.0278,-0.1167,-2.1469904385008753,0.0,4.075521945953369,-1.6562010049819946,-0.0,1.7724889516830444,5.616560685425558,-0.0,0.2510276436805725,-1.5141070524798792,0.0,-0.009259702637791634,0.9542582631111145,-0.0,-0.0051809921860694885,1.1079837083816528,0.0,0.04851635918021202
722.0,516.0,-3.4481,-0.0299,9.1639,-0.0371,0.0278,-0.1167,-2.147010942498678,0.0,4.107132434844971,-1.65618896484375,-0.0,1.7346572875976562,5.6165286777313135,-0.0,0.24623540043830872,-1.514099423085348,0.0,-0.01599183678627014,0.9542742371559143,-0.0,0.008302971720695496,1.108012080192566,0.0,-0.003419482382014394
722.0,516.0,-3.4481,-0.0299,9.1639,-0.0371,0.0278,-0.1167,-2.1470395527281703,0.0,4.091261386871338,-1.656172513961792,-0.0,1.749828815460205,5.616516756802358,-0.0,0.2329719513654709,-1.5141432921039026,0.0,-0.01462504267692566,0.9542945027351379,-0.0,0.0076118456199765205,1.1080279350280762,0.0,-0.04676450788974762
722.0,516.0,-3.4481,-0.0299,9.1639,-0.0371,0.0278,-0.1167,-2.1470028362669886,0.0,4.051241397857666,-1.6562330722808838,-0.0,1.7631597518920898,5.616560625820913,-0.0,0.2555411756038666,-1.514099423085348,0.0,-0.007735882885754108,0.9542341232299805,-0.0,0.002998890122398734,1.1080361604690552,0.0,-0.014254366979002953
722.0,516.0,-3.4481,-0.0299,9.1639,-0.0371,0.0278,-0.1167,-2.147043367425436,0.0,4.111425399780273,-1.65618896484375,-0.0,1.7266900539398193,5.616560685425558,-0.0,0.25008487701416016,-1.514111344014303,0.0,-0.0057736728340387344,0.9542341232299805,-0.0,-0.004544198513031006,1.1079756021499634,0.0,0.006304282695055008
722.0,516.0,-3.4481,-0.0299,9.1639,-0.0371,0.0278,-0.1167,-2.1469904385008753,0.0,4.109834671020508,-1.6561886072158813,-0.0,1.7585718631744385,5.616564738541403,-0.0,0.24127602577209473,-1.5140875021563929,0.0,-0.015084905549883842,0.954254150390625,-0.0,0.006237564142793417,1.1080034971237183,0.0,-0.017351670190691948
722.0,516.0,-3.4481,-0.0299,9.1639,-0.0371,0.0278,-0.1167,-2.1469584904112757,0.0,4.076245307922363,-1.6562410593032837,-0.0,1.7078828811645508,5.616596746235647,-0.0,0.23569172620773315,-1.514127556477682,0.0,-0.01309900637716055,0.9542821049690247,-0.0,-0.0002204619813710451,1.1080321073532104,0.0,0.021779879927635193
722.0,516.0,-3.4481,-0.0299,9.1639,-0.0371,0.0278,-0.1167,-2.1470071278014125,0.0,4.133200645446777,-1.65615713596344,-0.0,1.758103609085083,5.616560685425558,-0.0,0.24018695950508118,-1.5141432921039026,0.0,-0.007575706113129854,0.9542259573936462,-0.0,0.005423063412308693,1.107967495918274,0.0,0.03635435923933983
722.0,516.0,-3.4481,-0.0299,9.1639,-0.0371,0.0278,-0.1167,-2.147027154962057,0.0,4.084205150604248,-1.6562449932098389,-0.0,1.7457070350646973,5.616568791657247,-0.0,0.23830856382846832,-1.514111344014303,0.0,-0.005521226674318314,0.9542386531829834,-0.0,-0.005653994157910347,1.108015775680542,0.0,0.025025226175785065
722.0,516.0,-3.4481,-0.0299,9.1639,-0.0371,0.0278,-0.1167,-2.1469747028746546,0.0,4.068609237670898,-1.656229019165039,-0.0,1.778592586517334,5.616588580399313,-0.0,0.24245716631412506,-1.5141194502459925,0.0,-0.025731980800628662,0.9541974067687988,-0.0,0.0011495058424770832,1.108015775680542,0.0,0.02775910124182701
722.0,516.0,-3.4481,-0.0299,9.1639,-0.0371,0.0278,-0.1167,-2.146998544732565,0.0,4.087070465087891,-1.6561886072158813,-0.0,1.7553198337554932,5.616572904377737,-0.0,0.24153466522693634,-1.5140917936908167,0.0,-0.0264782402664423,0.9542460441589355,-0.0,-0.002838489366695285,1.1080398559570312,0.0,-0.011401651427149773
722.0,516.0,-3.4481,-0.0299,9.1639,-0.0371,0.0278,-0.1167,-2.1470233402647914,0.0,4.049785614013672,-1.6562050580978394,-0.0,1.7777652740478516,5.616588580399313,-0.0,0.23405605554580688,-1.5140956083880823,0.0,-0.016299258917570114,0.9542500972747803,-0.0,-0.003395546693354845,1.1080080270767212,0.0,0.01677522622048855
722.0,516.0,-3.4481,-0.0299,9.1639,-0.0371,0.0278,-0.1167,-2.1469909153380335,0.0,4.07540225982666,-1.6561487913131714,-0.0,1.7689945697784424,5.616532730847158,-0.0,0.25347915291786194,-1.514111344014303,0.0,-0.013675486668944359,0.9542381763458252,-0.0,0.0005317755276337266,1.1079795360565186,0.0,-0.0006124372594058514
722.0,516.0,-3.4481,-0.0299,9.1639,-0.0371,0.0278,-0.1167,-2.147055288354391,0.0,4.108334541320801,-1.656256914138794,-0.0,1.743064522743225,5.616544651776113,-0.0,0.23885944485664368,-1.5141237417804163,0.0,-0.009848818182945251,0.9543265104293823,-0.0,0.0009459774591960013,1.1080321073532104,0.0,0.027454979717731476
722.0,516.0,-3.4481,-0.0299,9.1639,-0.0371,0.0278,-0.1167,-2.147010942498678,0.0,4.104999542236328,-1.6561528444290161,-0.0,1.7300090789794922,5.616580712586202,-0.0,0.2513089179992676,-1.5140751043902796,0.0,-0.008236556313931942,0.9542620182037354,-0.0,-0.0003582409117370844,1.1080563068389893,0.0,0.005523815751075745
722.0,516.0,-3.4481,-0.0299,9.1639,-0.0371,0.0278,-0.1167,-2.1470071278014125,0.0,4.085976600646973,-1.65614914894104,-0.0,1.6990203857421875,5.616604614048757,-0.0,0.24131469428539276,-1.514099423085348,0.0,-0.0016159650404006243,0.9542341232299805,-0.0,0.01075548306107521,1.1080116033554077,0.0,-0.031128423288464546
722.0,516.0,-3.4481,-0.0299,9.1639,-0.0371,0.0278,-0.1167,-2.14707150081777,0.0,4.146940231323242,-1.656204342842102,-0.0,1.7490414381027222,5.616596686631002,-0.0,0.24178746342658997,-1.514099423085348,0.0,-0.022139547392725945,0.9542701840400696,-0.0,-0.009328934364020824,1.1080321073532104,0.0,0.004501197952777147
689.0,605.0,-3.3655,-0.0431,9.274,-0.0319,0.0174,-0.1116,-2.147015234033102,0.0,4.020570278167725,-1.6561646461486816,-0.0,1.6973445415496826,5.6165286777313135,-0.0,0.2533111572265625,-1.514083210621969,0.0,-0.015566207468509674,0.9541895389556885,-0.0,0.003512890310958028,1.1079875230789185,0.0,-0.004900982603430748
689.0,605.0,-3.3655,-0.0431,9.274,-0.0319,0.0174,-0.1116,-2.1469742260374964,0.0,4.102931022644043,-1.6561685800552368,-0.0,1.7514333724975586,5.616596746235647,-0.0,0.2291416972875595,-1.5141194502459925,0.0,-0.0171875711530447,0.9542222023010254,-0.0,0.009139155969023705,1.1080279350280762,0.0,0.008020006120204926
689.0,605.0,-3.3655,-0.0431,9.274,-0.0319,0.0174,-0.1116,-2.1469627819456996,0.0,4.062234401702881,-1.6562410593032837,-0.0,1.775771141052246,5.616540598660269,-0.0,0.2523483633995056,-1.5140913168536585,0.0,-0.008764906786382198,0.9542784690856934,-0.0,-0.008586748503148556,1.1080358028411865,0.0,0.020272042602300644
689.0,605.0,-3.3655,-0.0431,9.274,-0.0319,0.0174,-0.1116,-2.1470471821227015,0.0,4.110456466674805,-1.65615713596344,-0.0,1.7707593441009521,5.616576659470358,-0.0,0.2405748963356018,-1.5141194502459925,0.0,-0.0221618190407753,0.9542421698570251,-0.0,-0.002307115588337183,1.1080116033554077,0.0,-0.01929226703941822
689.0,605.0,-3.3655,-0.0431,9.274,-0.0319,0.0174,-0.1116,-2.1470071278014125,0.0,4.0921783447265625,-1.6561766862869263,-0.0,1.7523213624954224,5.616556572705068,-0.0,0.2454235553741455,-1.514071289693014,0.0,-0.003305051475763321,0.9542940258979797,-0.0,0.008473603054881096,1.107995629310608,0.0,0.013292167335748672
689.0,605.0,-3.3655,-0.0431,9.274,-0.0319,0.0174,-0.1116,-2.147015234033102,0.0,4.063690185546875,-1.6562165021896362,-0.0,1.7745928764343262,5.616580772190847,-0.0,0.23993876576423645,-1.5140751043902796,0.0,-0.019649511203169823,0.9541612863540649,-0.0,0.007619906682521105,1.108015775680542,0.0,0.016094127669930458
689.0,605.0,-3.3655,-0.0431,9.274,-0.0319,0.0174,-0.1116,-2.147015234033102,0.0,4.0599894523620605,-1.6562124490737915,-0.0,1.7373793125152588,5.616540598660269,-0.0,0.24524438381195068,-1.5140793959247034,0.0,-0.014914864674210548,0.9542096257209778,-0.0,0.00503928866237402,1.1080321073532104,0.0,0.03637859225273132
689.0,605.0,-3.3655,-0.0431,9.274,-0.0319,0.0174,-0.1116,-2.147022863427633,0.0,4.070132255554199,-1.6561567783355713,-0.0,1.7631580829620361,5.616548704891958,-0.0,0.24140077829360962,-1.5140755812274378,0.0,-0.023960115388035774,0.954254150390625,-0.0,0.0038473964668810368,1.108024001121521,0.0,-0.0043923938646912575
689.0,605.0,-3.3655,-0.0431,9.274,-0.0319,0.0174,-0.1116,-2.147043367425436,0.0,4.089751720428467,-1.6562010049819946,-0.0,1.726952075958252,5.616580772190847,-0.0,0.25241222977638245,-1.514111344014303,0.0,-0.01474154181778431,0.9542582035064697,-0.0,0.002784282434731722,1.1079837083816528,0.0,-0.027475420385599136
689.0,605.0,-3.3655,-0.0431,9.274,-0.0319,0.0174,-0.1116,-2.1470352611937464,0.0,4.059884071350098,-1.6561967134475708,-0.0,1.7508385181427002,5.616576659470358,-0.0,0.23731747269630432,-1.5141194502459925,0.0,-0.010967312380671501,0.9542582631111145,-0.0,-0.007669511251151562,1.1079754829406738,0.0,0.037424974143505096
689.0,605.0,-3.3655,-0.0431,9.274,-0.0319,0.0174,-0.1116,-2.147031446496481,0.0,4.132822036743164,-1.6561528444290161,-0.0,1.7550948858261108,5.616572904377737,-0.0,0.239418625831604,-1.5141070524798792,0.0,-0.017314696684479713,0.9542263150215149,-0.0,0.00525696761906147,1.1079591512680054,0.0,-0.011364420875906944
689.0,605.0,-3.3655,-0.0431,9.274,-0.0319,0.0174,-0.1116,-2.1470195255675257,0.0,4.097711563110352,-1.6561886072158813,-0.0,1.7531781196594238,5.616560685425558,-0.0,0.24212482571601868,-1.5141156355487269,0.0,-0.005811366252601147,0.9542582035064697,-0.0,0.008725212886929512,1.1080198287963867,0.0,0.04780326783657074
689.0,605.0,-3.3655,-0.0431,9.274,-0.0319,0.0174,-0.1116,-2.1470352611937464,0.0,4.101709842681885,-1.6562250852584839,-0.0,1.7383619546890259,5.616580772190847,-0.0,0.2463521808385849,-1.514083210621969,0.0,-0.018231529742479324,0.9542222023010254,-0.0,0.0032081729732453823,1.1079998016357422,0.0,-0.017077187076210976
689.0,605.0,-3.3655,-0.0431,9.274,-0.0319,0.0174,-0.1116,-2.1470233402647914,0.0,4.100107192993164,-1.6561846733093262,-0.0,1.731351613998413,5.6165886400039575,-0.0,0.2416236698627472,-1.5141156355487269,0.0,-0.011724425479769707,0.9542500972747803,-0.0,-0.0032620185520499945,1.1080238819122314,0.0,-0.03308567777276039
689.0,605.0,-3.3655,-0.0431,9.274,-0.0319,0.0174,-0.1116,-2.1470071278014125,0.0,4.109374046325684,-1.6562124490737915,-0.0,1.7270628213882446,5.6165926335151575,-0.0,0.23108798265457153,-1.514111344014303,0.0,-0.014290347695350647,0.9542500972747803,-0.0,0.011271398514509201,1.1080279350280762,0.0,-0.03556569665670395
689.0,605.0,-3.3655,-0.0431,9.274,-0.0319,0.0174,-0.1116,-2.147027631799215,0.0,4.0806169509887695,-1.656140923500061,-0.0,1.737384557723999,5.616596746235647,-0.0,0.23620079457759857,-1.5141237417804163,0.0,-0.006483783945441246,0.954241931438446,-0.0,-0.013051385059952736,1.1080116033554077,0.0,0.023673860356211662
689.0,605.0,-3.3655,-0.0431,9.274,-0.0319,0.0174,-0.1116,-2.1470471821227015,0.0,4.069390296936035,-1.656192660331726,-0.0,1.7229533195495605,5.6165528176124475,-0.0,0.2383197844028473,-1.5141037146197718,0.0,-0.017367539927363396,0.9542259573936462,-0.0,-0.0058577777817845345,1.107995629310608,0.0,-0.0033733611926436424
689.0,605.0,-3.3655,-0.0431,9.274,-0.0319,0.0174,-0.1116,-2.146966596642965,0.0,4.116283893585205,-1.6561487913131714,-0.0,1.7924436330795288,5.616584825306692,-0.0,0.24234208464622498,-1.5140913168536585,0.0,-0.008920259773731232,0.9541773200035095,-0.0,-0.010163260623812675,1.1080079078674316,0.0,0.007032657973468304
689.0,605.0,-3.3655,-0.0431,9.274,-0.0319,0.0174,-0.1116,-2.147031446496481,0.0,4.1064958572387695,-1.6561692953109741,-0.0,1.7857481241226196,5.616548764496603,-0.0,0.24157556891441345,-1.5140751043902796,0.0,-0.03043110854923725,0.9542500972747803,-0.0,0.010362811386585236,1.1080398559570312,0.0,-0.018739640712738037
689.0,605.0,-3.3655,-0.0431,9.274,-0.0319,0.0174,-0.1116,-2.146999021569723,0.0,4.075563907623291,-1.6561692953109741,-0.0,1.7363290786743164,5.616548764496603,-0.0,0.23303616046905518,-1.5140674749957483,0.0,-0.011324608698487282,0.9542902112007141,-0.0,0.0007624686695635319,1.108043909072876,0.0,-0.010596562176942825
689.0,605.0,-3.3655,-0.0431,9.274,-0.0319,0.0174,-0.1116,-2.1469785175719203,0.0,4.109013557434082,-1.6561487913131714,-0.0,1.7398200035095215,5.616524922638693,-0.0,0.24447274208068848,-1.5141313711749476,0.0,-0.015543824061751366,0.9542055726051331,-0.0,0.006703393533825874,1.1080402135849,0.0,-0.0036495188251137733
671.0,541.0,-3.332,0.0096,9.1173,-0.0341,0.0298,-0.1179,-2.1470796070494593,0.0,4.0866594314575195,-1.6562010049819946,-0.0,1.738045334815979,5.616508590966024,-0.0,0.24155908823013306,-1.5140751043902796,0.0,-0.00911774206906557,0.9542218446731567,-0.0,-0.006969958543777466,1.108003854751587,0.0,-0.0008824005490168929
671.0,541.0,-3.332,0.0096,9.1173,-0.0341,0.0298,-0.1179,-2.147043367425436,0.0,4.056449890136719,-1.656229019165039,-0.0,1.7007083892822266,5.616584825306692,-0.0,0.2311992049217224,-1.5141037146197718,0.0,-0.015357403084635735,0.9542742371559143,-0.0,0.005183990113437176,1.10806405544281,0.0,0.056805580854415894
671.0,541.0,-3.332,0.0096,9.1173,-0.0341,0.0298,-0.1179,-2.1470071278014125,0.0,4.089908599853516,-1.6561846733093262,-0.0,1.7583718299865723,5.616564798146047,-0.0,0.2452223002910614,-1.5140469709979456,0.0,-0.014811498112976551,0.9541892409324646,-0.0,0.0119766341522336,1.108015775680542,0.0,-0.0037706096190959215
671.0,541.0,-3.332,0.0096,9.1173,-0.0341,0.0298,-0.1179,-2.146994730035299,0.0,4.10903263092041,-1.65615713596344,-0.0,1.7388105392456055,5.616532730847158,-0.0,0.23617535829544067,-1.514083210621969,0.0,-0.0227439533919096,0.9542701840400696,-0.0,-0.014216259121894836,1.108007550239563,0.0,0.020712316036224365
671.0,541.0,-3.332,0.0096,9.1173,-0.0341,0.0298,-0.1179,-2.1470028362669886,0.0,4.103626728057861,-1.6561970710754395,-0.0,1.7037036418914795,5.616520809918203,-0.0,0.25080281496047974,-1.514099423085348,0.0,-0.012755155563354492,0.9542460441589355,-0.0,0.006356801837682724,1.1079914569854736,0.0,0.032340068370103836
671.0,541.0,-3.332,0.0096,9.1173,-0.0341,0.0298,-0.1179,-2.146994730035299,0.0,4.10978364944458,-1.656229019165039,-0.0,1.7349753379821777,5.616584825306692,-0.0,0.246050164103508,-1.5141037146197718,0.0,-0.007893379777669907,0.9542381763458252,-0.0,0.004944997373968363,1.1080238819122314,0.0,-0.057576265186071396
671.0,541.0,-3.332,0.0096,9.1173,-0.0341,0.0298,-0.1179,-2.1470352611937464,0.0,4.137001991271973,-1.6562165021896362,-0.0,1.695688247680664,5.616564738541403,-0.0,0.24467071890830994,-1.5140588919269007,0.0,-0.022391794249415398,0.9542620182037354,-0.0,0.009283991530537605,1.1079998016357422,0.0,0.037693366408348083
671.0,541.0,-3.332,0.0096,9.1173,-0.0341,0.0298,-0.1179,-2.147010942498678,0.0,4.109472751617432,-1.6561970710754395,-0.0,1.7661888599395752,5.616560685425558,-0.0,0.23964601755142212,-1.514151398335592,0.0,-0.013135626912117004,0.9542300701141357,-0.0,0.0026289988309144974,1.1079837083816528,0.0,0.02862914279103279
671.0,541.0,-3.332,0.0096,9.1173,-0.0341,0.0298,-0.1179,-2.1470028362669886,0.0,4.05190896987915,-1.656237244606018,-0.0,1.7225453853607178,5.616580712586202,-0.0,0.24346277117729187,-1.5141237417804163,0.0,-0.017379585653543472,0.9542341232299805,-0.0,-0.0026937066577374935,1.1079961061477661,0.0,0.036290038377046585
671.0,541.0,-3.332,0.0096,9.1173,-0.0341,0.0298,-0.1179,-2.1470071278014125,0.0,4.108356475830078,-1.6561931371688843,-0.0,1.7434056997299194,5.616576719075002,-0.0,0.2398228645324707,-1.5141356627093714,0.0,-0.013019070029258728,0.9542222023010254,-0.0,-0.004484386183321476,1.1080116033554077,0.0,-0.0018407886382192373
671.0,541.0,-3.332,0.0096,9.1173,-0.0341,0.0298,-0.1179,-2.1470514736571253,0.0,4.088274955749512,-1.6561685800552368,-0.0,1.7364357709884644,5.6165769574935815,-0.0,0.2523277699947357,-1.5140793959247034,0.0,-0.012529948726296425,0.9542459845542908,-0.0,0.0066274311393499374,1.1080116033554077,0.0,-0.03006543032824993
671.0,541.0,-3.332,0.0096,9.1173,-0.0341,0.0298,-0.1179,-2.147015234033102,0.0,4.097055435180664,-1.6561806201934814,-0.0,1.7671210765838623,5.6165926335151575,-0.0,0.23551319539546967,-1.514083210621969,0.0,-0.013443432748317719,0.9542262554168701,-0.0,-0.0046655526384711266,1.108015775680542,0.0,0.011918843723833561
671.0,541.0,-3.332,0.0096,9.1173,-0.0341,0.0298,-0.1179,-2.146938463250631,0.0,4.105238914489746,-1.6562165021896362,-0.0,1.7512657642364502,5.616536843567648,-0.0,0.2451496571302414,-1.5141595045672815,0.0,-0.007867474108934402,0.9542902708053589,-0.0,-0.006395180709660053,1.1080480813980103,0.0,0.03366953507065773
671.0,541.0,-3.332,0.0096,9.1173,-0.0341,0.0298,-0.1179,-2.1470071278014125,0.0,4.1152663230896,-1.656204342842102,-0.0,1.751760482788086,5.616600799351492,-0.0,0.2544863224029541,-1.5141194502459925,0.0,-0.007192039396613836,0.9542341232299805,-0.0,-0.0034403216559439898,1.108015775680542,0.0,-0.0008802907541394234
671.0,541.0,-3.332,0.0096,9.1173,-0.0341,0.0298,-0.1179,-2.147015234033102,0.0,4.111469268798828,-1.6562124490737915,-0.0,1.787515640258789,5.616568791657247,-0.0,0.2390075922012329,-1.5141075293170374,0.0,-0.01611725427210331,0.9542222023010254,-0.0,-0.00223105913028121,1.107995629310608,0.0,-0.06680098176002502
671.0,541.0,-3.332,0.0096,9.1173,-0.0341,0.0298,-0.1179,-2.1469866238036097,0.0,4.075675010681152,-1.6562250852584839,-0.0,1.7518812417984009,5.616576659470358,-0.0,0.24785488843917847,-1.514111344014303,0.0,-0.0073070405051112175,0.9542340636253357,-0.0,0.0016436967998743057,1.1080321073532104,0.0,-0.014356452040374279
671.0,541.0,-3.332,0.0096,9.1173,-0.0341,0.0298,-0.1179,-2.147039075891012,0.0,4.108001708984375,-1.6562011241912842,-0.0,1.744990348815918,5.616560685425558,-0.0,0.24847723543643951,-1.5141032377826136,0.0,-0.014103077352046967,0.9542500972747803,-0.0,0.0019476867746561766,1.108003854751587,0.0,-0.012529455125331879
671.0,541.0,-3.332,0.0096,9.1173,-0.0341,0.0298,-0.1179,-2.1470514736571253,0.0,4.077289581298828,-1.6561931371688843,-0.0,1.7349491119384766,5.616568493634023,-0.0,0.2492235153913498,-1.514111344014303,0.0,-0.009955136105418205,0.9542140960693359,-0.0,-0.0026825685054063797,1.107995629310608,0.0,-0.0023900552187114954
671.0,541.0,-3.332,0.0096,9.1173,-0.0341,0.0298,-0.1179,-2.1469747028746546,0.0,4.101430416107178,-1.6562010049819946,-0.0,1.7662558555603027,5.616536843567648,-0.0,0.23651239275932312,-1.514083210621969,0.0,-0.025199664756655693,0.954254150390625,-0.0,0.0033894532825797796,1.1079919338226318,0.0,-0.018090907484292984
671.0,541.0,-3.332,0.0096,9.1173,-0.0341,0.0298,-0.1179,-2.146982809106344,0.0,4.128139972686768,-1.6562085151672363,-0.0,1.7564361095428467,5.616608965187826,-0.0,0.23650489747524261,-1.5141070524798792,0.0,-0.01586291566491127,0.9543061256408691,-0.0,0.00348229194059968,1.108015775680542,0.0,-0.008897386491298676
671.0,541.0,-3.332,0.0096,9.1173,-0.0341,0.0298,-0.1179,-2.1469584904112757,0.0,4.095515251159668,-1.656212568283081,-0.0,1.7478351593017578,5.616564738541403,-0.0,0.23327893018722534,-1.5141070524798792,0.0,-0.027653511613607407,0.9542346000671387,-0.0,0.01301406230777502,1.108003854751587,0.0,0.005090938415378332
672.0,554.0,-3.3858,-0.0407,9.1514,-0.0301,0.0249,-0.1155,-2.1469909153380335,0.0,4.142542362213135,-1.6562209129333496,-0.0,1.7637526988983154,5.616560685425558,-0.0,0.25199073553085327,-1.5140631834613245,0.0,-0.007429267279803753,0.9542381763458252,-0.0,0.0029219540301710367,1.1080238819122314,0.0,-0.00077066570520401
672.0,554.0,-3.3858,-0.0407,9.1514,-0.0301,0.0249,-0.1155,-2.147015234033102,0.0,4.140773296356201,-1.656180739402771,-0.0,1.7469104528427124,5.616544651776113,-0.0,0.23225989937782288,-1.5140793959247034,0.0,-0.009120450355112553,0.9543025493621826,-0.0,0.0003495167475193739,1.1080321073532104,0.0,-0.0029732175171375275
672.0,554.0,-3.3858,-0.0407,9.1514,-0.0301,0.0249,-0.1155,-2.1470028362669886,0.0,4.130846977233887,-1.6562165021896362,-0.0,1.739698886871338,5.616581070214071,-0.0,0.234825998544693,-1.5141156355487269,0.0,-0.01812881790101528,0.9542300701141357,-0.0,0.0036822566762566566,1.1080482006072998,0.0,-0.016754481941461563
672.0,554.0,-3.3858,-0.0407,9.1514,-0.0301,0.0249,-0.1155,-2.146966596642965,0.0,4.105501651763916,-1.6562010049819946,-0.0,1.7077463865280151,5.616556572705068,-0.0,0.2519634962081909,-1.5141156355487269,0.0,-0.012386851012706757,0.9542179107666016,-0.0,-0.003390825353562832,1.1080279350280762,0.0,-0.0404735803604126
672.0,554.0,-3.3858,-0.0407,9.1514,-0.0301,0.0249,-0.1155,-2.1470514736571253,0.0,4.07254695892334,-1.6562011241912842,-0.0,1.7792377471923828,5.616536485939779,-0.0,0.24143287539482117,-1.514127556477682,0.0,-0.012846879661083221,0.9542821049690247,-0.0,-0.010771550238132477,1.107987880706787,0.0,0.028396645560860634
672.0,554.0,-3.3858,-0.0407,9.1514,-0.0301,0.0249,-0.1155,-2.1470028362669886,0.0,4.105472564697266,-1.6562165021896362,-0.0,1.740683913230896,5.616536485939779,-0.0,0.24405169486999512,-1.5140875021563929,0.0,-0.013962151482701302,0.9542500972747803,-0.0,-0.0013422237243503332,1.108007550239563,0.0,0.006016313098371029
672.0,554.0,-3.3858,-0.0407,9.1514,-0.0301,0.0249,-0.1155,-2.147010942498678,0.0,4.074400424957275,-1.6561566591262817,-0.0,1.6871719360351562,5.616584825306692,-0.0,0.24040649831295013,-1.5140674749957483,0.0,-0.013780390843749046,0.954254150390625,-0.0,0.001626759534701705,1.107995629310608,0.0,-0.006337565369904041
672.0,554.0,-3.3858,-0.0407,9.1514,-0.0301,0.0249,-0.1155,-2.146998544732565,0.0,4.103495121002197,-1.6561970710754395,-0.0,1.753492832183838,5.6165769574935815,-0.0,0.2352060079574585,-1.514083210621969,0.0,-0.01070190779864788,0.9542140364646912,-0.0,0.010927688330411911,1.1080238819122314,0.0,-0.01297159492969513
672.0,554.0,-3.3858,-0.0407,9.1514,-0.0301,0.0249,-0.1155,-2.1470028362669886,0.0,4.080108165740967,-1.6561685800552368,-0.0,1.7361270189285278,5.6165926335151575,-0.0,0.23668503761291504,-1.5140875021563929,0.0,-0.011149393394589424,0.9542582631111145,-0.0,0.0002080397680401802,1.1079633235931396,0.0,0.0019844486378133297
672.0,554.0,-3.3858,-0.0407,9.1514,-0.0301,0.0249,-0.1155,-2.147010942498678,0.0,4.096281051635742,-1.6561652421951294,-0.0,1.7199630737304688,5.616580712586202,-0.0,0.24382618069648743,-1.5141156355487269,0.0,-0.01507287472486496,0.9542701840400696,-0.0,-0.0004101118538528681,1.1080317497253418,0.0,0.00395520543679595
672.0,554.0,-3.3858,-0.0407,9.1514,-0.0301,0.0249,-0.1155,-2.1470471821227015,0.0,4.092682361602783,-1.656204342842102,-0.0,1.7413849830627441,5.616540896683492,-0.0,0.24470362067222595,-1.5141118208514612,0.0,-0.014752322807908058,0.9542821049690247,-0.0,-0.003091104095801711,1.1080480813980103,0.0,-0.030245305970311165
672.0,554.0,-3.3858,-0.0407,9.1514,-0.0301,0.0249,-0.1155,-2.1469904385008753,0.0,4.119396209716797,-1.65615713596344,-0.0,1.7583624124526978,5.616584825306692,-0.0,0.2515677809715271,-1.5140507856952112,0.0,-0.022651102393865585,0.9542985558509827,-0.0,0.006553910672664642,1.108015775680542,0.0,0.009672156535089016
672.0,554.0,-3.3858,-0.0407,9.1514,-0.0301,0.0249,-0.1155,-2.147031446496481,0.0,4.163689613342285,-1.6561930179595947,-0.0,1.7426799535751343,5.616536485939779,-0.0,0.2456892430782318,-1.5141075293170374,0.0,-0.013866083696484566,0.9542660713195801,-0.0,0.010685647837817669,1.1079795360565186,0.0,-0.03278198465704918
672.0,554.0,-3.3858,-0.0407,9.1514,-0.0301,0.0249,-0.1155,-2.1469866238036097,0.0,4.06479549407959,-1.6562085151672363,-0.0,1.765383005142212,5.616588878422537,-0.0,0.24097934365272522,-1.514111344014303,0.0,-0.012589409947395325,0.9542262554168701,-0.0,0.00882475171238184,1.1079756021499634,0.0,0.0030447584576904774
672.0,554.0,-3.3858,-0.0407,9.1514,-0.0301,0.0249,-0.1155,-2.1470195255675257,0.0,4.068811416625977,-1.6562411785125732,-0.0,1.780508041381836,5.616520809918203,-0.0,0.24174770712852478,-1.514099423085348,0.0,-0.011605408042669296,0.9542701840400696,-0.0,-0.0058672805316746235,1.108015775680542,0.0,0.008877369575202465
672.0,554.0,-3.3858,-0.0407,9.1514,-0.0301,0.0249,-0.1155,-2.146998544732565,0.0,4.109618186950684,-1.656245470046997,-0.0,1.7495938539505005,5.616568791657247,-0.0,0.23850858211517334,-1.5140956083880823,0.0,-0.020311150699853897,0.9542945027351379,-0.0,0.0016528727719560266,1.1080563068389893,0.0,0.027214355766773224
672.0,554.0,-3.3858,-0.0407,9.1514,-0.0301,0.0249,-0.1155,-2.1470195255675257,0.0,4.089853286743164,-1.6561931371688843,-0.0,1.7342699766159058,5.616588580399313,-0.0,0.2516031265258789,-1.514151398335592,0.0,-0.024061910808086395,0.9542222023010254,-0.0,-0.004328081384301186,1.1079754829406738,0.0,0.023632248863577843
672.0,554.0,-3.3858,-0.0407,9.1514,-0.0301,0.0249,-0.1155,-2.146982809106344,0.0,4.121645927429199,-1.656180739402771,-0.0,1.7792670726776123,5.616584825306692,-0.0,0.24841812252998352,-1.514083210621969,0.0,-0.021429626271128654,0.954241931438446,-0.0,-0.013283363543450832,1.108024001121521,0.0,-0.011046521365642548
672.0,554.0,-3.3858,-0.0407,9.1514,-0.0301,0.0249,-0.1155,-2.1469952068724574,0.0,4.087385177612305,-1.6562165021896362,-0.0,1.758001446723938,5.616580712586202,-0.0,0.248131662607193,-1.5140464941607874,0.0,-0.020047176629304886,0.9542980790138245,-0.0,0.010691508650779724,1.108003854751587,0.0,0.007392889354377985
672.0,554.0,-3.3858,-0.0407,9.1514,-0.0301,0.0249,-0.1155,-2.1470233402647914,0.0,4.128713607788086,-1.6562050580978394,-0.0,1.7786755561828613,5.616596805840292,-0.0,0.2441551685333252,-1.5140875021563929,0.0,-0.01686345413327217,0.9542381763458252,-0.0,0.012217339128255844,1.107995629310608,0.0,-0.010119648650288582
672.0,554.0,-3.3858,-0.0407,9.1514,-0.0301,0.0249,-0.1155,-2.146994730035299,0.0,4.102930068969727,-1.656209111213684,-0.0,1.7253795862197876,5.616560685425558,-0.0,0.23613956570625305,-1.5141356627093714,0.0,-0.011774269863963127,0.9542861580848694,-0.0,0.014824820682406425,1.107979655265808,0.0,-0.003438090905547142
652.0,543.0,-3.3799,-0.0215,9.2315,-0.0321,0.0202,-0.1165,-2.1470195255675257,0.0,4.103374481201172,-1.6561766862869263,-0.0,1.7229387760162354,5.61662124374465,-0.0,0.22951889038085938,-1.5140755812274378,0.0,-0.00882947538048029,0.9542465209960938,-0.0,0.0017493010964244604,1.1080321073532104,0.0,0.009465870447456837
652.0,543.0,-3.3799,-0.0215,9.2315,-0.0321,0.0202,-0.1165,-2.1470195255675257,0.0,4.073757648468018,-1.6561930179595947,-0.0,1.741935133934021,5.616532730847158,-0.0,0.2446066290140152,-1.514179531727926,0.0,-0.019648589193820953,0.9542058706283569,-0.0,0.008808588609099388,1.1080116033554077,0.0,0.024358101189136505
652.0,543.0,-3.3799,-0.0215,9.2315,-0.0321,0.0202,-0.1165,-2.1469866238036097,0.0,4.062006950378418,-1.6561849117279053,-0.0,1.7626965045928955,5.616572606354513,-0.0,0.25337857007980347,-1.5140793959247034,0.0,-0.0020279521122574806,0.9542059302330017,-0.0,0.006313826888799667,1.108015775680542,0.0,-0.028185533359646797
652.0,543.0,-3.3799,-0.0215,9.2315,-0.0321,0.0202,-0.1165,-2.1470395527281703,0.0,4.069610118865967,-1.6562165021896362,-0.0,1.7275716066360474,5.616596746235647,-0.0,0.2491133213043213,-1.5140951315509241,0.0,0.006596090737730265,0.95423823595047,-0.0,-0.0022514923475682735,1.108003854751587,0.0,-0.007794951554387808
652.0,543.0,-3.3799,-0.0215,9.2315,-0.0321,0.0202,-0.1165,-2.1470352611937464,0.0,4.0924177169799805,-1.6562010049819946,-0.0,1.7307987213134766,5.616564738541403,-0.0,0.24680021405220032,-1.5140875021563929,0.0,-0.018911702558398247,0.9542304873466492,-0.0,0.0012094277190044522,1.1080480813980103,0.0,0.00977734848856926
652.0,543.0,-3.3799,-0.0215,9.2315,-0.0321,0.0202,-0.1165,-2.147027631799215,0.0,4.101550579071045,-1.6561886072158813,-0.0,1.7697162628173828,5.616600799351492,-0.0,0.23542436957359314,-1.5141156355487269,0.0,-0.0009768458548933268,0.9542381763458252,-0.0,-0.008788710460066795,1.107995629310608,0.0,-0.020214412361383438
652.0,543.0,-3.3799,-0.0215,9.2315,-0.0321,0.0202,-0.1165,-2.1470395527281703,0.0,4.099492073059082,-1.6561931371688843,-0.0,1.759031057357788,5.616576659470358,-0.0,0.24057233333587646,-1.5141194502459925,0.0,-0.00975865125656128,0.9542861580848694,-0.0,-0.00429871678352356,1.108015775680542,0.0,0.010022754780948162
652.0,543.0,-3.3799,-0.0215,9.2315,-0.0321,0.0202,-0.1165,-2.147043367425436,0.0,4.090604305267334,-1.656220555305481,-0.0,1.7366650104522705,5.616572606354513,-0.0,0.237781822681427,-1.5140913168536585,0.0,-0.01515408419072628,0.9542015194892883,-0.0,5.1393406465649605e-05,1.1080522537231445,0.0,0.019270120188593864
652.0,543.0,-3.3799,-0.0215,9.2315,-0.0321,0.0202,-0.1165,-2.1470028362669886,0.0,4.099706172943115,-1.6561766862869263,-0.0,1.7578518390655518,5.616612720280447,-0.0,0.24181586503982544,-1.5141194502459925,0.0,-0.009807930327951908,0.9542422294616699,-0.0,0.0016176498029381037,1.1080238819122314,0.0,-0.004962041042745113
652.0,543.0,-3.3799,-0.0215,9.2315,-0.0321,0.0202,-0.1165,-2.1470395527281703,0.0,4.053312301635742,-1.6562165021896362,-0.0,1.734345555305481,5.616600799351492,-0.0,0.25584596395492554,-1.514083210621969,0.0,-0.03230949863791466,0.9542222023010254,-0.0,4.4723463361151516e-05,1.1080197095870972,0.0,-0.0015694075264036655
652.0,543.0,-3.3799,-0.0215,9.2315,-0.0321,0.0202,-0.1165,-2.147027154962057,0.0,4.1175618171691895,-1.6561732292175293,-0.0,1.772085189819336,5.616604673653402,-0.0,0.2603800594806671,-1.5140989462481897,0.0,-0.020951101556420326,0.9542096853256226,-0.0,0.003200522158294916,1.1080361604690552,0.0,-0.040311049669981
652.0,543.0,-3.3799,-0.0215,9.2315,-0.0321,0.0202,-0.1165,-2.147015234033102,0.0,4.091472148895264,-1.6561970710754395,-0.0,1.741097092628479,5.616560685425558,-0.0,0.2335125207901001,-1.5141313711749476,0.0,-0.017979051917791367,0.9542381763458252,-0.0,0.0011247756192460656,1.1080279350280762,0.0,-0.01773216389119625
652.0,543.0,-3.3799,-0.0215,9.2315,-0.0321,0.0202,-0.1165,-2.147031446496481,0.0,4.085184097290039,-1.656180739402771,-0.0,1.7619973421096802,5.616584825306692,-0.0,0.24214735627174377,-1.5141156355487269,0.0,-0.011046815663576126,0.9542096853256226,-0.0,0.014778874814510345,1.10806405544281,0.0,-0.042378924787044525
652.0,543.0,-3.3799,-0.0215,9.2315,-0.0321,0.0202,-0.1165,-2.147010942498678,0.0,4.098605155944824,-1.6562165021896362,-0.0,1.7679474353790283,5.616556572705068,-0.0,0.24079284071922302,-1.5140951315509241,0.0,-0.007262110710144043,0.9542259573936462,-0.0,0.0007690157508477569,1.108007550239563,0.0,0.0002798638306558132
652.0,543.0,-3.3799,-0.0215,9.2315,-0.0321,0.0202,-0.1165,-2.1470633945860804,0.0,4.093384742736816,-1.656256914138794,-0.0,1.730922818183899,5.616584825306692,-0.0,0.24180109798908234,-1.5141390005694788,0.0,-0.008469266816973686,0.9542821049690247,-0.0,-0.0016940815839916468,1.1080198287963867,0.0,0.021093647927045822
652.0,543.0,-3.3799,-0.0215,9.2315,-0.0321,0.0202,-0.1165,-2.147010942498678,0.0,4.0457611083984375,-1.656209111213684,-0.0,1.7090398073196411,5.616580772190847,-0.0,0.25000303983688354,-1.514127556477682,0.0,-0.008952575735747814,0.9542542099952698,-0.0,0.0020387228578329086,1.1080840826034546,0.0005409118020907044,-0.005967387463897467
652.0,543.0,-3.3799,-0.0215,9.2315,-0.0321,0.0202,-0.1165,-2.1470471821227015,0.0,4.068680286407471,-1.656172513961792,-0.0,1.752488613128662,5.616576659470358,-0.0,0.2477160096168518,-1.5140870253192347,0.0,-0.006167528219521046,0.9542099237442017,-0.0,0.00966094620525837,1.1080677509307861,0.0005431991303339601,0.04347531124949455
652.0,543.0,-3.3799,-0.0215,9.2315,-0.0321,0.0202,-0.1165,-2.1470352611937464,0.0,4.086809158325195,-1.6562010049819946,-0.0,1.757512092590332,5.616604614048757,-0.0,0.24375951290130615,-1.5141595045672815,0.0,-0.0055023678578436375,0.9542460441589355,-0.0,0.013424928300082684,1.1079914569854736,0.0005345995305106044,-0.055984966456890106
652.0,543.0,-3.3799,-0.0215,9.2315,-0.0321,0.0202,-0.1165,-2.1470071278014125,0.0,4.058755397796631,-1.6561970710754395,-0.0,1.7915633916854858,5.616592693119802,-0.0,0.238516703248024,-1.5141390005694788,0.0,-0.026634998619556427,0.9542180895805359,-0.0,-0.0029390265699476004,1.108043909072876,0.0005830274312756956,-0.020098477602005005
652.0,543.0,-3.3799,-0.0215,9.2315,-0.0321,0.0202,-0.1165,-2.147015234033102,0.0,4.141736030578613,-1.6562085151672363,-0.0,1.7328492403030396,5.616572606354513,-0.0,0.23933327198028564,-1.5140793959247034,0.0,-0.0077862972393631935,0.9542055130004883,-0.0,0.0015405321028083563,1.1080238819122314,0.0005908709717914462,-0.016199037432670593
706.0,567.0,-3.4307,-0.6987,9.265,-0.0599,0.0568,-0.1886,-2.1470471821227015,0.0,4.064376354217529,-1.6562010049819946,-0.0,1.7558133602142334,5.616580712586202,-0.0,0.24500766396522522,-1.5141390005694788,0.0,-0.013642233796417713,0.9542220234870911,-0.0,0.007529145106673241,1.1080238819122314,0.0005666184588335454,-0.018235238268971443
706.0,567.0,-3.4307,-0.6987,9.265,-0.0599,0.0568,-0.1886,-2.147027154962057,0.0,4.100542068481445,-1.656204342842102,-0.0,1.7732635736465454,5.616592693119802,-0.0,0.25104376673698425,-1.5140507856952112,0.0,-0.016863573342561722,0.9542701840400696,-0.0,-0.013715209439396858,1.1080275774002075,0.000672330497764051,0.012022214010357857
706.0,567.0,-3.4307,-0.6987,9.265,-0.0599,0.0568,-0.1886,-2.1470028362669886,0.0,4.121608734130859,-1.656180739402771,-0.0,1.7503944635391235,5.616592693119802,-0.0,0.25238677859306335,-1.5140951315509241,0.0,-0.015205543488264084,0.9542500972747803,-0.0,0.006635876838117838,1.1080718040466309,0.0006384640582837164,-0.00910396408289671
706.0,567.0,-3.4307,-0.6987,9.265,-0.0599,0.0568,-0.1886,-2.147027154962057,0.0,4.121268272399902,-1.6561931371688843,-0.0,1.7386733293533325,5.616536485939779,-0.0,0.24122275412082672,-1.5141432921039026,0.0,-0.002365473425015807,0.9542579650878906,-0.0,-0.008437207899987698,1.1081163883209229,0.0007153041078709066,-0.036789484322071075
706.0,567.0,-3.4307,-0.6987,9.265,-0.0599,0.0568,-0.1886,-2.1470471821227015,0.0,4.096461772918701,-1.656256914138794,-0.0,1.732548713684082,5.616568791657247,-0.0,0.2445027083158493,-1.514055077229635,0.0,-0.0150108952075243,0.9542825818061829,-0.0,0.011308329179883003,1.1080840826034546,0.0007224900764413178,0.019649475812911987
706.0,567.0,-3.4307,-0.6987,9.265,-0.0599,0.0568,-0.1886,-2.1469904385008753,0.0,4.09298038482666,-1.6562165021896362,-0.0,1.715455412864685,5.616596269398489,-0.0,0.23917916417121887,-1.514111344014303,0.0,-0.00622569490224123,0.9542422890663147,-0.0,0.0015294038457795978,1.1080877780914307,0.0006894767284393311,0.044220395386219025
706.0,567.0,-3.4307,-0.6987,9.265,-0.0599,0.0568,-0.1886,-2.1469909153380335,0.0,4.0820231437683105,-1.6561692953109741,-0.0,1.7454283237457275,5.616536485939779,-0.0,0.23810818791389465,-1.514111344014303,0.0,-0.022172119468450546,0.9542500972747803,-0.0,0.0026266155764460564,1.1080317497253418,0.0005861059762537479,0.020883411169052124
706.0,567.0,-3.4307,-0.6987,9.265,-0.0599,0.0568,-0.1886,-2.147031446496481,0.0,4.0851969718933105,-1.6561447381973267,-0.0,1.7663204669952393,5.616536783963003,-0.0,0.23895785212516785,-1.5140913168536585,0.0,-0.013200752437114716,0.9542378187179565,-0.0,-0.0019214521162211895,1.1080317497253418,0.0005040286923758686,-0.04939020425081253
706.0,567.0,-3.4307,-0.6987,9.265,-0.0599,0.0568,-0.1886,-2.1470028362669886,0.0,4.087735652923584,-1.656177282333374,-0.0,1.7486824989318848,5.616596746235647,-0.0,0.23451265692710876,-1.5141237417804163,0.0,-0.01642531156539917,0.9542422294616699,-0.0,-0.005835579242557287,1.1081041097640991,0.0004165346035733819,0.045298364013433456
706.0,567.0,-3.4307,-0.6987,9.265,-0.0599,0.0568,-0.1886,-2.1470028362669886,0.0,4.109744548797607,-1.6561487913131714,-0.0,1.7410953044891357,5.616596746235647,-0.0,0.23495717346668243,-1.5141156355487269,0.0,-0.015276582911610603,0.954254150390625,-0.0,0.008764691650867462,1.1080677509307861,0.0003733328194357455,0.01758129894733429
706.0,567.0,-3.4307,-0.6987,9.265,-0.0599,0.0568,-0.1886,-2.146998544732565,0.0,4.05369234085083,-1.6561927795410156,-0.0,1.7507636547088623,5.616608726769247,-0.0,0.2457340955734253,-1.5140875021563929,0.0,-0.019970133900642395,0.9542222023010254,-0.0,-0.003956901840865612,1.1080358028411865,0.0002761455252766609,-0.0014553437940776348
706.0,567.0,-3.4307,-0.6987,9.265,-0.0599,0.0568,-0.1886,-2.147015234033102,0.0,4.066115856170654,-1.6562165021896362,-0.0,1.7378835678100586,5.616612720280447,-0.0,0.24807864427566528,-1.5141595045672815,0.0,-0.01547342911362648,0.9542701840400696,-0.0,-0.004721589852124453,1.1080435514450073,0.0002459293173160404,0.02153286524116993
706.0,567.0,-3.4307,-0.6987,9.265,-0.0599,0.0568,-0.1886,-2.1469866238036097,0.0,4.100990295410156,-1.6561692953109741,-0.0,1.7517162561416626,5.616556691914358,-0.0,0.24872969090938568,-1.514111344014303,0.0,-0.023699820041656494,0.9542582631111145,-0.0,0.005948530975729227,1.1080636978149414,0.0002216948487330228,0.020218465477228165
706.0,567.0,-3.4307,-0.6987,9.265,-0.0599,0.0568,-0.1886,-2.146998544732565,0.0,4.1045122146606445,-1.6561692953109741,-0.0,1.7498818635940552,5.616560625820913,-0.0,0.24227000772953033,-1.5141070524798792,0.0,0.004883346147835255,0.954230010509491,-0.0,-0.00585190299898386,1.1080156564712524,0.00019314655219204724,0.003916450776159763
706.0,567.0,-3.4307,-0.6987,9.265,-0.0599,0.0568,-0.1886,-2.1470028362669886,0.0,4.078594207763672,-1.6561886072158813,-0.0,1.752231478691101,5.616564738541403,-0.0,0.23604245483875275,-1.514111344014303,0.0,-0.009999725967645645,0.954254150390625,-0.0,0.009351659566164017,1.1080317497253418,0.00017787600518204272,-0.010990669950842857
706.0,567.0,-3.4307,-0.6987,9.265,-0.0599,0.0568,-0.1886,-2.147015234033102,0.0,4.086554527282715,-1.6561927795410156,-0.0,1.732745885848999,5.6165286777313135,-0.0,0.24118664860725403,-1.5141313711749476,0.0,-0.010791837237775326,0.9542862176895142,-0.0,-0.004035145044326782,1.1080881357192993,0.0001648435281822458,-0.025617560371756554
706.0,567.0,-3.4307,-0.6987,9.265,-0.0599,0.0568,-0.1886,-2.1470195255675257,0.0,4.117926120758057,-1.6562649011611938,-0.0,1.7626681327819824,5.616572546749868,-0.0,0.23663505911827087,-1.514167610798971,0.0,-0.00135012436658144,0.9542465209960938,-0.0,-0.002348589710891247,1.1080398559570312,0.0001535907358629629,0.04800913855433464
706.0,567.0,-3.4307,-0.6987,9.265,-0.0599,0.0568,-0.1886,-2.146994730035299,0.0,4.065142631530762,-1.6561967134475708,-0.0,1.7312748432159424,5.616560685425558,-0.0,0.24033087491989136,-1.5141356627093714,0.0,-0.006339021027088165,0.9543026089668274,-0.0,-0.0010313031962141395,1.108043909072876,0.0001437756436644122,0.01474833581596613
706.0,567.0,-3.4307,-0.6987,9.265,-0.0599,0.0568,-0.1886,-2.1470071278014125,0.0,4.159729957580566,-1.656160831451416,-0.0,1.72492253780365,5.616548704891958,-0.0,0.24584579467773438,-1.5140875021563929,0.0,-0.018338505178689957,0.954230010509491,-0.0,0.007977310568094254,1.1080842018127441,0.00013119990762788802,0.0013826033100485802
706.0,567.0,-3.4307,-0.6987,9.265,-0.0599,0.0568,-0.1886,-2.147015234033102,0.0,4.10558557510376,-1.6561692953109741,-0.0,1.71555495262146,5.616556870728292,-0.0,0.2453404664993286,-1.5140951315509241,0.0,-0.02928747981786728,0.9542222023010254,-0.0,0.014477633871138096,1.1080840826034546,0.0001239709963556379,0.008942258544266224
706.0,567.0,-3.4307,-0.6987,9.265,-0.0599,0.0568,-0.1886,-2.146998544732565,0.0,4.08507776260376,-1.6561652421951294,-0.0,1.7142333984375,5.616544711380758,-0.0,0.23763231933116913,-1.514111344014303,0.0,-0.032049696892499924,0.9542500972747803,-0.0,-0.009481622837483883,1.1080517768859863,0.00011749718396458775,0.004570281133055687
678.0,607.0,-3.2016,-0.3248,9.0897,-0.0336,0.0179,-0.106,-2.1470195255675257,0.0,4.097626686096191,-1.6561970710754395,-0.0,1.7673397064208984,5.616544651776113,-0.0,0.22799178957939148,-1.5140951315509241,0.0,-0.017098911106586456,0.9541974067687988,-0.0,0.014199011027812958,1.1080156564712524,0.00011166572221554816,0.02700035087764263
678.0,607.0,-3.2016,-0.3248,9.0897,-0.0336,0.0179,-0.106,-2.146994730035299,0.0,4.0852885246276855,-1.6562010049819946,-0.0,1.7766242027282715,5.6165286777313135,-0.0,0.2365720421075821,-1.514111344014303,0.0,-0.022376518696546555,0.9542861580848694,-0.0,0.013531923294067383,1.1080517768859863,0.00010638587991707027,-0.023320892825722694
678.0,607.0,-3.2016,-0.3248,9.0897,-0.0336,0.0179,-0.106,-2.1469866238036097,0.0,4.092735290527344,-1.6561886072158813,-0.0,1.7197630405426025,5.616596746235647,-0.0,0.24074941873550415,-1.5140875021563929,0.0,-0.007558422163128853,0.9542500972747803,-0.0,0.0017372644506394863,1.1080358028411865,9.934037370840088e-05,0.0026704755146056414
678.0,607.0,-3.2016,-0.3248,9.0897,-0.0336,0.0179,-0.106,-2.147022863427633,0.0,4.098299980163574,-1.6561970710754395,-0.0,1.7104253768920898,5.616556870728292,-0.0,0.24052542448043823,-1.5141194502459925,0.0,-0.018943212926387787,0.9542422294616699,-0.0,-0.008243040181696415,1.1081328392028809,9.513978147879243e-05,0.022294482216238976
678.0,607.0,-3.2016,-0.3248,9.0897,-0.0336,0.0179,-0.106,-2.1470195255675257,0.0,4.112318515777588,-1.6561408042907715,-0.0,1.733687400817871,5.616596805840292,-0.0,0.24191200733184814,-1.5141356627093714,0.0,-0.016775598749518394,0.9542222023010254,-0.0,-0.0018353579798713326,1.1080800294876099,9.128015517489985e-05,-0.019212426617741585
678.0,607.0,-3.2016,-0.3248,9.0897,-0.0336,0.0179,-0.106,-2.1469866238036097,0.0,4.1003642082214355,-1.6561732292175293,-0.0,1.7204965353012085,5.616544651776113,-0.0,0.23165810108184814,-1.5141194502459925,0.0,-0.013623960316181183,0.9542341232299805,-0.0,0.00016875192523002625,1.1080758571624756,8.77213678904809e-05,0.005858175922185183
678.0,607.0,-3.2016,-0.3248,9.0897,-0.0336,0.0179,-0.106,-2.1469866238036097,0.0,4.074146270751953,-1.6562165021896362,-0.0,1.7375462055206299,5.616548287659445,-0.0,0.23916608095169067,-1.5141032377826136,0.0,-0.0064516495913267136,0.954254150390625,-0.0,0.0023888987489044666,1.1080840826034546,9.93411013041623e-05,-0.02032756246626377
678.0,607.0,-3.2016,-0.3248,9.0897,-0.0336,0.0179,-0.106,-2.147031446496481,0.0,4.101966381072998,-1.6561527252197266,-0.0,1.7471040487289429,5.616584527283468,-0.0,0.23889042437076569,-1.514151398335592,0.0,-0.017431840300559998,0.9542222023010254,-0.0,0.003915016073733568,1.108067512512207,0.00016881244664546102,0.05100976303219795
678.0,607.0,-3.2016,-0.3248,9.0897,-0.0336,0.0179,-0.106,-2.1469866238036097,0.0,4.086423873901367,-1.6561528444290161,0.00014672406541649252,1.757688283920288,5.616604614048757,-0.0,0.23884177207946777,-1.5141032377826136,0.0,-0.023282883688807487,0.954314112663269,-0.0,0.020973889157176018,1.1080958843231201,0.006364479660987854,0.045664846897125244
678.0,607.0,-3.2016,-0.3248,9.0897,-0.0336,0.0179,-0.106,-2.147010942498678,0.0,4.047510623931885,-1.6561411619186401,0.003983712289482355,1.7587165832519531,5.616600501328268,-0.0,0.2384202778339386,-1.514111344014303,0.0,-0.007710342761129141,0.9541773200035095,-0.0,-0.0056510865688323975,1.1081879138946533,0.010579057037830353,0.0204349122941494
678.0,607.0,-3.2016,-0.3248,9.0897,-0.0336,0.0179,-0.106,-2.146998544732565,0.0,4.0937395095825195,-1.6560323238372803,0.008845590986311436,1.740200161933899,5.616592156677999,-0.0,0.2349914014339447,-1.5140793959247034,0.0,-0.017371071502566338,0.9542259573936462,-0.0,0.00017126885359175503,1.108231782913208,0.014017322100698948,-0.014512166380882263
678.0,607.0,-3.2016,-0.3248,9.0897,-0.0336,0.0179,-0.106,-2.1470028362669886,0.0,4.0825419425964355,-1.6559932231903076,0.015092678368091583,1.7706667184829712,5.6165761826331995,-0.0,0.24785563349723816,-1.5141156355487269,0.0,-0.027005266398191452,0.9542620182037354,-0.0,0.0008858751971274614,1.1082837581634521,0.016040587797760963,-0.023491445928812027
678.0,607.0,-3.2016,-0.3248,9.0897,-0.0336,0.0179,-0.106,-2.1469861469664515,0.0,4.119075775146484,-1.655888557434082,0.02029583789408207,1.7663273811340332,5.616592156677999,-0.0,0.24327710270881653,-1.514127556477682,0.0,-0.01307005062699318,0.954241931438446,-0.0,0.00637548603117466,1.108331561088562,0.018524540588259697,0.07707402110099792
678.0,607.0,-3.2016,-0.3248,9.0897,-0.0336,0.0179,-0.106,-2.147027154962057,0.0,4.105364799499512,-1.6557763814926147,0.021830622106790543,1.7737400531768799,5.6166045544441126,-0.0,0.2416166365146637,-1.5141313711749476,0.0,-0.008349545300006866,0.9542259573936462,-0.0,0.007698750123381615,1.1084879636764526,0.02013150230050087,0.0036843051202595234
678.0,607.0,-3.2016,-0.3248,9.0897,-0.0336,0.0179,-0.106,-2.147015234033102,0.0,4.1098175048828125,-1.655737042427063,0.022025758400559425,1.7605209350585938,5.616600501328268,-0.0,0.2390371561050415,-1.5141070524798792,0.0,0.004543720278888941,0.9542821049690247,-0.0,0.019622985273599625,1.1085718870162964,0.021824704483151436,0.054720040410757065
678.0,607.0,-3.2016,-0.3248,9.0897,-0.0336,0.0179,-0.106,-2.146998544732565,0.0,4.070940017700195,-1.6555571556091309,0.02102539874613285,1.7683093547821045,5.616612899094381,-0.0,0.2419579029083252,-1.5141070524798792,0.0,-0.010100518353283405,0.9542940258979797,-0.0,0.006145946215838194,1.108680248260498,0.02449374459683895,0.007301876787096262
678.0,607.0,-3.2016,-0.3248,9.0897,-0.0336,0.0179,-0.106,-2.146994730035299,0.0,4.132607936859131,-1.6555490493774414,0.01869223825633526,1.7699954509735107,5.61662124374465,-0.0,0.2367158830165863,-1.5141032377826136,0.0,-0.007131980732083321,0.9542500972747803,-0.0,-0.00689335074275732,1.1087275743484497,0.026660215109586716,-0.018016569316387177
678.0,607.0,-3.2016,-0.3248,9.0897,-0.0336,0.0179,-0.106,-2.1470195255675257,0.0,4.096550464630127,-1.6554127931594849,0.015184318646788597,1.7969532012939453,5.616536485939779,-0.0,0.23714934289455414,-1.5141595045672815,0.0,-0.0022028405219316483,0.9542341232299805,-0.0,0.006175575777888298,1.1089199781417847,0.029298895969986916,0.042402930557727814
678.0,607.0,-3.2016,-0.3248,9.0897,-0.0336,0.0179,-0.106,-2.1470071278014125,0.0,4.115838050842285,-1.655393123626709,0.013771044090390205,1.7509838342666626,5.616572546749868,-0.0,0.2439994513988495,-1.514099423085348,0.0,-0.01578841730952263,0.9542341232299805,-0.0,0.018904197961091995,1.1090681552886963,0.03014354407787323,0.07585825771093369
678.0,607.0,-3.2016,-0.3248,9.0897,-0.0336,0.0179,-0.106,-2.1469866238036097,0.0,4.119997024536133,-1.6553252935409546,0.01282738707959652,1.7652195692062378,5.616588580399313,-0.0,0.24677765369415283,-1.5140870253192347,0.0,-0.019799761474132538,0.9542500972747803,-0.0,0.012678020633757114,1.1091158390045166,0.02902045100927353,-0.032407015562057495
678.0,607.0,-3.2016,-0.3248,9.0897,-0.0336,0.0179,-0.106,-2.1469785175719203,0.0,4.120169639587402,-1.6552529335021973,0.012559803202748299,1.7421441078186035,5.616608667164602,-0.0,0.24017134308815002,-1.5141595045672815,0.0,-0.01503247395157814,0.9542943835258484,-0.0,-0.019683584570884705,1.1092960834503174,0.026022955775260925,0.047994911670684814
662.0,585.0,-2.9216,0.3404,9.0592,0.0183,0.0194,-0.0906,-2.146998544732565,0.0,4.098238945007324,-1.6552252769470215,0.011548412032425404,1.7569756507873535,5.616572665959158,-0.0,0.2384699285030365,-1.5141070524798792,0.0,-0.014737222343683243,0.9542899131774902,-0.0,0.0040583014488220215,1.1093279123306274,0.021031547337770462,0.010789407417178154
662.0,585.0,-2.9216,0.3404,9.0592,0.0183,0.0194,-0.0906,-2.1470028362669886,0.0,4.111697196960449,-1.6551332473754883,0.011015215888619423,1.7097011804580688,5.616488206177511,-0.0,0.24126538634300232,-1.5141390005694788,0.0,-0.013299854472279549,0.9542505145072937,-0.0,0.00023282988695427775,1.1094679832458496,0.012927982956171036,0.0045343502424657345
662.0,585.0,-2.9216,0.3404,9.0592,0.0183,0.0194,-0.0906,-2.146982809106344,0.0,4.067049503326416,-1.6551622152328491,0.01131054200232029,1.7437574863433838,5.616524922638693,-0.0,0.23941048979759216,-1.514139477406637,0.0,-0.0072093834169209,0.9542666077613831,-0.0,-0.00854022428393364,1.1094555854797363,0.007237516809254885,-0.05184350907802582
662.0,585.0,-2.9216,0.3404,9.0592,0.0183,0.0194,-0.0906,-2.1470591030516566,0.0,4.101781845092773,-1.6550533771514893,0.012113668955862522,1.7490015029907227,5.6164923188980005,-0.0010121401865035295,0.23103705048561096,-1.5141032377826136,0.0,-0.014969871379435062,0.954254150390625,-0.0,0.00400694040581584,1.1095035076141357,0.0031271253246814013,0.04720070958137512
662.0,585.0,-2.9216,0.3404,9.0592,0.0183,0.0194,-0.0906,-2.1470633945860804,0.0,4.068111896514893,-1.6549639701843262,0.011858083307743073,1.7867580652236938,5.616484391480245,-0.001322609605267644,0.23908016085624695,-1.5141390005694788,0.0,-0.017512310296297073,0.954230010509491,-0.0,0.00503526721149683,1.1094833612442017,0.0010562908137217164,0.027531016618013382
662.0,585.0,-2.9216,0.3404,9.0592,0.0183,0.0194,-0.0906,-2.1470233402647914,0.0,4.104137420654297,-1.6550010442733765,0.01173013262450695,1.7808146476745605,5.616464364319601,-0.001403900096192956,0.2338670790195465,-1.514127556477682,0.0,-0.012179862707853317,0.9542500972747803,-0.0,0.0070347860455513,1.1094715595245361,-7.075274334056303e-05,0.030175596475601196
662.0,585.0,-2.9216,0.3404,9.0592,0.0183,0.0194,-0.0906,-2.147022863427633,0.0,4.110763072967529,-1.6549010276794434,0.011303558014333248,1.7676560878753662,5.6165130017097376,-0.0010119416983798146,0.24134081602096558,-1.5141308943377894,0.0,-0.010119245387613773,0.9542378783226013,-0.0,0.00429871678352356,1.109495997428894,-0.001724086469039321,-0.00436549773439765
662.0,585.0,-2.9216,0.3404,9.0592,0.0183,0.0194,-0.0906,-2.1469866238036097,0.0,4.083690643310547,-1.6548242568969727,0.011325071565806866,1.7461199760437012,5.616541373520651,-0.0007363938493654132,0.2398177832365036,-1.514127556477682,0.0,-0.0023690559901297092,0.9541979432106018,-0.0,0.006376385688781738,1.109407663345337,-0.004679836332798004,-0.006536982953548431
662.0,585.0,-2.9216,0.3404,9.0592,0.0183,0.0194,-0.0906,-2.147010942498678,0.0,4.137578010559082,-1.6547811031341553,0.012682988308370113,1.8096190690994263,5.6165130017097376,-0.0005783088272437453,0.2394508421421051,-1.5141471068011683,0.0,-0.01929185725748539,0.9541895389556885,-0.0,0.006526357959955931,1.1093920469284058,-0.006494469940662384,-0.01645166426897049
662.0,585.0,-2.9216,0.3404,9.0592,0.0183,0.0194,-0.0906,-2.147010942498678,0.0,4.093600273132324,-1.654697060585022,0.013718992471694946,1.760796070098877,5.616517054825582,-0.00047617475502192974,0.23998841643333435,-1.514111344014303,0.0,-0.014325869269669056,0.9542701840400696,-0.0,0.0034734364598989487,1.1093274354934692,-0.007048569619655609,-0.01571028307080269
662.0,585.0,-2.9216,0.3404,9.0592,0.0183,0.0194,-0.0906,-2.146958967248434,0.0,4.115777969360352,-1.654649257659912,0.016170842573046684,1.7419170141220093,5.616524922638693,-0.0003764914581552148,0.23669543862342834,-1.5141432921039026,0.0,-0.025534484535455704,0.9543104767799377,-0.0,-0.013381590135395527,1.1092755794525146,-0.009067303501069546,-0.015924468636512756
662.0,585.0,-2.9216,0.3404,9.0592,0.0183,0.0194,-0.0906,-2.1469303570189417,0.0,4.077334403991699,-1.6545976400375366,0.017047839239239693,1.7788453102111816,5.616537320404806,-0.0003303933481220156,0.23547062277793884,-1.5141070524798792,0.0,-0.0201445072889328,0.9542341232299805,-0.0,0.009506029076874256,1.1092559099197388,-0.009122297167778015,0.004372383933514357
662.0,585.0,-2.9216,0.3404,9.0592,0.0183,0.0194,-0.0906,-2.1469747028746546,1.859441454143962e-07,4.108727931976318,-1.654517650604248,0.01703799143433571,1.780277967453003,5.616472649365225,-0.00029435695614665747,0.24174851179122925,-1.5141156355487269,0.0,-0.006706767715513706,0.9541735649108887,-0.0,-0.005249731242656708,1.109191656112671,-0.00831442791968584,0.017538858577609062
662.0,585.0,-2.9216,0.3404,9.0592,0.0183,0.0194,-0.0906,-2.146970888177389,3.3469289839604954e-11,4.0829572677612305,-1.6543970108032227,0.018154429271817207,1.7657690048217773,5.616488623410024,-0.0003310352039989084,0.23417586088180542,-1.514099423085348,0.0,-0.016344746574759483,0.9542259573936462,-0.0,-0.0018352232873439789,1.1092121601104736,-0.0072499425150454044,-0.021149877458810806
662.0,585.0,-2.9216,0.3404,9.0592,0.0183,0.0194,-0.0906,-2.1469952068724574,6.0243532777897076e-15,4.089969158172607,-1.6543368101119995,0.018805718049407005,1.8010684251785278,5.616512822895803,-0.0002429605956422165,0.24259108304977417,-1.514099423085348,0.0,-0.017086412757635117,0.9542381763458252,-0.0,0.004286013077944517,1.1091760396957397,-0.006301811896264553,-0.0461915023624897
662.0,585.0,-2.9216,0.3404,9.0592,0.0183,0.0194,-0.0906,-2.1469785175719203,1.4548105262348864e-20,4.115825653076172,-1.6542482376098633,0.01727418415248394,1.7197448015213013,5.616477060108938,-0.001734111225232482,0.2523825168609619,-1.5141156355487269,0.0,-0.008948711678385735,0.954230010509491,-0.0,0.01109740324318409,1.109115719795227,-0.005094626918435097,0.021236233413219452
662.0,585.0,-2.9216,0.3404,9.0592,0.0183,0.0194,-0.0906,-2.146942754785055,2.618607800447818e-24,4.135317802429199,-1.6542088985443115,0.016353286802768707,1.7771375179290771,5.616480815201559,-0.0036788529250770807,0.24014517664909363,-1.514099423085348,0.0,-0.016634516417980194,0.9542378783226013,-0.0,0.006741611752659082,1.1090996265411377,-0.004914977587759495,0.0069680772721767426
662.0,585.0,-2.9216,0.3404,9.0592,0.0183,0.0194,-0.0906,-2.1470233402647914,1.2817013157473411e-05,4.045802593231201,-1.6541653871536255,0.014954376965761185,1.7796813249588013,5.6164331314857385,-0.00794362835586071,0.22848206758499146,-1.514083210621969,0.0,-0.008790583349764347,0.9542617797851562,-0.0,-0.0020249863155186176,1.1090717315673828,-0.004975670482963324,-0.01813347637653351
662.0,585.0,-2.9216,0.3404,9.0592,0.0183,0.0194,-0.0906,-2.146970888177389,-0.00012864434393122792,4.136514663696289,-1.6540250778198242,0.013711893931031227,1.74196457862854,5.616377162724294,-0.01630435511469841,0.22196926176548004,-1.5140913168536585,0.0,-0.01722998544573784,0.9542821049690247,-0.0,0.0023794814478605986,1.1090275049209595,-0.005303332582116127,-0.004449210129678249
662.0,585.0,-2.9216,0.3404,9.0592,0.0183,0.0194,-0.0906,-2.1470028362669886,-0.00011257551523158327,4.117942810058594,-1.6540089845657349,0.012952699325978756,1.7796103954315186,5.616308855801382,-0.020521191880106926,0.23290327191352844,-1.514083210621969,0.0,-0.01630965620279312,0.9543178677558899,-0.0,-0.0023396669421344995,1.1090439558029175,-0.0045401230454444885,-0.05735708400607109
662.0,585.0,-2.9216,0.3404,9.0592,0.0183,0.0194,-0.0906,-2.1469584904112757,-9.478827996645123e-05,4.083566665649414,-1.6539735794067383,0.012757941149175167,1.7394620180130005,5.616201090603628,-0.013734209351241589,0.2374953031539917,-1.5140956083880823,0.0,-0.013886013999581337,0.954302191734314,-0.0,0.014004372991621494,1.1090279817581177,-0.0037042477633804083,-0.056135788559913635
667.0,560.0,-3.8596,-0.2841,9.1226,-0.0492,0.0283,-0.1289,-2.1470071278014125,-8.575544779887423e-05,4.109601974487305,-1.65386164188385,0.012777134776115417,1.7329111099243164,5.616181361466207,-0.007449711672961712,0.24169546365737915,-1.5140631834613245,0.0,-0.010143117979168892,0.9542660713195801,-0.0,0.015336371958255768,1.1090116500854492,-0.003121383721008897,-0.016946079209446907
667.0,560.0,-3.8596,-0.2841,9.1226,-0.0492,0.0283,-0.1289,-2.1470028362669886,-7.829472451703623e-05,4.102518081665039,-1.6537683010101318,0.012696556746959686,1.7529627084732056,5.616157400399008,-0.002515138126909733,0.24772629141807556,-1.5140631834613245,0.0,-0.009351944550871849,0.9542779922485352,-0.0,0.002482665702700615,1.1089718341827393,-0.00241280160844326,0.04291347414255142
667.0,560.0,-3.8596,-0.2841,9.1226,-0.0492,0.0283,-0.1289,-2.146982809106344,-7.202837150543928e-05,4.075838088989258,-1.6537607908248901,0.013690524734556675,1.7816414833068848,5.616093385010519,0.00019215545034967363,0.24223434925079346,-1.5140388647662562,0.0,-0.027338549494743347,0.9542497992515564,-0.0,-0.00574376480653882,1.10897958278656,-0.0014903104165568948,0.0351993665099144
667.0,560.0,-3.8596,-0.2841,9.1226,-0.0492,0.0283,-0.1289,-2.1470028362669886,-6.669074355158955e-05,4.1311187744140625,-1.6537095308303833,0.015203839167952538,1.7827601432800293,5.6161131141479395,0.0005268954555504024,0.24753594398498535,-1.5140956083880823,0.0,-0.019939685240387917,0.9543219208717346,-0.0,-0.011798463761806488,1.1089797019958496,-0.0009984930511564016,-0.03746642544865608
667.0,560.0,-3.8596,-0.2841,9.1226,-0.0492,0.0283,-0.1289,-2.1470028362669886,-6.0019294323865324e-05,4.0915069580078125,-1.6536133289337158,0.017243994399905205,1.7667711973190308,5.61609714010314,0.00022425164934247732,0.24885758757591248,-1.5140755812274378,0.0,-0.02325507625937462,0.9542660713195801,-0.0,-0.0027195068541914225,1.109015703201294,-0.0006419572164304554,-0.01599554717540741
667.0,560.0,-3.8596,-0.2841,9.1226,-0.0492,0.0283,-0.1289,-2.147027154962057,-5.626685742754489e-05,4.063459873199463,-1.6535449028015137,0.019010307267308235,1.731553077697754,5.616081106453695,0.0001780044985935092,0.2445681095123291,-1.5140355269061487,0.0,-0.018927734345197678,0.9542219638824463,-0.0,0.004923870321363211,1.109023928642273,-0.0005185818881727755,0.004963472951203585
667.0,560.0,-3.8596,-0.2841,9.1226,-0.0492,0.0283,-0.1289,-2.1470352611937464,-7.941924559418112e-05,4.128922939300537,-1.653469204902649,0.020445777103304863,1.8353172540664673,5.616145419865408,0.00014857581118121743,0.25301843881607056,-1.5140507856952112,0.0,-0.012915907427668571,0.9542980790138245,-0.0,0.008128304965794086,1.1090120077133179,-0.0005064419819973409,-0.049565013498067856
667.0,560.0,-3.8596,-0.2841,9.1226,-0.0492,0.0283,-0.1289,-2.146994730035299,-9.708895959192887e-05,4.059627056121826,-1.6533887386322021,0.021535729989409447,1.773710012435913,5.616060900479116,7.24502097000368e-05,0.2451590597629547,-1.5140674749957483,0.0,-0.017348259687423706,0.9543018341064453,-0.0,0.0011261379113420844,1.109023928642273,-0.000437066366430372,-0.016660276800394058
667.0,560.0,-3.8596,-0.2841,9.1226,-0.0492,0.0283,-0.1289,-2.147010942498678,-0.00011033479677280411,4.103183269500732,-1.653321623802185,0.022915789857506752,1.8556907176971436,5.616109359055319,5.587567648035474e-05,0.24869099259376526,-1.51404315630068,0.0,-0.021563243120908737,0.9542259573936462,-0.0,0.010796898975968361,1.1089354753494263,-0.00038380370824597776,-0.009577243588864803
667.0,560.0,-3.8596,-0.2841,9.1226,-0.0492,0.0283,-0.1289,-2.1470633945860804,-0.00015278870705515146,4.085224628448486,-1.6531295776367188,0.025522517040371895,1.7878921031951904,5.616057264595785,3.0284294183502425e-08,0.24200713634490967,-1.5140631834613245,0.0,-0.014629922807216644,0.9543059468269348,-0.0,-0.0037769090849906206,1.1090078353881836,-0.00032449013087898493,-0.020919069647789
667.0,560.0,-3.8596,-0.2841,9.1226,-0.0492,0.0283,-0.1289,-2.147039075891012,-0.00016370044613722712,4.0998992919921875,-1.6530299186706543,0.027022866532206535,1.8656593561172485,5.616081464081564,1.291066836772714e-10,0.24243560433387756,-1.514087978993551,0.0,-0.022728249430656433,0.9542858600616455,2.5510747292400993e-08,0.012663527391850948,1.1089915037155151,-0.0002941824495792389,-0.039108797907829285
667.0,560.0,-3.8596,-0.2841,9.1226,-0.0492,0.0283,-0.1289,-2.147043367425436,-0.00018100165470968932,4.127841472625732,-1.6529096364974976,0.029376866295933723,1.805523157119751,5.616081404476919,5.504020091258444e-13,0.24456122517585754,-1.5140798727618616,0.0,-0.014938612468540668,0.9542579650878906,1.087563303303618e-10,0.002946429420262575,1.1090238094329834,-0.0002690535329747945,-0.0031306669116020203
667.0,560.0,-3.8596,-0.2841,9.1226,-0.0492,0.0283,-0.1289,-2.147062917748922,-0.00017948090680874884,4.114557266235352,-1.65278959274292,0.03205524757504463,1.8508731126785278,5.616101550846853,-0.0007966306293383241,0.23464670777320862,-1.5140917936908167,0.0,-0.0030502011068165302,0.9543100595474243,4.636452896958354e-13,0.010699722915887833,1.1090316772460938,-0.0002478797978255898,-0.0166871789842844
667.0,560.0,-3.8596,-0.2841,9.1226,-0.0492,0.0283,-0.1289,-2.1470309696593226,-0.000169807331985794,4.120436191558838,-1.65265691280365,0.03561447560787201,1.8258898258209229,5.61606119850234,-0.0010668233735486865,0.2431538999080658,-1.5141118208514612,0.0,-0.020762968808412552,0.9542698860168457,1.9765926752740885e-15,0.005206962116062641,1.1090279817581177,-7.157150685088709e-05,-0.08232878893613815
667.0,560.0,-3.8596,-0.2841,9.1226,-0.0492,0.0283,-0.1289,-2.147039075891012,-0.00017953476344700903,4.063543319702148,-1.6523973941802979,0.041406307369470596,1.8802752494812012,5.616085994034567,-0.001340625574812293,0.24246114492416382,-1.5140798727618616,0.0,-0.012812783941626549,0.9543059468269348,5.501917915129217e-19,-0.002608395414426923,1.1090439558029175,-3.188526534358971e-05,-0.03544013574719429
667.0,560.0,-3.8596,-0.2841,9.1226,-0.0492,0.0283,-0.1289,-2.147062917748922,-0.0001710176729829982,4.070062637329102,-1.6522080898284912,0.04533418267965317,1.8292274475097656,5.6160409329231165,-0.0013114302419126034,0.23683328926563263,-1.5140836874591272,0.0,-0.0288802832365036,0.9542776942253113,2.345554031579897e-21,0.009902970865368843,1.1090397834777832,-2.9759803510387428e-05,-0.0786169022321701
667.0,560.0,-3.8596,-0.2841,9.1226,-0.0492,0.0283,-0.1289,-2.147050996819967,-0.0002824742114171386,4.074138164520264,-1.6520366668701172,0.04927157238125801,1.8770214319229126,5.61605333068923,-0.0011790168937295675,0.23513591289520264,-1.5140588919269007,0.0,0.0071001192554831505,0.9542980790138245,9.999464361644942e-24,0.013773703016340733,1.1090439558029175,-2.7913723897654563e-05,-0.0587061382830143
667.0,560.0,-3.8596,-0.2841,9.1226,-0.0492,0.0283,-0.1289,-2.1470829449095667,-0.00028858837322331965,4.111692428588867,-1.6518046855926514,0.052644673734903336,1.8790087699890137,5.61606119850234,-0.001323666307143867,0.23441776633262634,-1.5140793959247034,0.0,-0.01166895404458046,0.9542861580848694,4.262928835360528e-26,0.013409754261374474,1.1090316772460938,-2.6283329134457745e-05,-0.01615019515156746
667.0,560.0,-3.8596,-0.2841,9.1226,-0.0492,0.0283,-0.1289,-2.147038599053854,-0.00031539867632091045,4.059701919555664,-1.6516213417053223,0.05730878561735153,1.9087178707122803,5.61603735664443,-0.0014262193581089377,0.23510493338108063,-1.5140998999225062,0.0,-0.018559060990810394,0.9543260335922241,1.817353236359975e-28,0.017395805567502975,1.1090357303619385,-1.3798589826308216e-08,-0.021117238327860832
667.0,560.0,-3.8596,-0.2841,9.1226,-0.0492,0.0283,-0.1289,-2.147094865838522,-0.00031806057086214423,4.146206378936768,-1.6512258052825928,0.06319893896579742,1.840782880783081,5.616045522480764,-0.00227655959315598,0.22643163800239563,-1.5140507856952112,0.0,-0.0018379809334874153,0.9543059468269348,5.058670584597016e-32,-0.0009616678580641747,1.1090316772460938,-3.3321967824991375e-14,-0.06069998815655708
667.0,560.0,-3.8596,-0.2841,9.1226,-0.0492,0.0283,-0.1289,-2.1471034489073695,-0.0005383386742323637,4.1182861328125,-1.6509329080581665,0.06601832062005997,1.9112818241119385,5.61596958616332,-0.002971687586978078,0.2371055781841278,-1.5140588919269007,0.0,-0.01328742690384388,0.9542861580848694,2.1565904050223776e-34,0.016502786427736282,1.1089993715286255,-5.997836577194944e-18,-0.13837802410125732
653.0,533.0,-3.4959,-0.0108,9.4433,-0.0302,0.0892,-0.1184,-2.1470586262144984,-0.0005316380993463099,4.116322040557861,-1.6506857872009277,0.06893832236528397,1.9129493236541748,5.615973639279165,-0.0034201883245259523,0.23067966103553772,-1.5140507856952112,0.0,-0.007149765733629465,0.9542538523674011,9.193883799609947e-37,-0.004989048931747675,1.1090034246444702,-1.0795894450360422e-21,-0.07576161623001099
653.0,533.0,-3.4959,-0.0108,9.4433,-0.0302,0.0892,-0.1184,-2.1471272907652796,-0.0005204346962273121,4.091856956481934,-1.650393009185791,0.07087083160877228,1.907289981842041,5.615961122303762,-0.004207047633826733,0.23416686058044434,-1.5140956083880823,0.0,-0.00101872393861413,0.9542742371559143,3.919496264445872e-39,0.004946919158101082,1.1090034246444702,-1.943222761505812e-25,-0.08615200221538544
653.0,533.0,-3.4959,-0.0108,9.4433,-0.0302,0.0892,-0.1184,-2.1470867596068324,-0.0004549383302219212,4.0683488845825195,-1.6500415802001953,0.07267195731401443,1.9236743450164795,5.6159735200698755,-0.004854721482843161,0.2256784439086914,-1.5140631834613245,0.0,-0.005128565710037947,0.9542902112007141,1.670908288860912e-41,0.012848442420363426,1.1090034246444702,-3.497732529515807e-29,-0.06392213702201843
653.0,533.0,-3.4959,-0.0108,9.4433,-0.0302,0.0892,-0.1184,-2.147107263604635,-0.0003824331797659397,4.084505081176758,-1.6496254205703735,0.07554320245981216,1.9788035154342651,5.615889715939321,-0.0062731364741921425,0.21954670548439026,-1.514031235371725,8.201615855796263e-05,-0.0029712843243032694,0.9542980790138245,4.203895392974451e-45,0.005177358165383339,1.1089993715286255,-8.446613380991917e-35,-0.10514102876186371
653.0,533.0,-3.4959,-0.0108,9.4433,-0.0302,0.0892,-0.1184,-2.147038599053854,-0.00034570449497550726,4.124863624572754,-1.6493091583251953,0.07953014969825745,1.9422202110290527,5.615860807686605,-0.0066163078881800175,0.23074078559875488,-1.5140998999225062,0.00010376558202551678,-0.0019982147496193647,0.9542341232299805,0.0,-0.00014167092740535736,1.1090397834777832,-1.5203609093849466e-38,-0.12169333547353745
653.0,533.0,-3.4959,-0.0108,9.4433,-0.0302,0.0892,-0.1184,-2.1470467052855433,-0.00031541381031274796,4.106500625610352,-1.6489737033843994,0.08401758968830109,1.93068265914917,5.615845131665029,-0.007002122700214386,0.2157132625579834,-1.5140512625323694,0.00011897995136678219,-0.009192630648612976,0.9542940258979797,0.0,-0.0024673230946063995,1.1090034246444702,-2.7367359008263677e-42,-0.12278561294078827
653.0,533.0,-3.4959,-0.0108,9.4433,-0.0302,0.0892,-0.1184,-2.1470309696593226,-0.00029000366339460015,4.112500190734863,-1.6486620903015137,0.08842863142490387,1.9443215131759644,5.615793573647299,-0.007420722860842943,0.2216900736093521,-1.5140393416034144,0.0001306410995312035,-0.007188705261796713,0.9542657732963562,0.0,0.002675730502232909,1.1090397834777832,-0.0,-0.10335416346788406
653.0,533.0,-3.4959,-0.0108,9.4433,-0.0302,0.0892,-0.1184,-2.1470867596068324,-0.00026838231133297086,4.104076862335205,-1.6482545137405396,0.09294547885656357,1.986076831817627,5.615822362690725,-0.006746192462742329,0.21700510382652283,-1.5140231291400355,0.00012772825721185654,0.00398778123781085,0.954302191734314,0.0,-0.0006352241616696119,1.1090799570083618,0.0,-0.18356259167194366
653.0,533.0,-3.4959,-0.0108,9.4433,-0.0302,0.0892,-0.1184,-2.1470705471434535,-0.00024138767912518233,4.036227703094482,-1.6476529836654663,0.09862200915813446,1.997002124786377,5.61581044176177,-0.005486730486154556,0.22154498100280762,-1.5140393416034144,0.0003843906451947987,0.005461821798235178,0.9543304443359375,0.0,0.01419508270919323,1.1090316772460938,0.0,-0.11108680069446564
653.0,533.0,-3.4959,-0.0108,9.4433,-0.0302,0.0892,-0.1184,-2.147074361840719,-0.00019018012972082943,4.049860000610352,-1.6472455263137817,0.10350154340267181,1.9738856554031372,5.615769910603323,-0.004275931511074305,0.21446841955184937,-1.514087978993551,0.0003978146705776453,-0.002087007975205779,0.9542977809906006,0.0,-0.0001251857029274106,1.109055757522583,0.0,-0.16567371785640717
653.0,533.0,-3.4959,-0.0108,9.4433,-0.0302,0.0892,-0.1184,-2.147135396996969,-0.00019791342492680997,4.079563140869141,-1.646821141242981,0.1090601235628128,2.017824172973633,5.615721869259634,-0.0037680158857256174,0.20539678633213043,-1.5140798727618616,0.000404610502300784,0.0078651774674654,0.9543054699897766,0.0,-0.005160882603377104,1.109007477760315,0.0,-0.1339961290359497
