ramyac6/ROB537/final_project/csv/bad/bad_58.csv
tof_0,tof_1,accelx,accely,accelz,gyrox,gyroy,gyroz,shoulder_lift_joint_position,shoulder_lift_joint_velocity,shoulder_lift_joint_effort,elbow_joint_position,elbow_joint_velocity,elbow_joint_effort,wrist_1_joint_position,wrist_1_joint_velocity,wrist_1_joint_effort,wrist_2_joint_position,wrist_2_joint_velocity,wrist_2_joint_effort,wrist_3_joint_position,wrist_3_joint_velocity,wrist_3_joint_effort,shoulder_pan_joint_position,shoulder_pan_joint_velocity,shoulder_pan_joint_effort
205.0,270.0,0.0179,0.1089,9.6,-0.0449,0.0255,-0.1168,-1.9529944858946742,0.0,3.6091203689575195,-1.6056069135665894,-0.0,2.0772972106933594,5.073425280838766,-0.0,0.2945081293582916,-1.621566120778219,0.0,0.0051752617582678795,1.3784068822860718,-0.0,0.003562371013686061,0.7562677264213562,0.0,0.0017366977408528328
205.0,270.0,0.0179,0.1089,9.6,-0.0449,0.0255,-0.1168,-1.9530230961241664,0.0,3.63279128074646,-1.6056435108184814,-0.0,2.034249782562256,5.073352980404653,-0.0,0.2828842103481293,-1.6215222517596644,0.0,0.004372265189886093,1.3783268928527832,-0.0,-0.004511255770921707,0.7562800645828247,0.0,0.012145265936851501
205.0,270.0,0.0179,0.1089,9.6,-0.0449,0.0255,-0.1168,-1.9530350170531214,0.0,3.624136447906494,-1.605602741241455,-0.0,2.0229063034057617,5.0734374401863,-0.0,0.27983638644218445,-1.6215341726886194,0.0,-0.011224406771361828,1.378354787826538,-0.0,0.0048826877027750015,0.7562597990036011,0.0,0.02196465991437435
205.0,270.0,0.0179,0.1089,9.6,-0.0449,0.0255,-0.1168,-1.953010698358053,0.0,3.6243228912353516,-1.6056233644485474,-0.0,1.9990355968475342,5.0734857497508905,-0.0,0.2846044898033142,-1.6215184370623987,0.0,0.00116438465192914,1.3783830404281616,-0.0,-0.0026495279744267464,0.7563122510910034,0.0,0.04636619612574577
205.0,270.0,0.0179,0.1089,9.6,-0.0449,0.0255,-0.1168,-1.9530469379820765,0.0,3.6470890045166016,-1.6056678295135498,-0.0,1.9997692108154297,5.073469447880544,-0.0,0.2842831611633301,-1.6215422789203089,0.0,0.003682434791699052,1.3783469200134277,-0.0,-1.8617138266563416e-05,0.7562882900238037,0.0,-0.0007884195074439049
205.0,270.0,0.0179,0.1089,9.6,-0.0449,0.0255,-0.1168,-1.9529944858946742,0.0,3.613340377807617,-1.6056233644485474,-0.0,2.0212597846984863,5.073445218592443,-0.0,0.2752836346626282,-1.621537987385885,0.0,0.0006595127051696181,1.3783425092697144,-0.0,0.006165971979498863,0.7562556862831116,0.0,-0.025208625942468643
205.0,270.0,0.0179,0.1089,9.6,-0.0449,0.0255,-0.1168,-1.9530312023558558,0.0,3.678891181945801,-1.605582594871521,-0.0,2.035062313079834,5.073469447880544,-0.0,0.27622807025909424,-1.621537987385885,0.0,-0.0033242476638406515,1.3783265352249146,-0.0,-0.00019887275993824005,0.756247878074646,0.0,-0.0562310516834259
205.0,270.0,0.0179,0.1089,9.6,-0.0449,0.0255,-0.1168,-1.952982564965719,0.0,3.6974129676818848,-1.6056270599365234,-0.0,2.0273187160491943,5.073441135674276,-0.0,0.2844235301017761,-1.6215503851519983,0.0,0.010182734578847885,1.378354787826538,-0.0,0.010385816916823387,0.7562437653541565,0.0,0.003128900658339262
205.0,270.0,0.0179,0.1089,9.6,-0.0449,0.0255,-0.1168,-1.9530145130553187,0.0,3.609393835067749,-1.6056270599365234,-0.0,2.0133233070373535,5.073441612511434,-0.0,0.2838824987411499,-1.6215184370623987,0.0,0.007989033125340939,1.378382682800293,-0.0,0.008969606831669807,0.7562233805656433,0.0,0.0011200383305549622
200.0,269.0,0.0341,0.1484,9.5007,-0.0368,0.0237,-0.1107,-1.9529386959471644,0.0,3.6430397033691406,-1.6055986881256104,-0.0,2.0335729122161865,5.073481726437368,-0.0,0.27599501609802246,-1.621566120778219,0.0,0.0014166590990498662,1.378354787826538,-0.0,0.002852928126230836,0.756247878074646,0.0,-0.09040413796901703
200.0,269.0,0.0341,0.1484,9.5007,-0.0368,0.0237,-0.1107,-1.9530145130553187,0.0,3.6208696365356445,-1.6055666208267212,-0.0,2.0619308948516846,5.073433357268133,-0.0,0.2731148600578308,-1.621486012135641,0.0,0.01005963608622551,1.3783466815948486,-0.0,0.0008661726024001837,0.756247878074646,0.0,0.01424466259777546
200.0,269.0,0.0341,0.1484,9.5007,-0.0368,0.0237,-0.1107,-1.9529625378050746,0.0,3.6125690937042236,-1.605602741241455,-0.0,2.0157649517059326,5.0734857497508905,-0.0,0.2773473560810089,-1.621537987385885,0.0,0.0048998077400028706,1.378342866897583,-0.0,0.0035397415049374104,0.7562316060066223,0.0,-0.029354345053434372
200.0,269.0,0.0341,0.1484,9.5007,-0.0368,0.0237,-0.1107,-1.953010698358053,0.0,3.640768051147461,-1.605619192123413,-0.0,1.9948058128356934,5.073453444033422,-0.0,0.27907514572143555,-1.6214903036700647,0.0,0.004891016520559788,1.3783748149871826,-0.0,-0.012832163833081722,0.7562597990036011,0.0,0.01776241883635521
200.0,269.0,0.0341,0.1484,9.5007,-0.0368,0.0237,-0.1107,-1.9529744587340296,0.0,3.714359760284424,-1.605594515800476,-0.0,2.027900218963623,5.073449361115255,-0.0,0.2872922122478485,-1.6215222517596644,0.0,0.0016267398605123162,1.3783667087554932,-0.0,0.006556578446179628,0.756247878074646,0.0,-0.0411878377199173
200.0,269.0,0.0341,0.1484,9.5007,-0.0368,0.0237,-0.1107,-1.9530188045897425,0.0,3.609790802001953,-1.6055666208267212,-0.0,2.0071802139282227,5.073477613716879,-0.0,0.28518640995025635,-1.6215184370623987,0.0,-0.00964023545384407,1.3783986568450928,-0.0,0.017643721774220467,0.7562233805656433,0.0,0.03981916606426239
200.0,269.0,0.0341,0.1484,9.5007,-0.0368,0.0237,-0.1107,-1.953010698358053,0.0,3.6387431621551514,-1.605619192123413,-0.0,2.017260789871216,5.0734374401863,-0.0,0.27478647232055664,-1.6215184370623987,0.0,-0.002279694192111492,1.3783670663833618,-0.0,-0.00038181524723768234,0.756284236907959,0.0,-0.018294475972652435
200.0,269.0,0.0341,0.1484,9.5007,-0.0368,0.0237,-0.1107,-1.953026910821432,0.0,3.648904323577881,-1.605562448501587,-0.0,2.0214662551879883,5.073409276991644,-0.0,0.28912797570228577,-1.621537987385885,0.0,0.014961257576942444,1.3783588409423828,-0.0,0.005693790968507528,0.7562355399131775,0.0,-0.02024541050195694
200.0,269.0,0.0341,0.1484,9.5007,-0.0368,0.0237,-0.1107,-1.9530312023558558,0.0,3.6304051876068115,-1.6056394577026367,-0.0,2.0038933753967285,5.073469447880544,-0.0,0.29005205631256104,-1.621537987385885,0.0,0.004884790629148483,1.3783507347106934,-0.0,-0.004240479785948992,0.7562355399131775,0.0,-0.04737595096230507
200.0,269.0,0.0341,0.1484,9.5007,-0.0368,0.0237,-0.1107,-1.953026910821432,0.0,3.625657558441162,-1.605578899383545,-0.0,2.0354697704315186,5.0734576163585565,-0.0,0.2795063257217407,-1.6215341726886194,0.0,0.001214621472172439,1.378346562385559,-0.0,-0.01111873984336853,0.7562515735626221,0.0,0.028757993131875992
200.0,269.0,0.0341,0.1484,9.5007,-0.0368,0.0237,-0.1107,-1.9530064068236292,0.0,3.6773829460144043,-1.6055908203125,-0.0,2.016878604888916,5.073441582709112,-0.0,0.2791869044303894,-1.6215384642230433,0.0,0.0035986530128866434,1.378370761871338,-0.0,-0.002282253932207823,0.756231427192688,0.0,0.011335975490510464
200.0,269.0,0.0341,0.1484,9.5007,-0.0368,0.0237,-0.1107,-1.9529782734312953,0.0,3.6238884925842285,-1.6056435108184814,-0.0,2.019158124923706,5.073429304152288,-0.0,0.28840261697769165,-1.6215503851519983,0.0,0.0022910907864570618,1.378302812576294,-0.0,0.010362260043621063,0.7562233209609985,0.0,0.03446732833981514
200.0,269.0,0.0341,0.1484,9.5007,-0.0368,0.0237,-0.1107,-1.9529701671996058,0.0,3.6217403411865234,-1.605594515800476,-0.0,2.021946430206299,5.073385822563925,-0.0,0.27783071994781494,-1.6215222517596644,0.0,-0.01037326268851757,1.378370761871338,-0.0,-0.0005341406213119626,0.7562556862831116,0.0,0.009220805950462818
200.0,269.0,0.0341,0.1484,9.5007,-0.0368,0.0237,-0.1107,-1.9529782734312953,0.0,3.6418468952178955,-1.605570673942566,-0.0,2.012314558029175,5.073441612511434,-0.0,0.2831277549266815,-1.6215465704547327,0.0,-0.003217577002942562,1.3783146142959595,-0.0,-0.007479274645447731,0.7562437653541565,0.0,-0.008135730400681496
200.0,269.0,0.0341,0.1484,9.5007,-0.0368,0.0237,-0.1107,-1.9529782734312953,0.0,3.6130452156066895,-1.605610966682434,-0.0,1.9997928142547607,5.073384988098898,-0.0,0.28817039728164673,-1.6215298811541956,0.0,0.005629925988614559,1.378402829170227,-0.0,-0.0008120285347104073,0.756292462348938,0.0,-0.013332962058484554
200.0,269.0,0.0341,0.1484,9.5007,-0.0368,0.0237,-0.1107,-1.952986856500143,0.0,3.62400221824646,-1.6056151390075684,-0.0,2.059938907623291,5.073441135674276,-0.0,0.2848196029663086,-1.6215222517596644,0.0,-0.0009785961592569947,1.3783786296844482,-0.0,0.00692661851644516,0.7562597990036011,0.0,0.01998700574040413
200.0,269.0,0.0341,0.1484,9.5007,-0.0368,0.0237,-0.1107,-1.9529463253416957,0.0,3.652101516723633,-1.6055948734283447,-0.0,2.052401542663574,5.073421108513632,-0.0,0.28122931718826294,-1.621509853993551,0.0,0.0020485511049628258,1.3783626556396484,-0.0,-0.0071863639168441296,0.7562355399131775,0.0,-0.010330729186534882
205.0,262.0,-0.0048,0.1687,9.4869,-0.0425,0.0205,-0.1132,-1.9530230961241664,0.0,3.647073984146118,-1.6055866479873657,-0.0,2.0493931770324707,5.073393302946844,-0.0,0.2774375081062317,-1.6215222517596644,0.0,0.0052261315286159515,1.3783425092697144,-0.0,0.005330470856279135,0.7562639117240906,0.0,-0.04331481456756592
205.0,262.0,-0.0048,0.1687,9.4869,-0.0425,0.0205,-0.1132,-1.9529944858946742,0.0,3.604264259338379,-1.605594515800476,-0.0,2.009781837463379,5.0734493909175775,-0.0,0.2893531918525696,-1.621566120778219,0.0,-0.008636762388050556,1.3783347606658936,-0.0,-0.005083241034299135,0.7562882900238037,0.0,-0.04111407697200775
205.0,262.0,-0.0048,0.1687,9.4869,-0.0425,0.0205,-0.1132,-1.9530188045897425,0.0,3.636518955230713,-1.6056312322616577,-0.0,2.0457842350006104,5.0734493909175775,-0.0,0.2869539260864258,-1.6215341726886194,0.0,-0.014895036816596985,1.3783905506134033,-0.0,-0.01820942386984825,0.7562520503997803,0.0,-0.0024084975011646748
205.0,262.0,-0.0048,0.1687,9.4869,-0.0425,0.0205,-0.1132,-1.953043123284811,0.0,3.6748275756835938,-1.605627417564392,-0.0,2.016794204711914,5.073445278197088,-0.0,0.2885379195213318,-1.6215184370623987,0.0,-0.011296737007796764,1.378370761871338,-0.0,-0.00484456168487668,0.7562597990036011,0.0,0.007434390019625425
205.0,262.0,-0.0048,0.1687,9.4869,-0.0425,0.0205,-0.1132,-1.953010698358053,0.0,3.6128718852996826,-1.6055986881256104,-0.0,1.9883195161819458,5.073441612511434,-0.0,0.2794194221496582,-1.6215341726886194,0.0,-0.0149858882650733,1.3783588409423828,-0.0,-0.0016709050396457314,0.756247878074646,0.0,-0.007869379594922066
205.0,262.0,-0.0048,0.1687,9.4869,-0.0425,0.0205,-0.1132,-1.9529944858946742,0.0,3.6061551570892334,-1.605619192123413,-0.0,1.995293378829956,5.0734170255954645,-0.0,0.2806001901626587,-1.6214821974383753,0.0,0.004242190159857273,1.3783425092697144,-0.0,0.011010024696588516,0.7562519907951355,0.0,-0.020924605429172516
205.0,262.0,-0.0048,0.1687,9.4869,-0.0425,0.0205,-0.1132,-1.9530188045897425,0.0,3.652031660079956,-1.605602741241455,6.28017815529347e-08,2.0107827186584473,5.073481666832723,-0.0,0.28932124376296997,-1.6215341726886194,0.0,-0.0023643975146114826,1.3783949613571167,-0.0,0.0062564886175096035,0.7562520503997803,0.0,-0.031576935201883316
205.0,262.0,-0.0048,0.1687,9.4869,-0.0425,0.0205,-0.1132,-1.9530068836607875,0.0,3.6008241176605225,-1.6055866479873657,1.5165891817121163e-13,2.020801544189453,5.07341297247962,-0.0,0.2913011312484741,-1.6215341726886194,0.0,-0.007018908858299255,1.3783588409423828,-0.0,-0.0060165757313370705,0.7562520503997803,0.0,-0.02677915245294571
205.0,262.0,-0.0048,0.1687,9.4869,-0.0425,0.0205,-0.1132,-1.953010698358053,0.0,3.6302247047424316,-1.6055784225463867,2.729807359935441e-17,2.014039993286133,5.073477613716879,-0.0,0.2748178541660309,-1.621554199849264,0.0,0.001719456515274942,1.3783749341964722,-0.0,-0.0076773809269070625,0.7562597990036011,0.0,-0.007414288818836212
205.0,262.0,-0.0048,0.1687,9.4869,-0.0425,0.0205,-0.1132,-1.952982564965719,0.0,3.6544649600982666,-1.6055784225463867,6.592163486133698e-23,2.0343785285949707,5.073449331312933,-0.0,0.27723991870880127,-1.6215103308307093,0.0,-0.00432266341522336,1.3783347606658936,-0.0,0.0030881762504577637,0.7562721371650696,0.0,-0.007048545405268669
205.0,262.0,-0.0048,0.1687,9.4869,-0.0425,0.0205,-0.1132,-1.9530393085875453,0.0,3.648998975753784,-1.6055866479873657,1.5919301178654974e-28,2.004411458969116,5.073433357268133,-0.0,0.2868354320526123,-1.6215265432940882,0.0,0.0017088712193071842,1.3782743215560913,-0.0,-0.005074935033917427,0.7562437653541565,0.0,-0.031486935913562775
205.0,262.0,-0.0048,0.1687,9.4869,-0.0425,0.0205,-0.1132,-1.952982564965719,0.0,3.663870334625244,-1.605602741241455,3.8443236383710066e-34,2.0253078937530518,5.073453444033422,-0.0,0.2792620360851288,-1.62152606645693,0.0,-0.008657298050820827,1.3784105777740479,-0.0,0.004429001361131668,0.7563284039497375,0.0,0.007625952363014221
205.0,262.0,-0.0048,0.1687,9.4869,-0.0425,0.0205,-0.1132,-1.952982564965719,0.0,3.613783359527588,-1.605574369430542,6.919647690076633e-38,2.0259432792663574,5.073473620205679,-0.0,0.29364830255508423,-1.6215222517596644,0.0,-0.0021303012035787106,1.3783305883407593,-0.0,-0.007949411869049072,0.7562759518623352,0.0,0.009531939402222633
205.0,262.0,-0.0048,0.1687,9.4869,-0.0425,0.0205,-0.1132,-1.953026910821432,0.0,3.6120104789733887,-1.605619192123413,1.6675451725465323e-43,2.0522384643554688,5.073457556753912,-0.0,0.287565141916275,-1.6215618292437952,0.0,-0.005737345665693283,1.3783867359161377,-0.0,0.0018793523777276278,0.756247878074646,0.0,0.01318925991654396
205.0,262.0,-0.0048,0.1687,9.4869,-0.0425,0.0205,-0.1132,-1.953010698358053,0.0,3.640488624572754,-1.6055948734283447,-0.0,2.002894639968872,5.073453444033422,-0.0,0.2846446931362152,-1.6215341726886194,0.0,-0.005868737585842609,1.3783586025238037,-0.0,0.00891881063580513,0.7562597990036011,0.0,0.008023487403988838
205.0,262.0,-0.0048,0.1687,9.4869,-0.0425,0.0205,-0.1132,-1.9530064068236292,0.0,3.6227080821990967,-1.6055986881256104,-0.0,2.062905788421631,5.073445337801733,-0.0,0.28475266695022583,-1.6215222517596644,0.0,-0.0072193145751953125,1.3783788681030273,-0.0,0.001328951446339488,0.7562561631202698,0.0,-0.00735426414757967
205.0,262.0,-0.0048,0.1687,9.4869,-0.0425,0.0205,-0.1132,-1.953010698358053,0.0,3.6305160522460938,-1.605582594871521,-0.0,2.0242462158203125,5.073385107308187,-0.0,0.28798019886016846,-1.621486012135641,0.0,0.005796897225081921,1.378382682800293,-0.0,-0.009545430541038513,0.7563204765319824,0.0,0.03801042586565018
203.0,267.0,0.0341,0.1005,9.615,-0.0318,0.024,-0.1147,-1.9529944858946742,0.0,3.650174617767334,-1.6056069135665894,-0.0,2.0082664489746094,5.073449361115255,-0.0,0.28207093477249146,-1.6215422789203089,0.0,-0.0004797826986759901,1.3782901763916016,-0.0,-0.004925222136080265,0.7562800645828247,0.0,-0.0031734220683574677
203.0,267.0,0.0341,0.1005,9.615,-0.0318,0.024,-0.1147,-1.9530188045897425,0.0,3.63545560836792,-1.605578899383545,-0.0,2.02919602394104,5.073453444033422,-0.0,0.27650386095046997,-1.6215503851519983,0.0,0.00378438807092607,1.378382682800293,-0.0,0.0033999881707131863,0.7562315464019775,0.0,0.01230486948043108
203.0,267.0,0.0341,0.1005,9.615,-0.0318,0.024,-0.1147,-1.9530188045897425,0.0,3.6025311946868896,-1.605610966682434,-0.0,1.9937238693237305,5.073445665627279,-0.0,0.28663742542266846,-1.6215341726886194,0.0,-0.00466378265991807,1.3783305883407593,-0.0,0.022128233686089516,0.7562274932861328,0.0,0.017783356830477715
203.0,267.0,0.0341,0.1005,9.615,-0.0318,0.024,-0.1147,-1.952998777429098,0.0,3.6363284587860107,-1.6056151390075684,-0.0,2.0279743671417236,5.073449361115255,-0.0,0.2864503264427185,-1.6215699354754847,0.0,-0.004644623026251793,1.3784024715423584,-0.0,-0.004918050952255726,0.7562797665596008,0.0,0.028735952451825142
203.0,267.0,0.0341,0.1005,9.615,-0.0318,0.024,-0.1147,-1.9530145130553187,0.0,3.606492757797241,-1.6056678295135498,-0.0,2.0548386573791504,5.0734857497508905,-0.0,0.2723671793937683,-1.6215422789203089,0.0,-0.0052689677104353905,1.3783786296844482,-0.0,-0.00036548986099660397,0.7562602162361145,0.0,0.0032634069211781025
203.0,267.0,0.0341,0.1005,9.615,-0.0318,0.024,-0.1147,-1.9530025921263636,0.0,3.6317739486694336,-1.6055866479873657,-0.0,2.030634880065918,5.073502051621237,-0.0,0.2851199507713318,-1.6215222517596644,0.0,-0.010356060229241848,1.3783867359161377,-0.0,0.010646332055330276,0.7562233209609985,0.0,0.00754204299300909
203.0,267.0,0.0341,0.1005,9.615,-0.0318,0.024,-0.1147,-1.9530145130553187,0.0,3.658005714416504,-1.605570673942566,-0.0,2.0629172325134277,5.073457586556234,-0.0,0.2898496091365814,-1.621514145527975,0.0,0.0028844738844782114,1.3784024715423584,-0.0,0.011055956594645977,0.7562556862831116,0.0,-0.020568568259477615
203.0,267.0,0.0341,0.1005,9.615,-0.0318,0.024,-0.1147,-1.9529944858946742,0.0,3.6455039978027344,-1.605574369430542,-0.0,2.0441019535064697,5.073497670679846,-0.0,0.2845533788204193,-1.6215017477618616,0.0,-0.0038818661123514175,1.3783024549484253,-0.0,-0.010149319656193256,0.7562800645828247,0.0,-0.022324319928884506
203.0,267.0,0.0341,0.1005,9.615,-0.0318,0.024,-0.1147,-1.952982564965719,0.0,3.605757236480713,-1.6055986881256104,-0.0,2.0301663875579834,5.073421108513632,-0.0,0.2865334749221802,-1.6215184370623987,0.0,0.003953053615987301,1.3783986568450928,-0.0,0.003318511415272951,0.7562800645828247,0.0,0.016093291342258453
203.0,267.0,0.0341,0.1005,9.615,-0.0318,0.024,-0.1147,-1.9529863796629847,0.0,3.6181344985961914,-1.605627417564392,-0.0,2.0382680892944336,5.073449361115255,-0.0,0.284781277179718,-1.6215503851519983,0.0,0.009343910962343216,1.378330945968628,-0.0,-0.0007341951131820679,0.7562597990036011,0.0,0.0009735450148582458
203.0,267.0,0.0341,0.1005,9.615,-0.0318,0.024,-0.1147,-1.9530312023558558,0.0,3.6317315101623535,-1.6056512594223022,-0.0,2.0038437843322754,5.073429333954611,-0.0,0.2800629138946533,-1.6215460936175745,0.0,-0.002313320990651846,1.3783748149871826,-0.0,0.00037268438609316945,0.756247878074646,0.0,0.005938337650150061
203.0,267.0,0.0341,0.1005,9.615,-0.0318,0.024,-0.1147,-1.9530145130553187,0.0,3.5834460258483887,-1.6055986881256104,-0.0,2.0433216094970703,5.073469447880544,-0.0,0.28117313981056213,-1.6215422789203089,0.0,-0.004281905945390463,1.378370761871338,-0.0,-0.004816827829927206,0.7562759518623352,0.0,0.007705924101173878
203.0,267.0,0.0341,0.1005,9.615,-0.0318,0.024,-0.1147,-1.9529663525023402,0.0,3.5837340354919434,-1.6056394577026367,-0.0,2.042248010635376,5.073392826109686,-0.0,0.28779008984565735,-1.6215184370623987,0.0,-0.01379860658198595,1.3783347606658936,-0.0,-0.0010771725792437792,0.756247878074646,0.0,0.007949445396661758
203.0,267.0,0.0341,0.1005,9.615,-0.0318,0.024,-0.1147,-1.9530021152892054,0.0,3.61529541015625,-1.605610966682434,-0.0,1.9947848320007324,5.073469447880544,-0.0,0.282882958650589,-1.6215422789203089,0.0,-0.003359047695994377,1.3783667087554932,-0.0,0.0075341761112213135,0.7562315464019775,0.0,-0.02878827229142189
203.0,267.0,0.0341,0.1005,9.615,-0.0318,0.024,-0.1147,-1.952970644036764,0.0,3.593033790588379,-1.605594515800476,-0.0,2.008688449859619,5.073465364962377,-0.0,0.27802562713623047,-1.621514145527975,0.0,0.001566423336043954,1.3784109354019165,-0.0,-0.0061628385446965694,0.7562556862831116,0.0,0.042820047587156296
203.0,267.0,0.0341,0.1005,9.615,-0.0318,0.024,-0.1147,-1.9529782734312953,0.0,3.612882375717163,-1.6055505275726318,-0.0,1.9944312572479248,5.073481696635046,-0.0,0.29023417830467224,-1.6215222517596644,0.0,0.0011960185365751386,1.378342866897583,-0.0,-0.005825596861541271,0.7562073469161987,0.0,0.043888796120882034
203.0,267.0,0.0341,0.1005,9.615,-0.0318,0.024,-0.1147,-1.952986856500143,0.0,3.6180577278137207,-1.605602741241455,-0.0,2.0076944828033447,5.073441642313757,-0.0,0.2805495262145996,-1.6215460936175745,0.0,-0.0074041495099663734,1.3783466815948486,-0.0,-0.007653648965060711,0.7562680244445801,0.0,0.02196585014462471
204.0,260.0,-0.0568,0.1202,9.5695,-0.0406,0.0223,-0.1205,-1.9529744587340296,0.0,3.5915489196777344,-1.6056270599365234,-0.0,2.0229268074035645,5.073449718743124,-0.0,0.29261693358421326,-1.6215341726886194,0.0,0.0032069701701402664,1.3783228397369385,-0.0,-0.0002626850036904216,0.7562355399131775,0.0,-0.01137210801243782
204.0,260.0,-0.0568,0.1202,9.5695,-0.0406,0.0223,-0.1205,-1.9529944858946742,0.0,3.638451099395752,-1.6055903434753418,-0.0,2.0556769371032715,5.073453444033422,-0.0,0.2793322205543518,-1.6215341726886194,0.0,0.005920493509620428,1.3782861232757568,-0.0,0.004550762474536896,0.7562155723571777,0.0,0.017857857048511505
204.0,260.0,-0.0568,0.1202,9.5695,-0.0406,0.0223,-0.1205,-1.9529944858946742,0.0,3.645455837249756,-1.605602741241455,-0.0,2.0372495651245117,5.0734374401863,-0.0,0.28119957447052,-1.6215298811541956,0.0,-0.0023936235811561346,1.3783544301986694,-0.0,-0.007372432854026556,0.756207287311554,0.0,0.011998482048511505
204.0,260.0,-0.0568,0.1202,9.5695,-0.0406,0.0223,-0.1205,-1.9529701671996058,0.0,3.6400091648101807,-1.605594515800476,-0.0,2.0260367393493652,5.073457586556234,-0.0,0.2865915596485138,-1.621554199849264,0.0,-0.0031304217409342527,1.3783626556396484,-0.0,-0.008989425376057625,0.7562237977981567,0.0,0.007378008216619492
204.0,260.0,-0.0568,0.1202,9.5695,-0.0406,0.0223,-0.1205,-1.9530188045897425,0.0,3.5878803730010986,-1.6055666208267212,-0.0,2.0162928104400635,5.073469507485189,-0.0,0.2845284938812256,-1.6215503851519983,0.0,0.0002185262565035373,1.378354787826538,-0.0,0.004429644905030727,0.7562561631202698,0.0,-0.03330089896917343
204.0,260.0,-0.0568,0.1202,9.5695,-0.0406,0.0223,-0.1205,-1.9529863796629847,0.0,3.6273245811462402,-1.6055985689163208,-0.0,2.017343044281006,5.073461669474401,-0.0,0.2907850444316864,-1.621554199849264,0.0,-0.004719324875622988,1.3783667087554932,-0.0,-0.004997250624001026,0.756239652633667,0.0,-0.015943173319101334
204.0,260.0,-0.0568,0.1202,9.5695,-0.0406,0.0223,-0.1205,-1.9529863796629847,0.0,3.6209845542907715,-1.605578899383545,-0.0,2.006704092025757,5.073417055397787,-0.0,0.28265491127967834,-1.6215341726886194,0.0,-0.0011749528348445892,1.3783186674118042,-0.0,0.001205583568662405,0.7562597990036011,0.0,0.005958952941000462
204.0,260.0,-0.0568,0.1202,9.5695,-0.0406,0.0223,-0.1205,-1.9529701671996058,0.0,3.6308908462524414,-1.6055784225463867,-0.0,1.9683353900909424,5.073445278197088,-0.0,0.2863297760486603,-1.6215341726886194,0.0,0.006778145674616098,1.3783626556396484,-0.0,0.0021752025932073593,0.756247878074646,0.0,0.01651783287525177
204.0,260.0,-0.0568,0.1202,9.5695,-0.0406,0.0223,-0.1205,-1.9529944858946742,0.0,3.6323275566101074,-1.6056069135665894,-0.0,2.09641170501709,5.073453444033422,-0.0,0.27565836906433105,-1.621469799672262,0.0,0.005004500038921833,1.3783425092697144,-0.0,0.004205889534205198,0.756247878074646,0.0,0.014205636456608772
204.0,260.0,-0.0568,0.1202,9.5695,-0.0406,0.0223,-0.1205,-1.9529701671996058,0.0,3.666893720626831,-1.6055546998977661,-0.0,2.0319998264312744,5.0734939751918695,-0.0,0.2856783866882324,-1.621537987385885,0.0,-0.005332208704203367,1.3783830404281616,-0.0,-0.0007651627529412508,0.7562800645828247,0.0,-0.002252283738926053
204.0,260.0,-0.0568,0.1202,9.5695,-0.0406,0.0223,-0.1205,-1.9530064068236292,0.0,3.621927499771118,-1.605610966682434,-0.0,2.020911455154419,5.073457586556234,-0.0,0.28769227862358093,-1.6215699354754847,0.0,-0.008318859152495861,1.378382682800293,-0.0,-0.00446728290989995,0.7562721371650696,0.0,-0.0009122877381742001
204.0,260.0,-0.0568,0.1202,9.5695,-0.0406,0.0223,-0.1205,-1.9530145130553187,0.0,3.6179146766662598,-1.6055423021316528,-0.0,2.018876314163208,5.073417055397787,-0.0,0.27733075618743896,-1.6215222517596644,0.0,0.007966955192387104,1.3783748149871826,-0.0,-0.003038750495761633,0.7562315464019775,0.0,-0.0034958571195602417
204.0,260.0,-0.0568,0.1202,9.5695,-0.0406,0.0223,-0.1205,-1.9529944858946742,0.0,3.6437857151031494,-1.605582594871521,-0.0,2.0319442749023438,5.073481666832723,-0.0,0.28487539291381836,-1.6214864889727991,0.0,-0.006231266539543867,1.3783466815948486,-0.0,-0.008789123967289925,0.7563122510910034,0.0,-0.00984256062656641
204.0,260.0,-0.0568,0.1202,9.5695,-0.0406,0.0223,-0.1205,-1.9529944858946742,0.0,3.6346311569213867,-1.6056233644485474,-0.0,2.0262861251831055,5.073417055397787,-0.0,0.28767526149749756,-1.6215184370623987,0.0,-0.0006612674333155155,1.3784027099609375,-0.0,-0.002187080681324005,0.7562233805656433,0.0,0.00879662949591875
204.0,260.0,-0.0568,0.1202,9.5695,-0.0406,0.0223,-0.1205,-1.9529782734312953,0.0,3.6226284503936768,-1.6056352853775024,-0.0,2.0480661392211914,5.073425280838766,-0.0,0.2868020832538605,-1.6215265432940882,0.0,0.008321626111865044,1.3783466815948486,-0.0,0.007304420694708824,0.7562759518623352,0.0,-0.005230967421084642
204.0,260.0,-0.0568,0.1202,9.5695,-0.0406,0.0223,-0.1205,-1.9530230961241664,0.0,3.616006374359131,-1.6055948734283447,-0.0,2.043591022491455,5.073425131827154,-0.0,0.28766512870788574,-1.621537987385885,0.0,0.0073990230448544025,1.3782987594604492,-0.0,0.0026621294673532248,0.7562882900238037,0.0,0.0006773723289370537
204.0,260.0,-0.0568,0.1202,9.5695,-0.0406,0.0223,-0.1205,-1.9530025921263636,0.0,3.6210806369781494,-1.6056270599365234,-0.0,2.02657413482666,5.07346128204421,-0.0,0.278689444065094,-1.6215341726886194,0.0,0.004750645719468594,1.378382921218872,-0.0,-0.00033847312442958355,0.7562315464019775,0.0,0.0032089492306113243
197.0,267.0,-0.0604,0.0287,9.6515,-0.0451,0.0261,-0.118,-1.9529944858946742,0.0,3.6024892330169678,-1.605610966682434,-0.0,2.0147976875305176,5.073433357268133,-0.0,0.2786913514137268,-1.621566120778219,0.0,-0.009491462260484695,1.3783228397369385,-0.0,-0.0023117936216294765,0.7562437653541565,0.0,0.039717331528663635
197.0,267.0,-0.0604,0.0287,9.6515,-0.0451,0.0261,-0.118,-1.952954431573385,0.0,3.633769989013672,-1.6055943965911865,-0.0,2.0805678367614746,5.073433357268133,-0.0,0.28295785188674927,-1.6215503851519983,0.0,0.00836123339831829,1.3783388137817383,-0.0,0.002772657433524728,0.756256103515625,0.0,-0.013719694688916206
197.0,267.0,-0.0604,0.0287,9.6515,-0.0451,0.0261,-0.118,-1.952982564965719,0.0,3.699965715408325,-1.605610966682434,-0.0,2.0194156169891357,5.073425131827154,-0.0,0.27711886167526245,-1.6215341726886194,0.0,-0.005317533388733864,1.3784186840057373,-0.0,0.002658908488228917,0.756247878074646,0.0,0.01305431593209505
197.0,267.0,-0.0604,0.0287,9.6515,-0.0451,0.0261,-0.118,-1.9530312023558558,0.0,3.6523168087005615,-1.6056069135665894,-0.0,2.0243639945983887,5.073421108513632,-0.0,0.2857007384300232,-1.6214936415301722,0.0,-0.0021676747128367424,1.3783705234527588,-0.0,-0.0022965199314057827,0.7562962174415588,0.0,0.025108229368925095
197.0,267.0,-0.0604,0.0287,9.6515,-0.0451,0.0261,-0.118,-1.9529901943602503,0.0,3.5993170738220215,-1.605594515800476,-0.0,2.047450304031372,5.073445278197088,-0.0,0.2912892997264862,-1.621566120778219,0.0,0.003640345763415098,1.3783667087554932,-0.0,-0.0014298420865088701,0.7562073469161987,0.0,-0.029357122257351875
197.0,267.0,-0.0604,0.0287,9.6515,-0.0451,0.0261,-0.118,-1.9529582462706507,0.0,3.639616012573242,-1.605627417564392,-0.0,2.0178768634796143,5.073445278197088,-0.0,0.2841886579990387,-1.6215341726886194,0.0,-0.0016963401576504111,1.3783347606658936,-0.0,5.364452954381704e-05,0.7562597990036011,0.0,0.04625650867819786
197.0,267.0,-0.0604,0.0287,9.6515,-0.0451,0.0261,-0.118,-1.9529668293394984,0.0,3.6060776710510254,-1.605610966682434,-0.0,2.0095574855804443,5.0734857497508905,-0.0,0.28596431016921997,-1.6215184370623987,0.0,0.0051568979397416115,1.378326654434204,-0.0,0.00987551175057888,0.756239652633667,0.0,0.008033450692892075
197.0,267.0,-0.0604,0.0287,9.6515,-0.0451,0.0261,-0.118,-1.9530145130553187,0.0,3.656238317489624,-1.6055463552474976,-0.0,2.0255870819091797,5.073429274349966,-0.0,0.28463226556777954,-1.6215298811541956,0.0,0.003272158792242408,1.3783183097839355,-0.0,-0.0011239524465054274,0.7562073469161987,0.0,-0.026096628978848457
197.0,267.0,-0.0604,0.0287,9.6515,-0.0451,0.0261,-0.118,-1.9530230961241664,0.0,3.647426128387451,-1.605602741241455,-0.0,2.0326900482177734,5.073469447880544,-0.0,0.2909895181655884,-1.6215222517596644,0.0,-0.0011199740692973137,1.3783867359161377,-0.0,-0.00035820319317281246,0.7562438249588013,0.0,-0.062158361077308655
197.0,267.0,-0.0604,0.0287,9.6515,-0.0451,0.0261,-0.118,-1.952982564965719,0.0,3.5871694087982178,-1.605610966682434,-0.0,2.0454297065734863,5.0734170255954645,-0.0,0.28847143054008484,-1.6215298811541956,0.0,-0.007548669818788767,1.3783347606658936,-0.0,-0.005829380825161934,0.7562556862831116,0.0,0.017198944464325905
197.0,267.0,-0.0604,0.0287,9.6515,-0.0451,0.0261,-0.118,-1.952982564965719,0.0,3.6693902015686035,-1.6056352853775024,-0.0,2.0339884757995605,5.07346128204421,-0.0,0.28532135486602783,-1.6215499083148401,0.0,0.0004247836768627167,1.3783347606658936,-0.0,-0.010836692526936531,0.7562800049781799,0.0,0.025464290753006935
197.0,267.0,-0.0604,0.0287,9.6515,-0.0451,0.0261,-0.118,-1.9529701671996058,0.0,3.6371254920959473,-1.6056270599365234,-0.0,2.0424866676330566,5.073421108513632,-0.0,0.2747373580932617,-1.621566120778219,0.0,0.004439155571162701,1.378382682800293,-0.0,-0.0063380291685462,0.7562597990036011,0.0,-0.021277403458952904
197.0,267.0,-0.0604,0.0287,9.6515,-0.0451,0.0261,-0.118,-1.9529863796629847,0.0,3.645113945007324,-1.6056275367736816,-0.0,2.000169277191162,5.073449361115255,-0.0,0.28179773688316345,-1.6215699354754847,0.0,-0.0010925354436039925,1.378382682800293,-0.0,0.007653909269720316,0.7562437653541565,0.0,0.03126085177063942
197.0,267.0,-0.0604,0.0287,9.6515,-0.0451,0.0261,-0.118,-1.9530064068236292,0.0,3.674636125564575,-1.605574369430542,-0.0,1.978914499282837,5.073457586556234,-0.0,0.29463982582092285,-1.6215422789203089,0.0,0.008449085988104343,1.3783948421478271,-0.0,-0.0004339698934927583,0.7562114596366882,0.0,-0.028674151748418808
197.0,267.0,-0.0604,0.0287,9.6515,-0.0451,0.0261,-0.118,-1.9530145130553187,0.0,3.677426815032959,-1.6056151390075684,-0.0,1.9942715167999268,5.073465364962377,-0.0,0.2796633243560791,-1.6215422789203089,0.0,0.003809683956205845,1.3783986568450928,-0.0,-0.004541740752756596,0.7562680840492249,0.0,0.060026057064533234
197.0,267.0,-0.0604,0.0287,9.6515,-0.0451,0.0261,-0.118,-1.952970644036764,0.0,3.6612164974212646,-1.6056513786315918,-0.0,2.05509352684021,5.07341297247962,-0.0,0.278176873922348,-1.6215222517596644,0.0,0.0008352399454452097,1.3784146308898926,-0.0,-0.0058255307376384735,0.7562759518623352,0.0,0.0007839223835617304
197.0,267.0,-0.0604,0.0287,9.6515,-0.0451,0.0261,-0.118,-1.952998777429098,0.0,3.627591848373413,-1.605635404586792,-0.0,1.9933280944824219,5.073449361115255,-0.0,0.2876850366592407,-1.6215503851519983,0.0,-0.006579829845577478,1.3783626556396484,-0.0,-0.00667367409914732,0.7562879920005798,0.0,-0.024025678634643555
197.0,257.0,0.0072,0.1292,9.4816,-0.0292,0.0307,-0.1231,-1.9530145130553187,0.0,3.619690418243408,-1.605663776397705,-0.0,2.045156478881836,5.073441612511434,-0.0,0.27157577872276306,-1.6215460936175745,0.0,0.0002804666291922331,1.3783626556396484,-0.0,0.006382523570209742,0.7562556862831116,0.0,0.009706142358481884
197.0,257.0,0.0072,0.1292,9.4816,-0.0292,0.0307,-0.1231,-1.9530188045897425,0.0,3.6494140625,-1.605582594871521,-0.0,2.016343116760254,5.073469447880544,-0.0,0.2903955578804016,-1.6215341726886194,0.0,0.004055205266922712,1.3783466815948486,-0.0,-0.0004443582147359848,0.7562921643257141,0.0,-0.014427289366722107
197.0,257.0,0.0072,0.1292,9.4816,-0.0292,0.0307,-0.1231,-1.9529463253416957,0.0,3.6710891723632812,-1.6057082414627075,-0.0,2.020632266998291,5.073473590403356,-0.0,0.2909535765647888,-1.621537987385885,0.0,-0.007590782828629017,1.378342628479004,-0.0,-0.004825847689062357,0.7562597990036011,0.0,0.005607375875115395
197.0,257.0,0.0072,0.1292,9.4816,-0.0292,0.0307,-0.1231,-1.9530064068236292,0.0,3.655210494995117,-1.605582594871521,-0.0,2.057485818862915,5.073477673321523,-0.0,0.29019227623939514,-1.6215341726886194,0.0,0.003230804344639182,1.3783905506134033,-0.0,-0.005243712570518255,0.7562718391418457,0.0,0.002850768156349659
197.0,257.0,0.0072,0.1292,9.4816,-0.0292,0.0307,-0.1231,-1.9530350170531214,0.0,3.6586222648620605,-1.6055904626846313,-0.0,2.002303123474121,5.073473590403356,-0.0,0.2748669981956482,-1.6215303579913538,0.0,0.011177487671375275,1.3783588409423828,-0.0,-0.003393962513655424,0.7562556862831116,0.0,-0.007742653600871563
197.0,257.0,0.0072,0.1292,9.4816,-0.0292,0.0307,-0.1231,-1.9529744587340296,0.0,3.6134252548217773,-1.6056596040725708,-0.0,1.9945619106292725,5.073433357268133,-0.0,0.28785157203674316,-1.6215503851519983,0.0,-0.005043357610702515,1.378382682800293,-0.0,-0.013329649344086647,0.7562233209609985,0.0,0.002886081812903285
197.0,257.0,0.0072,0.1292,9.4816,-0.0292,0.0307,-0.1231,-1.9530312023558558,0.0,3.7055716514587402,-1.605594515800476,-0.0,2.028550386428833,5.0734374401863,-0.0,0.29128092527389526,-1.6215460936175745,0.0,-0.006465612910687923,1.378314733505249,-0.0,-0.004854586441069841,0.7562639117240906,0.0,0.020810451358556747
197.0,257.0,0.0072,0.1292,9.4816,-0.0292,0.0307,-0.1231,-1.9529744587340296,0.0,3.6326584815979004,-1.605610966682434,-0.0,2.0307345390319824,5.073457586556234,-0.0,0.2894124984741211,-1.621514145527975,0.0,1.5089637599885464e-05,1.3783628940582275,-0.0,-0.007393843028694391,0.7562597990036011,0.0,0.012695839628577232
197.0,257.0,0.0072,0.1292,9.4816,-0.0292,0.0307,-0.1231,-1.952982564965719,0.0,3.636307954788208,-1.605546474456787,-0.0,2.0350842475891113,5.073465364962377,-0.0,0.2874053120613098,-1.621514145527975,0.0,0.0002765308599919081,1.3783907890319824,-0.0,-0.01598714292049408,0.756247878074646,0.0,0.021245546638965607
197.0,257.0,0.0072,0.1292,9.4816,-0.0292,0.0307,-0.1231,-1.9529782734312953,0.0,3.652420997619629,-1.6055866479873657,-0.0,2.033822774887085,5.073453444033422,-0.0,0.2970486581325531,-1.6215017477618616,0.0,0.007307072170078754,1.378370761871338,-0.0,0.006784368772059679,0.7562759518623352,0.0,0.033463649451732635
197.0,257.0,0.0072,0.1292,9.4816,-0.0292,0.0307,-0.1231,-1.9530145130553187,0.0,3.6377549171447754,-1.605570673942566,-0.0,2.0169994831085205,5.073461669474401,-0.0,0.2878536880016327,-1.6215055624591272,0.0,-0.0019185334676876664,1.3784027099609375,-0.0,0.0031527483370155096,0.756247878074646,0.0,0.04533597081899643
197.0,257.0,0.0072,0.1292,9.4816,-0.0292,0.0307,-0.1231,-1.9530230961241664,0.0,3.6493544578552246,-1.6055666208267212,-0.0,2.0689163208007812,5.073433357268133,-0.0,0.2749122381210327,-1.6215341726886194,0.0,0.001042191288433969,1.3783228397369385,-0.0,0.0011011637980118394,0.7562357187271118,0.0,-0.04168359190225601
197.0,257.0,0.0072,0.1292,9.4816,-0.0292,0.0307,-0.1231,-1.9529582462706507,0.0,3.6764323711395264,-1.6055669784545898,-0.0,2.0515732765197754,5.073448973685064,-0.0,0.2839062511920929,-1.621537987385885,0.0,0.0009292357135564089,1.3783509731292725,-0.0,0.00575600191950798,0.7562759518623352,0.0,-0.008884457871317863
197.0,257.0,0.0072,0.1292,9.4816,-0.0292,0.0307,-0.1231,-1.953010698358053,0.0,3.659945487976074,-1.6055784225463867,-0.0,2.0233097076416016,5.073477613716879,-0.0,0.28288084268569946,-1.62152606645693,0.0,-0.005116602871567011,1.3783667087554932,-0.0,0.0018068915233016014,0.7562962174415588,0.0,-0.02758697420358658
197.0,257.0,0.0072,0.1292,9.4816,-0.0292,0.0307,-0.1231,-1.9529863796629847,0.0,3.6348109245300293,-1.6056069135665894,-0.0,2.075320243835449,5.0734088001544855,-0.0,0.28031376004219055,-1.621554199849264,0.0,-0.0017758902395144105,1.3783788681030273,-0.0,0.006197697017341852,0.7562636137008667,0.0,-0.014650296419858932
197.0,257.0,0.0072,0.1292,9.4816,-0.0292,0.0307,-0.1231,-1.952986856500143,0.0,3.629772186279297,-1.605619192123413,-0.0,2.061166763305664,5.073421108513632,-0.0,0.2954440116882324,-1.6215184370623987,0.0,-0.004016640596091747,1.3783347606658936,-0.0,-0.0077361962758004665,0.756227433681488,0.0,0.006132188253104687
197.0,257.0,0.0072,0.1292,9.4816,-0.0292,0.0307,-0.1231,-1.9530145130553187,0.0,3.623234748840332,-1.605582594871521,-0.0,2.043062686920166,5.073425280838766,-0.0,0.29654619097709656,-1.6215303579913538,0.0,0.014357049949467182,1.3783786296844482,-0.0,0.0002737209142651409,0.7562556862831116,0.0,-0.015765806660056114
201.0,264.0,-0.0395,0.0891,9.6586,-0.0434,0.0276,-0.1235,-1.953026910821432,0.0,3.653773307800293,-1.6056233644485474,-0.0,2.011674404144287,5.073445278197088,-0.0,0.2741285264492035,-1.6215460936175745,0.0,-0.016625862568616867,1.3783187866210938,-0.0,0.002196451649069786,0.756203293800354,0.0,-0.01028495654463768
201.0,264.0,-0.0395,0.0891,9.6586,-0.0434,0.0276,-0.1235,-1.953026910821432,0.0,3.662351608276367,-1.6056472063064575,-0.0,2.037034034729004,5.073449361115255,-0.0,0.29136770963668823,-1.6215460936175745,0.0,-0.021240057423710823,1.378342866897583,-0.0,0.006836090236902237,0.7562962174415588,0.0,0.04176726192235947
201.0,264.0,-0.0395,0.0891,9.6586,-0.0434,0.0276,-0.1235,-1.9529582462706507,0.0,3.67034912109375,-1.6055583953857422,-0.0,2.0320019721984863,5.07346128204421,-0.0,0.2926971912384033,-1.621566120778219,0.0,-0.0011589258210733533,1.3783626556396484,-0.0,0.009058086201548576,0.7562315464019775,0.0,0.007183967158198357
201.0,264.0,-0.0395,0.0891,9.6586,-0.0434,0.0276,-0.1235,-1.952982564965719,0.0,3.63511061668396,-1.6055986881256104,-0.0,2.00282883644104,5.073441135674276,-0.0,0.2857692241668701,-1.62152606645693,0.0,0.014454471878707409,1.3783388137817383,-0.0,-0.0016151248710229993,0.7562114596366882,0.0,-0.043539658188819885
201.0,264.0,-0.0395,0.0891,9.6586,-0.0434,0.0276,-0.1235,-1.9529744587340296,0.0,3.6473159790039062,-1.6055829524993896,-0.0,2.0260732173919678,5.073417055397787,-0.0,0.28530290722846985,-1.6215060392962855,0.0,6.831623613834381e-05,1.378410816192627,-0.0,0.0004037445178255439,0.7562561631202698,0.0,0.028977032750844955
201.0,264.0,-0.0395,0.0891,9.6586,-0.0434,0.0276,-0.1235,-1.9530230961241664,0.0,3.6486093997955322,-1.605570673942566,-0.0,2.0310001373291016,5.073365378170767,-0.0,0.2883538007736206,-1.6215222517596644,0.0,0.013492055237293243,1.378314733505249,-0.0,-0.0033122228924185038,0.7562556862831116,0.0,-0.017835034057497978
201.0,264.0,-0.0395,0.0891,9.6586,-0.0434,0.0276,-0.1235,-1.9529744587340296,0.0,3.6536107063293457,-1.6056069135665894,-0.0,2.0109825134277344,5.073453444033422,-0.0,0.28433430194854736,-1.6215136686908167,0.0,0.0037076259031891823,1.3784433603286743,-0.0,0.0027835110668092966,0.7562639117240906,0.0,-0.02648545615375042
201.0,264.0,-0.0395,0.0891,9.6586,-0.0434,0.0276,-0.1235,-1.952954431573385,0.0,3.6408088207244873,-1.6055986881256104,-0.0,2.055227518081665,5.073429274349966,-0.0,0.28108763694763184,-1.6215017477618616,0.0,0.0034126504324376583,1.3783389329910278,-0.0,0.0002266023075208068,0.7562677264213562,0.0,0.01387244276702404
201.0,264.0,-0.0395,0.0891,9.6586,-0.0434,0.0276,-0.1235,-1.953026910821432,0.0,3.6325316429138184,-1.605619192123413,-0.0,2.045347213745117,5.073405134468832,-0.0,0.29131612181663513,-1.6215341726886194,0.0,-0.018108397722244263,1.3784066438674927,-0.0,-0.014209792017936707,0.7562921047210693,0.0,-0.03788624331355095
201.0,264.0,-0.0395,0.0891,9.6586,-0.0434,0.0276,-0.1235,-1.9529901943602503,0.0,3.699535369873047,-1.605663776397705,-0.0,2.007732391357422,5.0734374401863,-0.0,0.28907984495162964,-1.621537987385885,0.0,0.002583050401881337,1.378402590751648,-0.0,0.005731291137635708,0.7562274932861328,0.0,-0.03788888826966286
201.0,264.0,-0.0395,0.0891,9.6586,-0.0434,0.0276,-0.1235,-1.952982564965719,0.0,3.656120777130127,-1.6055908203125,-0.0,2.0270118713378906,5.073433357268133,-0.0,0.272960364818573,-1.6215298811541956,0.0,0.007364111952483654,1.378334879875183,-0.0,0.0007468517869710922,0.7562639117240906,0.0,-0.0036331554874777794
201.0,264.0,-0.0395,0.0891,9.6586,-0.0434,0.0276,-0.1235,-1.9529382191100062,0.0,3.6326656341552734,-1.605594515800476,-0.0,2.0379843711853027,5.073433357268133,-0.0,0.3029903769493103,-1.6215341726886194,0.0,0.0016618813388049603,1.378374695777893,-0.0,-0.011057596653699875,0.756219744682312,0.0,-0.03787019103765488
201.0,264.0,-0.0395,0.0891,9.6586,-0.0434,0.0276,-0.1235,-1.952986856500143,0.0,3.6209287643432617,-1.6055866479873657,-0.0,2.034087657928467,5.073425131827154,-0.0,0.2870159447193146,-1.621537987385885,0.0,-0.016062848269939423,1.3783748149871826,-0.0,0.0038204160518944263,0.7562639117240906,0.0,0.008091757073998451
201.0,264.0,-0.0395,0.0891,9.6586,-0.0434,0.0276,-0.1235,-1.9530021152892054,0.0,3.6068174839019775,-1.605562448501587,-0.0,2.043091058731079,5.073433357268133,-0.0,0.28791940212249756,-1.6215422789203089,0.0,-0.006415786221623421,1.3783867359161377,-0.0,-0.003611186286434531,0.7562438249588013,0.0,0.024737758561968803
201.0,264.0,-0.0395,0.0891,9.6586,-0.0434,0.0276,-0.1235,-1.9530021152892054,0.0,3.6553773880004883,-1.6056069135665894,-0.0,1.9621241092681885,5.073465364962377,-0.0,0.2796599566936493,-1.6215341726886194,0.0,0.003094250801950693,1.3783187866210938,-0.0,0.0044943359680473804,0.7562437653541565,0.0,0.01195700652897358
201.0,264.0,-0.0395,0.0891,9.6586,-0.0434,0.0276,-0.1235,-1.9529944858946742,0.0,3.6317591667175293,-1.6056394577026367,-0.0,1.998182773590088,5.0734374401863,-0.0,0.27807143330574036,-1.6215699354754847,0.0,-0.0016031436389312148,1.378354787826538,-0.0,-0.0027891905046999454,0.7562031745910645,0.0,-0.05600517988204956
201.0,264.0,-0.0395,0.0891,9.6586,-0.0434,0.0276,-0.1235,-1.952982564965719,0.0,3.626413106918335,-1.6056394577026367,-0.0,2.028341770172119,5.073433357268133,-0.0,0.2841007709503174,-1.6215341726886194,0.0,0.0058344947174191475,1.3783149719238281,-0.0,-0.013301527127623558,0.7562879920005798,0.0,0.0019431477412581444
200.0,268.0,0.0299,0.1184,9.5276,-0.0302,0.0197,-0.1196,-1.9529983005919398,0.0,3.651949167251587,-1.6056233644485474,-0.0,2.0158660411834717,5.073449361115255,-0.0,0.284889817237854,-1.6215580145465296,0.0,0.002847034018486738,1.3783667087554932,-0.0,0.0017822476802393794,0.7562921047210693,0.0,0.022975942119956017
200.0,268.0,0.0299,0.1184,9.5276,-0.0302,0.0197,-0.1196,-1.952998777429098,0.0,3.63529372215271,-1.6056394577026367,-0.0,2.0231010913848877,5.0734817562396906,-0.0,0.2900647222995758,-1.6215341726886194,0.0,-0.006378223188221455,1.3783148527145386,-0.0,0.01678820140659809,0.756227433681488,0.0,0.011722920462489128
200.0,268.0,0.0299,0.1184,9.5276,-0.0302,0.0197,-0.1196,-1.953038831750387,0.0,3.6233062744140625,-1.6055866479873657,-0.0,2.065369129180908,5.07337765672759,-0.0,0.2801278233528137,-1.6215017477618616,0.0,-0.0017538343090564013,1.3783628940582275,-0.0,-0.009289572946727276,0.756239652633667,0.0,-0.00487139169126749
200.0,268.0,0.0299,0.1184,9.5276,-0.0302,0.0197,-0.1196,-1.9530188045897425,0.0,3.6790528297424316,-1.605610966682434,-0.0,2.0284881591796875,5.073453056603231,-0.0,0.2855241298675537,-1.6215184370623987,0.0,-0.009603982791304588,1.3783507347106934,-0.0,0.005702177062630653,0.7562397122383118,0.0,0.021838294342160225
200.0,268.0,0.0299,0.1184,9.5276,-0.0302,0.0197,-0.1196,-1.9530145130553187,0.0,3.6514248847961426,-1.6056472063064575,-0.0,2.056082248687744,5.073457586556234,-0.0,0.28030622005462646,-1.6215460936175745,0.0,0.004023102577775717,1.378402590751648,-0.0,0.016692552715539932,0.7562515139579773,0.0,0.05421070009469986
200.0,268.0,0.0299,0.1184,9.5276,-0.0302,0.0197,-0.1196,-1.9530064068236292,0.0,3.655623197555542,-1.6056394577026367,-0.0,2.0602927207946777,5.073425280838766,-0.0,0.28169184923171997,-1.621566120778219,0.0,0.0026482869870960712,1.3783748149871826,-0.0,0.0064960564486682415,0.7562800049781799,0.0,0.011403936892747879
200.0,268.0,0.0299,0.1184,9.5276,-0.0302,0.0197,-0.1196,-1.9530021152892054,0.0,3.6433725357055664,-1.6056394577026367,-0.0,2.050982713699341,5.073498058110037,-0.0,0.28509461879730225,-1.621554199849264,0.0,-0.014858490787446499,1.3783987760543823,-0.0,-0.00943783950060606,0.7562479376792908,0.0,0.0009555842261761427
200.0,268.0,0.0299,0.1184,9.5276,-0.0302,0.0197,-0.1196,-1.953010698358053,0.0,3.6851916313171387,-1.6055908203125,-0.0,2.0388522148132324,5.07346128204421,-0.0,0.2896304130554199,-1.6215699354754847,0.0,-0.0039879316464066505,1.3784432411193848,-0.0,0.0034819210413843393,0.7562474012374878,0.0,0.02274666726589203
200.0,268.0,0.0299,0.1184,9.5276,-0.0302,0.0197,-0.1196,-1.9529901943602503,0.0,3.6326699256896973,-1.6056435108184814,-0.0,2.0233139991760254,5.07341297247962,-0.0,0.2823105752468109,-1.6215422789203089,0.0,0.003986727446317673,1.378354787826538,-0.0,-0.007342010270804167,0.7562438249588013,0.0,0.035991325974464417
200.0,268.0,0.0299,0.1184,9.5276,-0.0302,0.0197,-0.1196,-1.9530230961241664,0.0,3.6512231826782227,-1.605602741241455,-0.0,2.032177686691284,5.073461669474401,-0.0,0.2655453085899353,-1.62152606645693,0.0,-0.0010022484930232167,1.3784185647964478,-0.0,0.005142034962773323,0.7562638521194458,0.0,-0.05442272871732712
200.0,268.0,0.0299,0.1184,9.5276,-0.0302,0.0197,-0.1196,-1.9530188045897425,0.0,3.67170786857605,-1.605610966682434,-0.0,2.0310819149017334,5.0734333274658105,-0.0,0.2923915684223175,-1.62152606645693,0.0,-0.0047120507806539536,1.3783468008041382,-0.0,-0.010541421361267567,0.7562638521194458,0.0,-0.03729499503970146
200.0,268.0,0.0299,0.1184,9.5276,-0.0302,0.0197,-0.1196,-1.9529663525023402,0.0,3.6558756828308105,-1.6055866479873657,-0.0,2.023085117340088,5.073433357268133,-0.0,0.28148311376571655,-1.6215103308307093,0.0,-0.0041251517832279205,1.3783466815948486,-0.0,-0.0057247839868068695,0.7562920451164246,0.0,-0.0082097128033638
200.0,268.0,0.0299,0.1184,9.5276,-0.0302,0.0197,-0.1196,-1.952998777429098,0.0,3.6735682487487793,-1.6056233644485474,-0.0,2.02919864654541,5.07341297247962,-0.0,0.279557466506958,-1.6215422789203089,0.0,-0.002701526042073965,1.3783466815948486,-0.0,0.005177830345928669,0.7562196850776672,0.0,0.013715475797653198
200.0,268.0,0.0299,0.1184,9.5276,-0.0302,0.0197,-0.1196,-1.9529944858946742,0.0,3.606935977935791,-1.605610966682434,-0.0,2.0332064628601074,5.073449361115255,-0.0,0.2986021041870117,-1.6215418020831507,0.0,-0.0006415899260900915,1.378330945968628,-0.0,0.0036515346728265285,0.7563163042068481,0.0,-0.0006451840163208544
200.0,268.0,0.0299,0.1184,9.5276,-0.0302,0.0197,-0.1196,-1.953038831750387,0.0,3.598506450653076,-1.6055866479873657,-0.0,2.0137314796447754,5.073469447880544,-0.0,0.2863283157348633,-1.621566120778219,0.0,-0.014700100757181644,1.3783906698226929,-0.0,0.013436129316687584,0.7562961578369141,0.0,-0.014912894926965237
200.0,268.0,0.0299,0.1184,9.5276,-0.0302,0.0197,-0.1196,-1.9529701671996058,0.0,3.6844544410705566,-1.6055986881256104,-0.0,1.9966304302215576,5.073457586556234,-0.0,0.2926112413406372,-1.6215499083148401,0.0,0.008198904804885387,1.3783866167068481,-0.0,0.006037204526364803,0.7561994194984436,0.0,0.01974363625049591
200.0,268.0,0.0299,0.1184,9.5276,-0.0302,0.0197,-0.1196,-1.9529863796629847,0.0,3.6495728492736816,-1.6056233644485474,-0.0,2.0276660919189453,5.073473411589422,-0.0,0.2876046299934387,-1.6215103308307093,0.0,0.009071560576558113,1.3783507347106934,-0.0,-0.0007078754715621471,0.7562274932861328,0.0,0.026434704661369324
202.0,259.0,-0.0449,0.1346,9.5192,-0.0388,0.0328,-0.1248,-1.9529625378050746,0.0,3.6288766860961914,-1.605594515800476,-0.0,2.001315116882324,5.073481666832723,-0.0,0.2856653928756714,-1.6215499083148401,0.0,-0.0022884344216436148,1.3783787488937378,-0.0,0.004453531466424465,0.7562597990036011,0.0,0.005795391742140055
202.0,259.0,-0.0449,0.1346,9.5192,-0.0388,0.0328,-0.1248,-1.953026910821432,0.0,3.6467204093933105,-1.6055948734283447,4.995721610612236e-06,2.043031692504883,5.073457586556234,-0.0,0.28749099373817444,-1.6215503851519983,0.0,-0.0005059009417891502,1.3783864974975586,-0.0,0.003128377953544259,0.756239652633667,0.0,0.007626270409673452
202.0,259.0,-0.0449,0.1346,9.5192,-0.0388,0.0328,-0.1248,-1.9530312023558558,0.0,3.632147789001465,-1.605587124824524,1.206408063725295e-11,2.0193777084350586,5.073413359909811,-0.0,0.2801772654056549,-1.6215422789203089,0.0,-0.006595742888748646,1.3783869743347168,-0.0,0.008149772882461548,0.7562638521194458,0.0,-0.05032772570848465
202.0,259.0,-0.0449,0.1346,9.5192,-0.0388,0.0328,-0.1248,-1.952970644036764,0.0,3.6329293251037598,-1.605619192123413,2.9133334261342137e-17,2.0506184101104736,5.0734088001544855,-0.0,0.28438520431518555,-1.62152606645693,0.0,-0.010812710970640182,1.3783588409423828,-0.0,-0.0028316224925220013,0.7562962770462036,0.0,0.03301741182804108
202.0,259.0,-0.0449,0.1346,9.5192,-0.0388,0.0328,-0.1248,-1.952998777429098,0.0,3.647311210632324,-1.6056069135665894,5.2438965490989304e-21,2.019259452819824,5.073449361115255,-0.0,0.2880309820175171,-1.6215298811541956,0.0,0.0004662440624088049,1.3783745765686035,-0.0,0.004500511102378368,0.756316065788269,0.0,0.020532308146357536
202.0,259.0,-0.0449,0.1346,9.5192,-0.0388,0.0328,-0.1248,-1.9530350170531214,0.0,3.6241695880889893,-1.6056069135665894,1.2663393829634397e-26,2.037165403366089,5.073445278197088,-0.0,0.28940075635910034,-1.621554199849264,0.0,-0.005971207749098539,1.3783507347106934,-0.0,-0.0014295893488451838,0.7562397122383118,0.0,0.043605491518974304
202.0,259.0,-0.0449,0.1346,9.5192,-0.0388,0.0328,-0.1248,-1.9530064068236292,0.0,3.6457009315490723,-1.6055908203125,3.058060602481277e-32,2.0275216102600098,5.073449361115255,-0.0,0.2857443392276764,-1.62152606645693,0.0,-0.011518381536006927,1.3783427476882935,-0.0,0.00398293137550354,0.7562879323959351,0.0,-0.039026737213134766
202.0,259.0,-0.0449,0.1346,9.5192,-0.0388,0.0328,-0.1248,-1.952986856500143,0.0,3.6270394325256348,-1.6055866479873657,0.0002820274094119668,2.0194907188415527,5.073425131827154,-0.0,0.28715863823890686,-1.6215499083148401,0.0,0.0007390239043161273,1.3783944845199585,-0.0,-0.000988946296274662,0.7562879920005798,0.0,0.006185397505760193
202.0,259.0,-0.0449,0.1346,9.5192,-0.0388,0.0328,-0.1248,-1.952982564965719,0.0,3.608053684234619,-1.6055221557617188,0.00033084824099205434,2.0504674911499023,5.073449361115255,-0.0,0.28086620569229126,-1.6215699354754847,0.0,0.010938136838376522,1.3783786296844482,-0.0,-0.0044957115314900875,0.756324291229248,0.0,-0.017985492944717407
202.0,259.0,-0.0449,0.1346,9.5192,-0.0388,0.0328,-0.1248,-1.9530145130553187,0.0,3.657613515853882,-1.6055748462677002,0.000557214894797653,2.0275936126708984,5.073465335160055,-0.0,0.27347519993782043,-1.6215017477618616,0.0,-0.004868610762059689,1.3783148527145386,-0.0,-0.00030900328420102596,0.7562233805656433,0.0,-0.026147186756134033
202.0,259.0,-0.0449,0.1346,9.5192,-0.0388,0.0328,-0.1248,-1.9530312023558558,0.0,3.641007900238037,-1.605559229850769,0.000561362539883703,2.0257041454315186,5.073425340443411,-0.0,0.28207987546920776,-1.6215103308307093,0.0,-1.2871809303760529e-05,1.378394603729248,-0.0,0.01069318875670433,0.7562031745910645,0.0,-0.03536466881632805
202.0,259.0,-0.0449,0.1346,9.5192,-0.0388,0.0328,-0.1248,-1.9530025921263636,0.0,3.66679310798645,-1.6055829524993896,0.0004281590227037668,2.04740571975708,5.073449361115255,-0.0,0.27921363711357117,-1.62152606645693,0.0,-0.0022081900388002396,1.3783587217330933,-0.0,-0.001128855161368847,0.7562556862831116,0.0,0.012491770088672638
202.0,259.0,-0.0449,0.1346,9.5192,-0.0388,0.0328,-0.1248,-1.9530021152892054,0.0,3.649831771850586,-1.6055508852005005,0.00040350155904889107,2.022118330001831,5.073445278197088,-0.0,0.285991907119751,-1.6215503851519983,0.0,-0.0013182660331949592,1.378342866897583,-0.0,-0.0005539919366128743,0.7563202381134033,0.0,0.03378775715827942
202.0,259.0,-0.0449,0.1346,9.5192,-0.0388,0.0328,-0.1248,-1.9529863796629847,0.0,3.630255937576294,-1.6055629253387451,0.0003576876188162714,1.9928388595581055,5.073465364962377,-0.0,0.27912211418151855,-1.6215699354754847,0.0,-0.007340855896472931,1.3783268928527832,-0.0,0.003546328516677022,0.7562636733055115,0.0,-0.0062155392952263355
202.0,259.0,-0.0449,0.1346,9.5192,-0.0388,0.0328,-0.1248,-1.9529863796629847,0.0,3.6265382766723633,-1.605578899383545,0.00030562534811906517,2.0720620155334473,5.073441135674276,-0.0,0.2794255018234253,-1.6215222517596644,0.0,-0.010854434221982956,1.378370761871338,-0.0,-0.0037993257865309715,0.7562597990036011,0.0,0.010428166948258877
202.0,259.0,-0.0449,0.1346,9.5192,-0.0388,0.0328,-0.1248,-1.9530469379820765,0.0,3.6687936782836914,-1.605599045753479,0.0002667947846930474,2.0506956577301025,5.073465364962377,-0.0,0.2780662775039673,-1.6215499083148401,0.0,0.0016128788702189922,1.3783867359161377,-0.0,-0.007118937559425831,0.7562879920005798,0.0,0.0017257193103432655
202.0,259.0,-0.0449,0.1346,9.5192,-0.0388,0.0328,-0.1248,-1.9530188045897425,0.0,3.695089817047119,-1.605578899383545,0.0002459612733218819,2.0320212841033936,5.073509591608801,-0.0,0.29143884778022766,-1.6215184370623987,0.0,-0.007272964809089899,1.3783469200134277,-0.0,-0.002537679160013795,0.7562515735626221,0.0,-0.08152921497821808
202.0,273.0,-0.2154,0.0951,9.6353,-0.0411,0.0261,-0.1129,-1.9530345402159632,0.0,3.640882730484009,-1.6055669784545898,0.00022017277660779655,2.0345265865325928,5.073477643519201,-0.0,0.27696025371551514,-1.6215618292437952,0.0,-0.0036878036335110664,1.3783308267593384,-0.0,0.0048508308827877045,0.756231427192688,0.0,-0.02186945080757141
202.0,273.0,-0.2154,0.0951,9.6353,-0.0411,0.0261,-0.1129,-1.9530068836607875,0.0,3.625927448272705,-1.6055629253387451,0.00019927890389226377,1.9985055923461914,5.073481666832723,-0.0,0.2803516387939453,-1.6215184370623987,0.0,-0.014784831553697586,1.3783388137817383,-0.0,-0.016602210700511932,0.7562800049781799,0.0,0.015747377648949623
202.0,273.0,-0.2154,0.0951,9.6353,-0.0411,0.0261,-0.1129,-1.9529901943602503,0.0,3.638866424560547,-1.6054739952087402,0.00018742198881227523,2.083327054977417,5.073477613716879,-0.0,0.28899654746055603,-1.6215503851519983,0.0,-0.005587677005678415,1.3783388137817383,-0.0,-0.0035137010272592306,0.7562314867973328,0.0,-0.0202175360172987
202.0,273.0,-0.2154,0.0951,9.6353,-0.0411,0.0261,-0.1129,-1.9530021152892054,0.0,3.612006425857544,-1.6055829524993896,0.00017206533811986446,1.9892611503601074,5.0734088001544855,-0.0,0.29107362031936646,-1.6215341726886194,0.0,0.011079720221459866,1.378362774848938,-0.0,0.0026172238867729902,0.7562800645828247,4.996974894311279e-05,0.018944120034575462
202.0,273.0,-0.2154,0.0951,9.6353,-0.0411,0.0261,-0.1129,-1.9530588589110316,0.0,3.6460745334625244,-1.6055587530136108,0.00015903450548648834,2.007572889328003,5.073449361115255,-0.0,0.2819650173187256,-1.6215499083148401,0.0,0.008116381242871284,1.378286600112915,-0.0,-0.006389219779521227,0.7562475204467773,3.04246738913605e-09,-0.04780508577823639
202.0,273.0,-0.2154,0.0951,9.6353,-0.0411,0.0261,-0.1129,-1.953026910821432,0.0,3.6226646900177,-1.6055303812026978,0.0001513912866357714,2.050532341003418,5.0734693882759,-0.0,0.29315346479415894,-1.6215303579913538,0.0,-0.0021943373139947653,1.3783587217330933,-0.0,-0.0016300936695188284,0.75630784034729,5.476333904581854e-13,-0.004006474278867245
202.0,273.0,-0.2154,0.0951,9.6353,-0.0411,0.0261,-0.1129,-1.9530064068236292,0.0,3.6488490104675293,-1.6055508852005005,0.00016138041974045336,2.026282787322998,5.073449361115255,-0.0,0.28255465626716614,-1.6215499083148401,0.0,0.011669780127704144,1.378354787826538,-0.0,-0.004471626598387957,0.7562958002090454,1.3224703071604852e-18,-0.05669289827346802
202.0,273.0,-0.2154,0.0951,9.6353,-0.0411,0.0261,-0.1129,-1.9529701671996058,0.0,3.6310415267944336,-1.6056069135665894,0.00012546479410957545,2.016768217086792,5.073481696635046,-0.0,0.29082196950912476,-1.6215460936175745,0.0,-0.002656162716448307,1.3784104585647583,-0.0,-0.010345423594117165,0.7563120126724243,0.0005868950975127518,-0.09207704663276672
202.0,273.0,-0.2154,0.0951,9.6353,-0.0411,0.0261,-0.1129,-1.953026910821432,0.0,3.654527187347412,-1.6055229902267456,0.00014765006199013442,2.0321877002716064,5.073457109719076,-0.0,0.2827736735343933,-1.621554199849264,0.0,-0.003518696641549468,1.3783626556396484,-0.0,-0.006952258758246899,0.7563197612762451,0.0015216674655675888,0.015060551464557648
202.0,273.0,-0.2154,0.0951,9.6353,-0.0411,0.0261,-0.1129,-1.9530426464476527,-6.978603250828996e-10,3.61968994140625,-1.6055508852005005,0.0017309654504060745,2.0567898750305176,5.073501425772466,-0.0,0.28553545475006104,-1.6215460936175745,0.0,-0.0012142433552071452,1.378334879875183,-0.0,-0.0071951840072870255,0.7563437223434448,0.0022906872909516096,-0.02735893614590168
202.0,273.0,-0.2154,0.0951,9.6353,-0.0411,0.0261,-0.1129,-1.9530545673766078,-1.6852506108682884e-15,3.622343063354492,-1.6055434942245483,0.0047275833785533905,2.0281059741973877,5.073461252241888,-0.0,0.28330183029174805,-1.621514145527975,0.0,-0.0007361797615885735,1.378370761871338,-0.0,-0.0032934551127254963,0.7563474774360657,0.0028378432616591454,-0.023959500715136528
202.0,273.0,-0.2154,0.0951,9.6353,-0.0411,0.0261,-0.1129,-1.953055044213766,-3.033391505914714e-19,3.6660075187683105,-1.6054909229278564,0.00686688395217061,2.0305376052856445,5.073465364962377,3.364772055647336e-05,0.2908734083175659,-1.6215341726886194,0.0,0.007014421746134758,1.3783587217330933,-0.0,-0.0011679246090352535,0.7563839554786682,0.0036491509526968002,0.04776005074381828
202.0,273.0,-0.2154,0.0951,9.6353,-0.0411,0.0261,-0.1129,-1.9530469379820765,-7.325282986753728e-25,3.647169828414917,-1.605419397354126,0.00951775535941124,2.0221381187438965,5.073465364962377,3.287996878498234e-05,0.27725157141685486,-1.6215580145465296,0.0,0.011700085364282131,1.3783189058303833,-0.0,0.0014517868403345346,0.756456196308136,0.005535523407161236,0.046284355223178864
202.0,273.0,-0.2154,0.0951,9.6353,-0.0411,0.0261,-0.1129,-1.9530469379820765,-0.0004207988386042416,3.6535236835479736,-1.6053669452667236,0.012813417240977287,2.0464491844177246,5.073401021748342,1.5590583643643185e-05,0.28883078694343567,-1.62152606645693,0.0,-0.00420144759118557,1.3784146308898926,-0.0,-0.0010726595064625144,0.7564759254455566,0.00711709214374423,0.027534645050764084
202.0,273.0,-0.2154,0.0951,9.6353,-0.0411,0.0261,-0.1129,-1.9530226192870082,-0.000488051533466205,3.6223933696746826,-1.6052992343902588,0.01633945293724537,2.041187286376953,5.073469447880544,1.5064269064168911e-05,0.2767946720123291,-1.6215222517596644,0.0,-0.01523980125784874,1.3783667087554932,-0.0,-0.008603710681200027,0.756499707698822,0.007693531457334757,0.056507859379053116
202.0,273.0,-0.2154,0.0951,9.6353,-0.0411,0.0261,-0.1129,-1.9530745945372523,-0.0009632422006689012,3.64973783493042,-1.6052110195159912,0.019733743742108345,2.032073974609375,5.073421108513632,1.4343971997732297e-05,0.27672773599624634,-1.621514145527975,0.0,0.002792870393022895,1.378330945968628,-0.0,0.006327842362225056,0.7565476894378662,0.00865254458039999,-0.0058803074061870575
200.0,253.0,-0.0903,-0.0185,9.28,-0.0454,0.0209,-0.1046,-1.9530908070006312,-0.0009341849363408983,3.6385374069213867,-1.6050629615783691,0.021068686619400978,2.06276535987854,5.0734374401863,1.3689453226106707e-05,0.2784336805343628,-1.6215618292437952,0.0,0.0018545187776908278,1.378402590751648,-0.0,0.0029729604721069336,0.7565556168556213,0.009660755284130573,0.011289185844361782
200.0,253.0,-0.0903,-0.0185,9.28,-0.0454,0.0209,-0.1046,-1.9531151256956996,-0.0012044429313391447,3.6737422943115234,-1.6049706935882568,0.020846297964453697,2.104008913040161,5.073425280838766,1.309203707933193e-05,0.28145700693130493,-1.6215103308307093,0.0,-0.0045205228962004185,1.3783787488937378,-0.0,0.002223572228103876,0.756663978099823,0.009229132905602455,0.011563845910131931
200.0,253.0,-0.0903,-0.0185,9.28,-0.0454,0.0209,-0.1046,-1.953123231927389,-0.0017626944463700056,3.643101453781128,-1.6048548221588135,0.020858464762568474,2.068650484085083,5.073417055397787,1.1001027644397254e-07,0.27919822931289673,-1.6215499083148401,0.0,-0.020221557468175888,1.3783587217330933,-0.0,-0.0017656302079558372,0.7566918134689331,0.009770801290869713,0.02277843840420246
200.0,253.0,-0.0903,-0.0185,9.28,-0.0454,0.0209,-0.1046,-1.9531027279295863,-0.0031617064960300922,3.6372790336608887,-1.6047263145446777,0.018387680873274803,2.079119920730591,5.073425280838766,3.062176207047074e-11,0.27153921127319336,-1.6215460936175745,0.0,-0.005656266584992409,1.3783071041107178,-0.0,0.005578675772994757,0.7567557692527771,0.010327626019716263,0.020865047350525856
200.0,253.0,-0.0903,-0.0185,9.28,-0.0454,0.0209,-0.1046,-1.9531542263426722,-0.0055174450390040874,3.619345188140869,-1.6046391725540161,0.01388106495141983,2.079768419265747,5.073401438980856,8.523680689758763e-15,0.2928910255432129,-1.6215022245990198,0.0,-0.008677581325173378,1.378322958946228,-0.0,-0.003057552734389901,0.7568719983100891,0.010403787717223167,0.05794472247362137
200.0,253.0,-0.0903,-0.0185,9.28,-0.0454,0.0209,-0.1046,-1.9532190761961878,-0.007117004133760929,3.61049222946167,-1.6046154499053955,0.010219586081802845,2.0189621448516846,5.073337453394689,3.633778622910339e-17,0.2820453941822052,-1.62152606645693,0.0,0.0027233923319727182,1.378362774848938,-0.0,0.001839153002947569,0.756871223449707,0.010755871422588825,0.02054087072610855
200.0,253.0,-0.0903,-0.0185,9.28,-0.0454,0.0209,-0.1046,-1.9532629452147425,-0.009757086634635925,3.6120548248291016,-1.604506254196167,0.004812043625861406,2.076901435852051,5.0734334466751,-0.0005604428588412702,0.29531532526016235,-1.6215303579913538,0.0,-0.0016416249563917518,1.3783109188079834,-0.0,-0.012638203799724579,0.7569357752799988,0.011933316476643085,0.005444801412522793
200.0,253.0,-0.0903,-0.0185,9.28,-0.0454,0.0209,-0.1046,-1.9533349476256312,-0.01027603354305029,3.6359705924987793,-1.6045676469802856,0.0014305500080808997,2.052375316619873,5.073405432492056,-0.0004177047812845558,0.28907185792922974,-1.621509853993551,0.0,0.003284190781414509,1.378303050994873,-0.0,0.0015692329034209251,0.7570723295211792,0.01211460866034031,-0.005366185214370489
200.0,253.0,-0.0903,-0.0185,9.28,-0.0454,0.0209,-0.1046,-1.9533587894835414,-0.009652366861701012,3.6020419597625732,-1.6045066118240356,0.0005365434335544705,2.0315065383911133,5.07338576295928,-0.0003522466286085546,0.26643556356430054,-1.6215341726886194,0.0,-0.00499259028583765,1.3783786296844482,-0.0,-0.006785334087908268,0.7570880055427551,0.012015496380627155,-0.011611384339630604
200.0,253.0,-0.0903,-0.0185,9.28,-0.0454,0.0209,-0.1046,-1.9534665546812953,-0.00921051949262619,3.6144323348999023,-1.6045186519622803,-0.0011936974478885531,2.0345141887664795,5.0733574507530115,-0.00028522161301225424,0.288831889629364,-1.6214984099017542,2.7647415024034672e-08,-0.006885882932692766,1.3783071041107178,-0.0,0.0013712708605453372,0.7571439146995544,0.011532628908753395,-0.00582964438945055
200.0,253.0,-0.0903,-0.0185,9.28,-0.0454,0.0209,-0.1046,-1.9535027943053187,-0.008878997527062893,3.654726266860962,-1.604522705078125,-0.0008980777929536998,1.9763498306274414,5.073385792761602,-0.0002874463389161974,0.27704811096191406,-1.6214945952044886,7.695759828008075e-12,0.006934166885912418,1.3783150911331177,-0.0,0.0030790474265813828,0.7571876645088196,0.011693895794451237,0.020907171070575714
200.0,253.0,-0.0903,-0.0185,9.28,-0.0454,0.0209,-0.1046,-1.9535705051817835,-0.009347130544483662,3.63118577003479,-1.6045713424682617,-0.0004886540700681508,2.0083250999450684,5.073381680041113,-0.0003024092875421047,0.28943732380867004,-1.6214984099017542,3.2808228789954486e-14,0.0025792079977691174,1.378354787826538,-0.0,0.009678988717496395,0.7572639584541321,0.01202645618468523,0.03658103570342064
200.0,253.0,-0.0903,-0.0185,9.28,-0.0454,0.0209,-0.1046,-1.9536062679686488,-0.008585019037127495,3.5525965690612793,-1.6046074628829956,0.0001985025155590847,2.018726348876953,5.07342557886199,-0.0002649292000569403,0.27526018023490906,-1.6215065161334437,9.13229233826714e-18,0.0001638928661122918,1.378354787826538,-0.0,0.0038756709545850754,0.7573155164718628,0.012544667348265648,-0.008794459514319897
200.0,253.0,-0.0903,-0.0185,9.28,-0.0454,0.0209,-0.1046,-1.9536825619139613,-0.007576650939881802,3.596578598022461,-1.6045832633972168,0.00024020248383749276,2.0335421562194824,5.073361593275823,-0.00026768899988383055,0.2803361117839813,-1.6215022245990198,2.5420076095257156e-21,0.004863842390477657,1.3783587217330933,-0.0,-0.002424654783681035,0.7574477195739746,0.013797424733638763,-0.007861072197556496
200.0,253.0,-0.0903,-0.0185,9.28,-0.0454,0.0209,-0.1046,-1.9536987743773402,-0.007085492834448814,3.6035847663879395,-1.604551076889038,0.00013599013618659228,2.0560622215270996,5.073405432492056,-0.00021607137750834227,0.26278600096702576,-1.6215179602252405,1.083697668547365e-23,0.005349266808480024,1.3783587217330933,-0.0,-0.004030080512166023,0.7574918270111084,0.013850524090230465,0.04876802861690521
200.0,253.0,-0.0903,-0.0185,9.28,-0.0454,0.0209,-0.1046,-1.9537097416319789,-0.006139419041574001,3.5846338272094727,-1.6045470237731934,0.00011083107528975233,2.074186325073242,5.07338975647048,-0.00021527204080484807,0.2689977288246155,-1.6215503851519983,3.016512234706802e-27,-0.0013468642719089985,1.3783190250396729,-0.0,-0.0012739093508571386,0.7575878500938416,0.01482437364757061,0.021711859852075577
200.0,253.0,-0.0903,-0.0185,9.28,-0.0454,0.0209,-0.1046,-1.953738351861471,-0.005555983167141676,3.5555059909820557,-1.6045594215393066,9.354850044474006e-05,2.036377429962158,5.073341446905889,-0.00022459911997430027,0.2758599519729614,-1.6215022245990198,8.396573075042252e-31,0.013004360720515251,1.378350853919983,-0.0,0.0029063932597637177,0.7576233744621277,0.01612744852900505,0.051618874073028564
199.0,256.0,-0.2303,0.0054,9.5988,-0.0452,0.0328,-0.0985,-1.953782697717184,-0.0058545381762087345,3.5546746253967285,-1.6045470237731934,0.0001265129103558138,2.046926259994507,5.073393869190969,-0.00020966609008610249,0.2605265974998474,-1.6215217749225062,3.5795907852110596e-33,0.0036637948360294104,1.3783468008041382,-0.0,0.0009097089059650898,0.757759690284729,0.01679176837205887,0.010678678750991821
199.0,256.0,-0.2303,0.0054,9.5988,-0.0452,0.0328,-0.0985,-1.9537774525084437,-0.005409428384155035,3.529906988143921,-1.604563593864441,0.00011137819092255086,2.020564556121826,5.073406147747793,-0.00021784786076750606,0.2661985158920288,-1.621486012135641,9.963922641232669e-37,0.008325556293129921,1.378374695777893,-0.0,0.004595203325152397,0.7578437924385071,0.017916953191161156,0.03264027461409569
199.0,256.0,-0.2303,0.0054,9.5988,-0.0452,0.0328,-0.0985,-1.9537812672057093,-0.005487747024744749,3.592318058013916,-1.6045067310333252,9.911214146995917e-05,2.003763437271118,5.073402064829626,-0.00019973190501332283,0.264177143573761,-1.6214779059039515,0.00014788222324568778,0.01368329580873251,1.378322958946228,-0.0,-0.006632582750171423,0.7579072713851929,0.0193856880068779,0.038692425936460495
199.0,256.0,-0.2303,0.0054,9.5988,-0.0452,0.0328,-0.0985,-1.95385803798818,-0.005426987539976835,3.5468735694885254,-1.6045552492141724,0.00012186596723040566,2.051337718963623,5.073293137341299,-0.0002721430500969291,0.25418025255203247,-1.6214898268329065,0.0001480231439927593,0.007872967049479485,1.378330945968628,-0.0,0.004251526668667793,0.7580194473266602,0.020579252392053604,0.03494178503751755
199.0,256.0,-0.2303,0.0054,9.5988,-0.0452,0.0328,-0.0985,-1.9539147816100062,-0.005599093157798052,3.5878372192382812,-1.6045109033584595,0.00013952411245554686,2.04301381111145,5.0733254728610895,-0.00023098112433217466,0.24703960120677948,-1.6214621702777308,0.0001581554242875427,0.005553318187594414,1.3783825635910034,-0.0,-0.012700801715254784,0.7581676840782166,0.02173927053809166,0.03084208071231842
199.0,256.0,-0.2303,0.0054,9.5988,-0.0452,0.0328,-0.0985,-1.9539343319334925,-0.005568886175751686,3.540652275085449,-1.6045351028442383,0.00019348689238540828,2.0315208435058594,5.073361593275823,-0.00026973741478286684,0.2549137473106384,-1.621486012135641,0.00017145393940154463,0.004097518976777792,1.3782986402511597,-0.0,-0.00462874723598361,0.7583235502243042,0.023234445601701736,0.01783931627869606
199.0,256.0,-0.2303,0.0054,9.5988,-0.0452,0.0328,-0.0985,-1.9539267025389613,-0.006521258037537336,3.531886100769043,-1.604551076889038,0.0002376836200710386,2.0171866416931152,5.073369759112158,-0.0002572728262748569,0.2579271197319031,-1.6214502493487757,0.00018596014706417918,0.010237956419587135,1.3783468008041382,-0.0,-0.0012732625473290682,0.7583713531494141,0.024285221472382545,0.06260192394256592
199.0,256.0,-0.2303,0.0054,9.5988,-0.0452,0.0328,-0.0985,-1.9539700947203578,-0.006878802087157965,3.5584239959716797,-1.6045109033584595,0.0008268492529168725,2.0647685527801514,5.073398130923071,-0.0002619513252284378,0.25791501998901367,-1.6214659849749964,0.000385632854886353,0.015336373820900917,1.378303050994873,-0.0,0.004549810197204351,0.758531391620636,0.02580643631517887,0.05676491931080818
199.0,256.0,-0.2303,0.0054,9.5988,-0.0452,0.0328,-0.0985,-1.9540344677367152,-0.007919023744761944,3.490748882293701,-1.6044952869415283,0.0013404075289145112,2.039220094680786,5.073369759112158,-0.00028829005896113813,0.230996236205101,-1.62144643465151,0.00042064141598530114,0.02195965126156807,1.3783867359161377,-0.0,0.0024557700380682945,0.7586752772331238,0.026943666860461235,0.040865834802389145
199.0,256.0,-0.2303,0.0054,9.5988,-0.0452,0.0328,-0.0985,-1.9541188679137171,-0.008225088939070702,3.5035548210144043,-1.6044632196426392,0.0018564561614766717,2.0400390625,5.073361593275823,-0.00025560607900843024,0.23918993771076202,-1.6215022245990198,0.0003824293380603194,0.0031582042574882507,1.3783825635910034,-0.0,-0.003385726595297456,0.758831799030304,0.02801981382071972,0.02418036013841629
199.0,256.0,-0.2303,0.0054,9.5988,-0.0452,0.0328,-0.0985,-1.9540978870787562,-0.009405449032783508,3.424166679382324,-1.6044471263885498,0.0025382048916071653,2.0791015625,5.073329585581579,-0.0002183801116188988,0.24601036310195923,-1.62144643465151,0.0004429541004355997,0.0023237275891005993,1.378382682800293,-0.0,0.0031062127090990543,0.7589831352233887,0.028900058940052986,0.04400406777858734
199.0,256.0,-0.2303,0.0054,9.5988,-0.0452,0.0328,-0.0985,-1.9541336498656214,-0.00948436837643385,3.444855213165283,-1.6044433116912842,0.003370831487700343,2.068848133087158,5.073353785067358,-0.00022873352281749249,0.24968090653419495,-1.6214702765094202,0.0004607950977515429,0.0116568086668849,1.3783270120620728,-0.0,0.0004161316901445389,0.7591631412506104,0.029782993718981743,0.04022727534174919
199.0,256.0,-0.2303,0.0054,9.5988,-0.0452,0.0328,-0.0985,-1.9541775188841761,-0.010217683389782906,3.427868127822876,-1.6043907403945923,0.0042222850024700165,2.0720715522766113,5.0733656761939905,-0.00021087647473905236,0.2338505983352661,-1.6214583555804651,0.00046697829384356737,0.01015772670507431,1.378311038017273,-0.0,0.007303851656615734,0.7593032717704773,0.030270129442214966,0.08005446195602417
199.0,256.0,-0.2303,0.0054,9.5988,-0.0452,0.0328,-0.0985,-1.9542256794371546,-0.01023450680077076,3.4463107585906982,-1.6044071912765503,0.004709829110652208,2.051953077316284,5.073361593275823,-0.0001887594989966601,0.2424963265657425,-1.6214659849749964,0.0004433716821949929,0.01669907569885254,1.378330945968628,-0.0,0.003450785530731082,0.7594952583312988,0.031502626836299896,0.03158491104841232
199.0,256.0,-0.2303,0.0054,9.5988,-0.0452,0.0328,-0.0985,-1.954318185845846,-0.010662763379514217,3.4394140243530273,-1.6043709516525269,0.005238552112132311,2.0517187118530273,5.07338576295928,-0.00019929819973185658,0.2321045994758606,-1.6214225927936,0.0004099674697499722,-0.005345402285456657,1.3783270120620728,-0.0,0.0003677024506032467,0.7596753239631653,0.030913205817341805,0.025764835998415947
199.0,256.0,-0.2303,0.0054,9.5988,-0.0452,0.0328,-0.0985,-1.9543739757933558,-0.011207608506083488,3.3927931785583496,-1.6043548583984375,0.0055803521536290646,2.0819649696350098,5.073341417103567,-0.00021399380057118833,0.23122459650039673,-1.6214702765094202,0.00038674636743962765,0.0036304795648902655,1.3783706426620483,-0.0,-0.01610223390161991,0.7598637342453003,0.030647799372673035,-0.0032867547124624252
199.0,256.0,-0.2303,0.0054,9.5988,-0.0452,0.0328,-0.0985,-1.9544702968993128,-0.012528076767921448,3.4420177936553955,-1.6043026447296143,0.0050485748797655106,2.0073323249816895,5.073305415898123,-0.00022927815734874457,0.23050612211227417,-1.6214383284198206,0.0003944640629924834,-0.0013830630341544747,1.378286600112915,-0.0,0.011997903697192669,0.760007381439209,0.03294992819428444,0.04510801285505295
205.0,273.0,-0.0508,0.3182,9.7143,-0.0405,0.0058,-0.08,-1.9545380077757777,-0.014180509373545647,3.3518669605255127,-1.604294776916504,0.004117898643016815,2.064873218536377,5.073349642544546,-0.0002715188020374626,0.22467952966690063,-1.6214264074908655,0.0004344678018242121,0.0070958007127046585,1.3783190250396729,-0.0,0.013082558289170265,0.760199248790741,0.03321550786495209,0.07656552642583847
205.0,273.0,-0.0508,0.3182,9.7143,-0.0405,0.0058,-0.08,-1.9545699558653773,-0.015495155937969685,3.3697919845581055,-1.604343295097351,0.0036045655142515898,2.034348726272583,5.0733578381832025,-0.0006865914911031723,0.22664551436901093,-1.6214502493487757,0.00044099296792410314,0.013151534833014011,1.3783667087554932,-0.0,0.0003047262434847653,0.7602949738502502,0.033611398190259933,0.05557908117771149
205.0,273.0,-0.0508,0.3182,9.7143,-0.0405,0.0058,-0.08,-1.954653879205221,-0.016595054417848587,3.3688812255859375,-1.604270577430725,0.0031416199635714293,2.0921881198883057,5.073297667294302,-0.0009610202978365123,0.22349146008491516,-1.6214059034930628,0.00080637086648494,0.018358321860432625,1.3783667087554932,-0.0,-0.0019518564222380519,0.7604868412017822,0.0347483828663826,0.06465333700180054
205.0,273.0,-0.0508,0.3182,9.7143,-0.0405,0.0058,-0.08,-1.9548102817931117,-0.017209306359291077,3.3594112396240234,-1.604271411895752,0.0023618226405233145,2.1062934398651123,5.073293465166845,-0.0009544565691612661,0.20904499292373657,-1.6214264074908655,0.0011974810622632504,0.006238803267478943,1.3783071041107178,-0.0,-0.0006411990034393966,0.7607471346855164,0.036252111196517944,0.04819582402706146
205.0,273.0,-0.0508,0.3182,9.7143,-0.0405,0.0058,-0.08,-1.9549385509886683,-0.017905455082654953,3.359194278717041,-1.6042993068695068,0.0020989561453461647,2.0706610679626465,5.073362010508337,-0.0008014675113372505,0.21328502893447876,-1.6214383284198206,0.0013755063991993666,0.03832072764635086,1.378362774848938,-0.0,-0.011102886870503426,0.760995090007782,0.036541640758514404,0.11975549906492233
205.0,273.0,-0.0508,0.3182,9.7143,-0.0405,0.0058,-0.08,-1.9549781284727992,-0.01776784099638462,3.3173882961273193,-1.6042274236679077,0.0019469497492536902,2.057096481323242,5.073285746365347,-0.0007730385987088084,0.20048484206199646,-1.6214225927936,0.001773975556716323,-0.0036774021573364735,1.3783190250396729,-0.0,-0.00967470183968544,0.7611513137817383,0.03828113526105881,0.030549636110663414
205.0,273.0,-0.0508,0.3182,9.7143,-0.0405,0.0058,-0.08,-1.9550420246519984,-0.017223944887518883,3.3460652828216553,-1.6042273044586182,0.001810423913411796,2.077312707901001,5.073297667294302,-0.0008128702756948769,0.20368316769599915,-1.6213825384723108,0.00463885348290205,0.010371589101850986,1.3783786296844482,-0.0,-0.0015428848564624786,0.761387050151825,0.038522638380527496,0.05615862458944321
205.0,273.0,-0.0508,0.3182,9.7143,-0.0405,0.0058,-0.08,-1.955120702783102,-0.01724165678024292,3.313065767288208,-1.6042672395706177,0.0012900896836072206,2.031358242034912,5.0732934949691675,-0.0012328444281592965,0.19497175514698029,-1.6213467756854456,0.014317164197564125,0.017496049404144287,1.3783708810806274,-0.0,-0.001546697923913598,0.7616109251976013,0.03875282034277916,0.11266479641199112
205.0,273.0,-0.0508,0.3182,9.7143,-0.0405,0.0058,-0.08,-1.955249925652975,-0.01735817641019821,3.312873363494873,-1.6042392253875732,0.0011631527449935675,2.07314133644104,5.0733099458511255,-0.0016607155557721853,0.19174925982952118,-1.6213143507586878,0.014709538780152798,0.015627015382051468,1.3783825635910034,-0.0,0.004764311481267214,0.7617791891098022,0.03791678696870804,0.03994172066450119
205.0,273.0,-0.0508,0.3182,9.7143,-0.0405,0.0058,-0.08,-1.955285211602682,-0.017838938161730766,3.321223735809326,-1.6042309999465942,0.0008047831943258643,2.076785087585449,5.07333009222106,-0.0018581034382805228,0.19987425208091736,-1.6212552229510706,0.007377929519861937,0.003957315348088741,1.378374695777893,-0.0,0.0009156616288237274,0.7619825601577759,0.036974478513002396,0.026538686826825142
205.0,273.0,-0.0508,0.3182,9.7143,-0.0405,0.0058,-0.08,-1.9554211101927699,-0.018320497125387192,3.273468017578125,-1.6042314767837524,0.0006579837063327432,2.0932812690734863,5.073285746365347,-0.0029122009873390198,0.18615838885307312,-1.6212790648089808,0.002335494151338935,0.018710941076278687,1.378374695777893,-0.0,-0.00883654784411192,0.7621983289718628,0.03482958301901817,0.0283978208899498
205.0,273.0,-0.0508,0.3182,9.7143,-0.0405,0.0058,-0.08,-1.9555217228331507,-0.018475763499736786,3.255532741546631,-1.6041587591171265,0.0006311396136879921,2.113774299621582,5.0732421455676935,-0.003311406821012497,0.19430288672447205,-1.6211989561664026,0.0010501914657652378,0.023375559598207474,1.3784103393554688,-0.0,-0.003174736863002181,0.7623222470283508,0.033391840755939484,0.05116596817970276
205.0,273.0,-0.0508,0.3182,9.7143,-0.0405,0.0058,-0.08,-1.955625673333639,-0.018148669973015785,3.32783842086792,-1.6041792631149292,0.0007116338820196688,2.076876401901245,5.073254066496649,-0.004557971376925707,0.1897112876176834,-1.6212752501117151,0.0006143809878267348,0.020268583670258522,1.3783310651779175,-0.0,-0.007023834623396397,0.762578547000885,0.030411435291171074,0.08503888547420502
205.0,273.0,-0.0508,0.3182,9.7143,-0.0405,0.0058,-0.08,-1.9557301006712855,-0.018683400005102158,3.2895901203155518,-1.6041792631149292,0.0014535861555486917,2.1192266941070557,5.073189842491903,-0.004658513702452183,0.2055290788412094,-1.6212189833270472,0.00043559534242376685,0.009857559576630592,1.3783150911331177,-0.0,-0.005339508876204491,0.7627549171447754,0.026977747678756714,0.0037923892959952354
205.0,273.0,-0.0508,0.3182,9.7143,-0.0405,0.0058,-0.08,-1.955789705316061,-0.018614061176776886,3.291321277618408,-1.6042072772979736,0.0015643482329323888,2.1001899242401123,5.073198067932882,-0.0038519343361258507,0.18477889895439148,-1.6212309042560022,0.0004371310933493078,0.022929877042770386,1.3782985210418701,-0.0,-0.0045814975164830685,0.7628588676452637,0.025285862386226654,-0.022506870329380035
205.0,273.0,-0.0508,0.3182,9.7143,-0.0405,0.0058,-0.08,-1.9558683834471644,-0.019841259345412254,3.2489848136901855,-1.604166865348816,0.0022323832381516695,2.0837209224700928,5.073202150851049,-0.002179214032366872,0.18809637427330017,-1.6212189833270472,0.00035212934017181396,0.022318754345178604,1.378322958946228,-0.0,0.0010214723879471421,0.7630269527435303,0.022380227223038673,0.056299418210983276
205.0,273.0,-0.0508,0.3182,9.7143,-0.0405,0.0058,-0.08,-1.9560133419432582,-0.020618025213479996,3.214592456817627,-1.604118824005127,0.002548572374507785,2.1522011756896973,5.073177891760626,-0.0012231804430484772,0.1872621774673462,-1.6212266127215784,0.0002944912121165544,0.008418016135692596,1.378294587135315,-0.0,-0.006294960156083107,0.7631231546401978,0.019989188760519028,0.033123478293418884
197.0,268.0,-0.0209,0.3996,9.5767,-0.0324,0.004,-0.1164,-1.956109186212057,-0.02159079536795616,3.2552433013916016,-1.6040984392166138,0.0028508843388408422,2.0684814453125,5.073190229922094,-0.0008938532555475831,0.18350088596343994,-1.6211751143084925,0.0002655209391377866,0.013725531287491322,1.3783066272735596,-0.0,-0.013112235814332962,0.7632111310958862,0.018801376223564148,0.033160071820020676
197.0,268.0,-0.0209,0.3996,9.5767,-0.0324,0.004,-0.1164,-1.9562531910338343,-0.023172926157712936,3.239762783050537,-1.6041512489318848,0.0031848568469285965,2.104186534881592,5.073157834797659,-0.0005782541120424867,0.1711680293083191,-1.6212189833270472,0.0002313803997822106,0.00781757291406393,1.3783587217330933,-0.0,-0.011405454948544502,0.7632788419723511,0.016748014837503433,0.009526742622256279
197.0,268.0,-0.0209,0.3996,9.5767,-0.0324,0.004,-0.1164,-1.9563523731627406,-0.025039881467819214,3.1840803623199463,-1.6040626764297485,0.0032778126187622547,2.132681369781494,5.073138075857916,-0.0006266190321184695,0.17746855318546295,-1.621246639882223,0.00020502098777797073,0.018334073945879936,1.3782985210418701,-1.500754187588882e-08,-0.01914392039179802,0.7633628845214844,0.015410966239869595,0.024171631783246994
197.0,268.0,-0.0209,0.3996,9.5767,-0.0324,0.004,-0.1164,-1.9564439258971156,-0.025180650874972343,3.217280864715576,-1.604050874710083,0.0031552102882415056,2.1174488067626953,5.073150026589193,-0.000946015992667526,0.17549894750118256,-1.621207062398092,0.00022202199033927172,0.007429987192153931,1.378362774848938,-6.397950225167648e-11,9.8375603556633e-06,0.7634671926498413,0.015020533464848995,-0.010727371089160442
197.0,268.0,-0.0209,0.3996,9.5767,-0.0324,0.004,-0.1164,-1.9566527805724085,-0.026649607345461845,3.2260262966156006,-1.6041030883789062,0.003208967624232173,2.0886521339416504,5.073178308993139,-0.0013214576756581664,0.17494529485702515,-1.6212108770953577,0.00022780524159315974,0.007919546216726303,1.378286600112915,-1.7808928702393867e-14,0.0011759130284190178,0.7635350227355957,0.01435155887156725,-0.00037303753197193146
197.0,268.0,-0.0209,0.3996,9.5767,-0.0324,0.004,-0.1164,-1.9567567310728968,-0.027789220213890076,3.2103874683380127,-1.6040425300598145,0.0026695409324020147,2.104491949081421,5.073170143156805,-0.001284334808588028,0.17792488634586334,-1.6211989561664026,0.00020966894226148725,0.02512332797050476,1.3783390522003174,-4.957181328057294e-18,-0.01749570481479168,0.7636274695396423,0.01342951413244009,0.026758071035146713
197.0,268.0,-0.0209,0.3996,9.5767,-0.0324,0.004,-0.1164,-1.9568921528258265,-0.02808408997952938,3.1758360862731934,-1.6040425300598145,0.002450225641950965,2.117396354675293,5.073190229922094,-0.0011614457471296191,0.16218304634094238,-1.6211908499347132,0.00013004372885916382,0.014975449070334435,1.3783587217330933,-2.11332416512695e-20,-0.01450816448777914,0.7636470198631287,0.013072419911623001,0.05013464391231537
197.0,268.0,-0.0209,0.3996,9.5767,-0.0324,0.004,-0.1164,-1.9570194683470667,-0.028300609439611435,3.2020034790039062,-1.6039990186691284,0.0021546606440097094,2.1237072944641113,5.073146301298895,-0.0008392897434532642,0.17632487416267395,-1.621178929005758,0.00011761621135519817,0.0231805220246315,1.3782787322998047,-5.882515654280002e-24,-0.001627498771995306,0.7637392282485962,0.011600801721215248,0.015282727777957916
197.0,268.0,-0.0209,0.3996,9.5767,-0.0324,0.004,-0.1164,-1.9571753940977992,-0.028932670131325722,3.2046937942504883,-1.6040713787078857,0.001830282504670322,2.099583864212036,5.073150384217062,-0.0006775464280508459,0.17043180763721466,-1.621223274861471,0.0001197821693494916,0.014691872522234917,1.3783268928527832,-1.6374198609281948e-27,-0.020127151161432266,0.763722836971283,0.009247016161680222,0.021570615470409393
197.0,268.0,-0.0209,0.3996,9.5767,-0.0324,0.004,-0.1164,-1.957365175286764,-0.029325881972908974,3.1790666580200195,-1.6039949655532837,0.0016337541164830327,2.0860958099365234,5.073186147003927,-0.0006370861665345728,0.17758148908615112,-1.6211908499347132,0.00012477778363972902,0.014395108446478844,1.3783390522003174,-6.980578222414608e-30,-0.00692363316193223,0.7638233304023743,0.007857260294258595,0.013406749814748764
197.0,268.0,-0.0209,0.3996,9.5767,-0.0324,0.004,-0.1164,-1.9575239620604457,-0.030207309871912003,3.155425786972046,-1.6039990186691284,0.0013862662017345428,2.1302504539489746,5.073182391911306,-0.0005088106845505536,0.156466543674469,-1.6212227980243128,0.00013552492600865662,0.02074575051665306,1.3782707452774048,-1.943069386706194e-33,-0.0029216487891972065,0.7638590931892395,0.005801256280392408,-0.00020840647630393505
197.0,268.0,-0.0209,0.3996,9.5767,-0.0324,0.004,-0.1164,-1.9576431713499964,-0.03214969113469124,3.1733720302581787,-1.6040149927139282,0.0016405797796323895,2.056189775466919,5.073126244335928,-0.0004666929307859391,0.165943905711174,-1.621155087147848,0.00014494314382318407,0.017529213801026344,1.3783190250396729,-5.408604911012e-37,-0.023967444896697998,0.7638875246047974,0.003954308573156595,-0.027921251952648163
197.0,268.0,-0.0209,0.3996,9.5767,-0.0324,0.004,-0.1164,-1.9578362903990687,-0.03414925932884216,3.2097721099853516,-1.6039752960205078,0.0020858249627053738,2.080505847930908,5.073162305146017,-0.00046450571971945465,0.1583622395992279,-1.6211712996112269,0.0002535774256102741,0.016471587121486664,1.3783626556396484,-2.305773564615592e-39,-0.01130455732345581,0.7638751864433289,0.0028779045678675175,-0.011639278382062912
197.0,268.0,-0.0209,0.3996,9.5767,-0.0324,0.004,-0.1164,-1.9579993687071742,-0.03455188870429993,3.1934213638305664,-1.6040077209472656,0.003197565907612443,2.079580068588257,5.073126244335928,-0.00043013098184019327,0.15956422686576843,-1.621155087147848,0.00026778652681969106,0.00814806018024683,1.3783231973648071,-6.417946966607662e-43,-0.006957444362342358,0.7638912200927734,0.001717252773232758,0.021676063537597656
197.0,268.0,-0.0209,0.3996,9.5767,-0.0324,0.004,-0.1164,-1.9582115612425746,-0.03747435659170151,3.178849458694458,-1.6039068698883057,0.004281315952539444,2.1142525672912598,5.073166060238638,-0.0004502155352383852,0.1626814901828766,-1.6211631933795374,0.0002332615986233577,-0.0022480611223727465,1.3783230781555176,-6.702693644911051e-05,-0.023184921592473984,0.7638751864433289,0.00105771713424474,-0.05856596305966377
197.0,268.0,-0.0209,0.3996,9.5767,-0.0324,0.004,-0.1164,-1.9583999119200648,-0.038711775094270706,3.1465630531311035,-1.6039150953292847,0.005206290632486343,2.1677701473236084,5.073146301298895,-0.00045017071533948183,0.16266672313213348,-1.621183220540182,0.00021470835781656206,0.012808260507881641,1.378286600112915,-0.00012681903899647295,-0.0071791294030845165,0.7639116644859314,0.000791605212725699,0.02222883328795433
197.0,268.0,-0.0209,0.3996,9.5767,-0.0324,0.004,-0.1164,-1.9586149654784144,-0.0413106270134449,3.0536513328552246,-1.6038788557052612,0.006344706751406193,2.0983214378356934,5.073174524098196,-0.0004951801965944469,0.15824741125106812,-1.6211593786822718,0.0001918233319884166,0.006084750406444073,1.3783111572265625,-0.0001171775147668086,-0.008173634298145771,0.7638669610023499,0.0005748000694438815,0.004665998741984367
207.0,294.0,0.0867,0.262,9.5785,-0.0583,-0.0166,-0.1155,-1.9588710270323695,-0.044641125947237015,3.101902961730957,-1.6039035320281982,0.008112413808703423,2.0859596729278564,5.073150384217062,-0.000847644463647157,0.1696149706840515,-1.621207062398092,0.00017334760923404247,0.02163691073656082,1.3783024549484253,-0.00013037424650974572,-0.022736970335245132,0.7638710141181946,0.00045124816824682057,-0.0328814797103405
207.0,294.0,0.0867,0.262,9.5785,-0.0583,-0.0166,-0.1155,-1.9590956173338832,-0.0457252599298954,3.1008996963500977,-1.603811502456665,0.009156518615782261,2.0969061851501465,5.07313438036994,-0.0010523757664486766,0.14960050582885742,-1.6211751143084925,0.00016288853657897562,0.010566526092588902,1.3783469200134277,-0.00012441360740922391,-0.006944179534912109,0.7639075517654419,0.00039469479816034436,0.000536610372364521
207.0,294.0,0.0867,0.262,9.5785,-0.0583,-0.0166,-0.1155,-1.9593593082823695,-0.04713500291109085,3.117075204849243,-1.6037956476211548,0.011503934860229492,2.088043212890625,5.0731224594409845,-0.001142330700531602,0.16269367933273315,-1.621178929005758,0.00014937049127183855,0.015524144284427166,1.3783190250396729,-0.0001357594010187313,-0.012216102331876755,0.7639273405075073,0.0003777561942115426,-0.008159840479493141
207.0,294.0,0.0867,0.262,9.5785,-0.0583,-0.0166,-0.1155,-1.9596268139281214,-0.04876824468374252,3.1222476959228516,-1.6036385297775269,0.012807607650756836,2.122337579727173,5.073122429638662,-0.0011532065691426396,0.14918678998947144,-1.6211712996112269,0.00016051283455453813,0.009868411347270012,1.3782589435577393,-0.00014334844308905303,-0.012208592146635056,0.7638549208641052,0.0003278341027908027,-0.02916654199361801
207.0,294.0,0.0867,0.262,9.5785,-0.0583,-0.0166,-0.1155,-1.9599348507323207,-0.05294529348611832,3.1328678131103516,-1.6035710573196411,0.0140299703925848,2.1387767791748047,5.07315485456542,-0.0012658177874982357,0.1509905904531479,-1.6212270895587366,0.0001494587049819529,0.009716557338833809,1.3783429861068726,-0.00013739395944867283,-0.017592519521713257,0.7638829350471497,0.0001966768322745338,-0.009347504936158657
207.0,294.0,0.0867,0.262,9.5785,-0.0583,-0.0166,-0.1155,-1.960125585595602,-0.05276588723063469,3.1094846725463867,-1.6035189628601074,0.015095703303813934,2.0952272415161133,5.073146629124441,-0.0012364776339381933,0.1505449414253235,-1.621195141469137,0.0001426882517989725,0.01458775345236063,1.378274917602539,-0.00020182866137474775,-0.015036595985293388,0.7638951539993286,0.00018086066120304167,0.032487548887729645
207.0,294.0,0.0867,0.262,9.5785,-0.0583,-0.0166,-0.1155,-1.9604417286314906,-0.054062195122241974,3.1428322792053223,-1.6034355163574219,0.017417773604393005,2.146984577178955,5.073102462082662,-0.0014363190857693553,0.15454882383346558,-1.6211870352374476,0.0001336096611339599,0.009474152699112892,1.3783190250396729,-0.0001865015656221658,-0.01605895720422268,0.7639070749282837,0.00019367682398296893,-0.012747307308018208
207.0,294.0,0.0867,0.262,9.5785,-0.0583,-0.0166,-0.1155,-1.9608069858946742,-0.05460123345255852,3.069136142730713,-1.603331208229065,0.020132649689912796,2.1299426555633545,5.07308645823554,-0.0014072319027036428,0.15710832178592682,-1.6211751143084925,0.00012561713811010122,0.021247824653983116,1.3782470226287842,-0.00019464474462438375,-0.02347674034535885,0.7639355659484863,0.00017486342403572053,0.021566689014434814
207.0,294.0,0.0867,0.262,9.5785,-0.0583,-0.0166,-0.1155,-1.961006303826803,-0.054789695888757706,3.0942375659942627,-1.6032954454421997,0.022248610854148865,2.1214239597320557,5.073066311865606,-0.0013953772140666842,0.1533515602350235,-1.6211712996112269,0.00012079982116119936,0.010522682219743729,1.378262996673584,-0.00018536388233769685,-0.03105757385492325,0.7639397382736206,0.00016422713815700263,-0.01410290040075779
207.0,294.0,0.0867,0.262,9.5785,-0.0583,-0.0166,-0.1155,-1.9613210163512171,-0.05299907922744751,3.0944037437438965,-1.6031391620635986,0.025790249928832054,2.1546123027801514,5.073078620224752,-0.00181943504139781,0.15542542934417725,-1.621183220540182,0.0001142287437687628,0.027085311710834503,1.3782669305801392,-0.00019601793610490859,-0.016064997762441635,0.7639314532279968,0.00015049609646666795,0.009113993495702744
207.0,294.0,0.0867,0.262,9.5785,-0.0583,-0.0166,-0.1155,-1.9616414509215296,-0.05110887810587883,3.070755958557129,-1.6029112339019775,0.029856771230697632,2.1455636024475098,5.073014575033941,-0.0035035032778978348,0.1445327252149582,-1.6211989561664026,0.00010833579290192574,0.02629755064845085,1.3783024549484253,-0.00017933598428498954,-0.019732143729925156,0.7638829350471497,0.00013888416287954897,-0.009897270239889622
207.0,294.0,0.0867,0.262,9.5785,-0.0583,-0.0166,-0.1155,-1.9618445835509242,-0.050496187061071396,3.1011528968811035,-1.6028226613998413,0.03279580548405647,2.186800003051758,5.073042857437887,-0.004702841863036156,0.13915573060512543,-1.6212108770953577,0.00010473378642927855,0.02591082639992237,1.378294825553894,-0.0001922883529914543,-0.013005463406443596,0.7639275789260864,0.00013208964082878083,0.016849661245942116
207.0,294.0,0.0867,0.262,9.5785,-0.0583,-0.0166,-0.1155,-1.9621840916075648,-0.048972129821777344,3.1560544967651367,-1.6025910377502441,0.03817478567361832,2.211275100708008,5.072970735817709,-0.006665455177426338,0.14530585706233978,-1.6211712996112269,9.975840657716617e-05,0.021607540547847748,1.3783310651779175,-0.00017941695114132017,-0.023275122046470642,0.7638870477676392,0.00012305914424359798,-0.042942967265844345
207.0,294.0,0.0867,0.262,9.5785,-0.0583,-0.0166,-0.1155,-1.9624554119505824,-0.04941491037607193,3.103255271911621,-1.6023430824279785,0.04322333261370659,2.179021120071411,5.072947013169088,-0.008048281073570251,0.1605602204799652,-1.6211593786822718,9.523436892777681e-05,0.00818704068660736,1.3782907724380493,-0.00019864812202285975,-0.03747345879673958,0.7639194130897522,0.00011518449173308909,-0.02050081267952919
207.0,294.0,0.0867,0.262,9.5785,-0.0583,-0.0166,-0.1155,-1.962696214715475,-0.05071914941072464,3.114760398864746,-1.6021426916122437,0.04648970440030098,2.2101521492004395,5.072935092240133,-0.008359064348042011,0.13722430169582367,-1.6211393515216272,0.00010224594007013366,0.01685088314116001,1.3782272338867188,-0.0001825712970457971,-0.028871998190879822,0.7639759182929993,0.00011047164298361167,-0.018519852310419083
207.0,294.0,0.0867,0.262,9.5785,-0.0583,-0.0166,-0.1155,-1.9629956684508265,-0.05381063371896744,3.1177706718444824,-1.6018587350845337,0.05352826043963432,2.178471565246582,5.072903412371435,-0.006691928952932358,0.14153704047203064,-1.621195141469137,0.00010119011858478189,0.008004254661500454,1.3782788515090942,-0.0001952330203494057,-0.03205060958862305,0.7639033794403076,0.00010408379603177309,-0.026545032858848572
207.0,294.0,0.0867,0.262,9.5785,-0.0583,-0.0166,-0.1155,-1.9633103809752406,-0.056630343198776245,3.073862075805664,-1.601467251777649,0.06209802255034447,2.18314528465271,5.0728670237358,-0.0043799481354653835,0.16492274403572083,-1.6211431662188929,9.709709411254153e-05,0.008900707587599754,1.37831449508667,-0.00017618948186282068,-0.02352718636393547,0.7639193534851074,0.00011476709914859384,-0.0043000876903533936
206.0,290.0,-0.4271,0.1107,9.4875,-0.0144,0.0712,-0.1258,-1.9635182819762171,-0.05798184126615524,3.0354323387145996,-1.6012144088745117,0.06920800358057022,2.2177793979644775,5.072891580849447,-0.002588121686130762,0.15045218169689178,-1.6211989561664026,9.454704559175298e-05,0.024259425699710846,1.3782668113708496,-0.00019247920135967433,-0.022408729419112206,0.7638992667198181,0.0001107570860767737,0.009670743718743324
206.0,290.0,-0.4271,0.1107,9.4875,-0.0144,0.0712,-0.1258,-1.963870187798971,-0.06002096086740494,3.095273017883301,-1.6008268594741821,0.08224313706159592,2.1944265365600586,5.072875249176779,-0.0007787487702444196,0.1552506387233734,-1.621183220540182,9.09635637071915e-05,0.015617482364177704,1.37831449508667,-0.00017672164540272206,-0.028367122635245323,0.7639232277870178,0.00010520836076466367,-0.016172772273421288
206.0,290.0,-0.4271,0.1107,9.4875,-0.0144,0.0712,-0.1258,-1.96423401455068,-0.06444711238145828,3.1402859687805176,-1.6002353429794312,0.09716715663671494,2.2412285804748535,5.072822797089376,-0.00046938000014051795,0.15256021916866302,-1.6211751143084925,8.764186350163072e-05,0.015822233632206917,1.3782985210418701,-0.00016300332208629698,-0.02185117080807686,0.7639474272727966,0.00011450159217929468,0.006021120119839907
206.0,290.0,-0.4271,0.1107,9.4875,-0.0144,0.0712,-0.1258,-1.9644934139647425,-0.06882333010435104,3.0663204193115234,-1.5998029708862305,0.10595610737800598,2.2529666423797607,5.072883295803823,-0.0003721338580362499,0.15707604587078094,-1.621155087147848,8.555898239137605e-05,0.022769572213292122,1.3783066272735596,-0.0001549831940792501,-0.01978261210024357,0.7639273405075073,0.00011097232345491648,-0.005495183169841766
206.0,290.0,-0.4271,0.1107,9.4875,-0.0144,0.0712,-0.1258,-1.9649402103819789,-0.07772465795278549,3.0425751209259033,-1.5991185903549194,0.116917185485363,2.257413625717163,5.0728350756462,-0.0002839679946191609,0.15825875103473663,-1.621167008076803,8.261383482022211e-05,0.023177586495876312,1.3782232999801636,-0.0001635715161683038,-0.03685490041971207,0.7638870477676392,9.516949648968875e-05,0.001717597246170044
206.0,290.0,-0.4271,0.1107,9.4875,-0.0144,0.0712,-0.1258,-1.965520521203512,-0.084795743227005,3.0490760803222656,-1.5983871221542358,0.12283863127231598,2.258837938308716,5.072850960284033,-0.0001732572418404743,0.1600426435470581,-1.621178929005758,7.986474520293996e-05,0.010947596281766891,1.37831449508667,-0.00015434078522957861,-0.03912244737148285,0.7639676928520203,8.949112088885158e-05,-0.0026294535491615534
206.0,290.0,-0.4271,0.1107,9.4875,-0.0144,0.0712,-0.1258,-1.9657708607115687,-0.08590218424797058,3.1049044132232666,-1.5978671312332153,0.12874753773212433,2.2805187702178955,5.072907584696569,-0.00015271468146238476,0.15151576697826385,-1.621207062398092,6.71684517783433e-07,0.013318018056452274,1.3782390356063843,-0.0001479961210861802,-0.03178146854043007,0.7639515399932861,8.606793562648818e-05,-0.005699030123651028
206.0,290.0,-0.4271,0.1107,9.4875,-0.0144,0.0712,-0.1258,-1.966306825677389,-0.08334802091121674,3.127319812774658,-1.5971333980560303,0.13787712156772614,2.26845121383667,5.0728792426879785,-0.00013055093586444855,0.1568554788827896,-1.621183220540182,1.8696585946109678e-10,0.007723992690443993,1.3782947063446045,-0.00013939982454758137,-0.025954104959964752,0.7638669610023499,8.139746205415577e-05,0.005058350041508675
206.0,290.0,-0.4271,0.1107,9.4875,-0.0144,0.0712,-0.1258,-1.9668618641295375,-0.07962848246097565,3.1241841316223145,-1.596213698387146,0.14814597368240356,2.3283631801605225,5.072871583491125,-0.0001325975899817422,0.17140266299247742,-1.6211307684527796,5.204263940367798e-14,0.0017929163295775652,1.3782867193222046,-0.00013174735067877918,-0.04920795559883118,0.7639153003692627,7.72078856243752e-05,-0.0006896974518895149
206.0,290.0,-0.4271,0.1107,9.4875,-0.0144,0.0712,-0.1258,-1.9671899280943812,-0.07812564820051193,3.1163489818573,-1.5956146717071533,0.1537441909313202,2.312889337539673,5.072851407318868,-0.00014008911966811866,0.17019541561603546,-1.621195141469137,2.2186593391271985e-16,0.0011518090032041073,1.3782471418380737,-0.00012709604925476015,-0.02486664056777954,0.7639194130897522,8.783194061834365e-05,-0.009086551144719124
206.0,290.0,-0.4271,0.1107,9.4875,-0.0144,0.0712,-0.1258,-1.9677115879454554,-0.0767238512635231,3.1518378257751465,-1.5946359634399414,0.16347192227840424,2.3477602005004883,5.0728350756462,-8.45218964968808e-05,0.16328567266464233,-1.6211751143084925,6.175720113563248e-20,0.016582045704126358,1.3782986402511597,-0.00012070385128026828,-0.028792990371584892,0.7639557123184204,8.532946958439425e-05,-0.01338767260313034
206.0,290.0,-0.4271,0.1107,9.4875,-0.0144,0.0712,-0.1258,-1.968264719048971,-0.0833079144358635,3.1387102603912354,-1.593658208847046,0.16935409605503082,2.3329267501831055,5.07282321432189,-0.0020084355492144823,0.16069480776786804,-1.621178929005758,1.7190342509266085e-23,0.006585299968719482,1.3782312870025635,-0.00011492393241496757,-0.03093855455517769,0.7638951539993286,9.486021735938266e-05,-0.007811946328729391
206.0,290.0,-0.4271,0.1107,9.4875,-0.0144,0.0712,-0.1258,-1.9685384235777796,-0.0880226343870163,3.089871406555176,-1.5928912162780762,0.16926845908164978,2.3600151538848877,5.07280724027709,-0.003195966826751828,0.1488610953092575,-1.6211307684527796,7.32851226282496e-26,0.009053554385900497,1.3783066272735596,-0.00011136860121041536,-0.026282912120223045,0.7638911008834839,9.226166730513796e-05,-0.034341637045145035
206.0,290.0,-0.4271,0.1107,9.4875,-0.0144,0.0712,-0.1258,-1.9690987072386683,-0.09570882469415665,3.096435308456421,-1.5919299125671387,0.17218604683876038,2.329983711242676,5.072831439762869,-0.0025633263867348433,0.15884262323379517,-1.6212032477008265,1.3874905846478214e-07,0.015904556959867477,1.3783025741577148,-0.00010642991401255131,-0.026451721787452698,0.7639191150665283,0.00010100366489496082,-0.02383223921060562
206.0,290.0,-0.4271,0.1107,9.4875,-0.0144,0.0712,-0.1258,-1.9696737728514613,-0.09898172318935394,3.0875396728515625,-1.59075129032135,0.18262915313243866,2.404372215270996,5.072835433274069,-0.0006653983145952225,0.14857853949069977,-1.6211631933795374,3.862131447984751e-11,0.009294363670051098,1.3783468008041382,-9.097026486415416e-05,-0.027545960620045662,0.7639474868774414,0.0001811192778404802,-0.01267160288989544
