ramyac6/ROB537/final_project/csv/bad/bad_84.csv
tof_0,tof_1,accelx,accely,accelz,gyrox,gyroy,gyroz,shoulder_lift_joint_position,shoulder_lift_joint_velocity,shoulder_lift_joint_effort,elbow_joint_position,elbow_joint_velocity,elbow_joint_effort,wrist_1_joint_position,wrist_1_joint_velocity,wrist_1_joint_effort,wrist_2_joint_position,wrist_2_joint_velocity,wrist_2_joint_effort,wrist_3_joint_position,wrist_3_joint_velocity,wrist_3_joint_effort,shoulder_pan_joint_position,shoulder_pan_joint_velocity,shoulder_pan_joint_effort
500.0,8190.0,7.2443,0.1645,5.7057,-0.0437,0.0221,-0.1193,-1.4684341636351128,0.0,1.626251220703125,-1.3073217868804932,-0.0,2.043994665145874,3.4252301889606933,0.0,0.25164908170700073,-1.5896499792682093,-0.0,0.002497629728168249,0.7607161998748779,0.0,0.00530557706952095,0.8050953149795532,0.0,0.0003964691422879696
500.0,8190.0,7.2443,0.1645,5.7057,-0.0437,0.0221,-0.1193,-1.4683822405389328,0.0,1.5891811847686768,-1.3073300123214722,-0.0,2.061647891998291,3.4252983766743164,0.0,0.24189716577529907,-1.5896261374102991,-0.0,-0.014705313369631767,0.7606636881828308,0.0,0.005080535542219877,0.8050712943077087,0.0,-0.007940697483718395
500.0,8190.0,7.2443,0.1645,5.7057,-0.0437,0.0221,-0.1193,-1.4684261840632935,0.0,1.6160086393356323,-1.3073543310165405,-0.0,2.0478949546813965,3.425222082729004,0.0,0.2536642849445343,-1.589653793965475,-0.0,-0.017497481778264046,0.7606596946716309,0.0,-0.01151142455637455,0.8050752282142639,0.0,-0.023873575031757355
500.0,8190.0,7.2443,0.1645,5.7057,-0.0437,0.0221,-0.1193,-1.4684220862439652,0.0,1.597089171409607,-1.3073827028274536,-0.0,1.9803786277770996,3.4252301889606933,0.0,0.24558600783348083,-1.5896413961993616,-0.0,0.0026311706751585007,0.7607362270355225,0.0,-0.016977913677692413,0.805095374584198,0.0,0.047678157687187195
500.0,8190.0,7.2443,0.1645,5.7057,-0.0437,0.0221,-0.1193,-1.468410239820816,0.0,1.571033000946045,-1.307334065437317,-0.0,2.047102928161621,3.4251982408710937,0.0,0.24877509474754333,-1.589653793965475,-0.0,0.005010682158172131,0.7606554627418518,0.0,0.004243946168571711,0.8051073551177979,0.0,-0.009519180282950401
500.0,8190.0,7.2443,0.1645,5.7057,-0.0437,0.0221,-0.1193,-1.4684540045312424,0.0,1.60757315158844,-1.3073176145553589,-0.0,2.031128406524658,3.425210161800049,0.0,0.2599920928478241,-1.5896056334124964,-0.0,-0.007168257609009743,0.7606636881828308,0.0,-0.011720654554665089,0.805067241191864,0.0,0.02927638590335846
435.0,413.0,7.2281,0.1974,5.6734,-0.0414,0.0252,-0.1151,-1.4684221383980294,0.0,1.5574603080749512,-1.3073703050613403,-0.0,2.0589566230773926,3.425234003657959,0.0,0.2560238242149353,-1.5896623770343226,-0.0,-0.004605963826179504,0.760663628578186,0.0,-8.414988406002522e-05,0.8050392270088196,0.0,-0.0319126695394516
435.0,413.0,7.2281,0.1974,5.6734,-0.0414,0.0252,-0.1151,-1.468446062212326,0.0,1.5877461433410645,-1.307325839996338,-0.0,2.0427889823913574,3.425335093135498,0.0,0.261260062456131,-1.5896261374102991,-0.0,-0.0024483012966811657,0.7606638073921204,0.0,-0.010241172276437283,0.8050832748413086,0.0,0.059658925980329514
435.0,413.0,7.2281,0.1974,5.6734,-0.0414,0.0252,-0.1151,-1.4684341710856934,0.0,1.5943937301635742,-1.3073093891143799,-0.0,2.0494236946105957,3.425250216121338,0.0,0.25786304473876953,-1.589682404194967,-0.0,-0.01908111944794655,0.7606638073921204,0.0,-0.004464058205485344,0.8050913214683533,0.0,0.0370892658829689
435.0,413.0,7.2281,0.1974,5.6734,-0.0414,0.0252,-0.1151,-1.4683981922319909,0.0,1.584815263748169,-1.3073381185531616,-0.0,2.0533604621887207,3.425250216121338,0.0,0.2509349584579468,-1.5896499792682093,-0.0,0.0027347272261977196,0.760687530040741,0.0,-0.013126912526786327,0.8050953149795532,0.0,0.007289622910320759
435.0,413.0,7.2281,0.1974,5.6734,-0.0414,0.0252,-0.1151,-1.4684260872057457,0.0,1.5967317819595337,-1.3073949813842773,-0.0,2.04213547706604,3.425262613887451,0.0,0.2572060525417328,-1.5896413961993616,-0.0,-0.019570548087358475,0.7606878876686096,0.0,0.00216653011739254,0.8050631880760193,0.0,0.034092143177986145
435.0,413.0,7.2281,0.1974,5.6734,-0.0414,0.0252,-0.1151,-1.468402237897255,0.0,1.6176328659057617,-1.3073419332504272,-0.0,2.0474207401275635,3.425210161800049,0.0,0.25253549218177795,-1.5896413961993616,-0.0,-0.02530616894364357,0.7606474161148071,0.0,-0.00572055671364069,0.805071234703064,0.0,0.03528466448187828
435.0,413.0,7.2281,0.1974,5.6734,-0.0414,0.0252,-0.1151,-1.4684102174690743,0.0,1.5768229961395264,-1.307342290878296,-0.0,2.045475482940674,3.425222082729004,0.0,0.2511467933654785,-1.5896456877337855,-0.0,0.0017115212976932526,0.7606801390647888,0.0,0.0008054298814386129,0.805067241191864,0.0,-0.020175933837890625
435.0,413.0,7.2281,0.1974,5.6734,-0.0414,0.0252,-0.1151,-1.4683823150447388,0.0,1.6309773921966553,-1.3072937726974487,-0.0,2.0492961406707764,3.425250216121338,0.0,0.2611437439918518,-1.5896661917315882,-0.0,-0.004326725844293833,0.760639488697052,0.0,-0.01606491580605507,0.8050792813301086,0.0,-0.009500890970230103
435.0,413.0,7.2281,0.1974,5.6734,-0.0414,0.0252,-0.1151,-1.4684659031084557,0.0,1.621590495109558,-1.3073300123214722,-0.0,2.015322208404541,3.4252869325825195,0.0,0.24454879760742188,-1.5896456877337855,-0.0,-0.014255505055189133,0.760663628578186,0.0,-5.8737583458423615e-05,0.805067241191864,0.0,-0.03390346094965935
435.0,413.0,7.2281,0.1974,5.6734,-0.0414,0.0252,-0.1151,-1.468410202567913,0.0,1.5890978574752808,-1.307334065437317,-0.0,2.0598316192626953,3.425245924586914,0.0,0.254191130399704,-1.5896862188922327,-0.0,0.007522503845393658,0.7606678009033203,0.0,0.0022032945416867733,0.8051072359085083,0.0,0.01801481656730175
435.0,413.0,7.2281,0.1974,5.6734,-0.0414,0.0252,-0.1151,-1.4683981624296685,0.0,1.5875318050384521,-1.3073135614395142,-0.0,2.0543220043182373,3.4252545076557617,0.0,0.26290392875671387,-1.589682404194967,-0.0,-0.01323765516281128,0.7606313824653625,0.0,-0.008784961886703968,0.8050832748413086,0.0,-0.03813708573579788
435.0,413.0,7.2281,0.1974,5.6734,-0.0414,0.0252,-0.1151,-1.4684102100184937,0.0,1.5684046745300293,-1.307325839996338,-0.0,2.0347487926483154,3.4252664285847167,0.0,0.2553677558898926,-1.5896742979632776,-0.0,-0.006723669357597828,0.7606956958770752,0.0,-0.002302384003996849,0.8050832748413086,0.0,0.041577693074941635
449.0,415.0,7.2006,0.1944,5.7523,-0.0276,0.0176,-0.1138,-1.4684260797551651,0.0,1.6334216594696045,-1.3073176145553589,-0.0,2.03462553024292,3.4252382951923828,0.0,0.2526775300502777,-1.5896413961993616,-0.0,-0.00182301364839077,0.7606997489929199,0.0,-0.016164232045412064,0.8050953149795532,0.0,0.05460207164287567
449.0,415.0,7.2006,0.1944,5.7523,-0.0276,0.0176,-0.1138,-1.4684142035296937,0.0,1.571447730064392,-1.3073093891143799,-0.0,2.0244364738464355,3.42519394933667,0.0,0.2450573444366455,-1.5896218458758753,-0.0,-0.015198709443211555,0.7606878280639648,0.0,-0.011368070729076862,0.8050872683525085,0.0,-0.023509912192821503
449.0,415.0,7.2006,0.1944,5.7523,-0.0276,0.0176,-0.1138,-1.4684500780752678,0.0,1.6077380180358887,-1.3073102235794067,-0.0,2.0241100788116455,3.425245447749756,0.0,0.25617343187332153,-1.589653793965475,-0.0,-0.012569526210427284,0.7607080340385437,0.0,0.00011063227429986,0.8051073551177979,0.0,0.03798538073897362
449.0,415.0,7.2006,0.1944,5.7523,-0.0276,0.0176,-0.1138,-1.4684381571463128,0.0,1.596282958984375,-1.3073298931121826,-0.0,2.0507283210754395,3.4251982408710937,0.0,0.25092828273773193,-1.5896580854998987,-0.0,-0.0076988693326711655,0.7606878280639648,0.0,-0.0032754791900515556,0.805071234703064,0.0,-0.019433628767728806
449.0,415.0,7.2006,0.1944,5.7523,-0.0276,0.0176,-0.1138,-1.4684102100184937,0.0,1.6111849546432495,-1.307325839996338,-0.0,2.0181548595428467,3.4252826410480957,0.0,0.2587433159351349,-1.5896742979632776,-0.0,-0.0018152946140617132,0.760671854019165,0.0,-0.009564302861690521,0.8050511479377747,0.0,-0.006893190089613199
449.0,415.0,7.2006,0.1944,5.7523,-0.0276,0.0176,-0.1138,-1.4684022826007386,0.0,1.600050449371338,-1.3073744773864746,-0.0,2.0551395416259766,3.42527882635083,0.0,0.25821539759635925,-1.5896781126605433,-0.0,-0.019088413566350937,0.7607681751251221,0.0,-0.005207180045545101,0.8050993084907532,0.0,0.007255476899445057
449.0,415.0,7.2006,0.1944,5.7523,-0.0276,0.0176,-0.1138,-1.468473994438984,0.0,1.5822598934173584,-1.3073300123214722,-0.0,2.0717687606811523,3.425210161800049,0.0,0.25245898962020874,-1.5896051565753382,-0.0,-0.007142942398786545,0.7606678009033203,0.0,5.7352008298039436e-05,0.8050873279571533,0.0,-0.0160395298153162
449.0,415.0,7.2006,0.1944,5.7523,-0.0276,0.0176,-0.1138,-1.4684022826007386,0.0,1.6256905794143677,-1.307325839996338,-0.0,2.079451084136963,3.4252382951923828,0.0,0.2622286379337311,-1.5896661917315882,-0.0,-0.007551351562142372,0.7606956958770752,0.0,-0.02050454169511795,0.8050913214683533,0.0,-0.06496928632259369
449.0,415.0,7.2006,0.1944,5.7523,-0.0276,0.0176,-0.1138,-1.468390242462494,0.0,1.577153205871582,-1.3073019981384277,-0.0,2.0230205059051514,3.4251977640339355,0.0,0.24723288416862488,-1.5896413961993616,-0.0,0.0017942513804882765,0.7606555223464966,0.0,-0.01925540342926979,0.8050993084907532,0.0,-0.0007924195379018784
449.0,415.0,7.2006,0.1944,5.7523,-0.0276,0.0176,-0.1138,-1.4684261095574875,0.0,1.5865449905395508,-1.3073501586914062,-0.0,2.0351345539093018,3.425245924586914,0.0,0.2533743679523468,-1.5896747748004358,-0.0,-0.0033755390904843807,0.7606316804885864,0.0,-0.020243417471647263,0.8050752878189087,0.0,-0.0017819562926888466
449.0,415.0,7.2006,0.1944,5.7523,-0.0276,0.0176,-0.1138,-1.4684102100184937,0.0,1.5834522247314453,-1.307325839996338,-0.0,2.0294718742370605,3.425245924586914,0.0,0.2662125825881958,-1.5896056334124964,-0.0,-0.0038624852895736694,0.7606677412986755,0.0,-0.007724760100245476,0.8051154017448425,0.0,-0.015579864382743835
449.0,415.0,7.2006,0.1944,5.7523,-0.0276,0.0176,-0.1138,-1.4684221383980294,0.0,1.6043848991394043,-1.3073785305023193,-0.0,2.059041976928711,3.4252421098896484,0.0,0.2479042112827301,-1.589653793965475,-0.0,-0.0064468467608094215,0.7606916427612305,0.0,-0.012042952701449394,0.8050993084907532,0.0,-0.011123009957373142
460.0,418.0,7.1468,0.1944,5.7673,-0.0357,0.0254,-0.1206,-1.468390242462494,0.0,1.6052308082580566,-1.3073910474777222,-0.0,2.048247814178467,3.425246401424072,0.0,0.2610848546028137,-1.5896580854998987,-0.0,0.00419552531093359,0.7607157826423645,0.0,0.003570802044123411,0.8050913214683533,0.0,-0.026204369962215424
460.0,418.0,7.1468,0.1944,5.7673,-0.0357,0.0254,-0.1206,-1.4684181448868294,0.0,1.5928893089294434,-1.307325839996338,-0.0,2.0195770263671875,3.4252664285847167,0.0,0.25610101222991943,-1.5896261374102991,-0.0,-0.002274248981848359,0.7607121467590332,0.0,-0.015836741775274277,0.8050792813301086,0.0,0.011382153257727623
460.0,418.0,7.1468,0.1944,5.7673,-0.0357,0.0254,-0.1206,-1.4683662813952942,0.0,1.6024539470672607,-1.3073546886444092,-0.0,2.0610780715942383,3.4252301889606933,0.0,0.2578206956386566,-1.5896700064288538,-0.0,-0.00707751652225852,0.7606838345527649,0.0,0.002616746351122856,0.8050512075424194,0.0,-0.042064763605594635
460.0,418.0,7.1468,0.1944,5.7673,-0.0357,0.0254,-0.1206,-1.4684381571463128,0.0,1.6002997159957886,-1.3073583841323853,-0.0,2.0609235763549805,3.425246401424072,0.0,0.26161301136016846,-1.5896456877337855,-0.0,-0.006363007239997387,0.7607161998748779,0.0,-0.014636524021625519,0.8051033616065979,0.0,-0.035612378269433975
460.0,418.0,7.1468,0.1944,5.7673,-0.0357,0.0254,-0.1206,-1.4684700530818482,0.0,1.6534415483474731,-1.3073217868804932,-0.0,2.049461841583252,3.4252306657978515,0.0,0.2574406564235687,-1.5896456877337855,-0.0,-0.011736355721950531,0.760680079460144,0.0,-0.010202022269368172,0.8050993084907532,0.0,0.007840110920369625
460.0,418.0,7.1468,0.1944,5.7673,-0.0357,0.0254,-0.1206,-1.4684181448868294,0.0,1.650331735610962,-1.3073217868804932,-0.0,2.0402565002441406,3.4252702432819824,0.0,0.2472536563873291,-1.5896261374102991,-0.0,-0.017838899046182632,0.7606756091117859,0.0,0.011318131349980831,0.8050913214683533,0.0,-0.016704179346561432
460.0,418.0,7.1468,0.1944,5.7673,-0.0357,0.0254,-0.1206,-1.468430222277977,0.0,1.6118862628936768,-1.3073382377624512,-0.0,2.058694362640381,3.425234003657959,0.0,0.2513625919818878,-1.5896456877337855,-0.0,-0.007093943189829588,0.7607443928718567,0.0,-0.008996451273560524,0.8050511479377747,0.0,0.036293890327215195
460.0,418.0,7.1468,0.1944,5.7673,-0.0357,0.0254,-0.1206,-1.468390242462494,0.0,1.593597650527954,-1.307306170463562,-0.0,2.0030646324157715,3.425250216121338,0.0,0.26063528656959534,-1.5896580854998987,-0.0,-0.0015240514185279608,0.7607280015945435,0.0,-0.008722664788365364,0.8050832748413086,0.0,-0.008945483714342117
460.0,418.0,7.1468,0.1944,5.7673,-0.0357,0.0254,-0.1206,-1.4684500408223649,0.0,1.6298209428787231,-1.3073667287826538,-0.0,2.0438663959503174,3.4252378183552246,0.0,0.25647956132888794,-1.5896218458758753,-0.0,-0.008862124755978584,0.760703444480896,0.0,-0.004427510779350996,0.8050993084907532,0.0,-0.02118659019470215
460.0,418.0,7.1468,0.1944,5.7673,-0.0357,0.0254,-0.1206,-1.4684420985034485,0.0,1.6080334186553955,-1.307334065437317,-0.0,2.0553956031799316,3.4252182680317382,0.0,0.2603948712348938,-1.5896742979632776,-0.0,0.004141013137996197,0.7607038617134094,0.0,-0.004558604210615158,0.8050432205200195,0.0,0.021796129643917084
460.0,418.0,7.1468,0.1944,5.7673,-0.0357,0.0254,-0.1206,-1.4684062612107773,0.0,1.5428097248077393,-1.3073583841323853,-0.0,2.030700445175171,3.425250216121338,0.0,0.2541947662830353,-1.589670483266012,-0.0,0.001526126405224204,0.760671854019165,0.0,-0.005336761474609375,0.8051192760467529,0.0,0.0009540822356939316
460.0,418.0,7.1468,0.1944,5.7673,-0.0357,0.0254,-0.1206,-1.4683743727258225,0.0,1.585707664489746,-1.3073910474777222,-0.0,2.0882999897003174,3.425262137050293,0.0,0.25557586550712585,-1.5896261374102991,-0.0,0.0014548569452017546,0.7607001662254333,0.0,-0.005769881419837475,0.8051033616065979,0.0,-0.04501407593488693
453.0,8190.0,7.2425,0.1831,5.6201,-0.0354,0.0243,-0.1171,-1.4684302297285576,0.0,1.591139554977417,-1.307306170463562,-0.0,2.0388684272766113,3.4252382951923828,0.0,0.23965266346931458,-1.5896781126605433,-0.0,-0.00760158896446228,0.7606756091117859,0.0,-0.006709287408739328,0.805071234703064,0.0,-0.019771263003349304
453.0,8190.0,7.2425,0.1831,5.6201,-0.0354,0.0243,-0.1171,-1.4684381273439904,0.0,1.5815638303756714,-1.3073543310165405,-0.0,2.02435040473938,3.4252583223530273,0.0,0.26480454206466675,-1.589653793965475,-0.0,-0.008227463811635971,0.760719895362854,0.0,-0.003875428345054388,0.8050993084907532,0.0,0.025907423347234726
453.0,8190.0,7.2425,0.1831,5.6201,-0.0354,0.0243,-0.1171,-1.4684221309474488,0.0,1.5999854803085327,-1.3073300123214722,-0.0,2.070327043533325,3.425250692958496,0.0,0.2570652365684509,-1.5896175543414515,-0.0,-0.0015027155168354511,0.76069575548172,0.0,-0.018513228744268417,0.8050993084907532,0.0,0.015487531200051308
453.0,8190.0,7.2425,0.1831,5.6201,-0.0354,0.0243,-0.1171,-1.4684341710856934,0.0,1.589086651802063,-1.3073382377624512,-0.0,2.0670266151428223,3.4252659517475585,0.0,0.2592218220233917,-1.5896456877337855,-0.0,-0.012040904723107815,0.7607157826423645,0.0,0.0002262466587126255,0.8050993084907532,0.0,-0.001055244356393814
453.0,8190.0,7.2425,0.1831,5.6201,-0.0354,0.0243,-0.1171,-1.468426064854004,0.0,1.6188219785690308,-1.3073583841323853,-0.0,2.0142383575439453,3.425234003657959,0.0,0.250243604183197,-1.589653793965475,-0.0,0.006039191968739033,0.7606677412986755,0.0,-0.013172022998332977,0.8050832152366638,0.0,-0.02759699523448944
453.0,8190.0,7.2425,0.1831,5.6201,-0.0354,0.0243,-0.1171,-1.4683664378574868,0.0,1.5789942741394043,-1.3073298931121826,-0.0,2.0488333702087402,3.4253107744404296,0.0,0.256658136844635,-1.5896781126605433,-0.0,0.008151241578161716,0.7607080340385437,0.0,-0.00913908053189516,0.8050913214683533,0.0,-0.002713343594223261
453.0,8190.0,7.2425,0.1831,5.6201,-0.0354,0.0243,-0.1171,-1.468430058365204,0.0,1.5977840423583984,-1.3073298931121826,-0.0,2.059114694595337,3.4252826410480957,0.0,0.2524295449256897,-1.5896413961993616,-0.0,-0.012185384519398212,0.7607402801513672,0.0,-0.01962926797568798,0.8050832748413086,0.0,-0.01900552771985531
453.0,8190.0,7.2425,0.1831,5.6201,-0.0354,0.0243,-0.1171,-1.4684302297285576,0.0,1.604837417602539,-1.3073176145553589,-0.0,2.0406923294067383,3.425250216121338,0.0,0.24234336614608765,-1.5896218458758753,-0.0,-0.0022180420346558094,0.7606433033943176,0.0,-0.006920442450791597,0.8051272630691528,0.0,-0.007001620717346668
453.0,8190.0,7.2425,0.1831,5.6201,-0.0354,0.0243,-0.1171,-1.4684221309474488,0.0,1.6191691160202026,-1.3074147701263428,-0.0,2.036834239959717,3.4252301889606933,0.0,0.254936546087265,-1.5896623770343226,-0.0,-0.005391962360590696,0.7606112957000732,0.0,-0.01649203523993492,0.8051112294197083,0.0,0.06110890954732895
453.0,8190.0,7.2425,0.1831,5.6201,-0.0354,0.0243,-0.1171,-1.4684260574034234,0.0,1.6009387969970703,-1.307350516319275,-0.0,2.0529239177703857,3.4252702432819824,0.0,0.257535457611084,-1.5896261374102991,-0.0,-0.0010367075446993113,0.7606472969055176,0.0,0.0012104706838726997,0.8050752878189087,0.0,-0.02935774065554142
453.0,8190.0,7.2425,0.1831,5.6201,-0.0354,0.0243,-0.1171,-1.468454011981823,0.0,1.6088067293167114,-1.3073134422302246,-0.0,2.0725033283233643,3.4252382951923828,0.0,0.24954508244991302,-1.5896299521075647,-0.0,7.281545549631119e-05,0.7606916427612305,0.0,-0.02509397640824318,0.8051152229309082,0.0,-7.687881588935852e-05
431.0,421.0,7.1605,0.2088,5.7057,-0.0324,0.0229,-0.1145,-1.468430058365204,0.0,1.6445560455322266,-1.3073300123214722,-0.0,1.9971141815185547,3.425250216121338,0.0,0.25510838627815247,-1.5896175543414515,-0.0,-0.005433207843452692,0.7606553435325623,0.0,-0.010596933774650097,0.8050792813301086,0.0,-0.01183970645070076
431.0,421.0,7.1605,0.2088,5.7057,-0.0324,0.0229,-0.1145,-1.4683862936547776,0.0,1.6003692150115967,-1.3073703050613403,-0.0,1.994701862335205,3.425257845515869,0.0,0.2501055598258972,-1.589637581502096,-0.0,-0.006061638705432415,0.7606878280639648,0.0,-0.008739585056900978,0.8051031827926636,0.0,0.04602498188614845
431.0,421.0,7.1605,0.2088,5.7057,-0.0324,0.0229,-0.1145,-1.4684221309474488,0.0,1.591947078704834,-1.3073583841323853,-0.0,2.0143063068389893,3.4252382951923828,0.0,0.24830029904842377,-1.5896456877337855,-0.0,-0.013568194583058357,0.7606916427612305,0.0,0.004381315317004919,0.8050752282142639,0.0,-0.03671269863843918
431.0,421.0,7.1605,0.2088,5.7057,-0.0324,0.0229,-0.1145,-1.4684302371791382,0.0,1.6117002964019775,-1.3073060512542725,-0.0,2.0151047706604004,3.4252382951923828,0.0,0.24666744470596313,-1.5896781126605433,-0.0,-0.008374111726880074,0.7606674432754517,0.0,-0.004234922118484974,0.8051512241363525,0.0,0.0006347466260194778
431.0,421.0,7.1605,0.2088,5.7057,-0.0324,0.0229,-0.1145,-1.4684420761517067,0.0,1.5870144367218018,-1.3073217868804932,-0.0,2.0152125358581543,3.4252301889606933,0.0,0.25586509704589844,-1.5896175543414515,-0.0,-0.00952119566500187,0.760627269744873,0.0,-0.012730620801448822,0.8050632476806641,0.0,-0.011040777899324894
431.0,421.0,7.1605,0.2088,5.7057,-0.0324,0.0229,-0.1145,-1.468390242462494,0.0,1.6087257862091064,-1.3073501586914062,-0.0,2.0727462768554688,3.425262613887451,0.0,0.2578604817390442,-1.5896218458758753,-0.0,0.007738173473626375,0.760680079460144,0.0,-0.007707301061600447,0.8051113486289978,0.0,-0.05208718776702881
431.0,421.0,7.1605,0.2088,5.7057,-0.0324,0.0229,-0.1145,-1.4683823001435776,0.0,1.5672632455825806,-1.3073176145553589,-0.0,2.028977394104004,3.4252378183552246,0.0,0.2571337819099426,-1.5896299521075647,-0.0,-0.009328455664217472,0.7606956958770752,0.0,-0.02257758006453514,0.8051232099533081,0.0,-0.012096506543457508
431.0,421.0,7.1605,0.2088,5.7057,-0.0324,0.0229,-0.1145,-1.4684778910926362,0.0,1.5934284925460815,-1.3073501586914062,-0.0,2.059964418411255,3.425222082729004,0.0,0.2581227123737335,-1.5896623770343226,-0.0,-0.0017330879345536232,0.7606756091117859,0.0,-0.006462356075644493,0.8050993084907532,0.0,0.03118307888507843
431.0,421.0,7.1605,0.2088,5.7057,-0.0324,0.0229,-0.1145,-1.4684460249594231,0.0,1.5990067720413208,-1.307306170463562,-0.0,2.0010344982147217,3.425262137050293,0.0,0.250728040933609,-1.5896499792682093,-0.0,0.011304285377264023,0.7606797218322754,0.0,-0.014076567254960537,0.8050591349601746,0.0,-0.0033376519568264484
431.0,421.0,7.1605,0.2088,5.7057,-0.0324,0.0229,-0.1145,-1.468430058365204,0.0,1.585744023323059,-1.3072937726974487,-0.0,2.067685604095459,3.4252425867268066,0.0,0.2514684796333313,-1.5896742979632776,-0.0,0.0021522575989365578,0.7607080936431885,0.0,-0.02146793156862259,0.8050872683525085,0.0,-0.005092150531709194
431.0,421.0,7.1605,0.2088,5.7057,-0.0324,0.0229,-0.1145,-1.468398169880249,0.0,1.5952305793762207,-1.3073217868804932,-0.0,2.0562281608581543,3.425250216121338,0.0,0.2546066641807556,-1.589653793965475,-0.0,0.001605812693014741,0.7606916427612305,0.0,-0.008083467371761799,0.8050993084907532,0.0,0.02200508303940296
431.0,421.0,7.1605,0.2088,5.7057,-0.0324,0.0229,-0.1145,-1.468450018470623,0.0,1.6204545497894287,-1.3073021173477173,-0.0,1.9952392578125,3.425245924586914,0.0,0.24525567889213562,-1.5896623770343226,-0.0,-0.014124985784292221,0.7607157826423645,0.0,-0.020021207630634308,0.8050511479377747,0.0,-0.003045162186026573
415.0,448.0,7.1653,0.1759,5.7093,-0.0363,0.027,-0.1158,-1.4684381496957322,0.0,1.5740975141525269,-1.30736243724823,-0.0,2.0254688262939453,3.4252258974262695,0.0,0.2635379135608673,-1.5896499792682093,-0.0,-0.0066392021253705025,0.7606558799743652,0.0,-0.0038367698434740305,0.8050592541694641,0.0,0.009494991041719913
415.0,448.0,7.1653,0.1759,5.7093,-0.0363,0.027,-0.1158,-1.4684062835625191,0.0,1.5920504331588745,-1.3073744773864746,-0.0,2.0747852325439453,3.4252258974262695,0.0,0.2571532130241394,-1.5896499792682093,-0.0,-0.019473236054182053,0.7606756687164307,0.0,-0.0047431704588234425,0.8050512671470642,0.0,-0.0027282382361590862
415.0,448.0,7.1653,0.1759,5.7093,-0.0363,0.027,-0.1158,-1.4684260797551651,0.0,1.6130497455596924,-1.3072938919067383,-0.0,2.0545501708984375,3.4252182680317382,0.0,0.2592299282550812,-1.5896981398211878,-0.0,-0.0131845623254776,0.7606514096260071,0.0,-0.006504987832158804,0.8050872683525085,0.0,0.09242486953735352
415.0,448.0,7.1653,0.1759,5.7093,-0.0363,0.027,-0.1158,-1.4684341636351128,0.0,1.6107392311096191,-1.307334065437317,-0.0,2.0222208499908447,3.4252421098896484,0.0,0.24061855673789978,-1.5896623770343226,-0.0,0.0008124597370624542,0.7606514692306519,0.0,-0.009416986256837845,0.8050913214683533,0.0,0.0004766292404383421
415.0,448.0,7.1653,0.1759,5.7093,-0.0363,0.027,-0.1158,-1.4684141886285325,0.0,1.5720394849777222,-1.307325839996338,-0.0,2.0196430683135986,3.4252301889606933,0.0,0.25864702463150024,-1.5896499792682093,-0.0,0.006253822240978479,0.7606235146522522,0.0,-0.009082164615392685,0.8050832748413086,0.0,-0.05423799902200699
415.0,448.0,7.1653,0.1759,5.7093,-0.0363,0.027,-0.1158,-1.4684302148273964,0.0,1.5887755155563354,-1.3072855472564697,-0.0,2.0479726791381836,3.4252263742634277,0.0,0.24248576164245605,-1.5896299521075647,-0.0,0.002397415228188038,0.7606514096260071,0.0,-0.016805129125714302,0.8051072359085083,0.0,0.009366143494844437
415.0,448.0,7.1653,0.1759,5.7093,-0.0363,0.027,-0.1158,-1.4683862564018746,0.0,1.6411762237548828,-1.307342290878296,-0.0,1.9902466535568237,3.4252258974262695,0.0,0.25825977325439453,-1.5896137396441858,-0.0,-0.004756452050060034,0.7606797218322754,0.0,0.0023502057883888483,0.8050953149795532,0.0,0.024721631780266762
415.0,448.0,7.1653,0.1759,5.7093,-0.0363,0.027,-0.1158,-1.468394198720791,0.0,1.5934374332427979,-1.3073217868804932,-0.0,2.065199851989746,3.425246401424072,0.0,0.23906785249710083,-1.589653793965475,-0.0,0.0004964668769389391,0.7606837749481201,0.0,-0.006027274299412966,0.8051112294197083,0.0,-0.03347388654947281
415.0,448.0,7.1653,0.1759,5.7093,-0.0363,0.027,-0.1158,-1.4684260797551651,0.0,1.6315724849700928,-1.3073217868804932,-0.0,2.0868875980377197,3.425250216121338,0.0,0.258258581161499,-1.5896981398211878,-0.0,0.0005143703892827034,0.7606916427612305,0.0,-0.0031855860725045204,0.8051072359085083,0.0,0.005549075081944466
415.0,448.0,7.1653,0.1759,5.7093,-0.0363,0.027,-0.1158,-1.4684062984636803,0.0,1.6345252990722656,-1.3073501586914062,-0.0,2.0505270957946777,3.425262137050293,0.0,0.25956031680107117,-1.5896137396441858,-0.0,-0.00538339838385582,0.7606514692306519,0.0,-0.0020086094737052917,0.8050592541694641,0.0,0.004751022905111313
415.0,448.0,7.1653,0.1759,5.7093,-0.0363,0.027,-0.1158,-1.4684540343335648,0.0,1.6337649822235107,-1.3072855472564697,-0.0,2.02578067779541,3.425234003657959,0.0,0.25166070461273193,-1.5896413961993616,-0.0,-0.002899925224483013,0.760671854019165,0.0,-0.013820325024425983,0.8051232695579529,0.0,-0.04544176906347275
415.0,448.0,7.1653,0.1759,5.7093,-0.0363,0.027,-0.1158,-1.468390242462494,0.0,1.6035196781158447,-1.3073019981384277,-0.0,2.038418769836426,3.425250216121338,0.0,0.259522020816803,-1.5896742979632776,-0.0,-0.0051202671602368355,0.7606997489929199,0.0,-0.005675803869962692,0.8051471710205078,0.0,0.0005610627122223377
458.0,429.0,7.1408,0.1795,5.7996,-0.0341,0.025,-0.1174,-1.4684022826007386,0.0,1.6354115009307861,-1.3073019981384277,-0.0,2.020007371902466,3.4252421098896484,0.0,0.2604237198829651,-1.589653793965475,-0.0,-0.002328101545572281,0.7606956958770752,0.0,-0.01385007705539465,0.8050953149795532,0.0,0.04449792951345444
458.0,429.0,7.1408,0.1795,5.7996,-0.0341,0.025,-0.1174,-1.4683743727258225,0.0,1.6488889455795288,-1.3072855472564697,-0.0,2.008427619934082,3.425306482906006,0.0,0.2609977722167969,-1.5896499792682093,-0.0,0.0011894310591742396,0.7606636881828308,0.0,-0.010876039043068886,0.8050432205200195,0.0,0.006493768189102411
458.0,429.0,7.1408,0.1795,5.7996,-0.0341,0.025,-0.1174,-1.4684381571463128,0.0,1.5975515842437744,-1.3073583841323853,-0.0,2.1008880138397217,3.4252182680317382,0.0,0.2580026686191559,-1.5896261374102991,-0.0,-0.009000090882182121,0.7606993913650513,0.0,-0.008590815588831902,0.8050352931022644,0.0,-0.011274611577391624
458.0,429.0,7.1408,0.1795,5.7996,-0.0341,0.025,-0.1174,-1.4683862564018746,0.0,1.5903165340423584,-1.307306170463562,-0.0,2.0447962284088135,3.425245924586914,0.0,0.25303468108177185,-1.5896742979632776,-0.0,-0.007065147161483765,0.7606916427612305,0.0,-0.016191426664590836,0.8050792813301086,0.0,-0.04272208735346794
458.0,429.0,7.1408,0.1795,5.7996,-0.0341,0.025,-0.1174,-1.4684221383980294,0.0,1.6302518844604492,-1.3072854280471802,-0.0,2.0374131202697754,3.4252425867268066,0.0,0.25839120149612427,-1.589670483266012,-0.0,-0.011209161952137947,0.7606837749481201,0.0,-0.0035426574759185314,0.8050752878189087,0.0,0.007598348893225193
458.0,429.0,7.1408,0.1795,5.7996,-0.0341,0.025,-0.1174,-1.4684221309474488,0.0,1.5817861557006836,-1.307334065437317,-0.0,2.019733190536499,3.4251977640339355,0.0,0.26026251912117004,-1.5896299521075647,-0.0,-0.007258719764649868,0.7606956958770752,0.0,0.00014673196710646152,0.8050953149795532,0.0,0.025765903294086456
458.0,429.0,7.1408,0.1795,5.7996,-0.0341,0.025,-0.1174,-1.4684221309474488,0.0,1.592667579650879,-1.3073543310165405,-0.0,2.0418050289154053,3.4252826410480957,0.0,0.259360671043396,-1.5896700064288538,-0.0,-0.013910653069615364,0.7606997489929199,0.0,-0.0019459497416391969,0.8051152229309082,0.0,-0.060197435319423676
458.0,429.0,7.1408,0.1795,5.7996,-0.0341,0.025,-0.1174,-1.468410224919655,0.0,1.59371018409729,-1.307342290878296,-0.0,1.9941505193710327,3.4252378183552246,0.0,0.2615394592285156,-1.589653793965475,-0.0,-0.010440969839692116,0.7607604265213013,0.0,-0.010056354105472565,0.8050552606582642,0.0,0.004348358605057001
458.0,429.0,7.1408,0.1795,5.7996,-0.0341,0.025,-0.1174,-1.4684142258814354,0.0,1.5720481872558594,-1.307334065437317,-0.0,2.0339438915252686,3.4252545076557617,0.0,0.2621135711669922,-1.5896299521075647,-0.0,0.0017837223131209612,0.7607522010803223,0.0,-0.01028350368142128,0.8050232529640198,0.0,-0.029226699844002724
458.0,429.0,7.1408,0.1795,5.7996,-0.0341,0.025,-0.1174,-1.4684062761119385,0.0,1.6039751768112183,-1.3073062896728516,-0.0,2.0636627674102783,3.4252301889606933,0.0,0.25805893540382385,-1.5896499792682093,-0.0,-0.005099231842905283,0.7606399655342102,0.0,-0.0036024092696607113,0.8050873279571533,0.0,-0.051084864884614944
458.0,429.0,7.1408,0.1795,5.7996,-0.0341,0.025,-0.1174,-1.4684181448868294,0.0,1.6491451263427734,-1.3073869943618774,-0.0,2.0369482040405273,3.4252263742634277,0.0,0.24490606784820557,-1.5896056334124964,-0.0,-0.011473536491394043,0.7607038021087646,0.0,-0.004000340588390827,0.8051272630691528,0.0,0.01821160316467285
458.0,429.0,7.1408,0.1795,5.7996,-0.0341,0.025,-0.1174,-1.4684381645968934,0.0,1.6484898328781128,-1.3072980642318726,-0.0,2.085221290588379,3.42527882635083,0.0,0.2555246353149414,-1.5896738211261194,-0.0,-0.0012746520806103945,0.7606956958770752,0.0,0.0022217617370188236,0.8050953149795532,0.0,-0.03619050979614258
428.0,425.0,7.2048,0.1717,5.7057,-0.0417,0.0272,-0.1174,-1.468390279715397,0.0,1.6314876079559326,-1.307325839996338,-0.0,2.0364322662353516,3.4252425867268066,0.0,0.26381075382232666,-1.5896413961993616,-0.0,0.00095222401432693,0.760671854019165,0.0,-0.007055805996060371,0.8050592541694641,0.0,-0.02073478512465954
428.0,425.0,7.2048,0.1717,5.7057,-0.0417,0.0272,-0.1174,-1.4684460845640679,0.0,1.6065067052841187,-1.3073543310165405,-0.0,2.036665439605713,3.4252583223530273,0.0,0.24513250589370728,-1.5896456877337855,-0.0,0.004813716746866703,0.7606717944145203,0.0,-0.00862201675772667,0.8050953149795532,0.0,0.031740836799144745
428.0,425.0,7.2048,0.1717,5.7057,-0.0417,0.0272,-0.1174,-1.4683902871659775,0.0,1.6443681716918945,-1.3073382377624512,-0.0,2.047268867492676,3.42527882635083,0.0,0.2602333426475525,-1.5896261374102991,-0.0,0.0015443603042513132,0.7606837749481201,0.0,-0.007458713371306658,0.8051072359085083,0.0,-0.008550351485610008
428.0,425.0,7.2048,0.1717,5.7057,-0.0417,0.0272,-0.1174,-1.46845397472892,0.0,1.5844519138336182,-1.3073300123214722,-0.0,2.010737180709839,3.4252425867268066,0.0,0.25678321719169617,-1.5897024313556116,-0.0,-0.006465695798397064,0.7606474161148071,0.0,0.0012671116273850203,0.8050592541694641,0.0,-0.01432414073497057
428.0,425.0,7.2048,0.1717,5.7057,-0.0417,0.0272,-0.1174,-1.4684181448868294,0.0,1.60498046875,-1.3073424100875854,-0.0,2.053096055984497,3.4251982408710937,0.0,0.24932706356048584,-1.589653793965475,-0.0,0.005498820450156927,0.7606881856918335,0.0,-0.015840455889701843,0.8051152229309082,0.0,0.003667383221909404
428.0,425.0,7.2048,0.1717,5.7057,-0.0417,0.0272,-0.1174,-1.4684341710856934,0.0,1.643223524093628,-1.3073463439941406,-0.0,2.058896541595459,3.42519394933667,0.0,0.245200052857399,-1.589653793965475,-0.0,-0.00648721307516098,0.7606433629989624,0.0,-0.017764925956726074,0.805135190486908,0.0,-0.03582412004470825
428.0,425.0,7.2048,0.1717,5.7057,-0.0417,0.0272,-0.1174,-1.4684260797551651,0.0,1.5699889659881592,-1.3073662519454956,-0.0,2.069013833999634,3.4252301889606933,0.0,0.2530348300933838,-1.5896456877337855,-0.0,-0.018441934138536453,0.7606235146522522,0.0,-0.0015772203914821148,0.8050792813301086,0.0,0.044577211141586304
428.0,425.0,7.2048,0.1717,5.7057,-0.0417,0.0272,-0.1174,-1.4684181448868294,0.0,1.580500841140747,-1.3072937726974487,-0.0,2.007061243057251,3.4252869325825195,0.0,0.2564806342124939,-1.589653793965475,-0.0,-0.007777960039675236,0.7606916427612305,0.0,-0.01651320978999138,0.8050873279571533,0.0,-0.018313873559236526
428.0,425.0,7.2048,0.1717,5.7057,-0.0417,0.0272,-0.1174,-1.4684221309474488,0.0,1.594693660736084,-1.307325839996338,-0.0,2.023195505142212,3.425262137050293,0.0,0.2513299584388733,-1.589682404194967,-0.0,-0.009108531288802624,0.7607076168060303,0.0,-0.022574039176106453,0.805091381072998,0.0,-0.03830355405807495
428.0,425.0,7.2048,0.1717,5.7057,-0.0417,0.0272,-0.1174,-1.468382292692997,0.0,1.6049555540084839,-1.3073543310165405,-0.0,2.0474331378936768,3.4252826410480957,0.0,0.2540960907936096,-1.5896413961993616,-0.0,-0.006742396391928196,0.7606474161148071,0.0,-0.01103278249502182,0.805067241191864,0.0,-0.02050604298710823
428.0,425.0,7.2048,0.1717,5.7057,-0.0417,0.0272,-0.1174,-1.4684420985034485,0.0,1.5781629085540771,-1.307325839996338,-0.0,2.0113024711608887,3.4252382951923828,0.0,0.25561898946762085,-1.5896299521075647,-0.0,0.0015930042136460543,0.7606920003890991,0.0,-0.007068773731589317,0.8050872683525085,0.0,-0.022134723141789436
428.0,425.0,7.2048,0.1717,5.7057,-0.0417,0.0272,-0.1174,-1.4684181076339264,0.0,1.6210154294967651,-1.307325839996338,-0.0,2.0960500240325928,3.425245924586914,0.0,0.25863954424858093,-1.5896261374102991,-0.0,0.00993615947663784,0.7606678009033203,0.0,-0.0050110965967178345,0.8050792813301086,0.0,0.011062216944992542
457.0,421.0,7.0995,0.1723,5.7894,-0.0399,0.0264,-0.1196,-1.4684221309474488,0.0,1.6086702346801758,-1.3073176145553589,-0.0,2.053940773010254,3.4252258974262695,0.0,0.25999146699905396,-1.5896137396441858,-0.0,-0.020471733063459396,0.7606232166290283,0.0,0.0016228295862674713,0.8051393032073975,0.0,0.02263062447309494
457.0,421.0,7.0995,0.1723,5.7894,-0.0399,0.0264,-0.1196,-1.4684461292675515,0.0,1.6360214948654175,-1.3073620796203613,-0.0,2.037785053253174,3.4252258974262695,0.0,0.25727182626724243,-1.5896623770343226,-0.0,0.0018129710806533694,0.7606514692306519,0.0,-0.009333068504929543,0.8050152063369751,0.0,-0.015392867848277092
457.0,421.0,7.0995,0.1723,5.7894,-0.0399,0.0264,-0.1196,-1.4683982890895386,0.0,1.624314546585083,-1.3073583841323853,-0.0,2.007051467895508,3.4252583223530273,0.0,0.25209617614746094,-1.5896413961993616,-0.0,-0.008691377937793732,0.7606997489929199,0.0,-0.009258328005671501,0.8050953149795532,0.0,0.046484559774398804
457.0,421.0,7.0995,0.1723,5.7894,-0.0399,0.0264,-0.1196,-1.468481921856739,0.0,1.5723193883895874,-1.3073543310165405,-0.0,2.0384092330932617,3.4252382951923828,0.0,0.26491159200668335,-1.5896623770343226,-0.0,-0.01238187588751316,0.7606596350669861,0.0,-0.021530019119381905,0.805071234703064,0.0,0.05113133415579796
457.0,421.0,7.0995,0.1723,5.7894,-0.0399,0.0264,-0.1196,-1.468390242462494,0.0,1.5583796501159668,-1.3073103427886963,-0.0,2.031467914581299,3.4252144533344726,0.0,0.2434694468975067,-1.589670483266012,-0.0,0.0074828509241342545,0.7606756091117859,0.0,-0.01687583513557911,0.8051033020019531,0.0,-0.03869668394327164
457.0,421.0,7.0995,0.1723,5.7894,-0.0399,0.0264,-0.1196,-1.4684221309474488,0.0,1.6100049018859863,-1.3073583841323853,-0.0,2.067737102508545,3.4252664285847167,0.0,0.25348255038261414,-1.5896261374102991,-0.0,0.007701396476477385,0.7607600092887878,0.0,-0.007013475522398949,0.8050353527069092,0.0,0.029167279601097107
457.0,421.0,7.0995,0.1723,5.7894,-0.0399,0.0264,-0.1196,-1.468430222277977,0.0,1.5976742506027222,-1.307306170463562,-0.0,2.042830467224121,3.4252583223530273,0.0,0.2621142864227295,-1.5896781126605433,-0.0,0.0050793662667274475,0.7606916427612305,0.0,-0.010499585419893265,0.8050953149795532,0.0,0.006799374707043171
457.0,421.0,7.0995,0.1723,5.7894,-0.0399,0.0264,-0.1196,-1.4684540194324036,0.0,1.6082677841186523,-1.3073019981384277,-0.0,2.065502643585205,3.425210161800049,0.0,0.2590705156326294,-1.5896742979632776,-0.0,-0.00539915869012475,0.7606794238090515,0.0,-0.01049857772886753,0.8051392436027527,0.0,-0.008290437050163746
457.0,421.0,7.0995,0.1723,5.7894,-0.0399,0.0264,-0.1196,-1.4684660595706482,0.0,1.6073516607284546,-1.3073217868804932,-0.0,2.052443504333496,3.4253107744404296,0.0,0.250700980424881,-1.5896499792682093,-0.0,-0.011275049299001694,0.7607079148292542,0.0,-0.017479943111538887,0.8050472140312195,0.0,-0.01156064122915268
457.0,421.0,7.0995,0.1723,5.7894,-0.0399,0.0264,-0.1196,-1.4684221309474488,0.0,1.5985898971557617,-1.307334065437317,-0.0,2.03369140625,3.425262137050293,0.0,0.25727441906929016,-1.5896580854998987,-0.0,0.000867457827553153,0.7607038617134094,0.0,-0.012129721231758595,0.8050993084907532,0.0,-0.017438309267163277
457.0,421.0,7.0995,0.1723,5.7894,-0.0399,0.0264,-0.1196,-1.4684221309474488,0.0,1.6359344720840454,-1.3073019981384277,-0.0,2.0547125339508057,3.4252545076557617,0.0,0.2522599697113037,-1.5896981398211878,-0.0,0.004223588388413191,0.7606837749481201,0.0,-0.00905514881014824,0.8051233291625977,0.0,0.01716694049537182
436.0,402.0,7.1904,0.2309,5.7978,-0.0388,0.022,-0.1203,-1.4684221309474488,0.0,1.6099693775177002,-1.3073784112930298,-0.0,2.0654876232147217,3.425245924586914,0.0,0.2522743344306946,-1.5896781126605433,-0.0,-0.00857251975685358,0.760780394077301,0.0,0.0005977824330329895,0.8050872683525085,0.0,0.019160421565175056
436.0,402.0,7.1904,0.2309,5.7978,-0.0388,0.022,-0.1203,-1.4684102100184937,0.0,1.6066384315490723,-1.3073461055755615,-0.0,2.076892375946045,3.4252421098896484,0.0,0.2597387433052063,-1.589609448109762,-0.0,-0.0073661841452121735,0.7607161402702332,0.0,0.0014165346510708332,0.8050873875617981,0.0,0.05513712018728256
436.0,402.0,7.1904,0.2309,5.7978,-0.0388,0.022,-0.1203,-1.4684181448868294,0.0,1.5736430883407593,-1.3073135614395142,-0.0,2.0621633529663086,3.425246401424072,0.0,0.2503703534603119,-1.589653793965475,-0.0,-0.00927814468741417,0.7606555223464966,0.0,-0.004678129684180021,0.8050832748413086,0.0,0.040654879063367844
436.0,402.0,7.1904,0.2309,5.7978,-0.0388,0.022,-0.1203,-1.468422071342804,0.0,1.5975168943405151,-1.3073543310165405,-0.0,2.015355110168457,3.4252258974262695,0.0,0.24193692207336426,-1.589642349873678,-0.0,-0.007223252207040787,0.7606878876686096,0.0,-0.004501990973949432,0.8050993084907532,0.0,-0.04176958650350571
436.0,402.0,7.1904,0.2309,5.7978,-0.0388,0.022,-0.1203,-1.4684102100184937,0.0,1.6323964595794678,-1.307342290878296,-0.0,2.072082996368408,3.4251982408710937,0.0,0.254838228225708,-1.5896742979632776,-0.0,-0.013459339737892151,0.7607239484786987,0.0,-0.007808688096702099,0.805099368095398,0.0,0.00027464609593153
436.0,402.0,7.1904,0.2309,5.7978,-0.0388,0.022,-0.1203,-1.4684420985034485,0.0,1.5822343826293945,-1.3073217868804932,-0.0,2.021120548248291,3.4252139764973144,0.0,0.25489872694015503,-1.5896781126605433,-0.0,-0.00883240345865488,0.7606637477874756,0.0,-0.010153522714972496,0.8050753474235535,0.0,0.009302204474806786
436.0,402.0,7.1904,0.2309,5.7978,-0.0388,0.022,-0.1203,-1.4684540194324036,0.0,1.584549903869629,-1.3073543310165405,-0.0,1.9817662239074707,3.4252139764973144,0.0,0.2544287145137787,-1.589653793965475,-0.0,-0.014569565653800964,0.7606796622276306,0.0,-0.006263496354222298,0.8050592541694641,0.0,-0.011248798109591007
436.0,402.0,7.1904,0.2309,5.7978,-0.0388,0.022,-0.1203,-1.4684221309474488,0.0,1.6048297882080078,-1.3073703050613403,-0.0,2.0511209964752197,3.4252545076557617,0.0,0.26352739334106445,-1.5896413961993616,-0.0,-0.00403959397226572,0.7606595158576965,0.0,-0.004110096022486687,0.805091381072998,0.0,0.0035827569663524628
436.0,402.0,7.1904,0.2309,5.7978,-0.0388,0.022,-0.1203,-1.4684022826007386,0.0,1.6054530143737793,-1.3073666095733643,-0.0,2.050727367401123,3.4253107744404296,0.0,0.2491004467010498,-1.5896299521075647,-0.0,-0.007006983272731304,0.7607201933860779,0.0,-0.009066218510270119,0.8050953149795532,0.0,-0.006318187341094017
436.0,402.0,7.1904,0.2309,5.7978,-0.0388,0.022,-0.1203,-1.4684500408223649,0.0,1.6143083572387695,-1.307350516319275,-0.0,1.9906907081604004,3.425262137050293,0.0,0.24581265449523926,-1.5896661917315882,-0.0,-0.012676779180765152,0.7606637477874756,0.0,-0.010768215171992779,0.8051033616065979,0.0,0.01222989521920681
436.0,402.0,7.1904,0.2309,5.7978,-0.0388,0.022,-0.1203,-1.468481921856739,0.0,1.5500462055206299,-1.307334065437317,-0.0,2.0262417793273926,3.4252664285847167,0.0,0.26236140727996826,-1.5896299521075647,-0.0,-0.007365476340055466,0.7607198357582092,0.0,-0.016498422250151634,0.8050832748413086,0.0,0.0019314284436404705
436.0,402.0,7.1904,0.2309,5.7978,-0.0388,0.022,-0.1203,-1.468438298707344,0.0,1.5702488422393799,-1.3073827028274536,-0.0,2.0614535808563232,3.425262137050293,0.0,0.24761009216308594,-1.5896456877337855,-0.0,-0.003764714114367962,0.7606997489929199,0.0,0.002367667853832245,0.8051271438598633,0.0,-0.06534174829721451
448.0,437.0,7.3843,0.5001,5.6076,-0.0078,-0.0098,-0.139,-1.4684221309474488,0.0,1.6296708583831787,-1.307342290878296,-0.0,2.0464420318603516,3.4252421098896484,0.0,0.2614702582359314,-1.5896456877337855,-0.0,-0.0026513971388339996,0.7606916427612305,0.0,-0.00018411106429994106,0.8050953149795532,0.0,0.002506666351109743
448.0,437.0,7.3843,0.5001,5.6076,-0.0078,-0.0098,-0.139,-1.4684381571463128,0.0,1.635895013809204,-1.3073176145553589,1.55265349188749e-11,1.998122215270996,3.42527882635083,0.0,0.25286293029785156,-1.589597527180807,-0.0,-0.01449543982744217,0.760711669921875,0.0,-0.011105630546808243,0.8050752282142639,0.0,-0.03312791883945465
448.0,437.0,7.3843,0.5001,5.6076,-0.0078,-0.0098,-0.139,-1.4684340071729203,0.0,1.6201353073120117,-1.3073062896728516,5.030399633567731e-19,2.093844413757324,3.4252258974262695,0.0,0.2524474561214447,-1.5896580854998987,-0.0,-0.008847343735396862,0.760703444480896,0.0,-0.006573236547410488,0.8051151633262634,0.0,0.0026050987653434277
448.0,437.0,7.3843,0.5001,5.6076,-0.0078,-0.0098,-0.139,-1.4684062612107773,0.0,1.6171314716339111,-1.3073583841323853,1.629785397591446e-26,2.058422565460205,3.42530266820874,0.0,0.24576230347156525,-1.589609448109762,-0.0,0.007443655282258987,0.7606596350669861,0.0,-0.012173362076282501,0.805067241191864,0.0,-0.0021206168457865715
448.0,437.0,7.3843,0.5001,5.6076,-0.0078,-0.0098,-0.139,-1.4684341859868546,0.0,1.615860104560852,-1.307342290878296,5.280297205842195e-34,2.0546388626098633,3.4252826410480957,0.0,0.25513020157814026,-1.5896137396441858,-0.0,-0.004043107852339745,0.7606473565101624,0.0,-0.009065160527825356,0.8050632476806641,0.0,0.016482101753354073
448.0,437.0,7.3843,0.5001,5.6076,-0.0078,-0.0098,-0.139,-1.4684062612107773,0.0,1.6112582683563232,-1.307350516319275,1.7107051652477367e-41,2.0060908794403076,3.4252545076557617,0.0,0.24865305423736572,-1.5896332899676722,-0.0,0.007775075733661652,0.7606756091117859,0.0,-0.009878773242235184,0.8050712943077087,0.0,0.016390347853302956
448.0,437.0,7.3843,0.5001,5.6076,-0.0078,-0.0098,-0.139,-1.4684062537601967,0.0,1.6337907314300537,-1.3072896003723145,-0.0,2.0956315994262695,3.4252382951923828,0.0,0.2551997900009155,-1.5896742979632776,-0.0,-0.008054040372371674,0.7606477737426758,0.0,-0.005028693936765194,0.8050993084907532,0.0,-0.029345743358135223
448.0,437.0,7.3843,0.5001,5.6076,-0.0078,-0.0098,-0.139,-1.4684420985034485,0.0,1.585092306137085,-1.307306170463562,-0.0,2.0259833335876465,3.4252421098896484,0.0,0.25721418857574463,-1.5896261374102991,-0.0,0.012024953961372375,0.7606518268585205,0.0,0.001413492951542139,0.8050912618637085,0.0,0.017832860350608826
448.0,437.0,7.3843,0.5001,5.6076,-0.0078,-0.0098,-0.139,-1.468430058365204,0.0,1.6025638580322266,-1.3072937726974487,-0.0,2.0093250274658203,3.4252301889606933,0.0,0.25672391057014465,-1.5896580854998987,-0.0,-0.014260482974350452,0.7606637477874756,0.0,0.003226596163585782,0.8050872683525085,0.0,-0.010433501563966274
448.0,437.0,7.3843,0.5001,5.6076,-0.0078,-0.0098,-0.139,-1.4684060972980042,0.0,1.6051931381225586,-1.3073667287826538,-0.0,2.0209686756134033,3.4252869325825195,0.0,0.2512485086917877,-1.589682404194967,-0.0,-0.010846218094229698,0.7606555223464966,0.0,-0.020275019109249115,0.8050873875617981,0.0,-0.054150521755218506
448.0,437.0,7.3843,0.5001,5.6076,-0.0078,-0.0098,-0.139,-1.468390242462494,0.0,1.6236064434051514,-1.3073062896728516,-0.0,2.0279440879821777,3.4252664285847167,0.0,0.24496875703334808,-1.5896781126605433,-0.0,-0.015202146954834461,0.7607280611991882,0.0,-0.003853435628116131,0.805067241191864,0.0,-0.0024681598879396915
448.0,437.0,7.3843,0.5001,5.6076,-0.0078,-0.0098,-0.139,-1.4684181448868294,0.0,1.5958082675933838,-1.3073135614395142,-0.0,2.0465853214263916,3.4252983766743164,0.0,0.2551555037498474,-1.5896700064288538,-0.0,-0.01238875649869442,0.7606678009033203,0.0,-0.0026687942445278168,0.8050833940505981,0.0,-0.0339239239692688
464.0,450.0,7.4596,0.216,5.2768,-0.0383,0.033,-0.1301,-1.4684460845640679,0.0,1.591827154159546,-1.3072937726974487,-0.0,2.0625133514404297,3.4252096849628906,0.0,0.25110486149787903,-1.5896499792682093,-0.0,0.0004982961108908057,0.7606636881828308,0.0,0.004424018785357475,0.805091381072998,0.0,0.028422001749277115
464.0,450.0,7.4596,0.216,5.2768,-0.0383,0.033,-0.1301,-1.46845796824012,0.0,1.5838840007781982,-1.307334065437317,-0.0,2.0811750888824463,3.425245924586914,0.0,0.26801803708076477,-1.5896413961993616,-0.0,-0.005600850097835064,0.7607198357582092,0.0,-0.01663551852107048,0.8050753474235535,0.0,0.029767923057079315
464.0,450.0,7.4596,0.216,5.2768,-0.0383,0.033,-0.1301,-1.4683901754072686,0.0,1.6150062084197998,-1.3073103427886963,-0.0,2.052424430847168,3.4252258974262695,0.0,0.26187559962272644,-1.589670483266012,-0.0,-0.01770966127514839,0.7606878280639648,0.0,-0.011776949279010296,0.805067241191864,0.0,0.011180059984326363
464.0,450.0,7.4596,0.216,5.2768,-0.0383,0.033,-0.1301,-1.4684062612107773,0.0,1.593071460723877,-1.3073461055755615,-0.0,2.018155574798584,3.4252869325825195,0.0,0.25160056352615356,-1.5896137396441858,-0.0,-0.0057742721401154995,0.7607080340385437,0.0,0.0006072792457416654,0.8051033616065979,0.0,0.042105697095394135
464.0,450.0,7.4596,0.216,5.2768,-0.0383,0.033,-0.1301,-1.4684342008880158,0.0,1.586862325668335,-1.3073667287826538,-0.0,2.047900915145874,3.425234003657959,0.0,0.2594026029109955,-1.589670483266012,-0.0,-0.007452609483152628,0.7606554627418518,0.0,-0.003276495262980461,0.8050752282142639,0.0,0.039119455963373184
464.0,450.0,7.4596,0.216,5.2768,-0.0383,0.033,-0.1301,-1.4683743950775643,1.4355944699673273e-07,1.6453264951705933,-1.307334065437317,-0.0,2.053119421005249,3.425222082729004,0.0,0.2481827735900879,-1.589609448109762,-0.0,-0.008508363738656044,0.7606678009033203,0.0,-0.012115788646042347,0.8050393462181091,0.0,-0.04318061098456383
464.0,450.0,7.4596,0.216,5.2768,-0.0383,0.033,-0.1301,-1.4683705133250733,0.0013608403969556093,1.624274492263794,-1.3073546886444092,6.53832612442784e-05,2.0059850215911865,3.425229712123535,4.5054826536272685e-10,0.24440589547157288,-1.589682404194967,-0.0,0.008232849650084972,0.7606878280639648,0.0,-0.013351286761462688,0.8050832748413086,0.0,0.014130854047834873
464.0,450.0,7.4596,0.216,5.2768,-0.0383,0.033,-0.1301,-1.4683904212764283,0.001298733870498836,1.5642282962799072,-1.3073103427886963,6.182284414535388e-05,2.042679786682129,3.425274534816406,8.188491964838344e-15,0.26878297328948975,-1.5896661917315882,-0.0,0.004788167774677277,0.7606797218322754,0.0,-0.011203862726688385,0.8051072955131531,0.0,-0.006172576919198036
464.0,450.0,7.4596,0.216,5.2768,-0.0383,0.033,-0.1301,-1.4683061477592965,0.0007934457971714437,1.5925865173339844,-1.3073060512542725,5.860247620148584e-05,2.0234880447387695,3.4252540308186035,1.4882179924186877e-19,0.25854015350341797,-1.5896413961993616,-0.0,0.008950489573180676,0.7607080340385437,0.0,-0.00515354098752141,0.8050512671470642,0.0,0.019677141681313515
464.0,450.0,7.4596,0.216,5.2768,-0.0383,0.033,-0.1301,-1.46832628667865,0.0004995983908884227,1.6752861738204956,-1.3073545694351196,5.570099165197462e-05,2.06313419342041,3.425257845515869,2.704762849781078e-24,0.2522047758102417,-1.5896499792682093,-0.0,-0.012793311849236488,0.760711669921875,0.0,-0.0002014363999478519,0.8051191568374634,0.0,-0.008443952538073063
464.0,450.0,7.4596,0.216,5.2768,-0.0383,0.033,-0.1301,-1.468378299181797,0.0003910300729330629,1.6238620281219482,-1.307358741760254,5.370670260163024e-05,2.019084930419922,3.4252664285847167,7.5288058570347225e-28,0.2593969404697418,-1.5896857420550745,-0.0,0.004721430595964193,0.7607080340385437,0.0,-0.01671506091952324,0.8051351308822632,0.0,0.012644301168620586
464.0,450.0,7.4596,0.216,5.2768,-0.0383,0.033,-0.1301,-1.468326063161232,0.00030319479992613196,1.6093717813491821,-1.3073185682296753,4.100798469153233e-05,2.072031259536743,3.4252664285847167,1.3683233257519387e-32,0.2663285434246063,-1.5896781126605433,-0.0,-0.0005650019738823175,0.7606920003890991,0.0,-0.01131732389330864,0.8050753474235535,0.0,0.004870314616709948
429.0,416.0,6.4026,-0.1089,6.3135,-0.0602,0.056,-0.1338,-1.4683420297554513,0.0002475832588970661,1.5646682977676392,-1.3072739839553833,1.8154921122004453e-07,2.0242538452148438,3.42530266820874,2.4868597217842807e-37,0.2528066635131836,-1.5896623770343226,-0.0,0.008726193569600582,0.7606916427612305,0.0,-0.007925702258944511,0.8050833940505981,0.0,-0.0015223906375467777
429.0,416.0,6.4026,-0.1089,6.3135,-0.0602,0.056,-0.1338,-1.468366415505745,0.00020921252144034952,1.5951368808746338,-1.3073185682296753,5.881963227707997e-15,2.0338006019592285,3.4252869325825195,4.519187547447535e-42,0.26477953791618347,-1.5896738211261194,-0.0,-0.0018005967140197754,0.7606313824653625,0.0,-0.008672276511788368,0.8051192164421082,0.0,0.005056183785200119
429.0,416.0,6.4026,-0.1089,6.3135,-0.0602,0.056,-0.1338,-1.4683499795249482,0.00015095557319000363,1.5963635444641113,-1.3072937726974487,1.9056809499124345e-22,2.043973684310913,3.4252301889606933,0.0,0.2533383071422577,-1.589653793965475,-0.0,0.0031544857192784548,0.7606514692306519,0.0,-0.004371264483779669,0.8050952553749084,0.0,-0.009571876376867294
429.0,416.0,6.4026,-0.1089,6.3135,-0.0602,0.056,-0.1338,-1.4684225034764786,-1.1197139428986702e-05,1.5637578964233398,-1.3073543310165405,-7.339511648751795e-05,2.028367042541504,3.42519394933667,0.0,0.26195672154426575,-1.589637581502096,-0.0,0.010881120339035988,0.7606878280639648,0.0,-0.010587512515485287,0.8051111698150635,0.0,0.0378623902797699
429.0,416.0,6.4026,-0.1089,6.3135,-0.0602,0.056,-0.1338,-1.4684022602489968,-0.0010795897105708718,1.618886113166809,-1.3073666095733643,-8.862785762175918e-05,2.027350902557373,3.4252144533344726,-4.286359762772918e-05,0.2491302341222763,-1.5896413961993616,-0.0,0.010671857744455338,0.760635495185852,0.0,-0.007164550945162773,0.8050872683525085,0.0,-0.016658581793308258
429.0,416.0,6.4026,-0.1089,6.3135,-0.0602,0.056,-0.1338,-1.4684303638390084,-0.001239004428498447,1.6024730205535889,-1.3073176145553589,-0.00034064208739437163,2.058339834213257,3.425189657802246,-6.000220309942961e-05,0.26246190071105957,-1.5896499792682093,-0.0,-0.010929474607110023,0.7607361674308777,0.0,-0.009760718792676926,0.8050872683525085,0.0,0.010765912011265755
429.0,416.0,6.4026,-0.1089,6.3135,-0.0602,0.056,-0.1338,-1.4684943792274971,-0.0009341127588413656,1.6273953914642334,-1.307357907295227,-0.0004607019363902509,2.019153594970703,3.425177736873291,-7.341604941757396e-05,0.24908140301704407,-1.5896218458758753,-0.0,-0.0103323208168149,0.760639488697052,0.0,-0.005287046544253826,0.8051033020019531,0.0,0.009411194361746311
429.0,416.0,6.4026,-0.1089,6.3135,-0.0602,0.056,-0.1338,-1.468482108121254,-0.0008176366100087762,1.5979002714157104,-1.307337760925293,-0.00035807586391456425,2.028583526611328,3.425266905421875,-6.794853834435344e-05,0.259898841381073,-1.5896456877337855,-0.0,0.000144182238727808,0.7606874704360962,0.0,-0.007666881661862135,0.8050352931022644,0.0,0.06073922663927078
429.0,416.0,6.4026,-0.1089,6.3135,-0.0602,0.056,-0.1338,-1.4684779730490227,-0.0022226995788514614,1.6419987678527832,-1.3074190616607666,-0.0003334187204018235,2.0545356273651123,3.4251977640339355,-6.317861698335037e-05,0.2537688612937927,-1.5896661917315882,-0.0,-0.017293140292167664,0.7607038617134094,0.0,-0.0055173602886497974,0.805067241191864,0.0,-0.012987320311367512
429.0,416.0,6.4026,-0.1089,6.3135,-0.0602,0.056,-0.1338,-1.4685101446560402,-0.003346369368955493,1.5669186115264893,-1.307402491569519,-0.00027715362375602126,2.0465595722198486,3.4252263742634277,-5.903445344301872e-05,0.25530847907066345,-1.5896413961993616,-0.0,-0.004334921017289162,0.7607117295265198,0.0,-0.0038600130937993526,0.8050912618637085,0.0,-0.02669435553252697
429.0,416.0,6.4026,-0.1089,6.3135,-0.0602,0.056,-0.1338,-1.4685943734696885,-0.004226087126880884,1.5696344375610352,-1.307357907295227,-0.0002223712217528373,2.038311004638672,3.4251977640339355,-5.5400516430381685e-05,0.23622584342956543,-1.5896623770343226,-0.0,0.002088086912408471,0.7606391310691833,0.0,-0.006158523261547089,0.8050753474235535,0.0,0.004998696036636829
462.0,8190.0,6.9182,0.1059,5.9713,0.0034,0.1054,-0.1654,-1.4685983595303078,-0.004986846819519997,1.6172112226486206,-1.3073744773864746,-0.00022280165285337716,2.0220022201538086,3.4252587991901855,-5.218803562456742e-05,0.26783210039138794,-1.5896580854998987,-0.0,0.00628134747967124,0.7606797218322754,0.0,-0.010320881381630898,0.8051072955131531,0.0,-0.02258889377117157
462.0,8190.0,6.9182,0.1059,5.9713,0.0034,0.1054,-0.1654,-1.468654030268528,-0.004911310505121946,1.5751399993896484,-1.3073817491531372,-0.00019826107018161565,2.0606472492218018,3.4252020555683593,-5.001296449336223e-05,0.2464762032032013,-1.5895894209491175,-0.0,-0.020261215046048164,0.7607076168060303,0.0,-0.007550038862973452,0.8051072955131531,0.0,-0.005441567860543728
462.0,8190.0,6.9182,0.1059,5.9713,0.0034,0.1054,-0.1654,-1.468681813483574,-0.004942957311868668,1.64717698097229,-1.3073983192443848,-0.00020166803733445704,2.0778403282165527,3.4251977640339355,-4.7380090109072626e-05,0.24248626828193665,-1.5896661917315882,-0.0,-0.0024228855036199093,0.7607080340385437,0.0,-0.017439719289541245,0.8051111698150635,0.0,-0.007782527711242437
462.0,8190.0,6.9182,0.1059,5.9713,0.0034,0.1054,-0.1654,-1.468721942310669,-0.005255178548395634,1.5719761848449707,-1.3073581457138062,-0.00020330170809756964,2.083763599395752,3.4252263742634277,-4.50105253548827e-05,0.2566084861755371,-1.5896385351764124,-0.0,-0.004973231349140406,0.7606112957000732,0.0,-0.00705279316753149,0.8051312565803528,0.0,0.021437745541334152
462.0,8190.0,6.9182,0.1059,5.9713,0.0034,0.1054,-0.1654,-1.468793773358204,-0.004653473850339651,1.6529138088226318,-1.3074102401733398,-0.0001843354111770168,2.0362894535064697,3.425210161800049,-4.286672265152447e-05,0.24679245054721832,-1.5896499792682093,-0.0,0.019310718402266502,0.760740339756012,0.0,-0.004144299775362015,0.8050832748413086,0.0,0.06754905730485916
462.0,8190.0,6.9182,0.1059,5.9713,0.0034,0.1054,-0.1654,-1.4688821297935029,-0.0033648291137069464,1.6142646074295044,-1.3073415756225586,-0.00015839721891097724,1.9598069190979004,3.425246401424072,-4.091783193871379e-05,0.2531312108039856,-1.5896385351764124,-0.0,-0.0007966536795720458,0.760703444480896,0.0,-0.010732234455645084,0.8050833940505981,0.0,-0.02046298421919346
462.0,8190.0,6.9182,0.1059,5.9713,0.0034,0.1054,-0.1654,-1.4688136887601395,-0.0020481233950704336,1.6236263513565063,-1.307341456413269,-0.00013884737563785166,2.031775712966919,3.4252258974262695,-6.638083505094983e-07,0.25037434697151184,-1.589609448109762,-0.0,-0.019367631524801254,0.7606633305549622,0.0,-0.006714444607496262,0.805135190486908,0.0,-0.04986369609832764
462.0,8190.0,6.9182,0.1059,5.9713,0.0034,0.1054,-0.1654,-1.4688458454659958,-0.0012753979535773396,1.6259387731552124,-1.3073217868804932,-0.00012359335960354656,2.0476810932159424,3.4251982408710937,-1.2064387683308198e-11,0.2524295151233673,-1.589597527180807,-0.0,-0.008402946405112743,0.7606956958770752,0.0,-0.006142290309071541,0.8051033020019531,0.0,-0.001863031298853457
462.0,8190.0,6.9182,0.1059,5.9713,0.0034,0.1054,-0.1654,-1.468781517153122,-0.0009754580678418279,1.5608634948730469,-1.3074427843093872,-0.00011418481153668836,2.069255828857422,3.4252306657978515,-3.3581665162004228e-15,0.24770691990852356,-1.5896385351764124,-0.0,-0.0007442557252943516,0.7606956958770752,0.0,-0.01538989320397377,0.8050753474235535,0.0,0.04130645841360092
462.0,8190.0,6.9182,0.1059,5.9713,0.0034,0.1054,-0.1654,-1.4688698437860985,-0.0007528194109909236,1.601393699645996,-1.3073817491531372,-0.0001036633038893342,2.0324513912200928,3.4252020555683593,-6.103301097169084e-20,0.2547396123409271,-1.5896056334124964,-0.0,-0.010835973545908928,0.7607280015945435,0.0,-0.01568768173456192,0.8050753474235535,0.0,-0.0015423456206917763
462.0,8190.0,6.9182,0.1059,5.9713,0.0034,0.1054,-0.1654,-1.4688860115459939,-0.001158191473223269,1.5707337856292725,-1.3073296546936035,-0.00011314040602883324,2.0206634998321533,3.4251977640339355,-1.109244633140108e-24,0.2645514905452728,-1.5896261374102991,-0.0,-0.020787838846445084,0.7607197761535645,0.0,-0.0018486774060875177,0.805091381072998,0.0,0.014568512327969074
462.0,8190.0,6.9182,0.1059,5.9713,0.0034,0.1054,-0.1654,-1.4688977536610146,-0.0036588229704648256,1.571878433227539,-1.3073694705963135,-0.00013800249143969268,2.022101640701294,3.4252263742634277,-2.0159969610161664e-29,0.2627618908882141,-1.5895898977862757,-0.0,-0.006921016611158848,0.7606710195541382,0.0,0.0006491598905995488,0.8050912618637085,0.0,0.015879325568675995
432.0,431.0,6.7513,0.3494,6.0239,-0.0298,-0.0166,-0.1321,-1.4690424513867875,-0.007614164147526026,1.5816677808761597,-1.3074545860290527,-0.0001919092464959249,2.0484306812286377,3.42519394933667,-3.6639747951285395e-34,0.26579463481903076,-1.5896299521075647,-0.0,-0.013485478237271309,0.7607716917991638,-3.7457259516315844e-10,0.012534422799944878,0.8050993084907532,0.0,0.021125197410583496
432.0,431.0,6.7513,0.3494,6.0239,-0.0298,-0.0166,-0.1321,-1.4690093261054535,-0.01055852510035038,1.5341706275939941,-1.307442307472229,-0.0009270188165828586,2.0157434940338135,3.4252263742634277,-6.659093616736391e-39,0.2683767080307007,-1.5896099249469202,-0.0,-0.010425616055727005,0.760715663433075,-6.807671983235066e-15,-0.004751842003315687,0.8050953149795532,0.0,0.005477648228406906
432.0,431.0,6.7513,0.3494,6.0239,-0.0298,-0.0166,-0.1321,-1.469145530169346,-0.012569275684654713,1.4933570623397827,-1.3074501752853394,-0.0009685851982794702,2.0162832736968994,3.4252306657978515,-1.2051166793193427e-43,0.2631562054157257,-1.5896385351764124,-0.0,-0.012662939727306366,0.7607599496841431,-1.237260829598961e-19,-0.004578777588903904,0.8050993084907532,0.0,0.02722059190273285
432.0,431.0,6.7513,0.3494,6.0239,-0.0298,-0.0166,-0.1321,-1.469245621269085,-0.01391665544360876,1.5469024181365967,-1.3074501752853394,-0.0012329618912190199,1.9844951629638672,3.4251901346394042,-0.0,0.2508794069290161,-1.5896299521075647,-0.0,0.0009617059258744121,0.76072758436203,-3.443960977270856e-23,0.0059029399417340755,0.805071234703064,0.0,0.034010034054517746
432.0,431.0,6.7513,0.3494,6.0239,-0.0298,-0.0166,-0.1321,-1.4694014278105278,-0.015503584407269955,1.4974887371063232,-1.3074703216552734,-0.003963010851293802,2.0169479846954346,3.425189657802246,-0.0,0.24823257327079773,-1.5895732084857386,-0.0,-0.005600247066468,0.7607841491699219,-6.259228504352282e-28,0.010032342746853828,0.8050472140312195,0.0,-0.044002383947372437
432.0,431.0,6.7513,0.3494,6.0239,-0.0298,-0.0166,-0.1321,-1.4695012134364625,-0.01709563098847866,1.5207421779632568,-1.307570219039917,-0.011697093956172466,1.955938696861267,3.425210161800049,-0.0,0.26383453607559204,-1.5895493666278284,-0.0,0.013129277154803276,0.7606871128082275,-1.1375839967926964e-32,0.021183470264077187,0.8051270842552185,0.0,-0.010992220602929592
432.0,431.0,6.7513,0.3494,6.0239,-0.0298,-0.0166,-0.1321,-1.4696649697474022,-0.019729219377040863,1.4744560718536377,-1.3076426982879639,-0.011680370196700096,2.0032167434692383,3.4252545076557617,-0.0,0.2509388327598572,-1.5895980040179651,1.2647285984712653e-05,-0.007199566811323166,0.7607074975967407,-2.06750265919535e-37,0.023929085582494736,0.8050552606582642,0.0,-0.0905168354511261
432.0,431.0,6.7513,0.3494,6.0239,-0.0298,-0.0166,-0.1321,-1.4698690858534356,-0.022936150431632996,1.5188148021697998,-1.3077422380447388,-0.012175872921943665,1.909435510635376,3.42519394933667,-1.3362810591388552e-07,0.24778535962104797,-1.5896061102496546,2.2985814640552604e-10,-0.0016536072362214327,0.7607517242431641,-3.7582824813191594e-42,0.03139115869998932,0.8050512671470642,-0.0002073513314826414,-0.02999342978000641
432.0,431.0,6.7513,0.3494,6.0239,-0.0298,-0.0166,-0.1321,-1.470061057513096,-0.02636817656457424,1.4994845390319824,-1.3078629970550537,-0.012610690668225288,1.9145877361297607,3.425165815944336,-2.4286245757509928e-12,0.23615050315856934,-1.5895698706256312,4.17755844904521e-15,0.014435093849897385,0.7607640624046326,-0.0,0.01675933599472046,0.8050591945648193,-0.00021093719988130033,-0.0208237674087286
432.0,431.0,6.7513,0.3494,6.0239,-0.0298,-0.0166,-0.1321,-1.4703284215978165,-0.03485998883843422,1.4863951206207275,-1.3079835176467896,-0.012667907401919365,1.9473662376403809,3.4252144533344726,-4.413905562626655e-17,0.2564297616481781,-1.5895617643939417,7.592506019456124e-20,-0.00372946634888649,0.7607516646385193,-0.0,0.038715992122888565,0.8050273060798645,-0.00021247229597065598,-0.03181309252977371
432.0,431.0,6.7513,0.3494,6.0239,-0.0298,-0.0166,-0.1321,-1.4705925223282357,-0.04326577112078667,1.4538401365280151,-1.3081402778625488,-0.013762126676738262,1.9563968181610107,3.425210161800049,-1.2286267926821407e-20,0.24441121518611908,-1.5895732084857386,2.11340206798124e-23,0.004454984795302153,0.7607636451721191,-0.0,0.03817107155919075,0.8050832152366638,-0.0003199493221472949,-0.08648833632469177
432.0,431.0,6.7513,0.3494,6.0239,-0.0298,-0.0166,-0.1321,-1.4709762346795578,-0.055245909839868546,1.419245958328247,-1.3081316947937012,-0.014464123174548149,1.8926503658294678,3.4251977640339355,-2.232968660284128e-25,0.237355574965477,-1.5895689169513147,3.841003662419204e-28,0.0072934250347316265,0.7607276439666748,0.00028472463600337505,0.03859398514032364,0.8050312399864197,-0.000298379804007709,-0.07843700796365738
458.0,444.0,6.7759,0.3703,5.7081,-0.0212,-0.1112,-0.1203,-1.4714317184737702,-0.0668477937579155,1.363696813583374,-1.308255910873413,-0.013472591526806355,1.9010381698608398,3.4252869325825195,-4.058310551016169e-30,0.2328760325908661,-1.5895898977862757,6.980834832831392e-33,0.008594955317676067,0.7606910467147827,0.00028446101350709796,0.05135595053434372,0.8050392270088196,-0.0002855770580936223,-0.014821848832070827
458.0,444.0,6.7759,0.3703,5.7081,-0.0212,-0.1112,-0.1203,-1.47197129697118,-0.0765959843993187,1.454267978668213,-1.3083999156951904,-0.010828495025634766,1.9980487823486328,3.4252545076557617,-7.375778205422382e-35,0.2505512237548828,-1.5895937124835413,1.2687323785872521e-37,0.008216527290642262,0.760819673538208,0.0003119412867818028,0.04448796063661575,0.8050433397293091,-0.00024179098545573652,-0.012990142218768597
458.0,444.0,6.7759,0.3703,5.7081,-0.0212,-0.1112,-0.1203,-1.4726586949876328,-0.08477036654949188,1.4998905658721924,-1.308464765548706,-0.008632047101855278,1.9978480339050293,3.425250216121338,-1.3405115382408708e-39,0.2546918988227844,-1.5895536581622522,2.306537272278649e-42,0.0012184518855065107,0.7608238458633423,0.0003519670572131872,0.048081882297992706,0.805087149143219,-0.0002096109528793022,-0.021406792104244232
458.0,444.0,6.7759,0.3703,5.7081,-0.0212,-0.1112,-0.1203,-1.4733986941030999,-0.09421923011541367,1.4481637477874756,-1.3085366487503052,-0.007375804707407951,2.0046956539154053,3.4252912241169433,-2.382207389352189e-44,0.24362586438655853,-1.5896223227130335,0.0,-0.0036733478773385286,0.7608320713043213,0.0003734754864126444,0.04964587092399597,0.8050832152366638,-0.00018499069847166538,0.02131817862391472
458.0,444.0,6.7759,0.3703,5.7081,-0.0212,-0.1112,-0.1203,-1.4742263120463868,-0.10075986385345459,1.4860243797302246,-1.3086050748825073,-0.006286291405558586,2.0239291191101074,3.42527882635083,-0.0,0.2579055428504944,-1.5895898977862757,0.0,-0.0107111856341362,0.7607832551002502,0.00041158258682116866,0.049185022711753845,0.8050192594528198,-0.0001655462256167084,0.03180957958102226
458.0,444.0,6.7759,0.3703,5.7081,-0.0212,-0.1112,-0.1203,-1.474841558640339,-0.10255368053913116,1.4905405044555664,-1.308620572090149,-0.007066213991492987,2.0366268157958984,3.4252020555683593,-0.0,0.25813883543014526,-1.5895775000201624,0.0,0.0030497859697788954,0.7608879208564758,0.00040596709004603326,0.05593496933579445,0.8050791621208191,-0.00015344952407758683,-0.004920050036162138
458.0,444.0,6.7759,0.3703,5.7081,-0.0212,-0.1112,-0.1203,-1.4756807920387764,-0.10318583995103836,1.5022516250610352,-1.3086884021759033,-0.008872093632817268,1.9943206310272217,3.425250692958496,-0.0,0.2554645836353302,-1.5895775000201624,0.0,-0.0004350966773927212,0.7607914209365845,0.00041660392889752984,0.06130215525627136,0.8050991892814636,-0.00013982651580590755,-0.01810101605951786
458.0,444.0,6.7759,0.3703,5.7081,-0.0212,-0.1112,-0.1203,-1.4765197572163125,-0.10950928926467896,1.5865442752838135,-1.3087646961212158,-0.01180171873420477,2.0041191577911377,3.425189657802246,-0.0,0.2687860131263733,-1.5895536581622522,0.0,0.004754052963107824,0.7608036994934082,0.000517803942784667,0.06340331584215164,0.8050273656845093,-0.00012842522119171917,0.014019710943102837
458.0,444.0,6.7759,0.3703,5.7081,-0.0212,-0.1112,-0.1203,-1.4774349641850968,-0.12434183061122894,1.527343511581421,-1.308852195739746,-0.014766047708690166,1.9936702251434326,3.4252020555683593,-0.0,0.2595054507255554,-1.589602295552389,0.0,0.0025589873548597097,0.7608073949813843,0.0006708554574288428,0.06608173996210098,0.8050433397293091,-0.0001187430098070763,-0.014437234960496426
458.0,444.0,6.7759,0.3703,5.7081,-0.0212,-0.1112,-0.1203,-1.4784703639200707,-0.13961197435855865,1.502234697341919,-1.3089609146118164,-0.015132538042962551,1.9871697425842285,3.425182028407715,-0.0,0.24435147643089294,-1.5896223227130335,0.0,0.0020463019609451294,0.7608156204223633,0.0007974227191880345,0.06553837656974792,0.8050832152366638,-0.0001104183029383421,0.009981432929635048
458.0,444.0,6.7759,0.3703,5.7081,-0.0212,-0.1112,-0.1203,-1.4796097067049523,-0.14430993795394897,1.4871768951416016,-1.3090893030166626,-0.010149841196835041,1.9644169807434082,3.4252702432819824,-0.0,0.25530892610549927,-1.589581314717428,0.0,-0.0044426992535591125,0.7608394622802734,0.0015709113795310259,0.060502201318740845,0.8050512671470642,-0.0001031845313264057,0.03864326700568199
458.0,444.0,6.7759,0.3703,5.7081,-0.0212,-0.1112,-0.1203,-1.4807405409267922,-0.13945162296295166,1.5164109468460083,-1.3091493844985962,-0.004772554617375135,2.0145175457000732,3.4251982408710937,-0.0,0.23578223586082458,-1.5895980040179651,0.0,-0.0037986845709383488,0.7608275413513184,0.00597241660580039,0.07415351271629333,0.8050433397293091,-3.421827204874717e-05,0.05937333032488823
467.0,8190.0,5.208,0.3805,6.4594,-0.0564,-0.088,-0.1323,-1.4816033032587548,-0.1419365406036377,1.550473928451538,-1.3091245889663696,-0.002315191552042961,2.0070269107818604,3.4251982408710937,-0.0,0.2479107677936554,-1.5896299521075647,0.0,-0.0031341544818133116,0.7609034776687622,0.012577401474118233,0.06953860819339752,0.8050792813301086,-2.212532024259417e-07,0.010109934955835342
467.0,8190.0,5.208,0.3805,6.4594,-0.0564,-0.088,-0.1323,-1.4828343775919457,-0.15788982808589935,1.5053983926773071,-1.3092094659805298,-0.0029185281600803137,2.01084566116333,3.4252301889606933,-0.0,0.24596619606018066,-1.5895980040179651,0.0,-0.004789886064827442,0.7609992623329163,0.007929417304694653,0.06620188802480698,0.8050792813301086,-7.168321248000528e-15,0.028801534324884415
467.0,8190.0,5.208,0.3805,6.4594,-0.0564,-0.088,-0.1323,-1.4841499489596863,-0.17725034058094025,1.4368407726287842,-1.3092337846755981,-0.005063081160187721,1.981921911239624,3.425246401424072,-0.0,0.24229970574378967,-1.5896061102496546,0.0,-0.007810083217918873,0.7609391212463379,0.00022442967747338116,0.07585672289133072,0.8051431775093079,-2.3224451276005784e-22,0.020138081163167953
467.0,8190.0,5.208,0.3805,6.4594,-0.0564,-0.088,-0.1323,-1.4855000910213967,-0.18074555695056915,1.5412746667861938,-1.3092856407165527,-0.0032926867716014385,2.0063767433166504,3.4251620012470703,-0.0,0.2491655796766281,-1.5895980040179651,0.0,0.00383648369461298,0.7609348893165588,4.078898552251076e-09,0.06340982019901276,0.8050872683525085,0.00018312953761778772,0.10085932910442352
467.0,8190.0,5.208,0.3805,6.4594,-0.0564,-0.088,-0.1323,-1.4869755667499085,-0.18181777000427246,1.5579650402069092,-1.3092695474624634,-0.0009013295057229698,2.005810260772705,3.4252583223530273,-0.0,0.24198931455612183,-1.5895980040179651,0.0,-0.017332278192043304,0.7610272169113159,7.413196440172673e-14,0.06847541779279709,0.8050192594528198,6.508672959171236e-05,0.003947624005377293
467.0,8190.0,5.208,0.3805,6.4594,-0.0564,-0.088,-0.1323,-1.4884018090418358,-0.18415890634059906,1.5077095031738281,-1.3092732429504395,-0.0004975795745849609,2.0390994548797607,3.4252664285847167,-0.0,0.2388700246810913,-1.589614216481344,0.0,-0.006622436456382275,0.7609509229660034,1.347311885123948e-18,0.057302266359329224,0.8051033020019531,5.0472954171709716e-05,-0.03497673198580742
467.0,8190.0,5.208,0.3805,6.4594,-0.0564,-0.088,-0.1323,-1.4899526995471497,-0.19256985187530518,1.561408519744873,-1.3093103170394897,-0.0004139310331083834,2.039384126663208,3.4252306657978515,-0.0,0.24394729733467102,-1.5895617643939417,0.0,-0.015524962916970253,0.7610071301460266,2.4486728436377823e-23,0.049483105540275574,0.805067241191864,8.244870696216822e-05,0.02689574845135212
467.0,8190.0,5.208,0.3805,6.4594,-0.0564,-0.088,-0.1323,-1.4911234763315697,-0.1990966945886612,1.566267967224121,-1.30927312374115,-0.0003591015993151814,2.0763983726501465,3.42527882635083,-0.0,0.2542327046394348,-1.5895689169513147,0.0,0.006944234017282724,0.7609710097312927,6.81597161414738e-27,0.0659072995185852,0.805071234703064,7.24872516002506e-05,0.05313074588775635
467.0,8190.0,5.208,0.3805,6.4594,-0.0564,-0.088,-0.1323,-1.492814154630043,-0.21758776903152466,1.5341873168945312,-1.309298038482666,-0.0012431030627340078,2.0137712955474854,3.425222082729004,-0.0,0.23658359050750732,-1.5896342436419886,0.0,-0.006559600122272968,0.7609550952911377,1.2387690958372198e-31,0.063288614153862,0.8050832748413086,3.164905137964524e-05,0.030883997678756714
467.0,8190.0,5.208,0.3805,6.4594,-0.0564,-0.088,-0.1323,-1.494601161485054,-0.2228783667087555,1.5220849514007568,-1.3092938661575317,-0.0003334505017846823,2.0525121688842773,3.4252258974262695,-0.0,0.2495460957288742,-1.5896061102496546,0.0,-0.004010550677776337,0.7609348893165588,2.251401536272795e-36,0.05551934242248535,0.8050394058227539,3.793218468217674e-07,0.03242414817214012
467.0,8190.0,5.208,0.3805,6.4594,-0.0564,-0.088,-0.1323,-1.4963226553848763,-0.2134614735841751,1.5521374940872192,-1.309253454208374,-5.018148385715904e-07,2.0690603256225586,3.4252664285847167,-2.7765079124719705e-08,0.24509486556053162,-1.5896299521075647,0.0,-0.004929680842906237,0.7609546780586243,4.091791515828466e-41,0.054146938025951385,0.8050591945648193,1.2289547668636967e-14,0.015598628669977188
443.0,424.0,7.593,-0.0102,4.7569,-0.0279,-0.2353,-0.1248,-1.4981813219240685,-0.2230328470468521,1.5497523546218872,-1.309281587600708,-1.625816384190175e-14,2.0782015323638916,3.4253107744404296,-5.046165850626505e-13,0.2438412308692932,-1.589602295552389,0.0,-0.0021855507511645555,0.7609348893165588,1.401298464324817e-45,0.03213866055011749,0.8050273656845093,3.9816563957696773e-22,0.02295241504907608
443.0,424.0,7.593,-0.0102,4.7569,-0.0279,-0.2353,-0.1248,-1.5000953462770958,-0.24062618613243103,1.557984471321106,-1.3092575073242188,-5.267439086762406e-22,2.052778720855713,3.425262137050293,-9.171155764986718e-18,0.24083936214447021,-1.5896056334124964,0.0,-0.001209581852890551,0.7610033750534058,0.0,0.05156368762254715,0.8050512075424194,1.290006082807076e-29,0.014079692773520947
443.0,424.0,7.593,-0.0102,4.7569,-0.0279,-0.2353,-0.1248,-1.5020780649832268,-0.23698098957538605,1.606064796447754,-1.3092091083526611,-1.7065829242187124e-29,2.0678110122680664,3.4252702432819824,0.00030487318872474134,0.2539815604686737,-1.589581314717428,0.0,-0.007731941528618336,0.760942816734314,0.0,0.036038219928741455,0.8050472736358643,4.179456299341118e-37,0.038975149393081665
443.0,424.0,7.593,-0.0102,4.7569,-0.0279,-0.2353,-0.1248,-1.503480964606144,-0.23951928317546844,1.5717670917510986,-1.3092329502105713,-4.1211973851912174e-35,2.0938868522644043,3.425330324763916,0.0003749384777620435,0.2481245994567871,-1.5895703474627894,0.0,-0.010535499081015587,0.7609668970108032,0.0,0.03374379873275757,0.8050547242164612,0.0001843334612203762,0.009651532396674156
443.0,424.0,7.593,-0.0102,4.7569,-0.0279,-0.2353,-0.1248,-1.5054712456515809,-0.25032296776771545,1.622690200805664,-1.3092132806777954,-1.3354374365015507e-42,2.0632991790771484,3.4253427225300292,0.00034647382562980056,0.2535664439201355,-1.5896261374102991,0.0,0.0005826209671795368,0.7610152959823608,0.0,0.05951793119311333,0.8050832748413086,0.00022364917094819248,0.045246243476867676
443.0,424.0,7.593,-0.0102,4.7569,-0.0279,-0.2353,-0.1248,-1.5074372378042717,-0.24827180802822113,1.5747979879379272,-1.3092777729034424,-0.0,2.1050965785980225,3.425318403834961,0.00038092731847427785,0.2571514844894409,-1.5895898977862757,0.0,-0.01699848473072052,0.7610033750534058,0.0,0.043126754462718964,0.8051151633262634,0.00016819349548313767,-0.002363197971135378
443.0,424.0,7.593,-0.0102,4.7569,-0.0279,-0.2353,-0.1248,-1.5094156612506886,-0.2534957826137543,1.6458157300949097,-1.3092131614685059,-0.0,2.0459392070770264,3.4252983766743164,0.0003828377230092883,0.25013819336891174,-1.5895817915545862,0.0,-0.017022572457790375,0.7610476016998291,0.0,0.06150016933679581,0.8050750494003296,0.00018031343643087894,0.033738210797309875
443.0,424.0,7.593,-0.0102,4.7569,-0.0279,-0.2353,-0.1248,-1.5114377711764355,-0.2584546208381653,1.6001644134521484,-1.3092049360275269,-0.0,2.0729687213897705,3.425318880672119,0.000419871648773551,0.24222497642040253,-1.5895898977862757,0.0,-0.005899778101593256,0.7610074877738953,0.0,0.06105681508779526,0.805087149143219,0.0003801270795520395,0.03754644840955734
443.0,424.0,7.593,-0.0102,4.7569,-0.0279,-0.2353,-0.1248,-1.513435923760273,-0.2537388503551483,1.6085820198059082,-1.309261679649353,-0.0,2.107966184616089,3.425362749690674,0.0007182690314948559,0.23270317912101746,-1.5896299521075647,0.0,-0.013828244060277939,0.7609750032424927,0.0,0.05689054727554321,0.8051353096961975,0.0005615459522232413,-0.0030831582844257355
443.0,424.0,7.593,-0.0102,4.7569,-0.0279,-0.2353,-0.1248,-1.5154258546284218,-0.2578658163547516,1.6649255752563477,-1.3092255592346191,4.934356184094213e-05,2.0769572257995605,3.4253904062458496,0.0014122353168204427,0.246791273355484,-1.5896590391742151,0.0,-0.010113125666975975,0.7609992623329163,0.0,0.06897429376840591,0.8051756024360657,0.0006056600832380354,0.08213198930025101
443.0,424.0,7.593,-0.0102,4.7569,-0.0279,-0.2353,-0.1248,-1.5169887517443676,-0.2601783573627472,1.617494821548462,-1.309289813041687,4.5593878894578665e-05,2.047142267227173,3.425402804011963,0.0011301565682515502,0.24837711453437805,-1.5896342436419886,0.0,0.0009887083433568478,0.7610594630241394,0.0,0.0733225867152214,0.8051233887672424,0.0012080525048077106,0.06936321407556534
443.0,424.0,7.593,-0.0102,4.7569,-0.0279,-0.2353,-0.1248,-1.5190306541374703,-0.2665703296661377,1.6084026098251343,-1.3092246055603027,2.079696969303768e-05,2.046332836151123,3.425402804011963,0.0009791653137654066,0.25126588344573975,-1.5896261374102991,0.0,-0.003186254994943738,0.7610554099082947,0.0,0.06312433630228043,0.8051229119300842,0.00105012278072536,0.028611507266759872
403.0,432.0,7.2544,0.2369,5.0919,-0.0276,-0.2836,-0.108,-1.521160652195551,-0.27122917771339417,1.613173007965088,-1.3092255592346191,6.149962428025901e-05,2.061511993408203,3.425426645869873,0.0007411160622723401,0.24032112956047058,-1.5896175543414515,0.0,-0.0029024865943938494,0.7609668374061584,4.36882401118055e-05,0.061546165496110916,0.8051553964614868,0.0008676102152094245,0.01313990168273449
403.0,432.0,7.2544,0.2369,5.0919,-0.0276,-0.2836,-0.108,-1.5233190034380932,-0.2716037929058075,1.6500372886657715,-1.3091967105865479,0.00014809457934461534,2.027271270751953,3.4254023271748046,0.0014621211448684335,0.25756481289863586,-1.5896018187152308,0.0,0.003993730526417494,0.7609710097312927,5.972703002044e-05,0.06258292496204376,0.8051995635032654,0.000562239671126008,0.02307383343577385
403.0,432.0,7.2544,0.2369,5.0919,-0.0276,-0.2836,-0.108,-1.5255449649742623,-0.2769365906715393,1.6366075277328491,-1.309140682220459,0.0007066529942676425,2.086087226867676,3.4254624086567382,0.003835589624941349,0.2522275447845459,-1.5896456877337855,0.0,-0.017466584220528603,0.7610231041908264,6.388081965269521e-05,0.06200074404478073,0.8051793575286865,0.00041392704588361084,-0.005288589745759964
403.0,432.0,7.2544,0.2369,5.0919,-0.0276,-0.2836,-0.108,-1.527839371269085,-0.2672274112701416,1.6779948472976685,-1.3092297315597534,0.0010495897149667144,2.089688777923584,3.4254824358173828,0.011223074980080128,0.2609739601612091,-1.5895898977862757,0.0,0.007733646314591169,0.7610071301460266,8.430035086348653e-05,0.07403087615966797,0.8051392436027527,0.00031677825609222054,0.05268115550279617
403.0,432.0,7.2544,0.2369,5.0919,-0.0276,-0.2836,-0.108,-1.5300933805159112,-0.2796659767627716,1.653594970703125,-1.309148907661438,0.000601459585595876,2.088423728942871,3.425603075618408,0.013478540815412998,0.2590724229812622,-1.5896099249469202,0.0,-0.005623955745249987,0.7610311508178711,0.00022979789355304092,0.07665936648845673,0.8051958084106445,0.0002565677568782121,0.05693603307008743
403.0,432.0,7.2544,0.2369,5.0919,-0.0276,-0.2836,-0.108,-1.5318719011596222,-0.28499168157577515,1.6994025707244873,-1.3091975450515747,0.00015530847304034978,2.108476161956787,3.425646944636963,0.008961937390267849,0.2642441391944885,-1.589653793965475,0.0,0.00673810625448823,0.7610631585121155,0.00027656054589897394,0.06295202672481537,0.8051636815071106,0.0002245571813546121,0.0588965006172657
403.0,432.0,7.2544,0.2369,5.0919,-0.0276,-0.2836,-0.108,-1.534121510838606,-0.2822941839694977,1.7118021249771118,-1.309120535850525,8.837236964609474e-05,2.095571517944336,3.4257265764423828,0.002585182199254632,0.24753622710704803,-1.5896742979632776,0.0,0.0063610682263970375,0.7610307931900024,0.0006319264066405594,0.09279851615428925,0.8051835298538208,0.0001925305405166,0.07024913281202316
403.0,432.0,7.2544,0.2369,5.0919,-0.0276,-0.2836,-0.108,-1.5364519406906147,-0.2913205921649933,1.6949560642242432,-1.3092135190963745,6.344499706756324e-05,2.0727500915527344,3.4257356363483886,0.00017466650751885027,0.25614574551582336,-1.5896342436419886,0.0,0.010060581378638744,0.7610549926757812,0.0009149119141511619,0.08692707121372223,0.805183470249176,0.00016849923122208565,0.022525880485773087
403.0,432.0,7.2544,0.2369,5.0919,-0.0276,-0.2836,-0.108,-1.538745367234089,-0.28746724128723145,1.6940627098083496,-1.3091645240783691,4.1362827052360274e-10,2.1044864654541016,3.425731344813965,0.00019578455248847604,0.2560254633426666,-1.5896385351764124,0.0,0.001537197851575911,0.7610710263252258,0.0008985121385194361,0.09595489501953125,0.8051512837409973,0.00017476847278885543,0.008045193739235401
403.0,432.0,7.2544,0.2369,5.0919,-0.0276,-0.2836,-0.108,-1.541083726366498,-0.29258349537849426,1.68471097946167,-1.3092255592346191,1.3401029026879718e-17,2.0752696990966797,3.425614519710205,6.824622687418014e-05,0.25245243310928345,-1.5896466414081019,0.0,0.0023900538217276335,0.7610907554626465,0.0007790763047523797,0.10157673805952072,0.8051512837409973,0.00017888256115838885,0.02866712585091591
403.0,432.0,7.2544,0.2369,5.0919,-0.0276,-0.2836,-0.108,-1.5434262112579127,-0.2953743040561676,1.6970252990722656,-1.3091851472854614,4.341762725477416e-25,2.1117022037506104,3.425698919887207,5.2328276069602e-05,0.2526576519012451,-1.589653793965475,0.0,0.002699511358514428,0.761086642742157,0.0006196367321535945,0.09288470447063446,0.8051632046699524,0.00012068908108631149,0.039455216377973557
403.0,432.0,7.2544,0.2369,5.0919,-0.0276,-0.2836,-0.108,-1.5456993219307442,-0.29181569814682007,1.7215700149536133,-1.3091769218444824,1.4066761799362174e-32,2.1096630096435547,3.4256903368183593,8.490149775752798e-05,0.2500346899032593,-1.589597527180807,0.0,0.01399946864694357,0.7610870003700256,0.0005363121745176613,0.09334101527929306,0.8051714301109314,0.00010752824891824275,0.04944507032632828
404.0,448.0,7.0361,0.1998,4.9155,-0.0177,-0.2512,-0.1219,-1.5474506982466956,-0.2942027151584625,1.7790017127990723,-1.3092213869094849,3.3969568315139267e-38,2.07442045211792,3.425750895137451,0.00011139166599605232,0.26404955983161926,-1.5896742979632776,0.0,0.007908356375992298,0.7611108422279358,0.00047159334644675255,0.09262469410896301,0.805183470249176,0.00011959809489781037,0.03636109083890915
404.0,448.0,7.0361,0.1998,4.9155,-0.0177,-0.2512,-0.1219,-1.5497598343393584,-0.2945736050605774,1.7341349124908447,-1.3092052936553955,1.401298464324817e-45,2.096569538116455,3.4257752138325195,0.00011846073903143406,0.25574809312820435,-1.5896385351764124,0.0,-0.004995126277208328,0.761086642742157,0.000414678652305156,0.0970952957868576,0.8051673173904419,0.0001410881377523765,0.017065230756998062
404.0,448.0,7.0361,0.1998,4.9155,-0.0177,-0.2512,-0.1219,-1.5521221228739996,-0.2965368628501892,1.761894702911377,-1.3091893196105957,-0.0,2.0804359912872314,3.425750895137451,0.001709538046270609,0.25576841831207275,-1.5896261374102991,0.0,-0.007538774982094765,0.7611349821090698,0.0004352084652055055,0.11895290017127991,0.805183470249176,0.0001362360781058669,0.04870340973138809
404.0,448.0,7.0361,0.1998,4.9155,-0.0177,-0.2512,-0.1219,-1.5544796802899619,-0.29820170998573303,1.7245104312896729,-1.3091893196105957,-0.0,2.1392576694488525,3.4258109766193847,0.0026316926814615726,0.26847943663597107,-1.5896299521075647,0.0,-0.006231558043509722,0.7611349821090698,0.0004089825670234859,0.11557171493768692,0.8051673173904419,0.0002719485783018172,0.006398141849786043
404.0,448.0,7.0361,0.1998,4.9155,-0.0177,-0.2512,-0.1219,-1.5569337702221056,-0.30479133129119873,1.773252248764038,-1.3091448545455933,-0.0,2.092313289642334,3.425795240993164,0.003263925900682807,0.2642192244529724,-1.5896499792682093,0.0,0.0012656457256525755,0.7611104249954224,0.00043891140376217663,0.10388197004795074,0.805191695690155,0.0002641344617586583,0.05318751931190491
404.0,448.0,7.0361,0.1998,4.9155,-0.0177,-0.2512,-0.1219,-1.5593675219318648,-0.2964481711387634,1.7943334579467773,-1.3091169595718384,0.002123387763276696,2.1303749084472656,3.4258553224750976,0.0047345333732664585,0.2695663273334503,-1.5896456877337855,0.0,-0.0007378268637694418,0.7611468434333801,0.0005118692060932517,0.1010238453745842,0.805167019367218,0.00024741358356550336,0.08520999550819397
404.0,448.0,7.0361,0.1998,4.9155,-0.0177,-0.2512,-0.1219,-1.5618339379182835,-0.3078330159187317,1.8070244789123535,-1.3090929985046387,0.0018616728484630585,2.101030111312866,3.425919218654297,0.007436076179146767,0.28484129905700684,-1.5896299521075647,0.0,0.007651561871170998,0.7611711621284485,0.0007472457364201546,0.10668650269508362,0.8051871061325073,0.0002895348006859422,0.08646585792303085
404.0,448.0,7.0361,0.1998,4.9155,-0.0177,-0.2512,-0.1219,-1.5636957807331164,-0.3040185272693634,1.7907993793487549,-1.3091374635696411,0.0010198351228609681,2.085886001586914,3.425975485438965,0.007326194085180759,0.28728464245796204,-1.5896981398211878,0.0,0.002941715531051159,0.7611063718795776,0.000737485010176897,0.10454277694225311,0.8051995038986206,0.0002913294010795653,0.05861875042319298
404.0,448.0,7.0361,0.1998,4.9155,-0.0177,-0.2512,-0.1219,-1.5661936786821862,-0.3065023124217987,1.757145881652832,-1.3091050386428833,0.0005807949928566813,2.189809799194336,3.426015539760254,0.007083695847541094,0.28255507349967957,-1.5896413961993616,0.0,0.009672744199633598,0.7611185908317566,0.0007303914171643555,0.11284981667995453,0.805183470249176,0.0002396160562057048,0.07491140067577362
404.0,448.0,7.0361,0.1998,4.9155,-0.0177,-0.2512,-0.1219,-1.568643247741722,-0.3106582462787628,1.7957321405410767,-1.3091411590576172,0.0003383664879947901,2.1549129486083984,3.4260193544575195,0.003419921500608325,0.28889989852905273,-1.5896623770343226,0.0,0.00517659168690443,0.7611263394355774,0.0007473644218407571,0.10125963389873505,0.8051793575286865,0.0002374103496549651,0.06984993815422058
404.0,448.0,7.0361,0.1998,4.9155,-0.0177,-0.2512,-0.1219,-1.5711256466307582,-0.31171995401382446,1.8219149112701416,-1.3091371059417725,0.0002601145824883133,2.1225624084472656,3.4260269838520507,0.0014120378764346242,0.2745543420314789,-1.5896456877337855,0.0,0.01000768132507801,0.761166512966156,0.0006892946548759937,0.10124532133340836,0.8052397966384888,0.00023578343098051846,0.04233467951416969
404.0,448.0,7.0361,0.1998,4.9155,-0.0177,-0.2512,-0.1219,-1.5735675297179164,-0.31588855385780334,1.8556686639785767,-1.3091214895248413,0.00021126322099007666,2.115306854248047,3.426023169154785,0.0007904317462816834,0.2768486440181732,-1.589609448109762,0.0,0.0004592395853251219,0.7611627578735352,0.0006163525395095348,0.10756471008062363,0.8051793575286865,0.00020847473933827132,0.07180113345384598
394.0,429.0,8.4174,0.2327,4.3077,-0.0504,-0.2636,-0.1184,-1.5760051212706507,-0.30864378809928894,1.851393699645996,-1.3091374635696411,0.00021342567924875766,2.133577585220337,3.4260355669208984,0.0005712514976039529,0.26352402567863464,-1.5896981398211878,0.0,-0.002678077667951584,0.7611710429191589,0.0005406052805483341,0.09778939187526703,0.8051953911781311,0.00018683529924601316,0.061411790549755096
394.0,429.0,8.4174,0.2327,4.3077,-0.0504,-0.2636,-0.1184,-1.5784384212889613,-0.30662617087364197,1.8329145908355713,-1.309129238128662,0.00018429523333907127,2.092921495437622,3.4260989862629394,0.0033560828305780888,0.2754462957382202,-1.5896218458758753,0.0,-0.001293680863454938,0.7611746788024902,0.0008157643023878336,0.11103837192058563,0.8051871061325073,0.00016926585522014648,0.10668984055519104
394.0,429.0,8.4174,0.2327,4.3077,-0.0504,-0.2636,-0.1184,-1.5802942715086878,-0.30391958355903625,1.9090323448181152,-1.3091411590576172,0.0001671778445597738,2.1361193656921387,3.42612807332959,0.00481350626796484,0.2719569504261017,-1.5896299521075647,0.0,-0.0016758072888478637,0.761166512966156,0.0014425896806642413,0.10990726947784424,0.8051912784576416,0.0001432384451618418,0.06455797702074051
394.0,429.0,8.4174,0.2327,4.3077,-0.0504,-0.2636,-0.1184,-1.5826269588866175,-0.303849995136261,1.8751755952835083,-1.3091095685958862,0.00014875632768962532,2.1358582973480225,3.4261032777973632,0.004729439038783312,0.26745256781578064,-1.5896623770343226,0.0,0.009593316353857517,0.7612106800079346,0.0019985544495284557,0.11272132396697998,0.8052515983581543,0.00015225216338876635,0.05040890723466873
394.0,429.0,8.4174,0.2327,4.3077,-0.0504,-0.2636,-0.1184,-1.5850283108153285,-0.303399920463562,1.8919109106063843,-1.3091132640838623,0.00014867595746181905,2.1354446411132812,3.426248236293457,0.00710954749956727,0.28542184829711914,-1.589653793965475,0.0,-0.0036257354076951742,0.7612349390983582,0.003072863444685936,0.11015432327985764,0.8051829934120178,0.00013685468002222478,0.014937645755708218
394.0,429.0,8.4174,0.2327,4.3077,-0.0504,-0.2636,-0.1184,-1.5874506435790003,-0.3069153130054474,1.833855390548706,-1.3090970516204834,0.00011438832007115707,2.1258273124694824,3.4263202387043457,0.012368401512503624,0.27899500727653503,-1.5896218458758753,0.0,0.004393759649246931,0.7612345218658447,0.004507117904722691,0.10693158209323883,0.8051912784576416,0.00012425814929883927,0.08135084062814713
394.0,429.0,8.4174,0.2327,4.3077,-0.0504,-0.2636,-0.1184,-1.5899211368956507,-0.2926833927631378,1.9233249425888062,-1.3090893030166626,0.002751669380813837,2.172964334487915,3.426431818599365,0.021155864000320435,0.28982213139533997,-1.5896700064288538,0.0,0.0018243357772007585,0.761242151260376,0.005774637218564749,0.10634741187095642,0.8052520751953125,0.00011378504859749228,0.07013977319002151
394.0,429.0,8.4174,0.2327,4.3077,-0.0504,-0.2636,-0.1184,-1.5923510990538539,-0.29738330841064453,1.9197801351547241,-1.3090649843215942,0.003199390834197402,2.155867099761963,3.426696940059326,0.03261889889836311,0.2906472682952881,-1.5896342436419886,0.0,0.001429953845217824,0.7613065242767334,0.0036778524518013,0.12175250053405762,0.8051871061325073,0.0001392205012962222,0.0591316856443882
394.0,429.0,8.4174,0.2327,4.3077,-0.0504,-0.2636,-0.1184,-1.5942212543883265,-0.29560375213623047,1.951371192932129,-1.3090485334396362,0.0020687312353402376,2.159804344177246,3.4269091325947265,0.049989644438028336,0.3016260266304016,-1.589630428944723,0.0,0.0025901864282786846,0.7613263726234436,0.0020747988019138575,0.110699862241745,0.8051993250846863,0.0002252036501886323,0.07601964473724365
394.0,429.0,8.4174,0.2327,4.3077,-0.0504,-0.2636,-0.1184,-1.5966597996153773,-0.2931246757507324,1.9793472290039062,-1.3090567588806152,0.0008427414577454329,2.1814093589782715,3.4274985033222656,0.09278660267591476,0.3137214183807373,-1.5896580854998987,0.0,0.010899960063397884,0.7613381743431091,0.0012007229961454868,0.10684442520141602,0.8051993250846863,0.0002570738142821938,0.09182430803775787
394.0,429.0,8.4174,0.2327,4.3077,-0.0504,-0.2636,-0.1184,-1.5990492306151332,-0.3013143539428711,1.947814702987671,-1.3090567588806152,0.0002889681200031191,2.1393423080444336,3.4284235674091796,0.12994985282421112,0.33038008213043213,-1.5896623770343226,0.0,0.004197700414806604,0.7613300681114197,0.0007761101587675512,0.11919198930263519,0.805231511592865,0.0005303951911628246,0.08165724575519562
389.0,415.0,9.804,0.8327,4.1731,-0.0168,-0.046,-0.1324,-1.6013924084105433,-0.2902583181858063,2.0208356380462646,-1.3090567588806152,-9.086513455258682e-05,2.1499135494232178,3.429536982173584,0.14097672700881958,0.34363698959350586,-1.5896943251239222,0.0,0.003978126682341099,0.7613624334335327,0.0006791490595787764,0.1202751100063324,0.8052716851234436,0.0004442446806933731,0.11385244876146317
389.0,415.0,9.804,0.8327,4.1731,-0.0168,-0.046,-0.1324,-1.6036297283568324,-0.29164183139801025,1.9645557403564453,-1.3091052770614624,-6.403966108337045e-05,2.1725893020629883,3.4307476717182617,0.15561197698116302,0.34509801864624023,-1.5896781126605433,0.0,0.003735714592039585,0.7613178491592407,0.000720038719009608,0.11118581891059875,0.8052716851234436,0.00048080823034979403,0.03550370782613754
389.0,415.0,9.804,0.8327,4.1731,-0.0168,-0.046,-0.1324,-1.6059404812254847,-0.2829444110393524,1.9768853187561035,-1.309024691581726,-1.720051841402892e-05,2.096097946166992,3.4322144228168945,0.18642792105674744,0.3619212508201599,-1.5896580854998987,0.0,0.008069122210144997,0.761374294757843,0.0006700793746858835,0.12921497225761414,0.8052960634231567,0.0009468523203395307,0.09079569578170776
389.0,415.0,9.804,0.8327,4.1731,-0.0168,-0.046,-0.1324,-1.6081186733641566,-0.27007269859313965,2.0246756076812744,-1.3090527057647705,-5.572749835376645e-13,2.122344493865967,3.433715983028076,0.18390712141990662,0.3491709232330322,-1.5896299521075647,0.0,0.015162822790443897,0.7613784670829773,0.000524001894518733,0.11604855954647064,0.8052798509597778,0.0007412011618725955,0.091411292552948
389.0,415.0,9.804,0.8327,4.1731,-0.0168,-0.046,-0.1324,-1.6097103557982386,-0.26454612612724304,1.9791922569274902,-1.3090733289718628,-1.3457533734523216e-18,2.1352529525756836,3.4348503786274414,0.21595504879951477,0.3646368384361267,-1.5896499792682093,0.0,0.021809671074151993,0.761333703994751,0.00046090822434052825,0.12083876132965088,0.8052351474761963,0.0007248590118251741,0.09361949563026428
389.0,415.0,9.804,0.8327,4.1731,-0.0168,-0.046,-0.1324,-1.6117397747435511,-0.25659826397895813,2.0809218883514404,-1.3090288639068604,0.0003669403668027371,2.1116485595703125,3.436736746425293,0.24150735139846802,0.383635938167572,-1.5896456877337855,0.0,0.002375546842813492,0.7613579034805298,0.00034660898381844163,0.12887053191661835,0.805191159248352,0.002114608185365796,0.1372036337852478
389.0,415.0,9.804,0.8327,4.1731,-0.0168,-0.046,-0.1324,-1.6136743030943812,-0.2512657344341278,2.0965662002563477,-1.309032917022705,0.00023138262622524053,2.096961498260498,3.438759966487549,0.2718471586704254,0.38562607765197754,-1.5896580854998987,0.0,0.0010495908791199327,0.7613136768341064,0.0002757721522357315,0.11540764570236206,0.8052592873573303,0.001971194986253977,0.05814957991242409
389.0,415.0,9.804,0.8327,4.1731,-0.0168,-0.046,-0.1324,-1.6156765423216761,-0.24270670115947723,2.071155071258545,-1.30906081199646,0.0001723041059449315,2.1221823692321777,3.4409219461628417,0.269415020942688,0.38662540912628174,-1.5896738211261194,0.0,0.0101127615198493,0.7613382339477539,0.00022898385941516608,0.11762586236000061,0.8052713871002197,0.002870153170078993,0.07561086118221283
389.0,415.0,9.804,0.8327,4.1731,-0.0168,-0.046,-0.1324,-1.6175710163512171,-0.2431698441505432,2.0810728073120117,-1.3089842796325684,6.10105344094336e-05,2.118051052093506,3.443246527309082,0.2896268367767334,0.3919569253921509,-1.5896781126605433,0.0,0.007746614515781403,0.7613582611083984,0.00019577164493966848,0.11673015356063843,0.8053035140037537,0.0023676645942032337,0.03872403874993324
389.0,415.0,9.804,0.8327,4.1731,-0.0168,-0.046,-0.1324,-1.6194983921446742,-0.23499256372451782,2.073518753051758,-1.309032917022705,4.768903327789786e-11,2.183849811553955,3.445634050960205,0.3154926598072052,0.39671963453292847,-1.5896218458758753,0.0,0.00850535836070776,0.7613381743431091,0.0001429776893928647,0.108918696641922,0.8052672147750854,0.0009560170583426952,0.06752344965934753
389.0,415.0,9.804,0.8327,4.1731,-0.0168,-0.046,-0.1324,-1.6212636433043421,-0.2193748503923416,2.15277099609375,-1.3090007305145264,0.0009545596549287438,2.102881908416748,3.4482948023029785,0.3284010887145996,0.4056842029094696,-1.5896580854998987,0.0,0.0033750110305845737,0.7613382339477539,0.00012646093091461807,0.09225413203239441,0.8053438067436218,0.0005164725589565933,0.04083344340324402
389.0,415.0,9.804,0.8327,4.1731,-0.0168,-0.046,-0.1324,-1.622666975060934,-0.22184859216213226,2.118353843688965,-1.3090659379959106,0.0007279685814864933,2.1292715072631836,3.45022360860791,0.349436491727829,0.4089546799659729,-1.5896299521075647,0.0,-0.010555379092693329,0.7613182067871094,9.350817708764225e-05,0.08666366338729858,0.805263102054596,0.0004605740250553936,-0.024333205074071884
397.0,440.0,8.8947,0.0413,4.7737,-0.0606,0.2624,-0.1309,-1.6244493923582972,-0.2253940999507904,2.115140676498413,-1.3090814352035522,0.00019818756845779717,2.1363255977630615,3.45315329610791,0.37105870246887207,0.40843355655670166,-1.5896580854998987,0.0,-0.006947219371795654,0.761298418045044,6.358909013215452e-05,0.09992553293704987,0.805291473865509,0.0003436087863519788,0.04116120934486389
397.0,440.0,8.8947,0.0413,4.7737,-0.0606,0.2624,-0.1309,-1.626284738580221,-0.20988160371780396,2.175992012023926,-1.3090733289718628,0.00013756952830590308,2.1206328868865967,3.456096811885498,0.3899131119251251,0.41999390721321106,-1.589609448109762,0.0,-0.0024962935131043196,0.7612741589546204,-8.962259016698226e-05,0.0729975700378418,0.8053275942802429,0.0001828143431339413,0.021885160356760025
397.0,440.0,8.8947,0.0413,4.7737,-0.0606,0.2624,-0.1309,-1.6279713116087855,-0.20820164680480957,2.189450740814209,-1.3090007305145264,6.375258180923993e-06,2.156096935272217,3.4592835146137695,0.4103633761405945,0.42852210998535156,-1.5896661917315882,0.0,-0.0014916297513991594,0.7612943649291992,-0.0008653226541355252,0.06634659320116043,0.8052551746368408,0.00015179344336502254,0.04726190119981766
397.0,440.0,8.8947,0.0413,4.7737,-0.0606,0.2624,-0.1309,-1.629754205743307,-0.21721941232681274,2.1826906204223633,-1.3090852499008179,2.065502581255138e-13,2.12005615234375,3.4626447397419433,0.4134117364883423,0.42636799812316895,-1.5896299521075647,0.0,-0.004750512074679136,0.7612868547439575,-0.001107882591895759,0.06874226778745651,0.805340051651001,0.00010856526205316186,0.09039045870304108
397.0,440.0,8.8947,0.0413,4.7737,-0.0606,0.2624,-0.1309,-1.6313444576659144,-0.19901145994663239,2.2016217708587646,-1.3090412616729736,6.6919658764589364e-21,2.096034049987793,3.4659744936176757,0.4228600263595581,0.4315531253814697,-1.589609448109762,0.0,-0.00026436999905854464,0.7612345218658447,-0.0010522222146391869,0.03447575867176056,0.805271327495575,-6.062550164642744e-05,-0.005825877655297518
397.0,440.0,8.8947,0.0413,4.7737,-0.0606,0.2624,-0.1309,-1.6328708134093226,-0.1924399435520172,2.229625701904297,-1.309032917022705,2.168112023775285e-28,2.1143338680267334,3.469463987941406,0.4335629343986511,0.43947386741638184,-1.5896661917315882,0.0,0.003399149514734745,0.7612349390983582,-0.0008001064416021109,0.042502257972955704,0.8052592277526855,-8.25248280307278e-05,0.04503249749541283
397.0,440.0,8.8947,0.0413,4.7737,-0.0606,0.2624,-0.1309,-1.6340748272337855,-0.1963770091533661,2.2523844242095947,-1.3090370893478394,5.235736327218934e-34,2.094290018081665,3.4720493990131835,0.4373961389064789,0.44124841690063477,-1.5896385351764124,0.0,0.0035827900283038616,0.7611783742904663,-0.0008731907582841814,0.03547772020101547,0.8052551746368408,-0.00010075012687593699,0.030145656317472458
397.0,440.0,8.8947,0.0413,4.7737,-0.0606,0.2624,-0.1309,-1.6355487308897914,-0.19223853945732117,2.218492031097412,-1.3090248107910156,1.696271791065191e-41,2.136199712753296,3.475545569057129,0.4369153380393982,0.4420141577720642,-1.5896175543414515,0.0,0.008061395958065987,0.7612026333808899,-0.0011879651574417949,0.026825319975614548,0.8052109479904175,-0.00011064190766774118,0.045521028339862823
397.0,440.0,8.8947,0.0413,4.7737,-0.0606,0.2624,-0.1309,-1.636991640130514,-0.17652209103107452,2.2166030406951904,-1.3090205192565918,-0.0,2.168971061706543,3.4791547495075683,0.45246729254722595,0.4513760209083557,-1.589597527180807,0.0,0.012267665937542915,0.7611263394355774,-0.001969818025827408,0.014756325632333755,0.8052471876144409,-0.0002808468707371503,0.0010584299452602863
397.0,440.0,8.8947,0.0413,4.7737,-0.0606,0.2624,-0.1309,-1.638439794579977,-0.16599106788635254,2.307446002960205,-1.309032917022705,-5.7710407418198884e-05,2.120310068130493,3.482711001033447,0.4540770947933197,0.44467610120773315,-1.5896623770343226,0.0,-0.0026108964812010527,0.7610986232757568,-0.003247370244935155,0.035524480044841766,0.8052471876144409,-0.00022473880380857736,0.025108324363827705
397.0,440.0,8.8947,0.0413,4.7737,-0.0606,0.2624,-0.1309,-1.6397777996458949,-0.17178674042224884,2.2007317543029785,-1.3090732097625732,-0.0006161917117424309,2.137977361679077,3.486334963435791,0.45801836252212524,0.444355309009552,-1.589670483266012,0.0,-0.006444943603128195,0.7610825896263123,-0.006247070152312517,0.018780646845698357,0.805279552936554,-0.00018731628370005637,0.009630132466554642
397.0,440.0,8.8947,0.0413,4.7737,-0.0606,0.2624,-0.1309,-1.6411172352232875,-0.17053279280662537,2.2654614448547363,-1.3090970516204834,-0.0007754419930279255,2.126842737197876,3.489943190211914,0.4590305984020233,0.45896679162979126,-1.5896900335894983,0.0,-0.013984518125653267,0.7610348463058472,-0.012746763415634632,-7.508788257837296e-08,0.8052713871002197,-0.0001605781726539135,-0.01972617581486702
356.0,388.0,7.3424,0.2925,5.4078,-0.0139,0.2637,-0.1243,-1.6424156628050746,-0.17091788351535797,2.2903685569763184,-1.3090852499008179,-0.0004759477451443672,2.153190851211548,3.493614836330078,0.4572851359844208,0.4533330798149109,-1.5896661917315882,0.0,0.0036137320566922426,0.7609673738479614,-0.010688687674701214,-0.009229876101016998,0.8052592873573303,-0.0001405202056048438,0.006947628688067198
356.0,388.0,7.3424,0.2925,5.4078,-0.0139,0.2637,-0.1243,-1.6433989010252894,-0.1705523431301117,2.285210609436035,-1.3090728521347046,-0.0003879936411976814,2.119243621826172,3.4963676172443847,0.444157212972641,0.437755823135376,-1.589670483266012,0.0,-0.0007518203929066658,0.7609149217605591,-0.0038083463441580534,0.010596051812171936,0.8052878975868225,-0.0001284835598198697,0.003948426805436611
