ramyac6/ROB537/final_project/csv/bad/bad_92.csv
tof_0,tof_1,accelx,accely,accelz,gyrox,gyroy,gyroz,shoulder_lift_joint_position,shoulder_lift_joint_velocity,shoulder_lift_joint_effort,elbow_joint_position,elbow_joint_velocity,elbow_joint_effort,wrist_1_joint_position,wrist_1_joint_velocity,wrist_1_joint_effort,wrist_2_joint_position,wrist_2_joint_velocity,wrist_2_joint_effort,wrist_3_joint_position,wrist_3_joint_velocity,wrist_3_joint_effort,shoulder_pan_joint_position,shoulder_pan_joint_velocity,shoulder_pan_joint_effort
237.0,188.0,2.8397,1.4207,8.8816,-0.0327,0.0191,-0.1222,-1.7487174473204554,0.0,2.9521994590759277,-1.5379797220230103,-0.0,2.1928892135620117,4.474805517787598,0.0,0.2895660698413849,-1.458505932484762,-0.0,-0.02623686008155346,0.10619821399450302,0.0,-0.005974768195301294,0.9014077186584473,0.0,0.010685679502785206
237.0,188.0,2.8397,1.4207,8.8816,-0.0327,0.0191,-0.1222,-1.748693128625387,0.0,2.8953256607055664,-1.5379674434661865,-0.0,2.1894102096557617,4.474822207088135,0.0,0.2936881482601166,-1.4585583845721644,-0.0,-0.02181309461593628,0.10620231181383133,0.0,0.004119510762393475,0.9014037251472473,0.0,-0.0011505224974825978
237.0,188.0,2.8397,1.4207,8.8816,-0.0327,0.0191,-0.1222,-1.7487384281554164,0.0,2.923553705215454,-1.537987470626831,-0.0,2.134716510772705,4.474776907558105,0.0,0.28236645460128784,-1.4585583845721644,-0.0,-0.022668587043881416,0.10623472929000854,0.0,-0.000803791219368577,0.9013996720314026,0.0,-0.02835330180823803
237.0,188.0,2.8397,1.4207,8.8816,-0.0327,0.0191,-0.1222,-1.7487379513182582,0.0,2.943671703338623,-1.5379997491836548,-0.0,2.1802361011505127,4.474837465877197,0.0,0.28947415947914124,-1.458545986806051,-0.0,-0.014241548255085945,0.10616996139287949,0.0,0.0001532011665403843,0.9014036655426025,0.0,0.019259411841630936
237.0,188.0,2.8397,1.4207,8.8816,-0.0327,0.0191,-0.1222,-1.7487136326231898,0.0,2.9179329872131348,-1.537959337234497,-0.0,2.205718994140625,4.474837465877197,0.0,0.29853355884552,-1.4585745970355433,-0.0,-0.020684584975242615,0.10616634786128998,0.0,-0.009497657418251038,0.9013795852661133,0.0,-0.025341546162962914
237.0,188.0,2.8397,1.4207,8.8816,-0.0327,0.0191,-0.1222,-1.7486773929991664,0.0,2.911372184753418,-1.5379555225372314,-0.0,2.155189275741577,4.474822207088135,0.0,0.28595951199531555,-1.4585545698748987,-0.0,-0.02490958571434021,0.10622245073318481,0.0,-0.007222948595881462,0.9013996720314026,0.0,0.010012822225689888
237.0,188.0,2.8397,1.4207,8.8816,-0.0327,0.0191,-0.1222,-1.748669286767477,0.0,2.9511466026306152,-1.538003921508789,-0.0,2.1571199893951416,4.474857969875,0.0,0.2794448137283325,-1.4585145155536097,-0.0,-0.017003141343593597,0.10618996620178223,0.0,-0.006385458167642355,0.9014077186584473,0.0,0.04030977189540863
234.0,189.0,2.8056,1.3723,8.9067,-0.0386,0.0215,-0.1213,-1.748681207696432,0.0,2.9752442836761475,-1.537975549697876,-0.0,2.1969687938690186,4.474822207088135,0.0,0.29298263788223267,-1.4585583845721644,-0.0,-0.02558850310742855,0.1062668189406395,0.0,0.0036253822036087513,0.9013753533363342,0.0,0.061956726014614105
234.0,189.0,2.8056,1.3723,8.9067,-0.0386,0.0215,-0.1213,-1.7487055263915003,0.0,2.9314637184143066,-1.5379916429519653,-0.0,2.213513135910034,4.474809809322021,0.0,0.28729960322380066,-1.4585545698748987,-0.0,-0.008790848776698112,0.10623472929000854,0.0,-0.00913489330559969,0.9014279246330261,0.0,-0.0021896762773394585
234.0,189.0,2.8056,1.3723,8.9067,-0.0386,0.0215,-0.1213,-1.7487017116942347,0.0,2.9419517517089844,-1.5379993915557861,-0.0,2.176016330718994,4.474785490626953,0.0,0.2830028235912323,-1.4585021177874964,-0.0,-0.03330604359507561,0.10623840987682343,0.0,0.007334182504564524,0.9013676047325134,0.0,-0.01453581266105175
234.0,189.0,2.8056,1.3723,8.9067,-0.0386,0.0215,-0.1213,-1.748669286767477,0.0,2.93330979347229,-1.5379714965820312,-0.0,2.1999893188476562,4.474817915553711,0.0,0.28686073422431946,-1.4585226217852991,-0.0,-0.02855546772480011,0.10622242838144302,0.0,-0.0025478010065853596,0.9014315605163574,0.0,0.020247334614396095
234.0,189.0,2.8056,1.3723,8.9067,-0.0386,0.0215,-0.1213,-1.7487050495543421,0.0,2.915888786315918,-1.537927508354187,-0.0,2.212733030319214,4.474813624019287,0.0,0.2825961709022522,-1.4585102240191858,-0.0,-0.009151067584753036,0.10619823634624481,0.0,-0.0008119517005980015,0.9014037251472473,0.0,-0.010897810570895672
234.0,189.0,2.8056,1.3723,8.9067,-0.0386,0.0215,-0.1213,-1.7486936054625453,0.0,2.9190917015075684,-1.5379674434661865,-0.0,2.1823973655700684,4.474813624019287,0.0,0.29869702458381653,-1.458550278340475,-0.0,-0.029065165668725967,0.10621876269578934,0.0,-0.018827714025974274,0.9013229012489319,0.0,0.0392017588019371
234.0,189.0,2.8056,1.3723,8.9067,-0.0386,0.0215,-0.1213,-1.7486854992308558,0.0,2.9752938747406006,-1.5379234552383423,-0.0,2.1547768115997314,4.474829359645508,0.0,0.29180386662483215,-1.458550278340475,-0.0,-0.01973838545382023,0.10619008541107178,0.0,0.00571154709905386,0.901383638381958,0.0,0.006324423477053642
234.0,189.0,2.8056,1.3723,8.9067,-0.0386,0.0215,-0.1213,-1.748681207696432,0.0,2.960789203643799,-1.5379998683929443,-0.0,2.193480968475342,4.474809809322021,0.0,0.2879001498222351,-1.4585307280169886,-0.0,-0.025827547535300255,0.10619834810495377,0.0,-0.005997206550091505,0.901419997215271,0.0,-0.03681003302335739
234.0,189.0,2.8056,1.3723,8.9067,-0.0386,0.0215,-0.1213,-1.7487174473204554,0.0,2.9119653701782227,-1.5379714965820312,-0.0,2.145869731903076,4.474866076106689,0.0,0.2805784344673157,-1.4585545698748987,-0.0,-0.02141854353249073,0.1062266007065773,0.0,-0.015426458790898323,0.9014118909835815,0.0,0.0144718112424016
234.0,189.0,2.8056,1.3723,8.9067,-0.0386,0.0215,-0.1213,-1.7486778698363246,0.0,2.9616377353668213,-1.5379265546798706,-0.0,2.137299060821533,4.4748260217854,0.0,0.28847381472587585,-1.4585307280169886,-0.0,-0.01609271951019764,0.10622242838144302,0.0,-0.015361467376351357,0.9013672471046448,0.0,0.002650860697031021
234.0,189.0,2.8056,1.3723,8.9067,-0.0386,0.0215,-0.1213,-1.7486854992308558,0.0,2.952735662460327,-1.5379637479782104,-0.0,2.1884605884552,4.474789305324219,0.0,0.2904214560985565,-1.4585264364825647,-0.0,-0.02471415512263775,0.10620232671499252,0.0,-0.016692958772182465,0.9013795852661133,0.0,0.037817541509866714
234.0,189.0,2.8056,1.3723,8.9067,-0.0386,0.0215,-0.1213,-1.748697420159811,0.0,2.904005527496338,-1.5379068851470947,-0.0,2.1818881034851074,4.474789305324219,0.0,0.2840646207332611,-1.4585583845721644,-0.0,-0.02413894236087799,0.10612572729587555,0.0,-0.012639538384974003,0.9014037251472473,0.0,0.04774729907512665
234.0,189.0,2.8056,1.3723,8.9067,-0.0386,0.0215,-0.1213,-1.748681207696432,0.0,2.9573707580566406,-1.5379793643951416,-0.0,2.183314561843872,4.474813624019287,0.0,0.29435721039772034,-1.458550278340475,-0.0,-0.023874390870332718,0.10621833801269531,0.0,0.001241580001078546,0.9014200568199158,0.0,-0.018469883129000664
235.0,193.0,2.8666,1.4267,8.814,-0.0411,0.0232,-0.1139,-1.7486611805357875,0.0,2.932870864868164,-1.5379430055618286,-0.0,2.1863789558410645,4.474817915553711,0.0,0.2962040901184082,-1.4585664908038538,-0.0,-0.019489899277687073,0.10624627023935318,0.0,0.003336091060191393,0.9014279246330261,0.0,0.03107227385044098
235.0,193.0,2.8666,1.4267,8.814,-0.0411,0.0232,-0.1139,-1.748669286767477,0.0,2.955418109893799,-1.5379595756530762,-0.0,2.152790069580078,4.474829359645508,0.0,0.2901538610458374,-1.4585064093219202,-0.0,-0.015089732594788074,0.10622657090425491,0.0,-0.003914880566298962,0.9014319777488708,0.0,0.01833084598183632
235.0,193.0,2.8666,1.4267,8.814,-0.0411,0.0232,-0.1139,-1.748636861840719,0.0,2.946072578430176,-1.537979245185852,-0.0,2.157576560974121,4.474801226253174,0.0,0.2877981960773468,-1.4585545698748987,-0.0,-0.022493502125144005,0.10617824643850327,0.0,-0.006533038802444935,0.901399552822113,0.0,-0.010560877621173859
235.0,193.0,2.8666,1.4267,8.814,-0.0411,0.0232,-0.1139,-1.7486654720702113,0.0,2.9253973960876465,-1.5379389524459839,-0.0,2.2032265663146973,4.474809809322021,0.0,0.28551948070526123,-1.4585626761065882,-0.0,-0.02179904654622078,0.10623843967914581,0.0,-0.006358555983752012,0.9013717174530029,0.0,-0.00022290367633104324
235.0,193.0,2.8666,1.4267,8.814,-0.0411,0.0232,-0.1139,-1.7486936054625453,0.0,2.960005760192871,-1.537987470626831,-0.0,2.2052738666534424,4.474813624019287,0.0,0.2835279703140259,-1.458534065877096,-0.0,-0.023634247481822968,0.10618600994348526,0.0,-0.0016839790623635054,0.9013594388961792,0.0,-0.007365320809185505
235.0,193.0,2.8666,1.4267,8.814,-0.0411,0.0232,-0.1139,-1.748709341088766,0.0,2.934319496154785,-1.537975549697876,-0.0,2.145277738571167,4.474817915553711,0.0,0.2909305989742279,-1.4585378805743616,-0.0,-0.019424285739660263,0.10619427263736725,0.0,-0.0064703538082540035,0.9014279246330261,0.0,0.021926432847976685
235.0,193.0,2.8666,1.4267,8.814,-0.0411,0.0232,-0.1139,-1.7486854992308558,0.0,2.9350593090057373,-1.5379674434661865,-0.0,2.211308479309082,4.474813624019287,0.0,0.29098275303840637,-1.458526913319723,-0.0,-0.013722507283091545,0.10623843222856522,0.0,-0.007408452220261097,0.9014037251472473,0.0,0.033751994371414185
235.0,193.0,2.8666,1.4267,8.814,-0.0411,0.0232,-0.1139,-1.7486654720702113,0.0,3.003969192504883,-1.5379915237426758,-0.0,2.201038360595703,4.474801226253174,0.0,0.28915971517562866,-1.4585383574115198,-0.0,-0.01421448402106762,0.10621464997529984,0.0,-0.0060706972144544125,0.9013593792915344,0.0,-0.019305314868688583
235.0,193.0,2.8666,1.4267,8.814,-0.0411,0.0232,-0.1139,-1.7486611805357875,0.0,2.985718250274658,-1.5379633903503418,-0.0,2.1628336906433105,4.474822207088135,0.0,0.2786564826965332,-1.4585421721087855,-0.0,-0.027531076222658157,0.10622233897447586,0.0,0.0015160818584263325,0.9014118909835815,0.0,-0.0598752535879612
235.0,193.0,2.8666,1.4267,8.814,-0.0411,0.0232,-0.1139,-1.748726030389303,0.0,2.910202980041504,-1.5380076169967651,-0.0,2.1769769191741943,4.474833651179932,0.0,0.3022604286670685,-1.4585226217852991,-0.0,-0.030382100492715836,0.10618602484464645,0.0,-0.00624918844550848,0.901383638381958,0.0,-0.0037853727117180824
235.0,193.0,2.8666,1.4267,8.814,-0.0411,0.0232,-0.1139,-1.7487017116942347,0.0,2.940892219543457,-1.5379834175109863,-0.0,2.1751983165740967,4.474801226253174,0.0,0.2920099198818207,-1.458534065877096,-0.0,-0.013196729123592377,0.10617786645889282,0.0,0.00413874676451087,0.9014078378677368,0.0,0.015532026067376137
235.0,193.0,2.8666,1.4267,8.814,-0.0411,0.0232,-0.1139,-1.748681207696432,0.0,2.94720458984375,-1.5379067659378052,-0.0,2.1693835258483887,4.474801226253174,0.0,0.28750622272491455,-1.4585588614093226,-0.0,-0.02599213272333145,0.10620232671499252,0.0,-0.005552314221858978,0.9014237523078918,0.0,0.028013866394758224
235.0,193.0,2.8666,1.4267,8.814,-0.0411,0.0232,-0.1139,-1.7486854992308558,0.0,2.952713966369629,-1.5379308462142944,-0.0,2.186642646789551,4.474833651179932,0.0,0.2866078019142151,-1.4585421721087855,-0.0,-0.020163852721452713,0.10621833801269531,0.0,-0.023592764511704445,0.9014037251472473,0.0,-0.010958481580018997
235.0,193.0,2.8666,1.4267,8.814,-0.0411,0.0232,-0.1139,-1.748669286767477,0.0,2.9357028007507324,-1.537975549697876,-0.0,2.1950442790985107,4.474822207088135,0.0,0.2876243591308594,-1.4585421721087855,-0.0,-0.025954512879252434,0.1061982661485672,0.0,-0.0019777913112193346,0.9013914465904236,0.0,-0.02262989990413189
227.0,190.0,2.7912,1.3597,8.9043,-0.0385,0.0218,-0.1182,-1.7486893139281214,0.0,2.9065804481506348,-1.5379678010940552,-0.0,2.142714738845825,4.474817915553711,0.0,0.28209537267684937,-1.4585583845721644,-0.0,-0.01943296380341053,0.10621058940887451,0.0,0.003320640418678522,0.9013475775718689,0.0,-0.017299827188253403
227.0,190.0,2.7912,1.3597,8.9043,-0.0385,0.0218,-0.1182,-1.7487055263915003,0.0,2.9320621490478516,-1.5380034446716309,-0.0,2.196915626525879,4.474817915553711,0.0,0.28919509053230286,-1.4585383574115198,-0.0,-0.007032429333776236,0.10614173859357834,0.0,0.00044921395601704717,0.901419997215271,0.0,-0.015107192099094391
227.0,190.0,2.7912,1.3597,8.9043,-0.0385,0.0218,-0.1182,-1.748709341088766,0.0,2.950674295425415,-1.5379993915557861,-0.0,2.208993911743164,4.474801226253174,0.0,0.28539925813674927,-1.4585226217852991,-0.0,-0.029128456488251686,0.10621058940887451,0.0,-0.006136565003544092,0.901375412940979,0.0,-0.023128794506192207
227.0,190.0,2.7912,1.3597,8.9043,-0.0385,0.0218,-0.1182,-1.7486778698363246,0.0,2.957522392272949,-1.5379834175109863,-0.0,2.1522345542907715,4.474785967464111,0.0,0.26867249608039856,-1.4585583845721644,-0.0,-0.029504016041755676,0.1062389463186264,0.0,-0.008815843611955643,0.901383638381958,0.0,0.012272755615413189
227.0,190.0,2.7912,1.3597,8.9043,-0.0385,0.0218,-0.1182,-1.748697420159811,0.0,2.94398832321167,-1.5379472970962524,-0.0,2.1485657691955566,4.474789305324219,0.0,0.2870170474052429,-1.4585664908038538,-0.0,-0.01666603796184063,0.10619416832923889,0.0,0.005322891287505627,0.9014037251472473,0.0,-0.0194614939391613
227.0,190.0,2.7912,1.3597,8.9043,-0.0385,0.0218,-0.1182,-1.7486854992308558,0.0,2.949162006378174,-1.5379308462142944,-0.0,2.201394557952881,4.4748498636433105,0.0,0.287766695022583,-1.4585588614093226,-0.0,-0.02551323175430298,0.10619425028562546,0.0,-0.00738596823066473,0.9014319777488708,0.0,-0.03069508820772171
227.0,190.0,2.7912,1.3597,8.9043,-0.0385,0.0218,-0.1182,-1.7487384281554164,0.0,2.914363384246826,-1.5379555225372314,-0.0,2.1800787448883057,4.474841757411621,0.0,0.2884698808193207,-1.4585297743426722,-0.0,-0.03272635489702225,0.10626668483018875,0.0,-0.0008775836322456598,0.901383638381958,0.0,-0.007516914512962103
227.0,190.0,2.7912,1.3597,8.9043,-0.0385,0.0218,-0.1182,-1.748742242852682,0.0,2.935389995574951,-1.537987470626831,-0.0,2.1795859336853027,4.474822207088135,0.0,0.2820923328399658,-1.4585631529437464,-0.0,-0.016676180064678192,0.10618191957473755,0.0,-0.00739010376855731,0.9013913869857788,0.0,-0.023909777402877808
227.0,190.0,2.7912,1.3597,8.9043,-0.0385,0.0218,-0.1182,-1.7487055263915003,0.0,2.936971426010132,-1.5380158424377441,-0.0,2.16178822517395,4.474793120021484,0.0,0.2995673418045044,-1.4585102240191858,-0.0,-0.020880166441202164,0.10618641972541809,0.0,-7.445389201166108e-05,0.9013913869857788,0.0,0.011306610889732838
227.0,190.0,2.7912,1.3597,8.9043,-0.0385,0.0218,-0.1182,-1.7487098179259242,0.0,2.9527840614318848,-1.5379834175109863,-0.0,2.151642322540283,4.474854155177734,0.0,0.2829599976539612,-1.458522144948141,-0.0,-0.019836410880088806,0.10622239857912064,0.0,-2.961093559861183e-05,0.9013593792915344,0.0,-0.02559679001569748
227.0,190.0,2.7912,1.3597,8.9043,-0.0385,0.0218,-0.1182,-1.7487017116942347,0.0,2.96482515335083,-1.5379834175109863,-0.0,2.1934773921966553,4.474822207088135,0.0,0.28667861223220825,-1.4585307280169886,-0.0,-0.01748393476009369,0.1062060222029686,0.0,-0.018389854580163956,0.9014159440994263,0.0,-0.01156498584896326
227.0,190.0,2.7912,1.3597,8.9043,-0.0385,0.0218,-0.1182,-1.7487298450865687,0.0,2.9617300033569336,-1.5379194021224976,-0.0,2.1971373558044434,4.474813624019287,0.0,0.2947540581226349,-1.4585707823382776,-0.0,-0.021934404969215393,0.10625084489583969,0.0,-0.01004784181714058,0.9013593792915344,0.0,0.013361788354814053
227.0,190.0,2.7912,1.3597,8.9043,-0.0385,0.0218,-0.1182,-1.7486611805357875,0.0,2.9401493072509766,-1.5379514694213867,-0.0,2.17047119140625,4.474805517787598,0.0,0.29195481538772583,-1.4585583845721644,-0.0,-0.02603408880531788,0.10618598014116287,0.0,-0.0035431208088994026,0.9014200568199158,0.0,-0.015580473467707634
233.0,189.0,2.8451,1.3902,8.9073,-0.0363,0.0197,-0.11,-1.7487341366209925,0.0,2.926006317138672,-1.537927508354187,-0.0,2.150667667388916,4.474801703090332,0.0,0.28335070610046387,-1.458526913319723,-0.0,-0.030741041526198387,0.106246717274189,0.0,-0.00819382257759571,0.9014118909835815,0.0,0.017641177400946617
233.0,189.0,2.8451,1.3902,8.9073,-0.0363,0.0197,-0.11,-1.7486611805357875,0.0,2.938498020172119,-1.537935733795166,-0.0,2.1526832580566406,4.474829359645508,0.0,0.2870430648326874,-1.4585707823382776,-0.0,-0.02083301916718483,0.10618587583303452,0.0,-0.008534276857972145,0.9014159440994263,0.0,0.032648343592882156
233.0,189.0,2.8451,1.3902,8.9073,-0.0363,0.0197,-0.11,-1.748697420159811,0.0,2.9302778244018555,-1.5380074977874756,-0.0,2.1951990127563477,4.47474925100293,0.0,0.29554545879364014,-1.4585626761065882,-0.0,-0.020450983196496964,0.1061982661485672,0.0,-0.010899157263338566,0.9013913869857788,0.0,-0.007988267578184605
233.0,189.0,2.8451,1.3902,8.9073,-0.0363,0.0197,-0.11,-1.7487341366209925,0.0,2.986215591430664,-1.537987470626831,-0.0,2.163877487182617,4.474781199092529,0.0,0.2762031555175781,-1.4585383574115198,-0.0,-0.03122217208147049,0.1062503308057785,0.0,-0.008847163058817387,0.9013676643371582,0.0,0.008007592521607876
233.0,189.0,2.8451,1.3902,8.9073,-0.0363,0.0197,-0.11,-1.748709341088766,0.0,2.933849811553955,-1.5379552841186523,-0.0,2.1627426147460938,4.474833651179932,0.0,0.2807789444923401,-1.4585745970355433,-0.0,-0.01410821732133627,0.10623840987682343,0.0,0.00021987274521961808,0.9013996124267578,0.0,0.01061119232326746
233.0,189.0,2.8451,1.3902,8.9073,-0.0363,0.0197,-0.11,-1.7486654720702113,0.0,2.9239583015441895,-1.5379389524459839,-0.0,2.183985948562622,4.474854155177734,0.0,0.2929907441139221,-1.4585421721087855,-0.0,-0.020795952528715134,0.10623472929000854,0.0,-0.005941771436482668,0.9013955593109131,0.0,0.010450289584696293
233.0,189.0,2.8451,1.3902,8.9073,-0.0363,0.0197,-0.11,-1.7486854992308558,0.0,2.9492640495300293,-1.537947177886963,-0.0,2.171506881713867,4.474813624019287,0.0,0.2901762127876282,-1.4585226217852991,-0.0,-0.014603584073483944,0.10614999383687973,0.0,-0.006530308164656162,0.9013795256614685,0.0,0.025191331282258034
233.0,189.0,2.8451,1.3902,8.9073,-0.0363,0.0197,-0.11,-1.748697420159811,0.0,2.951409339904785,-1.5379915237426758,-0.0,2.1625194549560547,4.474769278163574,0.0,0.2910236716270447,-1.4585707823382776,-0.0,-0.023234326392412186,0.10617364943027496,0.0,-0.013415971770882607,0.9013840556144714,0.0,0.05807294324040413
233.0,189.0,2.8451,1.3902,8.9073,-0.0363,0.0197,-0.11,-1.7486611805357875,0.0,2.932175397872925,-1.5379389524459839,-0.0,2.2232627868652344,4.4747654634663085,0.0,0.2856566607952118,-1.458534065877096,-0.0,-0.0052758813835680485,0.1062142476439476,0.0,-0.0023383069783449173,0.9013913869857788,0.0,0.057285428047180176
233.0,189.0,2.8451,1.3902,8.9073,-0.0363,0.0197,-0.11,-1.7486654720702113,0.0,2.930939197540283,-1.5379430055618286,-0.0,2.1767330169677734,4.474797411555908,0.0,0.2883511781692505,-1.4585908094989222,-0.0,-0.024731462821364403,0.10620641708374023,0.0,-0.00398873770609498,0.9014443159103394,0.0,-0.03042074665427208
233.0,189.0,2.8451,1.3902,8.9073,-0.0363,0.0197,-0.11,-1.7487017116942347,0.0,2.899064064025879,-1.5379674434661865,-0.0,2.1761221885681152,4.474801226253174,0.0,0.27774232625961304,-1.4585421721087855,-0.0,-0.023217415437102318,0.10621058940887451,0.0,-0.006250385660678148,0.9013795256614685,0.0,-0.015873754397034645
233.0,189.0,2.8451,1.3902,8.9073,-0.0363,0.0197,-0.11,-1.748681207696432,0.0,2.918409824371338,-1.5379389524459839,-0.0,2.1616744995117188,4.474809809322021,0.0,0.28558939695358276,-1.4585946241961878,-0.0,-0.025656914338469505,0.10615402460098267,0.0,-0.014078838750720024,0.9013918042182922,0.0,-0.008254336193203926
233.0,189.0,2.8451,1.3902,8.9073,-0.0363,0.0197,-0.11,-1.748726030389303,0.0,2.947054147720337,-1.5379714965820312,-0.0,2.179245710372925,4.474809809322021,0.0,0.28642868995666504,-1.458574120198385,-0.0,-0.03589387238025665,0.10624632984399796,0.0,-0.009940258227288723,0.9013717174530029,0.0,-0.0033123409375548363
228.0,189.0,2.7577,1.3884,9.1095,-0.033,0.0228,-0.1142,-1.748636861840719,0.0,2.9199938774108887,-1.5379637479782104,-0.0,2.157933235168457,4.474785490626953,0.0,0.28152337670326233,-1.458526913319723,-0.0,-0.0067255874164402485,0.10622285306453705,0.0,-0.00036792759783566,0.9013676643371582,0.0,-0.016121631488204002
228.0,189.0,2.7577,1.3884,9.1095,-0.033,0.0228,-0.1142,-1.748681207696432,0.0,2.91409969329834,-1.5378748178482056,-0.0,2.1772735118865967,4.4748498636433105,0.0,0.30165714025497437,-1.4585865179644983,-0.0,-0.020837072283029556,0.10619420558214188,0.0,0.0009706435375846922,0.9014400839805603,0.0,0.00275003956630826
228.0,189.0,2.7577,1.3884,9.1095,-0.033,0.0228,-0.1142,-1.7486854992308558,0.0,2.9658780097961426,-1.5379637479782104,-0.0,2.196714162826538,4.474781199092529,0.0,0.2856524586677551,-1.4585545698748987,-0.0,-0.013513600453734398,0.10620226711034775,0.0,-0.000968641834333539,0.901416003704071,0.0,-0.002323715016245842
228.0,189.0,2.7577,1.3884,9.1095,-0.033,0.0228,-0.1142,-1.7486731014647425,0.0,2.9089720249176025,-1.5379512310028076,-0.0,2.220686912536621,4.4748498636433105,0.0,0.2902829349040985,-1.458545986806051,-0.0,-0.01899893209338188,0.1061941608786583,0.0,-0.002349386690184474,0.9014480113983154,0.0,0.01692783460021019
228.0,189.0,2.7577,1.3884,9.1095,-0.033,0.0228,-0.1142,-1.7486735783019007,0.0,2.9651663303375244,-1.5379555225372314,-0.0,2.198878765106201,4.474801226253174,0.0,0.2875238358974457,-1.4585545698748987,-0.0,-0.02377162128686905,0.1062106266617775,0.0,-0.005419507157057524,0.901416003704071,0.0,0.058248333632946014
228.0,189.0,2.7577,1.3884,9.1095,-0.033,0.0228,-0.1142,-1.7486287556090296,0.0,2.968076467514038,-1.5379514694213867,-0.0,2.217099666595459,4.474829359645508,0.0,0.30111414194107056,-1.4585421721087855,-0.0,-0.029525181278586388,0.10615403205156326,0.0,-0.002204530406743288,0.9014360308647156,0.0,0.003259361255913973
228.0,189.0,2.7577,1.3884,9.1095,-0.033,0.0228,-0.1142,-1.748681207696432,0.0,2.9748477935791016,-1.5379915237426758,-0.0,2.194793462753296,4.474866076106689,0.0,0.29789263010025024,-1.458545986806051,-0.0,-0.026259366422891617,0.10617409646511078,0.0,0.003541997168213129,0.9013955593109131,0.0,0.006754517089575529
228.0,189.0,2.7577,1.3884,9.1095,-0.033,0.0228,-0.1142,-1.748697420159811,0.0,2.9585726261138916,-1.537987470626831,-0.0,2.2020263671875,4.474825068111084,0.0,0.29249507188796997,-1.4585345427142542,-0.0,-0.02509451098740101,0.10615802556276321,0.0,-0.007380428723990917,0.9013877511024475,0.0,-0.008449815213680267
228.0,189.0,2.7577,1.3884,9.1095,-0.033,0.0228,-0.1142,-1.7486854992308558,0.0,2.9263453483581543,-1.5379234552383423,-0.0,2.1456098556518555,4.474797411555908,0.0,0.28149741888046265,-1.4585383574115198,-0.0,-0.01181268971413374,0.10617780685424805,0.0,0.000834811246022582,0.9013593792915344,0.0,0.009979783557355404
228.0,189.0,2.7577,1.3884,9.1095,-0.033,0.0228,-0.1142,-1.7487017116942347,0.0,2.9317147731781006,-1.537951111793518,-0.0,2.142116069793701,4.474866076106689,0.0,0.2875487208366394,-1.4585183302508753,-0.0,-0.02653805911540985,0.1061740517616272,0.0,-0.006975575815886259,0.9014037251472473,0.0,0.00550828967243433
228.0,189.0,2.7577,1.3884,9.1095,-0.033,0.0228,-0.1142,-1.7486897907652796,0.0,2.905674457550049,-1.5379993915557861,-0.0,2.164243698120117,4.4747816759296875,0.0,0.2855282127857208,-1.4585421721087855,-0.0,-0.020159967243671417,0.1062425747513771,0.0,-0.008683305233716965,0.9013713598251343,0.0,-0.007394381333142519
228.0,189.0,2.7577,1.3884,9.1095,-0.033,0.0228,-0.1142,-1.7487050495543421,0.0,2.941410541534424,-1.5380038022994995,-0.0,2.1266653537750244,4.474817915553711,0.0,0.28591620922088623,-1.4585307280169886,-0.0,-0.019481424242258072,0.1061982661485672,0.0,-0.004250979050993919,0.9013955593109131,0.0,-0.025058269500732422
228.0,189.0,2.7577,1.3884,9.1095,-0.033,0.0228,-0.1142,-1.7486568890013636,0.0,2.9502878189086914,-1.5379834175109863,-0.0,2.193631887435913,4.474833174342773,0.0,0.2858427166938782,-1.4585745970355433,-0.0,-0.0119185671210289,0.1062266007065773,0.0,-0.0014705691719427705,0.9014036059379578,0.0,0.0031775720417499542
228.0,189.0,2.7577,1.3884,9.1095,-0.033,0.0228,-0.1142,-1.748681207696432,0.0,2.919839382171631,-1.5379514694213867,-0.0,2.181427478790283,4.474789305324219,0.0,0.28113850951194763,-1.458578888569967,-0.0,-0.018763385713100433,0.10619010031223297,0.0,-0.007572822738438845,0.9014118909835815,0.0,0.03162486478686333
236.0,189.0,2.936,1.4327,8.7206,-0.0315,0.0267,-0.1133,-1.7486893139281214,0.0,2.944042205810547,-1.537975549697876,-0.0,2.1788229942321777,4.474809809322021,0.0,0.2866818904876709,-1.458526913319723,-0.0,-0.03070797584950924,0.10620234161615372,0.0,-0.010530433617532253,0.9013996124267578,0.0,-0.005473637953400612
236.0,189.0,2.936,1.4327,8.7206,-0.0315,0.0267,-0.1133,-1.7486854992308558,0.0,2.937617778778076,-1.5379555225372314,-0.0,2.2085580825805664,4.474813624019287,0.0,0.3008933663368225,-1.4585421721087855,-0.0,-0.011880389414727688,0.10622236132621765,0.0,-0.015742987394332886,0.9013913869857788,0.0,-0.0069226911291480064
236.0,189.0,2.936,1.4327,8.7206,-0.0315,0.0267,-0.1133,-1.7486535511412562,0.0,2.99745512008667,-1.537987470626831,-0.0,2.209230899810791,4.474813624019287,0.0,0.2944926619529724,-1.4585145155536097,-0.0,-0.025153623893857002,0.10623433440923691,0.0,-0.007806139532476664,0.9013795256614685,0.0,0.003508105408400297
236.0,189.0,2.936,1.4327,8.7206,-0.0315,0.0267,-0.1133,-1.7486773929991664,0.0,2.946303367614746,-1.537987470626831,-0.0,2.176008939743042,4.474801226253174,0.0,0.28990477323532104,-1.458550278340475,-0.0,-0.02398170344531536,0.10618992894887924,0.0,-0.007483752444386482,0.9014077186584473,0.0,0.02236413210630417
236.0,189.0,2.936,1.4327,8.7206,-0.0315,0.0267,-0.1133,-1.748726030389303,0.0,2.933746337890625,-1.53799569606781,-0.0,2.182512044906616,4.474781199092529,0.0,0.281610369682312,-1.4585626761065882,-0.0,-0.02105868235230446,0.10620640963315964,0.0,-0.005869145505130291,0.9013955593109131,0.0,-0.005305598955601454
236.0,189.0,2.936,1.4327,8.7206,-0.0315,0.0267,-0.1133,-1.7487174473204554,0.0,2.9274606704711914,-1.537975549697876,-0.0,2.1282386779785156,4.474813624019287,0.0,0.2903161942958832,-1.4585102240191858,-0.0,-0.017726272344589233,0.10628259927034378,0.0,-0.003883285913616419,0.9013512134552002,0.0,0.014465968124568462
236.0,189.0,2.936,1.4327,8.7206,-0.0315,0.0267,-0.1133,-1.7487136326231898,0.0,2.896872043609619,-1.5379759073257446,-0.0,2.202237844467163,4.474809809322021,0.0,0.29538655281066895,-1.4585784117328089,-0.0,-0.025107400491833687,0.1061982810497284,0.0,-0.009186583571135998,0.9013996720314026,0.0,-0.009271609596908092
236.0,189.0,2.936,1.4327,8.7206,-0.0315,0.0267,-0.1133,-1.748697896996969,0.0,2.922837734222412,-1.5379714965820312,-0.0,2.1890182495117188,4.474805517787598,0.0,0.27781742811203003,-1.4585307280169886,-0.0,-0.01749296300113201,0.10618599504232407,0.0,-0.007006779778748751,0.9014241695404053,0.0,-0.010981300845742226
236.0,189.0,2.936,1.4327,8.7206,-0.0315,0.0267,-0.1133,-1.7486897907652796,0.0,2.9179821014404297,-1.537987470626831,-0.0,2.149168014526367,4.474813624019287,0.0,0.285290390253067,-1.4585583845721644,-0.0,-0.01230313628911972,0.10620231926441193,0.0,-0.007922112010419369,0.9014480113983154,0.0,-0.010722086764872074
236.0,189.0,2.936,1.4327,8.7206,-0.0315,0.0267,-0.1133,-1.7487012348570765,0.0,2.9509596824645996,-1.537955403327942,-0.0,2.1899592876434326,4.474822207088135,0.0,0.29511338472366333,-1.458550755177633,-0.0,-0.007999786175787449,0.10619831085205078,0.0,-0.005071056075394154,0.9014319777488708,0.0,-0.006092159077525139
236.0,189.0,2.936,1.4327,8.7206,-0.0315,0.0267,-0.1133,-1.7487336597838343,0.0,2.991874933242798,-1.5378955602645874,-0.0,2.1678314208984375,4.474846048946045,0.0,0.2896629571914673,-1.4585383574115198,-0.0,-0.020872198045253754,0.10619831085205078,0.0,0.004555473104119301,0.9013635516166687,0.0,0.0063704499043524265
236.0,189.0,2.936,1.4327,8.7206,-0.0315,0.0267,-0.1133,-1.7486731014647425,0.0,2.9193294048309326,-1.5379234552383423,-0.0,2.1928069591522217,4.474813624019287,0.0,0.28001639246940613,-1.458545986806051,-0.0,-0.018620694056153297,0.1062343642115593,0.0,-0.008186465129256248,0.9013913869857788,0.0,0.023736659437417984
236.0,189.0,2.936,1.4327,8.7206,-0.0315,0.0267,-0.1133,-1.7486854992308558,0.0,2.9270262718200684,-1.5379674434661865,-0.0,2.2001419067382812,4.474817915553711,0.0,0.28652825951576233,-1.458494011555807,-0.0,-0.018744422122836113,0.10624666512012482,0.0,0.007169982418417931,0.9013713002204895,0.0,0.0422002337872982
235.0,189.0,2.8463,1.4016,8.9563,-0.0316,0.0215,-0.1161,-1.748641153375143,0.0,2.9688024520874023,-1.5379234552383423,-0.0,2.2042641639709473,4.474822207088135,0.0,0.2840884029865265,-1.4585421721087855,-0.0,-0.020076103508472443,0.10615813732147217,0.0,0.0009553013369441032,0.9013758301734924,0.0,-0.022663211449980736
235.0,189.0,2.8463,1.4016,8.9563,-0.0316,0.0215,-0.1161,-1.7486492596068324,0.0,2.917931079864502,-1.5379674434661865,-0.0,2.162447929382324,4.474773569697998,0.0,0.2815459072589874,-1.4585421721087855,-0.0,-0.022263042628765106,0.10624219477176666,0.0,0.00041310815140604973,0.9013913869857788,0.0,-0.03791116923093796
235.0,189.0,2.8463,1.4016,8.9563,-0.0316,0.0215,-0.1161,-1.7486854992308558,0.0,2.996619462966919,-1.5379555225372314,-0.0,2.1473641395568848,4.474817915553711,0.0,0.2781750559806824,-1.4585545698748987,-0.0,-0.02827652171254158,0.10624261200428009,0.0,0.0006095718126744032,0.9014279246330261,0.0,0.004571331199258566
235.0,189.0,2.8463,1.4016,8.9563,-0.0316,0.0215,-0.1161,-1.748697896996969,0.0,2.9532158374786377,-1.5379953384399414,-0.0,2.2154040336608887,4.474801226253174,0.0,0.29533225297927856,-1.4585307280169886,-0.0,-0.025912830606102943,0.10618199408054352,0.0,-0.005683691240847111,0.9013873338699341,0.0,0.016952432692050934
235.0,189.0,2.8463,1.4016,8.9563,-0.0316,0.0215,-0.1161,-1.7486325703062953,0.0,2.9505157470703125,-1.5379514694213867,-0.0,2.2220263481140137,4.474789305324219,0.0,0.2845110595226288,-1.4585583845721644,-0.0,-0.022124864161014557,0.10619010776281357,0.0,-0.01644197106361389,0.9013996124267578,0.0,0.019131185486912727
235.0,189.0,2.8463,1.4016,8.9563,-0.0316,0.0215,-0.1161,-1.7487174473204554,0.0,2.9244399070739746,-1.5380319356918335,-0.0,2.159787654876709,4.474797411555908,0.0,0.2824660539627075,-1.4585784117328089,-0.0,-0.01594529114663601,0.10619428753852844,0.0,0.002048197668045759,0.9013753533363342,0.0,-0.009757477790117264
235.0,189.0,2.8463,1.4016,8.9563,-0.0316,0.0215,-0.1161,-1.748669286767477,0.0,2.9547624588012695,-1.5379512310028076,-0.0,2.1605448722839355,4.474793120021484,0.0,0.2841797173023224,-1.4585421721087855,-0.0,-0.022721800953149796,0.10623467713594437,0.0,0.002383444458246231,0.9013955593109131,0.0,0.020551111549139023
235.0,189.0,2.8463,1.4016,8.9563,-0.0316,0.0215,-0.1161,-1.7486535511412562,0.0,2.9196712970733643,-1.53799569606781,-0.0,2.1840555667877197,4.474813624019287,0.0,0.28520360589027405,-1.4585784117328089,-0.0,-0.015362951904535294,0.10623025894165039,0.0,-0.0015936188865453005,0.9013635516166687,0.0,0.029225192964076996
235.0,189.0,2.8463,1.4016,8.9563,-0.0316,0.0215,-0.1161,-1.7486897907652796,0.0,2.9752256870269775,-1.538023591041565,-0.0,2.1619558334350586,4.474822207088135,0.0,0.29224681854248047,-1.4585664908038538,-0.0,-0.025342874228954315,0.10618604719638824,0.0,0.0032211937941610813,0.9013753533363342,0.0,0.02618599869310856
235.0,189.0,2.8463,1.4016,8.9563,-0.0316,0.0215,-0.1161,-1.7487174473204554,0.0,2.89414644241333,-1.5379430055618286,-0.0,2.215609312057495,4.4748498636433105,0.0,0.28238585591316223,-1.458550278340475,-0.0,-0.027513939887285233,0.10621056705713272,0.0,-0.006081291940063238,0.9014118909835815,0.0,-0.0016984324902296066
235.0,189.0,2.8463,1.4016,8.9563,-0.0316,0.0215,-0.1161,-1.7486893139281214,0.0,2.922842502593994,-1.5379348993301392,-0.0,2.1966521739959717,4.474853678340576,0.0,0.28236615657806396,-1.458590332661764,-0.0,-0.018330417573451996,0.10628703981637955,0.0,0.0071661025285720825,0.9014077186584473,0.0,0.012551341205835342
235.0,189.0,2.8463,1.4016,8.9563,-0.0316,0.0215,-0.1161,-1.7486897907652796,0.0,2.946319818496704,-1.5379678010940552,-0.0,2.1703054904937744,4.474822207088135,0.0,0.2861863076686859,-1.4585464636432093,-0.0,-0.011469747871160507,0.10619419068098068,0.0,0.0008545953314751387,0.9014237523078918,0.0,-0.02769920974969864
235.0,189.0,2.8463,1.4016,8.9563,-0.0316,0.0215,-0.1161,-1.748669286767477,0.0,2.93595814704895,-1.5379389524459839,-0.0,2.143780469894409,4.474833651179932,0.0,0.29219573736190796,-1.458526913319723,-0.0,-0.01845463365316391,0.10621865838766098,0.0,-0.01352287270128727,0.9014237523078918,0.0,-0.004961238242685795
235.0,189.0,2.8463,1.4016,8.9563,-0.0316,0.0215,-0.1161,-1.7487298450865687,0.0,2.9168813228607178,-1.5379430055618286,-0.0,2.1981124877929688,4.4748498636433105,0.0,0.29213494062423706,-1.4585583845721644,-0.0,-0.030622687190771103,0.10619015246629715,0.0,-0.0005766405374743044,0.9013795256614685,0.0,-0.024259399622678757
232.0,187.0,2.8116,1.3663,9.006,-0.0376,0.0267,-0.122,-1.7486936054625453,0.0,2.939824104309082,-1.5379389524459839,-0.0,2.188776969909668,4.474861784572266,0.0,0.29037389159202576,-1.458526913319723,-0.0,-0.017297253012657166,0.10620638728141785,0.0,-0.019708797335624695,0.9014077186584473,0.0,0.03696839511394501
232.0,187.0,2.8116,1.3663,9.006,-0.0376,0.0267,-0.122,-1.748681207696432,0.0,2.965946674346924,-1.5379637479782104,-0.0,2.1343765258789062,4.474817915553711,0.0,0.2788480222225189,-1.458534065877096,-0.0,-0.0223770160228014,0.10617410391569138,0.0,-0.013624312356114388,0.9014196395874023,0.0,0.049713134765625
232.0,187.0,2.8116,1.3663,9.006,-0.0376,0.0267,-0.122,-1.7487017116942347,0.0,2.9598805904388428,-1.5379512310028076,-0.0,2.196682929992676,4.474822207088135,0.0,0.29118016362190247,-1.458578888569967,-0.0,-0.028596751391887665,0.10618235170841217,0.0,-0.010878829285502434,0.9014237523078918,0.0,-0.009356087073683739
232.0,187.0,2.8116,1.3663,9.006,-0.0376,0.0267,-0.122,-1.7486731014647425,0.0,2.8576879501342773,-1.5379993915557861,-0.0,2.196751117706299,4.474805517787598,0.0,0.2975946366786957,-1.4585145155536097,-0.0,-0.02669602818787098,0.10617010295391083,0.0,-0.0027700099162757397,0.9014241695404053,0.0,-0.018489863723516464
232.0,187.0,2.8116,1.3663,9.006,-0.0376,0.0267,-0.122,-1.748714109460348,0.0,2.9686646461486816,-1.537987470626831,-0.0,2.134739398956299,4.474813624019287,0.0,0.28442901372909546,-1.4585707823382776,-0.0,-0.017845088616013527,0.10617005079984665,0.0,0.00022995751351118088,0.9013955593109131,0.0,-0.004223214462399483
232.0,187.0,2.8116,1.3663,9.006,-0.0376,0.0267,-0.122,-1.7487174473204554,0.0,2.9526143074035645,-1.537935733795166,-0.0,2.1820993423461914,4.4748260217854,0.0,0.28574544191360474,-1.4585421721087855,-0.0,-0.022273030132055283,0.10621833801269531,0.0,0.009338632225990295,0.9013392925262451,0.0,-0.020622096955776215
232.0,187.0,2.8116,1.3663,9.006,-0.0376,0.0267,-0.122,-1.7486325703062953,0.0,2.9385643005371094,-1.537927508354187,-0.0,2.104447841644287,4.474777384395264,0.0,0.29149648547172546,-1.458545986806051,-0.0,-0.030763469636440277,0.10620640218257904,0.0,-0.008717970922589302,0.9014241695404053,0.0,-0.019303007051348686
232.0,187.0,2.8116,1.3663,9.006,-0.0376,0.0267,-0.122,-1.7487174473204554,0.0,2.957656145095825,-1.5379714965820312,-0.0,2.1835556030273438,4.474841757411621,0.0,0.28681957721710205,-1.4585064093219202,-0.0,-0.009660483337938786,0.10626281052827835,0.0,0.007846033200621605,0.9013676047325134,0.0,0.0013283416628837585
232.0,187.0,2.8116,1.3663,9.006,-0.0376,0.0267,-0.122,-1.7487465343871058,0.0,2.916578531265259,-1.5379555225372314,-0.0,2.2041869163513184,4.474837465877197,0.0,0.29798251390457153,-1.4585583845721644,-0.0,-0.023914199322462082,0.10620234161615372,0.0,-0.0055621955543756485,0.9013635516166687,0.0,-0.025199126452207565
232.0,187.0,2.8116,1.3663,9.006,-0.0376,0.0267,-0.122,-1.7487055263915003,0.0,2.918653726577759,-1.5379797220230103,-0.0,2.2194323539733887,4.474813624019287,0.0,0.27972352504730225,-1.4585583845721644,-0.0,-0.023583829402923584,0.1062343493103981,0.0,0.00722926203161478,0.901407778263092,0.0,-0.007958825677633286
232.0,187.0,2.8116,1.3663,9.006,-0.0376,0.0267,-0.122,-1.748697420159811,0.0,2.995811939239502,-1.537947177886963,-0.0,2.198307514190674,4.474805517787598,0.0,0.2904376983642578,-1.458526913319723,-0.0,-0.033701732754707336,0.106254443526268,0.0,0.0061233993619680405,0.9014241695404053,0.0,-0.016415957361459732
232.0,187.0,2.8116,1.3663,9.006,-0.0376,0.0267,-0.122,-1.7487174473204554,0.0,2.9198460578918457,-1.5379555225372314,-0.0,2.155581474304199,4.474797411555908,0.0,0.28254443407058716,-1.4585145155536097,-0.0,-0.012739407829940319,0.106190025806427,0.0,-0.007092589978128672,0.9013713002204895,0.0,0.009953849948942661
232.0,187.0,2.8116,1.3663,9.006,-0.0376,0.0267,-0.122,-1.7486535511412562,0.0,2.935617208480835,-1.537927508354187,-0.0,2.1485848426818848,4.474817915553711,0.0,0.2868388891220093,-1.458545986806051,-0.0,-0.017926935106515884,0.1062302440404892,0.0,-0.005497065372765064,0.9013996720314026,0.0,-0.00753443269059062
233.0,187.0,2.7787,1.4064,8.933,-0.0379,0.0287,-0.1184,-1.7486449680724085,0.0,2.9517364501953125,-1.537947177886963,-0.0,2.213841438293457,4.474769278163574,0.0,0.29538944363594055,-1.458590332661764,-0.0,-0.01769641973078251,0.10619822144508362,0.0,0.0015634270384907722,0.9013676643371582,0.0,0.0034721321426331997
233.0,187.0,2.7787,1.4064,8.933,-0.0379,0.0287,-0.1184,-1.7487136326231898,0.0,2.950880289077759,-1.5379595756530762,-0.0,2.1486990451812744,4.474801226253174,0.0,0.2962048649787903,-1.4585102240191858,-0.0,-0.016383042559027672,0.1062426045536995,0.0,0.00010441220365464687,0.9014200568199158,0.0,0.02622532844543457
233.0,187.0,2.7787,1.4064,8.933,-0.0379,0.0287,-0.1184,-1.748697420159811,0.0,2.9602560997009277,-1.5379714965820312,-0.0,2.1920013427734375,4.474846048946045,0.0,0.2791043519973755,-1.458550278340475,-0.0,-0.03055499866604805,0.10616599023342133,0.0,-0.005166398361325264,0.9014159440994263,0.0,-0.0009036872652359307
233.0,187.0,2.7787,1.4064,8.933,-0.0379,0.0287,-0.1184,-1.748709341088766,0.0,2.9756712913513184,-1.5379633903503418,-0.0,2.1648974418640137,4.474777384395264,0.0,0.28754281997680664,-1.4585383574115198,-0.0,-0.0243525430560112,0.10622242838144302,0.0,0.00853575300425291,0.9013876914978027,0.0,0.02718120440840721
233.0,187.0,2.7787,1.4064,8.933,-0.0379,0.0287,-0.1184,-1.7486568890013636,0.0,2.91656494140625,-1.5379430055618286,-0.0,2.1767401695251465,4.474857969875,0.0,0.28901949524879456,-1.4585307280169886,-0.0,-0.02192315086722374,0.10621056705713272,0.0,-0.0031938760075718164,0.9013676047325134,0.0,-0.0015213697915896773
233.0,187.0,2.7787,1.4064,8.933,-0.0379,0.0287,-0.1184,-1.748681207696432,0.0,2.8833093643188477,-1.5379595756530762,-0.0,2.158285140991211,4.474817915553711,0.0,0.2957017719745636,-1.4585183302508753,-0.0,-0.029542788863182068,0.10612954944372177,0.0,-0.013743849471211433,0.9013753533363342,0.0,-0.01258823275566101
233.0,187.0,2.7787,1.4064,8.933,-0.0379,0.0287,-0.1184,-1.748709341088766,0.0,2.912163496017456,-1.5379595756530762,-0.0,2.2008538246154785,4.474817915553711,0.0,0.2870427668094635,-1.4585707823382776,-0.0,-0.025084959343075752,0.10619425773620605,0.0,0.007815185002982616,0.9013635516166687,0.0,-0.03583801910281181
233.0,187.0,2.7787,1.4064,8.933,-0.0379,0.0287,-0.1184,-1.7486893139281214,0.0,2.9068856239318848,-1.537975549697876,-0.0,2.1989963054656982,4.474809809322021,0.0,0.2804357707500458,-1.458534065877096,-0.0,-0.027974655851721764,0.10621064901351929,0.0,-0.006179054267704487,0.9014037251472473,0.0,0.029850473627448082
233.0,187.0,2.7787,1.4064,8.933,-0.0379,0.0287,-0.1184,-1.748697420159811,0.0,2.924622058868408,-1.5379514694213867,-0.0,2.1801936626434326,4.474805517787598,0.0,0.2943701148033142,-1.4585350195514124,-0.0,-0.03187733516097069,0.10619012266397476,0.0,0.008588616736233234,0.9013713002204895,0.0,-0.01681382581591606
233.0,187.0,2.7787,1.4064,8.933,-0.0379,0.0287,-0.1184,-1.7486611805357875,0.0,2.9401745796203613,-1.5380076169967651,-0.0,2.1728622913360596,4.474801703090332,0.0,0.2986566722393036,-1.4585188070880335,-0.0,-0.02345314249396324,0.1062503308057785,0.0,-0.012496830895543098,0.9013876914978027,0.0,-0.0314842127263546
233.0,187.0,2.7787,1.4064,8.933,-0.0379,0.0287,-0.1184,-1.7486535511412562,0.0,2.9556398391723633,-1.5379633903503418,-0.0,2.1996283531188965,4.474837465877197,0.0,0.2889679968357086,-1.4585226217852991,-0.0,-0.019395161420106888,0.10617402195930481,0.0,-0.010513650253415108,0.9013634920120239,0.0,-0.0025291601195931435
233.0,187.0,2.7787,1.4064,8.933,-0.0379,0.0287,-0.1184,-1.748709341088766,0.0,2.9279935359954834,-1.5379834175109863,-0.0,2.1956868171691895,4.474822207088135,0.0,0.3010439872741699,-1.4585383574115198,-0.0,-0.014822942204773426,0.10619007796049118,0.0,-0.008970788680016994,0.9013553261756897,0.0,0.0025397022254765034
233.0,187.0,2.7787,1.4064,8.933,-0.0379,0.0287,-0.1184,-1.7487136326231898,0.0,2.9781479835510254,-1.53799569606781,-0.0,2.1776986122131348,4.474797411555908,0.0,0.2858666181564331,-1.458534065877096,-0.0,-0.014198708347976208,0.1062183678150177,0.0,-0.0009052027016878128,0.901407778263092,0.0,-0.024416375905275345
230.0,195.0,2.7966,1.3334,8.9539,-0.0365,0.0176,-0.113,-1.748681207696432,0.0,2.9424819946289062,-1.5379389524459839,-0.0,2.121211290359497,4.474801226253174,0.0,0.28704023361206055,-1.4585707823382776,-0.0,-0.034944552928209305,0.10623065382242203,0.0,0.004203685559332371,0.9014036059379578,0.0,-0.009052328765392303
230.0,195.0,2.7966,1.3334,8.9539,-0.0365,0.0176,-0.113,-1.7486611805357875,0.0,2.9647574424743652,-1.5379152297973633,-0.0,2.1637511253356934,4.474837465877197,0.0,0.29527246952056885,-1.458545986806051,-0.0,-0.030087143182754517,0.106230728328228,0.0,-0.006109943147748709,0.9014037251472473,0.0,-0.010752207599580288
230.0,195.0,2.7966,1.3334,8.9539,-0.0365,0.0176,-0.113,-1.7486854992308558,0.0,2.94716215133667,-1.537975549697876,-0.0,2.2531023025512695,4.474841757411621,0.0,0.2978781461715698,-1.458550278340475,-0.0,-0.026745418086647987,0.10622657835483551,0.0,-0.004143927711993456,0.9013594388961792,0.0,-0.0011569471098482609
230.0,195.0,2.7966,1.3334,8.9539,-0.0365,0.0176,-0.113,-1.7486287556090296,0.0,2.966571807861328,-1.5379389524459839,-0.0,2.1824254989624023,4.474805517787598,0.0,0.29507777094841003,-1.4585707823382776,-0.0,-0.01947006583213806,0.10621833801269531,0.0,0.004820284899324179,0.9013636112213135,0.0,-0.022006429731845856
230.0,195.0,2.7966,1.3334,8.9539,-0.0365,0.0176,-0.113,-1.7487017116942347,0.0,2.963305950164795,-1.5379674434661865,-0.0,2.1628153324127197,4.474817915553711,0.0,0.30015450716018677,-1.4585583845721644,-0.0,-0.026624850928783417,0.10621833801269531,0.0,-0.0029410086572170258,0.9013516902923584,0.0,0.00972563773393631
230.0,195.0,2.7966,1.3334,8.9539,-0.0365,0.0176,-0.113,-1.7486893139281214,0.0,2.934558391571045,-1.5379555225372314,-0.0,2.2027242183685303,4.474769278163574,0.0,0.29367172718048096,-1.458534065877096,-0.0,-0.017418935894966125,0.10617002099752426,0.0,-0.01221446506679058,0.9013753533363342,0.0,5.1291659474372864e-05
230.0,195.0,2.7966,1.3334,8.9539,-0.0365,0.0176,-0.113,-1.7487136326231898,0.0,2.953362464904785,-1.5379029512405396,-0.0,2.2092337608337402,4.474781199092529,0.0,0.29363498091697693,-1.4585664908038538,-0.0,-0.021992851048707962,0.10621833801269531,0.0,-0.014583448879420757,0.9013955593109131,0.0,0.001892552594654262
230.0,195.0,2.7966,1.3334,8.9539,-0.0365,0.0176,-0.113,-1.7486893139281214,0.0,2.9284310340881348,-1.537987470626831,-0.0,2.1903562545776367,4.474817915553711,0.0,0.2902165651321411,-1.4585583845721644,-0.0,-0.029562681913375854,0.10628679394721985,0.0,-0.005719415843486786,0.9014319777488708,0.0,-0.02211439050734043
230.0,195.0,2.7966,1.3334,8.9539,-0.0365,0.0176,-0.113,-1.7487217388548792,0.0,2.93888521194458,-1.5379430055618286,-0.0,2.1954879760742188,4.474817915553711,0.0,0.30244138836860657,-1.4585908094989222,-0.0,-0.03611483797430992,0.10622616857290268,0.0,0.0020841078367084265,0.9013996720314026,0.0,-0.005800004117190838
230.0,195.0,2.7966,1.3334,8.9539,-0.0365,0.0176,-0.113,-1.7486897907652796,0.0,2.968445301055908,-1.5379678010940552,-0.0,2.155442237854004,4.4748260217854,0.0,0.2869882583618164,-1.458534065877096,-0.0,-0.026630086824297905,0.10624666512012482,0.0,0.0014317776076495647,0.9014118909835815,0.0,0.015520909801125526
230.0,195.0,2.7966,1.3334,8.9539,-0.0365,0.0176,-0.113,-1.748681207696432,0.0,2.945099353790283,-1.5379797220230103,-0.0,2.203845977783203,4.474813624019287,0.0,0.2955087423324585,-1.458590332661764,-0.0,-0.017721645534038544,0.10626668483018875,0.0,-0.010294700972735882,0.9013996720314026,0.0,-0.017664436250925064
230.0,195.0,2.7966,1.3334,8.9539,-0.0365,0.0176,-0.113,-1.7486492596068324,0.0,2.951138496398926,-1.5379555225372314,-0.0,2.1873302459716797,4.474817915553711,0.0,0.28992941975593567,-1.4585421721087855,-0.0,-0.023382518440485,0.10620640218257904,0.0,0.004146276973187923,0.9014119505882263,0.0,-0.031084967777132988
230.0,195.0,2.7966,1.3334,8.9539,-0.0365,0.0176,-0.113,-1.7486854992308558,0.0,2.895397663116455,-1.5379194021224976,-0.0,2.160670518875122,4.474822207088135,0.0,0.280744731426239,-1.4585302511798304,-0.0,-0.021581392735242844,0.10625442862510681,0.0,0.0066472003236413,0.9014356136322021,0.0,0.009180540218949318
230.0,195.0,2.7966,1.3334,8.9539,-0.0365,0.0176,-0.113,-1.748709341088766,0.0,2.918084144592285,-1.537983775138855,-0.0,2.1900341510772705,4.474822207088135,0.0,0.2884756028652191,-1.458526913319723,-0.0,-0.03160117566585541,0.10620236396789551,0.0,-0.006502874661237001,0.9014279246330261,0.0,0.013514148071408272
234.0,192.0,2.8516,1.3866,8.8421,-0.0327,0.0247,-0.1255,-1.7486897907652796,0.0,2.914543390274048,-1.5379153490066528,-0.0,2.1867332458496094,4.474797411555908,0.0,0.28612008690834045,-1.4585583845721644,-0.0,-0.015449916943907738,0.10618193447589874,0.0,0.0012397600803524256,0.9013913869857788,0.0,0.008885110728442669
234.0,192.0,2.8516,1.3866,8.8421,-0.0327,0.0247,-0.1255,-1.7487174473204554,0.0,2.96195650100708,-1.537975549697876,-0.0,2.1926612854003906,4.474793120021484,0.0,0.29779481887817383,-1.4585383574115198,-0.0,-0.03674772381782532,0.10627073049545288,0.0,-0.007505475077778101,0.9013676047325134,0.0,-0.01354600116610527
234.0,192.0,2.8516,1.3866,8.8421,-0.0327,0.0247,-0.1255,-1.748669286767477,0.0,2.973705768585205,-1.537959337234497,-0.0,2.1501731872558594,4.474785490626953,0.0,0.28181886672973633,-1.4585383574115198,-0.0,-0.031541455537080765,0.10616594552993774,0.0,-0.010464348830282688,0.901375412940979,0.0,0.001513168215751648
234.0,192.0,2.8516,1.3866,8.8421,-0.0327,0.0247,-0.1255,-1.7487174473204554,0.0,2.947585105895996,-1.537947177886963,-0.0,2.1798064708709717,4.474822207088135,0.0,0.28849726915359497,-1.458545986806051,-0.0,-0.019400449469685555,0.10623066127300262,0.0,-0.006664716638624668,0.9013676643371582,0.0,0.0014970945194363594
234.0,192.0,2.8516,1.3866,8.8421,-0.0327,0.0247,-0.1255,-1.7486854992308558,0.0,2.9541306495666504,-1.5378988981246948,-0.0,2.2095861434936523,4.474833651179932,0.0,0.30115532875061035,-1.4585545698748987,-0.0,-0.023969708010554314,0.1062302440404892,0.0,0.008067537099123001,0.9013913869857788,0.0,-0.028915856033563614
234.0,192.0,2.8516,1.3866,8.8421,-0.0327,0.0247,-0.1255,-1.748697420159811,0.0,2.958193302154541,-1.5379915237426758,-0.0,2.2071661949157715,4.474833174342773,0.0,0.2878049612045288,-1.458550278340475,-0.0,-0.011481978930532932,0.10620240867137909,0.0,-9.378301911056042e-06,0.9014118909835815,0.0,-0.03113654814660549
234.0,192.0,2.8516,1.3866,8.8421,-0.0327,0.0247,-0.1255,-1.748726030389303,0.0,2.929999351501465,-1.5379637479782104,-0.0,2.2433598041534424,4.474813624019287,0.0,0.2973947823047638,-1.4585545698748987,-0.0,-0.014738364145159721,0.10621019452810287,0.0,-0.007264965213835239,0.9013635516166687,0.0,0.026398953050374985
234.0,192.0,2.8516,1.3866,8.8421,-0.0327,0.0247,-0.1255,-1.7486854992308558,0.0,2.911064624786377,-1.5379555225372314,-0.0,2.2058701515197754,4.474785490626953,0.0,0.2860305905342102,-1.4585545698748987,-0.0,-0.011287208646535873,0.10620641708374023,0.0,-0.01078871451318264,0.9013795256614685,0.0,-0.010125992819666862
234.0,192.0,2.8516,1.3866,8.8421,-0.0327,0.0247,-0.1255,-1.7486773929991664,0.0,2.9528913497924805,-1.537975549697876,-0.0,2.181562662124634,4.474773569697998,0.0,0.28186628222465515,-1.458550278340475,-0.0,-0.014110319316387177,0.1061982661485672,0.0,-4.735286347568035e-05,0.9014159440994263,0.0,0.012160607613623142
234.0,192.0,2.8516,1.3866,8.8421,-0.0327,0.0247,-0.1255,-1.7486778698363246,0.0,2.9198696613311768,-1.5379514694213867,-0.0,2.1568424701690674,4.474809809322021,0.0,0.2885829210281372,-1.4585707823382776,-0.0,-0.016083326190710068,0.10619823634624481,0.0,0.0017787355463951826,0.9014036059379578,0.0,-0.0024264976382255554
234.0,192.0,2.8516,1.3866,8.8421,-0.0327,0.0247,-0.1255,-1.748693128625387,0.0,2.907848834991455,-1.5379911661148071,-0.0,2.1423728466033936,4.474813624019287,0.0,0.28042569756507874,-1.4585297743426722,-0.0,-0.02170216105878353,0.1062343493103981,0.0,0.0024618743918836117,0.9013913869857788,0.0,-0.01366819255053997
234.0,192.0,2.8516,1.3866,8.8421,-0.0327,0.0247,-0.1255,-1.7486654720702113,0.0,2.967928886413574,-1.5379915237426758,-0.0,2.195201873779297,4.474817915553711,0.0,0.2939460575580597,-1.458550278340475,-0.0,-0.012268494814634323,0.1062142625451088,0.0,-0.008910490199923515,0.9014279246330261,0.0,0.010912055149674416
234.0,192.0,2.8516,1.3866,8.8421,-0.0327,0.0247,-0.1255,-1.7486936054625453,0.0,2.935598373413086,-1.5379637479782104,-0.0,2.202143669128418,4.474822207088135,0.0,0.27795180678367615,-1.4585664908038538,-0.0,-0.019995324313640594,0.10614999383687973,0.0,-0.010012248530983925,0.9014360308647156,3.4263489823160853e-09,-0.01481073722243309
239.0,187.0,2.9085,1.3591,8.8044,-0.04,0.0189,-0.1193,-1.7486735783019007,0.0,2.960404396057129,-1.5379595756530762,-0.0,2.1913020610809326,4.474854155177734,0.0,0.28983545303344727,-1.4585664908038538,-0.0,-0.019113101065158844,0.1062023714184761,0.0,-0.010150996968150139,0.9014237523078918,1.1100935212284552e-16,-0.027074873447418213
239.0,187.0,2.9085,1.3591,8.8044,-0.04,0.0189,-0.1193,-1.748681207696432,0.0,2.955465793609619,-1.5379389524459839,-0.0,2.177619695663452,4.474805517787598,0.0,0.2969801723957062,-1.458534065877096,-0.0,-0.024753104895353317,0.10620641708374023,0.0,-0.01233135536313057,0.9014397263526917,2.680744993445493e-22,-0.0006501285824924707
239.0,187.0,2.9085,1.3591,8.8044,-0.04,0.0189,-0.1193,-1.7486773929991664,0.0,2.930058002471924,-1.53799569606781,-0.0,2.2040650844573975,4.4747935968586425,0.0,0.2963096499443054,-1.4585984388934534,-0.0,-0.02142980881035328,0.10623431205749512,0.0,-0.00539968628436327,0.9014236927032471,6.473683692554717e-28,-0.001849655993282795
239.0,187.0,2.9085,1.3591,8.8044,-0.04,0.0189,-0.1193,-1.748681207696432,0.0,2.9202117919921875,-1.5379512310028076,-0.0,2.2126662731170654,4.474837465877197,0.0,0.27484142780303955,-1.4585707823382776,-0.0,-0.0240450631827116,0.10622246563434601,0.0,0.0039063808508217335,0.9014279246330261,0.00034987350227311254,0.030185483396053314
239.0,187.0,2.9085,1.3591,8.8044,-0.04,0.0189,-0.1193,-1.748709341088766,0.0,2.9211487770080566,-1.537975549697876,-0.0,2.1964540481567383,4.474854155177734,0.0,0.2908405065536499,-1.4585464636432093,-0.0,-0.02742397040128708,0.1061418429017067,0.0,-0.010681351646780968,0.9014278650283813,0.00034198479261249304,-0.004011357668787241
239.0,187.0,2.9085,1.3591,8.8044,-0.04,0.0189,-0.1193,-1.7487341366209925,0.0,2.957148551940918,-1.5379997491836548,-0.0,2.143399953842163,4.474822207088135,0.0,0.2867918014526367,-1.4585626761065882,-0.0,-0.02732306718826294,0.10618598759174347,0.0,-0.003348645055666566,0.9013913869857788,0.00029408876434899867,0.02016875520348549
239.0,187.0,2.9085,1.3591,8.8044,-0.04,0.0189,-0.1193,-1.7487136326231898,0.0,2.9023265838623047,-1.5380034446716309,-0.0,2.149959087371826,4.4748260217854,1.092842968897223e-10,0.28451406955718994,-1.4585383574115198,-0.0,-0.018071629106998444,0.10616236180067062,0.0,0.001590879401192069,0.9014274477958679,0.0002832085592672229,-0.049160897731781006
239.0,187.0,2.9085,1.3591,8.8044,-0.04,0.0189,-0.1193,-1.7487174473204554,0.0,2.950077533721924,-1.5379514694213867,-0.0,2.157029151916504,4.474822207088135,3.041968735825566e-14,0.2844105362892151,-1.4586146513568323,-0.0,-0.01486861240118742,0.10622618347406387,0.0,-0.009239106439054012,0.9014077186584473,0.0002533205260988325,0.0120003130286932
239.0,187.0,2.9085,1.3591,8.8044,-0.04,0.0189,-0.1193,-1.7486611805357875,0.0,2.9293267726898193,-1.5379308462142944,-0.0,2.2120752334594727,4.474837465877197,5.528627577108554e-19,0.2835310101509094,-1.4585421721087855,-0.0,-0.03310433775186539,0.10623067617416382,0.0,-0.0009377292590215802,0.9014439582824707,0.00022206710127647966,0.01337113231420517
239.0,187.0,2.9085,1.3591,8.8044,-0.04,0.0189,-0.1193,-1.7486654720702113,0.0,2.934936046600342,-1.5379595756530762,-0.0,2.1776034832000732,4.474805517787598,1.5389138928729846e-22,0.29117339849472046,-1.4585545698748987,-0.0,-0.020448502153158188,0.10625851154327393,0.0,0.0010363543406128883,0.9013872742652893,0.00020325947843957692,0.013552815653383732
239.0,187.0,2.9085,1.3591,8.8044,-0.04,0.0189,-0.1193,-1.7487136326231898,0.0,2.9551708698272705,-1.5379514694213867,-0.0,2.173560619354248,4.4748217302509765,4.283623183724562e-26,0.3044756352901459,-1.4585984388934534,-0.0,-0.024135887622833252,0.10619836300611496,0.0,-0.008409436792135239,0.9013552665710449,0.000187389348866418,0.012988289818167686
239.0,187.0,2.9085,1.3591,8.8044,-0.04,0.0189,-0.1193,-1.7486773929991664,0.0,2.9289655685424805,-1.5379993915557861,-0.0,2.1477675437927246,4.474817915553711,7.785273224620292e-31,0.27623140811920166,-1.4585102240191858,-0.0,-0.027673644945025444,0.10620233416557312,0.0,-0.004771150648593903,0.9014237523078918,0.0001697204279480502,0.04071758687496185
239.0,187.0,2.9085,1.3591,8.8044,-0.04,0.0189,-0.1193,-1.7487298450865687,0.0,2.9465436935424805,-1.5379513502120972,-0.0,2.1838269233703613,4.474829359645508,2.1670596515843886e-34,0.2802669405937195,-1.4585545698748987,-0.0,-0.010873554274439812,0.1062142625451088,0.0,-0.011525983922183514,0.9014679789543152,0.0001585110294399783,-0.028913253918290138
237.0,186.0,2.863,1.3591,9.0203,-0.0377,0.0229,-0.1161,-1.7487017116942347,0.0,2.96285343170166,-1.5379714965820312,-0.0,2.1755614280700684,4.474890394801758,6.032089905626266e-38,0.2752138674259186,-1.4585583845721644,-0.0,-0.023422688245773315,0.10624304413795471,0.0,-0.0053674085065722466,0.9014397263526917,0.0001486905966885388,0.014588255435228348
237.0,186.0,2.863,1.3591,9.0203,-0.0377,0.0229,-0.1161,-1.7486897907652796,0.0,2.9438772201538086,-1.5379637479782104,-0.0,2.1959288120269775,4.4748779970356445,1.095815399102007e-42,0.2871701121330261,-1.4586060682879847,-0.0,-0.016449501737952232,0.10625441372394562,0.0,0.003975394181907177,0.9014196395874023,0.00013734522508457303,0.0040545156225562096
237.0,186.0,2.863,1.3591,9.0203,-0.0377,0.0229,-0.1161,-1.748685976068014,0.0,2.9207887649536133,-1.5379316806793213,-0.0,2.188577890396118,4.474809809322021,0.0,0.2856106162071228,-1.4585583845721644,-0.0,-0.022042308002710342,0.10621833801269531,0.0,-0.008283482864499092,0.901447594165802,0.00010448876855662093,-0.0041978852823376656
237.0,186.0,2.863,1.3591,9.0203,-0.0377,0.0229,-0.1161,-1.7486902676024378,3.4676393312338405e-08,2.92500638961792,-1.5379718542099,1.9543908158503598e-10,2.1937360763549805,4.4748779970356445,0.0,0.2695123851299286,-1.4585979620562952,-0.0,-0.02536150813102722,0.10619823634624481,0.0,0.002490092534571886,0.9014196395874023,0.0007442189380526543,-0.00883714109659195
237.0,186.0,2.863,1.3591,9.0203,-0.0377,0.0229,-0.1161,-1.748613019982809,8.373941866529969e-14,2.9874343872070312,-1.5379194021224976,4.719623112871231e-16,2.1770503520965576,4.474829359645508,0.0,0.2800952196121216,-1.458574120198385,-0.0,-0.011914064176380634,0.10623800754547119,0.0,0.005206692963838577,0.9014356732368469,0.001358513836748898,-0.054438188672065735
237.0,186.0,2.863,1.3591,9.0203,-0.0377,0.0229,-0.1161,-1.748636861840719,2.0222084435083868e-19,2.9279518127441406,-1.5379718542099,0.000547537871170789,2.175994634628296,4.4748779970356445,0.0,0.3027620315551758,-1.4586222807513636,-1.8810688562354017e-09,-0.01767851412296295,0.10622242838144302,0.0,-0.016902513802051544,0.9014192223548889,0.0018788814777508378,0.05702449381351471
237.0,186.0,2.863,1.3591,9.0203,-0.0377,0.0229,-0.1161,-1.748636861840719,6.551697818294497e-27,2.94289493560791,-1.5379234552383423,0.00037148804403841496,2.1707417964935303,4.474853678340576,0.0,0.2898554801940918,-1.4585822264300745,-3.418749997181371e-14,-0.025923680514097214,0.10612580180168152,0.0,-0.0018989247037097812,0.9014994502067566,0.0041236886754632,0.009206741116940975
237.0,186.0,2.863,1.3591,9.0203,-0.0377,0.0229,-0.1161,-1.7486616573729457,1.5821576500468148e-32,2.9806079864501953,-1.5379759073257446,0.0002957437827717513,2.154825448989868,4.474833651179932,0.0,0.2946521043777466,-1.4586260954486292,-9.516215811874439e-18,-0.01662655547261238,0.10618600994348526,0.0,0.00048050377517938614,0.9015118479728699,0.005923898424953222,0.022129543125629425
237.0,186.0,2.863,1.3591,9.0203,-0.0377,0.0229,-0.1161,-1.7486897907652796,3.820724340889473e-38,2.960381507873535,-1.5379152297973633,0.00024703022791072726,2.2293708324432373,4.474846048946045,0.0,0.29000774025917053,-1.4585583845721644,-2.648873447774528e-21,-0.03134496510028839,0.10624217987060547,0.0,0.002811354584991932,0.9015514850616455,0.00665463600307703,0.05651260167360306
237.0,186.0,2.863,1.3591,9.0203,-0.0377,0.0229,-0.1161,-1.7487465343871058,1.401298464324817e-45,2.9784367084503174,-1.5379997491836548,0.00024305848637595773,2.1606318950653076,4.474793120021484,0.0,0.27457085251808167,-1.4585979620562952,-4.8141962374342416e-26,-0.01676950976252556,0.10620643198490143,0.0,-0.009428138844668865,0.9015670418739319,0.005806739442050457,0.05383648723363876
237.0,186.0,2.863,1.3591,9.0203,-0.0377,0.0229,-0.1161,-1.7487055263915003,0.0,2.9176344871520996,-1.5379234552383423,0.00017845832917373627,2.174696922302246,4.474813624019287,0.0,0.29072868824005127,-1.458590332661764,-1.3400494163893787e-29,-0.027350299060344696,0.1062426045536995,0.0,-0.01228514313697815,0.9015709757804871,0.004931605886667967,0.026111925020813942
237.0,186.0,2.863,1.3591,9.0203,-0.0377,0.0229,-0.1161,-1.7486854992308558,0.0,2.9962496757507324,-1.537911057472229,0.00015401907148770988,2.171599864959717,4.474821253413818,0.0,0.2831030488014221,-1.458574120198385,-2.4354736846900806e-34,-0.03322873264551163,0.10620228201150894,0.0,-0.0002987910993397236,0.9016716480255127,0.004836936015635729,0.03175928071141243
237.0,186.0,2.863,1.3591,9.0203,-0.0377,0.0229,-0.1161,-1.748709341088766,-5.793638410978019e-05,2.915592908859253,-1.537987470626831,0.00011174214887432754,2.1986746788024902,4.474841757411621,0.0,0.2887887954711914,-1.4585946241961878,-6.779230297199272e-38,-0.017308559268712997,0.10620643198490143,0.0,-0.014976020902395248,0.9016996026039124,0.00499297957867384,0.039933014661073685
237.0,186.0,2.863,1.3591,9.0203,-0.0377,0.0229,-0.1161,-1.7487174473204554,-0.00010578609362710267,2.9225172996520996,-1.5379109382629395,8.542570139979944e-05,2.1653730869293213,4.474841757411621,0.0,0.28440091013908386,-1.4585784117328089,-1.8869885120597987e-41,-0.012228444218635559,0.10616598278284073,0.0,-0.008820398710668087,0.9017594456672668,0.005684907082468271,0.024781478568911552
243.0,185.0,2.6363,1.0816,9.1179,-0.0408,0.0414,-0.1159,-1.7487617931761683,-0.000532419013325125,2.9510462284088135,-1.5379718542099,6.884714093757793e-05,2.1446845531463623,4.4748498636433105,0.0,0.28720736503601074,-1.4585426489459437,-0.0,-0.022264480590820312,0.10619822144508362,0.0,-0.0011460083769634366,0.9017716646194458,0.0049818637780845165,-0.02220272645354271
243.0,185.0,2.6363,1.0816,9.1179,-0.0408,0.0414,-0.1159,-1.7487536869444789,-0.0005506420857273042,2.9481048583984375,-1.5379595756530762,6.395487434929237e-05,2.209746837615967,4.474781199092529,0.0,0.29613155126571655,-1.4585259596454065,-0.0,-0.014273682609200478,0.10623433440923691,0.0,-0.018026329576969147,0.9018236994743347,0.004280039109289646,-0.039075691252946854
243.0,185.0,2.6363,1.0816,9.1179,-0.0408,0.0414,-0.1159,-1.7487737141051234,-0.0007173018530011177,2.9303464889526367,-1.5379714965820312,5.971171776764095e-05,2.1878209114074707,4.474785490626953,0.0,0.2846786677837372,-1.458574120198385,-0.0,-0.0265992172062397,0.10620234161615372,0.0,-0.012884044088423252,0.901827335357666,0.004347783513367176,-0.016869880259037018
243.0,185.0,2.6363,1.0816,9.1179,-0.0408,0.0414,-0.1159,-1.7488299808897914,-0.0012879421701654792,2.947641372680664,-1.5380114316940308,-6.063482942408882e-05,2.181934118270874,4.4747935968586425,0.0,0.2856675684452057,-1.4585664908038538,-0.0,-0.03138638287782669,0.10617409646511078,0.0,0.006139185279607773,0.9018428921699524,0.0038340238388627768,0.0021788920275866985
243.0,185.0,2.6363,1.0816,9.1179,-0.0408,0.0414,-0.1159,-1.7488376102843226,-0.0021639843471348286,2.942620277404785,-1.5379953384399414,-7.861114863771945e-05,2.1729016304016113,4.474822207088135,0.0,0.3001228868961334,-1.4585827032672327,-0.0,-0.01209090743213892,0.10623840987682343,0.0,0.0013930527493357658,0.9018953442573547,0.0030409914907068014,-0.041951462626457214
243.0,185.0,2.6363,1.0816,9.1179,-0.0408,0.0414,-0.1159,-1.7488581142821253,-0.0029719527810811996,2.9820556640625,-1.5379993915557861,-0.00046251589083112776,2.168180465698242,4.474805517787598,0.0,0.29053837060928345,-1.4585145155536097,-0.0,-0.019159559160470963,0.10620233416557312,0.0,-0.004489031620323658,0.9019235968589783,0.002591608092188835,0.008850572630763054
243.0,185.0,2.6363,1.0816,9.1179,-0.0408,0.0414,-0.1159,-1.7488700352110804,-0.003311250125989318,2.922013282775879,-1.5380074977874756,-0.0003538918390404433,2.1803293228149414,4.474785490626953,0.0,0.2881919741630554,-1.4585545698748987,-0.0,-0.006478911731392145,0.1061982661485672,0.0,0.0042229569517076015,0.9018629193305969,0.0021740689408034086,0.008385279215872288
243.0,185.0,2.6363,1.0816,9.1179,-0.0408,0.0414,-0.1159,-1.7489100895323695,-0.003993683494627476,2.9376344680786133,-1.537967324256897,-0.000286324619082734,2.170768976211548,4.474785490626953,0.0,0.28985291719436646,-1.4585865179644983,-0.0,-0.028927158564329147,0.10628265142440796,0.0,-0.013173380866646767,0.9019195437431335,0.0016498786862939596,-0.036008335649967194
243.0,185.0,2.6363,1.0816,9.1179,-0.0408,0.0414,-0.1159,-1.748869081536764,-0.003803702536970377,2.9245426654815674,-1.5379993915557861,-0.00022822956088930368,2.169863700866699,4.474781199092529,0.0,0.27997055649757385,-1.4584901968585413,-0.0,-0.019207581877708435,0.10623840242624283,0.0,-0.002481843577697873,0.9019309282302856,0.0012502699391916394,0.016299355775117874
243.0,185.0,2.6363,1.0816,9.1179,-0.0408,0.0414,-0.1159,-1.7489496670165003,-0.003226250410079956,2.8761773109436035,-1.5379751920700073,-0.0001980879169423133,2.142538070678711,4.474797411555908,0.0,0.29501113295555115,-1.458550278340475,-0.0,-0.029467575252056122,0.10621015727519989,0.0,-0.006509906146675348,0.9019472599029541,0.0014040612149983644,0.045225001871585846
243.0,185.0,2.6363,1.0816,9.1179,-0.0408,0.0414,-0.1159,-1.7489577732481898,-0.0031239646486938,2.92567777633667,-1.5379953384399414,-0.0001749789371388033,2.1842310428619385,4.474801226253174,0.0,0.2948641777038574,-1.4585545698748987,-0.0,-0.031121907755732536,0.10622616857290268,0.0,-0.011726954020559788,0.9019390344619751,0.002502206014469266,-0.016055453568696976
243.0,185.0,2.6363,1.0816,9.1179,-0.0408,0.0414,-0.1159,-1.7490016422667445,-0.003474910045042634,2.95196533203125,-1.5379953384399414,-0.000151425861986354,2.22800612449646,4.474814100856445,0.0,0.2921680510044098,-1.458578888569967,-0.0,-0.011462487280368805,0.1062219962477684,0.0,-0.00025785062462091446,0.9019752144813538,0.0037176816258579493,-0.0244377963244915
243.0,185.0,2.6363,1.0816,9.1179,-0.0408,0.0414,-0.1159,-1.749009748498434,-0.003575347363948822,2.965904951095581,-1.538032054901123,-0.00013754067185800523,2.163407564163208,4.474817915553711,0.0,0.28275272250175476,-1.4585827032672327,-0.0,-0.02174745500087738,0.10622616857290268,0.0,0.004602559842169285,0.9020432233810425,0.004666140303015709,-0.0030552418902516365
238.0,182.0,2.8816,1.1856,8.918,-0.0411,0.0263,-0.1104,-1.7490865192809046,-0.004295481834560633,2.9622092247009277,-1.5379751920700073,-0.00012598815374076366,2.1638481616973877,4.474910421962402,0.0,0.29545050859451294,-1.4585707823382776,-0.0,-0.018102269619703293,0.10628678649663925,1.7740954660894204e-07,-0.00216311844997108,0.9020309448242188,0.005362881347537041,0.01509076077491045
238.0,182.0,2.8816,1.1856,8.918,-0.0411,0.0263,-0.1104,-1.7491260967650355,-0.004273207392543554,2.968928098678589,-1.5380280017852783,-0.00011329985136399046,2.186574935913086,4.474829359645508,0.0,0.2833649814128876,-1.4585464636432093,-0.0,-0.02308148518204689,0.10629870742559433,3.2243305247980913e-12,-0.023218022659420967,0.902087390422821,0.005542802158743143,-0.008109111338853836
238.0,182.0,2.8816,1.1856,8.918,-0.0411,0.0263,-0.1104,-1.7491504154601039,-0.004223449621349573,2.962158203125,-1.5379911661148071,-0.00010534297325648367,2.18967604637146,4.474833651179932,0.0,0.28936028480529785,-1.458534065877096,-0.0,-0.03382692113518715,0.10624630749225616,8.97504252449395e-16,0.0009994818828999996,0.9020749926567078,0.004845821764320135,0.027512017637491226
238.0,182.0,2.8816,1.1856,8.918,-0.0411,0.0263,-0.1104,-1.7491418323912562,-0.004710224457085133,2.931694507598877,-1.5380443334579468,-9.632341971155256e-05,2.2206902503967285,4.474861307735107,0.0,0.28785431385040283,-1.4585745970355433,-0.0,-0.023216966539621353,0.10622616857290268,1.6311697949164534e-20,5.8940117014572024e-05,0.9020988345146179,0.004292183555662632,0.03953913599252701
238.0,182.0,2.8816,1.1856,8.918,-0.0411,0.0263,-0.1104,-1.7492066822447718,-0.004677025601267815,2.9285964965820312,-1.5380640029907227,-9.051126835402101e-05,2.1303043365478516,4.474845572108887,0.0,0.28639256954193115,-1.4585226217852991,-0.0,-0.017080774530768394,0.10626991838216782,4.540420679770705e-24,0.01349548064172268,0.9021425843238831,0.003388524055480957,0.0018337313085794449
238.0,182.0,2.8816,1.1856,8.918,-0.0411,0.0263,-0.1104,-1.7492543659605921,-0.005230775568634272,2.8904337882995605,-1.5379513502120972,-8.536063978681341e-05,2.1668782234191895,4.474809809322021,0.0,0.2778036296367645,-1.4585421721087855,-0.0,-0.025173481553792953,0.10627452284097672,1.2638427036800333e-27,0.008633989840745926,0.9021707773208618,0.002659757621586323,-0.015475316904485226
238.0,182.0,2.8816,1.1856,8.918,-0.0411,0.0263,-0.1104,-1.7492863140501917,-0.006663757376372814,2.93218731880188,-1.5379751920700073,-7.934065797599033e-05,2.1832010746002197,4.4748169618793945,0.0,0.2890985310077667,-1.4585345427142542,-0.0,-0.016936419531702995,0.10626257210969925,0.0002080144186038524,-0.0015158476307988167,0.9021954536437988,0.002028778661042452,0.025355758145451546
238.0,182.0,2.8816,1.1856,8.918,-0.0411,0.0263,-0.1104,-1.7493301830687464,-0.007681445684283972,2.880659580230713,-1.5379674434661865,-7.535491022281349e-05,2.187019109725952,4.474865599269531,0.0,0.28205540776252747,-1.4585064093219202,-0.0,-0.017017103731632233,0.10626991838216782,0.00021943375759292394,0.01128464750945568,0.9021666646003723,0.0015237819170579314,-0.014078821055591106
238.0,182.0,2.8816,1.1856,8.918,-0.0411,0.0263,-0.1104,-1.7494188747801722,-0.008716315031051636,2.9027185440063477,-1.5380114316940308,-7.175041537266225e-05,2.2195639610290527,4.474877520198486,0.00015866114699747413,0.27347713708877563,-1.458550278340475,-0.0,-0.03775354474782944,0.10626988112926483,0.00022804438776802272,0.0077546811662614346,0.9022395610809326,0.0012390330666676164,-0.027869535610079765
238.0,182.0,2.8816,1.1856,8.918,-0.0411,0.0263,-0.1104,-1.7494985065855921,-0.010406251065433025,2.9349241256713867,-1.5380237102508545,-6.744875281583518e-05,2.1650588512420654,4.474909945125244,0.00017642283637542278,0.28168725967407227,-1.4585226217852991,-0.0,-0.018503764644265175,0.10628587752580643,0.00022778472339268774,0.011282334104180336,0.902178943157196,0.0009043317986652255,0.04244536533951759
238.0,182.0,2.8816,1.1856,8.918,-0.0411,0.0263,-0.1104,-1.749542852441305,-0.011481467634439468,2.847012996673584,-1.5379509925842285,-6.454646063502878e-05,2.1694397926330566,4.474921389217041,0.00018935174739453942,0.2847172021865845,-1.458545986806051,-0.0,-0.029175080358982086,0.10624619573354721,0.0003197789192199707,0.0274385754019022,0.9022031426429749,0.001254665432497859,0.01223035715520382
238.0,182.0,2.8816,1.1856,8.918,-0.0411,0.0263,-0.1104,-1.749678751031393,-0.013510121032595634,2.8456897735595703,-1.5379714965820312,-6.104412750573829e-05,2.1690633296966553,4.474925680751465,0.0001866147795226425,0.26677072048187256,-1.4585064093219202,-0.0,-0.021875586360692978,0.1063186526298523,0.0003210499417036772,0.01645078882575035,0.9022231101989746,0.0023566382005810738,0.01653163507580757
238.0,182.0,2.8816,1.1856,8.918,-0.0411,0.0263,-0.1104,-1.7497226200499476,-0.015945397317409515,2.7880334854125977,-1.5379153490066528,-5.865704588359222e-05,2.1746556758880615,4.474909468288086,0.0001774229749571532,0.2892373204231262,-1.4585707823382776,-0.0,-0.015898022800683975,0.1062740907073021,0.00032088832813315094,0.02032332867383957,0.9022149443626404,0.002836383180692792,0.06403802335262299
240.0,194.0,2.7787,1.0726,8.8911,-0.0244,0.0102,-0.1118,-1.7498914204039515,-0.0176211129873991,2.790647506713867,-1.5380076169967651,-5.644965131068602e-05,2.1492931842803955,4.474921389217041,0.00016360185691155493,0.2811955511569977,-1.4585345427142542,-0.0,-0.015049532987177372,0.10632652789354324,0.00037163568777032197,0.011261128820478916,0.9022989869117737,0.003701626555994153,0.03920820355415344
240.0,194.0,2.7787,1.0726,8.8911,-0.0244,0.0102,-0.1118,-1.750003000298971,-0.02001279592514038,2.790454387664795,-1.5380032062530518,-5.375256296247244e-05,2.152416229248047,4.474889441127441,0.00016933017468545586,0.27101874351501465,-1.4585664908038538,-0.0,-0.021728944033384323,0.1062859296798706,0.00039088461198844016,0.009132662788033485,0.9023312926292419,0.005052240565419197,0.006237003020942211
240.0,194.0,2.7787,1.0726,8.8911,-0.0244,0.0102,-0.1118,-1.750143667260641,-0.02251824364066124,2.7947921752929688,-1.5380035638809204,-5.189302100916393e-05,2.1327338218688965,4.474897547359131,0.00015821807028260082,0.27033737301826477,-1.458545986806051,-0.0,-0.021597910672426224,0.10626216977834702,0.00046751118497923017,0.013950146734714508,0.9023107886314392,0.00597306527197361,0.021302640438079834
240.0,194.0,2.7787,1.0726,8.8911,-0.0244,0.0102,-0.1118,-1.7502714596190394,-0.02543107606470585,2.775408983230591,-1.5380035638809204,-4.013167563243769e-05,2.143261671066284,4.474885626430176,0.00016426474030595273,0.27488788962364197,-1.458526913319723,-0.0,-0.020892545580863953,0.10630226135253906,0.0004369747475720942,0.017199644818902016,0.902431309223175,0.005959671456366777,0.05335622653365135
240.0,194.0,2.7787,1.0726,8.8911,-0.0244,0.0102,-0.1118,-1.7505809269347132,-0.03125598281621933,2.6727802753448486,-1.5379592180252075,-9.583223797848817e-11,2.1038150787353516,4.474937124843262,0.00022176634229253978,0.266864150762558,-1.4585307280169886,-1.1660868040053174e-06,-0.027418218553066254,0.10631418228149414,0.0006439244607463479,0.018338128924369812,0.9024226069450378,0.007540032267570496,0.11356087028980255
240.0,194.0,2.7787,1.0726,8.8911,-0.0244,0.0102,-0.1118,-1.7507568798460902,-0.0341675691306591,2.7081151008605957,-1.5379595756530762,-2.3142356252196176e-16,2.15366792678833,4.474932833308838,0.0005388589925132692,0.2790469527244568,-1.4585827032672327,-3.245844704125034e-10,-0.0177228432148695,0.10636220872402191,0.0010334906401112676,0.028142642229795456,0.9024668335914612,0.007993686012923717,0.0693436786532402
240.0,194.0,2.7787,1.0726,8.8911,-0.0244,0.0102,-0.1118,-1.7510568104186,-0.041610296815633774,2.7254467010498047,-1.537975549697876,-7.49782865900807e-24,2.1172690391540527,4.474932833308838,0.001115495222620666,0.2753557860851288,-1.4584983030902308,-5.8991635022514165e-15,-0.014667697250843048,0.10634179413318634,0.0015721468953415751,0.0218048058450222,0.9025070071220398,0.007971753366291523,0.09865541011095047
240.0,194.0,2.7787,1.0726,8.8911,-0.0244,0.0102,-0.1118,-1.7512690029540003,-0.047003816813230515,2.747339963912964,-1.5379555225372314,-1.810637458458586e-29,2.147785186767578,4.474973364467285,0.0015149181708693504,0.2715616226196289,-1.4585021177874964,-1.642053811567032e-18,-0.01140761747956276,0.1063060313463211,0.0027231031563133,0.034635767340660095,0.902586817741394,0.007750612683594227,0.09247030317783356
240.0,194.0,2.7787,1.0726,8.8911,-0.0244,0.0102,-0.1118,-1.7515894375243128,-0.05406371131539345,2.675630569458008,-1.5379109382629395,-4.3724762348490855e-35,2.153498649597168,4.47501723348584,0.0036089306231588125,0.27096879482269287,-1.4585021177874964,-4.570717135271208e-22,-0.034139037132263184,0.10636185109615326,0.009528852067887783,0.03178531304001808,0.902638852596283,0.007332179695367813,0.06642882525920868
240.0,194.0,2.7787,1.0726,8.8911,-0.0244,0.0102,-0.1118,-1.7520457706847132,-0.06161981448531151,2.6324586868286133,-1.5379399061203003,-4.641457791026982e-12,2.16843581199646,4.475073500270508,0.020536327734589577,0.26992401480674744,-1.4585264364825647,-8.307052769739222e-27,-0.013282783329486847,0.10652574151754379,0.016990458592772484,0.041850000619888306,0.9026665687561035,0.006498071365058422,0.057208262383937836
240.0,194.0,2.7787,1.0726,8.8911,-0.0244,0.0102,-0.1118,-1.752491136590475,-0.06995292752981186,2.6441376209259033,-1.5378873348236084,-1.120857440559873e-17,2.115633010864258,4.475208445186279,0.02475334331393242,0.2877262234687805,-1.4585102240191858,-2.3122991388584467e-30,-0.02589765377342701,0.10657739639282227,0.011914363130927086,0.03133665770292282,0.9026703238487244,0.006152673624455929,0.1324084848165512
240.0,194.0,2.7787,1.0726,8.8911,-0.0244,0.0102,-0.1118,-1.7529798946776332,-0.07904939353466034,2.6225037574768066,-1.537975549697876,-2.7067385913612494e-23,2.107557535171509,4.475369139308594,0.020875245332717896,0.27540284395217896,-1.4584983030902308,-6.43636972675951e-34,-0.02153889462351799,0.10664138197898865,0.00495528057217598,0.04187709838151932,0.9027424454689026,0.005983206443488598,0.10796530544757843
240.0,194.0,2.7787,1.0726,8.8911,-0.0244,0.0102,-0.1118,-1.7536565266051234,-0.0907929465174675,2.582962989807129,-1.5379595756530762,-8.769490664479037e-31,2.1411609649658203,4.475435896510742,0.01166940201073885,0.2675495445728302,-1.4585345427142542,-1.1697784543863066e-38,-0.029366450384259224,0.10662940889596939,0.0004350879171397537,0.03800997510552406,0.9028065800666809,0.005178228486329317,0.11825545132160187
240.0,194.0,2.7787,1.0726,8.8911,-0.0244,0.0102,-0.1118,-1.7541891537108363,-0.09768391400575638,2.583120822906494,-1.537919282913208,-2.1177283350653117e-36,2.141462564468384,4.47551600515332,0.004724147729575634,0.26420721411705017,-1.4584983030902308,-3.256617631090875e-42,-0.018894188106060028,0.10662123560905457,0.00036741007352247834,0.031872913241386414,0.9028266072273254,0.005124003626406193,0.1371486932039261
222.0,177.0,2.071,0.4463,8.2253,-0.0241,-0.0218,-0.1037,-1.754810472527975,-0.09695109724998474,2.6682939529418945,-1.5379718542099,-5.114739394785582e-42,2.1151742935180664,4.475544138545654,0.0011703731724992394,0.2699413001537323,-1.458526913319723,-1.401298464324817e-45,-0.021165553480386734,0.10666954517364502,0.0002608439535833895,0.031545743346214294,0.9028424620628357,0.005814335774630308,0.15888181328773499
222.0,177.0,2.071,0.4463,8.2253,-0.0241,-0.0218,-0.1037,-1.7556067905821742,-0.09607989341020584,2.6288223266601562,-1.5379797220230103,4.295633334550075e-05,2.0848922729492188,4.475491686458252,0.00035889336140826344,0.27521827816963196,-1.4585784117328089,-0.0,-0.03376650810241699,0.1066531389951706,0.0001880892232293263,0.04760873317718506,0.9029109477996826,0.006600053049623966,0.09881636500358582
222.0,177.0,2.071,0.4463,8.2253,-0.0241,-0.0218,-0.1037,-1.7563725910582484,-0.10111705958843231,2.596442222595215,-1.5379430055618286,2.295504453186936e-09,2.0541326999664307,4.475472136134766,-0.00035470444709062576,0.2507321238517761,-1.4585183302508753,-0.0,-0.015311116352677345,0.10664498060941696,0.00020739712635986507,0.040387071669101715,0.9029260873794556,0.008886325173079967,0.14699232578277588
222.0,177.0,2.071,0.4463,8.2253,-0.0241,-0.0218,-0.1037,-1.7571608028807582,-0.11730901151895523,2.5187909603118896,-1.5379953384399414,7.437141844539359e-17,2.0698323249816895,4.475452108974121,-0.0014547230675816536,0.25457626581192017,-1.458526913319723,-0.0,-0.0364617183804512,0.10668561607599258,0.00014671710960101336,0.05088026076555252,0.9030058979988098,0.010673497803509235,0.13894876837730408
222.0,177.0,2.071,0.4463,8.2253,-0.0241,-0.0218,-0.1037,-1.757902284661764,-0.13795317709445953,2.4797635078430176,-1.5379674434661865,1.7959823310856351e-22,2.1231582164764404,4.475440188045166,-0.0009271168964914978,0.25432252883911133,-1.4585345427142542,-0.0,-0.016144366934895515,0.10668924450874329,0.0005520328413695097,0.049830321222543716,0.9030902981758118,0.012506424449384212,0.22568850219249725
222.0,177.0,2.071,0.4463,8.2253,-0.0241,-0.0218,-0.1037,-1.7587353191771449,-0.1545242816209793,2.4781558513641357,-1.5379797220230103,-9.448097262065858e-05,2.079805374145508,4.475475950832031,-0.0006113116396591067,0.23604866862297058,-1.4585145155536097,-0.0,-0.027478531002998352,0.10670924186706543,0.0007388804224319756,0.04766283929347992,0.9031824469566345,0.01380445808172226,0.1742761731147766
222.0,177.0,2.071,0.4463,8.2253,-0.0241,-0.0218,-0.1037,-1.7599131069579066,-0.1567704826593399,2.429388999938965,-1.5379273891448975,0.002271545585244894,2.0949923992156982,4.475544138545654,-0.00021305499831214547,0.22941628098487854,-1.4585064093219202,-0.0,-0.02860015630722046,0.10674545913934708,0.0009651718428358436,0.062359705567359924,0.9032902121543884,0.014052310027182102,0.19154343008995056
222.0,177.0,2.071,0.4463,8.2253,-0.0241,-0.0218,-0.1037,-1.7608219585814417,-0.14926089346408844,2.457162380218506,-1.5378912687301636,0.003635777160525322,2.1014902591705322,4.4755236345478515,0.00031467172084376216,0.24067887663841248,-1.458534065877096,-0.0,-0.023907195776700974,0.10672945529222488,0.0009873310336843133,0.05036401003599167,0.903342068195343,0.014062931761145592,0.15826177597045898
222.0,177.0,2.071,0.4463,8.2253,-0.0241,-0.0218,-0.1037,-1.7618195019164027,-0.15149173140525818,2.4621925354003906,-1.537963628768921,0.0024093077518045902,2.0803487300872803,4.475547476405762,0.0008033615886233747,0.23876996338367462,-1.458550278340475,-0.0,-0.024570979177951813,0.10672899335622787,0.0009298244258388877,0.06892012804746628,0.9034423232078552,0.015819232910871506,0.1909990906715393
222.0,177.0,2.071,0.4463,8.2253,-0.0241,-0.0218,-0.1037,-1.7631007633604945,-0.1667541116476059,2.4189767837524414,-1.5379555225372314,-0.0006920237210579216,2.0964579582214355,4.475487394923828,0.00037520239129662514,0.23031142354011536,-1.4585707823382776,-0.0,-0.007731160148978233,0.10672899335622787,0.0009362185373902321,0.05673345550894737,0.9035860896110535,0.018495557829737663,0.18971484899520874
222.0,177.0,2.071,0.4463,8.2253,-0.0241,-0.0218,-0.1037,-1.7640892467894496,-0.1871456801891327,2.412346839904785,-1.537911057472229,-0.0018768992740660906,2.066765785217285,4.475499792689941,1.6212850823649205e-05,0.23340007662773132,-1.4585545698748987,-0.0,-0.03956872969865799,0.10676101595163345,0.0009137374581769109,0.05097786337137222,0.9036974906921387,0.019198529422283173,0.20590725541114807
222.0,177.0,2.071,0.4463,8.2253,-0.0241,-0.0218,-0.1037,-1.7656642399229945,-0.20168976485729218,2.4182066917419434,-1.5379078388214111,-0.00044506293488666415,2.0813002586364746,4.4755236345478515,-0.0001378583983751014,0.24093231558799744,-1.458545986806051,-0.0,-0.01443757675588131,0.10672525316476822,0.0007466588285751641,0.044385455548763275,0.9038621783256531,0.01696777530014515,0.18777012825012207
222.0,177.0,2.071,0.4463,8.2253,-0.0241,-0.0218,-0.1037,-1.766813417474264,-0.2066769301891327,2.4083752632141113,-1.5378912687301636,0.0005985845346003771,2.0782675743103027,4.475555582637451,-0.00011209055810468271,0.21729391813278198,-1.4585140387164515,-0.0,-0.042561084032058716,0.10675318539142609,0.000627565779723227,0.06045836955308914,0.9039212465286255,0.013730163685977459,0.22517773509025574
223.0,171.0,2.9264,1.9316,7.7216,0.1558,-0.212,-0.1568,-1.768015047112936,-0.20854540169239044,2.3906593322753906,-1.537943959236145,0.0010666887974366546,2.048957586288452,4.475559874171875,-4.744488978758454e-05,0.23414316773414612,-1.4585345427142542,-0.0,-0.022549260407686234,0.10671676695346832,0.0005312498542480171,0.06831992417573929,0.9040097594261169,0.010806983336806297,0.19722118973731995
223.0,171.0,2.9264,1.9316,7.7216,0.1558,-0.212,-0.1568,-1.7696930370726527,-0.21151778101921082,2.3377182483673096,-1.5379118919372559,0.0007578725926578045,2.0608561038970947,4.475544138545654,-1.2492507472927628e-08,0.2342652976512909,-1.458545986806051,-0.0,-0.028647754341363907,0.10677293688058853,0.00038113805931061506,0.06763412803411484,0.9040530920028687,0.007974527776241302,0.21011734008789062
223.0,171.0,2.9264,1.9316,7.7216,0.1558,-0.212,-0.1568,-1.7709347210326136,-0.21160554885864258,2.445930242538452,-1.5379078388214111,0.0006039881845936179,2.0315465927124023,4.475543184871338,-3.4773356069606187e-12,0.22062468528747559,-1.4585426489459437,-0.0,-0.02938433550298214,0.10673308372497559,0.0003664307587314397,0.062411654740571976,0.9041338562965393,0.005138229113072157,0.18411347270011902
223.0,171.0,2.9264,1.9316,7.7216,0.1558,-0.212,-0.1568,-1.7722202740111292,-0.22018305957317352,2.401378631591797,-1.5379201173782349,0.00045218714512884617,2.0545177459716797,4.47557179510083,0.0007704906747676432,0.22866131365299225,-1.458545986806051,-0.0,-0.033246833831071854,0.10674126446247101,0.00031233057961799204,0.04910343140363693,0.9041576385498047,0.0033500937279313803,0.15033066272735596
223.0,171.0,2.9264,1.9316,7.7216,0.1558,-0.212,-0.1568,-1.7740465603270472,-0.23208966851234436,2.3571765422821045,-1.5378633737564087,0.0003387088654562831,2.069314479827881,4.475576086635254,0.0008506181184202433,0.24360686540603638,-1.4585145155536097,-0.0,-0.03508096560835838,0.10672898590564728,0.00026063245604746044,0.0577579140663147,0.9041132926940918,0.001261180848814547,0.1847054809331894
223.0,171.0,2.9264,1.9316,7.7216,0.1558,-0.212,-0.1568,-1.775416990319723,-0.2285585105419159,2.3864569664001465,-1.5378715991973877,0.0003795181983150542,2.0238988399505615,4.47559563695874,0.0018988217925652862,0.23028361797332764,-1.458545986806051,-0.0,-0.03619478642940521,0.10677293688058853,0.00023185144527815282,0.060362011194229126,0.9040448069572449,8.194436418307305e-07,0.14413021504878998
223.0,171.0,2.9264,1.9316,7.7216,0.1558,-0.212,-0.1568,-1.777238508264059,-0.22782482206821442,2.51528000831604,-1.5378880500793457,0.0030322233214974403,2.059521436691284,4.475587530727051,0.00393590796738863,0.2449049949645996,-1.4585021177874964,-0.0,-0.02267586439847946,0.10675318539142609,7.552213355666026e-05,0.051308102905750275,0.9041051864624023,2.654893144248601e-14,0.1584669053554535
223.0,171.0,2.9264,1.9316,7.7216,0.1558,-0.212,-0.1568,-1.7787138424315394,-0.23721151053905487,2.4441161155700684,-1.5378477573394775,0.004198096226900816,2.116309642791748,4.475623293513916,0.004462218377739191,0.251187264919281,-1.4584901968585413,-0.0,-0.01742107979953289,0.1067412868142128,6.35187461739406e-05,0.04640156030654907,0.9040813446044922,-0.0009027374908328056,0.13662183284759521
223.0,171.0,2.9264,1.9316,7.7216,0.1558,-0.212,-0.1568,-1.7802039585509242,-0.24330204725265503,2.497112989425659,-1.5378077030181885,0.005013680085539818,2.074097156524658,4.4756995874592285,0.004514816217124462,0.24150350689888,-1.4585464636432093,-0.0,-0.02400260418653488,0.1067170724272728,5.7436358474660665e-05,0.05321922153234482,0.9040694236755371,-0.0009130547987297177,0.14773938059806824
223.0,171.0,2.9264,1.9316,7.7216,0.1558,-0.212,-0.1568,-1.7821341953673304,-0.23217467963695526,2.5632457733154297,-1.537756323814392,0.007784231100231409,2.093242883682251,4.475739164943359,0.004815903026610613,0.2580752372741699,-1.4584944883929651,-0.0,-0.0264398492872715,0.1067134216427803,5.093463187222369e-05,0.04095827788114548,0.9040494561195374,-0.001501167193055153,0.1355428248643875
223.0,171.0,2.9264,1.9316,7.7216,0.1558,-0.212,-0.1568,-1.7835523090758265,-0.23662404716014862,2.576240301132202,-1.537671446800232,0.007603831589221954,2.138335704803467,4.47572295247998,0.003673178143799305,0.2597137987613678,-1.4585345427142542,-0.0,-0.034132812172174454,0.10671300441026688,2.6566785891191103e-05,0.04688442125916481,0.9040494561195374,-0.0012466538464650512,0.10755154490470886
223.0,171.0,2.9264,1.9316,7.7216,0.1558,-0.212,-0.1568,-1.7850667438902796,-0.2466438263654709,2.5831034183502197,-1.5376313924789429,0.0059012859128415585,2.1711766719818115,4.4757348734089355,0.0019732285290956497,0.27529996633529663,-1.4585664908038538,-0.0,-0.014867110177874565,0.10674135386943817,2.1771606043330394e-05,0.04635223373770714,0.9040572643280029,-0.0007830399554222822,0.11173668503761292
223.0,171.0,2.9264,1.9316,7.7216,0.1558,-0.212,-0.1568,-1.786996980706686,-0.24194860458374023,2.580324172973633,-1.5376275777816772,0.004082317464053631,2.130847215652466,4.475747271175049,0.0011131669161841273,0.2661304473876953,-1.4585540930377405,-0.0,-0.01547143142670393,0.10674955695867538,1.9849996533594094e-05,0.04714275896549225,0.9040535092353821,-0.0005229223752394319,0.13588866591453552
215.0,164.0,3.1149,1.5805,8.6955,0.1269,-0.1697,-0.1446,-1.7884718380370082,-0.23395302891731262,2.677309513092041,-1.5376038551330566,0.004316994454711676,2.182615280151367,4.475799246425293,0.0011252494296059012,0.28150415420532227,-1.4584944883929651,-0.0,-0.02299780584871769,0.10672944784164429,1.86180532182334e-05,0.03277481347322464,0.9040899872779846,-0.0004784506745636463,0.10611764341592789
215.0,164.0,3.1149,1.5805,8.6955,0.1269,-0.1697,-0.1446,-1.7903100452818812,-0.23932337760925293,2.7057127952575684,-1.5376042127609253,0.0022925008088350296,2.1787075996398926,4.475755854243896,0.0008255287539213896,0.2548675835132599,-1.4585102240191858,-0.0,-0.016437552869319916,0.10670924931764603,1.7195156033267267e-05,0.03206958249211311,0.9040694832801819,-0.0003309556341264397,0.11496759951114655
215.0,164.0,3.1149,1.5805,8.6955,0.1269,-0.1697,-0.1446,-1.7917524776854457,-0.2395639270544052,2.7381319999694824,-1.5375802516937256,0.0012958598090335727,2.101572036743164,4.475779696101807,0.0005655409768223763,0.27566272020339966,-1.4585664908038538,-0.0,-0.029901577159762383,0.10672524571418762,1.626299854251556e-05,0.02242349088191986,0.9040735960006714,-9.104943455895409e-05,0.12350945174694061
215.0,164.0,3.1149,1.5805,8.6955,0.1269,-0.1697,-0.1446,-1.7931386433043421,-0.2321939319372177,2.666426658630371,-1.5375399589538574,0.0008992096991278231,2.1754093170166016,4.475782557124756,0.0005748069961555302,0.2791883051395416,-1.4585064093219202,-0.0,-0.016221968457102776,0.10677745193243027,1.5426678146468475e-05,0.028096536174416542,0.9040412306785583,-7.896804163465276e-05,0.09700530767440796
215.0,164.0,3.1149,1.5805,8.6955,0.1269,-0.1697,-0.1446,-1.7949854336180628,-0.23044535517692566,2.6798977851867676,-1.537556529045105,0.003571597160771489,2.186253309249878,4.475758715266846,0.0005096818786114454,0.281900554895401,-1.4585421721087855,-0.0,-0.021772436797618866,0.10663670301437378,1.4436844139709137e-05,0.026703499257564545,0.9041092395782471,-1.3643159491039114e-06,0.12592360377311707
215.0,164.0,3.1149,1.5805,8.6955,0.1269,-0.1697,-0.1446,-1.7963673077025355,-0.230830579996109,2.7349395751953125,-1.5374763011932373,0.004854542203247547,2.1779398918151855,4.475815458888672,0.0006463257595896721,0.2809585928916931,-1.4585664908038538,-0.0,-0.012913046404719353,0.10668879002332687,1.3773994396615308e-05,0.04061467573046684,0.9040489196777344,-3.294662719727226e-12,0.10839899629354477
215.0,164.0,3.1149,1.5805,8.6955,0.1269,-0.1697,-0.1446,-1.7976967296996058,-0.22601984441280365,2.7006125450134277,-1.5375046730041504,0.006908603012561798,2.208390712738037,4.4757701593586425,0.0007172163459472358,0.27414220571517944,-1.458545986806051,-0.0,-0.026551973074674606,0.10672116279602051,1.3169332305551507e-05,0.029618453234434128,0.9041215181350708,0.0013081259094178677,0.061807092279195786
215.0,164.0,3.1149,1.5805,8.6955,0.1269,-0.1697,-0.1446,-1.799483438531393,-0.22416159510612488,2.7070798873901367,-1.5374404191970825,0.007589566055685282,2.212073802947998,4.475811167354248,0.0008266278891824186,0.3010973632335663,-1.4585545698748987,-0.0,-0.026610005646944046,0.10674126446247101,1.2441157196008135e-05,0.033746011555194855,0.9041173458099365,0.0010430091060698032,0.12411588430404663
215.0,164.0,3.1149,1.5805,8.6955,0.1269,-0.1697,-0.1446,-1.8007646999754847,-0.2261759638786316,2.7553539276123047,-1.537384033203125,0.00665783416479826,2.1663873195648193,4.475823088283203,0.0008309737895615399,0.28551527857780457,-1.4585545698748987,-0.0,-0.02306623011827469,0.10676510632038116,1.1945756341447122e-05,0.037912767380476,0.9041411876678467,0.000905384833458811,0.06325376778841019
215.0,164.0,3.1149,1.5805,8.6955,0.1269,-0.1697,-0.1446,-1.802188058892721,-0.22323651611804962,2.771824359893799,-1.5373286008834839,0.005989973898977041,2.2413251399993896,4.475811167354248,0.0011448365403339267,0.2747151851654053,-1.4585464636432093,-0.0,-0.013591032475233078,0.10670106112957001,1.148829596786527e-05,0.023553328588604927,0.9041370749473572,0.0012708172434940934,0.09846291691064835
215.0,164.0,3.1149,1.5805,8.6955,0.1269,-0.1697,-0.1446,-1.8039261303343714,-0.22729220986366272,2.7300710678100586,-1.5373046398162842,0.0070854248479008675,2.1961114406585693,4.475842638606689,0.005711488425731659,0.2875312864780426,-1.4585297743426722,-0.0,-0.0332370288670063,0.10670924186706543,1.0930204553005751e-05,0.03638278692960739,0.904161274433136,0.0010967468842864037,0.09841214120388031
215.0,164.0,3.1149,1.5805,8.6955,0.1269,-0.1697,-0.1446,-1.8052522144713343,-0.22714641690254211,2.771109104156494,-1.5372161865234375,0.008674762211740017,2.2370028495788574,4.475983305568359,0.02040952816605568,0.2971385419368744,-1.4585583845721644,-0.0,-0.017596108838915825,0.10674542933702469,1.0545976692810655e-05,0.04601455107331276,0.9041333794593811,0.0006157823372632265,0.09568379819393158
215.0,164.0,3.1149,1.5805,8.6955,0.1269,-0.1697,-0.1446,-1.8070422611632289,-0.2170959711074829,2.7798526287078857,-1.5371451377868652,0.012409416027367115,2.2569332122802734,4.4761339861103515,0.025871915742754936,0.30066508054733276,-1.458545986806051,-0.0,-0.029754359275102615,0.10670885443687439,1.0073818884848151e-05,0.03944478556513786,0.9041613340377808,0.00038059637881815434,0.11351726949214935
215.0,164.0,3.1149,1.5805,8.6955,0.1269,-0.1697,-0.1446,-1.808364053765768,-0.21700148284435272,2.8139772415161133,-1.5370731353759766,0.014902563765645027,2.2586092948913574,4.476314230556152,0.023303352296352386,0.2967328131198883,-1.4585307280169886,-0.0,-0.01830429956316948,0.10672525316476822,8.378450644386248e-08,0.04802903160452843,0.9041050672531128,0.00036426441511139274,0.12196360528469086
216.0,181.0,3.1747,2.053,8.4126,0.1017,-0.1425,-0.1552,-1.8098026714720667,-0.22667908668518066,2.814119815826416,-1.5369892120361328,0.014685921370983124,2.2823381423950195,4.476461573238037,0.014991036616265774,0.3221094012260437,-1.4585946241961878,-0.0,-0.03348202630877495,0.10672116279602051,2.332172822916423e-11,0.0385110005736351,0.9041211009025574,0.00030294741736724973,0.14699678122997284
216.0,181.0,3.1747,2.053,8.4126,0.1017,-0.1425,-0.1552,-1.8116690121092738,-0.23302248120307922,2.764113664627075,-1.5368213653564453,0.014576688408851624,2.2216243743896484,4.47650591909375,0.005384261719882488,0.3048003315925598,-1.4585822264300745,-0.0,-0.038434211164712906,0.10671303421258926,4.2386081898998864e-16,0.038988374173641205,0.9041292667388916,0.00020786569803021848,0.09412933886051178
216.0,181.0,3.1747,2.053,8.4126,0.1017,-0.1425,-0.1552,-1.8130508861937464,-0.22011294960975647,2.8306257724761963,-1.5366971492767334,0.016068875789642334,2.259827136993408,4.4765049654194335,0.0019471530104056,0.3070529103279114,-1.4585707823382776,-0.0,-0.019667983055114746,0.10674497485160828,1.1798321353618478e-19,0.05201732739806175,0.9041411876678467,0.00014501922123599797,0.15683768689632416
216.0,181.0,3.1747,2.053,8.4126,0.1017,-0.1425,-0.1552,-1.81439270595693,-0.21884070336818695,2.865971803665161,-1.5366132259368896,0.01586126536130905,2.3085103034973145,4.476489229793213,0.001177464728243649,0.31516194343566895,-1.4585307280169886,-0.0,-0.028977248817682266,0.10672523826360703,3.28410620343687e-23,0.046995192766189575,0.9041653275489807,0.0001293771929340437,0.14111925661563873
216.0,181.0,3.1747,2.053,8.4126,0.1017,-0.1425,-0.1552,-1.816280027429098,-0.229191392660141,2.8570754528045654,-1.5365979671478271,0.010967260226607323,2.275756597518921,4.476517363185547,0.0006735469214618206,0.31118419766426086,-1.4585188070880335,-0.0,-0.024343237280845642,0.10676547139883041,5.968701009276495e-28,0.04277673363685608,0.9041050672531128,0.00011311602429486811,0.10781650245189667
216.0,181.0,3.1747,2.053,8.4126,0.1017,-0.1425,-0.1552,-1.8176094494261683,-0.22504255175590515,2.8482718467712402,-1.5364940166473389,0.00789150595664978,2.32422137260437,4.476521654719971,0.0005632278043776751,0.30911150574684143,-1.4585703055011194,-0.0,-0.029322156682610512,0.10677699744701385,1.6614099787643526e-31,0.04757895693182945,0.9041292667388916,0.00010337167623220012,0.08727778494358063
216.0,181.0,3.1747,2.053,8.4126,0.1017,-0.1425,-0.1552,-1.8193723164000453,-0.21243916451931,2.893242359161377,-1.5364220142364502,0.0062790075317025185,2.2792882919311523,4.476524992580078,0.001531621441245079,0.31591689586639404,-1.458534065877096,-0.0,-0.01795797049999237,0.10671670734882355,3.019530307195153e-36,0.04604597017168999,0.9041493535041809,9.272186434827745e-05,0.13369065523147583
216.0,181.0,3.1747,2.053,8.4126,0.1017,-0.1425,-0.1552,-1.820657869378561,-0.21290522813796997,2.899689197540283,-1.5364784002304077,0.003314787754788995,2.2676823139190674,4.476529284114502,0.0013566948473453522,0.31410449743270874,-1.4585865179644983,-0.0,-0.023912593722343445,0.10673308372497559,8.40497417603561e-40,0.04444517940282822,0.9041652679443359,8.607120253145695e-05,0.13129283487796783
216.0,181.0,3.1747,2.053,8.4126,0.1017,-0.1425,-0.1552,-1.8219601116576136,-0.21898731589317322,2.861760139465332,-1.536449909210205,0.0007586711435578763,2.3072147369384766,4.476488752956055,0.0006647223490290344,0.31058406829833984,-1.4585583845721644,-0.0,-0.02407531440258026,0.10677323490381241,2.3401684354224445e-43,0.0400569848716259,0.9040969014167786,8.031080506043509e-05,0.06169911473989487
216.0,181.0,3.1747,2.053,8.4126,0.1017,-0.1425,-0.1552,-1.823618074456686,-0.20912882685661316,2.890965461730957,-1.5364303588867188,4.691360633302111e-10,2.2569446563720703,4.476517363185547,0.0004169150779489428,0.3112558424472809,-1.4585664908038538,-0.0,-0.026653021574020386,0.10672116279602051,0.0,0.040092311799526215,0.9040768146514893,5.530873386305757e-05,0.10485198348760605
216.0,181.0,3.1747,2.053,8.4126,0.1017,-0.1425,-0.1552,-1.8248278103270472,-0.2016308605670929,2.9071693420410156,-1.536441683769226,1.132908472776758e-15,2.305647134780884,4.476565523738525,0.00039077605470083654,0.30830782651901245,-1.4585583845721644,-0.0,-0.022078517824411392,0.10672084242105484,0.0,0.05895904824137688,0.904201865196228,-5.550120476982556e-05,0.10195355117321014
216.0,181.0,3.1747,2.053,8.4126,0.1017,-0.1425,-0.1552,-1.8259970150389613,-0.19957822561264038,2.902678966522217,-1.5364059209823608,2.7358407051403602e-21,2.2444350719451904,4.4765612322041015,0.00032147238380275667,0.323607861995697,-1.4585226217852991,-0.0,-0.025740645825862885,0.10670530050992966,0.0,0.04935174435377121,0.9041452407836914,-5.230549140833318e-05,0.11731773614883423
216.0,181.0,3.1747,2.053,8.4126,0.1017,-0.1425,-0.1552,-1.8276401958861292,-0.19655178487300873,2.910567283630371,-1.5364466905593872,8.863776596160752e-29,2.280363082885742,4.476517363185547,0.00025962587096728384,0.3016912341117859,-1.4585545698748987,-0.0,-0.02028048038482666,0.10671298205852509,0.0,0.05191647261381149,0.9041695594787598,-4.854386133956723e-05,0.13433687388896942
216.0,202.0,3.8387,2.0716,8.6943,0.0863,-0.1442,-0.146,-1.8287493191161097,-0.19341562688350677,2.9140849113464355,-1.5363620519638062,2.140498071030613e-34,2.2601473331451416,4.476541205043457,0.0002268873358843848,0.307273805141449,-1.4585464636432093,-0.0,-0.017788508906960487,0.1067170724272728,0.0,0.050538040697574615,0.9041453003883362,-4.605955837178044e-05,0.12855485081672668
216.0,202.0,3.8387,2.0716,8.6943,0.0863,-0.1442,-0.146,-1.830231329003805,-0.1875971108675003,2.8913841247558594,-1.5363935232162476,6.93502609994352e-42,2.250126600265503,4.476557417506836,0.0002264648355776444,0.3154342770576477,-1.4585664908038538,-0.0,-0.023042336106300354,0.10674909502267838,0.0,0.037386178970336914,0.9041292667388916,-4.311740121920593e-05,0.14249232411384583
216.0,202.0,3.8387,2.0716,8.6943,0.0863,-0.1442,-0.146,-1.8313895664610804,-0.18351836502552032,2.9304778575897217,-1.536442518234253,0.0,2.282820224761963,4.476569338435791,0.00023400333884637803,0.2982754707336426,-1.4585383574115198,-0.0,-0.027117442339658737,0.1067170724272728,0.0,0.0333755798637867,0.9041173458099365,-4.114622424822301e-05,0.1426231563091278
216.0,202.0,3.8387,2.0716,8.6943,0.0863,-0.1442,-0.146,-1.8323985538878382,-0.18489724397659302,2.917989730834961,-1.536442518234253,-0.0,2.2508597373962402,4.476524992580078,0.00019648944726213813,0.3025225102901459,-1.4585707823382776,-0.0,-0.039608925580978394,0.10671672970056534,0.0,0.04596634954214096,0.9041416049003601,-3.9347356505459175e-05,0.1524171233177185
216.0,202.0,3.8387,2.0716,8.6943,0.0863,-0.1442,-0.146,-1.8338009319701136,-0.1775227040052414,2.9191086292266846,-1.5363743305206299,0.00018653579172678292,2.2637441158294678,4.476596994990967,0.0024317558854818344,0.30977728962898254,-1.4585784117328089,-0.0,-0.030991870909929276,0.10675729066133499,0.0,0.04892492666840553,0.9040932655334473,-3.7180070648901165e-05,0.16520988941192627
216.0,202.0,3.8387,2.0716,8.6943,0.0863,-0.1442,-0.146,-1.834813734094137,-0.17480139434337616,2.9243996143341064,-1.5363380908966064,0.0021794214844703674,2.3229260444641113,4.476632280940674,0.0056456634774804115,0.3029189705848694,-1.4586103598224085,-0.0,-0.035735439509153366,0.10676101595163345,0.0,0.04644563049077988,0.9041535258293152,-3.570508488337509e-05,0.14869138598442078
216.0,202.0,3.8387,2.0716,8.6943,0.0863,-0.1442,-0.146,-1.8358313045897425,-0.1749477982521057,2.8950369358062744,-1.536410927772522,0.004613047000020742,2.2821056842803955,4.476668520564697,0.009177817963063717,0.3162473440170288,-1.4585378805743616,-0.0,-0.04558291286230087,0.10671750456094742,0.0,0.045891761779785156,0.9041457176208496,-4.188192178844474e-05,0.1519116312265396
216.0,202.0,3.8387,2.0716,8.6943,0.0863,-0.1442,-0.146,-1.8372327289977015,-0.16492615640163422,2.9391233921051025,-1.5362499952316284,0.007244485896080732,2.2931647300720215,4.476836844081543,0.01462810579687357,0.3284928798675537,-1.4585707823382776,-0.0,-0.019906360656023026,0.1067412793636322,0.0,0.04843888804316521,0.9041256308555603,-4.357334546511993e-05,0.13510070741176605
