ramyac6/ROB537/final_project/csv/bad/bad_32.csv
tof_0,tof_1,accelx,accely,accelz,gyrox,gyroy,gyroz,shoulder_lift_joint_position,shoulder_lift_joint_velocity,shoulder_lift_joint_effort,elbow_joint_position,elbow_joint_velocity,elbow_joint_effort,wrist_1_joint_position,wrist_1_joint_velocity,wrist_1_joint_effort,wrist_2_joint_position,wrist_2_joint_velocity,wrist_2_joint_effort,wrist_3_joint_position,wrist_3_joint_velocity,wrist_3_joint_effort,shoulder_pan_joint_position,shoulder_pan_joint_velocity,shoulder_pan_joint_effort
179.0,209.0,3.3302,-2.0375,8.5484,-0.0414,0.0218,-0.1173,-1.7044335804381312,0.0,2.764507532119751,-1.5949575901031494,-0.0,2.1591410636901855,4.475731535548828,0.0,0.28993022441864014,-1.320845905934469,0.0,-0.03771653771400452,0.7633137702941895,0.0,-0.022767843678593636,1.3522193431854248,0.0,-0.07293419539928436
179.0,209.0,3.3302,-2.0375,8.5484,-0.0414,0.0218,-0.1173,-1.7044006786742152,0.0,2.755688190460205,-1.5949695110321045,-0.0,2.188124656677246,4.475655718440674,0.0,0.28995099663734436,-1.3208625952350062,0.0,-0.03678922355175018,0.7632937431335449,0.0,-0.010026989504694939,1.352223515510559,0.0,-0.0027052834630012512
179.0,209.0,3.3302,-2.0375,8.5484,-0.0414,0.0218,-0.1173,-1.704421182672018,0.0,2.7665514945983887,-1.5949137210845947,-0.0,2.1683034896850586,4.4757115083881835,0.0,0.28258922696113586,-1.3208263556109827,0.0,-0.027632489800453186,0.7633137702941895,0.0,0.0037839487195014954,1.3522552251815796,0.0,0.01257659588009119
179.0,209.0,3.3302,-2.0375,8.5484,-0.0414,0.0218,-0.1173,-1.70438875774526,0.0,2.8035027980804443,-1.5949292182922363,-0.0,2.1639223098754883,4.4756995874592285,0.0,0.2841266989707947,-1.3208497206317347,0.0,-0.02829333022236824,0.763229489326477,0.0,-0.023514483124017715,1.3522429466247559,0.0,-0.0203486867249012
179.0,209.0,3.3302,-2.0375,8.5484,-0.0414,0.0218,-0.1173,-1.7044488392271937,0.0,2.7645304203033447,-1.5949375629425049,-0.0,2.1950278282165527,4.47567526876416,0.0,0.2881088852882385,-1.3208826223956507,0.0,-0.03579045459628105,0.7632818222045898,0.0,-0.004258998669683933,1.3521790504455566,0.0,-0.000223665963858366
179.0,209.0,3.3302,-2.0375,8.5484,-0.0414,0.0218,-0.1173,-1.7044125996031703,0.0,2.7415177822113037,-1.594989538192749,-0.0,2.202677011489868,4.475687666530273,0.0,0.28496116399765015,-1.3208301703082483,0.0,-0.03789481893181801,0.7633056640625,0.0,-0.008683446794748306,1.352167010307312,0.0,-0.027830295264720917
179.0,209.0,3.3302,-2.0375,8.5484,-0.0414,0.0218,-0.1173,-1.704416891137594,0.0,2.7344202995300293,-1.5949695110321045,-0.0,2.1638898849487305,4.475655718440674,0.0,0.2979651391506195,-1.320838753377096,0.0,-0.0292661152780056,0.7632696032524109,0.0,0.007070197723805904,1.3522112369537354,0.0,-0.0070741791278123856
179.0,209.0,3.3302,-2.0375,8.5484,-0.0414,0.0218,-0.1173,-1.7043806515135707,0.0,2.75809383392334,-1.5949654579162598,-0.0,2.1991453170776367,4.475691481227539,0.0,0.279860258102417,-1.320838753377096,0.0,-0.028499282896518707,0.7632654905319214,0.0,-0.013349072076380253,1.3522312641143799,0.0,0.016171693801879883
179.0,209.0,3.3302,-2.0375,8.5484,-0.0414,0.0218,-0.1173,-1.7043806515135707,0.0,2.787229061126709,-1.5949575901031494,-0.0,2.178818464279175,4.47567526876416,0.0,0.28679385781288147,-1.320845905934469,0.0,-0.04206376150250435,0.7632818222045898,0.0,-0.003262939630076289,1.3522231578826904,0.0,-0.000634901924058795
179.0,209.0,3.3302,-2.0375,8.5484,-0.0414,0.0218,-0.1173,-1.704477926293844,0.0,2.7694621086120605,-1.5949013233184814,-0.0,2.1848349571228027,4.475679083461426,0.0,0.288227915763855,-1.3208583037005823,0.0,-0.039957232773303986,0.7632778286933899,0.0,-0.006144278217107058,1.3522388935089111,0.0,0.028755489736795425
175.0,221.0,3.3601,-2.0273,8.6022,-0.0351,0.022,-0.1191,-1.704416891137594,0.0,2.7450952529907227,-1.5949416160583496,-0.0,2.1840462684631348,4.475643797511719,0.0,0.2939121127128601,-1.3208864370929163,0.0,-0.03591754287481308,0.7632696628570557,0.0,-0.008557728491723537,1.3522394895553589,0.0,-0.017070531845092773
175.0,221.0,3.3601,-2.0273,8.6022,-0.0351,0.022,-0.1191,-1.7044373951353968,0.0,2.7616143226623535,-1.5949211120605469,-0.0,2.189584732055664,4.475715323085449,0.0,0.28861331939697266,-1.3208783308612269,0.0,-0.03248508274555206,0.7633060216903687,0.0,-0.004268299788236618,1.3522030115127563,0.0,0.010313346982002258
175.0,221.0,3.3601,-2.0273,8.6022,-0.0351,0.022,-0.1191,-1.704404970208639,0.0,2.719576835632324,-1.5949177742004395,-0.0,2.1806797981262207,4.47567526876416,0.0,0.29041388630867004,-1.3208983580218714,0.0,-0.03800968453288078,0.7632818222045898,0.0,-0.024418940767645836,1.3522469997406006,0.0,0.02877143584191799
175.0,221.0,3.3601,-2.0273,8.6022,-0.0351,0.022,-0.1191,-1.7043806515135707,0.0,2.7399606704711914,-1.5949656963348389,-0.0,2.1765453815460205,4.475715323085449,0.0,0.28875988721847534,-1.3208583037005823,0.0,-0.03306775912642479,0.7632941007614136,0.0,-0.01740129664540291,1.3522509336471558,0.0,0.04226616024971008
175.0,221.0,3.3601,-2.0273,8.6022,-0.0351,0.022,-0.1191,-1.7044006786742152,0.0,2.7561259269714355,-1.5949015617370605,-0.0,2.1379380226135254,4.4757115083881835,0.0,0.2932240962982178,-1.320874039326803,0.0,-0.035409972071647644,0.7633019685745239,0.0,-0.003353698644787073,1.3521630764007568,0.0,0.0081968167796731
175.0,221.0,3.3601,-2.0273,8.6022,-0.0351,0.022,-0.1191,-1.7044092617430628,0.0,2.7642123699188232,-1.5949575901031494,-0.0,2.1566436290740967,4.47567526876416,0.0,0.29112696647644043,-1.3208540121661585,0.0,-0.03186499699950218,0.7633137702941895,0.0,-0.007011371664702892,1.3522875308990479,0.0,0.027621248736977577
175.0,221.0,3.3601,-2.0273,8.6022,-0.0351,0.022,-0.1191,-1.7044249973692835,0.0,2.763471841812134,-1.5949537754058838,-0.0,2.172781229019165,4.4756995874592285,0.0,0.28190234303474426,-1.3208583037005823,0.0,-0.0330657996237278,0.7632937431335449,0.0,-0.0225025936961174,1.3522353172302246,0.0,0.01654619351029396
175.0,221.0,3.3601,-2.0273,8.6022,-0.0351,0.022,-0.1191,-1.7044617138304652,0.0,2.759916305541992,-1.5949735641479492,-0.0,2.127995014190674,4.475651903743408,0.0,0.2844468355178833,-1.3208306471454065,0.0,-0.026186397299170494,0.7632737159729004,0.0,-0.01481827162206173,1.3522388935089111,0.0,-0.013619033619761467
175.0,221.0,3.3601,-2.0273,8.6022,-0.0351,0.022,-0.1191,-1.7044416866698207,0.0,2.7855911254882812,-1.59490966796875,-0.0,2.1638264656066895,4.475679083461426,0.0,0.28591057658195496,-1.3208263556109827,0.0,-0.025030650198459625,0.7632617950439453,0.0,-0.016762537881731987,1.3521870374679565,0.0,-0.009361326694488525
175.0,221.0,3.3601,-2.0273,8.6022,-0.0351,0.022,-0.1191,-1.7044249973692835,0.0,2.7542500495910645,-1.5949816703796387,-0.0,2.1743602752685547,4.475691481227539,0.0,0.2893148362636566,-1.3208864370929163,0.0,-0.040892042219638824,0.7632937431335449,0.0,-0.016420479863882065,1.352223515510559,0.0,0.006467029452323914
175.0,221.0,3.3601,-2.0273,8.6022,-0.0351,0.022,-0.1191,-1.704449316064352,0.0,2.7371444702148438,-1.594933271408081,-0.0,2.2013936042785645,4.475743456477783,0.0,0.29893758893013,-1.3208101431476038,0.0,-0.02293222025036812,0.7632977962493896,0.0,0.00327904406003654,1.3522030115127563,0.0,0.0010160189121961594
175.0,221.0,3.3601,-2.0273,8.6022,-0.0351,0.022,-0.1191,-1.704404970208639,0.0,2.7747132778167725,-1.5949695110321045,-0.0,2.1641507148742676,4.475695295924805,0.0,0.28275543451309204,-1.3208335081683558,0.0,-0.02619929425418377,0.7632495164871216,0.0,-0.007854525931179523,1.3522030115127563,0.0,-0.017274286597967148
175.0,221.0,3.3601,-2.0273,8.6022,-0.0351,0.022,-0.1191,-1.704393049279684,0.0,2.7435221672058105,-1.5949056148529053,-0.0,2.191180944442749,4.475719614619873,0.0,0.3054659366607666,-1.3208344618426722,0.0,-0.044463422149419785,0.7632335424423218,0.0,-0.005595160182565451,1.3522030115127563,0.0,0.00870108138769865
175.0,221.0,3.3601,-2.0273,8.6022,-0.0351,0.022,-0.1191,-1.70438875774526,0.0,2.7417359352111816,-1.5949456691741943,-0.0,2.157017230987549,4.475751085872314,0.0,0.2936451733112335,-1.3208263556109827,0.0,-0.04171944409608841,0.7632818222045898,0.0,-0.018311364576220512,1.3522030115127563,0.0,0.029076550155878067
175.0,221.0,3.3601,-2.0273,8.6022,-0.0351,0.022,-0.1191,-1.70438875774526,0.0,2.722355365753174,-1.5949015617370605,-0.0,2.1754250526428223,4.475663824672363,0.0,0.3004755675792694,-1.3208220640765589,0.0,-0.03570704907178879,0.763237714767456,0.0,-0.00669983122497797,1.3522071838378906,0.0,0.06370130181312561
175.0,221.0,3.3601,-2.0273,8.6022,-0.0351,0.022,-0.1191,-1.7044335804381312,0.0,2.775799512863159,-1.5949054956436157,-0.0,2.177706241607666,4.47567526876416,0.0,0.29048383235931396,-1.3208182493792933,0.0,-0.03364763408899307,0.763342022895813,0.0,-0.01034636702388525,1.3522510528564453,0.0,0.014846505597233772
175.0,221.0,3.3601,-2.0273,8.6022,-0.0351,0.022,-0.1191,-1.7043806515135707,0.0,2.731391429901123,-1.5949616432189941,-0.0,2.1601691246032715,4.475687189693115,0.0,0.30276256799697876,-1.32080585161318,0.0,-0.035614125430583954,0.7632413506507874,0.0,-0.018812991678714752,1.3521870374679565,0.0,0.026874739676713943
175.0,221.0,3.3601,-2.0273,8.6022,-0.0351,0.022,-0.1191,-1.7044011555113734,0.0,2.7617945671081543,-1.5949056148529053,-0.0,2.178989887237549,4.475635691280029,0.0,0.2953198552131653,-1.3208263556109827,0.0,-0.03390232101082802,0.7632737159729004,0.0,-0.015166006982326508,1.352178931236267,0.0,0.01824641227722168
186.0,221.0,3.2961,-2.0052,8.5017,-0.0347,0.0212,-0.1174,-1.7044292889037074,0.0,2.777127742767334,-1.5949535369873047,-0.0,2.2235894203186035,4.475727244014404,0.0,0.28837332129478455,-1.3207977453814905,0.0,-0.03611786663532257,0.7632335424423218,0.0,-0.0123831732198596,1.3522353172302246,0.0,0.006515569984912872
186.0,221.0,3.2961,-2.0052,8.5017,-0.0347,0.0212,-0.1174,-1.704421182672018,0.0,2.7677969932556152,-1.594933271408081,-0.0,2.1848573684692383,4.4757115083881835,0.0,0.2975291311740875,-1.3208707014666956,0.0,-0.018821360543370247,0.7631891965866089,0.0,-0.011124428361654282,1.352194905281067,0.0,-0.008139699697494507
186.0,221.0,3.2961,-2.0052,8.5017,-0.0347,0.0212,-0.1174,-1.7043849430479945,0.0,2.7460756301879883,-1.594933271408081,-0.0,2.194204807281494,4.475695295924805,0.0,0.29529136419296265,-1.3208263556109827,0.0,-0.03164628893136978,0.7632818222045898,0.0,-0.013993542641401291,1.3522510528564453,0.0,-0.020130228251218796
186.0,221.0,3.2961,-2.0052,8.5017,-0.0347,0.0212,-0.1174,-1.704393049279684,0.0,2.73976469039917,-1.5948891639709473,-0.0,2.2026143074035645,4.475651903743408,0.0,0.28857842087745667,-1.3208425680743616,0.0,-0.02710205316543579,0.7632941007614136,0.0,-0.009625989943742752,1.3522112369537354,0.0,-0.025478538125753403
186.0,221.0,3.2961,-2.0052,8.5017,-0.0347,0.0212,-0.1174,-1.7043968639769496,0.0,2.7745845317840576,-1.5949575901031494,-0.0,2.211732864379883,4.475707693690918,0.0,0.29878273606300354,-1.3208583037005823,0.0,-0.019971828907728195,0.7632937431335449,0.0,-0.013004273176193237,1.3522273302078247,0.0,-0.015299036167562008
186.0,221.0,3.2961,-2.0052,8.5017,-0.0347,0.0212,-0.1174,-1.7044125996031703,0.0,2.718219757080078,-1.5949898958206177,-0.0,2.1253275871276855,4.475691481227539,0.0,0.2935006618499756,-1.320845905934469,0.0,-0.03231482207775116,0.7632536292076111,0.0,-0.018920235335826874,1.3521952629089355,0.0,0.032820433378219604
186.0,221.0,3.2961,-2.0052,8.5017,-0.0347,0.0212,-0.1174,-1.7043973408141078,0.0,2.7332210540771484,-1.5949457883834839,-0.0,2.1717910766601562,4.475691481227539,0.0,0.29622194170951843,-1.3208139578448694,0.0,-0.039874251931905746,0.7632578015327454,0.0,-0.0010886476375162601,1.3522030115127563,0.0,-0.02605290338397026
186.0,221.0,3.2961,-2.0052,8.5017,-0.0347,0.0212,-0.1174,-1.7044373951353968,0.0,2.769885540008545,-1.5949735641479492,-0.0,2.181457281112671,4.475687189693115,0.0,0.29881951212882996,-1.3208306471454065,0.0,-0.04251037538051605,0.7632737159729004,0.0,-0.008549187332391739,1.35221529006958,0.0,0.0023858449421823025
186.0,221.0,3.2961,-2.0052,8.5017,-0.0347,0.0212,-0.1174,-1.7044373951353968,0.0,2.76654052734375,-1.5949416160583496,-0.0,2.1805667877197266,4.475687189693115,0.0,0.29550740122795105,-1.3208416144000452,0.0,-0.03368768095970154,0.7632736563682556,0.0,0.00183573504909873,1.35221529006958,0.0,-0.005552757531404495
186.0,221.0,3.2961,-2.0052,8.5017,-0.0347,0.0212,-0.1174,-1.7044335804381312,0.0,2.757418155670166,-1.5949658155441284,-0.0,2.159435749053955,4.475655718440674,0.0,0.2902200222015381,-1.3208497206317347,0.0,-0.025588802993297577,0.7632937431335449,0.0,-0.005637533962726593,1.3522030115127563,0.0,0.002224328927695751
186.0,221.0,3.2961,-2.0052,8.5017,-0.0347,0.0212,-0.1174,-1.7044125996031703,0.0,2.7749273777008057,-1.5950018167495728,-0.0,2.1802215576171875,4.475723429317139,0.0,0.2876763939857483,-1.3208745161639612,0.0,-0.033503446727991104,0.7632937431335449,0.0,-0.01039154827594757,1.3522030115127563,0.0,-0.05470387265086174
186.0,221.0,3.2961,-2.0052,8.5017,-0.0347,0.0212,-0.1174,-1.7044092617430628,0.0,2.742124319076538,-1.5949814319610596,-0.0,2.1645474433898926,4.475723429317139,0.0,0.29194024205207825,-1.3208377997027796,0.0,-0.03472258150577545,0.7633256912231445,0.0,3.685499541461468e-05,1.3522073030471802,0.0,-0.008671094663441181
186.0,221.0,3.2961,-2.0052,8.5017,-0.0347,0.0212,-0.1174,-1.704421182672018,0.0,2.7430849075317383,-1.5949498414993286,-0.0,2.1705594062805176,4.475659533137939,0.0,0.2924543619155884,-1.3208306471454065,0.0,-0.04892423748970032,0.7633097171783447,0.0,0.006421800237149,1.3522275686264038,0.0,-0.037039630115032196
186.0,221.0,3.2961,-2.0052,8.5017,-0.0347,0.0212,-0.1174,-1.704393049279684,0.0,2.758601427078247,-1.5949575901031494,-0.0,2.1532440185546875,4.475707693690918,0.0,0.28627729415893555,-1.3208583037005823,0.0,-0.04134812206029892,0.7632655501365662,0.0,-0.004921034909784794,1.3522353172302246,0.0,0.0221644788980484
186.0,221.0,3.2961,-2.0052,8.5017,-0.0347,0.0212,-0.1174,-1.7044292889037074,0.0,2.7442402839660645,-1.5949617624282837,-0.0,2.1515233516693115,4.475670977229736,0.0,0.28829047083854675,-1.3208425680743616,0.0,-0.030244877561926842,0.7633379101753235,0.0,-0.0034865643829107285,1.3522435426712036,0.0,-0.026113947853446007
186.0,221.0,3.2961,-2.0052,8.5017,-0.0347,0.0212,-0.1174,-1.7044292889037074,0.0,2.738986015319824,-1.5948530435562134,-0.0,2.161353588104248,4.475647612208984,0.0,0.2932836413383484,-1.3208258787738245,0.0,-0.04201589152216911,0.7632696628570557,0.0,-0.019506584852933884,1.35221529006958,0.0,0.019971385598182678
186.0,221.0,3.2961,-2.0052,8.5017,-0.0347,0.0212,-0.1174,-1.7043730221190394,0.0,2.735684394836426,-1.5949654579162598,-0.0,2.1528685092926025,4.475691481227539,4.607059622685483e-09,0.29635271430015564,-1.3208220640765589,0.0,-0.02528221718966961,0.7632417678833008,0.0,-0.0046989526599645615,1.3522071838378906,0.0,0.01610497385263443
186.0,221.0,3.2961,-2.0052,8.5017,-0.0347,0.0212,-0.1174,-1.70438875774526,0.0,2.750114679336548,-1.5949095487594604,-0.0,2.1754631996154785,4.475670977229736,1.964061725756583e-11,0.29027706384658813,-1.3208263556109827,0.0,-0.04046764597296715,0.7632977962493896,0.0,-0.009001282975077629,1.3522469997406006,0.0,-0.017542067915201187
186.0,221.0,3.2961,-2.0052,8.5017,-0.0347,0.0212,-0.1174,-1.7044455013670863,0.0,2.784114360809326,-1.5949054956436157,-0.0,2.157303810119629,4.475667162532471,8.37310228747265e-14,0.29761531949043274,-1.3208544890033167,0.0,-0.03567788377404213,0.7632737159729004,0.0,-0.006145567167550325,1.35221529006958,0.0,-0.0019700401462614536
183.0,201.0,3.3045,-2.0177,8.4389,-0.0356,0.0275,-0.1254,-1.704404970208639,0.0,2.7748780250549316,-1.5949252843856812,-0.0,2.157727003097534,4.475667162532471,2.3306834499557445e-17,0.2901560068130493,-1.320845905934469,0.0,-0.04792509600520134,0.7632577419281006,0.0,-0.021710427477955818,1.3522030115127563,0.0,-0.03352224454283714
183.0,201.0,3.3045,-2.0177,8.4389,-0.0356,0.0275,-0.1254,-1.7043968639769496,0.0,2.714277505874634,-1.5949575901031494,-0.0,2.2554986476898193,4.47562758504834,9.936068961062533e-20,0.29475265741348267,-1.3208540121661585,0.0,-0.036786533892154694,0.7633297443389893,0.0,-0.015605755150318146,1.3522273302078247,0.0,-0.004702108912169933
183.0,201.0,3.3045,-2.0177,8.4389,-0.0356,0.0275,-0.1254,-1.7043568096556605,0.0,2.7308835983276367,-1.5949735641479492,-0.0,2.162576675415039,4.47567526876416,2.765741284995074e-23,0.29303884506225586,-1.320838753377096,0.0,-0.03789737820625305,0.7632417678833008,0.0,-0.00849994458258152,1.3521510362625122,0.0,-0.017190128564834595
183.0,201.0,3.3045,-2.0177,8.4389,-0.0356,0.0275,-0.1254,-1.70438875774526,0.0,2.7299656867980957,-1.5949535369873047,-0.0,2.1690454483032227,4.475695295924805,1.179078963857154e-25,0.2990577816963196,-1.3208983580218714,0.0,-0.04287372902035713,0.7633219361305237,0.0,-0.005922812502831221,1.352223515510559,0.0,0.006261592730879784
183.0,201.0,3.3045,-2.0177,8.4389,-0.0356,0.0275,-0.1254,-1.7043968639769496,0.0,2.7288925647735596,-1.5949177742004395,-0.0,2.1405720710754395,4.475687189693115,5.026598673205452e-28,0.30283665657043457,-1.320793930684225,0.0,-0.024543670937418938,0.7633097171783447,0.0,-0.007363566197454929,1.3522071838378906,0.0,-0.02788563072681427
183.0,201.0,3.3045,-2.0177,8.4389,-0.0356,0.0275,-0.1254,-1.7044292889037074,0.0,2.7779903411865234,-1.5949416160583496,-0.0,2.2240467071533203,4.475663824672363,1.3991721178741557e-31,0.29165416955947876,-1.3208826223956507,0.0,-0.0367092490196228,0.7633100152015686,0.0,-0.015985623002052307,1.3522435426712036,0.0,0.07089129835367203
183.0,201.0,3.3045,-2.0177,8.4389,-0.0356,0.0275,-0.1254,-1.7044292889037074,0.0,2.755669355392456,-1.5949575901031494,-0.0,2.2035584449768066,4.475659533137939,5.964889962904229e-34,0.29498958587646484,-1.3208344618426722,0.0,-0.028348425403237343,0.7632737159729004,0.0,-0.015016399323940277,1.3522394895553589,0.0,0.01645836979150772
183.0,201.0,3.3045,-2.0177,8.4389,-0.0356,0.0275,-0.1254,-1.7043968639769496,0.0,2.776608943939209,-1.5949535369873047,-0.0,2.1558189392089844,4.475687189693115,1.6603491125686544e-37,0.29390543699264526,-1.3208416144000452,0.0,-0.0408734530210495,0.7633059620857239,0.0,-0.01101377047598362,1.3522510528564453,0.0,-0.02527567930519581
183.0,201.0,3.3045,-2.0177,8.4389,-0.0356,0.0275,-0.1254,-1.7044092617430628,0.0,2.7902188301086426,-1.5949375629425049,-0.0,2.170912027359009,4.475670977229736,7.0783228809053755e-40,0.3035263419151306,-1.320838753377096,0.0,-0.027747679501771927,0.7633821368217468,0.0,-0.009193934500217438,1.3522353172302246,0.0,-0.01131327822804451
183.0,201.0,3.3045,-2.0177,8.4389,-0.0356,0.0275,-0.1254,-1.7043849430479945,0.0,2.7709169387817383,-1.5949457883834839,-0.0,2.162263870239258,4.475682898158691,3.016995593691331e-42,0.29598838090896606,-1.3208497206317347,0.0,-0.02946113795042038,0.7632899880409241,0.0,-0.013489821925759315,1.3522353172302246,0.0,-0.0518362894654274
183.0,201.0,3.3045,-2.0177,8.4389,-0.0356,0.0275,-0.1254,-1.7044373951353968,0.0,2.7411317825317383,-1.5949177742004395,-0.0,2.1977858543395996,4.475659533137939,1.401298464324817e-45,0.30091291666030884,-1.3208344618426722,0.0,-0.020698491483926773,0.7632614970207214,0.0,-0.010865136049687862,1.3522231578826904,0.0,-0.019408445805311203
183.0,201.0,3.3045,-2.0177,8.4389,-0.0356,0.0275,-0.1254,-1.7044006786742152,0.0,2.7485451698303223,-1.5949095487594604,-0.0,2.1841883659362793,4.475703402156494,0.0,0.2955361604690552,-1.3208783308612269,0.0,-0.025996193289756775,0.7632982134819031,0.0,-0.01697137951850891,1.3521870374679565,0.0,-0.02020862326025963
183.0,201.0,3.3045,-2.0177,8.4389,-0.0356,0.0275,-0.1254,-1.7044292889037074,0.0,2.7252211570739746,-1.5949095487594604,-0.0,2.182968854904175,4.475682898158691,0.0,0.2774147391319275,-1.3208377997027796,0.0,-0.042564064264297485,0.7633338570594788,0.0,-0.010532980784773827,1.3522353172302246,0.0,0.0018636444583535194
183.0,201.0,3.3045,-2.0177,8.4389,-0.0356,0.0275,-0.1254,-1.7044130764403285,0.0,2.761589288711548,-1.5949457883834839,-0.0,2.1389355659484863,4.475691481227539,0.0,0.29759716987609863,-1.3208139578448694,0.0,-0.027127820998430252,0.7633097171783447,0.0,-0.014130732044577599,1.3522030115127563,0.0,0.00239354046061635
183.0,201.0,3.3045,-2.0177,8.4389,-0.0356,0.0275,-0.1254,-1.7044125996031703,0.0,2.7242724895477295,-1.594989538192749,-0.0,2.1642918586730957,4.4756995874592285,0.0,0.2919285297393799,-1.3208344618426722,0.0,-0.027044404298067093,0.7632899880409241,0.0,-0.015977520495653152,1.3522435426712036,0.0,0.00489346869289875
183.0,201.0,3.3045,-2.0177,8.4389,-0.0356,0.0275,-0.1254,-1.704404970208639,0.0,2.7633683681488037,-1.5949735641479492,-0.0,2.190788745880127,4.475707693690918,0.0,0.3000372648239136,-1.3208907286273401,0.0,-0.04730250686407089,0.7633137702941895,0.0,0.0021939766593277454,1.3522112369537354,0.0,0.0002610573428682983
183.0,201.0,3.3045,-2.0177,8.4389,-0.0356,0.0275,-0.1254,-1.7044373951353968,0.0,2.7810535430908203,-1.5948930978775024,-0.0,2.1473846435546875,4.475751085872314,0.0,0.2867693305015564,-1.3208263556109827,0.0,-0.029215775430202484,0.7632536888122559,0.0,-0.019592925906181335,1.3522193431854248,0.0,0.0019321823492646217
183.0,201.0,3.3045,-2.0177,8.4389,-0.0356,0.0275,-0.1254,-1.704421182672018,0.0,2.7590928077697754,-1.5949095487594604,-0.0,2.181100845336914,4.475635691280029,0.0,0.30439645051956177,-1.3208220640765589,0.0,-0.033811215311288834,0.7633419632911682,0.0,-0.010167131200432777,1.3522189855575562,0.0,-0.04019443690776825
175.0,222.0,3.3392,-2.0237,8.464,-0.0374,0.0266,-0.1184,-1.7043854198851527,0.0,2.745264768600464,-1.5949209928512573,-0.0,2.146491527557373,4.475655718440674,0.0,0.2937399446964264,-1.320845905934469,0.0,-0.04923282563686371,0.7633097171783447,0.0,-0.011466573923826218,1.352223515510559,0.0,-0.034171514213085175
175.0,222.0,3.3392,-2.0237,8.464,-0.0374,0.0266,-0.1184,-1.7044574222960414,0.0,2.7507736682891846,-1.59494948387146,-0.0,2.1953511238098145,4.475687189693115,0.0,0.2879393696784973,-1.320845905934469,0.0,-0.040118928998708725,0.7633137702941895,0.0,0.00875547993928194,1.3522071838378906,0.0,0.046232808381319046
175.0,222.0,3.3392,-2.0237,8.464,-0.0374,0.0266,-0.1184,-1.7044373951353968,0.0,2.7324252128601074,-1.5949292182922363,-0.0,2.170318126678467,4.475682898158691,0.0,0.3022615313529968,-1.320845905934469,0.0,-0.03601421043276787,0.7632777690887451,0.0,-0.008401194587349892,1.3521510362625122,0.0,0.008685610257089138
175.0,222.0,3.3392,-2.0237,8.464,-0.0374,0.0266,-0.1184,-1.7043968639769496,0.0,2.7718942165374756,-1.5949457883834839,-0.0,2.182981252670288,4.475639505977295,0.0,0.2836419939994812,-1.3208263556109827,0.0,-0.04195654019713402,0.7632614970207214,0.0,-0.00026567280292510986,1.3522071838378906,0.0,8.399994112551212e-05
175.0,222.0,3.3392,-2.0237,8.464,-0.0374,0.0266,-0.1184,-1.7044125996031703,0.0,2.753858804702759,-1.5949654579162598,-0.0,2.1646745204925537,4.475687189693115,0.0,0.2913626730442047,-1.320874039326803,0.0,-0.028651278465986252,0.7632696628570557,0.0,-0.003353001084178686,1.3522353172302246,0.0,-0.00064240483334288
175.0,222.0,3.3392,-2.0237,8.464,-0.0374,0.0266,-0.1184,-1.704416891137594,0.0,2.7469048500061035,-1.5949658155441284,-0.0,2.1475439071655273,4.4756995874592285,0.0,0.2863353192806244,-1.3208664099322718,0.0,-0.02376765012741089,0.7632696628570557,0.0,-0.01089070551097393,1.3522589206695557,0.0,0.002742149867117405
175.0,222.0,3.3392,-2.0237,8.464,-0.0374,0.0266,-0.1184,-1.704416891137594,0.0,2.7763895988464355,-1.5949498414993286,-0.0,2.165515899658203,4.475695295924805,0.0,0.28480201959609985,-1.3208540121661585,0.0,-0.030754752457141876,0.763237714767456,0.0,-0.015431424602866173,1.3522275686264038,0.0,-0.025060830637812614
175.0,222.0,3.3392,-2.0237,8.464,-0.0374,0.0266,-0.1184,-1.7044125996031703,0.0,2.7653162479400635,-1.5949817895889282,-0.0,2.1673154830932617,4.475703402156494,0.0,0.28718218207359314,-1.3208335081683558,0.0,-0.03403399884700775,0.7632696628570557,0.0,-0.019127074629068375,1.3522353172302246,0.0,-0.033576227724552155
175.0,222.0,3.3392,-2.0237,8.464,-0.0374,0.0266,-0.1184,-1.7044335804381312,0.0,2.775937795639038,-1.5949294567108154,-0.0,2.164863109588623,4.475663824672363,0.0,0.2867717146873474,-1.320845905934469,0.0,-0.024770189076662064,0.7632614374160767,0.0,-8.078338578343391e-05,1.3522711992263794,0.0,-0.005916032940149307
175.0,222.0,3.3392,-2.0237,8.464,-0.0374,0.0266,-0.1184,-1.704416891137594,0.0,2.798659324645996,-1.5949654579162598,-0.0,2.2140612602233887,4.475691481227539,0.0,0.28931134939193726,-1.3208344618426722,0.0,-0.04347239062190056,0.7633339166641235,0.0,-0.012914670631289482,1.3522312641143799,0.0,-0.050250094383955
175.0,222.0,3.3392,-2.0237,8.464,-0.0374,0.0266,-0.1184,-1.704416891137594,0.0,2.70218563079834,-1.5949457883834839,-0.0,2.1316657066345215,4.475670977229736,0.0,0.2970568835735321,-1.3208306471454065,0.0,-0.018562663346529007,0.7633257508277893,0.0,-0.0039068106561899185,1.3522189855575562,0.0,-0.017901668325066566
175.0,222.0,3.3392,-2.0237,8.464,-0.0374,0.0266,-0.1184,-1.704421182672018,0.0,2.760097026824951,-1.5949169397354126,-0.0,2.180915355682373,4.475687189693115,0.0,0.2908417284488678,-1.3208783308612269,0.0,-0.027559543028473854,0.7632736563682556,0.0,-0.008743696846067905,1.3522353172302246,0.0,0.02817980945110321
175.0,222.0,3.3392,-2.0237,8.464,-0.0374,0.0266,-0.1184,-1.7044335804381312,0.0,2.7781317234039307,-1.5949416160583496,-0.0,2.1575965881347656,4.475707693690918,0.0,0.3002731204032898,-1.3208702246295374,0.0,-0.034370798617601395,0.7632899880409241,0.0,-0.013127823360264301,1.3522589206695557,0.0,-0.022546637803316116
175.0,222.0,3.3392,-2.0237,8.464,-0.0374,0.0266,-0.1184,-1.7043687305846156,0.0,2.7574543952941895,-1.5949137210845947,-0.0,2.1412124633789062,4.475663824672363,0.0,0.28820255398750305,-1.3208583037005823,0.0,-0.0375271700322628,0.7633175849914551,0.0,-0.0020161550492048264,1.3521989583969116,0.0,0.015096817165613174
175.0,222.0,3.3392,-2.0237,8.464,-0.0374,0.0266,-0.1184,-1.704393049279684,0.0,2.7636735439300537,-1.5949013233184814,-0.0,2.2074172496795654,4.475691481227539,0.0,0.29279160499572754,-1.3208425680743616,0.0,-0.0463128462433815,0.7632899880409241,0.0,-0.019741764292120934,1.3522592782974243,0.0,-0.025996379554271698
175.0,222.0,3.3392,-2.0237,8.464,-0.0374,0.0266,-0.1184,-1.70444979290151,0.0,2.7650773525238037,-1.5949698686599731,-0.0,2.1985104084014893,4.475743456477783,0.0,0.28960758447647095,-1.320845905934469,0.0,-0.03599102795124054,0.7632737159729004,0.0,0.0020086653530597687,1.3521989583969116,0.0,-0.024090250954031944
175.0,222.0,3.3392,-2.0237,8.464,-0.0374,0.0266,-0.1184,-1.704416891137594,0.0,2.7325644493103027,-1.5949498414993286,-0.0,2.1883556842803955,4.47567526876416,0.0,0.28607672452926636,-1.320874039326803,0.0,-0.0354238823056221,0.7632577419281006,0.0,-0.010070836171507835,1.35221529006958,0.0,0.015244930982589722
175.0,222.0,3.3392,-2.0237,8.464,-0.0374,0.0266,-0.1184,-1.7043849430479945,0.0,2.731454610824585,-1.5949177742004395,-0.0,2.1912178993225098,4.475687189693115,0.0,0.287386953830719,-1.3208497206317347,0.0,-0.033475227653980255,0.7632455229759216,0.0,-0.0004947239067405462,1.3521989583969116,0.0,0.03232257813215256
175.0,222.0,3.3392,-2.0237,8.464,-0.0374,0.0266,-0.1184,-1.70436491588735,0.0,2.7576122283935547,-1.5949535369873047,-0.0,2.1845476627349854,4.475631399745605,0.0,0.29353785514831543,-1.3208664099322718,0.0,-0.04491347819566727,0.7633259892463684,0.0,-0.012562702409923077,1.3522273302078247,0.0,0.03961101174354553
184.0,217.0,3.2782,-2.0273,8.54,-0.0254,0.0252,-0.1124,-1.7044125996031703,0.0,2.7593536376953125,-1.5949416160583496,-0.0,2.1718077659606934,4.475727244014404,0.0,0.28272268176078796,-1.3208497206317347,0.0,-0.026556218042969704,0.7633460164070129,0.0,-0.007747699040919542,1.3522272109985352,0.0,-0.030299652367830276
184.0,217.0,3.2782,-2.0273,8.54,-0.0254,0.0252,-0.1124,-1.7044011555113734,0.0,2.7663722038269043,-1.5949335098266602,-0.0,2.161646604537964,4.475695295924805,0.0,0.28605028986930847,-1.3208625952350062,0.0,-0.03179202228784561,0.7633019089698792,0.0,-0.011236206628382206,1.3522193431854248,0.0,0.015182461589574814
184.0,217.0,3.2782,-2.0273,8.54,-0.0254,0.0252,-0.1124,-1.704376836816305,0.0,2.7547876834869385,-1.5949454307556152,-0.0,2.1968448162078857,4.475643797511719,0.0,0.28989899158477783,-1.3208583037005823,0.0,-0.029382072389125824,0.7633137702941895,0.0,-0.007676710374653339,1.3522030115127563,0.0,0.0011118017137050629
184.0,217.0,3.2782,-2.0273,8.54,-0.0254,0.0252,-0.1124,-1.70438875774526,0.0,2.7206058502197266,-1.5949292182922363,-0.0,2.197965383529663,4.475670977229736,0.0,0.27741843461990356,-1.3208344618426722,0.0,-0.019152961671352386,0.7633219361305237,0.0,-0.010956354439258575,1.3522112369537354,0.0,0.02113150805234909
184.0,217.0,3.2782,-2.0273,8.54,-0.0254,0.0252,-0.1124,-1.7044292889037074,0.0,2.750157356262207,-1.5949292182922363,-0.0,2.1739535331726074,4.475667639369629,0.0,0.28719648718833923,-1.3208139578448694,0.0,-0.030093278735876083,0.7632818222045898,0.0,-0.011356061324477196,1.3522193431854248,0.0,-0.024415122345089912
184.0,217.0,3.2782,-2.0273,8.54,-0.0254,0.0252,-0.1124,-1.7044455013670863,0.0,2.7612364292144775,-1.594985842704773,-0.0,2.1987464427948,4.475667639369629,0.0,0.28213801980018616,-1.3208335081683558,0.0,-0.03325774520635605,0.7632977962493896,0.0,-0.011535082012414932,1.3522030115127563,0.0,-0.026878194883465767
184.0,217.0,3.2782,-2.0273,8.54,-0.0254,0.0252,-0.1124,-1.7044455013670863,0.0,2.7469186782836914,-1.5949218273162842,-0.0,2.2102909088134766,4.475670977229736,0.0,0.2876623272895813,-1.3208377997027796,0.0,-0.04242639243602753,0.7632455229759216,0.0,-0.003458236576989293,1.3522112369537354,0.0,-0.008352236822247505
184.0,217.0,3.2782,-2.0273,8.54,-0.0254,0.0252,-0.1124,-1.7043806515135707,0.0,2.747313976287842,-1.594985842704773,-0.0,2.198094367980957,4.47567526876416,0.0,0.29854732751846313,-1.3208306471454065,0.0,-0.0453147329390049,0.7632737159729004,0.0,0.006780533120036125,1.3522475957870483,0.0,0.004803118295967579
184.0,217.0,3.2782,-2.0273,8.54,-0.0254,0.0252,-0.1124,-1.704421182672018,0.0,2.7557790279388428,-1.5949013233184814,-0.0,2.191409111022949,4.475703402156494,0.0,0.29410791397094727,-1.3208497206317347,0.0,-0.03654918819665909,0.7632859349250793,0.0,-0.009904003702104092,1.3522030115127563,0.0,0.0037751365453004837
184.0,217.0,3.2782,-2.0273,8.54,-0.0254,0.0252,-0.1124,-1.704404970208639,0.0,2.7764577865600586,-1.5949457883834839,-0.0,2.1748368740081787,4.475703402156494,0.0,0.29615917801856995,-1.320845905934469,0.0,-0.02886718139052391,0.7632654905319214,0.0,-0.010625215247273445,1.3523194789886475,0.0,-0.017563240602612495
184.0,217.0,3.2782,-2.0273,8.54,-0.0254,0.0252,-0.1124,-1.7044373951353968,0.0,2.7270736694335938,-1.5948811769485474,-0.0,2.1661376953125,4.475691481227539,0.0,0.29480013251304626,-1.320874039326803,0.0,-0.027995873242616653,0.7632899880409241,0.0,-0.009702460840344429,1.35221529006958,0.0,-0.02990451641380787
184.0,217.0,3.2782,-2.0273,8.54,-0.0254,0.0252,-0.1124,-1.7044373951353968,0.0,2.7060325145721436,-1.5950138568878174,-0.0,2.186782121658325,4.475667162532471,0.0,0.2841280996799469,-1.320838753377096,0.0,-0.03127962350845337,0.7633180022239685,0.0,0.0013113298919051886,1.3522193431854248,0.0,0.006543905008584261
184.0,217.0,3.2782,-2.0273,8.54,-0.0254,0.0252,-0.1124,-1.704416891137594,0.0,2.7648227214813232,-1.5949375629425049,-0.0,2.1749343872070312,4.475647612208984,0.0,0.29055050015449524,-1.3208377997027796,0.0,-0.02765181101858616,0.7632896900177002,0.0,-0.015617582947015762,1.352223515510559,0.0,0.023208923637866974
184.0,217.0,3.2782,-2.0273,8.54,-0.0254,0.0252,-0.1124,-1.704449316064352,0.0,2.7617392539978027,-1.5948892831802368,-0.0,2.2157492637634277,4.475707693690918,0.0,0.28166109323501587,-1.3208702246295374,0.0,-0.02869686670601368,0.763338029384613,0.0,-0.010244956240057945,1.3522793054580688,0.0,0.0058516329154372215
184.0,217.0,3.2782,-2.0273,8.54,-0.0254,0.0252,-0.1124,-1.7043806515135707,0.0,2.757488489151001,-1.5949169397354126,-0.0,2.175642967224121,4.475687189693115,0.0,0.2923617660999298,-1.3208306471454065,0.0,-0.03428506478667259,0.7632614970207214,0.0,-0.003168874653056264,1.3522193431854248,0.0,-0.0075731342658400536
184.0,217.0,3.2782,-2.0273,8.54,-0.0254,0.0252,-0.1124,-1.7043687305846156,0.0,2.7562451362609863,-1.595013976097107,-0.0,2.1186208724975586,4.475643797511719,0.0,0.2930202782154083,-1.3208745161639612,0.0,-0.027371834963560104,0.7633060216903687,0.0,-0.006301992107182741,1.3522193431854248,0.0,-0.005357449408620596
184.0,217.0,3.2782,-2.0273,8.54,-0.0254,0.0252,-0.1124,-1.7044412098326625,0.0,2.755596160888672,-1.594925045967102,-0.0,2.183277130126953,4.4756433206745605,0.0,0.2883540689945221,-1.3208501974688929,0.0,-0.030087338760495186,0.7633060812950134,0.0,-0.004050020128488541,1.3521870374679565,0.0,0.0016399994492530823
184.0,217.0,3.2782,-2.0273,8.54,-0.0254,0.0252,-0.1124,-1.7043687305846156,0.0,2.727069854736328,-1.5949457883834839,-0.0,2.181816816329956,4.475691481227539,0.0,0.2967628538608551,-1.3208377997027796,0.0,-0.03992217034101486,0.7632573246955872,0.0,-0.0028979117050766945,1.3522194623947144,0.0,0.01284922193735838
182.0,212.0,3.3081,-2.0506,8.5017,-0.0357,0.0295,-0.1202,-1.7044125996031703,0.0,2.749878406524658,-1.5949454307556152,-0.0,2.1650192737579346,4.475663824672363,0.0,0.2855120301246643,-1.320845905934469,0.0,-0.030048435553908348,0.7632899880409241,0.0,0.0020007744897156954,1.3522552251815796,0.0,0.02770231105387211
182.0,212.0,3.3081,-2.0506,8.5017,-0.0357,0.0295,-0.1202,-1.704433103600973,0.0,2.766085386276245,-1.5949575901031494,-0.0,2.185317039489746,4.475647612208984,0.0,0.30277395248413086,-1.3208416144000452,0.0,-0.02677823416888714,0.7632617950439453,0.0,-0.01624811440706253,1.352223515510559,0.0,0.003633422777056694
182.0,212.0,3.3081,-2.0506,8.5017,-0.0357,0.0295,-0.1202,-1.7044087849059046,0.0,2.784905195236206,-1.594884991645813,-0.0,2.16243314743042,4.475703402156494,0.0,0.28466612100601196,-1.3208907286273401,0.0,-0.02880874276161194,0.7632978558540344,0.0,-0.022299444302916527,1.352246880531311,0.0,0.025668611750006676
182.0,212.0,3.3081,-2.0506,8.5017,-0.0357,0.0295,-0.1202,-1.7044536075987757,0.0,2.7584896087646484,-1.5949335098266602,-0.0,2.173238754272461,4.475687189693115,0.0,0.2966601848602295,-1.320890251790182,0.0,-0.03420400992035866,0.7633100748062134,0.0,6.425147876143456e-05,1.3522071838378906,0.0,-0.007124106399714947
182.0,212.0,3.3081,-2.0506,8.5017,-0.0357,0.0295,-0.1202,-1.7044249973692835,0.0,2.7604410648345947,-1.5949209928512573,-0.0,2.1745798587799072,4.475687189693115,0.0,0.288607120513916,-1.3208497206317347,0.0,-0.04229050502181053,0.7632294297218323,0.0,0.0024435417726635933,1.3522552251815796,0.0,-0.005947192665189505
182.0,212.0,3.3081,-2.0506,8.5017,-0.0357,0.0295,-0.1202,-1.704404970208639,0.0,2.7428436279296875,-1.5949416160583496,-0.0,2.190886974334717,4.475623770351074,0.0,0.29113733768463135,-1.3208416144000452,0.0,-0.029036330059170723,0.7632978558540344,0.0,-0.014004056341946125,1.3522193431854248,0.0,0.013208290562033653
182.0,212.0,3.3081,-2.0506,8.5017,-0.0357,0.0295,-0.1202,-1.7044006786742152,0.0,2.699754238128662,-1.5949934720993042,-0.0,2.1655936241149902,4.475707693690918,0.0,0.29345718026161194,-1.3208783308612269,0.0,-0.030134614557027817,0.7632573246955872,0.0,-0.003588418010622263,1.3522589206695557,0.0,0.06715720146894455
182.0,212.0,3.3081,-2.0506,8.5017,-0.0357,0.0295,-0.1202,-1.7044292889037074,0.0,2.755906581878662,-1.5949535369873047,-0.0,2.1533358097076416,4.475679083461426,0.0,0.29625874757766724,-1.3208497206317347,0.0,-0.023755621165037155,0.7633138298988342,0.0,0.005877112038433552,1.35221529006958,0.0,-0.02334442175924778
182.0,212.0,3.3081,-2.0506,8.5017,-0.0357,0.0295,-0.1202,-1.704421182672018,0.0,2.7611656188964844,-1.594925045967102,-0.0,2.1838979721069336,4.475695295924805,0.0,0.2958793044090271,-1.3208625952350062,0.0,-0.03737197443842888,0.7632777690887451,0.0,-0.0030417137313634157,1.352223515510559,0.0,0.027262035757303238
182.0,212.0,3.3081,-2.0506,8.5017,-0.0357,0.0295,-0.1202,-1.7044292889037074,0.0,2.7494449615478516,-1.5949335098266602,-0.0,2.1482739448547363,4.475659533137939,0.0,0.29380813241004944,-1.320817772542135,0.0,-0.035860832780599594,0.7632654905319214,0.0,-0.015342555940151215,1.3522752523422241,0.0,0.04898974299430847
182.0,212.0,3.3081,-2.0506,8.5017,-0.0357,0.0295,-0.1202,-1.7043968639769496,0.0,2.737776279449463,-1.5949498414993286,-0.0,2.1360623836517334,4.475670977229736,0.0,0.30284515023231506,-1.3208544890033167,0.0,-0.02646925300359726,0.7632818222045898,0.0,-0.006498145870864391,1.3522275686264038,0.0,0.007452874444425106
182.0,212.0,3.3081,-2.0506,8.5017,-0.0357,0.0295,-0.1202,-1.704376836816305,0.0,2.761303186416626,-1.5949416160583496,-0.0,2.159458637237549,4.47568337499585,0.0,0.2912200391292572,-1.3208416144000452,0.0,-0.043779656291007996,0.7632696628570557,0.0,-0.004350287839770317,1.3522112369537354,0.0,-0.024549543857574463
182.0,212.0,3.3081,-2.0506,8.5017,-0.0357,0.0295,-0.1202,-1.704393049279684,0.0,2.7469687461853027,-1.5949416160583496,-0.0,2.161064386367798,4.475682898158691,0.0,0.29904618859291077,-1.320838753377096,0.0,-0.026194129139184952,0.7633097171783447,0.0,0.0034032450057566166,1.3522112369537354,0.0,0.02009079046547413
182.0,212.0,3.3081,-2.0506,8.5017,-0.0357,0.0295,-0.1202,-1.7044416866698207,0.0,2.7354111671447754,-1.5949735641479492,-0.0,2.1720142364501953,4.475703402156494,0.0,0.2794834077358246,-1.3208707014666956,0.0,-0.03418390452861786,0.7632490396499634,0.0,-0.007241752929985523,1.35221529006958,0.0,-0.033532895147800446
182.0,212.0,3.3081,-2.0506,8.5017,-0.0357,0.0295,-0.1202,-1.7044125996031703,0.0,2.7335591316223145,-1.5949654579162598,-0.0,2.1921706199645996,4.475691481227539,0.0,0.29260164499282837,-1.3208583037005823,0.0,-0.03816314786672592,0.7632737159729004,0.0,-0.017422813922166824,1.3522193431854248,0.0,-0.04240329563617706
182.0,212.0,3.3081,-2.0506,8.5017,-0.0357,0.0295,-0.1202,-1.7043682537474574,0.0,2.7823195457458496,-1.5949177742004395,-0.0,2.177382230758667,4.47565142690625,0.0,0.2869018316268921,-1.3208540121661585,0.0,-0.032757364213466644,0.7632978558540344,0.0,-0.016595426946878433,1.3522112369537354,0.0,0.005194560158997774
182.0,212.0,3.3081,-2.0506,8.5017,-0.0357,0.0295,-0.1202,-1.7044249973692835,0.0,2.732997417449951,-1.5949292182922363,-0.0,2.192506790161133,4.475687189693115,0.0,0.2920958995819092,-1.3208625952350062,0.0,-0.034497156739234924,0.7633016109466553,0.0,0.0033221584744751453,1.352223515510559,0.0,0.004007960669696331
182.0,212.0,3.3081,-2.0506,8.5017,-0.0357,0.0295,-0.1202,-1.7043968639769496,0.0,2.720284938812256,-1.5949177742004395,-0.0,2.1839981079101562,4.475663824672363,0.0,0.2925347089767456,-1.3208263556109827,0.0,-0.03419741243124008,0.7632896900177002,0.0,-0.01154790073633194,1.35221529006958,0.0,-0.0021283021196722984
182.0,212.0,3.3081,-2.0506,8.5017,-0.0357,0.0295,-0.1202,-1.704393049279684,0.0,2.718242645263672,-1.5949699878692627,-0.0,2.1539947986602783,4.475659533137939,0.0,0.29752957820892334,-1.3208497206317347,0.0,-0.033632196485996246,0.7632818222045898,0.0,-0.005328608676791191,1.3522312641143799,0.0,0.03699176013469696
186.0,219.0,3.329,-2.053,8.5101,-0.0371,0.0194,-0.119,-1.7044335804381312,0.0,2.7518763542175293,-1.5949538946151733,-0.0,2.166748285293579,4.475643797511719,0.0,0.28868037462234497,-1.3208583037005823,0.0,-0.031140655279159546,0.7632573843002319,0.0,0.0009550638496875763,1.3522670269012451,0.0,-0.036614105105400085
186.0,219.0,3.329,-2.053,8.5101,-0.0371,0.0194,-0.119,-1.704416891137594,0.0,2.7676467895507812,-1.5949335098266602,-0.0,2.172733783721924,4.4757396417805175,0.0,0.30013394355773926,-1.3208783308612269,0.0,-0.022962406277656555,0.7632814049720764,0.0,0.005704718641936779,1.3522429466247559,0.0,0.01361063402146101
186.0,219.0,3.329,-2.053,8.5101,-0.0371,0.0194,-0.119,-1.7044292889037074,0.0,2.7859930992126465,-1.594989538192749,-0.0,2.2230098247528076,4.475719137782715,0.0,0.2927504777908325,-1.3208335081683558,0.0,-0.041832003742456436,0.7632977962493896,0.0,0.0005253877025097609,1.3522589206695557,0.0,0.02749040722846985
186.0,219.0,3.329,-2.053,8.5101,-0.0371,0.0194,-0.119,-1.7044087849059046,0.0,2.760507106781006,-1.594989538192749,-0.0,2.1786632537841797,4.475707693690918,0.0,0.3058648109436035,-1.3208416144000452,0.0,-0.03275558352470398,0.7632937431335449,0.0,-0.0057950266636908054,1.352223515510559,0.0,0.037227749824523926
186.0,219.0,3.329,-2.053,8.5101,-0.0371,0.0194,-0.119,-1.7044125996031703,0.0,2.7497668266296387,-1.5949292182922363,-0.0,2.2041404247283936,4.475719614619873,0.0,0.2885318696498871,-1.3208501974688929,0.0,-0.03551771119236946,0.7632977962493896,0.0,-0.002021945547312498,1.3522353172302246,0.0,-0.028921877965331078
186.0,219.0,3.329,-2.053,8.5101,-0.0371,0.0194,-0.119,-1.704416891137594,0.0,2.7781054973602295,-1.5949416160583496,-0.0,2.218195676803589,4.475682898158691,0.0,0.2902323007583618,-1.3208377997027796,0.0,-0.03540311008691788,0.7632977962493896,0.0,0.003348269034177065,1.35221529006958,0.0,0.030138414353132248
186.0,219.0,3.329,-2.053,8.5101,-0.0371,0.0194,-0.119,-1.7044130764403285,0.0,2.7390832901000977,-1.5949292182922363,-0.0,2.185919761657715,4.475695295924805,0.0,0.283770352602005,-1.3208664099322718,0.0,-0.02088380791246891,0.7632372975349426,0.0,-0.015291412360966206,1.3521989583969116,0.0,-0.02638046070933342
186.0,219.0,3.329,-2.053,8.5101,-0.0371,0.0194,-0.119,-1.7044125996031703,0.0,2.722768545150757,-1.5949292182922363,-0.0,2.149043560028076,4.475659533137939,0.0,0.2874809205532074,-1.3208020369159144,0.0,-0.03307219222187996,0.7632614374160767,0.0,-0.003892134875059128,1.3522552251815796,0.0,-0.025804942473769188
186.0,219.0,3.329,-2.053,8.5101,-0.0371,0.0194,-0.119,-1.7043968639769496,0.0,2.730778694152832,-1.59494948387146,-0.0,2.183940887451172,4.475647612208984,0.0,0.29161620140075684,-1.3208497206317347,0.0,-0.044895343482494354,0.7632577419281006,0.0,-0.0014676742721349,1.3522353172302246,0.0,-0.01298158336430788
186.0,219.0,3.329,-2.053,8.5101,-0.0371,0.0194,-0.119,-1.7043849430479945,0.0,2.758699893951416,-1.5949209928512573,-0.0,2.171005964279175,4.4757115083881835,0.0,0.28501975536346436,-1.3208468596087855,0.0,-0.04538194090127945,0.7632777690887451,0.0,-0.010270952247083187,1.3522353172302246,0.0,0.0061715953052043915
186.0,219.0,3.329,-2.053,8.5101,-0.0371,0.0194,-0.119,-1.704376836816305,0.0,2.7490854263305664,-1.59494948387146,-0.0,2.149874687194824,4.47568337499585,0.0,0.3020949363708496,-1.3208497206317347,0.0,-0.037957336753606796,0.7633138298988342,0.0,-0.01910751312971115,1.3521989583969116,0.0,-0.02622518315911293
186.0,219.0,3.329,-2.053,8.5101,-0.0371,0.0194,-0.119,-1.704393049279684,0.0,2.769033432006836,-1.5949854850769043,-0.0,2.189452886581421,4.47567526876416,0.0,0.29155856370925903,-1.3208263556109827,0.0,-0.04076436534523964,0.7632376551628113,0.0,-0.006370561197400093,1.3522510528564453,0.0,-0.021865271031856537
186.0,219.0,3.329,-2.053,8.5101,-0.0371,0.0194,-0.119,-1.7044006786742152,0.0,2.7618765830993652,-1.5949535369873047,-0.0,2.164374828338623,4.47567526876416,0.0,0.2803794741630554,-1.3208416144000452,0.0,-0.03358276188373566,0.7632253766059875,0.0,-0.0043281796388328075,1.3522193431854248,0.0,-0.03069918230175972
186.0,219.0,3.329,-2.053,8.5101,-0.0371,0.0194,-0.119,-1.7044373951353968,0.0,2.8007328510284424,-1.594925045967102,-0.0,2.158548593521118,4.47567526876416,0.0,0.2879875898361206,-1.3208497206317347,0.0,-0.02797136828303337,0.7632696032524109,0.0,-0.007832575589418411,1.3521989583969116,0.0,-0.03512358292937279
186.0,219.0,3.329,-2.053,8.5101,-0.0371,0.0194,-0.119,-1.704421182672018,0.0,2.758375644683838,-1.5949375629425049,-0.0,2.2164013385772705,4.475679083461426,0.0,0.29077234864234924,-1.3208344618426722,0.0,-0.022893115878105164,0.7632777690887451,0.0,0.0009128139354288578,1.3522353172302246,0.0,-0.017526015639305115
186.0,219.0,3.329,-2.053,8.5101,-0.0371,0.0194,-0.119,-1.7044006786742152,0.0,2.7364134788513184,-1.5949095487594604,-0.0,2.1610984802246094,4.475659533137939,0.0,0.28927120566368103,-1.3208707014666956,0.0,-0.036446407437324524,0.7632573246955872,0.0,-0.008213205263018608,1.3522353172302246,0.0,0.002042578998953104
186.0,219.0,3.329,-2.053,8.5101,-0.0371,0.0194,-0.119,-1.7044130764403285,0.0,2.7702155113220215,-1.594925045967102,-0.0,2.169724941253662,4.4756995874592285,0.0,0.28714632987976074,-1.3208344618426722,0.0,-0.03253047540783882,0.7632573246955872,0.0,-0.014773364178836346,1.3521989583969116,0.0,-0.009561457671225071
186.0,219.0,3.329,-2.053,8.5101,-0.0371,0.0194,-0.119,-1.7043973408141078,0.0,2.7860107421875,-1.594925045967102,-0.0,2.181098461151123,4.47565142690625,0.0,0.28725066781044006,-1.3208864370929163,0.0,-0.03180880844593048,0.7632937431335449,0.0,-0.014980735257267952,1.3522510528564453,0.0,-0.024478087201714516
186.0,203.0,3.3206,-2.0489,8.4227,-0.0342,0.022,-0.1191,-1.7044416866698207,0.0,2.770779609680176,-1.5949658155441284,-0.0,2.1808674335479736,4.475687189693115,0.0,0.29313716292381287,-1.320874039326803,0.0,-0.0359121710062027,0.7632294297218323,0.0,0.0017209642101079226,1.3522435426712036,0.0,-0.02138086035847664
186.0,203.0,3.3206,-2.0489,8.4227,-0.0342,0.022,-0.1191,-1.7043968639769496,0.0,2.753648281097412,-1.5949373245239258,-0.0,2.188540458679199,4.475687189693115,0.0,0.29023855924606323,-1.3208306471454065,0.0,-0.028896812349557877,0.7632937431335449,0.0,0.0030702378135174513,1.3522272109985352,0.0,0.01244108472019434
186.0,203.0,3.3206,-2.0489,8.4227,-0.0342,0.022,-0.1191,-1.7043725452818812,0.0,2.7151236534118652,-1.5949896574020386,-0.0,2.1736130714416504,4.4756995874592285,0.0,0.3003120422363281,-1.3208945433246058,0.0,-0.02970484271645546,0.7632737159729004,0.0,-0.02088652364909649,1.3522112369537354,0.0,-0.055718470364809036
186.0,203.0,3.3206,-2.0489,8.4227,-0.0342,0.022,-0.1191,-1.7044416866698207,0.0,2.7367470264434814,-1.5949695110321045,-0.0,2.1565256118774414,4.475679083461426,0.0,0.2888904809951782,-1.3208540121661585,0.0,-0.03976016864180565,0.7632777690887451,0.0,-0.0023792008869349957,1.3522193431854248,0.0,-0.019612407311797142
186.0,203.0,3.3206,-2.0489,8.4227,-0.0342,0.022,-0.1191,-1.7043849430479945,0.0,2.7316091060638428,-1.5949538946151733,-0.0,2.165151596069336,4.475703402156494,0.0,0.29475775361061096,-1.3208306471454065,0.0,-0.045592233538627625,0.7632654905319214,0.0,0.0015516942366957664,1.35221529006958,0.0,0.005119090899825096
186.0,203.0,3.3206,-2.0489,8.4227,-0.0342,0.022,-0.1191,-1.7044249973692835,0.0,2.7621166706085205,-1.5949457883834839,-0.0,2.1826415061950684,4.47569911062207,0.0,0.2924426794052124,-1.32080585161318,0.0,-0.042034730315208435,0.7632654905319214,0.0,0.009801898151636124,1.3522231578826904,0.0,0.04035449028015137
186.0,203.0,3.3206,-2.0489,8.4227,-0.0342,0.022,-0.1191,-1.7044536075987757,0.0,2.760800361633301,-1.5949937105178833,-0.0,2.2050163745880127,4.4757115083881835,0.0,0.2858416438102722,-1.320838753377096,0.0,-0.036962851881980896,0.763281524181366,0.0,-0.017405815422534943,1.3521989583969116,0.0,0.017253443598747253
186.0,203.0,3.3206,-2.0489,8.4227,-0.0342,0.022,-0.1191,-1.7044292889037074,0.0,2.732896327972412,-1.594961404800415,-0.0,2.1724343299865723,4.475691481227539,0.0,0.2878416180610657,-1.3208220640765589,0.0,-0.040188901126384735,0.7633217573165894,0.0,0.005120314657688141,1.35221529006958,0.0,0.04403868690133095
186.0,203.0,3.3206,-2.0489,8.4227,-0.0342,0.022,-0.1191,-1.7043968639769496,0.0,2.7331576347351074,-1.5949498414993286,-0.0,2.1919150352478027,4.475707693690918,0.0,0.3098042905330658,-1.3207901159869593,0.0,-0.03291548043489456,0.7632978558540344,0.0,-0.007131586316972971,1.3522552251815796,0.0,-0.01085346844047308
186.0,203.0,3.3206,-2.0489,8.4227,-0.0342,0.022,-0.1191,-1.7043849430479945,0.0,2.793135643005371,-1.5949695110321045,-0.0,2.20900297164917,4.475643797511719,0.0,0.2925291657447815,-1.3208306471454065,0.0,-0.03834499791264534,0.7632576823234558,0.0,-0.011110536754131317,1.3522312641143799,0.0,-0.006169729866087437
186.0,203.0,3.3206,-2.0489,8.4227,-0.0342,0.022,-0.1191,-1.7044578991331996,0.0,2.7262423038482666,-1.5949095487594604,-0.0,2.1263203620910645,4.475707693690918,0.0,0.2836133539676666,-1.3208707014666956,0.0,-0.03105021081864834,0.7633060216903687,0.0,-0.007922724820673466,1.3521989583969116,0.0,0.01971399411559105
186.0,203.0,3.3206,-2.0489,8.4227,-0.0342,0.022,-0.1191,-1.7043563328185023,0.0,2.7430686950683594,-1.5949654579162598,-0.0,2.202486991882324,4.475703402156494,0.0,0.30076661705970764,-1.3208783308612269,0.0,-0.03540376201272011,0.7632737159729004,0.0,-0.005649336613714695,1.3522589206695557,0.0,0.08302684873342514
186.0,203.0,3.3206,-2.0489,8.4227,-0.0342,0.022,-0.1191,-1.7044006786742152,0.0,2.7083899974823,-1.5949137210845947,-0.0,2.1689114570617676,4.4756666856953125,0.0,0.2902259826660156,-1.3208139578448694,0.0,-0.0392913743853569,0.7632172107696533,0.0,-0.0018734019249677658,1.3522629737854004,0.0,-0.018732327967882156
186.0,203.0,3.3206,-2.0489,8.4227,-0.0342,0.022,-0.1191,-1.7044373951353968,0.0,2.7853758335113525,-1.5949169397354126,-0.0,2.188232421875,4.475695295924805,0.0,0.2795534133911133,-1.3208540121661585,0.0,-0.017953410744667053,0.7633299231529236,0.0,-0.008526830933988094,1.3521870374679565,0.0,0.025060024112462997
186.0,203.0,3.3206,-2.0489,8.4227,-0.0342,0.022,-0.1191,-1.704416891137594,0.0,2.7609434127807617,-1.5949177742004395,-0.0,2.165091037750244,4.475667639369629,0.0,0.29258349537849426,-1.3208344618426722,0.0,-0.035476647317409515,0.7632654905319214,0.0,-0.004771196283400059,1.3522275686264038,0.0,-0.0353386364877224
186.0,203.0,3.3206,-2.0489,8.4227,-0.0342,0.022,-0.1191,-1.7044292889037074,0.0,2.7385544776916504,-1.594884991645813,-0.0,2.181637763977051,4.475659533137939,0.0,0.29171517491340637,-1.3208335081683558,0.0,-0.05496598035097122,0.7632614374160767,0.0,-0.01443138625472784,1.3521989583969116,0.0,0.02202289178967476
186.0,203.0,3.3206,-2.0489,8.4227,-0.0342,0.022,-0.1191,-1.704421182672018,0.0,2.768709182739258,-1.5949137210845947,-0.0,2.182971954345703,4.475655718440674,0.0,0.28521019220352173,-1.3208540121661585,0.0,-0.024571534246206284,0.7632941603660583,0.0,-0.0019356301054358482,1.3522112369537354,0.0,-0.0008221587631851435
186.0,203.0,3.3206,-2.0489,8.4227,-0.0342,0.022,-0.1191,-1.704449316064352,0.0,2.7308554649353027,-1.5949335098266602,-0.0,2.1587517261505127,4.475723429317139,0.0,0.2975095808506012,-1.3208497206317347,0.0,-0.025876175612211227,0.7632737159729004,0.0,-0.0006988663226366043,1.3522231578826904,0.0,-0.0073938192799687386
186.0,203.0,3.3206,-2.0489,8.4227,-0.0342,0.022,-0.1191,-1.7044087849059046,0.0,2.7833240032196045,-1.5949137210845947,-0.0,2.21244478225708,4.4757115083881835,0.0,0.28442028164863586,-1.3208664099322718,0.0,-0.023918230086565018,0.7632736563682556,0.0,-0.005303146783262491,1.3522670269012451,0.0,0.013372395187616348
184.0,213.0,3.3302,-2.0034,8.546,-0.0412,0.026,-0.1191,-1.7043849430479945,0.0,2.751199722290039,-1.5949457883834839,-0.0,2.1471641063690186,4.475695295924805,0.0,0.29682818055152893,-1.3208501974688929,0.0,-0.03192290663719177,0.7633339762687683,0.0,-0.002197504509240389,1.3522112369537354,0.0,0.005464015528559685
184.0,213.0,3.3302,-2.0034,8.546,-0.0412,0.026,-0.1191,-1.7044292889037074,0.0,2.7576465606689453,-1.5949416160583496,-0.0,2.157891035079956,4.475691481227539,0.0,0.2936204969882965,-1.3208306471454065,0.0,-0.03337012231349945,0.7632376551628113,0.0,0.004384170286357403,1.3522112369537354,0.0,-0.005025171209126711
184.0,213.0,3.3302,-2.0034,8.546,-0.0412,0.026,-0.1191,-1.7044292889037074,0.0,2.7849912643432617,-1.59494149684906,-0.0,2.1535472869873047,4.475663824672363,0.0,0.2963521480560303,-1.3208497206317347,0.0,-0.044464629143476486,0.7632818222045898,0.0,-0.012084655463695526,1.3521950244903564,0.0,0.018918579444289207
184.0,213.0,3.3302,-2.0034,8.546,-0.0412,0.026,-0.1191,-1.70438875774526,0.0,2.7456140518188477,-1.595022201538086,-0.0,2.185791492462158,4.475631399745605,0.0,0.29069066047668457,-1.320845905934469,0.0,-0.04555024951696396,0.7632413506507874,0.0,-0.013477534055709839,1.3522394895553589,0.0,-0.028645314276218414
184.0,213.0,3.3302,-2.0034,8.546,-0.0412,0.026,-0.1191,-1.7043968639769496,0.0,2.765683174133301,-1.5949617624282837,-0.0,2.190906524658203,4.475703402156494,0.0,0.2997344434261322,-1.3208306471454065,0.0,-0.036596328020095825,0.7632417678833008,0.0,-0.011471131816506386,1.3522273302078247,0.0,-0.0075227925553917885
184.0,213.0,3.3302,-2.0034,8.546,-0.0412,0.026,-0.1191,-1.704376836816305,0.0,2.7878379821777344,-1.5949095487594604,-0.0,2.1754260063171387,4.475715323085449,0.0,0.2855388820171356,-1.3208544890033167,0.0,-0.027991600334644318,0.7632818222045898,0.0,-0.01105903834104538,1.3522552251815796,0.0,0.0008141277357935905
184.0,213.0,3.3302,-2.0034,8.546,-0.0412,0.026,-0.1191,-1.7044292889037074,0.0,2.746718406677246,-1.5949538946151733,-0.0,2.176102638244629,4.4757115083881835,0.0,0.2879691421985626,-1.3208306471454065,0.0,-0.030642829835414886,0.7632737159729004,0.0,0.002984963357448578,1.3522510528564453,0.0,-0.049212612211704254
184.0,213.0,3.3302,-2.0034,8.546,-0.0412,0.026,-0.1191,-1.7043806515135707,0.0,2.7277064323425293,-1.5949695110321045,-0.0,2.191936731338501,4.475691481227539,0.0,0.2888683080673218,-1.320845905934469,0.0,-0.021042264997959137,0.763329803943634,0.0,-0.0033568264916539192,1.3521870374679565,0.0,0.006376251578330994
184.0,213.0,3.3302,-2.0034,8.546,-0.0412,0.026,-0.1191,-1.7044292889037074,0.0,2.7496182918548584,-1.5949137210845947,-0.0,2.1884841918945312,4.475659533137939,0.0,0.29551735520362854,-1.3208826223956507,0.0,-0.04966173321008682,0.7633060812950134,0.0,-0.005380398128181696,1.3522429466247559,0.0,-0.019221598282456398
184.0,213.0,3.3302,-2.0034,8.546,-0.0412,0.026,-0.1191,-1.7043606243529261,0.0,2.7460951805114746,-1.5949617624282837,-0.0,2.1878321170806885,4.475707693690918,0.0,0.3002853989601135,-1.3208497206317347,0.0,-0.04097355157136917,0.7633621096611023,0.0,-0.016343891620635986,1.3522388935089111,0.0,0.02781447023153305
184.0,213.0,3.3302,-2.0034,8.546,-0.0412,0.026,-0.1191,-1.7044087849059046,0.0,2.744235038757324,-1.5949053764343262,-0.0,2.1517300605773926,4.475691481227539,0.0,0.2911645174026489,-1.3208416144000452,0.0,-0.03892558068037033,0.7633461356163025,0.0,-0.012614988721907139,1.352203130722046,0.0,0.002658507088199258
184.0,213.0,3.3302,-2.0034,8.546,-0.0412,0.026,-0.1191,-1.7044416866698207,0.0,2.774229049682617,-1.5949498414993286,-0.0,2.2045845985412598,4.475639505977295,0.0,0.3148840367794037,-1.3208416144000452,0.0,-0.035852331668138504,0.7632495164871216,0.0,-0.012808393687009811,1.3522669076919556,0.0,-0.016751190647482872
184.0,213.0,3.3302,-2.0034,8.546,-0.0412,0.026,-0.1191,-1.7043811283507289,0.0,2.7609658241271973,-1.594925045967102,-0.0,2.1452274322509766,4.475715323085449,0.0,0.2865157723426819,-1.3208745161639612,0.0,-0.04836444556713104,0.7632937431335449,0.0,0.0016617125365883112,1.3522469997406006,0.0,-0.0022830795496702194
184.0,213.0,3.3302,-2.0034,8.546,-0.0412,0.026,-0.1191,-1.7043811283507289,0.0,2.7152233123779297,-1.5949095487594604,-0.0,2.193223714828491,4.475695295924805,0.0,0.3030233085155487,-1.3208783308612269,0.0,-0.036977626383304596,0.7632900476455688,0.0,-0.009891561232507229,1.3522275686264038,0.0,-0.05543339625000954
184.0,213.0,3.3302,-2.0034,8.546,-0.0412,0.026,-0.1191,-1.704393049279684,0.0,2.727497100830078,-1.5949617624282837,-0.0,2.217949390411377,4.475707693690918,0.0,0.28643599152565,-1.3208306471454065,0.0,-0.03246036916971207,0.7632937431335449,0.0,-0.013066612184047699,1.3522030115127563,0.0,0.03273077309131622
184.0,213.0,3.3302,-2.0034,8.546,-0.0412,0.026,-0.1191,-1.70438875774526,0.0,2.7493746280670166,-1.5949538946151733,-0.0,2.185554265975952,4.475647612208984,0.0,0.29454705119132996,-1.3208416144000452,0.0,-0.04158317670226097,0.7633019685745239,0.0,-0.007164319511502981,1.3522272109985352,0.0,-0.013686742633581161
184.0,213.0,3.3302,-2.0034,8.546,-0.0412,0.026,-0.1191,-1.7043849430479945,0.0,2.7222886085510254,-1.5949177742004395,-0.0,2.1488375663757324,4.475695295924805,0.0,0.30639705061912537,-1.3208096663104456,0.0,-0.019696809351444244,0.7632655501365662,0.0,0.004298184532672167,1.3522353172302246,0.0,-0.020520642399787903
184.0,213.0,3.3302,-2.0034,8.546,-0.0412,0.026,-0.1191,-1.7044092617430628,0.0,2.73651123046875,-1.594885230064392,-0.0,2.187669277191162,4.475687189693115,0.0,0.2948254346847534,-1.3208263556109827,0.0,-0.029670774936676025,0.7633257508277893,0.0,-0.004434217233210802,1.3522312641143799,0.0,-0.019794296473264694
179.0,225.0,3.2907,-2.0501,8.4826,-0.036,0.0254,-0.1168,-1.704348703423971,0.0,2.8234899044036865,-1.5949137210845947,-0.0,2.168771982192993,4.475670977229736,0.0,0.29751524329185486,-1.3208783308612269,0.0,-0.04072558507323265,0.7632532715797424,0.0,-0.011385580524802208,1.3522552251815796,0.0,-0.031134122982621193
179.0,225.0,3.2907,-2.0501,8.4826,-0.036,0.0254,-0.1168,-1.7044373951353968,0.0,2.694493293762207,-1.594933271408081,-0.0,2.1863505840301514,4.475687189693115,0.0,0.2807276248931885,-1.3208501974688929,0.0,-0.03062889352440834,0.7632896900177002,0.0,0.0021004201844334602,1.3522354364395142,0.0,0.041146449744701385
179.0,225.0,3.2907,-2.0501,8.4826,-0.036,0.0254,-0.1168,-1.704404970208639,0.0,2.754817008972168,-1.5949782133102417,-0.0,2.1894664764404297,4.475667639369629,0.0,0.29586660861968994,-1.3208497206317347,0.0,-0.0415973998606205,0.7633461356163025,0.0,-0.012449599802494049,1.35221529006958,0.0,-0.014880834147334099
179.0,225.0,3.2907,-2.0501,8.4826,-0.036,0.0254,-0.1168,-1.7043849430479945,0.0,2.7308778762817383,-1.5949617624282837,-0.0,2.207782030105591,4.475723429317139,0.0,0.29045891761779785,-1.3208583037005823,0.0,-0.019048992544412613,0.7633057236671448,0.0,-0.006241115275770426,1.3522589206695557,0.0,-0.054408811032772064
179.0,225.0,3.2907,-2.0501,8.4826,-0.036,0.0254,-0.1168,-1.704348703423971,0.0,2.7681570053100586,-1.5948930978775024,-0.0,2.1836466789245605,4.475659533137939,0.0,0.2852417230606079,-1.3208940664874476,0.0,-0.02897075191140175,0.7632818818092346,0.0,-0.004372851923108101,1.3522509336471558,0.0,-0.019304772838950157
179.0,225.0,3.2907,-2.0501,8.4826,-0.036,0.0254,-0.1168,-1.7044455013670863,0.0,2.721919059753418,-1.5948972702026367,2.4750096416781275e-10,2.191803455352783,4.4757115083881835,0.0,0.29582345485687256,-1.3209221998797815,1.1566417867925338e-07,-0.044275037944316864,0.7633015513420105,0.0,-0.012345629744231701,1.3523027896881104,-5.493134280776246e-10,-0.012971113435924053
179.0,225.0,3.2907,-2.0501,8.4826,-0.036,0.0254,-0.1168,-1.704376836816305,0.0,2.7432446479797363,-1.5949053764343262,4.45493048375524e-14,2.147449493408203,4.475759668941162,0.0,0.2929237484931946,-1.320902172719137,4.930945651793195e-10,-0.04071652889251709,0.7632777690887451,0.0,0.005313136614859104,1.3522990942001343,0.001986514311283827,-0.035141587257385254
179.0,225.0,3.2907,-2.0501,8.4826,-0.036,0.0254,-0.1168,-1.7043687305846156,2.1587966969605077e-09,2.7482666969299316,-1.5949054956436157,0.0004053075972478837,2.1659839153289795,4.475670977229736,0.0,0.2967730164527893,-1.3208697477923792,1.3725468244601968e-13,-0.028653237968683243,0.7633097171783447,0.0,-0.016713429242372513,1.3522508144378662,0.0036763108801096678,0.05251047760248184
179.0,225.0,3.2907,-2.0501,8.4826,-0.036,0.0254,-0.1168,-1.704376836816305,3.8857578179424257e-13,2.7403478622436523,-1.5949137210845947,0.0005822197999805212,2.1904568672180176,4.475727244014404,0.0,0.3000560402870178,-1.320902172719137,5.851381950180328e-16,-0.029853537678718567,0.7632937431335449,0.0,0.010049920529127121,1.352351188659668,0.0032538436353206635,-0.010629410855472088
179.0,225.0,3.2907,-2.0501,8.4826,-0.036,0.0254,-0.1168,-1.70436491588735,6.994226992931106e-17,2.7198972702026367,-1.5949259996414185,0.0005502055864781141,2.176919937133789,4.4756995874592285,0.0,0.2918466031551361,-1.320862118397848,2.4945362246968317e-18,-0.027876395732164383,0.7632938027381897,0.0,-0.002780402544885874,1.3523468971252441,0.002215589629486203,0.03281223028898239
179.0,225.0,3.2907,-2.0501,8.4826,-0.036,0.0254,-0.1168,-1.704416891137594,1.689023394628232e-22,2.7329154014587402,-1.5949095487594604,0.00044201608397997916,2.1525697708129883,4.475703402156494,0.0,0.2974887192249298,-1.320874039326803,6.943632447628123e-22,-0.029363054782152176,0.7632818222045898,0.0,-0.002690513152629137,1.3522863388061523,0.0012436297256499529,0.03207286447286606
179.0,225.0,3.2907,-2.0501,8.4826,-0.036,0.0254,-0.1168,-1.704416891137594,3.0401824144651065e-26,2.7397866249084473,-1.5948972702026367,0.00038761654286645353,2.2226333618164062,4.475691481227539,0.0,0.28257274627685547,-1.3209059874164026,2.960179247597406e-24,-0.01632503792643547,0.7632495164871216,0.0,-0.0012948568910360336,1.3523792028427124,0.0009240260114893317,0.031397636979818344
179.0,225.0,3.2907,-2.0501,8.4826,-0.036,0.0254,-0.1168,-1.7044125996031703,7.34168279892224e-32,2.775397300720215,-1.594885230064392,0.0003296900831628591,2.218963146209717,4.47568337499585,0.0,0.3015822470188141,-1.3208821455584925,8.239767710830132e-28,-0.028689244762063026,0.7633175849914551,0.0,-0.0008001576643437147,1.352342963218689,0.0005937899695709348,0.07104289531707764
179.0,225.0,3.2907,-2.0501,8.4826,-0.036,0.0254,-0.1168,-1.7044455013670863,1.3214770599657696e-35,2.789095878601074,-1.5949457883834839,0.00012670499563682824,2.200021743774414,4.47567526876416,0.0,0.2880205810070038,-1.320862118397848,3.5127423698616826e-30,-0.0324975848197937,0.7632777094841003,0.0,-0.00632831547409296,1.3523228168487549,0.000199448928469792,0.012262705713510513
179.0,225.0,3.2907,-2.0501,8.4826,-0.036,0.0254,-0.1168,-1.7044125996031703,2.3786116574927315e-39,2.7247257232666016,-1.59494149684906,0.00011104090663138777,2.1426193714141846,4.475703402156494,0.0,0.28938624262809753,-1.320874039326803,1.497537191277377e-32,-0.026652701199054718,0.763338029384613,0.0,-0.0029409602284431458,1.3523510694503784,0.00013521729852072895,0.011338640935719013
179.0,225.0,3.2907,-2.0501,8.4826,-0.036,0.0254,-0.1168,-1.7044006786742152,5.605193857299268e-45,2.747532367706299,-1.5949177742004395,9.369787585455924e-05,2.166849136352539,4.475687189693115,0.0,0.2910078167915344,-1.320862118397848,4.168449043851908e-36,-0.03200167790055275,0.7632818222045898,0.0,0.00017451390158385038,1.3523391485214233,0.00011033962800865993,-0.029723763465881348
179.0,225.0,3.2907,-2.0501,8.4826,-0.036,0.0254,-0.1168,-1.704416891137594,0.0,2.7511777877807617,-1.5949259996414185,8.486227307002991e-05,2.2002484798431396,4.4757115083881835,0.0,0.2848828136920929,-1.320914093648092,1.7770751446732459e-38,-0.030218180269002914,0.7633219957351685,0.0,0.006620905362069607,1.3523387908935547,0.00013047789980191737,-0.005056587979197502
179.0,225.0,3.2907,-2.0501,8.4826,-0.036,0.0254,-0.1168,-1.704404970208639,0.0,2.750580310821533,-1.594933271408081,7.434610597556457e-05,2.198455333709717,4.475695772761963,0.0,0.2750287652015686,-1.3209388891803187,4.946583579066604e-42,-0.028598187491297722,0.7632654309272766,0.0,-0.002977765630930662,1.3523428440093994,0.0001266781473532319,0.000826539471745491
179.0,225.0,3.2907,-2.0501,8.4826,-0.036,0.0254,-0.1168,-1.7044249973692835,0.0,2.7105746269226074,-1.5949177742004395,6.86730636516586e-05,2.195171594619751,4.475679083461426,0.0,0.29340359568595886,-1.3208864370929163,2.1019476964872256e-44,-0.04333046078681946,0.7632900476455688,0.0,0.004145944025367498,1.3523309230804443,0.00015440575953107327,0.03181839734315872
183.0,221.0,3.2237,-2.3659,8.4957,0.02,0.0223,-0.1121,-1.7044373951353968,0.0,2.7649526596069336,-1.594925045967102,6.380434933817014e-05,2.202629566192627,4.475691481227539,0.0,0.29103565216064453,-1.320918385182516,0.0,-0.041389819234609604,0.7632896900177002,0.0,-0.008063388988375664,1.3523149490356445,0.00014221321907825768,0.02418469823896885
183.0,221.0,3.2237,-2.3659,8.4957,0.02,0.0223,-0.1121,-1.7044006786742152,0.0,2.757194995880127,-1.5949095487594604,5.7671441027196124e-05,2.202280282974243,4.4756995874592285,0.0,0.2824319899082184,-1.320918385182516,0.0,-0.04035816714167595,0.7633060812950134,0.0,-0.010477419942617416,1.3523387908935547,0.00010627100709825754,0.03693046048283577
183.0,221.0,3.2237,-2.3659,8.4957,0.02,0.0223,-0.1121,-1.7044373951353968,0.0,2.711949110031128,-1.5949292182922363,7.20045281923376e-05,2.221048593521118,4.475679083461426,0.0,0.29014334082603455,-1.3208702246295374,0.0,-0.03523518890142441,0.7633019685745239,0.0,-0.00047602783888578415,1.352351188659668,8.906897710403427e-05,0.046081364154815674
183.0,221.0,3.2237,-2.3659,8.4957,0.02,0.0223,-0.1121,-1.7044335804381312,0.0,2.7438602447509766,-1.5949177742004395,7.456215826096013e-05,2.2009549140930176,4.475743456477783,0.0,0.298447847366333,-1.3208501974688929,0.0,-0.03499162197113037,0.7633016109466553,0.0,-0.01599595509469509,1.3523149490356445,-6.63111568428576e-05,-0.023612607270479202
183.0,221.0,3.2237,-2.3659,8.4957,0.02,0.0223,-0.1121,-1.704477449456686,0.0,2.7955193519592285,-1.5949300527572632,9.144830983132124e-05,2.16378116607666,4.475662870998047,0.0,0.28441736102104187,-1.3208583037005823,0.0,-0.042855918407440186,0.7632573246955872,0.0,-0.0023859329521656036,1.352246642112732,-0.00010892544378293678,-0.03394007682800293
183.0,221.0,3.2237,-2.3659,8.4957,0.02,0.0223,-0.1121,-1.7044850788512171,0.0,2.7903013229370117,-1.594885230064392,6.191607099026442e-05,2.1610805988311768,4.475707693690918,0.0,0.2818802297115326,-1.320890251790182,0.0,-0.028178904205560684,0.7632654905319214,0.0,-0.009986440651118755,1.3523433208465576,-0.0006661142106167972,0.018320055678486824
183.0,221.0,3.2237,-2.3659,8.4957,0.02,0.0223,-0.1121,-1.7045008144774378,-0.0011957376264035702,2.7305057048797607,-1.5949259996414185,8.682761836098507e-05,2.170074462890625,4.475659533137939,0.0,0.2842738628387451,-1.3208540121661585,0.0,-0.03499728441238403,0.7632814049720764,0.0,0.005747433751821518,1.3523149490356445,-0.0005157070118002594,-0.05339648202061653
183.0,221.0,3.2237,-2.3659,8.4957,0.02,0.0223,-0.1121,-1.7045132122435511,-0.0021152656991034746,2.706874370574951,-1.594893455505371,5.4440912208519876e-05,2.1776468753814697,4.475659533137939,0.0,0.2836367189884186,-1.3208501974688929,0.0,-0.04009796679019928,0.7632977962493896,0.0,-0.008536172099411488,1.3523149490356445,-0.00041950438753701746,-0.01617688313126564
183.0,221.0,3.2237,-2.3659,8.4957,0.02,0.0223,-0.1121,-1.7045170269408167,-0.00412885332480073,2.753596067428589,-1.594933271408081,4.049877233569532e-08,2.1812684535980225,4.475570841426514,0.0,0.30138441920280457,-1.3208826223956507,0.0,-0.03221999853849411,0.7632536888122559,0.0,0.00688440166413784,1.3523473739624023,-0.00032779781031422317,0.018073949962854385
183.0,221.0,3.2237,-2.3659,8.4957,0.02,0.0223,-0.1121,-1.7045775852599085,-0.0055764587596058846,2.7236738204956055,-1.5949457883834839,7.289635908791503e-12,2.1664912700653076,4.475675745601318,5.08699784518285e-08,0.2826317548751831,-1.3208664099322718,0.0,-0.03524237126111984,0.7632773518562317,0.0,0.0025745213497430086,1.3523149490356445,-0.00028610689332708716,-0.023826902732253075
183.0,221.0,3.2237,-2.3659,8.4957,0.02,0.0223,-0.1121,-1.7046171627440394,-0.0054529206827282906,2.7648699283599854,-1.594881534576416,1.760361277318398e-17,2.156327486038208,4.4756480890461425,1.4159846038752644e-11,0.28974342346191406,-1.3208702246295374,0.0,-0.03848458081483841,0.7632938027381897,0.0,-0.005774546414613724,1.3522745370864868,-0.00024027179460972548,0.0019530376885086298
183.0,221.0,3.2237,-2.3659,8.4957,0.02,0.0223,-0.1121,-1.7046133480467738,-0.004839485045522451,2.76724910736084,-1.5949342250823975,3.1685880378053977e-21,2.1899361610412598,4.475671930904053,6.036564612977094e-14,0.2908647060394287,-1.3208301703082483,0.0,-0.0399898923933506,0.7633097171783447,0.0,-0.009823261760175228,1.3522785902023315,-0.00021708723215851933,0.02978035807609558
183.0,221.0,3.2237,-2.3659,8.4957,0.02,0.0223,-0.1121,-1.7045971355833949,-0.0029869170393794775,2.732740879058838,-1.5948896408081055,0.00124368944671005,2.158411741256714,4.475583239192627,2.573482234825413e-16,0.2908603549003601,-1.3208826223956507,0.0,-0.030387278646230698,0.7633663415908813,0.0,-0.011004511266946793,1.3522385358810425,-0.00019798343419097364,0.008444350212812424
183.0,221.0,3.2237,-2.3659,8.4957,0.02,0.0223,-0.1121,-1.7045971355833949,-0.0008348046685568988,2.739936351776123,-1.5949095487594604,0.002952055772766471,2.146456241607666,4.475663824672363,7.163382166004659e-20,0.2962937355041504,-1.32080585161318,0.0,-0.02460319735109806,0.7632778286933899,0.0,5.848519504070282e-05,1.3522748947143555,-0.00020987720927223563,0.021638311445713043
183.0,221.0,3.2237,-2.3659,8.4957,0.02,0.0223,-0.1121,-1.7045890293517054,-0.00056531245354563,2.7937278747558594,-1.5948618650436401,0.00511780334636569,2.1742095947265625,4.475660009975098,3.0538625700985893e-22,0.28271588683128357,-1.320874039326803,0.0,-0.018971217796206474,0.7633138298988342,0.0,0.0018165016081184149,1.3522989749908447,-0.00022717745741829276,-0.008175589144229889
183.0,221.0,3.2237,-2.3659,8.4957,0.02,0.0223,-0.1121,-1.704620977441305,-0.00012641819193959236,2.73002290725708,-1.5947651863098145,0.009071803651750088,2.1862905025482178,4.475663824672363,8.500538317151372e-26,0.2916814982891083,-1.320838753377096,0.0,-0.03106686845421791,0.7632893323898315,0.0,0.0007524820975959301,1.3523027896881104,-0.00019812244863715023,-0.03560497984290123
183.0,221.0,3.2237,-2.3659,8.4957,0.02,0.0223,-0.1121,-1.7046166859068812,-0.00019197074288967997,2.779374122619629,-1.5947495698928833,0.010231195949018002,2.224238872528076,4.47565142690625,3.6239128390878747e-28,0.30367353558540344,-1.3208707014666956,0.0,-0.03444952517747879,0.7633258104324341,0.0,0.008904524147510529,1.3522629737854004,-0.0001983113616006449,0.004785165190696716
183.0,221.0,3.2237,-2.3659,8.4957,0.02,0.0223,-0.1121,-1.7047015629210414,-0.0009217648766934872,2.7898242473602295,-1.5947096347808838,0.009944875724613667,2.18447208404541,4.475691481227539,1.5449307842687735e-30,0.29345864057540894,-1.3208263556109827,0.0,-0.035978052765131,0.7633134126663208,0.0,-0.007204377092421055,1.3522748947143555,-0.00024316448252648115,-0.009272154420614243
184.0,217.0,2.3593,-2.4897,9.076,-0.0492,0.0287,-0.1078,-1.7046767673888148,-0.0038159701507538557,2.7363595962524414,-1.5946577787399292,0.008063126355409622,2.189030647277832,4.47562758504834,4.300371595040639e-34,0.30072760581970215,-1.3208301703082483,0.0,-0.04205825924873352,0.7632936835289001,0.0,0.00048630242235958576,1.3522793054580688,-0.0009757343214005232,-0.0441787950694561
184.0,217.0,2.3593,-2.4897,9.076,-0.0492,0.0287,-0.1078,-1.7047492466368617,-0.005486832000315189,2.712418556213379,-1.5946097373962402,0.007428782992064953,2.204686164855957,4.475671930904053,1.833315955858454e-36,0.2993506193161011,-1.3208821455584925,0.0,-0.035949576646089554,0.7632735967636108,0.0,-0.00916176475584507,1.3522231578826904,-0.002089556772261858,-0.030813196673989296
184.0,217.0,2.3593,-2.4897,9.076,-0.0492,0.0287,-0.1078,-1.7047487697997035,-0.00624054716899991,2.7681241035461426,-1.5945780277252197,0.0056510441936552525,2.175015687942505,4.475655718440674,5.103108617531686e-40,0.29381707310676575,-1.3208625952350062,0.0,-0.03667273744940758,0.7633097767829895,0.0,-0.0023767612874507904,1.3522469997406006,-0.0033625990618020296,0.004003501031547785
184.0,217.0,2.3593,-2.4897,9.076,-0.0492,0.0287,-0.1078,-1.7047606907286585,-0.00652635982260108,2.7291340827941895,-1.5945820808410645,0.004791616927832365,2.1851398944854736,4.475663824672363,2.176216515096441e-42,0.293352872133255,-1.3208263556109827,0.0,-0.038050778210163116,0.7633175849914551,0.0,-0.005237677600234747,1.3521873950958252,-0.004492775071412325,-0.006530115380883217
184.0,217.0,2.3593,-2.4897,9.076,-0.0492,0.0287,-0.1078,-1.704785009423727,-0.005589695181697607,2.712800979614258,-1.5945903062820435,0.0032233884558081627,2.189328193664551,4.475723906154297,9.80908925027372e-45,0.3001273274421692,-1.3208907286273401,0.0,-0.048948515206575394,0.7633016109466553,0.0,-0.017510179430246353,1.3521673679351807,-0.005506952293217182,-0.024781595915555954
184.0,217.0,2.3593,-2.4897,9.076,-0.0492,0.0287,-0.1078,-1.7047931156554164,-0.00449941772967577,2.752258777618408,-1.5945701599121094,0.0017921245889738202,2.198678970336914,4.475687189693115,0.0,0.2923416495323181,-1.3208864370929163,0.0,-0.03053128905594349,0.7633015513420105,0.0,-0.0008880123496055603,1.3521273136138916,-0.006851269863545895,-0.0032378854230046272
184.0,217.0,2.3593,-2.4897,9.076,-0.0492,0.0287,-0.1078,-1.7048689327635707,-0.0037594656459987164,2.7480573654174805,-1.594590425491333,0.0011464932467788458,2.173954486846924,4.475667639369629,0.0,0.30976301431655884,-1.3208377997027796,0.0,-0.033024851232767105,0.7632851600646973,0.0,0.007499108090996742,1.3521273136138916,-0.007424641866236925,0.00275633716955781
184.0,217.0,2.3593,-2.4897,9.076,-0.0492,0.0287,-0.1078,-1.704865118066305,-0.0032163700088858604,2.793537139892578,-1.5945862531661987,0.0007413018029183149,2.1731653213500977,4.475631399745605,0.0,0.2970615029335022,-1.3208664099322718,0.0,-0.03311467915773392,0.7632896304130554,0.0,-0.0066406638361513615,1.3520357608795166,-0.0074378978461027145,-0.03031971864402294
184.0,217.0,2.3593,-2.4897,9.076,-0.0492,0.0287,-0.1078,-1.7048489056029261,-0.003478443482890725,2.739694833755493,-1.5945985317230225,0.00022181386884767562,2.1427552700042725,4.475655718440674,0.0,0.30892056226730347,-1.3208707014666956,0.0,-0.0428299643099308,0.7633498907089233,0.0,-0.0005214032717049122,1.3519591093063354,-0.006469189655035734,0.03890973702073097
184.0,217.0,2.3593,-2.4897,9.076,-0.0492,0.0287,-0.1078,-1.7048527203001917,-0.004134599585086107,2.7796988487243652,-1.5945619344711304,0.00015282264212146401,2.1689980030059814,4.475668116206787,0.0,0.30509018898010254,-1.320789639149801,0.0,-0.041139841079711914,0.7633216381072998,0.0,-0.0005367689300328493,1.3520317077636719,-0.005729238037019968,-0.03134303167462349
184.0,217.0,2.3593,-2.4897,9.076,-0.0492,0.0287,-0.1078,-1.7049085102477015,-0.00440446101129055,2.7302541732788086,-1.5945780277252197,0.00013063382357358932,2.169398784637451,4.475651903743408,0.0,0.29469460248947144,-1.3208101431476038,0.0,-0.03573266789317131,0.7633134126663208,0.0,0.004740466363728046,1.3519434928894043,-0.005282335914671421,0.014481380581855774
184.0,217.0,2.3593,-2.4897,9.076,-0.0492,0.0287,-0.1078,-1.7049328289427699,-0.004647937137633562,2.726979970932007,-1.5945862531661987,0.0001513476890977472,2.144503355026245,4.4756480890461425,0.0,0.29819560050964355,-1.3208540121661585,0.0,-0.035318903625011444,0.7633540034294128,0.0,0.005652864463627338,1.3519477844238281,-0.005063795950263739,0.027945296838879585
184.0,217.0,2.3593,-2.4897,9.076,-0.0492,0.0287,-0.1078,-1.7049766979613246,-0.005181097891181707,2.709806442260742,-1.594598650932312,0.0001437716418877244,2.1823227405548096,4.475656195277832,0.0,0.29483523964881897,-1.3208020369159144,3.2868666011154346e-08,-0.02712325006723404,0.7633256316184998,0.0,-0.017667224630713463,1.3519277572631836,-0.0043012783862650394,-0.05803312361240387
184.0,217.0,2.3593,-2.4897,9.076,-0.0492,0.0287,-0.1078,-1.704939981500143,-0.004823925439268351,2.7199556827545166,-1.5945137739181519,0.00017321822815574706,2.1478254795074463,4.475611849422119,0.0,0.28459903597831726,-1.3208063284503382,1.4012428717347092e-10,-0.03967532142996788,0.763329803943634,0.0,-0.006381932180374861,1.3519082069396973,-0.004217738751322031,-0.0663084164261818
184.0,217.0,2.3593,-2.4897,9.076,-0.0492,0.0287,-0.1078,-1.7049929104247035,-0.0045579588040709496,2.6783978939056396,-1.5945698022842407,0.00011489591997815296,2.140629529953003,4.475611849422119,0.0,0.2900833487510681,-1.3208425680743616,3.900410539253024e-14,-0.04017488658428192,0.7633257508277893,0.0,-0.0018162713386118412,1.351875901222229,-0.0031889553647488356,-0.0285800751298666
184.0,217.0,2.3593,-2.4897,9.076,-0.0492,0.0287,-0.1078,-1.7050043545165003,-0.00447829719632864,2.698472023010254,-1.5945179462432861,0.00019760728173423558,2.1805191040039062,4.475603266353271,0.0,0.2810085117816925,-1.3208344618426722,1.6628061435901807e-16,-0.05197211354970932,0.763297438621521,0.0,-0.00047329370863735676,1.3518964052200317,-0.002798759611323476,-0.0472562350332737
184.0,217.0,2.3593,-2.4897,9.076,-0.0492,0.0287,-0.1078,-1.7050205669798792,-0.004068648908287287,2.6564605236053467,-1.5945582389831543,0.0006097147124819458,2.100376605987549,4.475599451656006,0.0,0.28943169116973877,-1.3208745161639612,7.088802915742024e-19,-0.03659295663237572,0.7633379697799683,0.0,-0.0037555787712335587,1.3518644571304321,-0.002469588303938508,-0.002428232692182064
184.0,217.0,2.3593,-2.4897,9.076,-0.0492,0.0287,-0.1078,-1.7050324879088343,-0.004704476799815893,2.62096905708313,-1.5945587158203125,0.001496362965553999,2.154792070388794,4.475668116206787,0.0,0.28082820773124695,-1.3208144346820276,1.973194442971635e-22,-0.033177345991134644,0.7633339166641235,0.0,-0.006660461891442537,1.3518685102462769,-0.0018505073385313153,-0.08318039774894714
184.0,217.0,2.3593,-2.4897,9.076,-0.0492,0.0287,-0.1078,-1.7051049671568812,-0.005417670123279095,2.649033784866333,-1.594510555267334,0.0018311619060114026,2.150501251220703,4.475599451656006,0.0,0.2844976782798767,-1.3207901159869593,8.412036998270758e-25,-0.025993796065449715,0.7633379697799683,0.0,0.00319857825525105,1.3518725633621216,-0.0017515764338895679,-0.05046331137418747
182.0,213.0,3.3093,-2.3294,8.6746,-0.0602,0.0444,-0.1318,-1.7050801716246546,-0.0070626866072416306,2.6218953132629395,-1.5944738388061523,0.0019530842546373606,2.1426663398742676,4.475615664119385,0.0,0.27574431896209717,-1.3208425680743616,2.3415213115204535e-28,-0.026387128978967667,0.7633297443389893,0.0,0.00023370649432763457,1.3518321514129639,-0.0016373548423871398,-0.08892953395843506
182.0,213.0,3.3093,-2.3294,8.6746,-0.0602,0.0444,-0.1318,-1.7051168880858363,-0.007887251675128937,2.637037754058838,-1.594502329826355,0.0017535671358928084,2.143239974975586,4.475631399745605,0.0,0.2749386727809906,-1.320793930684225,9.982271696109407e-31,-0.03216211497783661,0.7633818984031677,0.0,-0.002966663334518671,1.3518242835998535,-0.0017576907994225621,-0.05924636125564575
182.0,213.0,3.3093,-2.3294,8.6746,-0.0602,0.0444,-0.1318,-1.7051440678038539,-0.009304583072662354,2.576000213623047,-1.5945065021514893,0.0015412772772833705,2.151066303253174,4.475611372584961,-2.4419287001364864e-05,0.2748952805995941,-1.3208020369159144,0.00015460721624549478,-0.01028118934482336,0.7632855772972107,0.0,-0.008436966687440872,1.3518602848052979,-0.00164502183906734,-0.11729037016630173
182.0,213.0,3.3093,-2.3294,8.6746,-0.0602,0.0444,-0.1318,-1.7052003345885218,-0.011581172235310078,2.5745596885681152,-1.5944499969482422,0.0011345819802954793,2.149655818939209,4.475628061885498,-0.0001190303300973028,0.27351051568984985,-1.3208301703082483,0.0001790148817235604,-0.030132364481687546,0.7632814049720764,0.0,0.00176538887899369,1.351816177368164,-0.0017421026714146137,-0.11524456739425659
182.0,213.0,3.3093,-2.3294,8.6746,-0.0602,0.0444,-0.1318,-1.7052399120726527,-0.013167536817491055,2.597015619277954,-1.5945063829421997,0.0009107465739361942,2.0712850093841553,4.475563212031982,-0.00011307563545415178,0.274801641702652,-1.3207982222186487,0.00019884489302057773,-0.027520399540662766,0.7633498907089233,0.0,-0.0020191483199596405,1.3518563508987427,-0.001482505933381617,-0.10000412911176682
182.0,213.0,3.3093,-2.3294,8.6746,-0.0602,0.0444,-0.1318,-1.7053600750365199,-0.015181154012680054,2.53889536857605,-1.5945104360580444,0.0008050595642998815,2.1162238121032715,4.475627108211182,-0.0001258147822227329,0.2666933238506317,-1.3207977453814905,0.00017918476078193635,-0.024747002869844437,0.763369619846344,0.0,-0.004073945805430412,1.3518325090408325,-0.001269006635993719,-0.1194615289568901
182.0,213.0,3.3093,-2.3294,8.6746,-0.0602,0.0444,-0.1318,-1.705412050286764,-0.016770048066973686,2.5402331352233887,-1.594527006149292,0.0006588796968571842,2.100443124771118,4.475567980403564,-0.0001205433945870027,0.2756577730178833,-1.3207982222186487,0.00019233376951888204,-0.022884972393512726,0.7633777260780334,0.0,-0.001357989851385355,1.3518562316894531,-0.0009493170073255897,-0.12610387802124023
182.0,213.0,3.3093,-2.3294,8.6746,-0.0602,0.0444,-0.1318,-1.7055279217162074,-0.018874535337090492,2.5412240028381348,-1.594454288482666,0.00048499999684281647,2.1030044555664062,4.475583239192627,-0.00013429336831904948,0.26872003078460693,-1.3208101431476038,0.00018453547090757638,-0.0171253252774477,0.7633339166641235,0.0,-0.008257455192506313,1.3518202304840088,-0.0007511103176511824,-0.18217575550079346
182.0,213.0,3.3093,-2.3294,8.6746,-0.0602,0.0444,-0.1318,-1.7056485615172328,-0.021350262686610222,2.501504898071289,-1.594494342803955,0.0004397173470351845,2.1267478466033936,4.475571318263672,-0.00014427666610572487,0.26779747009277344,-1.3208258787738245,0.0001922501396620646,-0.021463505923748016,0.7633339762687683,0.0,-0.004723783116787672,1.3518118858337402,-0.0003966741496697068,-0.1357431411743164
182.0,213.0,3.3093,-2.3294,8.6746,-0.0602,0.0444,-0.1318,-1.7057486973204554,-0.022671643644571304,2.4807605743408203,-1.5944702625274658,0.0004823355993721634,2.0362515449523926,4.475635691280029,-0.00025784477475099266,0.26164668798446655,-1.3208015600787562,0.0001843067875597626,-0.015987180173397064,0.7633053064346313,0.0,-0.014022085815668106,1.3518521785736084,-0.00030298548517748713,-0.16891519725322723
182.0,213.0,3.3093,-2.3294,8.6746,-0.0602,0.0444,-0.1318,-1.7058483562865199,-0.025174476206302643,2.537283182144165,-1.5945144891738892,0.0004604498972184956,2.0874218940734863,4.475603266353271,-0.00027165532810613513,0.255551815032959,-1.320822540913717,0.0002652317052707076,-0.010262677446007729,0.7633655667304993,0.0,-0.007729844190180302,1.3518521785736084,-0.0002418903895886615,-0.1816847324371338
182.0,213.0,3.3093,-2.3294,8.6746,-0.0602,0.0444,-0.1318,-1.7059794865050257,-0.026396319270133972,2.5314786434173584,-1.594490647315979,0.00038283635512925684,2.065521001815796,4.475599928493164,-0.000318397069349885,0.2551865577697754,-1.3208101431476038,0.00031216375646181405,-0.010482758283615112,0.763313353061676,0.0,-0.005422290414571762,1.3518562316894531,-0.0002132303488906473,-0.15045565366744995
182.0,213.0,3.3093,-2.3294,8.6746,-0.0602,0.0444,-0.1318,-1.7061439953246058,-0.029067015275359154,2.514227867126465,-1.594494342803955,0.00030497738043777645,2.0664260387420654,4.475624247188232,-0.0006510104867629707,0.2476220428943634,-1.320854965840475,0.000564594054594636,-0.005101129878312349,0.7633695602416992,0.0,-0.0011915386421605945,1.351880431175232,-0.00018105216440744698,-0.17607608437538147
182.0,213.0,3.3093,-2.3294,8.6746,-0.0602,0.0444,-0.1318,-1.7062517605223597,-0.03155869245529175,2.4425930976867676,-1.5944783687591553,0.0002685686922632158,2.037264347076416,4.475538416499756,-0.0012664435198530555,0.23839473724365234,-1.3207619825946253,0.0005430621095001698,-0.006855850573629141,0.7633457779884338,0.0,-0.004872575867921114,1.3518083095550537,-0.00016450636030640453,-0.15000925958156586
182.0,213.0,3.3093,-2.3294,8.6746,-0.0602,0.0444,-0.1318,-1.7064234218993128,-0.03472986817359924,2.4224462509155273,-1.5944184064865112,0.00020848771964665502,2.0530598163604736,4.475607557887695,-0.0017335176235064864,0.24217215180397034,-1.3207619825946253,0.0004544166731648147,0.004458229523152113,0.7633376717567444,0.0,-0.002973629627376795,1.3518644571304321,-0.00015072985843289644,-0.146356463432312
182.0,213.0,3.3093,-2.3294,8.6746,-0.0602,0.0444,-0.1318,-1.706663270989889,-0.038629572838544846,2.453552484512329,-1.5944504737854004,0.00016547099221497774,2.07500958442688,4.475527449245117,-0.001885887235403061,0.2375624030828476,-1.3207820097552698,0.0004232146020513028,0.005554607138037682,0.7633900046348572,0.0,0.006294005550444126,1.3518562316894531,-0.00013390880485530943,-0.2318873256444931
182.0,213.0,3.3093,-2.3294,8.6746,-0.0602,0.0444,-0.1318,-1.7067791424193324,-0.04273511469364166,2.431835651397705,-1.5944743156433105,0.00015153909043874592,2.0991296768188477,4.475543184871338,-0.0020374536979943514,0.25051090121269226,-1.3208020369159144,0.0004254019586369395,0.0010471392888575792,0.7633736729621887,0.0,0.004018676467239857,1.3518118858337402,-0.0001246363972313702,-0.18421027064323425
182.0,213.0,3.3093,-2.3294,8.6746,-0.0602,0.0444,-0.1318,-1.7070347271361292,-0.04888438060879707,2.408437490463257,-1.5944257974624634,0.00013454747386276722,1.9973621368408203,4.4755517679401855,-0.0021037280093878508,0.2364240288734436,-1.3207619825946253,0.0003447401395533234,0.0058180904015898705,0.7633457183837891,0.0,-0.0009678513742983341,1.3518762588500977,-0.00011290919792372733,-0.1996970772743225
179.0,210.0,3.0072,-1.9872,8.4006,-0.0318,0.0043,-0.118,-1.7072144947447718,-0.05232057347893715,2.3640499114990234,-1.5944985151290894,0.0001251895446330309,2.0061964988708496,4.475548906917236,-0.0017143655568361282,0.23726043105125427,-1.3208101431476038,0.00029493478359654546,0.0013266222085803747,0.7633539438247681,0.0,0.004139135126024485,1.3518644571304321,-0.00010624448623275384,-0.1823934018611908
179.0,210.0,3.0072,-1.9872,8.4006,-0.0318,0.0043,-0.118,-1.7074700794615687,-0.054749611765146255,2.343292236328125,-1.5944175720214844,0.00011704854114213958,2.009510040283203,4.475564642543457,-0.0015086891362443566,0.23652184009552002,-1.3208025137530726,0.0002861174871213734,-0.012457989156246185,0.7633335590362549,0.0,0.0011711798142641783,1.3518439531326294,-0.00010032288992078975,-0.17081044614315033
179.0,210.0,3.0072,-1.9872,8.4006,-0.0318,0.0043,-0.118,-1.707778116265768,-0.05732283368706703,2.3156962394714355,-1.594482421875,0.00010664610454114154,2.049529552459717,4.475479765529297,-0.0014322305796667933,0.23550589382648468,-1.3208020369159144,0.0002992967492900789,0.007101606111973524,0.7633339166641235,0.0,-0.006522961892187595,1.3518197536468506,-2.9683029424631968e-05,-0.260198712348938
179.0,210.0,3.0072,-1.9872,8.4006,-0.0318,0.0043,-0.118,-1.708029409448141,-0.058667853474617004,2.3409054279327393,-1.594502329826355,0.00010068104165839031,2.0526070594787598,4.475475950832031,-0.002075432799756527,0.2317781299352646,-1.3207743803607386,0.000320613820804283,0.014477825723588467,0.763321578502655,0.0,-0.007671745494008064,1.3518644571304321,-5.555772440857254e-05,-0.22183430194854736
179.0,210.0,3.0072,-1.9872,8.4006,-0.0318,0.0043,-0.118,-1.7083775005736292,-0.06302527338266373,2.3799171447753906,-1.5945063829421997,6.983200728427619e-05,2.0735745429992676,4.4754273134418945,-0.004807624965906143,0.2362000197172165,-1.3208144346820276,0.00042282193317078054,0.012764230370521545,0.7633416652679443,0.0,-0.006941786035895348,1.3518644571304321,-0.00010089313582284376,-0.21930371224880219
179.0,210.0,3.0072,-1.9872,8.4006,-0.0318,0.0043,-0.118,-1.7087093792357386,-0.06805113703012466,2.371952772140503,-1.5944660902023315,-8.092082862276584e-05,2.048762559890747,4.475469275111816,-0.006752256769686937,0.2274954915046692,-1.3207619825946253,0.0004270054632797837,0.008898436091840267,0.7633256912231445,0.0,0.00472366064786911,1.3518563508987427,-0.0004557046922855079,-0.19097787141799927
179.0,210.0,3.0072,-1.9872,8.4006,-0.0318,0.0043,-0.118,-1.7089611492552699,-0.07543536275625229,2.325439691543579,-1.5945342779159546,-9.667008271208033e-05,2.011683225631714,4.475380106563232,-0.009820176288485527,0.21583291888237,-1.3207300345050257,0.0004298209387343377,0.012598425149917603,0.763390064239502,0.0,0.010878248140215874,1.351816177368164,-0.0005366688128560781,-0.17663279175758362
179.0,210.0,3.0072,-1.9872,8.4006,-0.0318,0.0043,-0.118,-1.709424158135885,-0.087946318089962,2.303366184234619,-1.594502329826355,-9.717098873807117e-05,2.0415468215942383,4.475259943599365,-0.012204722501337528,0.24061435461044312,-1.3207338492022913,0.0006833412917330861,0.03217608109116554,0.7633134126663208,0.0,-0.0016080200439319015,1.3517919778823853,-0.0008813882595859468,-0.22190141677856445
179.0,210.0,3.0072,-1.9872,8.4006,-0.0318,0.0043,-0.118,-1.7097717724242152,-0.095937080681324,2.3298282623291016,-1.5944862365722656,-0.00019921991042792797,2.0335824489593506,4.475259943599365,-0.012712371535599232,0.220317542552948,-1.3207662741290491,0.0006614768644794822,0.005416206084191799,0.7633818984031677,0.0,0.0018760405946522951,1.351768136024475,-0.0009261740488000214,-0.23695030808448792
179.0,210.0,3.0072,-1.9872,8.4006,-0.0318,0.0043,-0.118,-1.7104155025877894,-0.10358733683824539,2.289293050765991,-1.5945104360580444,-1.337872959084052e-07,2.0442631244659424,4.475152178401611,-0.010882213711738586,0.2196437567472458,-1.3207743803607386,0.0008424228872172534,0.015329312533140182,0.7633777856826782,0.0,0.010006160475313663,1.3518002033233643,-0.0020815555471926928,-0.26007479429244995
179.0,210.0,3.0072,-1.9872,8.4006,-0.0318,0.0043,-0.118,-1.7108193836607875,-0.10633162409067154,2.302891731262207,-1.5944339036941528,-2.4081238739204203e-11,2.039741039276123,4.475156469936035,-0.008928635157644749,0.2274610996246338,-1.3207500616656702,0.0007706935866735876,0.025626491755247116,0.763321578502655,0.0,0.006979454308748245,1.351776361465454,-0.0027082404121756554,-0.24685460329055786
179.0,210.0,3.0072,-1.9872,8.4006,-0.0318,0.0043,-0.118,-1.7114631138243617,-0.11000414192676544,2.249789237976074,-1.5944184064865112,0.0014467504806816578,1.975053310394287,4.475140734309814,-0.005029347259551287,0.21994468569755554,-1.3207305113421839,0.0006376253440976143,0.024659929797053337,0.7633297443389893,0.0,0.012642834335565567,1.3517600297927856,-0.0047356002032756805,-0.23693710565567017
179.0,210.0,3.0072,-1.9872,8.4006,-0.0318,0.0043,-0.118,-1.7119142017760218,-0.11194733530282974,2.2156195640563965,-1.5944628715515137,0.001662368536926806,2.0311784744262695,4.475100679988525,-0.0031396292615681887,0.2305925190448761,-1.3207619825946253,0.0005992308142594993,0.016667403280735016,0.7633416652679443,0.0,0.011112893000245094,1.3517446517944336,-0.0050077885389328,-0.27261024713516235
179.0,210.0,3.0072,-1.9872,8.4006,-0.0318,0.0043,-0.118,-1.7123381100096644,-0.11506161838769913,2.26901912689209,-1.5944421291351318,0.0013963344972580671,2.048194408416748,4.475145025844238,-0.0018095242558047175,0.23032808303833008,-1.3207419554339808,0.0005929982871748507,0.023375682532787323,0.7633535861968994,0.0,0.010692529380321503,1.351676344871521,-0.006450913846492767,-0.21498027443885803
179.0,210.0,3.0072,-1.9872,8.4006,-0.0318,0.0043,-0.118,-1.7130829296507777,-0.11714605987071991,2.2949137687683105,-1.594397783279419,0.0007301718578673899,2.0316953659057617,4.475116892451904,-0.0011226986534893513,0.2215093970298767,-1.3207381407367151,0.0005008034640923142,0.018357988446950912,0.7633416652679443,0.0,0.0017446274869143963,1.3516926765441895,-0.006961354054510593,-0.2884989380836487
179.0,210.0,3.0072,-1.9872,8.4006,-0.0318,0.0043,-0.118,-1.7136441669859828,-0.11943477392196655,2.270580768585205,-1.5944464206695557,0.0004414972790982574,1.9718648195266724,4.475136919612549,-0.000708682113327086,0.225302055478096,-1.3207219282733362,0.0004920820938423276,0.02402663044631481,0.7633416652679443,0.0,0.011509070172905922,1.3516566753387451,-0.008004591800272465,-0.29621821641921997
179.0,210.0,3.0072,-1.9872,8.4006,-0.0318,0.0043,-0.118,-1.7144175968565882,-0.1295727789402008,2.2657065391540527,-1.5944061279296875,-0.00015748359146527946,2.0005202293395996,4.475128813380859,-0.0006773934583179653,0.22493290901184082,-1.3206895033465784,0.0005070064798928797,0.026975713670253754,0.7633334994316101,0.0,0.018055349588394165,1.3516128063201904,-0.009124716743826866,-0.25115466117858887
179.0,210.0,3.0072,-1.9872,8.4006,-0.0318,0.0043,-0.118,-1.7148896656432093,-0.1361486166715622,2.2774388790130615,-1.594527006149292,-0.00025489344261586666,2.0300538539886475,4.475116892451904,-0.0009089597733691335,0.22568705677986145,-1.3207019011126917,0.0006689895526506007,0.015247553586959839,0.7633457183837891,0.0,0.01143527589738369,1.3515610694885254,-0.010480351746082306,-0.29418468475341797
179.0,210.0,3.0072,-1.9872,8.4006,-0.0318,0.0043,-0.118,-1.7154904804625453,-0.1458662450313568,2.272176742553711,-1.5944623947143555,-0.00021698801720049232,2.0071356296539307,4.475121183986328,-0.0008606411865912378,0.22580870985984802,-1.3206895033465784,0.0007515053730458021,0.0302593931555748,0.7633016109466553,0.0,0.008054019883275032,1.3514971733093262,-0.010804138146340847,-0.27105358242988586
180.0,209.0,2.5974,-1.8508,7.5805,-0.0211,-0.0693,-0.1568,-1.7164160213866175,-0.1587739735841751,2.1817126274108887,-1.5944627523422241,-2.514504330974887e-06,1.970445156097412,4.475148840541504,-0.000700285832863301,0.22093430161476135,-1.32072621980776,0.0009726308635435998,0.022211529314517975,0.7633576393127441,0.0,0.00391798559576273,1.3514692783355713,-0.013249566778540611,-0.26190125942230225
180.0,209.0,2.5974,-1.8508,7.5805,-0.0211,-0.0693,-0.1568,-1.7170168362059535,-0.16175660490989685,2.2440309524536133,-1.594414234161377,-4.526018726469516e-10,2.0079095363616943,4.475128813380859,-0.0005132853402756155,0.20701444149017334,-1.3207019011126917,0.0009013136150315404,0.029668400064110756,0.7633498907089233,0.0,0.010419869795441628,1.3513975143432617,-0.014979789033532143,-0.30550527572631836
180.0,209.0,2.5974,-1.8508,7.5805,-0.0211,-0.0693,-0.1568,-1.7179814777769984,-0.1571134775876999,2.2373931407928467,-1.5943821668624878,0.004530173260718584,2.0032901763916016,4.475140734309814,-0.00018357211956754327,0.22367620468139648,-1.3207019011126917,0.0007692284998483956,0.03313685208559036,0.7633056640625,0.0,0.01824996806681156,1.351285696029663,-0.01779106818139553,-0.2845614552497864
180.0,209.0,2.5974,-1.8508,7.5805,-0.0211,-0.0693,-0.1568,-1.7186061344542445,-0.14866232872009277,2.2805352210998535,-1.594362497329712,0.007521319668740034,1.9922149181365967,4.475140734309814,-0.00014061416732147336,0.2184697389602661,-1.3207185904132288,0.0006015014369040728,0.023672504350543022,0.7633379697799683,0.0,0.013259390369057655,1.351197600364685,-0.019434915855526924,-0.2616780400276184
180.0,209.0,2.5974,-1.8508,7.5805,-0.0211,-0.0693,-0.1568,-1.7192431888976039,-0.14644260704517365,2.3026418685913086,-1.5944068431854248,0.00775184715166688,2.0468590259552,4.4751526552387695,-0.00012154722207924351,0.22348566353321075,-1.3207343260394495,0.0005729355616495013,0.0233088918030262,0.7633174657821655,0.0,0.006775764282792807,1.351142168045044,-0.02063770778477192,-0.2884782552719116
180.0,209.0,2.5974,-1.8508,7.5805,-0.0211,-0.0693,-0.1568,-1.7202006779112757,-0.1498720794916153,2.2715060710906982,-1.5943628549575806,0.0056503042578697205,1.968030333518982,4.475104494685791,-0.00010106350964633748,0.22852244973182678,-1.3206937948810022,0.00045054464135318995,0.02211390621960163,0.7633576393127441,0.0,0.004679657984524965,1.3510425090789795,-0.021183233708143234,-0.2487298995256424
180.0,209.0,2.5974,-1.8508,7.5805,-0.0211,-0.0693,-0.1568,-1.720865388909811,-0.15969833731651306,2.2681925296783447,-1.5943385362625122,0.003147880546748638,2.029664993286133,4.475140734309814,-9.085704368771985e-05,0.22571134567260742,-1.3207224051104944,0.00039413670310750604,0.026283040642738342,0.7632892727851868,0.0,-0.008576378226280212,1.3509068489074707,-0.02100774087011814,-0.2721680700778961
180.0,209.0,2.5974,-1.8508,7.5805,-0.0211,-0.0693,-0.1568,-1.7218347988524378,-0.1739995926618576,2.27795672416687,-1.5942702293395996,0.0012173751601949334,2.007388114929199,4.475145025844238,-7.890543201938272e-05,0.23364296555519104,-1.32072621980776,0.0003318293020129204,0.0250596571713686,0.7633655071258545,0.0,0.010882610455155373,1.3507708311080933,-0.021959342062473297,-0.23285087943077087
180.0,209.0,2.5974,-1.8508,7.5805,-0.0211,-0.0693,-0.1568,-1.7225638828673304,-0.18179106712341309,2.232912063598633,-1.594283103942871,0.000789314042776823,1.9813511371612549,4.475136442775391,-3.69160516129341e-05,0.22488054633140564,-1.320742432271139,0.00030019611585885286,0.013487396761775017,0.7633535861968994,0.0,0.0006447973428294063,1.3506630659103394,-0.02291879616677761,-0.28824055194854736
180.0,209.0,2.5974,-1.8508,7.5805,-0.0211,-0.0693,-0.1568,-1.7232042751707972,-0.18212977051734924,2.2330076694488525,-1.5943069458007812,0.0008640462765470147,2.0256195068359375,4.475212736720703,-5.959474265182507e-07,0.23001234233379364,-1.3207343260394495,0.00027407074230723083,0.0136056924238801,0.763329803943634,0.0,-0.001272865803912282,1.3505793809890747,-0.024893373250961304,-0.3062055706977844
180.0,209.0,2.5974,-1.8508,7.5805,-0.0211,-0.0693,-0.1568,-1.7242728672423304,-0.16984249651432037,2.280076503753662,-1.5942143201828003,0.0042669824324548244,2.0644359588623047,4.475237055415771,-1.6588418139118488e-10,0.2244279682636261,-1.3206818739520472,0.00024242511426564306,0.011003072373569012,0.7633297443389893,0.0,0.0011786747490987182,1.3504079580307007,-0.029618164524435997,-0.2652032971382141
180.0,209.0,2.5974,-1.8508,7.5805,-0.0211,-0.0693,-0.1568,-1.7249542675414027,-0.16052797436714172,2.325260639190674,-1.5941822528839111,0.006866032723337412,2.044286012649536,4.475165053004883,-7.071902200124491e-13,0.22957170009613037,-1.3207185904132288,0.00022509896371047944,0.018560247495770454,0.763321578502655,0.0,-0.00494992733001709,1.3503080606460571,-0.030181556940078735,-0.2838069796562195
180.0,209.0,2.5974,-1.8508,7.5805,-0.0211,-0.0693,-0.1568,-1.7259279690184535,-0.1553826779127121,2.3599555492401123,-1.5941872596740723,0.006184251047670841,2.055495500564575,4.475156946773193,-1.968490143389111e-16,0.24115899205207825,-1.3207181135760706,0.00020330387633293867,0.00534159317612648,0.7633335590362549,0.0,-0.0015781244728714228,1.3500850200653076,-0.03103049471974373,-0.28471672534942627
180.0,209.0,2.5974,-1.8508,7.5805,-0.0211,-0.0693,-0.1568,-1.7265964947142542,-0.16390356421470642,2.3236615657806396,-1.5941587686538696,0.0048387013375759125,2.038646697998047,4.475156946773193,-8.391983060825043e-19,0.2461910843849182,-1.3207219282733362,0.00019097677432000637,0.0045555890537798405,0.7633334994316101,0.0,-0.0032792682759463787,1.3499969244003296,-0.03174889460206032,-0.23050561547279358
180.0,209.0,2.5974,-1.8508,7.5805,-0.0211,-0.0693,-0.1568,-1.7276050053038539,-0.17744015157222748,2.3169336318969727,-1.5941871404647827,0.002230979036539793,2.0191197395324707,4.47517649709668,-2.3359393191364166e-22,0.2371126413345337,-1.3206775824176233,0.0001750556839397177,0.011528680101037025,0.7633457183837891,0.0,0.005715822800993919,1.3498014211654663,-0.03000781126320362,-0.2639143764972687
180.0,209.0,2.5974,-1.8508,7.5805,-0.0211,-0.0693,-0.1568,-1.7283383808531703,-0.18377579748630524,2.318566083908081,-1.5942068099975586,0.0014639962464571,2.021442413330078,4.475188894862793,-9.958475543440111e-25,0.24986106157302856,-1.32072621980776,0.00016583874821662903,0.005363118834793568,0.7633339166641235,0.0,0.003047754056751728,1.3496861457824707,-0.030506251379847527,-0.2522889971733093
180.0,209.0,2.5974,-1.8508,7.5805,-0.0211,-0.0693,-0.1568,-1.7289868793883265,-0.184048131108284,2.2929978370666504,-1.5940951108932495,0.0015191680286079645,2.0483012199401855,4.475196047420166,-4.245454102603125e-27,0.23082971572875977,-1.3207100073443812,0.00015754382184240967,0.008418713696300983,0.7633216381072998,0.0,0.008735066279768944,1.3495382070541382,-0.031973838806152344,-0.30662745237350464
