ramyac6/ROB537/final_project/csv/bad/bad_43.csv
tof_0,tof_1,accelx,accely,accelz,gyrox,gyroy,gyroz,shoulder_lift_joint_position,shoulder_lift_joint_velocity,shoulder_lift_joint_effort,elbow_joint_position,elbow_joint_velocity,elbow_joint_effort,wrist_1_joint_position,wrist_1_joint_velocity,wrist_1_joint_effort,wrist_2_joint_position,wrist_2_joint_velocity,wrist_2_joint_effort,wrist_3_joint_position,wrist_3_joint_velocity,wrist_3_joint_effort,shoulder_pan_joint_position,shoulder_pan_joint_velocity,shoulder_pan_joint_effort
205.0,226.0,0.5815,0.3954,9.4618,-0.04,0.0278,-0.1202,-1.917267461816305,0.0,3.527749538421631,-1.609373927116394,-0.0,2.0684502124786377,4.993475305825033,0.0,0.27123743295669556,-1.5073683897601526,0.0,-0.019612140953540802,0.028093727305531502,0.0,-0.006345187313854694,1.2742412090301514,0.0,0.011085273697972298
205.0,226.0,0.5815,0.3954,9.4618,-0.04,0.0278,-0.1202,-1.9172355137267054,0.0,3.487607002258301,-1.6093777418136597,-0.0,2.045198917388916,4.993519502669134,0.0,0.2648882567882538,-1.5073521772967737,0.0,0.0015654365997761488,0.02810976468026638,0.0,-0.01039126981049776,1.274224877357483,0.0,-0.03244311362504959
205.0,226.0,0.5815,0.3954,9.4618,-0.04,0.0278,-0.1202,-1.9172636471190394,0.0,3.514233112335205,-1.6093817949295044,-0.0,2.0430908203125,4.993543731957235,0.0,0.26972776651382446,-1.5073846022235315,0.0,-0.005455490667372942,0.02812199667096138,0.0,-0.0076217809692025185,1.2741971015930176,0.0,-0.02395736426115036
205.0,226.0,0.5815,0.3954,9.4618,-0.04,0.0278,-0.1202,-1.9172798595824183,0.0,3.466583013534546,-1.609333872795105,-0.0,2.037749767303467,4.993519532471456,0.0,0.2647537291049957,-1.5073803106891077,0.0,-0.0008223899640142918,0.028069457039237022,0.0,-0.001898795715533197,1.2742531299591064,0.0,0.013025671243667603
205.0,226.0,0.5815,0.3954,9.4618,-0.04,0.0278,-0.1202,-1.9172436199583949,0.0,3.4330596923828125,-1.609418272972107,-0.0,2.055483818054199,4.993523585587301,0.0,0.26980748772621155,-1.5074246565448206,0.0,-0.014019971713423729,0.02810976468026638,0.0,-0.0007213945500552654,1.274224877357483,0.0,0.04511953517794609
205.0,226.0,0.5815,0.3954,9.4618,-0.04,0.0278,-0.1202,-1.9172841511168421,0.0,3.527829170227051,-1.6093981266021729,-0.0,2.0479788780212402,4.9935035584266565,0.0,0.2604449391365051,-1.5074322859393519,0.0,-0.014417896047234535,0.02807777002453804,0.0,-0.002500440925359726,1.2742453813552856,0.0,0.030427660793066025
205.0,226.0,0.5815,0.3954,9.4618,-0.04,0.0278,-0.1202,-1.917283674279684,0.0,3.4910645484924316,-1.6094224452972412,-0.0,2.0162923336029053,4.993555533676901,0.0,0.2772098183631897,-1.5073407332049769,0.0,-0.005192079581320286,0.028142152354121208,0.0,-0.010348422452807426,1.2742412090301514,0.0,-0.0003570280969142914
205.0,226.0,0.5815,0.3954,9.4618,-0.04,0.0278,-0.1202,-1.9172841511168421,0.0,3.5480947494506836,-1.6094306707382202,-0.0,2.036715507507324,4.993539589434423,0.0,0.28204643726348877,-1.5073564688311976,0.0,0.005631383508443832,0.028146157041192055,0.0,-0.007516046985983849,1.2742412090301514,0.0,-0.0209380891174078
205.0,226.0,0.5815,0.3954,9.4618,-0.04,0.0278,-0.1202,-1.9172917805113734,0.0,3.522141933441162,-1.609442114830017,-0.0,2.0110349655151367,4.993495422392645,0.0,0.2728906273841858,-1.5074003378497522,0.0,-0.004028186667710543,0.02811385877430439,0.0,-0.001936374232172966,1.2742208242416382,0.0,0.015287578105926514
202.0,224.0,0.6514,0.3739,9.5264,-0.0341,0.0272,-0.1184,-1.9172760448851527,0.0,3.485248565673828,-1.6094059944152832,-0.0,2.029614210128784,4.993511754065313,0.0,0.2648773789405823,-1.5073960463153284,0.0,-0.0013193602208048105,0.028137993067502975,0.0,-0.0030182660557329655,1.2742211818695068,0.0,-0.017310870811343193
202.0,224.0,0.6514,0.3739,9.5264,-0.0341,0.0272,-0.1184,-1.9173122845091761,0.0,3.5247349739074707,-1.6093777418136597,-0.0,2.0324177742004395,4.993491279869833,0.0,0.27513888478279114,-1.507348362599508,0.0,-0.010741906240582466,0.02810152992606163,0.0,-0.007147134747356176,1.274208903312683,0.0,-0.00924541987478733
202.0,224.0,0.6514,0.3739,9.5264,-0.0341,0.0272,-0.1184,-1.9172760448851527,0.0,3.440739393234253,-1.6094224452972412,-0.0,2.0219132900238037,4.993511307030477,0.0,0.27392229437828064,-1.507348362599508,0.0,0.00020626629702746868,0.028113842010498047,0.0,-0.005142115987837315,1.274224877357483,0.0,0.008920295163989067
202.0,224.0,0.6514,0.3739,9.5264,-0.0341,0.0272,-0.1184,-1.91725554088735,0.0,3.5062193870544434,-1.6093698740005493,-0.0,2.055654764175415,4.993515419750967,0.0,0.26544445753097534,-1.5073440710650843,0.0,-0.00991792418062687,0.02810978889465332,0.0,0.0010237102396786213,1.2742048501968384,0.0,0.007044972386211157
202.0,224.0,0.6514,0.3739,9.5264,-0.0341,0.0272,-0.1184,-1.9172960720457972,0.0,3.4821598529815674,-1.6093698740005493,-0.0,2.0386552810668945,4.993495422392645,0.0,0.25997740030288696,-1.5073726812945765,0.0,-0.005620792042464018,0.02813800424337387,0.0,-0.00499079842120409,1.274273157119751,0.0,0.014993030577898026
202.0,224.0,0.6514,0.3739,9.5264,-0.0341,0.0272,-0.1184,-1.91725554088735,0.0,3.529442071914673,-1.6094101667404175,-0.0,2.030376672744751,4.993499475508489,0.0,0.270778089761734,-1.5073846022235315,0.0,0.004864576738327742,0.028105998411774635,0.0,0.0034416094422340393,1.274233102798462,0.0,0.0364358015358448
202.0,224.0,0.6514,0.3739,9.5264,-0.0341,0.0272,-0.1184,-1.9172717533507289,0.0,3.4826607704162598,-1.6094063520431519,-0.0,2.0672621726989746,4.993463146477499,0.0,0.2665938436985016,-1.507348362599508,0.0,-0.004206190351396799,0.028129827231168747,0.0,0.002261265879496932,1.274233102798462,0.0,-0.03799673169851303
202.0,224.0,0.6514,0.3739,9.5264,-0.0341,0.0272,-0.1184,-1.9172879658141078,0.0,3.4977190494537354,-1.6094266176223755,-0.0,2.0854640007019043,4.993503528624334,0.0,0.264521986246109,-1.5073726812945765,0.0,-0.011363055557012558,0.028073646128177643,0.0,-0.0155233358964324,1.2742494344711304,0.0,-0.008736887015402317
202.0,224.0,0.6514,0.3739,9.5264,-0.0341,0.0272,-0.1184,-1.9172879658141078,0.0,3.499518871307373,-1.6094142198562622,-0.0,2.027524948120117,4.993555593281545,0.0,0.27047839760780334,-1.5073683897601526,0.0,-0.008300870656967163,0.028085870668292046,0.0,-0.008885552175343037,1.2742412090301514,0.0,0.01871781423687935
202.0,224.0,0.6514,0.3739,9.5264,-0.0341,0.0272,-0.1184,-1.9173041782774867,0.0,3.5368764400482178,-1.6093899011611938,-0.0,2.025023937225342,4.993519502669134,0.0,0.26532652974128723,-1.5073402563678187,0.0,-0.002434812719002366,0.028129830956459045,0.0,0.0014129377668723464,1.2742453813552856,0.0,-0.007708721794188023
202.0,224.0,0.6514,0.3739,9.5264,-0.0341,0.0272,-0.1184,-1.9172598324217738,0.0,3.478123188018799,-1.6093940734863281,-0.0,2.012381076812744,4.993483173638143,0.0,0.2850092053413391,-1.5073846022235315,0.0,-0.012546336278319359,0.028089614585042,0.0,-0.0008357883198186755,1.2742290496826172,0.0,-0.0028557037003338337
202.0,224.0,0.6514,0.3739,9.5264,-0.0341,0.0272,-0.1184,-1.917267461816305,0.0,3.4686026573181152,-1.6093899011611938,-0.0,2.047534704208374,4.993487196951666,0.0,0.26862263679504395,-1.5073521772967737,0.0,0.0031147352419793606,0.028093766421079636,0.0,0.0005534612573683262,1.2742208242416382,0.0,0.008496480993926525
202.0,224.0,0.6514,0.3739,9.5264,-0.0341,0.0272,-0.1184,-1.9172598324217738,0.0,3.4516758918762207,-1.6094143390655518,-0.0,2.0082509517669678,4.993523615389623,0.0,0.27961432933807373,-1.5073803106891077,0.0,0.002537729684263468,0.028093792498111725,0.0,0.006142992991954088,1.2742531299591064,0.0,-0.03524674475193024
202.0,224.0,0.6514,0.3739,9.5264,-0.0341,0.0272,-0.1184,-1.9172598324217738,0.0,3.497918128967285,-1.6094627380371094,-0.0,2.055943489074707,4.993527728110113,0.0,0.27970731258392334,-1.5073564688311976,0.0,-0.01517540030181408,0.028162216767668724,0.0,-0.011929642409086227,1.2742290496826172,0.0,0.019246459007263184
202.0,224.0,0.6514,0.3739,9.5264,-0.0341,0.0272,-0.1184,-1.9172798595824183,0.0,3.5020055770874023,-1.6094021797180176,-0.0,2.047163724899292,4.9934913394744775,0.0,0.27278292179107666,-1.507404629384176,0.0,0.0024130279198288918,0.028121603652834892,0.0,0.002500073052942753,1.2742531299591064,0.0,0.019160998985171318
202.0,224.0,0.6514,0.3739,9.5264,-0.0341,0.0272,-0.1184,-1.9172641239561976,0.0,3.535635471343994,-1.6093661785125732,-0.0,2.042415142059326,4.993487226753988,0.0,0.27180856466293335,-1.5073402563678187,0.0,-0.010085229761898518,0.028146157041192055,0.0,-0.004365226719528437,1.2742773294448853,0.0,0.0299543347209692
203.0,230.0,0.612,0.3703,9.5701,-0.0405,0.0218,-0.1271,-1.91725554088735,0.0,3.4657540321350098,-1.6094142198562622,-0.0,2.0498077869415283,4.993499505310812,0.0,0.2737668752670288,-1.5073564688311976,0.0,-0.013405091129243374,0.028081845492124557,0.0,-0.006446384359151125,1.2742167711257935,0.0,0.0013621277175843716
203.0,230.0,0.612,0.3703,9.5701,-0.0405,0.0218,-0.1271,-1.9172235927977503,0.0,3.5597009658813477,-1.6094059944152832,-0.0,2.0684151649475098,4.993519562273779,0.0,0.277013897895813,-1.5073488394366663,0.0,-0.015767550095915794,0.028133917599916458,0.0,-0.005190965253859758,1.2742453813552856,0.0,0.010818537324666977
203.0,230.0,0.612,0.3703,9.5701,-0.0405,0.0218,-0.1271,-1.9172998867430628,0.0,3.4827051162719727,-1.6093661785125732,-0.0,2.02278208732605,4.993527757912435,0.0,0.2797071635723114,-1.5073521772967737,0.0,-0.0031419508159160614,0.028097843751311302,0.0,0.00017871730960905552,1.2742773294448853,0.0,-0.03099938854575157
203.0,230.0,0.612,0.3703,9.5701,-0.0405,0.0218,-0.1271,-1.9172717533507289,0.0,3.5110602378845215,-1.6094101667404175,-0.0,2.068061351776123,4.993555593281545,0.0,0.26867997646331787,-1.5073803106891077,0.0,-0.0015010260976850986,0.028121603652834892,0.0,0.0019502987852320075,1.2742412090301514,0.0,0.01710236445069313
203.0,230.0,0.612,0.3703,9.5701,-0.0405,0.0218,-0.1271,-1.9172598324217738,0.0,3.493597984313965,-1.6094101667404175,-0.0,2.001314163208008,4.993491279869833,0.0,0.27583393454551697,-1.5073803106891077,0.0,0.0003665726399049163,0.028117919340729713,0.0,0.003466623369604349,1.274208903312683,0.0,-0.0016144728288054466
203.0,230.0,0.612,0.3703,9.5701,-0.0405,0.0218,-0.1271,-1.9172474346556605,0.0,3.4960293769836426,-1.6093940734863281,-0.0,2.0288772583007812,4.993479448347845,0.0,0.2801872193813324,-1.5073440710650843,0.0,0.0038505210541188717,0.028137922286987305,0.0,-0.005358477123081684,1.2742412090301514,0.0,-0.015368160791695118
203.0,230.0,0.612,0.3703,9.5701,-0.0405,0.0218,-0.1271,-1.9172436199583949,0.0,3.509439706802368,-1.609370231628418,-0.0,2.0264923572540283,4.993511754065313,0.0,0.2757822275161743,-1.5074203650103968,0.0,-0.002127149375155568,0.028154311701655388,0.0,0.0016450510593131185,1.2742412090301514,0.0,-0.05225545912981033
203.0,230.0,0.612,0.3703,9.5701,-0.0405,0.0218,-0.1271,-1.9172641239561976,0.0,3.507539749145508,-1.6093899011611938,-0.0,1.9899296760559082,4.993531483202734,0.0,0.2745254635810852,-1.5073683897601526,0.0,-0.015916600823402405,0.02810976468026638,0.0,-0.006281418725848198,1.2742571830749512,0.0,-0.0362650603055954
203.0,230.0,0.612,0.3703,9.5701,-0.0405,0.0218,-0.1271,-1.9172760448851527,0.0,3.4798455238342285,-1.6094224452972412,-0.0,2.02548885345459,4.99354379156188,0.0,0.272652268409729,-1.5073884169207972,0.0,-0.00531716039404273,0.02806953340768814,0.0,-0.0014661515597254038,1.274200677871704,0.0,-0.0051889861933887005
203.0,230.0,0.612,0.3703,9.5701,-0.0405,0.0218,-0.1271,-1.9172841511168421,0.0,3.559555768966675,-1.609410047531128,-0.0,2.014331102371216,4.993523615389623,0.0,0.27034685015678406,-1.5073283354388636,0.0,-0.002548869466409087,0.0281621553003788,0.0,0.01341509260237217,1.2742048501968384,0.0,0.00941536296159029
203.0,230.0,0.612,0.3703,9.5701,-0.0405,0.0218,-0.1271,-1.9172517261900843,0.0,3.4663381576538086,-1.6094019412994385,-0.0,2.0436666011810303,4.993475305825033,0.0,0.27820563316345215,-1.507348362599508,0.0,-0.006076456513255835,0.028057685121893883,0.0,0.0016911081038415432,1.2742371559143066,0.0,-0.01176159642636776
203.0,230.0,0.612,0.3703,9.5701,-0.0405,0.0218,-0.1271,-1.9172316990294398,0.0,3.5073413848876953,-1.6094266176223755,-0.0,2.0585873126983643,4.99348350146369,0.0,0.26905888319015503,-1.5073564688311976,0.0,-0.00873176846653223,0.028121963143348694,0.0,-0.007642737589776516,1.274224877357483,0.0,0.0063374824821949005
203.0,230.0,0.612,0.3703,9.5701,-0.0405,0.0218,-0.1271,-1.91725554088735,0.0,3.551577091217041,-1.6094019412994385,-0.0,2.078348398208618,4.9935355363185785,0.0,0.27462005615234375,-1.5073607603656214,0.0,-0.007130155339837074,0.028150275349617004,0.0,0.01155611127614975,1.2742412090301514,0.0,-0.03313084691762924
203.0,230.0,0.612,0.3703,9.5701,-0.0405,0.0218,-0.1271,-1.91725554088735,0.0,3.530702590942383,-1.6094379425048828,-0.0,2.1042864322662354,4.99351583698348,0.0,0.27639514207839966,-1.5073559919940394,0.0,-0.029075898230075836,0.02814619056880474,0.0,0.006164119113236666,1.2742211818695068,0.0,-0.0026296591386198997
203.0,230.0,0.612,0.3703,9.5701,-0.0405,0.0218,-0.1271,-1.9172841511168421,0.0,3.5344810485839844,-1.6093419790267944,-0.0,2.026364326477051,4.993503528624334,0.0,0.26897332072257996,-1.5074003378497522,0.0,-0.014175503514707088,0.028106018900871277,0.0,0.002040788996964693,1.2742290496826172,0.0,0.009343458339571953
203.0,230.0,0.612,0.3703,9.5701,-0.0405,0.0218,-0.1271,-1.9172717533507289,0.0,3.4921212196350098,-1.6093858480453491,-0.0,2.0413055419921875,4.99354379156188,0.0,0.26046353578567505,-1.5073846022235315,0.0,0.004492196254432201,0.028158094733953476,0.0,0.0013808904914185405,1.274233102798462,0.0,-0.0025656791403889656
201.0,231.0,0.5689,0.3505,9.4887,-0.0418,0.0228,-0.1124,-1.9172798595824183,0.0,3.4939112663269043,-1.609370231628418,-0.0,2.0293850898742676,4.993519532471456,0.0,0.2724393606185913,-1.5073726812945765,0.0,-0.0027497727423906326,0.028109805658459663,0.0,0.004189274273812771,1.2742732763290405,0.0,-0.011960912495851517
201.0,231.0,0.5689,0.3505,9.4887,-0.0418,0.0228,-0.1124,-1.9172479114928187,0.0,3.524484634399414,-1.6093858480453491,-0.0,2.030163288116455,4.993559735804357,0.0,0.2764201760292053,-1.507352654133932,0.0,0.005073257721960545,0.028125746175646782,0.0,0.004628438036888838,1.274224877357483,0.0,0.0066832564771175385
201.0,231.0,0.5689,0.3505,9.4887,-0.0418,0.0228,-0.1124,-1.9172841511168421,0.0,3.507530689239502,-1.60941743850708,-0.0,2.0045902729034424,4.993487226753988,0.0,0.26911938190460205,-1.5073726812945765,0.0,-0.017326954752206802,0.028166288509964943,0.0,0.00844478514045477,1.2742655277252197,0.0,0.0017154867528006434
201.0,231.0,0.5689,0.3505,9.4887,-0.0418,0.0228,-0.1124,-1.917300363580221,0.0,3.4926700592041016,-1.6094298362731934,-0.0,2.0361709594726562,4.993491279869833,0.0,0.2754947245121002,-1.507392708455221,0.0,-0.012384031899273396,0.028097843751311302,0.0,0.002561963861808181,1.2742208242416382,0.0,0.004203289747238159
201.0,231.0,0.5689,0.3505,9.4887,-0.0418,0.0228,-0.1124,-1.9173084698119105,0.0,3.4915409088134766,-1.609434723854065,-0.0,2.056817054748535,4.993499475508489,0.0,0.2790933847427368,-1.5073884169207972,0.0,-0.0032257824204862118,0.028150279074907303,0.0,-0.003407977055758238,1.2742290496826172,0.0,-0.00037874141708016396
201.0,231.0,0.5689,0.3505,9.4887,-0.0418,0.0228,-0.1124,-1.9172760448851527,0.0,3.5419058799743652,-1.6093858480453491,-0.0,2.0578012466430664,4.9935359237487695,0.0,0.27122962474823,-1.507376495991842,0.0,-0.007043764926493168,0.028109773993492126,0.0,0.008800538256764412,1.2742290496826172,0.0,0.010453352704644203
201.0,231.0,0.5689,0.3505,9.4887,-0.0418,0.0228,-0.1124,-1.9172960720457972,0.0,3.5042905807495117,-1.6094021797180176,-0.0,2.0601606369018555,4.993547904282369,0.0,0.2694074213504791,-1.5073564688311976,0.0,-0.006048997864127159,0.028154311701655388,0.0,-0.012726000510156155,1.2742208242416382,0.0,0.01073388196527958
201.0,231.0,0.5689,0.3505,9.4887,-0.0418,0.0228,-0.1124,-1.9172598324217738,0.0,3.499709129333496,-1.6093899011611938,-0.0,2.027641773223877,4.993499475508489,0.0,0.28381192684173584,-1.5073640982257288,0.0,-0.0015585620421916246,0.028085922822356224,0.0,8.610007353127003e-05,1.2742654085159302,0.0,-0.04011950641870499
201.0,231.0,0.5689,0.3505,9.4887,-0.0418,0.0228,-0.1124,-1.9172278843321742,0.0,3.5430164337158203,-1.6093698740005493,-0.0,2.0355212688446045,4.993543433934011,0.0,0.27874836325645447,-1.5073760191546839,0.0,0.000345093896612525,0.028158077970147133,0.0,0.005169227719306946,1.2741929292678833,0.0,0.005987793672829866
201.0,231.0,0.5689,0.3505,9.4887,-0.0418,0.0228,-0.1124,-1.9172598324217738,0.0,3.4953932762145996,-1.6093940734863281,-0.0,2.042448043823242,4.99349125006751,0.0,0.2707257866859436,-1.507404629384176,0.0,0.002813133876770735,0.02809785306453705,0.0,-0.002863034140318632,1.2742453813552856,0.0,-0.01250478532165289
201.0,231.0,0.5689,0.3505,9.4887,-0.0418,0.0228,-0.1124,-1.9172679386534632,0.0,3.487809181213379,-1.6094340085983276,-0.0,2.0043535232543945,4.993519532471456,0.0,0.27191269397735596,-1.5073846022235315,0.0,-0.01939735747873783,0.028142081573605537,0.0,0.008835813030600548,1.2742412090301514,0.0,0.03840218856930733
201.0,231.0,0.5689,0.3505,9.4887,-0.0418,0.0228,-0.1124,-1.9172641239561976,0.0,3.451838970184326,-1.6093780994415283,-0.0,2.0140650272369385,4.9935117838676355,0.0,0.26533132791519165,-1.5073640982257288,0.0,-0.00174404913559556,0.02812984026968479,0.0,0.0017052872572094202,1.2742650508880615,0.0,-0.025825927034020424
201.0,231.0,0.5689,0.3505,9.4887,-0.0418,0.0228,-0.1124,-1.9172641239561976,0.0,3.496025562286377,-1.609442114830017,-0.0,2.024566173553467,4.993503528624334,0.0,0.27345654368400574,-1.5073683897601526,0.0,-0.014350078999996185,0.028142081573605537,0.0,-0.004218417219817638,1.2742290496826172,0.0,-0.007106623612344265
201.0,231.0,0.5689,0.3505,9.4887,-0.0418,0.0228,-0.1124,-1.9172641239561976,0.0,3.5116822719573975,-1.6093621253967285,-0.0,2.029247760772705,4.993519532471456,0.0,0.2708873748779297,-1.507392708455221,0.0,-0.0077817244455218315,0.028081845492124557,0.0,-0.0013008795212954283,1.2742290496826172,0.0,0.013260575011372566
201.0,231.0,0.5689,0.3505,9.4887,-0.0418,0.0228,-0.1124,-1.9172474346556605,0.0,3.5365540981292725,-1.6094019412994385,-0.0,2.024519443511963,4.993507611542501,0.0,0.2780328094959259,-1.5073440710650843,0.0,-0.0060774944722652435,0.028113842010498047,0.0,-0.014722524210810661,1.2742613554000854,0.0,-0.014637255109846592
201.0,231.0,0.5689,0.3505,9.4887,-0.0418,0.0228,-0.1124,-1.9172598324217738,0.0,3.496143102645874,-1.6094059944152832,-0.0,2.0332891941070557,4.9935355363185785,0.0,0.277460515499115,-1.5074165503131312,0.0,-0.005107144825160503,0.028146157041192055,0.0,-0.01076723262667656,1.274224877357483,0.0,-0.014678370207548141
201.0,233.0,0.6024,0.3607,9.5378,-0.033,0.0283,-0.1155,-1.9172436199583949,0.0,3.4931135177612305,-1.609382152557373,-0.0,2.046689510345459,4.993527370482244,0.0,0.27199631929397583,-1.5074084440814417,0.0,-0.015523875132203102,0.028089608997106552,0.0,-0.0011915711220353842,1.274208903312683,0.0,-0.03925460949540138
201.0,233.0,0.6024,0.3607,9.5378,-0.033,0.0283,-0.1155,-1.9172879658141078,0.0,3.5425753593444824,-1.609362006187439,-0.0,2.0782551765441895,4.993519532471456,0.0,0.273379385471344,-1.5073803106891077,0.0,-0.009719261899590492,0.028146157041192055,0.0,0.004728224128484726,1.2742453813552856,0.0,0.000988006591796875
201.0,233.0,0.6024,0.3607,9.5378,-0.033,0.0283,-0.1155,-1.9172116718687953,0.0,3.543846607208252,-1.6093899011611938,-0.0,2.086181879043579,4.993531453400411,0.0,0.28003644943237305,-1.5073803106891077,0.0,0.00012126134242862463,0.028093766421079636,0.0,-0.004975407849997282,1.2742412090301514,0.0,0.004114968702197075
201.0,233.0,0.6024,0.3607,9.5378,-0.033,0.0283,-0.1155,-1.9172760448851527,0.0,3.523818254470825,-1.6094019412994385,-0.0,2.0943961143493652,4.993515509157934,0.0,0.27587002515792847,-1.5073521772967737,0.0,0.0006920602172613144,0.028073644265532494,0.0,-0.0015644824597984552,1.2742531299591064,0.0,0.0008206567727029324
201.0,233.0,0.6024,0.3607,9.5378,-0.033,0.0283,-0.1155,-1.9172598324217738,0.0,3.492302894592285,-1.6094380617141724,-0.0,2.067819595336914,4.993523615389623,0.0,0.27830612659454346,-1.5073640982257288,0.0,-0.003967803902924061,0.02815023437142372,0.0,-0.0031486358493566513,1.2742412090301514,0.0,-0.008813141845166683
201.0,233.0,0.6024,0.3607,9.5378,-0.033,0.0283,-0.1155,-1.9172359905638636,0.0,3.553863048553467,-1.6094101667404175,-0.0,2.058906078338623,4.993543433934011,0.0,0.27132654190063477,-1.5074122587787073,0.0,-0.005603911355137825,0.028117895126342773,0.0,-0.0024984884075820446,1.2742655277252197,0.0,0.004630640149116516
201.0,233.0,0.6024,0.3607,9.5378,-0.033,0.0283,-0.1155,-1.9172474346556605,0.0,3.481581687927246,-1.6093940734863281,-0.0,2.0499093532562256,4.993519532471456,0.0,0.27831876277923584,-1.5074165503131312,0.0,-0.010463661514222622,0.028166329488158226,0.0,0.0038206051103770733,1.2742412090301514,0.0,-0.014743897132575512
201.0,233.0,0.6024,0.3607,9.5378,-0.033,0.0283,-0.1155,-1.91725554088735,0.0,3.540454149246216,-1.6093220710754395,-0.0,2.0689303874969482,4.993483143835821,0.0,0.2640555799007416,-1.5073564688311976,0.0,0.0032125557772815228,0.028133973479270935,0.0,-0.0015472350642085075,1.2742613554000854,0.0,-0.04652556777000427
201.0,233.0,0.6024,0.3607,9.5378,-0.033,0.0283,-0.1155,-1.9172760448851527,0.0,3.515774965286255,-1.6093981266021729,-0.0,2.0183801651000977,4.993507611542501,0.0,0.2740437090396881,-1.5073683897601526,0.0,-0.008974979631602764,0.028085898607969284,0.0,-0.002368635730817914,1.2741847038269043,0.0,0.006650030147284269
201.0,233.0,0.6024,0.3607,9.5378,-0.033,0.0283,-0.1155,-1.917283674279684,0.0,3.5341620445251465,-1.609418511390686,-0.0,2.028404951095581,4.993495452194967,0.0,0.2645273804664612,-1.5074003378497522,0.0,-0.014082083478569984,0.028174500912427902,0.0,-0.0012998136226087809,1.2742531299591064,0.0,0.009921876713633537
201.0,233.0,0.6024,0.3607,9.5378,-0.033,0.0283,-0.1155,-1.917267461816305,0.0,3.5650336742401123,-1.6093497276306152,-0.0,2.039011001586914,4.993503528624334,0.0,0.2739669382572174,-1.507404629384176,0.0,-0.01140714343637228,0.02816619910299778,0.0,-0.008943178690969944,1.274233102798462,0.0,-0.011425850912928581
201.0,233.0,0.6024,0.3607,9.5378,-0.033,0.0283,-0.1155,-1.9172598324217738,0.0,3.534998893737793,-1.6093940734863281,-0.0,2.085625171661377,4.993523585587301,0.0,0.27334269881248474,-1.5073240439044397,0.0,-0.008395303972065449,0.028125770390033722,0.0,0.007933503948152065,1.2742654085159302,0.0,0.044329605996608734
201.0,233.0,0.6024,0.3607,9.5378,-0.033,0.0283,-0.1155,-1.9172717533507289,0.0,3.5017738342285156,-1.6093862056732178,-0.0,2.01255202293396,4.993483143835821,0.0,0.2709217965602875,-1.5073965231524866,0.0,-0.011698847636580467,0.028109727427363396,0.0,0.0007385459612123668,1.2742412090301514,0.0,-0.023199575021862984
201.0,233.0,0.6024,0.3607,9.5378,-0.033,0.0283,-0.1155,-1.9172436199583949,0.0,3.5005507469177246,-1.6094101667404175,-0.0,2.06742262840271,4.9935355363185785,0.0,0.2692231833934784,-1.5073803106891077,0.0,-0.014151311479508877,0.028117919340729713,0.0,0.002738960785791278,1.2742290496826172,0.0,-0.036591872572898865
201.0,233.0,0.6024,0.3607,9.5378,-0.033,0.0283,-0.1155,-1.917300363580221,0.0,3.5063347816467285,-1.6093899011611938,-0.0,2.075354814529419,4.993487196951666,0.0,0.26877278089523315,-1.5073521772967737,0.0,0.0038384422659873962,0.028069473803043365,0.0,-0.010611201636493206,1.2742371559143066,0.0,0.018042275682091713
201.0,233.0,0.6024,0.3607,9.5378,-0.033,0.0283,-0.1155,-1.9172841511168421,0.0,3.538104295730591,-1.609466791152954,-0.0,2.029510021209717,4.993555593281545,0.0,0.27656227350234985,-1.5073884169207972,0.0,-0.013233957812190056,0.028077708557248116,0.0,0.005311179906129837,1.2742412090301514,0.0,-0.017743272706866264
204.0,233.0,0.6215,0.3763,9.4684,-0.0389,0.0231,-0.1155,-1.91725554088735,0.0,3.526121139526367,-1.609434723854065,-0.0,2.0867691040039062,4.993507641344824,0.0,0.2696508765220642,-1.5073965231524866,0.0,-0.026440110057592392,0.028142081573605537,0.0,-0.0028441925533115864,1.2742208242416382,0.0,0.027223603799939156
204.0,233.0,0.6215,0.3763,9.4684,-0.0389,0.0231,-0.1155,-1.91725554088735,0.0,3.5609517097473145,-1.6093816757202148,-0.0,2.0530283451080322,4.993519502669134,0.0,0.27928465604782104,-1.5073602835284632,0.0,-0.008479607291519642,0.02807777002453804,0.0,0.010661057196557522,1.2741929292678833,0.0,-0.034913238137960434
204.0,233.0,0.6215,0.3763,9.4684,-0.0389,0.0231,-0.1155,-1.9172598324217738,0.0,3.4873270988464355,-1.6094101667404175,-0.0,2.041395902633667,4.993535506516256,3.7730882240794017e-07,0.27395230531692505,-1.507376495991842,0.0,0.004123677499592304,0.02809004858136177,0.0,0.012592392973601818,1.2742412090301514,0.0,0.007461274974048138
204.0,233.0,0.6215,0.3763,9.4684,-0.0389,0.0231,-0.1155,-1.9172679386534632,0.0,3.500730514526367,-1.6093940734863281,-0.0,2.0761337280273438,4.993507641344824,1.6085266452137148e-09,0.2734344005584717,-1.5073564688311976,0.0,-0.002326899440959096,0.0281621553003788,0.0,-0.01324169710278511,1.2742774486541748,0.0,0.015048753470182419
204.0,233.0,0.6215,0.3763,9.4684,-0.0389,0.0231,-0.1155,-1.917283674279684,0.0,3.5358996391296387,-1.6094059944152832,-0.0,2.026522159576416,4.993507641344824,4.4773933909406094e-13,0.27628135681152344,-1.5073607603656214,0.0,-0.015551506541669369,0.028125762939453125,0.0,0.00602615624666214,1.2742613554000854,0.0,0.013966142199933529
204.0,233.0,0.6215,0.3763,9.4684,-0.0389,0.0231,-0.1155,-1.9172760448851527,0.0,3.479199171066284,-1.6093621253967285,-0.0,2.042645215988159,4.993495362788,1.246298999950458e-16,0.2655215263366699,-1.5074165503131312,0.0,-0.005568125285208225,0.028077777475118637,0.0,0.0026532169431447983,1.2742613554000854,0.0,0.015872037038207054
204.0,233.0,0.6215,0.3763,9.4684,-0.0389,0.0231,-0.1155,-1.9172517261900843,0.0,3.5630087852478027,-1.6093538999557495,-0.0,2.042917251586914,4.993507611542501,3.4691192333346783e-20,0.2760462164878845,-1.5073402563678187,0.0,-0.02284080721437931,0.0281621553003788,0.0,0.006146103143692017,1.274233102798462,0.0,-0.0022001825273036957
204.0,233.0,0.6215,0.3763,9.4684,-0.0389,0.0231,-0.1155,-1.9172760448851527,0.0,3.5143661499023438,-1.609370231628418,-0.0,2.0530054569244385,4.9935273108775995,9.656420308400533e-24,0.2719791531562805,-1.5074122587787073,0.0,-0.0018371253972873092,0.02812984026968479,0.0,0.00012354855425655842,1.2742531299591064,0.0,-0.008780727162957191
204.0,233.0,0.6215,0.3763,9.4684,-0.0389,0.0231,-0.1155,-1.9172598324217738,0.0,3.4923768043518066,-1.6093780994415283,-0.0,2.0231268405914307,4.993507611542501,4.1166835761450764e-26,0.2750420570373535,-1.5073683897601526,0.0,-0.0040581077337265015,0.028061451390385628,0.0,-0.005802410189062357,1.2742531299591064,0.0,-0.0424177423119545
204.0,233.0,0.6215,0.3763,9.4684,-0.0389,0.0231,-0.1155,-1.91725554088735,0.0,3.5437254905700684,-1.609434723854065,-0.0,2.0061137676239014,4.993519502669134,1.1458940865149094e-29,0.2610969543457031,-1.5073602835284632,0.0,-0.0004629221512004733,0.0281621553003788,0.0,0.007281015627086163,1.2742613554000854,0.0,0.027725065127015114
204.0,233.0,0.6215,0.3763,9.4684,-0.0389,0.0231,-0.1155,-1.917272230187887,0.0,3.49019718170166,-1.6094266176223755,-0.0,2.0277819633483887,4.993543821364202,3.189638166741028e-33,0.2799513339996338,-1.5073640982257288,0.0,-0.0003600287018343806,0.028137993067502975,0.0,-0.00372533081099391,1.2742371559143066,0.0,-0.03822368383407593
204.0,233.0,0.6215,0.3763,9.4684,-0.0389,0.0231,-0.1155,-1.9172598324217738,0.0,3.534115791320801,-1.6094142198562622,-0.0,2.035747766494751,4.993503528624334,8.878474608689122e-37,0.26721251010894775,-1.5073922316180628,0.0,-0.020553894340991974,0.028133917599916458,0.0,-0.020479004830121994,1.2742494344711304,0.0,-0.024396998807787895
204.0,233.0,0.6215,0.3763,9.4684,-0.0389,0.0231,-0.1155,-1.9172522030272425,0.0,3.5225863456726074,-1.6094379425048828,-0.0,2.0232460498809814,4.9934913394744775,2.471357997652534e-40,0.270415335893631,-1.5073640982257288,0.0,-0.006155793555080891,0.02811015583574772,0.0,-0.002077403012663126,1.2742412090301514,0.0,-0.009675411507487297
204.0,233.0,0.6215,0.3763,9.4684,-0.0389,0.0231,-0.1155,-1.9172316990294398,0.0,3.5162363052368164,-1.6094059944152832,-0.0,2.0598251819610596,4.9935117838676355,6.866362475191604e-44,0.2766738533973694,-1.5073846022235315,0.0,-0.00013256561942398548,0.028081845492124557,0.0,-0.0015910402871668339,1.2742453813552856,0.0,0.050075385719537735
204.0,233.0,0.6215,0.3763,9.4684,-0.0389,0.0231,-0.1155,-1.9172598324217738,0.0,3.490420341491699,-1.6094224452972412,-0.0,2.0708162784576416,4.993511366635122,0.0,0.2703140676021576,-1.5073440710650843,0.0,-0.017678964883089066,0.028093766421079636,0.0,0.0001387307420372963,1.2742372751235962,0.0,0.006392547860741615
204.0,233.0,0.6215,0.3763,9.4684,-0.0389,0.0231,-0.1155,-1.9172641239561976,0.0,3.477687358856201,-1.6093940734863281,-0.0,2.0193028450012207,4.9934711931045435,0.0,0.2697999179363251,-1.5073402563678187,0.0,-0.01508093811571598,0.028133876621723175,0.0,0.0007360927411355078,1.2741810083389282,0.0,0.01790710911154747
203.0,232.0,0.6227,0.3769,9.5073,-0.0325,0.0177,-0.1145,-1.9172917805113734,0.0,3.543409824371338,-1.6094266176223755,-0.0,2.061788320541382,4.993487196951666,0.0,0.25834202766418457,-1.5074003378497522,0.0,-0.0009466693736612797,0.028101565316319466,0.0,0.0021156338043510914,1.2742494344711304,0.0,-0.03606317564845085
203.0,232.0,0.6227,0.3769,9.5073,-0.0325,0.0177,-0.1145,-1.917267461816305,0.0,3.483433246612549,-1.6093862056732178,-0.0,2.0708515644073486,4.993503528624334,0.0,0.2805081605911255,-1.5073884169207972,0.0,0.001774307806044817,0.028158070519566536,0.0,-0.005011321976780891,1.2742371559143066,0.0,0.017785606905817986
203.0,232.0,0.6227,0.3769,9.5073,-0.0325,0.0177,-0.1145,-1.9172436199583949,0.0,3.5128533840179443,-1.6093899011611938,-0.0,2.038499116897583,4.993515449553289,0.0,0.28056764602661133,-1.507348362599508,0.0,-0.0055385129526257515,0.028133844956755638,0.0,0.005684401839971542,1.2742536067962646,0.0,0.017116248607635498
203.0,232.0,0.6227,0.3769,9.5073,-0.0325,0.0177,-0.1145,-1.91725554088735,0.0,3.4973883628845215,-1.6094183921813965,-0.0,2.0402040481567383,4.9935117838676355,0.0,0.26675403118133545,-1.5073440710650843,0.0,-0.013713130727410316,0.02811790630221367,0.0,-0.00663823401555419,1.2742453813552856,0.0,0.0039354357868433
203.0,232.0,0.6227,0.3769,9.5073,-0.0325,0.0177,-0.1145,-1.9172717533507289,0.0,3.481982707977295,-1.6094348430633545,-0.0,2.0580101013183594,4.993487226753988,0.0,0.2851457893848419,-1.5073803106891077,0.0,-0.015891946852207184,0.02812981605529785,0.0,0.0020494733471423388,1.2742412090301514,0.0,-0.01244690828025341
203.0,232.0,0.6227,0.3769,9.5073,-0.0325,0.0177,-0.1145,-1.9172917805113734,0.0,3.5281991958618164,-1.6093578338623047,-0.0,2.01953125,4.9934953329856775,0.0,0.27129483222961426,-1.5073440710650843,0.0,-0.01953154429793358,0.028166281059384346,0.0,0.005792017560452223,1.2742650508880615,0.0,0.01078140176832676
203.0,232.0,0.6227,0.3769,9.5073,-0.0325,0.0177,-0.1145,-1.917267461816305,0.0,3.525435447692871,-1.6094266176223755,-0.0,2.0963852405548096,4.99351583698348,0.0,0.26794591546058655,-1.5073440710650843,0.0,0.0006356621161103249,0.028137922286987305,0.0,-0.00692032091319561,1.274284839630127,0.0,0.02347741462290287
203.0,232.0,0.6227,0.3769,9.5073,-0.0325,0.0177,-0.1145,-1.9172436199583949,0.0,3.5259056091308594,-1.6094504594802856,-0.0,2.0429370403289795,4.993519532471456,0.0,0.28410351276397705,-1.5073440710650843,0.0,-0.010231593623757362,0.028117919340729713,0.0,0.0012946268543601036,1.2742491960525513,0.0,-0.006164894439280033
203.0,232.0,0.6227,0.3769,9.5073,-0.0325,0.0177,-0.1145,-1.917283674279684,0.0,3.515744209289551,-1.6094307899475098,-0.0,2.0450854301452637,4.993471222906866,0.0,0.2815072238445282,-1.5073402563678187,0.0,-0.001704420312307775,0.028142081573605537,0.0,0.00018330756574869156,1.2742249965667725,0.0,0.029753895476460457
203.0,232.0,0.6227,0.3769,9.5073,-0.0325,0.0177,-0.1145,-1.9172359905638636,0.0,3.4615464210510254,-1.6094101667404175,-0.0,2.0491037368774414,4.993567603617468,0.0,0.27231061458587646,-1.507392708455221,0.0,-0.004915379453450441,0.02809785306453705,0.0,-0.008926947601139545,1.2742491960525513,0.0,-0.013441850431263447
203.0,232.0,0.6227,0.3769,9.5073,-0.0325,0.0177,-0.1145,-1.9172641239561976,0.0,3.4901785850524902,-1.6094224452972412,-0.0,2.0529274940490723,4.993487226753988,0.0,0.286821186542511,-1.5073602835284632,0.0,0.00387215381488204,0.028133900836110115,0.0,-0.0003385330783203244,1.274245262145996,0.0,0.0343107208609581
203.0,232.0,0.6227,0.3769,9.5073,-0.0325,0.0177,-0.1145,-1.9173165760436,0.0,3.4979677200317383,-1.6094183921813965,-0.0,2.0580642223358154,4.993523287564077,0.0,0.27255284786224365,-1.5073440710650843,0.0,0.00411626324057579,0.028105607256293297,0.0,0.0015679497737437487,1.2742372751235962,0.0,-0.05053587257862091
203.0,232.0,0.6227,0.3769,9.5073,-0.0325,0.0177,-0.1145,-1.9172436199583949,0.0,3.4835963249206543,-1.6094021797180176,-0.0,2.0444207191467285,4.993507611542501,0.0,0.27421945333480835,-1.5073683897601526,0.0,0.004971356131136417,0.0281379297375679,0.0,-0.0017514817882329226,1.2742491960525513,0.0,0.011812561191618443
203.0,232.0,0.6227,0.3769,9.5073,-0.0325,0.0177,-0.1145,-1.9172760448851527,0.0,3.5114541053771973,-1.6094059944152832,-0.0,2.0523624420166016,4.993531453400411,0.0,0.2709791362285614,-1.5073846022235315,0.0,-0.008324320428073406,0.028117520734667778,0.0,-0.013770008459687233,1.2742611169815063,0.0,0.012824238277971745
203.0,232.0,0.6227,0.3769,9.5073,-0.0325,0.0177,-0.1145,-1.9172717533507289,0.0,3.4968905448913574,-1.6094461679458618,-0.0,2.020097017288208,4.993519532471456,0.0,0.26574182510375977,-1.5073803106891077,0.0,-0.0017523129936307669,0.028117919340729713,0.0,0.0062350379303097725,1.274245262145996,0.0,0.007358250208199024
203.0,232.0,0.6227,0.3769,9.5073,-0.0325,0.0177,-0.1145,-1.9172278843321742,0.0,3.529472827911377,-1.6093899011611938,-0.0,2.0587692260742188,4.993555593281545,0.0,0.2755186855792999,-1.5073760191546839,0.0,0.0017240967135876417,0.028085531666874886,0.0,0.0077409641817212105,1.2742570638656616,0.0,-0.03456147387623787
209.0,221.0,0.6072,0.3787,9.475,-0.0402,0.0232,-0.1194,-1.9172798595824183,0.0,3.482388973236084,-1.6094101667404175,-0.0,2.0890541076660156,4.993519532471456,0.0,0.28403449058532715,-1.5073602835284632,0.0,-0.00611511105671525,0.028085922822356224,0.0,-0.012038337998092175,1.2742491960525513,0.0,-0.0006699560908600688
209.0,221.0,0.6072,0.3787,9.475,-0.0402,0.0232,-0.1194,-1.9172841511168421,0.0,3.5516703128814697,-1.6094142198562622,-0.0,2.092409133911133,4.9935355363185785,0.0,0.268934965133667,-1.5073922316180628,0.0,-0.007710712030529976,0.02810976468026638,0.0,-0.005231810733675957,1.2742531299591064,0.0,-0.04177564010024071
209.0,221.0,0.6072,0.3787,9.475,-0.0402,0.0232,-0.1194,-1.9172641239561976,0.0,3.470120429992676,-1.6093940734863281,-0.0,2.1128478050231934,4.9934831140334985,0.0,0.2718386650085449,-1.507348362599508,0.0,-0.002039917279034853,0.028125746175646782,0.0,-0.005938617046922445,1.274213194847107,0.0,-0.05237003043293953
209.0,221.0,0.6072,0.3787,9.475,-0.0402,0.0232,-0.1194,-1.9172479114928187,0.0,3.46889328956604,-1.6094348430633545,-0.0,2.042055368423462,4.9935355363185785,0.0,0.28089669346809387,-1.5074003378497522,0.0,-0.026686178520321846,0.028085531666874886,0.0,0.000671493005938828,1.2742412090301514,0.0,-0.002540809568017721
209.0,221.0,0.6072,0.3787,9.475,-0.0402,0.0232,-0.1194,-1.9172316990294398,0.0,3.480285406112671,-1.6094019412994385,-0.0,2.0492429733276367,4.9935355363185785,0.0,0.2720855176448822,-1.5073602835284632,0.0,-0.02614591270685196,0.02812160924077034,0.0,-0.0020172647200524807,1.2742412090301514,0.0,-0.021093619987368584
209.0,221.0,0.6072,0.3787,9.475,-0.0402,0.0232,-0.1194,-1.9172798595824183,0.0,3.517184257507324,-1.6093899011611938,-0.0,2.0694773197174072,4.993527787714758,0.0,0.2766502797603607,-1.5073922316180628,0.0,-0.018364079296588898,0.02813795767724514,0.0,-0.00829214509576559,1.2742412090301514,0.0,-0.042673904448747635
209.0,221.0,0.6072,0.3787,9.475,-0.0402,0.0232,-0.1194,-1.9172917805113734,0.0,3.538252353668213,-1.6094101667404175,-0.0,1.9894202947616577,4.993495452194967,0.0,0.2710510194301605,-1.5073521772967737,0.0,-0.015393583104014397,0.02807769551873207,0.0,0.013188399374485016,1.2742249965667725,0.0,-0.0006928180810064077
209.0,221.0,0.6072,0.3787,9.475,-0.0402,0.0232,-0.1194,-1.9172235927977503,0.0,3.480597496032715,-1.60935378074646,-0.0,2.0398738384246826,4.993499415903845,0.0,0.2706206440925598,-1.5073726812945765,0.0,-0.01263449341058731,0.02812989242374897,0.0,0.007520987652242184,1.2742650508880615,0.0,0.0029283370822668076
209.0,221.0,0.6072,0.3787,9.475,-0.0402,0.0232,-0.1194,-1.9172641239561976,0.0,3.5397469997406006,-1.6093940734863281,-0.0,2.0662448406219482,4.993499445706167,0.0,0.27317118644714355,-1.5073283354388636,0.0,-0.004546765238046646,0.028117915615439415,0.0,0.006676233373582363,1.274245262145996,0.0,0.04752543941140175
209.0,221.0,0.6072,0.3787,9.475,-0.0402,0.0232,-0.1194,-1.9172760448851527,0.0,3.51786470413208,-1.609373927116394,-0.0,1.9881407022476196,4.993519532471456,0.0,0.2822490632534027,-1.5073283354388636,0.0,-0.01850767992436886,0.028117503970861435,0.0,0.00526051688939333,1.2742531299591064,0.0,-0.024915164336562157
209.0,221.0,0.6072,0.3787,9.475,-0.0402,0.0232,-0.1194,-1.9172479114928187,0.0,3.482985496520996,-1.6093981266021729,-0.0,2.0558643341064453,4.993511366635122,0.0,0.27564936876296997,-1.5073726812945765,0.0,-0.0208344254642725,0.028125762939453125,0.0,-0.006019843276590109,1.2742412090301514,0.0,-0.049327410757541656
209.0,221.0,0.6072,0.3787,9.475,-0.0402,0.0232,-0.1194,-1.9172479114928187,0.0,3.4840781688690186,-1.6094142198562622,-0.0,2.0863099098205566,4.993535566120901,0.0,0.2720993161201477,-1.5073683897601526,0.0,-0.012285945005714893,0.028133876621723175,0.0,-0.005514033604413271,1.2742531299591064,0.0,-0.020130397751927376
209.0,221.0,0.6072,0.3787,9.475,-0.0402,0.0232,-0.1194,-1.917215963403219,0.0,3.4837141036987305,-1.6094101667404175,-0.0,2.080479145050049,4.993487226753988,0.0,0.272625207901001,-1.5073607603656214,0.0,-0.004444389138370752,0.028073659166693687,0.0,-0.00351682398468256,1.2741854190826416,0.0,-0.02230910211801529
209.0,221.0,0.6072,0.3787,9.475,-0.0402,0.0232,-0.1194,-1.9172398052611292,0.0,3.491067409515381,-1.6094101667404175,-0.0,2.0562970638275146,4.9935355363185785,0.0,0.2888103127479553,-1.5073278586017054,0.0,-0.013471180573105812,0.02812199667096138,0.0,0.005337624344974756,1.274225115776062,0.0,-0.006905119866132736
209.0,221.0,0.6072,0.3787,9.475,-0.0402,0.0232,-0.1194,-1.9172402820982875,0.0,3.5263254642486572,-1.6094101667404175,-0.0,2.068376302719116,4.993519532471456,0.0,0.2737147808074951,-1.5073564688311976,0.0,0.00018230220302939415,0.028117552399635315,0.0,0.002297007478773594,1.274245262145996,0.0,-0.02849584072828293
209.0,221.0,0.6072,0.3787,9.475,-0.0402,0.0232,-0.1194,-1.9172841511168421,0.0,3.4894638061523438,-1.6094224452972412,-0.0,2.0598552227020264,4.9935117838676355,0.0,0.27329814434051514,-1.5073726812945765,0.0,-0.006361076142638922,0.02813788875937462,0.0,-0.0016870555700734258,1.274245262145996,0.0,-0.026228569447994232
206.0,229.0,0.6353,0.3936,9.5845,-0.0269,0.0223,-0.1132,-1.9172760448851527,0.0,3.514321804046631,-1.6093940734863281,-0.0,1.9945049285888672,4.9935117838676355,0.0,0.2714369297027588,-1.5073846022235315,0.0,-0.007422013208270073,0.0281621553003788,0.0,-2.1359912352636456e-05,1.2742372751235962,0.0,-0.012067960575222969
206.0,229.0,0.6353,0.3936,9.5845,-0.0269,0.0223,-0.1132,-1.9172235927977503,0.0,3.502929210662842,-1.609442114830017,-0.0,1.99228835105896,4.993519532471456,0.0,0.2846260070800781,-1.5073884169207972,0.0,-0.003389861900359392,0.02812199667096138,0.0,-0.0021821465343236923,1.274213194847107,0.0,0.008772304281592369
206.0,229.0,0.6353,0.3936,9.5845,-0.0269,0.0223,-0.1132,-1.9172197781004847,0.0,3.4826035499572754,-1.6094307899475098,-0.0,2.073010206222534,4.9934953329856775,0.0,0.26145023107528687,-1.5073760191546839,0.0,0.007396860979497433,0.02812984026968479,0.0,-0.007962754927575588,1.274193286895752,0.0,0.022438259795308113
206.0,229.0,0.6353,0.3936,9.5845,-0.0269,0.0223,-0.1132,-1.9172960720457972,0.0,3.549628496170044,-1.609370231628418,-0.0,2.0282936096191406,4.993519532471456,0.0,0.27733197808265686,-1.5074203650103968,0.0,-0.005385524593293667,0.028117947280406952,0.0,0.00023372983559966087,1.2742412090301514,0.0,-0.005867209285497665
206.0,229.0,0.6353,0.3936,9.5845,-0.0269,0.0223,-0.1132,-1.9172278843321742,0.0,3.5206961631774902,-1.609382152557373,-0.0,2.0380349159240723,4.993467139988699,0.0,0.26257121562957764,-1.5073846022235315,0.0,0.004116315394639969,0.02807777002453804,0.0,0.006328012328594923,1.274213194847107,0.0,-0.01662680134177208
206.0,229.0,0.6353,0.3936,9.5845,-0.0269,0.0223,-0.1132,-1.9172641239561976,0.0,3.517897367477417,-1.6093579530715942,-0.0,2.045056104660034,4.993487196951666,0.0,0.2807479500770569,-1.5073602835284632,0.0,-0.01647520624101162,0.028101887553930283,0.0,0.0009413305670022964,1.2742650508880615,0.0,0.03281635046005249
206.0,229.0,0.6353,0.3936,9.5845,-0.0269,0.0223,-0.1132,-1.9173122845091761,0.0,3.512587070465088,-1.609373927116394,-0.0,2.027230978012085,4.993527787714758,0.0,0.2729240655899048,-1.5073683897601526,0.0,0.004012427292764187,0.028105998411774635,0.0,0.0077783288434147835,1.274213194847107,0.0,-0.00991412065923214
206.0,229.0,0.6353,0.3936,9.5845,-0.0269,0.0223,-0.1132,-1.9172316990294398,0.0,3.525413990020752,-1.6093295812606812,-0.0,2.0646815299987793,4.9934793887432,0.0,0.2750951945781708,-1.5074003378497522,0.0,-0.0019674021750688553,0.028170276433229446,0.0,0.0018919070716947317,1.2742491960525513,0.0,0.03549308329820633
206.0,229.0,0.6353,0.3936,9.5845,-0.0269,0.0223,-0.1132,-1.9172278843321742,0.0,3.5318078994750977,-1.6094101667404175,-0.0,2.0592355728149414,4.993519532471456,0.0,0.26614391803741455,-1.507376495991842,0.0,-0.0034992252476513386,0.028081845492124557,0.0,0.012798504903912544,1.2742729187011719,0.0,0.06195447966456413
206.0,229.0,0.6353,0.3936,9.5845,-0.0269,0.0223,-0.1132,-1.9172479114928187,0.0,3.519378662109375,-1.6094223260879517,-0.0,2.078094959259033,4.993555623083868,0.0,0.27084609866142273,-1.5073803106891077,0.0,-0.011419565416872501,0.028065528720617294,0.0,-0.004690592642873526,1.2742290496826172,0.0,0.04324163496494293
206.0,229.0,0.6353,0.3936,9.5845,-0.0269,0.0223,-0.1132,-1.9172717533507289,0.0,3.4761576652526855,-1.609442114830017,-0.0,2.086326837539673,4.993503528624334,0.0,0.26948899030685425,-1.5073521772967737,0.0,-0.0020918180234730244,0.028085466474294662,0.0,0.0030473500955849886,1.2742730379104614,0.0,-0.00016464770305901766
206.0,229.0,0.6353,0.3936,9.5845,-0.0269,0.0223,-0.1132,-1.9172641239561976,0.0,3.505021572113037,-1.6093978881835938,-0.0,2.083423614501953,4.993511366635122,0.0,0.27661341428756714,-1.5073760191546839,0.0,-0.0032491739839315414,0.028073610737919807,0.0,0.01770661771297455,1.2742290496826172,0.0,0.021035686135292053
206.0,229.0,0.6353,0.3936,9.5845,-0.0269,0.0223,-0.1132,-1.9172479114928187,0.0,3.5383944511413574,-1.6093497276306152,-0.0,2.060769557952881,4.993523615389623,0.0,0.2728332281112671,-1.5074003378497522,0.0,-0.00902284774929285,0.02810976468026638,0.0,-0.0004987202119082212,1.2742372751235962,0.0,0.02282709628343582
206.0,229.0,0.6353,0.3936,9.5845,-0.0269,0.0223,-0.1132,-1.9172641239561976,0.0,3.507302761077881,-1.6094543933868408,-0.0,2.0258097648620605,4.993467139988699,0.0,0.2759856581687927,-1.507348362599508,0.0,-0.012100069783627987,0.028085922822356224,0.0,-0.00805334746837616,1.2742249965667725,0.0,0.0378752127289772
206.0,229.0,0.6353,0.3936,9.5845,-0.0269,0.0223,-0.1132,-1.9172879658141078,0.0,3.522367000579834,-1.6094223260879517,-0.0,2.0481247901916504,4.993555593281545,0.0,0.2784048020839691,-1.5073884169207972,0.0,-0.013062067329883575,0.028125803917646408,0.0,-0.008280749432742596,1.274213194847107,0.0,-0.02388075366616249
206.0,229.0,0.6353,0.3936,9.5845,-0.0269,0.0223,-0.1132,-1.9172717533507289,0.0,3.445349931716919,-1.6094348430633545,-0.0,2.0162510871887207,4.993523615389623,0.0,0.2749038636684418,-1.5073726812945765,0.0,-0.013939661905169487,0.028117919340729713,0.0,-0.0007864771760068834,1.2742570638656616,0.0,-0.03830903768539429
206.0,229.0,0.6353,0.3936,9.5845,-0.0269,0.0223,-0.1132,-1.9172641239561976,0.0,3.520076274871826,-1.60935378074646,-0.0,2.0817365646362305,4.9935355363185785,0.0,0.27318131923675537,-1.5073726812945765,0.0,-0.0034217049833387136,0.02810192108154297,0.0,-0.0056749749928712845,1.2742290496826172,0.0,-0.013825789093971252
201.0,232.0,0.5049,0.3535,9.4863,-0.0389,0.0247,-0.119,-1.9172841511168421,0.0,3.4769127368927,-1.6094022989273071,-0.0,2.0109894275665283,4.993507611542501,0.0,0.2681247889995575,-1.5073846022235315,0.0,-0.007332717068493366,0.028158077970147133,0.0,-0.007927654311060905,1.274213194847107,0.0,0.006868948694318533
201.0,232.0,0.5049,0.3535,9.4863,-0.0389,0.0247,-0.119,-1.9172598324217738,0.0,3.5299692153930664,-1.6093579530715942,-0.0,2.0675981044769287,4.9935355363185785,0.0,0.27927881479263306,-1.5073846022235315,0.0,-0.00981566309928894,0.028129853308200836,0.0,0.0019497486064210534,1.2742372751235962,0.0,-0.05195653438568115
201.0,232.0,0.5049,0.3535,9.4863,-0.0389,0.0247,-0.119,-1.9172479114928187,0.0,3.533944606781006,-1.6093940734863281,-0.0,2.030467987060547,4.993463057070532,0.0,0.2701878249645233,-1.5073846022235315,0.0,-0.008874041959643364,0.02808600291609764,0.0,0.0033977003768086433,1.2742290496826172,0.0,0.000990827800706029
201.0,232.0,0.5049,0.3535,9.4863,-0.0389,0.0247,-0.119,-1.9172398052611292,0.0,3.547086715698242,-1.6094105243682861,-0.0,2.040034294128418,4.9935355363185785,0.0,0.28818199038505554,-1.5074246565448206,0.0,-0.0010292187798768282,0.028110140934586525,0.0,0.004345446825027466,1.2742769718170166,0.0,-0.021141864359378815
201.0,232.0,0.5049,0.3535,9.4863,-0.0389,0.0247,-0.119,-1.9172316990294398,0.0,3.501802444458008,-1.6093899011611938,-0.0,2.0251224040985107,4.993519532471456,0.0,0.2761153280735016,-1.5073683897601526,0.0,-0.011301729828119278,0.02811385877430439,0.0,0.0009456654661335051,1.2742372751235962,0.0,-0.003103788709267974
201.0,232.0,0.5049,0.3535,9.4863,-0.0389,0.0247,-0.119,-1.9172641239561976,0.0,3.4922447204589844,-1.6093982458114624,-0.0,2.065101146697998,4.993475305825033,0.0,0.26930636167526245,-1.5073884169207972,0.0,-0.0075842030346393585,0.02811795473098755,0.0,-0.0007873981958255172,1.2742249965667725,0.0,-0.01767222210764885
201.0,232.0,0.5049,0.3535,9.4863,-0.0389,0.0247,-0.119,-1.91725554088735,0.0,3.5295863151550293,-1.6093776226043701,-0.0,2.0332038402557373,4.993479478150167,0.0,0.2638913691043854,-1.5073846022235315,0.0,-0.016996275633573532,0.0281215887516737,0.0,0.0012348496820777655,1.2742412090301514,0.0,0.002362287137657404
201.0,232.0,0.5049,0.3535,9.4863,-0.0389,0.0247,-0.119,-1.917267461816305,0.0,3.4709677696228027,-1.6093981266021729,-0.0,1.9857958555221558,4.9935355363185785,0.0,0.2810356020927429,-1.5073445479022425,0.0,-0.004190915729850531,0.028117552399635315,0.0,-0.002044608583673835,1.274213194847107,0.0,-0.04366844519972801
201.0,232.0,0.5049,0.3535,9.4863,-0.0389,0.0247,-0.119,-1.9172760448851527,0.0,3.536487102508545,-1.6093816757202148,-0.0,2.011934757232666,4.993527757912435,0.0,0.2792273759841919,-1.5073884169207972,0.0,-0.017930936068296432,0.0280778631567955,0.0,0.0030460022389888763,1.274245262145996,0.0,0.042559802532196045
201.0,232.0,0.5049,0.3535,9.4863,-0.0389,0.0247,-0.119,-1.9172398052611292,0.0,3.5075345039367676,-1.6094101667404175,-0.0,1.9867243766784668,4.993447112828054,0.0,0.26730474829673767,-1.5073846022235315,0.0,-0.018607383593916893,0.028129851445555687,0.0,0.008019174449145794,1.2741934061050415,0.0,-0.00767164584249258
201.0,232.0,0.5049,0.3535,9.4863,-0.0389,0.0247,-0.119,-1.9172436199583949,0.0,3.5477542877197266,-1.6093780994415283,-0.0,2.0734620094299316,4.993479060917654,0.0,0.276151180267334,-1.5073884169207972,0.0,-0.006783605553209782,0.028162216767668724,0.0,0.0027722860686481,1.2742372751235962,0.0,0.0040160296484827995
201.0,232.0,0.5049,0.3535,9.4863,-0.0389,0.0247,-0.119,-1.9172960720457972,0.0,3.5038199424743652,-1.6093899011611938,-0.0,2.0395402908325195,4.9935035584266565,0.0,0.28764808177948,-1.5073683897601526,0.0,-0.016001932322978973,0.028081845492124557,0.0,-0.005620043724775314,1.2742412090301514,0.0,-0.0455755889415741
201.0,232.0,0.5049,0.3535,9.4863,-0.0389,0.0247,-0.119,-1.9172641239561976,0.0,3.5243747234344482,-1.6094019412994385,-0.0,2.0180461406707764,4.993487226753988,0.0,0.28103211522102356,-1.5073607603656214,0.0,-0.0039522480219602585,0.028142152354121208,0.0,-0.01157414447516203,1.2742290496826172,0.0,-0.03974810987710953
201.0,232.0,0.5049,0.3535,9.4863,-0.0389,0.0247,-0.119,-1.9172760448851527,0.0,3.4977426528930664,-1.6093378067016602,-0.0,2.0241212844848633,4.99348725655631,0.0,0.2798227071762085,-1.5073683897601526,0.0,-0.008639979176223278,0.028113825246691704,0.0,-0.004784550983458757,1.2742570638656616,0.0,-0.00015992671251296997
201.0,232.0,0.5049,0.3535,9.4863,-0.0389,0.0247,-0.119,-1.9172879658141078,0.0,3.543179988861084,-1.6093500852584839,-0.0,2.089200496673584,4.993523615389623,0.0,0.27476200461387634,-1.5073803106891077,0.0,-0.00859436672180891,0.028106005862355232,0.0,-0.009046763181686401,1.2742290496826172,0.0,0.0022544004023075104
201.0,232.0,0.5049,0.3535,9.4863,-0.0389,0.0247,-0.119,-1.9172679386534632,0.0,3.503434181213379,-1.6093419790267944,-0.0,2.050692319869995,4.99353967884139,0.0,0.27110719680786133,-1.5073965231524866,0.0,-0.0017827573465183377,0.02812984026968479,0.0,0.0066180238500237465,1.2742491960525513,0.0,0.03930903971195221
206.0,234.0,0.7316,0.4193,9.6102,-0.0406,0.0188,-0.1226,-1.9172398052611292,0.0,3.496014356613159,-1.6093902587890625,-0.0,2.0741803646087646,4.993519532471456,0.0,0.27341437339782715,-1.5073846022235315,0.0,-0.011551331728696823,0.028126154094934464,0.0,-0.00010120519436895847,1.274205207824707,0.0,-0.0033916798420250416
206.0,234.0,0.7316,0.4193,9.6102,-0.0406,0.0188,-0.1226,-1.9172679386534632,0.0,3.472705841064453,-1.6093902587890625,-0.0,2.0647287368774414,4.993519532471456,0.0,0.27412837743759155,-1.5073283354388636,0.0,-0.008813127875328064,0.028085870668292046,0.0,-0.003517099656164646,1.2742412090301514,0.0,0.006381191313266754
206.0,234.0,0.7316,0.4193,9.6102,-0.0406,0.0188,-0.1226,-1.9172278843321742,0.0,3.499911308288574,-1.609426736831665,-0.0,2.029761791229248,4.9934953329856775,0.0,0.2774639427661896,-1.507404629384176,0.0,-0.017114609479904175,0.028105607256293297,0.0,0.005671504884958267,1.2742412090301514,0.0,-0.023229986429214478
206.0,234.0,0.7316,0.4193,9.6102,-0.0406,0.0188,-0.1226,-1.9172398052611292,0.0,3.527639389038086,-1.6093621253967285,-0.0,2.0761704444885254,4.993531453400411,0.0,0.2714804410934448,-1.507404629384176,0.0,-0.011792618781328201,0.028061451390385628,0.0,-0.007112717255949974,1.2742570638656616,0.0,0.022125542163848877
206.0,234.0,0.7316,0.4193,9.6102,-0.0406,0.0188,-0.1226,-1.9172598324217738,0.0,3.501455783843994,-1.6094266176223755,-0.0,2.042752742767334,4.993479001313009,0.0,0.27556899189949036,-1.5073564688311976,0.0,-0.021609358489513397,0.02810189686715603,0.0,0.0070340996608138084,1.2742531299591064,0.0,0.006078673992305994
206.0,234.0,0.7316,0.4193,9.6102,-0.0406,0.0188,-0.1226,-1.9172960720457972,0.0,3.531731605529785,-1.6094021797180176,-0.0,2.0388245582580566,4.993523615389623,0.0,0.27107512950897217,-1.5073640982257288,0.0,-0.009486776776611805,0.028133917599916458,0.0,-0.0005450842436403036,1.2742650508880615,0.0,-0.045644789934158325
206.0,234.0,0.7316,0.4193,9.6102,-0.0406,0.0188,-0.1226,-1.9172960720457972,0.0,3.4707698822021484,-1.6093579530715942,-0.0,2.047417640686035,4.9935117838676355,0.0,0.2748006284236908,-1.5073683897601526,0.0,-0.012281516566872597,0.028134368360042572,0.0,0.001261916826479137,1.274284839630127,0.0,0.0019236438674852252
206.0,234.0,0.7316,0.4193,9.6102,-0.0406,0.0188,-0.1226,-1.9172355137267054,0.0,3.528846263885498,-1.6094142198562622,-0.0,2.0216116905212402,4.993499445706167,0.0,0.2815784811973572,-1.5073564688311976,0.0,-0.012467032298445702,0.028133917599916458,0.0,-0.0038198167458176613,1.2742412090301514,0.0,-0.021256757900118828
206.0,234.0,0.7316,0.4193,9.6102,-0.0406,0.0188,-0.1226,-1.9172879658141078,0.0,3.501628875732422,-1.6094348430633545,-0.0,2.043639659881592,4.993467080384054,0.0,0.26171666383743286,-1.5073884169207972,0.0,-0.0170282069593668,0.02807777002453804,0.0,-0.0052133966237306595,1.274213194847107,0.0,-0.007485607638955116
206.0,234.0,0.7316,0.4193,9.6102,-0.0406,0.0188,-0.1226,-1.9172598324217738,0.0,3.4951906204223633,-1.6093981266021729,-0.0,1.9815915822982788,4.99355565288619,0.0,0.27465134859085083,-1.5073846022235315,0.0,-0.006215780973434448,0.02816173993051052,0.0,-0.0023404923267662525,1.2742412090301514,0.0,0.034894149750471115
206.0,234.0,0.7316,0.4193,9.6102,-0.0406,0.0188,-0.1226,-1.9172474346556605,0.0,3.5270392894744873,-1.6093899011611938,-0.0,2.0544040203094482,4.993543821364202,0.0,0.275912880897522,-1.5074003378497522,0.0,-0.007029692176729441,0.02809000015258789,0.0,0.0005360727664083242,1.274213194847107,0.0,0.000978596042841673
206.0,234.0,0.7316,0.4193,9.6102,-0.0406,0.0188,-0.1226,-1.9173242054381312,0.0,3.4992408752441406,-1.6093579530715942,-0.0,2.0175118446350098,4.9935515997703455,0.0,0.2773769795894623,-1.507376495991842,0.0,-0.0014608168276026845,0.02808596007525921,0.0,0.010898038744926453,1.274245262145996,0.0,-0.009154928848147392
206.0,234.0,0.7316,0.4193,9.6102,-0.0406,0.0188,-0.1226,-1.9172116718687953,0.0,3.5187346935272217,-1.6093944311141968,-0.0,2.0300214290618896,4.993495392590322,0.0,0.27859750390052795,-1.5073564688311976,0.0,-0.005518531892448664,0.028109781444072723,0.0,-0.001963602378964424,1.2742210626602173,0.0,0.008341334760189056
206.0,234.0,0.7316,0.4193,9.6102,-0.0406,0.0188,-0.1226,-1.9172641239561976,0.0,3.493152141571045,-1.6094021797180176,-0.0,2.0343289375305176,4.993519562273779,0.0,0.27496159076690674,-1.507404629384176,0.0,0.006214007269591093,0.028142152354121208,0.0,0.007663882337510586,1.2742491960525513,0.0,-0.035285286605358124
206.0,234.0,0.7316,0.4193,9.6102,-0.0406,0.0188,-0.1226,-1.9172436199583949,0.0,3.493579387664795,-1.6093624830245972,-0.0,2.0391552448272705,4.993479060917654,0.0,0.2765873670578003,-1.5073726812945765,0.0,-0.0067073879763484,0.028125762939453125,0.0,0.002325490117073059,1.274245262145996,0.0,-0.05159643292427063
206.0,234.0,0.7316,0.4193,9.6102,-0.0406,0.0188,-0.1226,-1.9172398052611292,0.0,3.5270464420318604,-1.6094019412994385,-0.0,2.0880138874053955,4.993575411825933,0.0,0.2788983881473541,-1.5074122587787073,9.123401412125531e-08,-0.010895722545683384,0.028077732771635056,0.0,-7.168063893914223e-05,1.2743128538131714,0.0,-0.05339699238538742
202.0,230.0,0.3679,1.3412,9.4678,-0.016,0.013,-0.157,-1.9172522030272425,3.666011849645656e-08,3.5175557136535645,-1.6093698740005493,-0.0,2.043792724609375,4.993563461094656,3.0770600289997674e-08,0.27886343002319336,-1.5074523130999964,2.53953229972792e-11,-0.009523238986730576,0.028101468458771706,0.0,0.005287001840770245,1.2742650508880615,0.0,0.037412378937006
202.0,230.0,0.3679,1.3412,9.4678,-0.016,0.013,-0.157,-1.9172197781004847,8.852987787300037e-14,3.5160751342773438,-1.6094063520431519,-0.0,2.061325788497925,4.993499445706167,0.00039326606201939285,0.26659950613975525,-1.5074117819415491,7.068881274058768e-15,-0.005548832938075066,0.028170334175229073,0.0,-0.001896195113658905,1.2742769718170166,-1.2517399339273538e-09,-0.033238835632801056
202.0,230.0,0.3679,1.3412,9.4678,-0.016,0.013,-0.157,-1.9172922573485316,0.0006072135292924941,3.5195932388305664,-1.6093981266021729,-0.0,2.0394446849823,4.993559348374166,0.00023907344439066947,0.28148379921913147,-1.5073841253863733,1.967649057870461e-18,-0.012271126732230186,0.02810978889465332,0.0,-0.0025683059357106686,1.274304986000061,0.0031767021864652634,0.0005811061710119247
202.0,230.0,0.3679,1.3412,9.4678,-0.016,0.013,-0.157,-1.9172283611693324,0.0007123241084627807,3.514458179473877,-1.6093862056732178,-0.0,2.063732147216797,4.993539291411199,0.0002561330620665103,0.2758336067199707,-1.5074084440814417,5.477022642319565e-22,-0.015934009104967117,0.028081871569156647,0.0,0.005710020195692778,1.2742971181869507,0.0021674588788300753,0.009448917582631111
202.0,230.0,0.3679,1.3412,9.4678,-0.016,0.013,-0.157,-1.9172078571715296,0.0007836694130674005,3.5193417072296143,-1.6093621253967285,-0.0,2.034572124481201,4.993539291411199,0.00021535909036174417,0.2885230481624603,-1.507399861012594,2.3349407158937154e-24,-0.011633355170488358,0.028125762939453125,0.0,-0.00402905885130167,1.274285078048706,0.0015459214337170124,0.03625006228685379
202.0,230.0,0.3679,1.3412,9.4678,-0.016,0.013,-0.157,-1.9172278843321742,0.00041613270877860487,3.544504404067993,-1.6093899011611938,-0.0,2.0249218940734863,4.99359958150939,0.00017375285096932203,0.2714586853981018,-1.507387940083639,6.499392931382342e-28,-0.014349186792969704,0.02810148522257805,0.0,0.0010649096220731735,1.274312973022461,0.0003323245618958026,-0.0030111102387309074
202.0,230.0,0.3679,1.3412,9.4678,-0.016,0.013,-0.157,-1.91727938274526,-0.00028679572278633714,3.4894986152648926,-1.6093497276306152,2.5044195353984833e-05,2.028740167617798,4.993539291411199,0.00014562591968569905,0.26273995637893677,-1.507399861012594,-2.7897413019672967e-05,-0.008027780801057816,0.028133917599916458,0.0,0.0013833122793585062,1.2743010520935059,0.0002133263915311545,0.013324383646249771
202.0,230.0,0.3679,1.3412,9.4678,-0.016,0.013,-0.157,-1.917300363580221,-0.0015874056844040751,3.5191376209259033,-1.609398603439331,2.4946610210463405e-05,2.0340635776519775,4.993531453400411,0.0001253386290045455,0.27577126026153564,-1.5073602835284632,-7.765347476151874e-09,-0.01357968058437109,0.02812199667096138,0.0,0.012711993418633938,1.274341106414795,0.00015735194028820843,0.036034584045410156
202.0,230.0,0.3679,1.3412,9.4678,-0.016,0.013,-0.157,-1.917311807672018,-0.0027004925068467855,3.5092906951904297,-1.609382152557373,3.587060928111896e-05,2.0451302528381348,4.993555593281545,-4.088663263246417e-05,0.2692597508430481,-1.5074203650103968,-2.1615129391222565e-12,0.0022271843627095222,0.02806548960506916,0.0,0.005298709962517023,1.2743370532989502,0.0001843857316998765,-0.018707364797592163
202.0,230.0,0.3679,1.3412,9.4678,-0.016,0.013,-0.157,-1.9173475704588832,-0.002874690108001232,3.497028350830078,-1.6093460321426392,4.607578375726007e-05,2.0293502807617188,4.993527370482244,-3.6527788324747235e-05,0.2812715768814087,-1.5073640982257288,-6.016650254288259e-16,-0.01543969102203846,0.028085922822356224,0.0,0.0012625096132978797,1.2743167877197266,0.00020615886023733765,0.014274250715970993
202.0,230.0,0.3679,1.3412,9.4678,-0.016,0.013,-0.157,-1.917323728600973,-0.0023370953276753426,3.5517373085021973,-1.6094307899475098,0.00010295919491909444,2.058773994445801,4.993511366635122,-3.378502151463181e-05,0.28162458539009094,-1.5073602835284632,-2.5649923673468015e-18,-0.015533797442913055,0.028138037770986557,0.0,-0.0017063356935977936,1.2743330001831055,0.000139930984005332,0.023962385952472687
202.0,230.0,0.3679,1.3412,9.4678,-0.016,0.013,-0.157,-1.9173675976195277,-0.0012974354904145002,3.5062034130096436,-1.6094104051589966,3.659260272570464e-08,2.012850761413574,4.993503528624334,-4.524995165411383e-05,0.2719877362251282,-1.5073760191546839,-7.139750589295267e-22,-0.013509036041796207,0.028125803917646408,0.0,0.009224766865372658,1.274324893951416,4.8662739573046565e-05,0.022112736478447914
202.0,230.0,0.3679,1.3412,9.4678,-0.016,0.013,-0.157,-1.9173675976195277,-0.0002947754692286253,3.4533543586730957,-1.6094145774841309,8.836683419504929e-14,2.0287489891052246,4.99348725655631,-0.00028596751508302987,0.2809537649154663,-1.507348362599508,-1.9873760459281306e-25,-0.007824606262147427,0.028069566935300827,0.0,0.006618841551244259,1.274332880973816,1.1751478956600891e-10,0.03366941213607788
202.0,230.0,0.3679,1.3412,9.4678,-0.016,0.013,-0.157,-1.9173633060851039,-0.00019753462402150035,3.506147861480713,-1.6093099117279053,2.1339549866445602e-19,2.0496652126312256,4.9934711931045435,-0.000284587120404467,0.269408643245697,-1.507348362599508,-5.53193404240474e-29,-0.016885966062545776,0.028117919340729713,0.0,0.004093851428478956,1.2742570638656616,-0.0012332731857895851,0.05476108938455582
202.0,230.0,0.3679,1.3412,9.4678,-0.016,0.013,-0.157,-1.9173718891539515,-8.32715886645019e-05,3.475780963897705,-1.6094223260879517,5.153249640574364e-25,2.0377068519592285,4.993499535113134,-0.00023919990053400397,0.2751317620277405,-1.5073640982257288,-1.5398339759454584e-32,-0.014725763350725174,0.02807771787047386,0.0,0.009198889136314392,1.2742769718170166,-0.0015864437445998192,0.011706356890499592
202.0,230.0,0.3679,1.3412,9.4678,-0.016,0.013,-0.157,-1.9173675976195277,-6.376706005539745e-05,3.5329976081848145,-1.6093863248825073,9.275666807423343e-29,2.032897472381592,4.993483561068334,-0.0002162067248718813,0.27073997259140015,-1.5073445479022425,-6.564554515857425e-35,-0.02404952235519886,0.028113842010498047,0.0,-0.011078794486820698,1.2742531299591064,-0.0017497295048087835,0.055586062371730804
199.0,229.0,0.3775,0.0455,9.5713,-0.0287,0.009,-0.1249,-1.9173513851561488,-5.2587591198971495e-05,3.485018014907837,-1.6093780994415283,2.239964408153112e-34,2.0304086208343506,4.993507641344824,-0.00018896347319241613,0.2711922228336334,-1.5073726812945765,-1.8272676938475107e-38,-0.020464584231376648,0.028073681518435478,0.0,-0.00333041837438941,1.274245262145996,-0.0023829813580960035,-0.06863485276699066
199.0,229.0,0.3775,0.0455,9.5713,-0.0287,0.009,-0.1249,-1.9173594913878382,-7.406622171401978e-05,3.5481882095336914,-1.6093944311141968,5.409250293032729e-40,2.025268793106079,4.993463504105367,-0.0001678183180047199,0.2639266848564148,-1.5073564688311976,-5.086713425499086e-42,-0.02127574197947979,0.028113842010498047,0.0,-0.002957354299724102,1.2742570638656616,-0.002417133189737797,0.02173217386007309
199.0,229.0,0.3775,0.0455,9.5713,-0.0287,0.009,-0.1249,-1.9173842869200648,-0.0001162589542218484,3.4871935844421387,-1.609418272972107,1.401298464324817e-45,1.986919641494751,4.99345155337409,-0.00015093022375367582,0.2630535960197449,-1.5073683897601526,-1.401298464324817e-45,-0.02024434134364128,0.028041686862707138,0.0,-0.013867616653442383,1.274205207824707,-0.0025150799192488194,0.006697154603898525
199.0,229.0,0.3775,0.0455,9.5713,-0.0287,0.009,-0.1249,-1.9173995457091273,-0.00011926090519409627,3.5591931343078613,-1.6093940734863281,-0.0,2.024379014968872,4.993483561068334,-0.00013713096268475056,0.27728500962257385,-1.507392708455221,-0.0,-0.021409623324871063,0.028097843751311302,0.0,0.008695194497704506,1.2741652727127075,-0.003134592669084668,-0.02112332545220852
199.0,229.0,0.3775,0.0455,9.5713,-0.0287,0.009,-0.1249,-1.9173795185484828,-0.0017413967289030552,3.4558558464050293,-1.6093578338623047,-0.0,2.0548794269561768,4.993471640139379,-0.0001725777256069705,0.265397310256958,-1.5073726812945765,-0.0,-0.018797656521201134,0.02810192108154297,0.0,-0.005677811801433563,1.2741169929504395,-0.004251175560057163,-0.03410233184695244
199.0,229.0,0.3775,0.0455,9.5713,-0.0287,0.009,-0.1249,-1.917431970635885,-0.002590458607301116,3.4692447185516357,-1.6093981266021729,-0.0,2.047924518585205,4.9934634146984,-0.00018878620176110417,0.2687767744064331,-1.5073965231524866,-0.0,-0.015895064920186996,0.028085922822356224,0.0,0.006609754636883736,1.2740811109542847,-0.005111617501825094,0.013189063407480717
199.0,229.0,0.3775,0.0455,9.5713,-0.0287,0.009,-0.1249,-1.9174353084959925,-0.0022143993992358446,3.4992082118988037,-1.6093981266021729,-0.0,2.0548813343048096,4.993471610337057,-0.00015937176067382097,0.2652461528778076,-1.507336441670553,-0.0,0.00043383589945733547,0.028117919340729713,0.0,-0.017450671643018723,1.274088978767395,-0.0047591570764780045,0.00918868649750948
199.0,229.0,0.3775,0.0455,9.5713,-0.0287,0.009,-0.1249,-1.9174477062621058,-0.0013171910541132092,3.4806950092315674,-1.6094145774841309,-0.0,2.0690855979919434,4.993491697102346,-0.00014396195183508098,0.266558438539505,-1.5072959105121058,-0.0,-0.007894069887697697,0.02809002436697483,0.0,-0.004453091882169247,1.2740811109542847,-0.004478937946259975,-0.02739810012280941
199.0,229.0,0.3775,0.0455,9.5713,-0.0287,0.009,-0.1249,-1.9173995457091273,-0.0008090445189736784,3.4806723594665527,-1.6093376874923706,-0.0,2.0482892990112305,4.993471610337057,-0.00015415526286233217,0.2685360014438629,-1.5073278586017054,-0.0,-0.007071366533637047,0.02809002436697483,0.0,-0.006594199687242508,1.2740529775619507,-0.0037742021959275007,-0.0627254769206047
199.0,229.0,0.3775,0.0455,9.5713,-0.0287,0.009,-0.1249,-1.9174477062621058,-0.00020096998196095228,3.545459270477295,-1.6093902587890625,-0.0,2.054239273071289,4.993439245014944,-0.00014493118214886636,0.26598629355430603,-1.5073402563678187,-0.0,-0.031675342470407486,0.028118344023823738,0.0,-0.013734908774495125,1.2740410566329956,-0.0031200258526951075,-0.013921872712671757
199.0,229.0,0.3775,0.0455,9.5713,-0.0287,0.009,-0.1249,-1.9174076519408167,-0.00015013726078905165,3.4992361068725586,-1.609398603439331,-0.0,2.049346446990967,4.993423270970144,-0.00015643596998415887,0.2897831201553345,-1.5073607603656214,-0.0,-0.024088814854621887,0.028065545484423637,0.0,-0.005827310495078564,1.2739567756652832,-0.003328730585053563,0.043701812624931335
199.0,229.0,0.3775,0.0455,9.5713,-0.0287,0.009,-0.1249,-1.9174276791014613,-0.00012866253382526338,3.526590347290039,-1.6093460321426392,-0.0,2.0566251277923584,4.993475693255224,-0.00014908023877069354,0.27481725811958313,-1.5073607603656214,-0.0,-0.03052712231874466,0.028102222830057144,0.0,-0.019165746867656708,1.273989200592041,-0.0033391285687685013,-0.03711327537894249
199.0,229.0,0.3775,0.0455,9.5713,-0.0287,0.009,-0.1249,-1.917459627191061,-0.00010596726497169584,3.5022475719451904,-1.6093262434005737,-0.0,2.0360419750213623,4.993415522366323,-0.00021947809727862477,0.27240315079689026,-1.5073321501361292,-0.0,-0.02637334354221821,0.028106551617383957,0.0,-0.03466999530792236,1.2739813327789307,-0.00391870504245162,-0.03455357626080513
199.0,229.0,0.3775,0.0455,9.5713,-0.0287,0.009,-0.1249,-1.9174276791014613,-9.004220191854984e-05,3.4861080646514893,-1.6093459129333496,0.0003481692692730576,2.04934024810791,4.993451642781057,-0.00028586623375304043,0.27305397391319275,-1.5073278586017054,3.2825984817463905e-05,-0.01660842075943947,0.028061842545866966,0.0,-0.016128478571772575,1.2739449739456177,-0.004586133174598217,-0.00040870136581361294
199.0,229.0,0.3775,0.0455,9.5713,-0.0287,0.009,-0.1249,-1.9173957310118617,-7.829041715012863e-05,3.5190269947052,-1.6093376874923706,0.0002905371366068721,2.0472328662872314,4.993427860527792,-0.0005900857504457235,0.2778018116950989,-1.507380787526266,8.773038280196488e-05,-0.010734508745372295,0.028057634830474854,0.0,-0.012972827069461346,1.273893117904663,-0.004765083082020283,0.003427891992032528
199.0,229.0,0.3775,0.0455,9.5713,-0.0287,0.009,-0.1249,-1.9174157581725062,-6.925334309926257e-05,3.496511936187744,-1.6093417406082153,0.00029006408294662833,2.0038299560546875,4.993395107775488,-0.0006607694667764008,0.2722160220146179,-1.507336441670553,9.520124876871705e-05,-0.02327127754688263,0.028094159439206123,0.0,-0.025065366178750992,1.2739208936691284,-0.0051523493602871895,-0.0027946881018579006
207.0,237.0,0.5653,0.5982,9.5049,-0.0354,0.0299,-0.1361,-1.9174233875670375,-6.209603452589363e-05,3.5456900596618652,-1.6093180179595947,0.0002512877981644124,2.0475969314575195,4.993407356529989,-0.0005819625803269446,0.2701105773448944,-1.5073125998126429,0.00010200076940236613,-0.014102943241596222,0.02808190882205963,-0.00013815633428748697,-0.018004370853304863,1.273893117904663,-0.005412702914327383,-0.01399697083979845
207.0,237.0,0.5653,0.5982,9.5049,-0.0354,0.0299,-0.1361,-1.917459627191061,-5.808808782603592e-05,3.539149761199951,-1.6093417406082153,0.000255023711360991,2.042573928833008,4.9933872697647,-0.000514508574269712,0.27413612604141235,-1.5073445479022425,0.00010623445268720388,-0.004182175733149052,0.028081918135285378,-0.00016560674703214318,-0.0363735668361187,1.2738293409347534,-0.005498742219060659,-0.08565368503332138
207.0,237.0,0.5653,0.5982,9.5049,-0.0354,0.0299,-0.1361,-1.9174076519408167,-5.295408845995553e-05,3.4620859622955322,-1.6093826293945312,0.00023782916832715273,2.0430402755737305,4.993391352682867,-0.0003938369045499712,0.27466830611228943,-1.5073402563678187,0.00027047094772569835,-0.026145050302147865,0.028105998411774635,-0.00017899931117426604,-0.025492846965789795,1.2737972736358643,-0.004950106143951416,-0.04304882138967514
207.0,237.0,0.5653,0.5982,9.5049,-0.0354,0.0299,-0.1361,-1.9174396000304164,-4.8665053327567875e-05,3.445201873779297,-1.6093262434005737,0.0002441525284666568,2.039903402328491,4.993407416134634,-0.0003118832246400416,0.2741920053958893,-1.507336441670553,0.00030836337828077376,-0.016433995217084885,0.028033604845404625,-0.00016291993961203843,-0.031828224658966064,1.273789405822754,-0.005431067664176226,-0.08344078063964844
207.0,237.0,0.5653,0.5982,9.5049,-0.0354,0.0299,-0.1361,-1.9174276791014613,-6.751598266419023e-05,3.5140299797058105,-1.6093138456344604,0.0002168903301935643,1.9886493682861328,4.993399607926168,-0.00025817559799179435,0.27326565980911255,-1.5072839895831507,0.0003182678483426571,-0.014083354733884335,0.02806185558438301,-0.00016162233077920973,-0.03616797924041748,1.2737609148025513,-0.005261249840259552,-0.0023653991520404816
207.0,237.0,0.5653,0.5982,9.5049,-0.0354,0.0299,-0.1361,-1.9174076519408167,-6.280340312514454e-05,3.5297420024871826,-1.609366536140442,0.00022732379147782922,1.9986796379089355,4.99343969204978,-0.00022025199723429978,0.28311970829963684,-1.507296387349264,0.00031653998303227127,-0.016811829060316086,0.02811829373240471,-0.00016093417070806026,-0.037441436201334,1.2737410068511963,-0.006355828605592251,-0.051883045583963394
207.0,237.0,0.5653,0.5982,9.5049,-0.0354,0.0299,-0.1361,-1.9174639187254847,-5.8706697018351406e-05,3.4997243881225586,-1.6092983484268188,0.0002018827071879059,2.018930196762085,4.993467944651403,-0.00019204553973395377,0.2682749927043915,-1.5073207060443323,0.00036183418706059456,-4.341034218668938e-05,0.028057685121893883,-0.00014948118769098073,-0.022012440487742424,1.2736929655075073,-0.00799271184951067,-0.0751393735408783
207.0,237.0,0.5653,0.5982,9.5049,-0.0354,0.0299,-0.1361,-1.917431970635885,-5.626458369079046e-05,3.4505414962768555,-1.6092982292175293,0.00021912607189733535,2.0132949352264404,4.993407326727667,-0.00017694018606562167,0.27566927671432495,-1.5072844664203089,0.00036970694782212377,-0.010969520546495914,0.02811015583574772,-0.00016041695198509842,-0.018117032945156097,1.273653268814087,-0.008343909867107868,-0.007639250718057156
207.0,237.0,0.5653,0.5982,9.5049,-0.0354,0.0299,-0.1361,-1.9174519977965296,-5.2950275858165696e-05,3.5002050399780273,-1.6093344688415527,0.0003200858773197979,2.0432679653167725,4.993440049677648,-0.00015826791059225798,0.2723928689956665,-1.5073125998126429,0.00035772481351159513,-0.012227424420416355,0.028081845492124557,-0.00015271652955561876,-0.031621046364307404,1.2735888957977295,-0.009455719962716103,-0.05708961933851242
207.0,237.0,0.5653,0.5982,9.5049,-0.0354,0.0299,-0.1361,-1.9173957310118617,1.933351086336188e-05,3.512815475463867,-1.6093147993087769,0.00037541775964200497,2.0601048469543457,4.9934356091316126,-0.00014316089800558984,0.28469955921173096,-1.5073207060443323,0.00030824801069684327,-0.002308249706402421,0.02807784080505371,-0.00014358069165609777,-0.03432152420282364,1.2735651731491089,-0.01067970972508192,-0.0746774971485138
207.0,237.0,0.5653,0.5982,9.5049,-0.0354,0.0299,-0.1361,-1.9174114666380824,1.8165024812333286e-05,3.4853591918945312,-1.6093063354492188,0.0006566310185007751,2.0283124446868896,4.993403303414144,-0.00013068706903140992,0.27764931321144104,-1.5073006788836878,0.00030456375679932535,-0.012355063110589981,0.028057660907506943,-0.00013547543494496495,-0.03967178612947464,1.27347731590271,-0.013564414344727993,-0.10687423497438431
207.0,237.0,0.5653,0.5982,9.5049,-0.0354,0.0299,-0.1361,-1.9174281559386195,1.7127757018897682e-05,3.510885238647461,-1.6093063354492188,0.0007518706261180341,2.043386697769165,4.9934236882026575,-0.00012021273869322613,0.2802988886833191,-1.507280174885885,0.0002723197394516319,-0.0019222901901230216,0.02805400639772415,-0.00014336322783492506,-0.039084479212760925,1.273381233215332,-0.013863488100469112,-0.08018036931753159
207.0,237.0,0.5653,0.5982,9.5049,-0.0354,0.0299,-0.1361,-1.9174400768675746,1.6498632248840295e-05,3.5130748748779297,-1.6092944145202637,0.0009776242077350616,2.062469005584717,4.993439304619589,-9.207027324009687e-05,0.27159547805786133,-1.5072882811175745,0.0002531674108467996,-0.0025914902798831463,0.02812252938747406,-0.00013485000818036497,-0.037866003811359406,1.2733769416809082,-0.013869527727365494,-0.07780005037784576
207.0,237.0,0.5653,0.5982,9.5049,-0.0354,0.0299,-0.1361,-1.91742004970693,1.563871410326101e-05,3.456408739089966,-1.609209656715393,0.0016108333365991712,2.088311195373535,4.993459838419714,-8.483794226776809e-05,0.25778454542160034,-1.5073283354388636,0.0002290073171025142,-0.004213051870465279,0.0280699972063303,-0.000123726247693412,-0.037528373301029205,1.2732373476028442,-0.014537992887198925,-0.1018688827753067
207.0,237.0,0.5653,0.5982,9.5049,-0.0354,0.0299,-0.1361,-1.9173795185484828,2.9729608286288567e-05,3.5313937664031982,-1.609222173690796,0.0027365670539438725,2.025097370147705,4.993471640139379,-7.923581870272756e-05,0.2752888798713684,-1.507308308278219,0.00020905706332996488,-0.002203647280111909,0.028114233165979385,-0.00011429787264205515,-0.03152836859226227,1.2732210159301758,-0.015794787555933,-0.07469052076339722
207.0,237.0,0.5653,0.5982,9.5049,-0.0354,0.0299,-0.1361,-1.9174519977965296,2.8325908715487458e-05,3.473846912384033,-1.609222173690796,0.006003452930599451,2.0556492805480957,4.993415492564001,-7.432787970174104e-05,0.2661419212818146,-1.5073202292071741,0.00019230465113651007,-0.012962227687239647,0.028033554553985596,-0.0001062048104358837,-0.04021233320236206,1.2731010913848877,-0.01665007323026657,-0.09459055215120316
203.0,227.0,0.917,0.1035,9.3464,-0.0405,-0.0063,-0.1361,-1.9174038372435511,2.704914368223399e-05,3.5002269744873047,-1.6091862916946411,0.008411534130573273,2.0465736389160156,4.993431526213445,-6.999243487371132e-05,0.2657873332500458,-1.5073164145099085,0.00017803824448492378,-0.007119707763195038,0.028085995465517044,-9.918198338709772e-05,-0.016733627766370773,1.2730212211608887,-0.017879577353596687,-0.08859044313430786
203.0,227.0,0.917,0.1035,9.3464,-0.0405,-0.0063,-0.1361,-1.9174114666380824,2.5880903194774874e-05,3.5165488719940186,-1.6091386079788208,0.00615356070920825,2.044506311416626,4.993463861733236,-6.613491859752685e-05,0.27104032039642334,-1.5072601477252405,0.00016574253095313907,-0.007375853601843119,0.0280500166118145,-9.303053229814395e-05,-0.042188502848148346,1.2729451656341553,-0.018918173387646675,-0.0653923973441124
203.0,227.0,0.917,0.1035,9.3464,-0.0405,-0.0063,-0.1361,-1.9173795185484828,1.2581081136886496e-05,3.498793125152588,-1.6090983152389526,0.005145655013620853,2.068833827972412,4.993431526213445,-6.379110709531233e-05,0.26445117592811584,-1.507324520741598,0.0001584472192917019,-0.018031727522611618,0.028073711320757866,-8.933660865295678e-05,-0.037788182497024536,1.272813081741333,-0.0197535939514637,-0.09343534708023071
203.0,227.0,0.917,0.1035,9.3464,-0.0405,-0.0063,-0.1361,-1.91742004970693,2.41460875258781e-05,3.516852855682373,-1.6090501546859741,0.003307709703221917,2.0206642150878906,4.993394988566198,-6.057113569113426e-05,0.2722165882587433,-1.5073283354388636,0.00014863430988043547,-0.015423169359564781,0.028073681518435478,-8.431488095084205e-05,-0.0341455452144146,1.272657036781311,-0.02054435946047306,-0.09549359977245331
203.0,227.0,0.917,0.1035,9.3464,-0.0405,-0.0063,-0.1361,-1.917408128777975,2.321207102795597e-05,3.503455400466919,-1.609066128730774,0.0018966991920024157,2.0036771297454834,4.993459689408102,-5.766067988588475e-05,0.2700015902519226,-1.507280174885885,0.00013996579218655825,-0.006713160313665867,0.02806549146771431,-7.982765964698046e-05,-0.03473519906401634,1.2725530862808228,-0.021466009318828583,-0.05957089364528656
203.0,227.0,0.917,0.1035,9.3464,-0.0405,-0.0063,-0.1361,-1.9173838100829066,3.352081330376677e-05,3.4844307899475098,-1.6090624332427979,0.0008626616327092052,2.0066864490509033,4.9934072373206995,-5.5017066188156605e-05,0.2544723153114319,-1.507296387349264,0.00013225276779849082,-0.014332883059978485,0.028081990778446198,-7.579395605716854e-05,-0.021617773920297623,1.2724090814590454,-0.021420929580926895,-0.029769429937005043
203.0,227.0,0.917,0.1035,9.3464,-0.0405,-0.0063,-0.1361,-1.9174119434752406,3.231782102375291e-05,3.5109691619873047,-1.6090868711471558,0.0008371458388864994,2.0348739624023438,4.993459868222036,-5.260525722405873e-05,0.272582471370697,-1.5072920958148401,0.00012534543930087239,-0.010874474421143532,0.028081845492124557,-7.214825018309057e-05,-0.022137105464935303,1.2722810506820679,-0.020728977397084236,-0.04992657154798508
203.0,227.0,0.917,0.1035,9.3464,-0.0405,-0.0063,-0.1361,-1.9174162350096644,3.11974436044693e-05,3.461221218109131,-1.6090624332427979,0.0008755417075008154,2.0541930198669434,4.993435638933935,-5.039600364398211e-05,0.2778085768222809,-1.507324520741598,0.00011912394256796688,-0.025771839544177055,0.02809823490679264,-6.883723108330742e-05,-0.026471823453903198,1.272185206413269,-0.01953263394534588,-0.04818764701485634
203.0,227.0,0.917,0.1035,9.3464,-0.0405,-0.0063,-0.1361,-1.9174639187254847,3.049294355150778e-05,3.4581754207611084,-1.6090021133422852,0.0012882623123005033,2.0158445835113525,4.993419545679846,-4.902348155155778e-05,0.2748434543609619,-1.507308308278219,0.0001153083358076401,0.006541659124195576,0.0280777495354414,-6.679366197204217e-05,-0.014315134845674038,1.2721290588378906,-0.01840488240122795,-0.1170099675655365
203.0,227.0,0.917,0.1035,9.3464,-0.0405,-0.0063,-0.1361,-1.9174038372435511,4.000654598712572e-07,3.551893711090088,-1.6090381145477295,0.0012412030482664704,2.0737369060516357,4.99348400810317,-4.709933273261413e-05,0.28036975860595703,-1.5072920958148401,0.00011002230894519016,-0.0064709605649113655,0.028057292103767395,-6.39462232356891e-05,-0.025730645284056664,1.2720052003860474,-0.01641344465315342,-0.042791035026311874
203.0,227.0,0.917,0.1035,9.3464,-0.0405,-0.0063,-0.1361,-1.9174357853331507,3.518286030157469e-05,3.492586612701416,-1.6090019941329956,0.0009836340323090553,2.0817787647247314,4.993472087174215,-4.5320572098717093e-05,0.2735527753829956,-1.507308308278219,0.0001051997096510604,-0.013195192441344261,0.02811792679131031,-6.133162969490513e-05,-0.026913834735751152,1.2719011306762695,-0.014657341875135899,-0.05381535738706589
203.0,227.0,0.917,0.1035,9.3464,-0.0405,-0.0063,-0.1361,-1.9174076519408167,2.243444941996131e-05,3.470003128051758,-1.6090019941329956,0.0006161718629300594,2.049029588699341,4.993407386332311,-1.2429767593857832e-05,0.2701019048690796,-1.5073326269732874,7.34304339857772e-05,-0.015069292858242989,0.02807365357875824,-4.715116665465757e-05,-0.02102632261812687,1.2718770503997803,-0.013314741663634777,-0.05402675271034241
203.0,227.0,0.917,0.1035,9.3464,-0.0405,-0.0063,-0.1361,-1.917459627191061,1.5836762031540275e-05,3.4644856452941895,-1.6090948581695557,0.00043667410500347614,2.0374011993408203,4.993391382485189,-2.1845102310180664e-05,0.2647033631801605,-1.507308308278219,6.957400182727724e-05,-0.005710913334041834,0.028117919340729713,-4.535629341262393e-05,-0.016264265403151512,1.271761178970337,-0.011596170254051685,-0.10008922964334488
203.0,227.0,0.917,0.1035,9.3464,-0.0405,-0.0063,-0.1361,-1.9174472294249476,3.272966897505114e-10,3.518162727355957,-1.6090137958526611,0.0003381863934919238,2.0490052700042725,4.993431943445959,-3.354789805598557e-05,0.26598411798477173,-1.507296387349264,6.648985436186194e-05,-0.013750221580266953,0.028065528720617294,-4.3704367271857336e-05,-0.010268086567521095,1.2717009782791138,-0.011072983033955097,-0.09244444221258163
203.0,227.0,0.917,0.1035,9.3464,-0.0405,-0.0063,-0.1361,-1.9174233875670375,5.891225278876339e-14,3.5549283027648926,-1.609029769897461,0.00023548332683276385,2.0878472328186035,4.993407416134634,-0.000351659778971225,0.2811877429485321,-1.5072844664203089,7.72774001234211e-05,-0.014863763004541397,0.02809000015258789,-4.266837640898302e-05,-0.012291918508708477,1.271633267402649,-0.009394403547048569,-0.07744289189577103
203.0,227.0,0.917,0.1035,9.3464,-0.0405,-0.0063,-0.1361,-1.9174682102599085,1.4226617316753582e-19,3.5102715492248535,-1.6090381145477295,0.00019664379942696542,2.056851625442505,4.99339588263587,-0.0005483340937644243,0.2701684832572937,-1.5073164145099085,8.66678892634809e-05,-0.004855904262512922,0.02804953046143055,-4.12033150496427e-05,-0.014023113064467907,1.2716012001037598,-0.0072997254319489,-0.015941187739372253
202.0,239.0,0.7029,0.4869,9.6574,-0.0212,0.0224,-0.1405,-1.9175039730467738,-0.0012170684058219194,3.5382800102233887,-1.609046459197998,0.00016895441513042897,2.080871105194092,4.993391799717703,-0.0010585449635982513,0.2598778307437897,-1.5072405974017542,0.00023871910525485873,-0.005946688819676638,0.028085922822356224,-3.9835507777752355e-05,0.004584668204188347,1.2715489864349365,-0.005695965141057968,-0.07183587551116943
202.0,239.0,0.7029,0.4869,9.6574,-0.0212,0.0224,-0.1405,-1.9174877605833949,-0.002460198476910591,3.489274501800537,-1.6090548038482666,0.00014810108405072242,2.072643995285034,4.993387686997213,-0.0014149239286780357,0.27335017919540405,-1.5072887579547327,0.00031605263939127326,-0.0019423591438680887,0.028101937845349312,-2.1874615896422256e-08,-0.016099434345960617,1.271509051322937,-0.004564375150948763,-0.10127484053373337
202.0,239.0,0.7029,0.4869,9.6574,-0.0212,0.0224,-0.1405,-1.91752352337026,-0.003767838468775153,3.461533546447754,-1.6090421676635742,0.0001318303548032418,2.0654540061950684,4.993359762221136,-0.001976325875148177,0.2737240195274353,-1.50726825395693,0.0005055482033640146,0.0031988895498216152,0.02809000015258789,-6.088878533316855e-12,-0.003083835355937481,1.2714892625808716,-0.003991882316768169,-0.11435278505086899
202.0,239.0,0.7029,0.4869,9.6574,-0.0212,0.0224,-0.1405,-1.917555948297018,-0.004091540351510048,3.4792051315307617,-1.6090221405029297,0.00012283376418054104,2.04240083694458,4.993379878788748,-0.002298078965395689,0.2704576849937439,-1.5072768370257776,0.0008222744800150394,0.00030978675931692123,0.028073681518435478,-2.595784135870586e-14,-0.006184794940054417,1.2715051174163818,-0.003636201610788703,-0.09346111863851547
202.0,239.0,0.7029,0.4869,9.6574,-0.0212,0.0224,-0.1405,-1.9175354442992152,-0.005108448676764965,3.416698694229126,-1.6090137958526611,0.000111427616502624,2.0384521484375,4.993348258524694,-0.0025937091559171677,0.27619805932044983,-1.5071919600116175,0.0022825065534561872,0.006772217806428671,0.02806960605084896,-7.225461528139487e-18,-0.007592425215989351,1.2715051174163818,-0.0032745618373155594,-0.2054198980331421
202.0,239.0,0.7029,0.4869,9.6574,-0.0212,0.0224,-0.1405,-1.9176317654051722,-0.005393762607127428,3.4316935539245605,-1.6090340614318848,0.00010195998038398102,2.0647473335266113,4.993299919157781,-0.0023620096035301685,0.24979032576084137,-1.5072162787066858,0.00438381964340806,0.022315310314297676,0.028081918135285378,-2.0112339216665675e-21,-0.006532913539558649,1.2714571952819824,-0.003509996458888054,-0.16355884075164795
202.0,239.0,0.7029,0.4869,9.6574,-0.0212,0.0224,-0.1405,-1.9176680050291957,-0.00548828300088644,3.4559359550476074,-1.6090424060821533,7.048193947412074e-05,2.0455222129821777,4.993312167912283,-0.0014526761369779706,0.2628559470176697,-1.5071685949908655,0.010098877362906933,0.042947717010974884,0.028114233165979385,-5.598343698746558e-25,0.0032638469710946083,1.2714331150054932,-0.0038069074507802725,-0.17832857370376587
202.0,239.0,0.7029,0.4869,9.6574,-0.0212,0.0224,-0.1405,-1.9176751575865687,-0.006014509592205286,3.467479705810547,-1.609046459197998,6.536272121593356e-05,2.0645337104797363,4.993268000870504,-0.0009350993786938488,0.24846923351287842,-1.5071285406695765,0.013793596997857094,0.03489105403423309,0.02810976468026638,-1.5583197514410235e-28,0.005832694470882416,1.271449327468872,-0.003990743774920702,-0.21359722316265106
202.0,239.0,0.7029,0.4869,9.6574,-0.0212,0.0224,-0.1405,-1.9177233181395472,-0.007583495229482651,3.42561411857605,-1.6090624332427979,6.0937105445191264e-05,2.050140380859375,4.993280160218038,-0.0008525474113412201,0.2502079904079437,-1.507068936024801,0.010156833566725254,0.040525030344724655,0.02806960605084896,-4.3376393944707115e-32,-0.009189523756504059,1.271417260169983,-0.004664448089897633,-0.17021846771240234
202.0,239.0,0.7029,0.4869,9.6574,-0.0212,0.0224,-0.1405,-1.9177595577635707,-0.008024802431464195,3.3973217010498047,-1.6090381145477295,5.830527516081929e-05,2.028319835662842,4.993263858347692,-0.0008529182523488998,0.2407672107219696,-1.5070212523089808,0.00656344648450613,0.03937701880931854,0.028170309960842133,-1.8492037980290083e-34,-2.913281787186861e-05,1.2714011669158936,-0.004987638909369707,-0.2158893644809723
202.0,239.0,0.7029,0.4869,9.6574,-0.0212,0.0224,-0.1405,-1.9177919826903285,-0.008052551187574863,3.422875165939331,-1.6090341806411743,5.475788202602416e-05,2.044349193572998,4.993300306587972,-0.0006977705052122474,0.24951055645942688,-1.506960693989889,0.0031941344495862722,0.041777290403842926,0.028105998411774635,-5.147326310313763e-38,-0.00568911898881197,1.2713769674301147,-0.006250337697565556,-0.26190367341041565
202.0,239.0,0.7029,0.4869,9.6574,-0.0212,0.0224,-0.1405,-1.917835374871725,-0.00767063582316041,3.407992362976074,-1.6090707778930664,5.1617455028463155e-05,2.0307424068450928,4.993308084994116,-0.0005984989693388343,0.25304850935935974,-1.507016960774557,0.001404807437211275,0.03242328017950058,0.02810192108154297,-1.4328276797721255e-41,-0.0013600785750895739,1.271289348602295,-0.00743401562795043,-0.2867642045021057
202.0,239.0,0.7029,0.4869,9.6574,-0.0212,0.0224,-0.1405,-1.9178348980345667,-0.006362066604197025,3.3831162452697754,-1.6090056896209717,6.318819214357063e-05,2.018415927886963,4.993308084994116,-0.00047899861237965524,0.2505267262458801,-1.5069811979876917,0.000789941695984453,0.03817424178123474,0.028081845492124557,-4.203895392974451e-45,-0.008663601242005825,1.2712812423706055,-0.007693143095821142,-0.2729719579219818
202.0,239.0,0.7029,0.4869,9.6574,-0.0212,0.0224,-0.1405,-1.9179073772826136,-0.005553589668124914,3.4259462356567383,-1.6090588569641113,6.174130976432934e-05,2.0404398441314697,4.993251549988546,-0.0003992716083303094,0.24118629097938538,-1.5069730917560022,0.0006399086560122669,0.05401597172021866,0.028049416840076447,-0.0,0.005999315530061722,1.2712091207504272,-0.008676684461534023,-0.2695850729942322
202.0,239.0,0.7029,0.4869,9.6574,-0.0212,0.0224,-0.1405,-1.917938848535055,-0.004839747678488493,3.421299457550049,-1.6090422868728638,5.872016481589526e-05,2.0268592834472656,4.993344533234396,-0.0003423053422011435,0.2500031292438507,-1.5070050398456019,0.0004878009494859725,0.048274897038936615,0.028110157698392868,-0.0,-0.001015398884192109,1.2711890935897827,-0.009185941889882088,-0.288574755191803
202.0,239.0,0.7029,0.4869,9.6574,-0.0212,0.0224,-0.1405,-1.917938848535055,-0.0039255074225366116,3.3798980712890625,-1.609018087387085,5.68651121284347e-05,2.0552430152893066,4.99325971582488,-0.0002787206612993032,0.2538169324398041,-1.506977383290426,0.0004117203061468899,0.04461648687720299,0.028097832575440407,-0.0,0.006765762809664011,1.2711132764816284,-0.009842107072472572,-0.3293897211551666
202.0,239.0,0.7029,0.4869,9.6574,-0.0212,0.0224,-0.1405,-1.9179874859251917,-0.002617805963382125,3.434563159942627,-1.6090667247772217,5.429242810350843e-05,2.019409418106079,4.993267881661215,-0.00024198359460569918,0.2636328339576721,-1.5069249312030237,0.0004217398527543992,0.060874029994010925,0.028114302083849907,-0.0,-0.0065525430254638195,1.271097183227539,-0.010820495896041393,-0.3661366403102875
196.0,223.0,0.7077,0.2859,9.4044,-0.0423,0.0136,-0.1358,-1.9179350338377894,-0.0016005625948309898,3.4132556915283203,-1.609029769897461,2.6901960154646076e-05,2.002678632736206,4.993311750679769,-8.366473775822669e-05,0.26408272981643677,-1.5069292227374476,0.00037944369250908494,0.0666419267654419,0.02807772532105446,-0.0,-0.0022570393048226833,1.2710249423980713,-0.0120674604550004,-0.3127089738845825
196.0,223.0,0.7077,0.2859,9.4044,-0.0423,0.0136,-0.1358,-1.9179426632323207,-0.0009608003310859203,3.419891357421875,-1.6090137958526611,1.3282358850119635e-05,2.0158309936523438,4.993279742985525,-3.732651020982303e-05,0.27018892765045166,-1.5069854895221155,0.0003277040959801525,0.060909681022167206,0.02813800424337387,-0.0,0.006601892411708832,1.270957112312317,-0.01301601342856884,-0.33008456230163574
196.0,223.0,0.7077,0.2859,9.4044,-0.0423,0.0136,-0.1358,-1.9179593525328578,-0.0006859926506876945,3.4215638637542725,-1.6089900732040405,2.54181995842373e-05,2.0138349533081055,4.993335950165548,-1.3671997578512673e-07,0.26093700528144836,-1.5069249312030237,0.00031998363556340337,0.058847591280937195,0.028085963800549507,-0.0,-0.006669469177722931,1.2708449363708496,-0.013922625221312046,-0.3395827114582062
196.0,223.0,0.7077,0.2859,9.4044,-0.0423,0.0136,-0.1358,-1.917955060998434,-0.0005334588931873441,3.4178943634033203,-1.6090224981307983,0.0004996801144443452,2.0306637287139893,4.993376064091482,-3.8056509332751176e-11,0.249729186296463,-1.506977383290426,0.00026371446438133717,0.05407128110527992,0.028097819536924362,-0.0,-0.001657133805565536,1.2707533836364746,-0.014223448000848293,-0.3839206099510193
196.0,223.0,0.7077,0.2859,9.4044,-0.0423,0.0136,-0.1358,-1.9179150066771449,-0.00040653569158166647,3.4409422874450684,-1.6089822053909302,0.0013231721241027117,2.0296778678894043,4.993303584843435,0.0009120612521655858,0.267620325088501,-1.5069688002215784,0.0002360380021855235,0.04790598526597023,0.028129830956459045,-0.0,-0.01568097248673439,1.2706691026687622,-0.014614362269639969,-0.34232887625694275
196.0,223.0,0.7077,0.2859,9.4044,-0.0423,0.0136,-0.1358,-1.9179631672301234,-0.00011010541493305936,3.433582305908203,-1.608970046043396,0.0021805085707455873,2.082427501678467,4.993363874941625,0.0010327944764867425,0.26695603132247925,-1.5069568792926233,0.00020393694285303354,0.05180537328124046,0.028101904317736626,-0.0,-0.008312862366437912,1.2706170082092285,-0.015248491428792477,-0.3468032479286194
196.0,223.0,0.7077,0.2859,9.4044,-0.0423,0.0136,-0.1358,-1.917931695977682,-9.06354034668766e-05,3.4330668449401855,-1.6089904308319092,0.0022762513253837824,2.0595428943634033,4.99336792805747,0.0008334286394529045,0.2731218934059143,-1.5070012251483362,0.00017952395137399435,0.03019285760819912,0.028125746175646782,-0.0,0.0009326415602117777,1.2704933881759644,-0.01424424909055233,-0.26305854320526123
196.0,223.0,0.7077,0.2859,9.4044,-0.0423,0.0136,-0.1358,-1.9179512463011683,-7.874001312302426e-05,3.488337516784668,-1.6089822053909302,0.0018643931252881885,2.0739614963531494,4.993367600231924,0.0006667397683486342,0.27251487970352173,-1.5070050398456019,0.00016033138672355562,0.030720990151166916,0.028098251670598984,-0.0,-0.012684664689004421,1.2704370021820068,-0.013756023719906807,-0.267262727022171
196.0,223.0,0.7077,0.2859,9.4044,-0.0423,0.0136,-0.1358,-1.917938848535055,-6.960500468267128e-05,3.4339208602905273,-1.608929991722107,0.0012743030674755573,2.093611717224121,4.993371683150091,0.0005062113050371408,0.2810293436050415,-1.5069850126849573,0.0001448472758056596,0.029912272468209267,0.02803754433989525,-0.0,0.0024299933575093746,1.2703094482421875,-0.01296295877546072,-0.2694903016090393
196.0,223.0,0.7077,0.2859,9.4044,-0.0423,0.0136,-0.1358,-1.9179431400694789,-6.236938497750089e-05,3.473548412322998,-1.6089383363723755,0.0009094662382267416,2.0317769050598145,4.993343758374014,0.00046601612120866776,0.280195415019989,-1.506965462361471,0.00013209068856667727,0.044507525861263275,0.028117919340729713,-0.0,0.010838676244020462,1.2702491283416748,-0.013364575803279877,-0.25673824548721313
196.0,223.0,0.7077,0.2859,9.4044,-0.0423,0.0136,-0.1358,-1.9179593525328578,-5.8327201259089634e-05,3.481901168823242,-1.6089739799499512,0.0007260866113938391,2.017953872680664,4.993399905949392,0.00041264077299274504,0.26982566714286804,-1.5069730917560022,0.00012476548727136105,0.038012564182281494,0.028061451390385628,-0.0,-0.016423221677541733,1.2702010869979858,-0.013623652048408985,-0.29415035247802734
196.0,223.0,0.7077,0.2859,9.4044,-0.0423,0.0136,-0.1358,-1.9179231129088343,-5.31593723280821e-05,3.472855567932129,-1.608929991722107,0.0005573895177803934,2.0146868228912354,4.993399905949392,0.0003520837635733187,0.27398350834846497,-1.50694448152651,0.00011518435348989442,0.03722332417964935,0.02808964066207409,-0.0,-0.003266716841608286,1.270125150680542,-0.014433959499001503,-0.2848202586174011
196.0,223.0,0.7077,0.2859,9.4044,-0.0423,0.0136,-0.1358,-1.9179269276061,-4.88327641505748e-05,3.4435667991638184,-1.6089822053909302,0.0004523178213275969,2.022207021713257,4.993399905949392,0.0002693355781957507,0.261691153049469,-1.5069006125079554,0.00010696967365220189,0.03574873507022858,0.028133908286690712,-0.0,2.30295117944479e-05,1.269985318183899,-0.014664223417639732,-0.2635723352432251
196.0,223.0,0.7077,0.2859,9.4044,-0.0423,0.0136,-0.1358,-1.9179798565306605,-4.515750697464682e-05,3.470505475997925,-1.6089904308319092,0.00038221600698307157,2.0319511890411377,4.993343758374014,0.00023817669716663659,0.278683602809906,-1.5069487730609339,0.00011848514259327203,0.03426273167133331,0.028121979907155037,-0.0,0.0033778236247599125,1.2699171304702759,-0.014873907901346684,-0.2772842049598694
196.0,223.0,0.7077,0.2859,9.4044,-0.0423,0.0136,-0.1358,-1.9179798565306605,-4.199671820970252e-05,3.413870334625244,-1.6089863777160645,0.00023146373860072345,2.0292327404022217,4.993327724724569,0.00021391162590589374,0.27658116817474365,-1.5069974104510706,0.00011233992699999362,0.04941766336560249,0.028166716918349266,-0.0,0.009921283461153507,1.2698612213134766,-0.014886802062392235,-0.3437902331352234
196.0,223.0,0.7077,0.2859,9.4044,-0.0423,0.0136,-0.1358,-1.9179269276061,-4.0124366933014244e-05,3.495628595352173,-1.6090028285980225,0.00020987146126572043,2.021385669708252,4.9933679578597925,0.00020030728774145246,0.26908761262893677,-1.5069406668292444,0.0001078527420759201,0.035226743668317795,0.028137993067502975,-0.0,0.007163317408412695,1.269789218902588,-0.015056845732033253,-0.28501221537590027
196.0,224.0,0.338,0.6455,9.5874,-0.0345,0.0313,-0.1605,-1.9179512463011683,-3.760931940632872e-05,3.4290990829467773,-1.6088980436325073,0.0002209112572018057,2.077871799468994,4.993359792023458,6.770885374862701e-05,0.266109824180603,-1.5069168249713343,0.00011863971303682774,0.04622970521450043,0.028114233165979385,-0.0,-0.0022695125080645084,1.2697410583496094,-0.014803881756961346,-0.3343830704689026
196.0,224.0,0.338,0.6455,9.5874,-0.0345,0.0313,-0.1605,-1.9179755649962367,-3.539094177540392e-05,3.4352214336395264,-1.608933687210083,0.00022911885753273964,2.0037600994110107,4.993356007128515,5.404627154348418e-05,0.2780935764312744,-1.5069530645953577,0.00012787267041858286,0.04946593940258026,0.02812199667096138,-0.0,-0.005079122260212898,1.2696412801742554,-0.015856126323342323,-0.3263842463493347
196.0,224.0,0.338,0.6455,9.5874,-0.0345,0.0313,-0.1605,-1.9179350338377894,-5.012642577639781e-05,3.4398016929626465,-1.6089863777160645,0.00023610469361301512,2.0152342319488525,4.993311750679769,4.9577960453461856e-05,0.26048803329467773,-1.506937328969137,0.00011084595462307334,0.05364949628710747,0.02809000015258789,-0.0,0.002464697929099202,1.2695010900497437,-0.01629749685525894,-0.31714487075805664
196.0,224.0,0.338,0.6455,9.5874,-0.0345,0.0313,-0.1605,-1.9179111919798792,-4.748470746562816e-05,3.443805694580078,-1.6088979244232178,0.00026260269805788994,2.048035144805908,4.9933518944080255,2.2910466213943437e-05,0.2553180158138275,-1.5069416205035608,0.0005252937553450465,0.07155592739582062,0.02807777002453804,-0.0,-0.017534803599119186,1.269361138343811,-0.017711060121655464,-0.34996551275253296
196.0,224.0,0.338,0.6455,9.5874,-0.0345,0.0313,-0.1605,-1.9179431400694789,-4.510498183663003e-05,3.403782367706299,-1.608929991722107,0.00029959596577100456,2.065962791442871,4.993299472122946,9.519486354747642e-08,0.2669753134250641,-1.5068929831134241,0.0008786439429968596,0.0459371916949749,0.028105998411774635,-0.0,-0.006504735443741083,1.2692971229553223,-0.019323373213410378,-0.37150096893310547
196.0,224.0,0.338,0.6455,9.5874,-0.0345,0.0313,-0.1605,-1.9179593525328578,-5.799724749522284e-05,3.431960105895996,-1.6089749336242676,0.000286459835479036,2.0572993755340576,4.993332254677572,4.0583059135457233e-10,0.26060912013053894,-1.5068967978106897,0.0007469258853234351,0.058388564735651016,0.02809378318488598,-0.0,-0.009102720767259598,1.2692052125930786,-0.020233819261193275,-0.38000765442848206
196.0,224.0,0.338,0.6455,9.5874,-0.0345,0.0313,-0.1605,-1.9179269276061,-3.8883084926055744e-05,3.4656925201416016,-1.60895836353302,0.00028808563365601003,2.085510015487671,4.993311750679769,1.1296443381408894e-13,0.25587198138237,-1.5069454352008265,0.0006562804337590933,0.05668067932128906,0.028121979907155037,-0.0,-0.006442479323595762,1.2691091299057007,-0.0233551487326622,-0.40908342599868774
196.0,224.0,0.338,0.6455,9.5874,-0.0345,0.0313,-0.1605,-1.9179955921568812,-5.1182003517169505e-05,3.373350143432617,-1.6089222431182861,0.00043577648466452956,2.0761563777923584,4.993335920363226,3.144406991995392e-17,0.2586711049079895,-1.5069087187396448,0.0007025452214293182,0.04265151917934418,0.028085995465517044,-0.0,-0.014390483498573303,1.2689013481140137,-0.02509787119925022,-0.4166308641433716
196.0,224.0,0.338,0.6455,9.5874,-0.0345,0.0313,-0.1605,-1.9179593525328578,-7.614110654685646e-05,3.3775622844696045,-1.608862280845642,0.00046932653640396893,2.036184787750244,4.9933040020759485,-0.0005464233690872788,0.23970156908035278,-1.5068934599505823,0.0011004323605448008,0.053910061717033386,0.02810600958764553,-0.0,-0.021141069009900093,1.2687931060791016,-0.02799493446946144,-0.41929891705513
196.0,224.0,0.338,0.6455,9.5874,-0.0345,0.0313,-0.1605,-1.9179674587645472,-0.0005631968379020691,3.38118314743042,-1.608938217163086,0.0007549289730377495,2.0377345085144043,4.993348616152563,-0.0004999413504265249,0.24622531235218048,-1.5068967978106897,0.0011705586221069098,0.06367628276348114,0.02803763374686241,-0.0,-0.006988933775573969,1.2685813903808594,-0.03163985535502434,-0.45446616411209106
196.0,224.0,0.338,0.6455,9.5874,-0.0345,0.0313,-0.1605,-1.9179674587645472,-0.0008382118539884686,3.389831066131592,-1.6089143753051758,0.0019437122391536832,2.0765395164489746,4.993283915310659,-0.00045737787149846554,0.2367960512638092,-1.5068967978106897,0.0008080634288489819,0.07603497803211212,0.02813796140253544,-0.0,-0.02299690805375576,1.2684251070022583,-0.03669603914022446,-0.4632604718208313
