ramyac6/ROB537/final_project/csv/bad/bad_91.csv
tof_0,tof_1,accelx,accely,accelz,gyrox,gyroy,gyroz,shoulder_lift_joint_position,shoulder_lift_joint_velocity,shoulder_lift_joint_effort,elbow_joint_position,elbow_joint_velocity,elbow_joint_effort,wrist_1_joint_position,wrist_1_joint_velocity,wrist_1_joint_effort,wrist_2_joint_position,wrist_2_joint_velocity,wrist_2_joint_effort,wrist_3_joint_position,wrist_3_joint_velocity,wrist_3_joint_effort,shoulder_pan_joint_position,shoulder_pan_joint_velocity,shoulder_pan_joint_effort
377.0,357.0,7.142,-1.1815,5.6285,-0.0363,0.0264,-0.1564,-1.4987945792130013,0.0,1.8597016334533691,-1.5061523914337158,-0.0,2.128789186477661,3.7986337381550292,0.0,0.24922114610671997,-1.0093677679644983,0.0,-0.05097950994968414,0.4107266068458557,0.0,-0.011572752147912979,0.9791991710662842,0.0,-0.028877446427941322
377.0,357.0,7.142,-1.1815,5.6285,-0.0363,0.0264,-0.1564,-1.4987547111562272,0.0,1.7943075895309448,-1.5060997009277344,-0.0,2.145507574081421,3.7985574442097167,0.0,0.2509935796260834,-1.0093391577350062,0.0,-0.048922099173069,0.410690575838089,0.0,0.005909077823162079,0.9791991710662842,0.0,-0.018046271055936813
377.0,357.0,7.142,-1.1815,5.6285,-0.0363,0.0264,-0.1564,-1.4987426784685631,0.0,1.8290221691131592,-1.5061243772506714,-0.0,2.1655030250549316,3.798565550441406,0.0,0.26298120617866516,-1.0093720594989222,0.0,-0.05661487579345703,0.41065847873687744,0.0,0.0008567741606384516,0.9791714549064636,0.0,-0.06603727489709854
377.0,357.0,7.142,-1.1815,5.6285,-0.0363,0.0264,-0.1564,-1.498746671979763,0.0,1.809351921081543,-1.5061843395233154,-0.0,2.097466230392456,3.798597498531006,0.0,0.25772297382354736,-1.0093911329852503,0.0,-0.05110296234488487,0.4106660485267639,0.0,-0.009594217874109745,0.9792194366455078,0.0,-0.02212909609079361
377.0,357.0,7.142,-1.1815,5.6285,-0.0363,0.0264,-0.1564,-1.498766617184021,0.0,1.85225510597229,-1.5061564445495605,-0.0,2.152283191680908,3.7986056047626953,0.0,0.2618260979652405,-1.009355370198385,0.0,-0.04979366064071655,0.410698801279068,0.0,-0.00079756835475564,0.9791753888130188,0.0,-0.030373824760317802
377.0,357.0,7.142,-1.1815,5.6285,-0.0363,0.0264,-0.1564,-1.4987827104381104,0.0,1.848905324935913,-1.506208896636963,-0.0,2.116631031036377,3.798597498531006,0.0,0.25874578952789307,-1.0094154516803187,0.0,-0.059356626123189926,0.4107023775577545,0.0,-0.008585923351347446,0.979199230670929,0.0,-0.056792281568050385
377.0,357.0,7.142,-1.1815,5.6285,-0.0363,0.0264,-0.1564,-1.498754696255066,0.0,1.8545955419540405,-1.506116271018982,-0.0,2.1570799350738525,3.7985331255146484,0.0,0.25531184673309326,-1.009439770375387,0.0,-0.0506814680993557,0.41068235039711,0.0,-0.013833108358085155,0.9792072176933289,0.0,0.0019141127122566104
377.0,357.0,7.142,-1.1815,5.6285,-0.0363,0.0264,-0.1564,-1.4987466943315049,0.0,1.865417718887329,-1.5061523914337158,-0.0,2.149752140045166,3.798581762904785,0.0,0.24903210997581482,-1.0093873182879847,0.0,-0.045521900057792664,0.4107106029987335,0.0,-0.016925832256674767,0.9792032241821289,0.0,0.007501176558434963
372.0,342.0,7.1755,-1.2096,5.6812,-0.0304,0.0243,-0.1132,-1.498754696255066,0.0,1.8215445280075073,-1.5061523914337158,-0.0,2.1324377059936523,3.798553629512451,0.0,0.2668103575706482,-1.0093758741961878,0.0,-0.04993002116680145,0.4107224941253662,0.0,-0.006611989811062813,0.9792194366455078,0.0,-0.019227508455514908
372.0,342.0,7.1755,-1.2096,5.6812,-0.0304,0.0243,-0.1132,-1.4987544950893898,0.0,1.883211374282837,-1.506139874458313,-0.0,2.1446542739868164,3.7985612589069824,0.0,0.2667146325111389,-1.0093830267535608,0.0,-0.047131650149822235,0.4107745885848999,0.0,-0.007175690494477749,0.9792273640632629,0.0,0.004528935067355633
372.0,342.0,7.1755,-1.2096,5.6812,-0.0304,0.0243,-0.1132,-1.498746671979763,0.0,1.834313154220581,-1.5062003135681152,-0.0,2.165684938430786,3.7985455232807617,0.0,0.2561020255088806,-1.0093830267535608,0.0,-0.04806164652109146,0.4107430577278137,0.0,-0.009017623960971832,0.9792191982269287,0.0,-0.038210488855838776
372.0,342.0,7.1755,-1.2096,5.6812,-0.0304,0.0243,-0.1132,-1.4987506729415436,0.0,1.8150126934051514,-1.5061806440353394,-0.0,2.1530380249023438,3.798597498531006,0.0,0.25040143728256226,-1.0093954245196741,0.0,-0.039476215839385986,0.4107147455215454,0.0,-0.014100095257163048,0.9791991710662842,0.0,-0.03321557864546776
372.0,342.0,7.1755,-1.2096,5.6812,-0.0304,0.0243,-0.1132,-1.4988025960377236,0.0,1.840429425239563,-1.5061523914337158,-0.0,2.1748225688934326,3.798597498531006,0.0,0.24812692403793335,-1.0093720594989222,0.0,-0.04754030331969261,0.41067826747894287,0.0,0.004093962721526623,0.9791753888130188,0.0,0.0013723168522119522
372.0,342.0,7.1755,-1.2096,5.6812,-0.0304,0.0243,-0.1132,-1.4987386253527184,0.0,1.8653466701507568,-1.5062167644500732,-0.0,2.1351022720336914,3.798565550441406,0.0,0.24734804034233093,-1.009399716054098,0.0,-0.04038279131054878,0.41069459915161133,0.0,-0.00445607490837574,0.9792353510856628,0.0,0.017595810815691948
372.0,342.0,7.1755,-1.2096,5.6812,-0.0304,0.0243,-0.1132,-1.4987146791866799,0.0,1.8601592779159546,-1.506176233291626,-0.0,2.158669948577881,3.79856984197583,0.0,0.25521594285964966,-1.0093677679644983,0.0,-0.04926963895559311,0.41073077917099,0.0,-0.020137187093496323,0.9792114496231079,0.0,0.003632607404142618
372.0,342.0,7.1755,-1.2096,5.6812,-0.0304,0.0243,-0.1132,-1.4987826880863686,0.0,1.8315998315811157,-1.506208896636963,-0.0,2.158548355102539,3.7986060815998535,0.0,0.25922244787216187,-1.0093873182879847,0.0,-0.04989941045641899,0.4107024371623993,0.0,-0.0015810206532478333,0.9791913032531738,0.0,-0.029234759509563446
372.0,342.0,7.1755,-1.2096,5.6812,-0.0304,0.0243,-0.1132,-1.498766617184021,0.0,1.8186196088790894,-1.5061843395233154,-0.0,2.1527462005615234,3.79859368383374,0.0,0.258625328540802,-1.0093677679644983,0.0,-0.058015137910842896,0.41065073013305664,0.0,-0.009377853944897652,0.979199230670929,0.0,0.04125846177339554
372.0,342.0,7.1755,-1.2096,5.6812,-0.0304,0.0243,-0.1132,-1.498738632803299,0.0,1.8022977113723755,-1.5061966180801392,-0.0,2.112679958343506,3.7985612589069824,0.0,0.24633854627609253,-1.0093758741961878,0.0,-0.034379780292510986,0.4106503129005432,0.0,-0.019370373338460922,0.9792234301567078,0.0,0.06506098061800003
372.0,342.0,7.1755,-1.2096,5.6812,-0.0304,0.0243,-0.1132,-1.498730593626835,0.0,1.8097429275512695,-1.5062003135681152,-0.0,2.1735169887542725,3.7985893922993164,0.0,0.2626158893108368,-1.0094035307513636,0.0,-0.047517478466033936,0.41067418456077576,0.0,-0.0054313987493515015,0.9792032241821289,0.0,-0.029678208753466606
372.0,342.0,7.1755,-1.2096,5.6812,-0.0304,0.0243,-0.1132,-1.498782680635788,0.0,1.8400671482086182,-1.5061683654785156,-0.0,2.1393682956695557,3.7985574442097167,0.0,0.26997026801109314,-1.0093873182879847,0.0,-0.06667090952396393,0.4107148051261902,0.0,-0.010493321344256401,0.9792194366455078,0.0,0.006589013151824474
372.0,342.0,7.1755,-1.2096,5.6812,-0.0304,0.0243,-0.1132,-1.4987026390484353,0.0,1.8042147159576416,-1.5061523914337158,-0.0,2.163689136505127,3.798525496120117,0.0,0.2568587064743042,-1.009355370198385,0.0,-0.04957512766122818,0.4107225239276886,0.0,0.007319727446883917,0.9792032241821289,0.0,0.015042876824736595
372.0,342.0,7.1755,-1.2096,5.6812,-0.0304,0.0243,-0.1132,-1.4987986025265236,0.0,1.8349659442901611,-1.5061441659927368,-0.0,2.15529727935791,3.798569365138672,0.0,0.25414422154426575,-1.0093758741961878,0.0,-0.045500870794057846,0.41066259145736694,0.0,-0.006967960391193628,0.9792110919952393,0.0,-0.01706300862133503
375.0,348.0,7.1067,-1.2658,5.7188,-0.0382,0.0273,-0.1231,-1.4987749320319672,0.0,1.8787775039672852,-1.5061161518096924,-0.0,2.130607843399048,3.798569365138672,0.0,0.2613508105278015,-1.0093634764300745,0.0,-0.04432341456413269,0.4107065200805664,0.0,-0.005903828889131546,0.9792032241821289,0.0,-0.07302682101726532
375.0,348.0,7.1067,-1.2658,5.7188,-0.0382,0.0273,-0.1231,-1.498762571518757,0.0,1.837347388267517,-1.5062373876571655,-0.0,2.112051010131836,3.7985893922993164,0.0,0.2545335590839386,-1.009411636983053,0.0,-0.04480393975973129,0.4107184410095215,0.0,-0.011232561431825161,0.9791913032531738,0.0,0.02634560875594616
375.0,348.0,7.1067,-1.2658,5.7188,-0.0382,0.0273,-0.1231,-1.4987706255963822,0.0,1.8468152284622192,-1.5061724185943604,-0.0,2.15047287940979,3.7985774713703613,0.0,0.24423924088478088,-1.0093801657306116,0.0,-0.03885245323181152,0.41067826747894287,0.0,-0.003270053770393133,0.9791913032531738,0.0,0.028024638071656227
375.0,348.0,7.1067,-1.2658,5.7188,-0.0382,0.0273,-0.1231,-1.4987945345095177,0.0,1.8877887725830078,-1.5062044858932495,-0.0,2.1653475761413574,3.7986060815998535,0.0,0.24359118938446045,-1.0093911329852503,0.0,-0.05097174644470215,0.41073453426361084,0.0,0.006413881201297045,0.979163408279419,0.0,0.05317062884569168
375.0,348.0,7.1067,-1.2658,5.7188,-0.0382,0.0273,-0.1231,-1.498766617184021,0.0,1.8401402235031128,-1.5061728954315186,-0.0,2.1748037338256836,3.798565550441406,0.0,0.2501220107078552,-1.0093801657306116,0.0,-0.04789215698838234,0.4107106029987335,0.0,-0.008300196379423141,0.9792032241821289,0.0,-0.03237592428922653
375.0,348.0,7.1067,-1.2658,5.7188,-0.0382,0.0273,-0.1231,-1.4987786722234269,0.0,1.797667145729065,-1.506187915802002,-0.0,2.1498639583587646,3.79859368383374,0.0,0.2501218914985657,-1.0094073454486292,0.0,-0.04648829996585846,0.41069459915161133,0.0,-0.021817773580551147,0.979211151599884,0.0,0.0034145177341997623
375.0,348.0,7.1067,-1.2658,5.7188,-0.0382,0.0273,-0.1231,-1.4987585929087182,0.0,1.8552035093307495,-1.5062003135681152,-0.0,2.206836223602295,3.798621340388916,0.0,0.2615289092063904,-1.0093720594989222,0.0,-0.04633546248078346,0.4107225239276886,0.0,0.0074100615456700325,0.9791913032531738,0.0,-0.0287279412150383
375.0,348.0,7.1067,-1.2658,5.7188,-0.0382,0.0273,-0.1231,-1.4988066342524071,0.0,1.8170950412750244,-1.5061883926391602,-0.0,2.110220193862915,3.7986175256916503,0.0,0.2461402416229248,-1.0093911329852503,0.0,-0.03977835178375244,0.41067010164260864,0.0,-0.003156977938488126,0.979199230670929,0.0,0.009875901974737644
375.0,348.0,7.1067,-1.2658,5.7188,-0.0382,0.0273,-0.1231,-1.4987625566175957,0.0,1.829009771347046,-1.506184697151184,-0.0,2.146440267562866,3.7985774713703613,0.0,0.2506321966648102,-1.0093911329852503,0.0,-0.05076030641794205,0.4106864333152771,0.0,-0.006048369687050581,0.9792234301567078,0.0,-0.009386232122778893
375.0,348.0,7.1067,-1.2658,5.7188,-0.0382,0.0273,-0.1231,-1.498794601564743,0.0,1.839759111404419,-1.5061765909194946,-0.0,2.2081403732299805,3.79859368383374,0.0,0.2623661756515503,-1.0093634764300745,0.0,-0.04717293009161949,0.41064655780792236,0.0,-0.012195099145174026,0.9791913032531738,0.0,-0.006835421081632376
375.0,348.0,7.1067,-1.2658,5.7188,-0.0382,0.0273,-0.1231,-1.498790719812252,0.0,1.8356590270996094,-1.5061523914337158,-0.0,2.188645362854004,3.7985493379780273,0.0,0.25506025552749634,-1.0093591848956507,0.0,-0.05121161788702011,0.41067418456077576,0.0,-0.005268127657473087,0.9791753888130188,0.0,-0.025652606040239334
375.0,348.0,7.1067,-1.2658,5.7188,-0.0382,0.0273,-0.1231,-1.4987706255963822,0.0,1.8439338207244873,-1.5061606168746948,-0.0,2.188408613204956,3.7986017900654296,0.0,0.24106484651565552,-1.0093720594989222,0.0,-0.032601047307252884,0.4106060564517975,0.0,-0.006714376620948315,0.979239284992218,0.0,0.019300982356071472
375.0,348.0,7.1067,-1.2658,5.7188,-0.0382,0.0273,-0.1231,-1.4988066342524071,0.0,1.8170158863067627,-1.5061601400375366,-0.0,2.1877803802490234,3.7986060815998535,0.0,0.25849905610084534,-1.009423557912008,0.0,-0.04021158069372177,0.41066262125968933,0.0,-0.0029582015704363585,0.9791753888130188,0.0,-0.006511176936328411
375.0,348.0,7.1067,-1.2658,5.7188,-0.0382,0.0273,-0.1231,-1.4987786573222657,0.0,1.8956851959228516,-1.5061687231063843,-0.0,2.1523690223693848,3.798597498531006,0.0,0.24921244382858276,-1.0093472639666956,0.0,-0.046083882451057434,0.4106987714767456,0.0,-0.008383389562368393,0.9792273640632629,0.0,-0.03108178824186325
369.0,348.0,7.1635,-1.2168,5.6674,-0.0412,0.0215,-0.113,-1.4988066268018265,0.0,1.8812317848205566,-1.5062412023544312,-0.0,2.157625198364258,3.79859368383374,0.0,0.24784350395202637,-1.0093954245196741,0.0,-0.05087403208017349,0.4106343984603882,0.0,-0.0020978329703211784,0.9791873097419739,0.0,-0.0185550544410944
369.0,348.0,7.1635,-1.2168,5.6674,-0.0412,0.0215,-0.113,-1.4987426784685631,0.0,1.8001892566680908,-1.5061843395233154,-0.0,2.163553237915039,3.7985855776020507,0.0,0.25371408462524414,-1.0093873182879847,0.0,-0.058174893260002136,0.41067418456077576,0.0,-0.008881757967174053,0.9791714549064636,0.0,0.001439286395907402
369.0,348.0,7.1635,-1.2168,5.6674,-0.0412,0.0215,-0.113,-1.4987346318415184,0.0,1.8658592700958252,-1.506176233291626,-0.0,2.1903798580169678,3.7985855776020507,0.0,0.2519264817237854,-1.009399716054098,0.0,-0.045527681708335876,0.41067826747894287,0.0,-0.0027103512547910213,0.9792032241821289,0.0,0.035710159689188004
369.0,348.0,7.1635,-1.2168,5.6674,-0.0412,0.0215,-0.113,-1.498770610695221,0.0,1.7923481464385986,-1.5062003135681152,-0.0,2.169296979904175,3.7986060815998535,0.0,0.24345162510871887,-1.0093911329852503,0.0,-0.03351273015141487,0.41069453954696655,0.0,-0.008143767714500427,0.9792273640632629,0.0,-0.04204387590289116
369.0,348.0,7.1635,-1.2168,5.6674,-0.0412,0.0215,-0.113,-1.4987866815975686,0.0,1.833980679512024,-1.506148338317871,-0.0,2.1927452087402344,3.798553152675293,0.0,0.26530399918556213,-1.0093510786639612,0.0,-0.06255590170621872,0.41073480248451233,0.0,-0.0058006662875413895,0.9792072176933289,0.0,0.038944825530052185
369.0,348.0,7.1635,-1.2168,5.6674,-0.0412,0.0215,-0.113,-1.4987866815975686,0.0,1.8304909467697144,-1.5061285495758057,-0.0,2.126208782196045,3.7985493379780273,0.0,0.25515255331993103,-1.009411636983053,0.0,-0.050983455032110214,0.41067421436309814,0.0,0.004354946315288544,0.9791793823242188,0.0,-0.021484684199094772
369.0,348.0,7.1635,-1.2168,5.6674,-0.0412,0.0215,-0.113,-1.4987786349705239,0.0,1.8484269380569458,-1.5062252283096313,-0.0,2.1465671062469482,3.7985455232807617,0.0,0.24979153275489807,-1.009399716054098,0.0,-0.05099450796842575,0.4106667637825012,0.0,-0.016859145835042,0.9791832566261292,0.0,0.005500951781868935
369.0,348.0,7.1635,-1.2168,5.6674,-0.0412,0.0215,-0.113,-1.4988025960377236,0.0,1.8545379638671875,-1.5061687231063843,-0.0,2.1252317428588867,3.798581286067627,0.0,0.2599153220653534,-1.0093911329852503,0.0,-0.04865625128149986,0.4107307493686676,0.0,-0.01581491157412529,0.9791753888130188,0.0,-0.013140717521309853
369.0,348.0,7.1635,-1.2168,5.6674,-0.0412,0.0215,-0.113,-1.498726026420929,0.0,1.814652442932129,-1.5062127113342285,-0.0,2.1555533409118652,3.798565550441406,0.0,0.24206198751926422,-1.0094483534442347,0.0,-0.05013198405504227,0.41067826747894287,0.0,0.0028107468970119953,0.979243278503418,0.0,0.0019350056536495686
369.0,348.0,7.1635,-1.2168,5.6674,-0.0412,0.0215,-0.113,-1.4987227109125634,0.0,1.8665469884872437,-1.5061285495758057,-0.0,2.122293472290039,3.79859368383374,0.0,0.24517369270324707,-1.009355370198385,0.0,-0.04678883031010628,0.4106905162334442,0.0,-0.009421163238584995,0.9791714549064636,0.0,-0.026058539748191833
369.0,348.0,7.1635,-1.2168,5.6674,-0.0412,0.0215,-0.113,-1.4987786573222657,0.0,1.8570284843444824,-1.506164312362671,-0.0,2.1477878093719482,3.798569365138672,0.0,0.2637776732444763,-1.0094073454486292,0.0,-0.04721265286207199,0.4106905162334442,0.0,-0.008351277559995651,0.9791793823242188,0.0,0.008891471661627293
369.0,348.0,7.1635,-1.2168,5.6674,-0.0412,0.0215,-0.113,-1.498750702743866,0.0,1.839503526687622,-1.5061079263687134,-0.0,2.1417534351348877,3.798553152675293,0.0,0.24271970987319946,-1.0093873182879847,0.0,-0.05381546914577484,0.41062620282173157,0.0,-0.00906180590391159,0.9791832566261292,0.0,-0.007899202406406403
369.0,348.0,7.1635,-1.2168,5.6674,-0.0412,0.0215,-0.113,-1.498770610695221,0.0,1.8448777198791504,-1.5061440467834473,-0.0,2.1669092178344727,3.798565073604248,0.0,0.25435930490493774,-1.009439770375387,0.0,-0.044371314346790314,0.4107106328010559,0.0,-0.018216842785477638,0.9791714549064636,0.0,-0.022504150867462158
369.0,348.0,7.1635,-1.2168,5.6674,-0.0412,0.0215,-0.113,-1.4987786573222657,0.0,1.8445923328399658,-1.5061523914337158,-0.0,2.1158499717712402,3.7985731798359375,0.0,0.24804046750068665,-1.009355370198385,0.0,-0.03699318319559097,0.4106544554233551,0.0,-0.011627588421106339,0.9792194366455078,0.0,-0.011666795238852501
369.0,348.0,7.1635,-1.2168,5.6674,-0.0412,0.0215,-0.113,-1.4987790671041985,0.0,1.8278177976608276,-1.506148099899292,-0.0,2.122282028198242,3.7985774713703613,0.0,0.23978635668754578,-1.0093391577350062,0.0,-0.04614267125725746,0.41069838404655457,0.0,-0.011390464380383492,0.9792273640632629,0.0,0.012180101126432419
376.0,356.0,7.1151,-1.2257,5.6524,-0.0279,0.0302,-0.1239,-1.498754696255066,0.0,1.8320181369781494,-1.5061602592468262,-0.0,2.183833122253418,3.798581762904785,0.0,0.253543883562088,-1.0093830267535608,0.0,-0.045783139765262604,0.41067013144493103,0.0,-0.017239181324839592,0.9791674017906189,0.0,0.020768258720636368
376.0,356.0,7.1151,-1.2257,5.6524,-0.0279,0.0302,-0.1239,-1.498766617184021,0.0,1.8291988372802734,-1.506164312362671,-0.0,2.1425323486328125,3.7985851007648925,0.0,0.24703317880630493,-1.0094316641436976,0.0,-0.059234797954559326,0.4106904864311218,0.0,-0.01228344440460205,0.9791951775550842,0.0,-0.01138464268296957
376.0,356.0,7.1151,-1.2257,5.6524,-0.0279,0.0302,-0.1239,-1.498750702743866,0.0,1.8485552072525024,-1.5061765909194946,-0.0,2.1364495754241943,3.7985612589069824,0.0,0.2625579237937927,-1.0093677679644983,0.0,-0.04374827444553375,0.4107545018196106,0.0,0.002905731089413166,0.9792591333389282,0.0,0.018095385283231735
376.0,356.0,7.1151,-1.2257,5.6524,-0.0279,0.0302,-0.1239,-1.498758727019169,0.0,1.8162827491760254,-1.5061523914337158,-0.0,2.1829490661621094,3.798609896297119,0.0,0.2526519298553467,-1.0094154516803187,0.0,-0.04991105943918228,0.4107147753238678,0.0,-0.010136451572179794,0.9791714549064636,0.0,0.003973932936787605
376.0,356.0,7.1151,-1.2257,5.6524,-0.0279,0.0302,-0.1239,-1.498742626314499,0.0,1.8310599327087402,-1.5061564445495605,-0.0,2.1226959228515625,3.7986623483845214,0.0,0.25551560521125793,-1.0093720594989222,0.0,-0.05194902792572975,0.4106864333152771,0.0,-0.009314429014921188,0.979211151599884,0.0,-0.08145381510257721
376.0,356.0,7.1151,-1.2257,5.6524,-0.0279,0.0302,-0.1239,-1.4986946147731324,0.0,1.8337146043777466,-1.5061843395233154,-0.0,2.178041696548462,3.7985774713703613,0.0,0.2537837624549866,-1.0093591848956507,0.0,-0.03846389055252075,0.4106667935848236,0.0,-0.004435213282704353,0.9792312979698181,0.0,-0.019727405160665512
376.0,356.0,7.1151,-1.2257,5.6524,-0.0279,0.0302,-0.1239,-1.4987706181458016,0.0,1.906287431716919,-1.5061880350112915,-0.0,2.119400978088379,3.7985855776020507,0.0,0.24880236387252808,-1.0093758741961878,0.0,-0.06180468201637268,0.4106987714767456,0.0,-0.0009042311576195061,0.9791951775550842,0.0,-0.028155097737908363
376.0,356.0,7.1151,-1.2257,5.6524,-0.0279,0.0302,-0.1239,-1.498750702743866,0.0,1.8451237678527832,-1.5061724185943604,-0.0,2.168717861175537,3.7985574442097167,0.0,0.2520860731601715,-1.0093873182879847,0.0,-0.05706083029508591,0.410650372505188,0.0,-0.010828578844666481,0.9792234301567078,0.0,-0.019733022898435593
376.0,356.0,7.1151,-1.2257,5.6524,-0.0279,0.0302,-0.1239,-1.4987426561168213,0.0,1.8341825008392334,-1.5061724185943604,-0.0,2.1339550018310547,3.798597498531006,0.0,0.2565429210662842,-1.0093830267535608,0.0,-0.034666091203689575,0.4107384979724884,0.0,-0.0214096512645483,0.979239284992218,0.0,0.000553877791389823
376.0,356.0,7.1151,-1.2257,5.6524,-0.0279,0.0302,-0.1239,-1.498790719812252,0.0,1.808164119720459,-1.5061243772506714,-0.0,2.1746528148651123,3.7986294466206054,0.0,0.2536085247993469,-1.0094154516803187,0.0,-0.048952050507068634,0.41073474287986755,0.0,-0.008383145555853844,0.9791473746299744,0.0,-0.050080735236406326
376.0,356.0,7.1151,-1.2257,5.6524,-0.0279,0.0302,-0.1239,-1.4987786349705239,0.0,1.9170327186584473,-1.5061765909194946,-0.0,2.1547162532806396,3.798565550441406,0.0,0.2551364600658417,-1.0093830267535608,0.0,-0.05099429190158844,0.41070693731307983,0.0,-0.021082505583763123,0.9791833162307739,0.0,-0.03890230506658554
376.0,356.0,7.1151,-1.2257,5.6524,-0.0279,0.0302,-0.1239,-1.498766617184021,0.0,1.8296594619750977,-1.5061683654785156,-0.0,2.1459054946899414,3.798537417049072,0.0,0.261463463306427,-1.0093472639666956,0.0,-0.05066543444991112,0.41061851382255554,0.0,-0.012048066593706608,0.9791753888130188,0.0,0.00816664844751358
376.0,356.0,7.1151,-1.2257,5.6524,-0.0279,0.0302,-0.1239,-1.498746671979763,0.0,1.8077256679534912,-1.5061843395233154,-0.0,2.111016273498535,3.798569365138672,0.0,0.24756675958633423,-1.0093954245196741,0.0,-0.04529361426830292,0.41067075729370117,0.0,-0.0027270533610135317,0.9791753888130188,0.0,0.022639984264969826
376.0,356.0,7.1151,-1.2257,5.6524,-0.0279,0.0302,-0.1239,-1.498754696255066,0.0,1.8342044353485107,-1.5061885118484497,-0.0,2.172805070877075,3.798609896297119,0.0,0.24245673418045044,-1.0093830267535608,0.0,-0.048184819519519806,0.4106544554233551,0.0,-0.0015938261058181524,0.9792032241821289,0.0,-0.05715116858482361
381.0,371.0,6.9924,-1.3065,5.9276,-0.0405,0.0232,-0.1222,-1.4987226215055962,0.0,1.8237483501434326,-1.5061683654785156,-0.0,2.1664280891418457,3.798565550441406,0.0,0.2550172805786133,-1.0093873182879847,0.0,-0.05338358134031296,0.41066262125968933,0.0,-0.01220302190631628,0.9792234301567078,0.0,0.032344426959753036
381.0,371.0,6.9924,-1.3065,5.9276,-0.0405,0.0232,-0.1222,-1.4987426561168213,0.0,1.8880953788757324,-1.5061724185943604,-0.0,2.2110238075256348,3.7985855776020507,0.0,0.2573539614677429,-1.0093758741961878,0.0,-0.03716312348842621,0.4107147455215454,0.0,-0.00608039228245616,0.9791913032531738,0.0,0.021818241104483604
381.0,371.0,6.9924,-1.3065,5.9276,-0.0405,0.0232,-0.1222,-1.498774641459324,0.0,1.8381614685058594,-1.5062170028686523,-0.0,2.0873537063598633,3.798581762904785,0.0,0.24449798464775085,-1.0093472639666956,0.0,-0.04021940380334854,0.410718709230423,0.0,0.0011824271641671658,0.9792194366455078,0.0,0.009691818617284298
381.0,371.0,6.9924,-1.3065,5.9276,-0.0405,0.0232,-0.1222,-1.498762586419918,0.0,1.8449355363845825,-1.5061161518096924,-0.0,2.1305971145629883,3.7985574442097167,0.0,0.24814853072166443,-1.0093911329852503,0.0,-0.06444185972213745,0.4107224941253662,0.0,-0.0031839164439588785,0.9791634678840637,0.0,-0.03593061864376068
381.0,371.0,6.9924,-1.3065,5.9276,-0.0405,0.0232,-0.1222,-1.4987986025265236,0.0,1.8314831256866455,-1.5061243772506714,-0.0,2.13956880569458,3.798553152675293,0.0,0.24894362688064575,-1.0093801657306116,0.0,-0.05777555704116821,0.41071057319641113,0.0,0.0021384982392191887,0.9791832566261292,0.0,0.02984257973730564
381.0,371.0,6.9924,-1.3065,5.9276,-0.0405,0.0232,-0.1222,-1.498746671979763,0.0,1.8400003910064697,-1.506164789199829,-0.0,2.119626522064209,3.798597498531006,0.0,0.24606172740459442,-1.0093510786639612,0.0,-0.045032817870378494,0.4106946289539337,0.0,-0.006517169997096062,0.9791951775550842,0.0,0.028627585619688034
381.0,371.0,6.9924,-1.3065,5.9276,-0.0405,0.0232,-0.1222,-1.498782717888691,0.0,1.8650431632995605,-1.5061602592468262,-0.0,2.1507034301757812,3.798565073604248,0.0,0.252490758895874,-1.0093873182879847,0.0,-0.04348662495613098,0.4106946289539337,0.0,-0.014897644519805908,0.9792154431343079,0.0,-0.014203996397554874
381.0,371.0,6.9924,-1.3065,5.9276,-0.0405,0.0232,-0.1222,-1.4987786349705239,0.0,1.7903140783309937,-1.50619637966156,-0.0,2.179215669631958,3.7985851007648925,0.0,0.25619903206825256,-1.009423557912008,0.0,-0.04849719628691673,0.4106987714767456,0.0,0.00865908432751894,0.979215145111084,0.0,0.010152171365916729
381.0,371.0,6.9924,-1.3065,5.9276,-0.0405,0.0232,-0.1222,-1.498774641459324,0.0,1.8357374668121338,-1.5061806440353394,-0.0,2.159101963043213,3.798541231746338,0.0,0.26018083095550537,-1.0093801657306116,0.0,-0.04353376477956772,0.41073474287986755,0.0,-0.008301537483930588,0.9791754484176636,0.0,0.006007344461977482
381.0,371.0,6.9924,-1.3065,5.9276,-0.0405,0.0232,-0.1222,-1.4987346318415184,0.0,1.8400964736938477,-1.506131649017334,-0.0,2.144522190093994,3.798569365138672,0.0,0.273205429315567,-1.0093873182879847,0.0,-0.048316795378923416,0.4106905460357666,0.0,0.0007258765981532633,0.9792153835296631,0.0,0.03326082602143288
381.0,371.0,6.9924,-1.3065,5.9276,-0.0405,0.0232,-0.1222,-1.49876260877166,0.0,1.820584774017334,-1.5061765909194946,-0.0,2.170051336288452,3.7985612589069824,0.0,0.26649898290634155,-1.0093792120562952,0.0,-0.04062008857727051,0.41071057319641113,0.0,-0.011316833086311817,0.9792153835296631,0.0,0.01842053234577179
381.0,371.0,6.9924,-1.3065,5.9276,-0.0405,0.0232,-0.1222,-1.4987826880863686,0.0,1.8555059432983398,-1.5061285495758057,-0.0,2.134835720062256,3.7985855776020507,0.0,0.2519780397415161,-1.009411636983053,0.0,-0.0541490763425827,0.4106507897377014,0.0,-0.005027512088418007,0.9792234301567078,0.0,-0.01909618265926838
381.0,371.0,6.9924,-1.3065,5.9276,-0.0405,0.0232,-0.1222,-1.498770610695221,0.0,1.8769513368606567,-1.5061967372894287,-0.0,2.0976219177246094,3.7985774713703613,0.0,0.2578781843185425,-1.0093591848956507,0.0,-0.050943538546562195,0.4107224941253662,0.0,-0.0030370857566595078,0.9792273640632629,0.0,-4.139263182878494e-06
381.0,371.0,6.9924,-1.3065,5.9276,-0.0405,0.0232,-0.1222,-1.498754696255066,0.0,1.8182885646820068,-1.5061120986938477,-0.0,2.1448686122894287,3.79850880681958,0.0,0.25328367948532104,-1.0093873182879847,0.0,-0.040620140731334686,0.410714715719223,0.0,-0.006394785828888416,0.9792312979698181,0.0,-0.06427642703056335
371.0,358.0,7.1695,-1.2156,5.6369,-0.0362,0.0273,-0.1235,-1.498762623672821,0.0,1.8319931030273438,-1.506217122077942,-0.0,2.151848316192627,3.7986180025288085,0.0,0.25221768021583557,-1.0093954245196741,0.0,-0.03805862367153168,0.41075846552848816,0.0,-0.004101041704416275,0.979195237159729,0.0,-0.038544122129678726
371.0,358.0,7.1695,-1.2156,5.6369,-0.0362,0.0273,-0.1235,-1.498730593626835,0.0,1.8304173946380615,-1.5061358213424683,-0.0,2.147800922393799,3.798597498531006,0.0,0.2463272213935852,-1.0093954245196741,0.0,-0.06439858675003052,0.4107585847377777,0.0,-0.011248676106333733,0.9791991710662842,0.0,0.014929885976016521
371.0,358.0,7.1695,-1.2156,5.6369,-0.0362,0.0273,-0.1235,-1.498766617184021,0.0,1.8485348224639893,-1.506148338317871,-0.0,2.163386106491089,3.7985336023518066,0.0,0.2583930194377899,-1.0093873182879847,0.0,-0.038439564406871796,0.4106946289539337,0.0,-0.011770602315664291,0.9792234301567078,0.0,-0.02372298575937748
371.0,358.0,7.1695,-1.2156,5.6369,-0.0362,0.0273,-0.1235,-1.498754696255066,0.0,1.8400156497955322,-1.5061683654785156,-0.0,2.1594066619873047,3.798597498531006,0.0,0.25024136900901794,-1.009394947682516,0.0,-0.044835977256298065,0.4106626510620117,0.0,0.0004401805344969034,0.9792274236679077,0.0,0.005147779360413551
371.0,358.0,7.1695,-1.2156,5.6369,-0.0362,0.0273,-0.1235,-1.4987705957940598,0.0,1.8484365940093994,-1.5061564445495605,-0.0,2.1137266159057617,3.798553152675293,0.0,0.24205967783927917,-1.009355370198385,0.0,-0.05005449056625366,0.41067081689834595,0.0,0.0002267830423079431,0.979195237159729,0.0,-0.012777402065694332
371.0,358.0,7.1695,-1.2156,5.6369,-0.0362,0.0273,-0.1235,-1.498758727019169,0.0,1.8250513076782227,-1.5061767101287842,-0.0,2.135697603225708,3.7985612589069824,0.0,0.2669145166873932,-1.0094073454486292,0.0,-0.054689567536115646,0.41067421436309814,0.0,-0.008908500894904137,0.9792071580886841,0.0,-0.026480192318558693
371.0,358.0,7.1695,-1.2156,5.6369,-0.0362,0.0273,-0.1235,-1.4987706181458016,0.0,1.8648773431777954,-1.5061602592468262,-0.0,2.134953022003174,3.798614187831543,0.0,0.2562467157840729,-1.0093873182879847,0.0,-0.03440682217478752,0.410662978887558,0.0,-0.0007904012454673648,0.979211151599884,0.0,-0.043394677340984344
371.0,358.0,7.1695,-1.2156,5.6369,-0.0362,0.0273,-0.1235,-1.498766617184021,0.0,1.8487834930419922,-1.5061724185943604,-0.0,2.137603282928467,3.798548861140869,0.0,0.24872255325317383,-1.0093954245196741,0.0,-0.05088062956929207,0.41067421436309814,0.0,-0.009477882646024227,0.9792512655258179,0.0,-0.007670067250728607
371.0,358.0,7.1695,-1.2156,5.6369,-0.0362,0.0273,-0.1235,-1.498762586419918,0.0,1.8260042667388916,-1.5061358213424683,-0.0,2.1365795135498047,3.798553152675293,0.0,0.2592122554779053,-1.0093911329852503,0.0,-0.038577064871788025,0.41067826747894287,0.0,-0.007170594297349453,0.9791515469551086,0.0,0.02557668462395668
371.0,358.0,7.1695,-1.2156,5.6369,-0.0362,0.0273,-0.1235,-1.49879456431184,0.0,1.8627270460128784,-1.5062170028686523,-0.0,2.1706960201263428,3.7985851007648925,0.0,0.2469581663608551,-1.0093873182879847,0.0,-0.04846864566206932,0.4107106328010559,0.0,-0.004251409787684679,0.979199230670929,0.0,2.512824721634388e-05
371.0,358.0,7.1695,-1.2156,5.6369,-0.0362,0.0273,-0.1235,-1.4987265852144738,0.0,1.8500429391860962,-1.5061564445495605,-0.0,2.158003807067871,3.79856984197583,0.0,0.2478620857000351,-1.009423557912008,0.0,-0.040286410599946976,0.4107224941253662,0.0,-0.006392188370227814,0.9791873693466187,0.0,0.04073162376880646
371.0,358.0,7.1695,-1.2156,5.6369,-0.0362,0.0273,-0.1235,-1.498754696255066,0.0,1.8255400657653809,-1.5061883926391602,-0.0,2.136746644973755,3.798569365138672,0.0,0.2488894760608673,-1.0093911329852503,0.0,-0.05314185842871666,0.41065847873687744,0.0,0.003223188454285264,0.9792354106903076,0.0,-0.020859278738498688
371.0,358.0,7.1695,-1.2156,5.6369,-0.0362,0.0273,-0.1235,-1.4987985801747818,0.0,1.8719301223754883,-1.5061120986938477,-0.0,2.1601650714874268,3.79859368383374,0.0,0.25614333152770996,-1.0093591848956507,0.0,-0.046480707824230194,0.4106987416744232,0.0,-0.006653820164501667,0.979243278503418,0.0,0.02115326002240181
371.0,358.0,7.1695,-1.2156,5.6369,-0.0362,0.0273,-0.1235,-1.4988226380995293,0.0,1.829509973526001,-1.5061358213424683,-0.0,2.1794357299804688,3.7985126215168457,0.0,0.26061898469924927,-1.0093677679644983,0.0,-0.05082494020462036,0.4107308089733124,0.0,-0.0065407599322497845,0.9791913032531738,0.0,-0.0519467294216156
389.0,352.0,7.1886,-1.2012,5.5795,-0.0333,0.0195,-0.1177,-1.4987426114133378,0.0,1.8422232866287231,-1.5061317682266235,-0.0,2.15238356590271,3.7986056047626953,0.0,0.262172669172287,-1.0093873182879847,0.0,-0.052922945469617844,0.4106864333152771,0.0,-0.0032925091218203306,0.9791674613952637,0.0,-0.007169721648097038
389.0,352.0,7.1886,-1.2012,5.5795,-0.0333,0.0195,-0.1177,-1.498774917130806,0.0,1.8701419830322266,-1.5061275959014893,-0.0,2.130035400390625,3.798565550441406,0.0,0.24952013790607452,-1.0093873182879847,0.0,-0.060585491359233856,0.41069459915161133,0.0,-0.017622794955968857,0.9791991710662842,0.0,0.013719839043915272
389.0,352.0,7.1886,-1.2012,5.5795,-0.0333,0.0195,-0.1177,-1.4987305861762543,0.0,1.8902411460876465,-1.5061683654785156,-0.0,2.1807475090026855,3.7985731798359375,0.0,0.26334330439567566,-1.0093391577350062,0.0,-0.049858249723911285,0.41071879863739014,0.0,-0.015279030427336693,0.9791515469551086,0.0,0.0027087198104709387
389.0,352.0,7.1886,-1.2012,5.5795,-0.0333,0.0195,-0.1177,-1.498766617184021,0.0,1.8212312459945679,-1.5061275959014893,-0.0,2.16972279548645,3.798565073604248,0.0,0.25509923696517944,-1.0093677679644983,0.0,-0.04481562227010727,0.41070276498794556,0.0,-0.006006520241498947,0.9792273044586182,0.0,-0.019363027065992355
389.0,352.0,7.1886,-1.2012,5.5795,-0.0333,0.0195,-0.1177,-1.4987826880863686,0.0,1.8217182159423828,-1.5061765909194946,-0.0,2.18701434135437,3.7985731798359375,0.0,0.24903757870197296,-1.0094111601458948,0.0,-0.06329000741243362,0.41068241000175476,0.0,0.0026933185290545225,0.9791793823242188,0.0,-0.04277212172746658
389.0,352.0,7.1886,-1.2012,5.5795,-0.0333,0.0195,-0.1177,-1.498730645780899,0.0,1.8265783786773682,-1.5061523914337158,-0.0,2.1293232440948486,3.798553152675293,0.0,0.2603909373283386,-1.0094073454486292,0.0,-0.04780423268675804,0.41071879863739014,0.0,0.004093433730304241,0.979223370552063,0.0,0.04192981868982315
389.0,352.0,7.1886,-1.2012,5.5795,-0.0333,0.0195,-0.1177,-1.4987624150565644,0.0,1.8550505638122559,-1.5061441659927368,-0.0,2.201260566711426,3.798614187831543,0.0,0.24355530738830566,-1.0093801657306116,0.0,-0.05366639047861099,0.41067004203796387,0.0,-0.0013518917839974165,0.9791595339775085,0.0,0.016219109296798706
389.0,352.0,7.1886,-1.2012,5.5795,-0.0333,0.0195,-0.1177,-1.4987945717624207,0.0,1.8635005950927734,-1.5061683654785156,-0.0,2.1096277236938477,3.7985612589069824,0.0,0.24872776865959167,-1.0093677679644983,0.0,-0.04036213457584381,0.4106946289539337,0.0,-0.0008268553065136075,0.9792194366455078,0.0,-0.013051941990852356
389.0,352.0,7.1886,-1.2012,5.5795,-0.0333,0.0195,-0.1177,-1.4987867039493104,0.0,1.8193178176879883,-1.5062003135681152,-0.0,2.1650633811950684,3.798597498531006,0.0,0.25806376338005066,-1.0093758741961878,0.0,-0.04908984154462814,0.41073077917099,0.0,-0.011935228481888771,0.9792032241821289,0.0,0.008156095631420612
389.0,352.0,7.1886,-1.2012,5.5795,-0.0333,0.0195,-0.1177,-1.4987346541932602,0.0,1.8634545803070068,-1.5061358213424683,-0.0,2.147076368331909,3.7985455232807617,0.0,0.25879964232444763,-1.0093720594989222,0.0,-0.05638191103935242,0.4107270836830139,0.0,-0.011910717934370041,0.979179322719574,0.0,-0.0007265722379088402
389.0,352.0,7.1886,-1.2012,5.5795,-0.0333,0.0195,-0.1177,-1.4987426561168213,0.0,1.8636081218719482,-1.5061482191085815,-0.0,2.2029595375061035,3.7985731798359375,0.0,0.24260136485099792,-1.0093758741961878,0.0,-0.04508059471845627,0.4106987714767456,0.0,-0.009129222482442856,0.9792312383651733,0.0,0.04338262602686882
389.0,352.0,7.1886,-1.2012,5.5795,-0.0333,0.0195,-0.1177,-1.4987786275199433,0.0,1.860162615776062,-1.5061358213424683,-0.0,2.1098973751068115,3.79859368383374,0.0,0.26660043001174927,-1.009399716054098,0.0,-0.049533210694789886,0.41066259145736694,0.0,-0.015107402577996254,0.979199230670929,0.0,-0.022132104262709618
389.0,352.0,7.1886,-1.2012,5.5795,-0.0333,0.0195,-0.1177,-1.4987625938704987,0.0,1.864168405532837,-1.5061962604522705,-0.0,2.1589126586914062,3.7985774713703613,0.0,0.2474290430545807,-1.0094154516803187,0.0,-0.0358692891895771,0.4107106328010559,0.0,-0.018545454367995262,0.9792273640632629,0.0,-0.003093862906098366
389.0,352.0,7.1886,-1.2012,5.5795,-0.0333,0.0195,-0.1177,-1.4987826880863686,0.0,1.8736457824707031,-1.5062170028686523,-0.0,2.139066219329834,3.7985774713703613,0.0,0.250653475522995,-1.0093830267535608,0.0,-0.04500937834382057,0.41069459915161133,0.0,-0.014380795881152153,0.9791476130485535,0.0,0.006246523931622505
389.0,352.0,7.1886,-1.2012,5.5795,-0.0333,0.0195,-0.1177,-1.4987625938704987,0.0,1.8679291009902954,-1.5062333345413208,-0.0,2.1562914848327637,3.7985612589069824,0.0,0.2594481110572815,-1.0093911329852503,0.0,-0.048419542610645294,0.4107106029987335,0.0,0.0023780555929988623,0.9791714549064636,0.0,0.002926269546151161
390.0,379.0,7.1306,-1.2335,5.7045,-0.0347,0.0231,-0.1184,-1.4987826731852074,0.0,1.8242278099060059,-1.5061683654785156,-0.0,2.1655092239379883,3.798614187831543,0.0,0.2591053545475006,-1.0093758741961878,0.0,-0.048432607203722,0.41066259145736694,0.0,-0.010922379791736603,0.9792352914810181,0.0,-0.0435442216694355
390.0,379.0,7.1306,-1.2335,5.7045,-0.0347,0.0231,-0.1184,-1.4987705883434792,0.0,1.8043700456619263,-1.506176233291626,-0.0,2.1619913578033447,3.798553152675293,0.0,0.2524639070034027,-1.00934344926943,0.0,-0.04351591318845749,0.41073036193847656,0.0,-0.014357172884047031,0.9791873097419739,0.0,-0.0014757749158889055
390.0,379.0,7.1306,-1.2335,5.7045,-0.0347,0.0231,-0.1184,-1.498770610695221,0.0,1.8840830326080322,-1.506164312362671,-0.0,2.1526522636413574,3.7985612589069824,0.0,0.2665049731731415,-1.0093677679644983,0.0,-0.05143343657255173,0.4107266068458557,0.0,-0.003494510194286704,0.9791754484176636,0.0,0.0024894699454307556
390.0,379.0,7.1306,-1.2335,5.7045,-0.0347,0.0231,-0.1184,-1.4987746191075821,0.0,1.8319511413574219,-1.5061564445495605,-0.0,2.149223804473877,3.7986017900654296,0.0,0.255942165851593,-1.0093830267535608,0.0,-0.05208982527256012,0.4107151925563812,0.0,-0.01289096474647522,0.9792153835296631,0.0,0.02735835127532482
390.0,379.0,7.1306,-1.2335,5.7045,-0.0347,0.0231,-0.1184,-1.49875874192033,0.0,1.8482942581176758,-1.506192684173584,-0.0,2.1911439895629883,3.798642321223877,0.0,0.24735021591186523,-1.009411636983053,0.0,-0.052875351160764694,0.4107228219509125,0.0,0.0016842534532770514,0.9791714549064636,0.0,-0.027073396369814873
390.0,379.0,7.1306,-1.2335,5.7045,-0.0347,0.0231,-0.1184,-1.4987587121180077,0.0,1.8772410154342651,-1.506139874458313,-0.0,2.1428308486938477,3.7986017900654296,0.0,0.2550181746482849,-1.0093591848956507,0.0,-0.05087597668170929,0.4107426106929779,0.0,-0.021193962544202805,0.9792273640632629,0.0,0.015227768570184708
390.0,379.0,7.1306,-1.2335,5.7045,-0.0347,0.0231,-0.1184,-1.498790682559349,0.0,1.8557249307632446,-1.5061719417572021,-0.0,2.164062976837158,3.798581286067627,0.0,0.26165908575057983,-1.0093391577350062,0.0,-0.04054667055606842,0.4107024073600769,0.0,-0.0033058547414839268,0.9791476130485535,0.0,-0.017914624884724617
390.0,379.0,7.1306,-1.2335,5.7045,-0.0347,0.0231,-0.1184,-1.4988146063736458,0.0,1.814498782157898,-1.5061602592468262,-0.0,2.158775568008423,3.798609896297119,0.0,0.24513643980026245,-1.0093873182879847,0.0,-0.057743147015571594,0.410698801279068,0.0,0.0014877403154969215,0.979211151599884,0.0,-0.029300058260560036
390.0,379.0,7.1306,-1.2335,5.7045,-0.0347,0.0231,-0.1184,-1.4987466943315049,0.0,1.8979220390319824,-1.506139874458313,-0.0,2.1804418563842773,3.7985851007648925,0.0,0.24767565727233887,-1.0094035307513636,0.0,-0.04647614806890488,0.41067421436309814,0.0,-0.003060096176341176,0.9791833162307739,0.0,-0.013124324381351471
390.0,379.0,7.1306,-1.2335,5.7045,-0.0347,0.0231,-0.1184,-1.498750702743866,0.0,1.8612427711486816,-1.5061440467834473,-0.0,2.1406965255737305,3.7985612589069824,0.0,0.2540692090988159,-1.0093720594989222,0.0,-0.04991620406508446,0.4106987714767456,0.0,-0.0106324702501297,0.9791991710662842,0.0,0.007078718394041061
390.0,379.0,7.1306,-1.2335,5.7045,-0.0347,0.0231,-0.1184,-1.4987346318415184,0.0,1.837913990020752,-1.5061523914337158,-0.0,2.15908145904541,3.798581762904785,0.0,0.24505077302455902,-1.0093873182879847,0.0,-0.05051032826304436,0.41072627902030945,0.0,-0.010080933570861816,0.9792071580886841,0.0,-0.002202187664806843
390.0,379.0,7.1306,-1.2335,5.7045,-0.0347,0.0231,-0.1184,-1.4987546664527436,0.0,1.9012795686721802,-1.5062170028686523,-0.0,2.128498077392578,3.7985612589069824,0.0,0.2645256519317627,-1.0093792120562952,0.0,-0.04616010934114456,0.4106905162334442,0.0,-0.004148251377046108,0.9791913032531738,0.0,-0.013758026994764805
390.0,379.0,7.1306,-1.2335,5.7045,-0.0347,0.0231,-0.1184,-1.4987666097334404,0.0,1.867837905883789,-1.506212830543518,-0.0,2.1832098960876465,3.798597498531006,0.0,0.25504833459854126,-1.0094073454486292,0.0,-0.04728215932846069,0.41073480248451233,0.0,-0.007321643643081188,0.9791873693466187,0.0,-0.007740878500044346
390.0,379.0,7.1306,-1.2335,5.7045,-0.0347,0.0231,-0.1184,-1.4987426561168213,0.0,1.9116756916046143,-1.5061724185943604,-0.0,2.107010841369629,3.798569365138672,0.0,0.2555074691772461,-1.0093873182879847,0.0,-0.054464198648929596,0.41066300868988037,0.0,-0.016534490510821342,0.9791913032531738,0.0,-0.013120688498020172
392.0,361.0,7.1677,-1.2712,5.5944,-0.0371,0.0215,-0.1124,-1.4987266522696991,0.0,1.8754422664642334,-1.5061806440353394,-0.0,2.210261106491089,3.7985493379780273,0.0,0.25457942485809326,-1.0093830267535608,0.0,-0.04369669780135155,0.4106789231300354,0.0,-0.022972160950303078,0.9791515469551086,0.0,0.020890770480036736
392.0,361.0,7.1677,-1.2712,5.5944,-0.0371,0.0215,-0.1124,-1.498750590985157,0.0,1.8705190420150757,-1.5061523914337158,-0.0,2.1704607009887695,3.7985612589069824,0.0,0.2585049271583557,-1.0093591848956507,0.0,-0.054615214467048645,0.41067013144493103,0.0,-0.003330410923808813,0.9791674613952637,0.0,0.046254780143499374
392.0,361.0,7.1677,-1.2712,5.5944,-0.0371,0.0215,-0.1124,-1.4987624523094674,0.0,1.8280227184295654,-1.5061683654785156,-0.0,2.1769425868988037,3.7986017900654296,0.0,0.24265342950820923,-1.0093873182879847,0.0,-0.04266414791345596,0.41075900197029114,0.0,-0.007470033131539822,0.9792352914810181,0.0,-0.032910481095314026
392.0,361.0,7.1677,-1.2712,5.5944,-0.0371,0.0215,-0.1124,-1.498782680635788,0.0,1.838767647743225,-1.5061523914337158,-0.0,2.1039540767669678,3.798553152675293,0.0,0.2670428454875946,-1.0094192663775843,0.0,-0.055649079382419586,0.41067421436309814,0.0,-0.010750602930784225,0.979199230670929,0.0,0.013920959085226059
392.0,361.0,7.1677,-1.2712,5.5944,-0.0371,0.0215,-0.1124,-1.4987507250956078,0.0,1.8202450275421143,-1.5061564445495605,-0.0,2.1209158897399902,3.798614187831543,0.0,0.2568459212779999,-1.009423557912008,0.0,-0.053135666996240616,0.4107102155685425,0.0,-0.012772111222147942,0.9792032241821289,0.0,0.03689727187156677
392.0,361.0,7.1677,-1.2712,5.5944,-0.0371,0.0215,-0.1124,-1.4987626162222405,0.0,1.8219401836395264,-1.506164312362671,-0.0,2.1499714851379395,3.7985612589069824,0.0,0.2574533224105835,-1.0094192663775843,0.0,-0.054014530032873154,0.4107224941253662,0.0,-0.009168673306703568,0.9792153835296631,0.0,0.04126114398241043
392.0,361.0,7.1677,-1.2712,5.5944,-0.0371,0.0215,-0.1124,-1.4987588685802002,0.0,1.8006274700164795,-1.506176233291626,-0.0,2.138672351837158,3.798614187831543,0.0,0.2528589367866516,-1.0093954245196741,0.0,-0.05239951238036156,0.41066673398017883,0.0,-0.008785512298345566,0.9791595339775085,0.0,-0.001321893185377121
392.0,361.0,7.1677,-1.2712,5.5944,-0.0371,0.0215,-0.1124,-1.4987666320851822,0.0,1.8735935688018799,-1.506164312362671,-0.0,2.167335271835327,3.798581762904785,0.0,0.2526471018791199,-1.0093758741961878,0.0,-0.04455859214067459,0.410706490278244,0.0,-0.009629806503653526,0.9791674017906189,0.0,-0.012849969789385796
392.0,361.0,7.1677,-1.2712,5.5944,-0.0371,0.0215,-0.1124,-1.4987706255963822,0.0,1.7995960712432861,-1.5061564445495605,-0.0,2.224303722381592,3.798614187831543,0.0,0.2501818537712097,-1.0093801657306116,0.0,-0.03287447988986969,0.4106864333152771,0.0,-0.0035363086499273777,0.9792114496231079,0.0,-0.01377643272280693
392.0,361.0,7.1677,-1.2712,5.5944,-0.0371,0.0215,-0.1124,-1.498726600115635,0.0,1.8531506061553955,-1.5061285495758057,-0.0,2.1707749366760254,3.798609896297119,0.0,0.2648237347602844,-1.0093873182879847,0.0,-0.04661783576011658,0.41068246960639954,0.0,-0.00673767551779747,0.9791913032531738,0.0,0.01758432947099209
392.0,361.0,7.1677,-1.2712,5.5944,-0.0371,0.0215,-0.1124,-1.4987546664527436,0.0,1.8029675483703613,-1.5061326026916504,-0.0,2.155608654022217,3.798597498531006,0.0,0.25995761156082153,-1.0093992392169397,0.0,-0.05597242712974548,0.41069459915161133,0.0,-0.004191181622445583,0.9792071580886841,0.0,0.00013460032641887665
392.0,361.0,7.1677,-1.2712,5.5944,-0.0371,0.0215,-0.1124,-1.498782643382885,0.0,1.8473851680755615,-1.5061602592468262,-0.0,2.1303274631500244,3.798581762904785,0.0,0.242215096950531,-1.0093830267535608,0.0,-0.047136690467596054,0.41073480248451233,0.0,-0.0037117907777428627,0.979211151599884,0.0,0.03422097489237785
392.0,361.0,7.1677,-1.2712,5.5944,-0.0371,0.0215,-0.1124,-1.49876260877166,0.0,1.8297027349472046,-1.50620436668396,-0.0,2.160282611846924,3.798609896297119,0.0,0.249349445104599,-1.0093911329852503,0.0,-0.049167655408382416,0.4105982780456543,0.0,-0.00888853333890438,0.9792273044586182,0.0,0.014318633824586868
392.0,361.0,7.1677,-1.2712,5.5944,-0.0371,0.0215,-0.1124,-1.4987346541932602,0.0,1.8103669881820679,-1.5061922073364258,-0.0,2.1322827339172363,3.798581286067627,0.0,0.25163859128952026,-1.009394947682516,0.0,-0.04841993749141693,0.4106864631175995,0.0,-0.015523850917816162,0.9791714549064636,0.0,0.005469216965138912
364.0,354.0,7.1228,-1.2078,5.5705,-0.038,0.0221,-0.1155,-1.4987346541932602,0.0,1.8642469644546509,-1.5062170028686523,-0.0,2.161353349685669,3.79862563192334,0.0,0.24696645140647888,-1.0093873182879847,0.0,-0.04841792583465576,0.4107385277748108,0.0,0.007574519608169794,0.9792194366455078,0.0,0.029834816232323647
364.0,354.0,7.1228,-1.2078,5.5705,-0.038,0.0221,-0.1155,-1.498766617184021,0.0,1.84636652469635,-1.5061358213424683,4.6048559410039047e-10,2.1686201095581055,3.7986017900654296,0.0,0.2544584274291992,-1.0094035307513636,0.0,-0.047083817422389984,0.41067418456077576,0.0,0.0011794805759564042,0.9792431592941284,0.0,0.013492240570485592
364.0,354.0,7.1228,-1.2078,5.5705,-0.038,0.0221,-0.1155,-1.4987507176450272,0.0,1.8884283304214478,-1.5061203241348267,1.1120186285942173e-15,2.14799427986145,3.7985774713703613,0.0,0.24796132743358612,-1.009399716054098,0.0,-0.0444745309650898,0.41073077917099,0.0,-0.005615743342787027,0.9792194366455078,0.0,-0.009927669540047646
364.0,354.0,7.1228,-1.2078,5.5705,-0.038,0.0221,-0.1155,-1.4987426859191437,0.0,1.8334674835205078,-1.5061243772506714,2.6853941988329545e-21,2.1541106700897217,3.79859368383374,0.0,0.24571704864501953,-1.0093591848956507,0.0,-0.047356102615594864,0.4106864333152771,0.0,-0.007113506551831961,0.9791913032531738,0.0,-0.005134450271725655
364.0,354.0,7.1228,-1.2078,5.5705,-0.038,0.0221,-0.1155,-1.4987183225205918,0.0,1.8640952110290527,-1.5061765909194946,8.700336764402083e-29,2.1709704399108887,3.7985898691364746,0.0,0.25934267044067383,-1.009355370198385,0.0,-0.04201098158955574,0.4106660783290863,0.0,-0.00505791837349534,0.9792114496231079,0.0,-0.001649223268032074
364.0,354.0,7.1228,-1.2078,5.5705,-0.038,0.0221,-0.1155,-1.498730630879738,0.0,1.8496071100234985,-1.5062127113342285,2.101029470669312e-34,2.0953991413116455,3.7985574442097167,0.0,0.25559115409851074,-1.0093911329852503,0.0,-0.047733500599861145,0.4107585847377777,0.0,0.003070374019443989,0.9791873693466187,0.0,0.025227732956409454
364.0,354.0,7.1228,-1.2078,5.5705,-0.038,0.0221,-0.1155,-1.4987627428821106,0.0,1.8109225034713745,-1.5061724185943604,5.073737401719438e-40,2.12980580329895,3.798541231746338,0.0,0.2566857933998108,-1.0093792120562952,0.0,-0.046086832880973816,0.41071879863739014,0.0,-0.012836001813411713,0.9791556000709534,0.0,0.0017454903572797775
364.0,354.0,7.1228,-1.2078,5.5705,-0.038,0.0221,-0.1155,-1.4987946611693879,0.0,1.7858829498291016,-1.5061966180801392,1.401298464324817e-45,2.1283626556396484,3.7985893922993164,0.0,0.24353717267513275,-1.0093591848956507,0.0,-0.0468033105134964,0.4106905162334442,0.0,-0.004178838338702917,0.9792273044586182,0.0,0.0077507952228188515
364.0,354.0,7.1228,-1.2078,5.5705,-0.038,0.0221,-0.1155,-1.4987745893052598,0.0,1.8710167407989502,-1.5061843395233154,-0.0,2.1619787216186523,3.7985774713703613,0.0,0.24094565212726593,-1.009355370198385,0.0,-0.06429418921470642,0.4106987714767456,0.0,-0.00021731876768171787,0.9791873693466187,0.0,-0.059352703392505646
364.0,354.0,7.1228,-1.2078,5.5705,-0.038,0.0221,-0.1155,-1.4987785828164597,8.845032084536797e-08,1.8779815435409546,-1.5061765909194946,-0.0,2.1311750411987305,3.7985336023518066,0.0,0.26539838314056396,-1.0093677679644983,0.0,-0.05022815242409706,0.41070276498794556,0.0,-0.002546821255236864,0.9792194366455078,0.0,-0.03723762556910515
364.0,354.0,7.1228,-1.2078,5.5705,-0.038,0.0221,-0.1155,-1.4987267342260857,2.1359715211832775e-13,1.8843958377838135,-1.5061120986938477,-0.0,2.184926986694336,3.798614187831543,0.0,0.2456149011850357,-1.0093720594989222,0.0,-0.05171467363834381,0.41067010164260864,0.0,-0.005691222846508026,0.9791754484176636,0.0,0.02069876156747341
364.0,354.0,7.1228,-1.2078,5.5705,-0.038,0.0221,-0.1155,-1.498734751050808,5.158119939061099e-19,1.8157206773757935,-1.5061765909194946,-0.0,2.1233162879943848,3.7985893922993164,0.0,0.25463616847991943,-1.0094192663775843,0.0,-0.0407891683280468,0.4106824994087219,0.0,0.005029451102018356,0.9791714549064636,0.0,0.012750502675771713
364.0,354.0,7.1228,-1.2078,5.5705,-0.038,0.0221,-0.1155,-1.4987588760307808,1.2456254702326585e-24,1.8542194366455078,-1.5061523914337158,-0.0,2.1383256912231445,3.798565073604248,0.0,0.25335511565208435,-1.009355370198385,0.0,-0.03833456337451935,0.4107147753238678,0.0,-0.02207672968506813,0.979179322719574,0.0,0.015645630657672882
364.0,354.0,7.1228,-1.2078,5.5705,-0.038,0.0221,-0.1155,-1.4987347436002274,3.008038886240086e-30,1.8381805419921875,-1.5061688423156738,0.00013463915092870593,2.1574044227600098,3.7986294466206054,0.0,0.26795366406440735,-1.0093391577350062,1.5545331280009123e-06,-0.043770309537649155,0.4107228219509125,0.0,-0.009536921977996826,0.9792195558547974,-2.0406396288308315e-06,0.013428201898932457
383.0,365.0,7.1204,-1.3484,5.7081,-0.0397,0.0357,-0.113,-1.4987267044237633,9.745664239700835e-38,1.8275253772735596,-1.5061564445495605,0.0005152840167284012,2.1549525260925293,3.7986294466206054,0.0,0.26040127873420715,-1.0094316641436976,2.825287052921066e-11,-0.04684058204293251,0.41076672077178955,0.0,-0.003820914076641202,0.9792032241821289,-6.611411992960697e-14,0.00839894451200962
383.0,365.0,7.1204,-1.3484,5.7081,-0.0397,0.0357,-0.113,-1.4987186577967186,0.00022726321185473353,1.8519871234893799,-1.506120204925537,0.0007672720239497721,2.100224018096924,3.7986060815998535,3.781552404547028e-09,0.2581232190132141,-1.0093873182879847,7.864289257243813e-15,-0.041198693215847015,0.41072288155555725,0.0,0.009267506189644337,0.9792392253875732,-1.5965785234161636e-19,0.008373408578336239
383.0,365.0,7.1204,-1.3484,5.7081,-0.0397,0.0357,-0.113,-1.4987307351878663,0.0002371659647906199,1.8388416767120361,-1.5061161518096924,0.0011294579599052668,2.173285961151123,3.798685236568115,1.0526091717005803e-12,0.2646450996398926,-1.0094111601458948,2.1890540817827827e-18,-0.04606011137366295,0.4107024669647217,0.0,-0.006897092796862125,0.9792593121528625,-3.8555490461015443e-25,-0.042495954781770706
383.0,365.0,7.1204,-1.3484,5.7081,-0.0397,0.0357,-0.113,-1.4987226960114022,0.0002439991367282346,1.805992841720581,-1.5061086416244507,0.0014954878715798259,2.1600842475891113,3.7986299234577636,2.9299764324076786e-16,0.2359040081501007,-1.009427849446432,6.093312588349918e-22,-0.056583553552627563,0.4106942117214203,0.0,-0.00019071262795478106,0.9792431592941284,-9.310697667552424e-31,0.007388553116470575
383.0,365.0,7.1204,-1.3484,5.7081,-0.0397,0.0357,-0.113,-1.4987067443183442,0.0002189902006648481,1.8248238563537598,-1.5060923099517822,0.002594917779788375,2.1531143188476562,3.798605127925537,0.00034663264523260295,0.24091440439224243,-1.0094192663775843,1.6960959359486763e-25,-0.050732605159282684,0.4106987416744232,0.0,-0.0018642549403011799,0.9791874289512634,-2.2484240572957976e-36,-0.002153955167159438
383.0,365.0,7.1204,-1.3484,5.7081,-0.0397,0.0357,-0.113,-1.4986984816244622,0.0002016762300627306,1.8309965133666992,-1.5060527324676514,0.0051095131784677505,2.134793281555176,3.7987052637287597,0.0003551943227648735,0.2615848183631897,-1.0094111601458948,3.0825703062178145e-30,-0.04607249051332474,0.41065073013305664,0.0,-0.001206992194056511,0.9792554378509521,-7.286752014489049e-44,0.03248043358325958
383.0,365.0,7.1204,-1.3484,5.7081,-0.0397,0.0357,-0.113,-1.4986822766116639,0.00017613220552448183,1.8444256782531738,-1.5060042142868042,0.005260405130684376,2.194704532623291,3.7986528116413574,0.0003461306041572243,0.252203106880188,-1.0094268957721155,8.580447545430361e-34,-0.03870856761932373,0.4107065200805664,0.0,-0.014608298428356647,0.9792351722717285,0.0006243983516469598,-0.018525607883930206
383.0,365.0,7.1204,-1.3484,5.7081,-0.0397,0.0357,-0.113,-1.4987506580403824,8.766770042711869e-05,1.8006179332733154,-1.506016492843628,0.0037687362637370825,2.188931941986084,3.79867331563916,0.0003793336218222976,0.26399511098861694,-1.0094392935382288,2.388399110694716e-37,-0.05750352889299393,0.4107184112071991,0.0,-0.004511547740548849,0.9792831540107727,0.001511594164185226,0.03297371044754982
383.0,365.0,7.1204,-1.3484,5.7081,-0.0397,0.0357,-0.113,-1.4987588611296196,1.3156482054910157e-05,1.878864049911499,-1.5059926509857178,0.001375833642669022,2.1397581100463867,3.7987095552631835,0.000331313960487023,0.25222834944725037,-1.0094307104693812,6.64818030429623e-41,-0.04984743148088455,0.4107106029987335,0.0,-0.006178217940032482,0.9792952537536621,0.0018966755596920848,0.01203579269349575
383.0,365.0,7.1204,-1.3484,5.7081,-0.0397,0.0357,-0.113,-1.4987625938704987,3.177135290965971e-11,1.831489086151123,-1.5059926509857178,0.0004366119101177901,2.1733410358428955,3.7986690241047363,0.0002713525027502328,0.25667285919189453,-1.0094755331622522,1.8216880036222622e-44,-0.05843323841691017,0.4107225239276886,0.0,-0.01110641285777092,0.9792993068695068,0.00234379549510777,-0.017799990251660347
383.0,365.0,7.1204,-1.3484,5.7081,-0.0397,0.0357,-0.113,-1.4988225412419816,-0.0008315937011502683,1.8216997385025024,-1.506016492843628,-0.0005372856394387782,2.1582438945770264,3.798621340388916,0.00017788387776818126,0.2625177204608917,-1.0094268957721155,0.0,-0.051695480942726135,0.4106823205947876,0.0,-0.014224516227841377,0.9793748259544373,0.0020725640933960676,0.04084356129169464
383.0,365.0,7.1204,-1.3484,5.7081,-0.0397,0.0357,-0.113,-1.4987905782512208,-0.0016204735729843378,1.8411951065063477,-1.5061168670654297,-0.0010738715063780546,2.1851677894592285,3.7986618715473632,0.0001526347768958658,0.2550118863582611,-1.0094674269305628,0.0,-0.05595753341913223,0.41067010164260864,0.0,-0.004595044534653425,0.9793105125427246,0.0014387385454028845,-0.010827478021383286
383.0,365.0,7.1204,-1.3484,5.7081,-0.0397,0.0357,-0.113,-1.4988588330200692,-0.003213509451597929,1.8567945957183838,-1.506052851676941,-0.0008894436759874225,2.131274461746216,3.7986456590839843,0.00010605447459965944,0.2641991972923279,-1.009427849446432,0.0,-0.04571860283613205,0.4106864333152771,0.0,-0.006161833181977272,0.979334831237793,0.0009801369160413742,-0.011755652725696564
383.0,365.0,7.1204,-1.3484,5.7081,-0.0397,0.0357,-0.113,-1.4988908258131524,-0.00443028099834919,1.8390207290649414,-1.506019949913025,-0.0007959653157740831,2.192420244216919,3.7986575800129394,-9.093671542359516e-05,0.25361669063568115,-1.0093868414508265,0.0,-0.0383472740650177,0.41072654724121094,0.0,0.0016290205530822277,0.9793389439582825,0.000873762066476047,-0.011855015531182289
383.0,365.0,7.1204,-1.3484,5.7081,-0.0397,0.0357,-0.113,-1.4989100855639954,-0.0070763323456048965,1.8741776943206787,-1.506076693534851,-0.0005557370604947209,2.171459197998047,3.79862563192334,-8.145378524204716e-05,0.25993701815605164,-1.009435002003805,0.0,-0.03916285187005997,0.4107225239276886,0.0,-0.0024645377416163683,0.9793787002563477,0.0009574276627972722,-0.04189370572566986
386.0,350.0,6.6431,-1.2269,5.9701,-0.0229,0.0367,-0.1258,-1.4990230959704895,-0.010677170939743519,1.800471544265747,-1.5060725212097168,-0.000371916830772534,2.1370179653167725,3.798605127925537,-6.896816921653226e-05,0.2562022805213928,-1.0094192663775843,0.0,-0.06186123937368393,0.41072288155555725,0.0,-0.012052788399159908,0.9793428778648376,0.0014145916793495417,-0.06901469081640244
386.0,350.0,6.6431,-1.2269,5.9701,-0.0229,0.0367,-0.1258,-1.4991268080523987,-0.0123967370018363,1.8519518375396729,-1.5060725212097168,-0.0002980079152621329,2.1465351581573486,3.798665686244629,-3.1994986784411594e-05,0.2515200972557068,-1.009479824696676,0.0,-0.05615419149398804,0.41067418456077576,0.0,-0.0076475488021969795,0.9793469905853271,0.0016412608092650771,-0.01311896275728941
386.0,350.0,6.6431,-1.2269,5.9701,-0.0229,0.0367,-0.1258,-1.4991822254708786,-0.013709502294659615,1.8002760410308838,-1.5060559511184692,-0.0002811696322169155,2.172865152359009,3.79867331563916,-2.8037913580192253e-05,0.2582143247127533,-1.009394947682516,0.0,-0.037694886326789856,0.41067418456077576,0.0,0.0028473245911300182,0.9794028401374817,0.001906965277157724,-0.06234209984540939
386.0,350.0,6.6431,-1.2269,5.9701,-0.0229,0.0367,-0.1258,-1.4992661488107224,-0.014405525289475918,1.831078052520752,-1.5061205625534058,-0.0003264978004153818,2.134861469268799,3.7986413675495605,-1.159172953180132e-07,0.24870644509792328,-1.0094431082354944,0.0,-0.035294465720653534,0.4107307493686676,0.0,-0.003593017579987645,0.9793787002563477,0.0019199141534045339,0.005622337572276592
386.0,350.0,6.6431,-1.2269,5.9701,-0.0229,0.0367,-0.1258,-1.499410295193531,-0.015301360748708248,1.7813663482666016,-1.5060644149780273,-0.0002528401673771441,2.095425844192505,3.798653765315674,-3.2266005839387546e-11,0.24621552228927612,-1.009427849446432,0.0,-0.054097048938274384,0.4106588661670685,0.0,-0.006412230432033539,0.9794187545776367,0.0022384647745639086,0.0052249133586883545
386.0,350.0,6.6431,-1.2269,5.9701,-0.0229,0.0367,-0.1258,-1.4995543149164696,-0.017192380502820015,1.8365029096603394,-1.5060559511184692,-0.00024277871125377715,2.119415283203125,3.798701449031494,-5.864186441364853e-16,0.2553859353065491,-1.009423557912008,0.0,-0.056043535470962524,0.4106905162334442,0.0,-0.00432983972132206,0.9794104099273682,0.0024443543516099453,0.03785508871078491
386.0,350.0,6.6431,-1.2269,5.9701,-0.0229,0.0367,-0.1258,-1.4996335592916985,-0.018115434795618057,1.8863362073898315,-1.5061205625534058,-0.00021771487081423402,2.16308856010437,3.798660917873047,-1.6323177665103121e-19,0.2630506157875061,-1.0094674269305628,0.0,-0.05092427134513855,0.4107184410095215,0.0,-0.013642269186675549,0.9794349074363708,0.0022732140496373177,0.07163414359092712
386.0,350.0,6.6431,-1.2269,5.9701,-0.0229,0.0367,-0.1258,-1.4997581851533432,-0.017151789739727974,1.8033106327056885,-1.5060926675796509,-0.00022657428053207695,2.1801137924194336,3.7986809450336914,-4.54361698638648e-23,0.2479846477508545,-1.0094154516803187,0.0,-0.0513567291200161,0.41073077917099,0.0,-0.005603516474366188,0.9794226884841919,0.0018734987825155258,0.014484897255897522
386.0,350.0,6.6431,-1.2269,5.9701,-0.0229,0.0367,-0.1258,-1.4998660695603867,-0.01532486081123352,1.8799384832382202,-1.5060844421386719,-0.00020452335593290627,2.1594488620758057,3.7987653452106933,0.0003750982868950814,0.2522461712360382,-1.009435002003805,0.0,-0.0487452894449234,0.41072627902030945,0.0,-0.0068465350195765495,0.9794265031814575,0.0013003849890083075,-0.025705020874738693
386.0,350.0,6.6431,-1.2269,5.9701,-0.0229,0.0367,-0.1258,-1.4999861729196091,-0.014555366709828377,1.8464224338531494,-1.5061448812484741,-0.0002426060673315078,2.1283698081970215,3.7987167078205566,0.00042326003313064575,0.25844302773475647,-1.0094268957721155,0.0,-0.047095589339733124,0.4107344448566437,0.0,0.0044288611970841885,0.979454755783081,0.0007819356978870928,0.04378771781921387
386.0,350.0,6.6431,-1.2269,5.9701,-0.0229,0.0367,-0.1258,-1.500117802327015,-0.01420162245631218,1.8050103187561035,-1.5061205625534058,-0.0003378335677552968,2.1461474895477295,3.79875294744458,0.0006991028785705566,0.2525622844696045,-1.0094431082354944,0.0,-0.041762031614780426,0.4107065200805664,0.0,-0.0037225610576570034,0.979414165019989,0.0004412420094013214,-0.017488818615674973
386.0,350.0,6.6431,-1.2269,5.9701,-0.0229,0.0367,-0.1258,-1.5001651880196114,-0.014094563201069832,1.8134409189224243,-1.506120204925537,-0.0015934811672195792,2.161029577255249,3.798769636745117,0.000721811200492084,0.25735437870025635,-1.0094640890704554,0.0,-0.05840551108121872,0.4106864333152771,0.0,-0.010069327428936958,0.979442834854126,0.00032351401750929654,-0.03477322682738304
386.0,350.0,6.6431,-1.2269,5.9701,-0.0229,0.0367,-0.1258,-1.5002934423140069,-0.015055792406201363,1.8209731578826904,-1.5061606168746948,-0.002358389552682638,2.167206287384033,3.7987209993549804,0.0006465037586167455,0.2559517025947571,-1.009451691304342,0.0,-0.03997134417295456,0.4105941355228424,0.0,-0.0034463838674128056,0.9793989658355713,0.00021289137657731771,0.024128247052431107
386.0,350.0,6.6431,-1.2269,5.9701,-0.0229,0.0367,-0.1258,-1.5003690359047432,-0.014506532810628414,1.8275983333587646,-1.5061482191085815,-0.004462899640202522,2.1761398315429688,3.7987848955341796,0.0006618442130275071,0.2631003260612488,-1.0093987623797815,0.0,-0.043234508484601974,0.41074228286743164,0.0,-0.009560725651681423,0.9794107675552368,0.00018080708105117083,-0.01917121745646
384.0,353.0,7.6451,-1.3041,5.6632,-0.0186,0.0049,-0.122,-1.500493125324585,-0.014179225079715252,1.8058199882507324,-1.506208896636963,-0.007578383665531874,2.1436259746551514,3.7987848955341796,0.0013971341541036963,0.2632131576538086,-1.0094030539142054,0.0,-0.04498494416475296,0.4107065200805664,0.0,-0.0020935763604938984,0.9794266223907471,0.00011784770322265103,-0.029993614181876183
384.0,353.0,7.6451,-1.3041,5.6632,-0.0186,0.0049,-0.122,-1.5006255742958565,-0.012321670539677143,1.8566198348999023,-1.506289005279541,-0.006039570085704327,2.2192399501800537,3.798804922694824,0.005278441589325666,0.2653541564941406,-1.009435002003805,0.0,-0.053728945553302765,0.4107341170310974,0.0,-0.007361500523984432,0.9794508218765259,0.00010033016587840393,-0.03316161036491394
384.0,353.0,7.6451,-1.3041,5.6632,-0.0186,0.0049,-0.122,-1.5006490510753174,-0.012097216211259365,1.8283979892730713,-1.506304144859314,-0.0032261402811855078,2.1897664070129395,3.7988969522663574,0.018678566440939903,0.2644844651222229,-1.0094793478595179,0.0,-0.04077143222093582,0.41076236963272095,0.0,-0.003962403163313866,0.9794468879699707,9.026703628478572e-05,0.0064236558973789215
384.0,353.0,7.6451,-1.3041,5.6632,-0.0186,0.0049,-0.122,-1.5007568013719101,-0.012902237474918365,1.838008165359497,-1.506304144859314,-0.0020141906570643187,2.101810932159424,3.799053354854248,0.02096596360206604,0.27257031202316284,-1.009427849446432,0.0,-0.036997050046920776,0.4107385277748108,0.0,0.012364157475531101,0.9794188141822815,8.20385612314567e-05,0.011481651104986668
384.0,353.0,7.6451,-1.3041,5.6632,-0.0186,0.0049,-0.122,-1.5008329835585137,-0.015631675720214844,1.843435287475586,-1.5063000917434692,-0.0009043650352396071,2.1532819271087646,3.7991291719624023,0.017618941143155098,0.26170650124549866,-1.0094307104693812,0.0,-0.04381776228547096,0.410746693611145,0.0,-0.0072470903396606445,0.979462742805481,0.00010023279173765332,0.025776857510209084
384.0,353.0,7.6451,-1.3041,5.6632,-0.0186,0.0049,-0.122,-1.5009730768254776,-0.016799168661236763,1.8733437061309814,-1.506352186203003,-0.0003432516532484442,2.1460680961608887,3.799264593715332,0.012874539941549301,0.2579258978366852,-1.0094226042376917,0.0,-0.04060337692499161,0.41074255108833313,0.0,0.001434463425539434,0.9794266223907471,9.251775918528438e-05,-0.014578467234969139
384.0,353.0,7.6451,-1.3041,5.6632,-0.0186,0.0049,-0.122,-1.5011008021286507,-0.017026426270604134,1.8266324996948242,-1.5063164234161377,-0.0002253300917800516,2.154336452484131,3.7993203836628417,0.007900377735495567,0.25794148445129395,-1.0094431082354944,0.0,-0.044042278081178665,0.4107307493686676,0.0,0.013632511720061302,0.9794508218765259,8.389374852413312e-05,0.0077530196867883205
384.0,353.0,7.6451,-1.3041,5.6632,-0.0186,0.0049,-0.122,-1.5012049314430733,-0.01561223529279232,1.8305449485778809,-1.5062999725341797,-0.00018020121206063777,2.1628482341766357,3.7993838030048828,0.0052518704906105995,0.27421289682388306,-1.0094307104693812,0.0,-0.035296909511089325,0.41070982813835144,0.0,0.0010444147046655416,0.9794868230819702,2.0954419596819207e-05,-0.023449789732694626
384.0,353.0,7.6451,-1.3041,5.6632,-0.0186,0.0049,-0.122,-1.5012770530632515,-0.014613722451031208,1.8334894180297852,-1.5063323974609375,2.3876431441749446e-05,2.1674184799194336,3.799412413234375,0.004312798380851746,0.26057568192481995,-1.0094593206988733,0.0,-0.049607280641794205,0.4107266366481781,1.4380763957433373e-07,0.009977130219340324,0.9795027375221252,1.950549631146714e-05,0.03591029345989227
384.0,353.0,7.6451,-1.3041,5.6632,-0.0186,0.0049,-0.122,-1.5013161164573212,-0.014713888987898827,1.885924220085144,-1.5063210725784302,9.717691864352673e-05,2.1795990467071533,3.79938714086499,0.004172727465629578,0.26923996210098267,-1.0094431082354944,0.0,-0.04031221568584442,0.4107586443424225,4.002938258640398e-11,0.009794175624847412,0.9794226884841919,1.8314698536414653e-05,-0.03565533086657524
384.0,353.0,7.6451,-1.3041,5.6632,-0.0186,0.0049,-0.122,-1.5014240381172677,-0.01698623225092888,1.872661828994751,-1.5062963962554932,8.363059168914333e-05,2.1840054988861084,3.7994682031818847,0.0042105927132070065,0.2676354646682739,-1.0094636122332972,0.0,-0.04339548572897911,0.4106864333152771,1.1142325397842795e-14,0.011522049084305763,0.9794706106185913,1.7260945242014714e-05,0.02002408355474472
384.0,353.0,7.6451,-1.3041,5.6632,-0.0186,0.0049,-0.122,-1.5016086635044594,-0.020214984193444252,1.8429224491119385,-1.5062675476074219,3.526402360876091e-05,2.1962168216705322,3.7994562822529296,0.003222511615604162,0.26014983654022217,-1.0094392935382288,0.0,-0.04496243596076965,0.4106864333152771,2.0250624751156361e-19,0.010357379913330078,0.9794508218765259,1.8735503317657276e-06,-0.0011940104886889458
384.0,353.0,7.6451,-1.3041,5.6632,-0.0186,0.0049,-0.122,-1.501708061700203,-0.022683992981910706,1.804707407951355,-1.5063164234161377,3.155274680466391e-05,2.1657965183258057,3.799476309413574,0.0019551606383174658,0.25967711210250854,-1.0094030539142054,0.0,-0.05718128755688667,0.41067007184028625,5.636835259426776e-23,0.013542354106903076,0.9794187545776367,4.524403421357626e-12,-0.009235955774784088
384.0,353.0,7.6451,-1.3041,5.6632,-0.0186,0.0049,-0.122,-1.5018677499941369,-0.02673543244600296,1.8015016317367554,-1.5062602758407593,5.228653390076943e-05,2.1528451442718506,3.799487753505371,0.001790605834685266,0.27483659982681274,-1.0094197432147425,0.0,-0.043283216655254364,0.41072627902030945,1.569033863425695e-26,0.004152028355747461,0.9794586896896362,1.0925901974870984e-17,0.038198940455913544
387.0,353.0,6.2596,-1.2778,5.9025,-0.0205,0.0241,-0.1367,-1.5020640727928658,-0.027972539886832237,1.805757999420166,-1.5063644647598267,4.6874625695636496e-05,2.182100772857666,3.799483461970947,0.002612657379359007,0.2629457116127014,-1.0094879309283655,0.0,-0.06247123330831528,0.4107385277748108,4.367463308333277e-30,0.017803996801376343,0.9794953465461731,2.6384768795106648e-23,-0.00305725634098053
387.0,353.0,6.2596,-1.2778,5.9025,-0.0205,0.0241,-0.1367,-1.5021996361068268,-0.03095841221511364,1.8426203727722168,-1.5063447952270508,4.053966767969541e-05,2.198167562484741,3.7995034891315917,0.003110890742391348,0.27781903743743896,-1.0094111601458948,0.0,-0.04708396643400192,0.41072219610214233,1.2156994718627753e-33,0.0105737941339612,0.979462742805481,6.371610609208409e-29,0.046865686774253845
387.0,353.0,6.2596,-1.2778,5.9025,-0.0205,0.0241,-0.1367,-1.5024556008032341,-0.035964518785476685,1.8249993324279785,-1.5062798261642456,6.86937419231981e-05,2.1875505447387695,3.7995282846638183,0.004211962688714266,0.28084421157836914,-1.009394947682516,0.0,-0.04003078117966652,0.4107661247253418,0.00016962751396931708,0.017404261976480484,0.9794468879699707,2.0643209717957436e-36,0.011377306655049324
387.0,353.0,6.2596,-1.2778,5.9025,-0.0205,0.0241,-0.1367,-1.5027115058949967,-0.04069478437304497,1.8187484741210938,-1.506312370300293,6.164210935821757e-05,2.167637348175049,3.799612208003662,0.006306274328380823,0.2650010585784912,-1.0094917456256312,0.0,-0.05013037100434303,0.4107341170310974,0.0001832328416639939,0.030261298641562462,0.9794226884841919,4.9844186376033743e-42,-0.03955995291471481
387.0,353.0,6.2596,-1.2778,5.9025,-0.0205,0.0241,-0.1367,-1.5029267829707642,-0.044973667711019516,1.8311052322387695,-1.5062880516052246,8.384347893297672e-05,2.1766982078552246,3.799639864558838,0.008387775160372257,0.288413405418396,-1.0094593206988733,0.0,-0.04218723997473717,0.4107903242111206,0.00019378119031898677,0.01895507052540779,0.9794586896896362,0.0,0.018953487277030945
387.0,353.0,6.2596,-1.2778,5.9025,-0.0205,0.0241,-0.1367,-1.5032431718758126,-0.049535974860191345,1.7605547904968262,-1.506308674812317,7.670265040360391e-05,2.169146776199341,3.799679918880127,0.01183602586388588,0.29543113708496094,-1.0094674269305628,0.0,-0.040647782385349274,0.4107620418071747,0.00017761564231477678,0.023287352174520493,0.9794389009475708,0.0,-0.02267151139676571
387.0,353.0,6.2596,-1.2778,5.9025,-0.0205,0.0241,-0.1367,-1.503530853693821,-0.054722532629966736,1.8259856700897217,-1.506312370300293,7.067892147460952e-05,2.2001335620880127,3.7998320299335937,0.016687659546732903,0.2903691828250885,-1.0094431082354944,0.0,-0.05643661692738533,0.4107542037963867,0.0001871313143055886,0.033570796251297,0.9793949127197266,0.0,-0.016996733844280243
387.0,353.0,6.2596,-1.2778,5.9025,-0.0205,0.0241,-0.1367,-1.5039824408343812,-0.05886796489357948,1.81038236618042,-1.506320595741272,6.397959077730775e-05,2.191504716873169,3.799947424525879,0.027536623179912567,0.2988612651824951,-1.0094473997699183,0.0,-0.04175112396478653,0.410734087228775,0.00024632198619656265,0.04984674230217934,0.9794028997421265,0.0,-0.00561987841501832
387.0,353.0,6.2596,-1.2778,5.9025,-0.0205,0.0241,-0.1367,-1.5043742594173928,-0.06193116679787636,1.8342808485031128,-1.5063323974609375,6.054936602595262e-05,2.2147226333618164,3.8001229006000976,0.042608894407749176,0.29526278376579285,-1.0094636122332972,0.0,-0.0582074299454689,0.4107862114906311,0.0002527700853534043,0.03697919100522995,0.979442834854126,0.0,-0.013926764950156212
387.0,353.0,6.2596,-1.2778,5.9025,-0.0205,0.0241,-0.1367,-1.5047258672169228,-0.06498224288225174,1.8179738521575928,-1.5063365697860718,3.094159910688177e-05,2.162813186645508,3.800454779262207,0.06575082242488861,0.32145601511001587,-1.0094392935382288,0.0,-0.04713386669754982,0.41079846024513245,0.0002502202114555985,0.027132660150527954,0.9793989062309265,0.0,0.0325130894780159
387.0,353.0,6.2596,-1.2778,5.9025,-0.0205,0.0241,-0.1367,-1.5051618230393906,-0.06623650342226028,1.8355796337127686,-1.5063164234161377,3.499091860703629e-07,2.1945714950561523,3.800938292140625,0.09663575887680054,0.33435559272766113,-1.0094593206988733,0.0,-0.06454327702522278,0.4108138680458069,0.00023127664462663233,0.033343859016895294,0.9794507622718811,0.0,0.03931869566440582
387.0,353.0,6.2596,-1.2778,5.9025,-0.0205,0.0241,-0.1367,-1.5057253179005166,-0.06564614176750183,1.8364708423614502,-1.5062923431396484,1.133661358011925e-14,2.146226167678833,3.8018414217182617,0.11373107135295868,0.3470619320869446,-1.0094268957721155,0.0,-0.05220663547515869,0.41080620884895325,0.00023043698456604034,0.04799661785364151,0.9794508218765259,0.0,-0.0013372532557696104
387.0,353.0,6.2596,-1.2778,5.9025,-0.0205,0.0241,-0.1367,-1.5061048728278656,-0.06682261824607849,1.7982059717178345,-1.5063644647598267,2.7376586041730946e-20,2.1622233390808105,3.802576704616211,0.11251606047153473,0.34909117221832275,-1.0094636122332972,0.0,-0.049410149455070496,0.41081780195236206,0.00025259453104808927,0.03870914876461029,0.9794508218765259,0.0,0.019860241562128067
387.0,353.0,6.2596,-1.2778,5.9025,-0.0205,0.0241,-0.1367,-1.506564476793148,-0.07143830507993698,1.770336389541626,-1.506304144859314,6.611124004509718e-26,2.1380577087402344,3.8032271105,0.11130884289741516,0.34114915132522583,-1.0094593206988733,0.0,-0.06861671060323715,0.41080212593078613,0.0002594524121377617,0.040547925978899,0.9794349670410156,0.0,0.05308600887656212
387.0,353.0,6.2596,-1.2778,5.9025,-0.0205,0.0241,-0.1367,-1.5069520112923165,-0.0764070376753807,1.7496147155761719,-1.5063326358795166,1.5965084671173173e-31,2.1457128524780273,3.8038932520100097,0.12187070399522781,0.33573150634765625,-1.0094473997699183,0.0,-0.053264789283275604,0.4108024835586548,0.00022706325398758054,0.05113337188959122,0.9794309139251709,0.0,0.025425074622035027
376.0,342.0,6.0628,-1.3639,5.6656,-0.0502,0.0872,-0.0774,-1.5074799296310921,-0.08330139517784119,1.7069337368011475,-1.506352186203003,-0.0004164659767411649,2.1368467807769775,3.804708643550537,0.13896343111991882,0.3559158444404602,-1.0094392935382288,0.0,-0.06681638956069946,0.41082191467285156,0.00023520750983152539,0.046719133853912354,0.9794389009475708,0.00035878655035048723,0.1046219915151596
376.0,342.0,6.0628,-1.3639,5.6656,-0.0502,0.0872,-0.0774,-1.5081393805197258,-0.09139703214168549,1.692236304283142,-1.5063645839691162,-0.0010958274360746145,2.091940402984619,3.8058859544941406,0.14341941475868225,0.3600572347640991,-1.0094793478595179,0.0,-0.05765431374311447,0.41080620884895325,0.00023387715918943286,0.04604528844356537,0.9794187545776367,0.0003266163112130016,0.07265596091747284
376.0,342.0,6.0628,-1.3639,5.6656,-0.0502,0.0872,-0.0774,-1.5087068875185032,-0.1010955423116684,1.7123665809631348,-1.5063366889953613,-0.00039892224594950676,2.1477644443511963,3.8067781168171386,0.13233813643455505,0.352121502161026,-1.009486500416891,-1.815574250940699e-05,-0.05643468722701073,0.41080212593078613,0.0002560566063039005,0.05372451990842819,0.9794788360595703,0.00032252242090180516,0.06460608541965485
376.0,342.0,6.0628,-1.3639,5.6656,-0.0502,0.0872,-0.0774,-1.5092663553408165,-0.11142612993717194,1.6435644626617432,-1.506368637084961,-0.00011655708658508956,2.138850688934326,3.8075639444538574,0.14744049310684204,0.3455503582954407,-1.0094636122332972,-5.053718332703738e-09,-0.06200725585222244,0.41082608699798584,0.00021941284649074078,0.05584941431879997,0.9794706106185913,0.00031957903411239386,0.1271081566810608
376.0,342.0,6.0628,-1.3639,5.6656,-0.0502,0.0872,-0.0774,-1.510014721458294,-0.12252002954483032,1.6700997352600098,-1.5064090490341187,-0.00016661043628118932,2.1453940868377686,3.8086392122456054,0.18285807967185974,0.3681885600090027,-1.0094674269305628,-1.4067209853571572e-12,-0.06228145211935043,0.41087451577186584,0.00022900734620634466,0.056823939085006714,0.9794586896896362,0.00028202933026477695,0.11783722043037415
376.0,342.0,6.0628,-1.3639,5.6656,-0.0502,0.0872,-0.0774,-1.5107172553292294,-0.12630721926689148,1.644002914428711,-1.5063326358795166,-0.00019671137852128595,2.101935863494873,3.8098246294208984,0.19842199981212616,0.3942810893058777,-1.0094550291644495,-3.9156599381002394e-16,-0.06911497563123703,0.4108257293701172,0.00020369183039292693,0.05826063081622124,0.9794948101043701,0.00025237115914933383,0.09708280861377716
376.0,342.0,6.0628,-1.3639,5.6656,-0.0502,0.0872,-0.0774,-1.5117448021522542,-0.12800408899784088,1.636907935142517,-1.506376028060913,6.518069130834192e-05,2.112428903579712,3.811485930080078,0.2339680790901184,0.3912615180015564,-1.0094636122332972,-7.116517537542128e-21,-0.06893967092037201,0.41083380579948425,0.0002064801228698343,0.06081836670637131,0.9794226884841919,0.00020896582282148302,0.12097993493080139
376.0,342.0,6.0628,-1.3639,5.6656,-0.0502,0.0872,-0.0774,-1.5125677225044747,-0.1334763765335083,1.6218183040618896,-1.5063283443450928,2.6413144382786413e-07,2.068894386291504,3.8129841524311523,0.25399717688560486,0.4046001434326172,-1.009486500416891,-1.980908816315709e-24,-0.07192394137382507,0.41081780195236206,0.00018799459212459624,0.07335328310728073,0.9794666767120361,0.00022009383246768266,0.11137424409389496
376.0,342.0,6.0628,-1.3639,5.6656,-0.0502,0.0872,-0.0774,-1.5133993935636063,-0.14202961325645447,1.6172292232513428,-1.5063802003860474,-0.001915054745040834,2.0925848484039307,3.8145062166401367,0.2591242492198944,0.38958191871643066,-1.0094431082354944,-5.513931652990823e-28,-0.05808701366186142,0.41085389256477356,0.0001725467445794493,0.059728771448135376,0.9794993996620178,0.00022494302538689226,0.1413404941558838
376.0,342.0,6.0628,-1.3639,5.6656,-0.0502,0.0872,-0.0774,-1.5142868433943768,-0.15335853397846222,1.5776389837265015,-1.5064045190811157,-0.002794947475194931,2.0895190238952637,3.8161822992512207,0.2837647795677185,0.41985803842544556,-1.0094826857196253,-1.5348234606624371e-31,-0.0725734531879425,0.41079023480415344,0.0001792239345377311,0.06288819015026093,0.9794306755065918,0.0003758094971999526,0.09764725714921951
376.0,342.0,6.0628,-1.3639,5.6656,-0.0502,0.0872,-0.0774,-1.5151516397348423,-0.16531910002231598,1.5606930255889893,-1.5064159631729126,-0.0037658221554011106,2.097822666168213,3.8179446893879394,0.2983935475349426,0.4162960350513458,-1.0094950834857386,-4.2722375038067126e-35,-0.07102877646684647,0.41081780195236206,0.0001693621597951278,0.06521403044462204,0.9794788360595703,0.000479250680655241,0.1737416684627533
376.0,342.0,6.0628,-1.3639,5.6656,-0.0502,0.0872,-0.0774,-1.516430639927723,-0.1685580015182495,1.584794282913208,-1.5063762664794922,-0.0014842660166323185,2.053544521331787,3.8205644327351074,0.32950645685195923,0.4298013746738434,-1.0094392935382288,-7.764580777839168e-40,-0.062317412346601486,0.41076570749282837,0.00015479732246603817,0.06034482270479202,0.9794588685035706,0.0008388770511373878,0.15887999534606934
376.0,342.0,6.0628,-1.3639,5.6656,-0.0502,0.0872,-0.0774,-1.51742750898514,-0.17201396822929382,1.553086519241333,-1.5064201354980469,-0.0006023957394063473,2.0835840702056885,3.822634382838867,0.35881251096725464,0.43488040566444397,-1.0094593206988733,-2.1579996350602183e-43,-0.05633006617426872,0.4107940196990967,0.0001454176672268659,0.06574097275733948,0.9794583916664124,0.0006942673935554922,0.17459991574287415
376.0,342.0,6.0628,-1.3639,5.6656,-0.0502,0.0872,-0.0774,-1.5184142415276547,-0.17450493574142456,1.4968104362487793,-1.5064082145690918,-0.00039645523065701127,2.0382025241851807,3.824898882503174,0.37846773862838745,0.4532277286052704,-1.0094712416278284,-0.0,-0.07136562466621399,0.4108501672744751,0.00013710986240766943,0.057092126458883286,0.979478657245636,0.0007158974185585976,0.18572066724300385
369.0,377.0,7.6499,-1.2179,5.732,-0.1042,0.1972,0.0383,-1.5194892112961789,-0.17872388660907745,1.4991357326507568,-1.5064119100570679,-9.060592128662392e-05,2.074596881866455,3.8273231226154785,0.4090450406074524,0.45049864053726196,-1.0094593206988733,-0.0,-0.06497921049594879,0.4107981324195862,0.00012969989620614797,0.05729655176401138,0.9794948697090149,0.001051887171342969,0.21186113357543945
369.0,377.0,7.6499,-1.2179,5.732,-0.1042,0.1972,0.0383,-1.520643015657999,-0.18835532665252686,1.5068845748901367,-1.5064159631729126,-0.00013815122656524181,1.993234395980835,3.8298351007648925,0.44322633743286133,0.47512325644493103,-1.0094392935382288,-0.0,-0.07170748710632324,0.41084206104278564,0.00012305004929658026,0.06584089994430542,0.979510486125946,0.0014987742761150002,0.2660275101661682
369.0,377.0,7.6499,-1.2179,5.732,-0.1042,0.1972,0.0383,-1.5221918162754555,-0.1978716403245926,1.492962121963501,-1.5064324140548706,-0.0005456164362840354,2.069344997406006,3.8336145120808105,0.4875536262989044,0.4987437129020691,-1.0094144980060022,-0.0,-0.07450411468744278,0.4107981324195862,0.00011517628445290029,0.05897989869117737,0.979550838470459,0.0014150721253827214,0.22907626628875732
369.0,377.0,7.6499,-1.2179,5.732,-0.1042,0.1972,0.0383,-1.5234547306648274,-0.209784597158432,1.4664031267166138,-1.5064201354980469,-0.0004971519229002297,2.0434913635253906,3.8366643625446777,0.5139385461807251,0.5016388893127441,-1.0094755331622522,-0.0,-0.07307495176792145,0.4108257293701172,0.00010990196460625157,0.0691957175731659,0.979518473148346,0.0010920438216999173,0.21069443225860596
369.0,377.0,7.6499,-1.2179,5.732,-0.1042,0.1972,0.0383,-1.524697096352913,-0.22195206582546234,1.4596924781799316,-1.506380319595337,-0.00012557272566482425,2.027182102203369,3.8399264055439453,0.5490450859069824,0.5176446437835693,-1.0094836393939417,-0.0,-0.06792668998241425,0.41076576709747314,0.00010508968989597633,0.044864997267723083,0.9794626235961914,0.0006468734354712069,0.23965111374855042
369.0,377.0,7.6499,-1.2179,5.732,-0.1042,0.1972,0.0383,-1.5261444945684453,-0.2251841127872467,1.4706976413726807,-1.5063596963882446,-2.4457396108346074e-09,2.027949333190918,3.843333883876465,0.5885764360427856,0.5084124803543091,-1.009486500416891,-0.0,-0.08166223019361496,0.41080212593078613,0.00010068109986605123,0.055614352226257324,0.9794666767120361,0.00045185655471868813,0.22861233353614807
369.0,377.0,7.6499,-1.2179,5.732,-0.1042,0.1972,0.0383,-1.5274993081441899,-0.22298204898834229,1.5141408443450928,-1.506372094154358,-5.9061731234064194e-15,2.0167505741119385,3.847010775203369,0.6265515089035034,0.5110083818435669,-1.0094512144671839,-0.0,-0.07638213038444519,0.4108215570449829,9.662743104854599e-05,0.045096948742866516,0.9795387983322144,0.00041565397987142205,0.16133826971054077
369.0,377.0,7.6499,-1.2179,5.732,-0.1042,0.1972,0.0383,-1.529510711585619,-0.24084597826004028,1.4758870601654053,-1.5064122676849365,-1.9135252565362074e-22,2.039088010787964,3.85224358617749,0.6712626218795776,0.5020016431808472,-1.0094192663775843,-0.0,-0.05859450250864029,0.4107697606086731,9.170454723061994e-05,0.05153801664710045,0.9795024394989014,0.00037068527308292687,0.2217845916748047
369.0,377.0,7.6499,-1.2179,5.732,-0.1042,0.1972,0.0383,-1.5309685182622452,-0.2593788802623749,1.4750323295593262,-1.5064282417297363,-4.620938123089224e-28,2.075493097305298,3.8563596445270996,0.6984555125236511,0.5038487911224365,-1.0094593206988733,-0.0,-0.07639823108911514,0.41083791851997375,8.832948515191674e-05,0.049852415919303894,0.9794826507568359,0.00036069535417482257,0.13652774691581726
369.0,377.0,7.6499,-1.2179,5.732,-0.1042,0.1972,0.0383,-1.532612146144249,-0.26166149973869324,1.5280095338821411,-1.5063799619674683,-1.1159021136943747e-33,2.04141902923584,3.860691710109375,0.7333993315696716,0.5208442807197571,-1.0094593206988733,-0.0,-0.06384613364934921,0.41082191467285156,8.519399852957577e-05,0.06238740682601929,0.9795387983322144,0.0003135677252430469,0.20619508624076843
369.0,377.0,7.6499,-1.2179,5.732,-0.1042,0.1972,0.0383,-1.534161177729704,-0.2659827172756195,1.514988899230957,-1.5064163208007812,-2.6947726170136968e-39,2.0319809913635254,3.865142508144043,0.7645403146743774,0.49818265438079834,-1.0094354788409632,-0.0,-0.07457492500543594,0.4107981324195862,8.227351645473391e-05,0.05294671282172203,0.9794906973838806,0.00027733115712180734,0.17186248302459717
369.0,377.0,7.6499,-1.2179,5.732,-0.1042,0.1972,0.0383,-1.5358203586987038,-0.2777431309223175,1.5169188976287842,-1.5063523054122925,-1.997181425394956e-05,2.036835193634033,3.8698574739643554,0.7820028066635132,0.5075563192367554,-1.0094755331622522,-0.0,-0.06091281771659851,0.4107780158519745,7.95466621639207e-05,0.056432634592056274,0.9795064926147461,0.00024860267876647413,0.20761436223983765
369.0,377.0,7.6499,-1.2179,5.732,-0.1042,0.1972,0.0383,-1.538119239067175,-0.2799748182296753,1.5076711177825928,-1.5063637495040894,-4.4469339322006363e-10,2.0463006496429443,3.876235170955322,0.8131384253501892,0.4913053512573242,-1.0094354788409632,-0.0,-0.06933421641588211,0.41083788871765137,1.4457212094143301e-09,0.0557636022567749,0.9794941544532776,0.00015913057723082602,0.17320668697357178
369.0,377.0,7.6499,-1.2179,5.732,-0.1042,0.1972,0.0383,-1.5397446670434256,-0.28173351287841797,1.5449070930480957,-1.506404161453247,-1.0738822406935133e-15,2.0570967197418213,3.8811394411274414,0.8275993466377258,0.5102568864822388,-1.0094431082354944,-0.0,-0.06609496474266052,0.4107697904109955,4.024217753733489e-13,0.05393609032034874,0.9794625043869019,0.0001438674225937575,0.16720722615718842
368.0,445.0,6.4319,-1.145,5.9091,-0.2019,0.4945,0.1962,-1.5414434403977175,-0.29215869307518005,1.5273678302764893,-1.5063999891281128,-2.5932996737493224e-21,2.0491671562194824,3.886093779201172,0.8393484950065613,0.49717798829078674,-1.0094226042376917,-0.0,-0.07581453025341034,0.41083377599716187,1.1201558094206933e-16,0.04231317341327667,0.9795143604278564,0.00015740725211799145,0.15625783801078796
368.0,445.0,6.4319,-1.145,5.9091,-0.2019,0.4945,0.1962,-1.5431257218918581,-0.2953142523765564,1.5356913805007935,-1.5064082145690918,-6.2625132741689314e-27,2.023219108581543,3.8911420541950683,0.840829074382782,0.4926616847515106,-1.0094307104693812,-0.0,-0.08080467581748962,0.41072550415992737,3.1179949573552696e-20,0.04572220891714096,0.9794826507568359,0.00019029941176995635,0.20265674591064453
368.0,445.0,6.4319,-1.145,5.9091,-0.2019,0.4945,0.1962,-1.544904764076211,-0.29239368438720703,1.5085475444793701,-1.506372094154358,-1.512323293905989e-32,2.01483154296875,3.8962294298359375,0.8548244833946228,0.4987768828868866,-1.0094636122332972,-0.0,-0.06407997012138367,0.4107537567615509,8.679053201267908e-24,0.05062797665596008,0.9795060753822327,0.0001787535729818046,0.20992957055568695
368.0,445.0,6.4319,-1.145,5.9091,-0.2019,0.4945,0.1962,-1.5471833416125556,-0.29504072666168213,1.5031466484069824,-1.5063637495040894,-4.899738171404226e-40,2.0031723976135254,3.9030400949665527,0.858458399772644,0.48945823311805725,-1.0094392935382288,-0.0,-0.062196023762226105,0.41076570749282837,1.5773747819401693e-28,0.0337391272187233,0.9794907569885254,0.00016260558913927525,0.21972966194152832
368.0,445.0,6.4319,-1.145,5.9091,-0.2019,0.4945,0.1962,-1.5489209436676283,-0.2964065372943878,1.5208702087402344,-1.5063358545303345,-1.401298464324817e-45,2.085703134536743,3.9081827837177734,0.8613483905792236,0.4999810457229614,-1.0094712416278284,-0.0,-0.07307163625955582,0.4108542501926422,4.3906803444421025e-32,0.037248484790325165,0.9794666767120361,0.0002044384746113792,0.24231499433517456
368.0,445.0,6.4319,-1.145,5.9091,-0.2019,0.4945,0.1962,-1.5506874465248366,-0.297885924577713,1.512526512145996,-1.506388545036316,-0.0,2.042426586151123,3.9132630068012695,0.8631874322891235,0.49266937375068665,-1.0094431082354944,-0.0,-0.0854324921965599,0.4108055531978607,1.2221618496316355e-35,0.04481032118201256,0.979518473148346,0.00017994166410062462,0.22595326602458954
368.0,445.0,6.4319,-1.145,5.9091,-0.2019,0.4945,0.1962,-1.5525544055602332,-0.299796462059021,1.5273971557617188,-1.506404161453247,-0.0,2.0567965507507324,3.918429060573242,0.8536553978919983,0.4938318133354187,-1.009406868611471,-0.0,-0.0677347481250763,0.41085419058799744,3.4019322818413584e-39,0.03380230814218521,0.9794907569885254,0.00016066693933680654,0.21160846948623657
368.0,445.0,6.4319,-1.145,5.9091,-0.2019,0.4945,0.1962,-1.5543123607388516,-0.3031412661075592,1.4842878580093384,-1.506388545036316,-0.0,2.0732779502868652,3.923534556026123,0.8576213121414185,0.49557793140411377,-1.0093868414508265,-0.0,-0.07904160022735596,0.41080623865127563,2.5397588615305722e-05,0.027112554758787155,0.9794867634773254,0.00014512214693240821,0.20413947105407715
368.0,445.0,6.4319,-1.145,5.9091,-0.2019,0.4945,0.1962,-1.556762166587152,-0.30902358889579773,1.4976698160171509,-1.5064163208007812,-0.0,2.0120677947998047,3.930396719569824,0.8546059727668762,0.49862420558929443,-1.0094154516803187,-0.0,-0.08454901725053787,0.4107739329338074,4.615886561865068e-10,0.03885221853852272,0.9795024394989014,0.00012854064698331058,0.2346227616071701
368.0,445.0,6.4319,-1.145,5.9091,-0.2019,0.4945,0.1962,-1.5586562261781474,-0.3028956651687622,1.5137531757354736,-1.5063564777374268,-0.0,2.015965461730957,3.935584707851074,0.8499811887741089,0.496357798576355,-1.009406868611471,-0.0,-0.07357904314994812,0.41080620884895325,1.2848488278090903e-13,0.022191103547811508,0.9795143604278564,0.0001183946878882125,0.23886413872241974
368.0,445.0,6.4319,-1.145,5.9091,-0.2019,0.4945,0.1962,-1.5605105527541419,-0.30864715576171875,1.5590579509735107,-1.5063925981521606,0.0003699541848618537,2.001382827758789,3.9406682687946777,0.8508409261703491,0.5036671757698059,-1.009427849446432,-0.0,-0.08656103163957596,0.41080620884895325,3.576423904469382e-17,0.022615589201450348,0.9795306921005249,0.00013167606084607542,0.2615058720111847
368.0,445.0,6.4319,-1.145,5.9091,-0.2019,0.4945,0.1962,-1.5624771558544417,-0.31623750925064087,1.5191501379013062,-1.506376028060913,0.00027898134430870414,2.082719564437866,3.945779486293457,0.8483054041862488,0.4841036796569824,-1.0094192663775843,-0.0,-0.07914847880601883,0.4107377529144287,9.955106555172184e-21,0.04075925797224045,0.9795024394989014,0.00014315290900412947,0.19724345207214355
368.0,445.0,6.4319,-1.145,5.9091,-0.2019,0.4945,0.1962,-1.5644480490921815,-0.31341126561164856,1.5864806175231934,-1.5063481330871582,0.00021148660744074732,2.0392651557922363,3.9508282381245117,0.8494157195091248,0.4994369447231293,-1.009378735219137,-0.0,-0.07222596555948257,0.41079437732696533,2.771040576455032e-24,0.03946677967905998,0.9794948101043701,0.00015315339260268956,0.20552894473075867
368.0,445.0,6.4319,-1.145,5.9091,-0.2019,0.4945,0.1962,-1.5669739751941343,-0.32572218775749207,1.5332767963409424,-1.5063762664794922,-6.61195008433424e-05,2.100196361541748,3.9574829775043945,0.8474830389022827,0.4926239848136902,-1.0094555060016077,-0.0,-0.07648832350969315,0.41073375940322876,5.036228864595185e-29,0.027391068637371063,0.9794983267784119,0.00014616070257034153,0.2351354956626892
362.0,569.0,6.7322,-1.8305,5.7147,-0.1645,0.4415,0.151,-1.568964362177514,-0.32690420746803284,1.5624924898147583,-1.5063962936401367,-0.00019049686670769006,2.062502145767212,3.962554617519043,0.8317840695381165,0.47057822346687317,-1.009435002003805,-2.236232532482063e-08,-0.08259005844593048,0.4107459783554077,1.4018529796779997e-32,0.025341715663671494,0.9795507788658142,0.00018636815366335213,0.23037540912628174
362.0,569.0,6.7322,-1.8305,5.7147,-0.1645,0.4415,0.151,-1.5708619556822718,-0.3302345275878906,1.5145976543426514,-1.5063564777374268,-0.00021675878087989986,2.0371313095092773,3.9675962167927246,0.8280336856842041,0.4906460642814636,-1.0093911329852503,0.00017814917373470962,-0.0975106954574585,0.41079434752464294,3.9021092445706105e-36,0.03419281169772148,0.9794859886169434,0.00019574798352550715,0.20668599009513855
362.0,569.0,6.7322,-1.8305,5.7147,-0.1645,0.4415,0.151,-1.5727960071959437,-0.336562842130661,1.6187875270843506,-1.506440281867981,-9.853214578470215e-05,2.0383434295654297,3.9725944238850097,0.8205326199531555,0.4719538688659668,-1.009427849446432,0.00011187587369931862,-0.06525757163763046,0.4108825922012329,1.0861660578766663e-39,0.04126616194844246,0.9795101881027222,0.0005116854445077479,0.22789493203163147
362.0,569.0,6.7322,-1.8305,5.7147,-0.1645,0.4415,0.151,-1.5748068294920863,-0.33367201685905457,1.5646400451660156,-1.5064122676849365,-7.333745452342555e-05,2.0506961345672607,3.977426214809082,0.8145291805267334,0.5112533569335938,-1.0093992392169397,8.1449601566419e-05,-0.07165613770484924,0.4108215570449829,3.026804682941605e-43,0.03357802331447601,0.9795101881027222,0.0004721431469079107,0.23300451040267944
362.0,569.0,6.7322,-1.8305,5.7147,-0.1645,0.4415,0.151,-1.5773641071715296,-0.3310272693634033,1.5966936349868774,-1.5064045190811157,-5.6798895448073594e-11,2.038766384124756,3.983930750484131,0.8043444156646729,0.48665985465049744,-1.0094473997699183,5.978798071737401e-05,-0.06175295263528824,0.41083383560180664,0.0,0.025964219123125076,0.9795101881027222,0.0004144618578720838,0.23269961774349213
362.0,569.0,6.7322,-1.8305,5.7147,-0.1645,0.4415,0.151,-1.579374452630514,-0.3283001780509949,1.6436576843261719,-1.5063719749450684,-1.3716263918728982e-16,2.13154673576355,3.988717241878174,0.8082407712936401,0.5035272836685181,-1.0094030539142054,4.984859697287902e-05,-0.07912627607584,0.41081446409225464,0.0,0.043713003396987915,0.9795503616333008,0.000409698230214417,0.1469612419605255
362.0,569.0,6.7322,-1.8305,5.7147,-0.1645,0.4415,0.151,-1.5813495121397914,-0.3296908736228943,1.6589233875274658,-1.5063762664794922,-3.312316374278553e-22,2.0757617950439453,3.993575258845947,0.7966573238372803,0.47256502509117126,-1.0094030539142054,4.274379534763284e-05,-0.0824868381023407,0.410757839679718,0.0,0.029262196272611618,0.9795581102371216,0.0008643145556561649,0.1838289350271225
362.0,569.0,6.7322,-1.8305,5.7147,-0.1645,0.4415,0.151,-1.5832988224425257,-0.331271231174469,1.6318858861923218,-1.5063596963882446,-7.998856022981649e-28,2.0275421142578125,3.998336001033447,0.7917279601097107,0.5040282011032104,-1.0093873182879847,3.741200634976849e-05,-0.0746808797121048,0.4108138084411621,0.0,0.03714141994714737,0.97957444190979,0.0017588369082659483,0.17622865736484528
362.0,569.0,6.7322,-1.8305,5.7147,-0.1645,0.4415,0.151,-1.5853053532042445,-0.3346611261367798,1.6857373714447021,-1.5064003467559814,8.511519990861416e-05,1.9991607666015625,4.0030562120625,0.7858011722564697,0.48446595668792725,-1.009394947682516,3.326312798890285e-05,-0.07294201850891113,0.41081783175468445,0.0,0.03682814538478851,0.9795904755592346,0.002379469806328416,0.25371551513671875
362.0,569.0,6.7322,-1.8305,5.7147,-0.1645,0.4415,0.151,-1.5879985294737757,-0.34165626764297485,1.6540708541870117,-1.5063523054122925,8.916274236980826e-05,2.041517734527588,4.009297533626221,0.7839802503585815,0.49365752935409546,-1.0093830267535608,2.8978534828638658e-05,-0.07789161056280136,0.4108218550682068,0.0,0.026930442079901695,0.9795503616333008,0.002386903390288353,0.1990150511264801
362.0,569.0,6.7322,-1.8305,5.7147,-0.1645,0.4415,0.151,-1.590098043481344,-0.33602938055992126,1.7394403219223022,-1.50637686252594,0.0005677228909917176,2.0659854412078857,4.014061613673828,0.7823511362075806,0.4799448549747467,-1.0093830267535608,2.6425688702147454e-05,-0.07748390734195709,0.4107738435268402,0.0,0.0406530424952507,0.9795786142349243,0.002063571009784937,0.1710851788520813
362.0,569.0,6.7322,-1.8305,5.7147,-0.1645,0.4415,0.151,-1.5921679935851039,-0.34161660075187683,1.7001383304595947,-1.5063400268554688,0.0007008094107732177,2.101201057434082,4.018704577083252,0.7871309518814087,0.5102478265762329,-1.0094030539142054,2.42862352024531e-05,-0.07244691997766495,0.4107738435268402,0.0,0.0327838696539402,0.9795899987220764,0.0017272605327889323,0.1962287276983261
362.0,569.0,6.7322,-1.8305,5.7147,-0.1645,0.4415,0.151,-1.5943223438658656,-0.343021422624588,1.746840000152588,-1.5063719749450684,0.0004775296547450125,2.06130313873291,4.023552580470703,0.7866792678833008,0.49470534920692444,-1.009427849446432,2.246728581667412e-05,-0.08633406460285187,0.4107378125190735,0.0,0.026358705013990402,0.9796543717384338,0.0016773496754467487,0.17273405194282532
362.0,569.0,6.7322,-1.8305,5.7147,-0.1645,0.4415,0.151,-1.5964890919127406,-0.345053106546402,1.7395257949829102,-1.5063564777374268,0.00018786254804581404,2.103569984436035,4.028321905727051,0.7876244783401489,0.4730904698371887,-1.0094431082354944,2.0901850803056732e-05,-0.07125687599182129,0.41074976325035095,0.0,0.04173828288912773,0.9796462655067444,0.0014775609597563744,0.19159327447414398
362.0,569.0,6.7322,-1.8305,5.7147,-0.1645,0.4415,0.151,-1.5993625126280726,-0.36089566349983215,1.7192299365997314,-1.5063925981521606,6.625656533287838e-05,2.1244475841522217,4.034530802364014,0.7894436717033386,0.4870823621749878,-1.009423557912008,1.912511834234465e-05,-0.07763728499412537,0.4107738733291626,0.0,0.03618694096803665,0.9796785712242126,0.0012103405315428972,0.1589677780866623
365.0,562.0,6.7843,-2.0859,6.0891,-0.1545,0.3329,0.1213,-1.6015211544432582,-0.36220917105674744,1.7217555046081543,-1.506367802619934,1.3323053771330251e-09,2.095165252685547,4.039252920741699,0.7884880900382996,0.5056774020195007,-1.0094555060016077,1.7978938558371738e-05,-0.09148850291967392,0.4107578694820404,0.0,0.04089181870222092,0.9796826243400574,0.00096893246518448,0.23128840327262878
365.0,562.0,6.7843,-2.0859,6.0891,-0.1545,0.3329,0.1213,-1.6036550007262171,-0.3718263506889343,1.71934175491333,-1.5063881874084473,3.2173606294883146e-15,2.074388265609741,4.0439111429401855,0.7839287519454956,0.5087264180183411,-1.0094035307513636,1.6962365407380275e-05,-0.08700022101402283,0.4108133912086487,0.0,0.029241174459457397,0.979630172252655,0.0006256342749111354,0.2250460833311081
365.0,562.0,6.7843,-2.0859,6.0891,-0.1545,0.3329,0.1213,-1.6059180698790492,-0.37300387024879456,1.7552554607391357,-1.506388545036316,7.769547550584334e-21,2.0961384773254395,4.048491640681885,0.7840107083320618,0.4884999394416809,-1.0094035307513636,1.605459510756191e-05,-0.0774257630109787,0.41083791851997375,0.0,0.042284876108169556,0.9796503186225891,0.00044139608507975936,0.19394683837890625
365.0,562.0,6.7843,-2.0859,6.0891,-0.1545,0.3329,0.1213,-1.6080600223936976,-0.3689233660697937,1.739664077758789,-1.5063843727111816,0.0003181830979883671,2.1059985160827637,4.053219481105469,0.7830187082290649,0.5200154781341553,-1.0094154516803187,1.5239055755955633e-05,-0.07949003577232361,0.41080209612846375,-8.873343176674098e-06,0.02122492901980877,0.979557991027832,0.00027379891253076494,0.21407875418663025
365.0,562.0,6.7843,-2.0859,6.0891,-0.1545,0.3329,0.1213,-1.6109301052489222,-0.36347484588623047,1.8231532573699951,-1.5063358545303345,0.0002165085606975481,2.1161677837371826,4.0595995622822265,0.7817097902297974,0.4958187937736511,-1.0093720594989222,1.4272399312176276e-05,-0.07482636719942093,0.41079849004745483,-1.0733919225458521e-05,0.04403911530971527,0.9796383380889893,0.00012066038470948115,0.1588076949119568
365.0,562.0,6.7843,-2.0859,6.0891,-0.1545,0.3329,0.1213,-1.613108297387594,-0.36207857728004456,1.7929725646972656,-1.5063925981521606,0.00017451602616347373,2.086426258087158,4.064290686244629,0.7823019623756409,0.4939727485179901,-1.0093911329852503,1.362422790407436e-05,-0.07109592854976654,0.4107537567615509,-2.9878259866222834e-09,0.03579059615731239,0.9796707034111023,5.911742118769325e-05,0.19286119937896729
365.0,562.0,6.7843,-2.0859,6.0891,-0.1545,0.3329,0.1213,-1.6152626476683558,-0.36035266518592834,1.8413866758346558,-1.5063523054122925,6.577032036148012e-05,2.0865275859832764,4.068940802211426,0.7833925485610962,0.4943654239177704,-1.009394947682516,1.3032377864874434e-05,-0.07149391621351242,0.41079017519950867,-8.316724045553947e-13,0.034115444868803024,0.979646623134613,4.9384245357941836e-05,0.16976571083068848
365.0,562.0,6.7843,-2.0859,6.0891,-0.1545,0.3329,0.1213,-1.617441793481344,-0.36841917037963867,1.8331552743911743,-1.506380319595337,4.1914980101864785e-05,2.083305835723877,4.073704882259033,0.7812324166297913,0.49603399634361267,-1.0093873182879847,1.2489806067605969e-05,-0.08920850604772568,0.41077011823654175,-2.314990808031654e-16,0.03194708749651909,0.9796503186225891,7.977636414580047e-05,0.1684567779302597
365.0,562.0,6.7843,-2.0859,6.0891,-0.1545,0.3329,0.1213,-1.6196438274779261,-0.37270864844322205,1.8639603853225708,-1.506316065788269,9.824818698689342e-05,2.049982786178589,4.078359289760254,0.7829610109329224,0.511124849319458,-1.009394947682516,1.1990598068223335e-05,-0.07191375643014908,0.4107981324195862,-6.443862341349676e-20,0.028495080769062042,0.9796425104141235,4.154556154389866e-05,0.1796025037765503
365.0,562.0,6.7843,-2.0859,6.0891,-0.1545,0.3329,0.1213,-1.6226698360838832,-0.3701021671295166,1.84806227684021,-1.5063605308532715,0.0007261435966938734,2.1303887367248535,4.0846521097370605,0.7848681211471558,0.5028830766677856,-1.0093987623797815,1.1383936907805037e-05,-0.08760377764701843,0.41083383560180664,-1.1711400402703327e-24,0.02821774035692215,0.979638397693634,3.1886444048723206e-05,0.18589991331100464
365.0,562.0,6.7843,-2.0859,6.0891,-0.1545,0.3329,0.1213,-1.6249438724913539,-0.37151220440864563,1.8161547183990479,-1.5063563585281372,0.0008005840936675668,2.1339945793151855,4.089485331172607,0.7916934490203857,0.5074465274810791,-1.0094111601458948,1.0967753951263148e-05,-0.07163059711456299,0.410782128572464,-3.259911598116201e-28,0.03856220841407776,0.9795978665351868,2.8822785679949448e-05,0.15442496538162231
365.0,562.0,6.7843,-2.0859,6.0891,-0.1545,0.3329,0.1213,-1.6272183857359828,-0.36473843455314636,1.8907134532928467,-1.5063037872314453,0.0007919021300040185,2.0998284816741943,4.094192667598389,0.7957766056060791,0.4900945723056793,-1.0093992392169397,1.0580928574199788e-05,-0.07827058434486389,0.41082268953323364,-9.074084643114673e-32,0.027830444276332855,0.9796141982078552,2.0288634661191907e-10,0.17947354912757874
