ramyac6/ROB537/final_project/csv/bad/bad_45.csv
tof_0,tof_1,accelx,accely,accelz,gyrox,gyroy,gyroz,shoulder_lift_joint_position,shoulder_lift_joint_velocity,shoulder_lift_joint_effort,elbow_joint_position,elbow_joint_velocity,elbow_joint_effort,wrist_1_joint_position,wrist_1_joint_velocity,wrist_1_joint_effort,wrist_2_joint_position,wrist_2_joint_velocity,wrist_2_joint_effort,wrist_3_joint_position,wrist_3_joint_velocity,wrist_3_joint_effort,shoulder_pan_joint_position,shoulder_pan_joint_velocity,shoulder_pan_joint_effort
267.0,515.0,-0.8154,0.6168,9.6359,-0.0496,0.0215,-0.1171,-1.9827953777708949,0.0,3.6914920806884766,-1.6508904695510864,-0.0,1.9763860702514648,5.176628517895498,0.0,0.2663804292678833,-1.6212266127215784,0.0,-0.009969813749194145,-0.05189496675600225,-0.0,-0.0004966220585629344,1.2615814208984375,0.0,0.012047036550939083
267.0,515.0,-0.8154,0.6168,9.6359,-0.0496,0.0215,-0.1171,-1.982823988000387,0.0,3.6677145957946777,-1.6509023904800415,-0.0,1.912621021270752,5.17665262797431,0.0,0.28132742643356323,-1.6212104002581995,0.0,-0.016714122146368027,-0.05184680620302373,-0.0,-0.007034140173345804,1.2615610361099243,0.0,0.014094367623329163
267.0,515.0,-0.8154,0.6168,9.6359,-0.0496,0.0215,-0.1171,-1.982779165307516,0.0,3.635267972946167,-1.6508498191833496,-0.0,1.9848577976226807,5.17664863446311,0.0,0.26191243529319763,-1.6212027708636683,0.0,-0.002734692534431815,-0.05192310014833623,-0.0,0.012789126485586166,1.2615532875061035,0.0,0.007840894162654877
267.0,515.0,-0.8154,0.6168,9.6359,-0.0496,0.0215,-0.1171,-1.982840200463766,0.0,3.6767261028289795,-1.6508419513702393,-0.0,1.8678038120269775,5.176608311920919,0.0,0.2659887969493866,-1.621218506489889,0.0,-0.011645807884633541,-0.05194312730898076,-0.0,0.007108327466994524,1.2615855932235718,0.0,0.006542916409671307
267.0,515.0,-0.8154,0.6168,9.6359,-0.0496,0.0215,-0.1171,-1.982812067071432,0.0,3.6850571632385254,-1.650910496711731,-0.0,1.969826579093933,5.176620471268453,0.0,0.2475123107433319,-1.62126332918276,0.0,-0.009821750223636627,-0.05186683336366826,-0.0,0.006988562643527985,1.2615814208984375,0.0,0.02358553186058998
267.0,515.0,-0.8154,0.6168,9.6359,-0.0496,0.0215,-0.1171,-1.9828359089293421,0.0,3.625765800476074,-1.6508738994598389,-0.0,1.9439764022827148,5.176600473910131,0.0,0.27460747957229614,-1.6212423483477991,0.0,0.004736925475299358,-0.0519030729876917,-0.0,0.011601543985307217,1.2615773677825928,0.0,-0.04027814790606499
267.0,515.0,-0.8154,0.6168,9.6359,-0.0496,0.0215,-0.1171,-1.9827991924681605,0.0,3.695446014404297,-1.65085768699646,-0.0,1.9388315677642822,5.176636445313253,0.0,0.258626788854599,-1.6212428251849573,0.0,-0.009035114198923111,-0.05192691484560186,-0.0,0.010960442014038563,1.2615936994552612,0.0,-0.010414285585284233
267.0,515.0,-0.8154,0.6168,9.6359,-0.0496,0.0215,-0.1171,-1.9828196964659632,0.0,3.712325096130371,-1.6508822441101074,-0.0,1.9401607513427734,5.176624583988943,0.0,0.27430060505867004,-1.6212671438800257,0.0,-0.00590173713862896,-0.051862541829244435,-0.0,0.01025841012597084,1.2616056203842163,0.0,0.012285259552299976
267.0,515.0,-0.8154,0.6168,9.6359,-0.0496,0.0215,-0.1171,-1.982767244378561,0.0,3.6268677711486816,-1.6508657932281494,-0.0,1.9544651508331299,5.176612365036764,0.0,0.25612780451774597,-1.6212509314166468,0.0,-0.010464008897542953,-0.051887337361471,-0.0,0.0013057058677077293,1.2615573406219482,0.0,-0.004834991879761219
271.0,587.0,-0.8154,0.6185,9.5749,-0.0362,0.0275,-0.1104,-1.9828115902342738,0.0,3.6901540756225586,-1.650829792022705,-0.0,1.984410285949707,5.1766724465186975,0.0,0.26137155294418335,-1.6212671438800257,0.0,-0.007596608251333237,-0.05193072954286748,-0.0,-0.0006988249369896948,1.2616056203842163,0.0,0.014727409929037094
271.0,587.0,-0.8154,0.6185,9.5749,-0.0362,0.0275,-0.1104,-1.9827872715392054,0.0,3.701502561569214,-1.6508779525756836,-0.0,1.9758923053741455,5.17667646983222,0.0,0.2609226405620575,-1.6212347189532679,0.0,-0.0014161497820168734,-0.05191499391664678,-0.0,0.004106953740119934,1.2615973949432373,0.0,-0.0026413938030600548
271.0,587.0,-0.8154,0.6185,9.5749,-0.0362,0.0275,-0.1104,-1.9828115902342738,0.0,3.707709789276123,-1.6508419513702393,-0.0,1.9296056032180786,5.176640796452322,0.0,0.2630918323993683,-1.6212790648089808,0.0,-0.013849013485014439,-0.05190736452211553,-0.0,-0.002108376706019044,1.2615814208984375,0.0,-0.016499832272529602
271.0,587.0,-0.8154,0.6185,9.5749,-0.0362,0.0275,-0.1104,-1.9828483066954554,0.0,3.7131247520446777,-1.6508903503417969,-0.0,1.9620497226715088,5.176684546261587,0.0,0.25514084100723267,-1.6212065855609339,0.0,-0.00487015675753355,-0.05186635652651006,-0.0,-0.005959236994385719,1.2615491151809692,0.0,0.0013519451022148132
271.0,587.0,-0.8154,0.6185,9.5749,-0.0362,0.0275,-0.1104,-1.9827953777708949,0.0,3.679037570953369,-1.6508498191833496,-0.0,1.948122501373291,5.176636683731832,0.0,0.2733733057975769,-1.6212714354144495,0.0,-0.0024830917827785015,-0.05191499391664678,-0.0,-0.005439987871795893,1.2615814208984375,0.0,0.023950226604938507
271.0,587.0,-0.8154,0.6185,9.5749,-0.0362,0.0275,-0.1104,-1.9828602276244105,0.0,3.6962690353393555,-1.6508538722991943,-0.0,1.9639075994491577,5.17663266041831,0.0,0.26298123598098755,-1.621246639882223,0.0,-0.020101891830563545,-0.051938835774556935,-0.0,-0.0027730311267077923,1.2615814208984375,0.0,-0.0239565446972847
271.0,587.0,-0.8154,0.6185,9.5749,-0.0362,0.0275,-0.1104,-1.982823988000387,0.0,3.678040027618408,-1.6508419513702393,-0.0,1.9938771724700928,5.17665262797431,0.0,0.26009854674339294,-1.6212423483477991,0.0,0.006424357183277607,-0.05183869997133428,-0.0,-0.0036758852656930685,1.2615814208984375,0.0,-0.01824956014752388
271.0,587.0,-0.8154,0.6185,9.5749,-0.0362,0.0275,-0.1104,-1.9827991924681605,0.0,3.6771273612976074,-1.6508779525756836,-0.0,1.8999751806259155,5.17665262797431,0.0,0.2576960325241089,-1.6212871710406702,0.0,-0.0018135651480406523,-0.051874939595357716,-0.0,0.002841969020664692,1.261565089225769,0.0,-0.029495298862457275
271.0,587.0,-0.8154,0.6185,9.5749,-0.0362,0.0275,-0.1104,-1.9827996693053187,0.0,3.6473703384399414,-1.6508538722991943,-0.0,1.946190357208252,5.17665262797431,0.0,0.2742883563041687,-1.6212671438800257,0.0,-0.007288895547389984,-0.05191499391664678,-0.0,-0.003811371512711048,1.2615610361099243,0.0,-0.0045289210975170135
271.0,587.0,-0.8154,0.6185,9.5749,-0.0362,0.0275,-0.1104,-1.9827996693053187,0.0,3.699800729751587,-1.6508822441101074,-0.0,1.9167249202728271,5.176596390991964,0.0,0.2713839113712311,-1.62126332918276,0.0,-0.011534854769706726,-0.051906887684957326,-0.0,0.01456750463694334,1.2615936994552612,0.0,-0.0015482180751860142
271.0,587.0,-0.8154,0.6185,9.5749,-0.0362,0.0275,-0.1104,-1.9828320942320765,0.0,3.661668539047241,-1.6508419513702393,-0.0,1.8823611736297607,5.17665262797431,0.0,0.2709439992904663,-1.6212270895587366,0.0,-0.0039090909995138645,-0.051882568989888966,-0.0,-0.004187581595033407,1.261508584022522,0.0,-0.03135424852371216
271.0,587.0,-0.8154,0.6185,9.5749,-0.0362,0.0275,-0.1104,-1.9828363857665003,0.0,3.7118546962738037,-1.6508338451385498,-0.0,1.938279151916504,5.17662854769782,0.0,0.2791624367237091,-1.6212347189532679,0.0,-0.0015463667223230004,-0.051906887684957326,-0.0,0.0012495629489421844,1.2615532875061035,0.0,0.010515660047531128
271.0,587.0,-0.8154,0.6185,9.5749,-0.0362,0.0275,-0.1104,-1.9828196964659632,0.0,3.642731189727783,-1.6508255004882812,-0.0,2.005584478378296,5.176612365036764,0.0,0.2687588334083557,-1.6212385336505335,0.0,-0.00427754782140255,-0.05193454424013311,-0.0,0.001958263572305441,1.2615692615509033,0.0,0.006943279877305031
271.0,587.0,-0.8154,0.6185,9.5749,-0.0362,0.0275,-0.1104,-1.9827872715392054,0.0,3.6993649005889893,-1.6508903503417969,-0.0,1.9222431182861328,5.176620411663809,0.0,0.262133926153183,-1.6212266127215784,0.0,-0.008366853930056095,-0.05189496675600225,-0.0,-0.002799705369397998,1.2615814208984375,0.0,0.018996549770236015
271.0,587.0,-0.8154,0.6185,9.5749,-0.0362,0.0275,-0.1104,-1.9828115902342738,0.0,3.672044038772583,-1.6508657932281494,-0.0,1.948439121246338,5.176632571011343,0.0,0.2659290134906769,-1.6212871710406702,0.0,-0.021206634119153023,-0.05186683336366826,-0.0,-0.002735282527282834,1.2615450620651245,0.0,0.010994440875947475
271.0,587.0,-0.8154,0.6185,9.5749,-0.0362,0.0275,-0.1104,-1.9827872715392054,0.0,3.6931798458099365,-1.650857925415039,-0.0,1.9228219985961914,5.176624583988943,0.0,0.2722245454788208,-1.6212423483477991,0.0,0.0054108863696455956,-0.051911179219381154,-0.0,-0.0008229315862990916,1.2615491151809692,0.0,0.05324384570121765
266.0,516.0,-0.8201,0.6544,9.6185,-0.0357,0.0209,-0.1156,-1.9827834568419398,0.0,3.653568744659424,-1.6508456468582153,-0.0,1.9447364807128906,5.176640796452322,0.0,0.25879696011543274,-1.6212790648089808,0.0,-0.008727781474590302,-0.05194312730898076,-0.0,0.0088967802003026,1.261573314666748,0.0,0.029094118624925613
266.0,516.0,-0.8201,0.6544,9.6185,-0.0357,0.0209,-0.1156,-1.9828363857665003,0.0,3.6755638122558594,-1.6508498191833496,-0.0,1.966284990310669,5.176616388350286,0.0,0.26312071084976196,-1.6212509314166468,0.0,-0.0016124150715768337,-0.05192691484560186,-0.0,-0.0018799081444740295,1.2615529298782349,0.0,0.04383273422718048
266.0,516.0,-0.8201,0.6544,9.6185,-0.0357,0.0209,-0.1156,-1.982823988000387,0.0,3.684621810913086,-1.6509064435958862,-0.0,1.9244085550308228,5.176620411663809,0.0,0.26704564690589905,-1.6212385336505335,0.0,-0.00973576121032238,-0.05186349550356084,-0.0,-0.001649081357754767,1.2615610361099243,0.0,-0.030718818306922913
266.0,516.0,-0.8201,0.6544,9.6185,-0.0357,0.0209,-0.1156,-1.9827753506102503,0.0,3.7333579063415527,-1.6508822441101074,-0.0,1.9855682849884033,5.1766245541866205,0.0,0.2693142294883728,-1.6212385336505335,0.0,-0.00977630726993084,-0.05183011690248662,-0.0,0.005926560610532761,1.261581540107727,0.0,0.008807513862848282
266.0,516.0,-0.8201,0.6544,9.6185,-0.0357,0.0209,-0.1156,-1.9828316173949183,0.0,3.6538658142089844,-1.6509183645248413,-0.0,1.9435594081878662,5.176636683731832,0.0,0.26373472809791565,-1.6212146917926233,0.0,0.00937472190707922,-0.051911179219381154,-0.0,-0.0010778019204735756,1.2616093158721924,0.0,-0.01950749382376671
266.0,516.0,-0.8201,0.6544,9.6185,-0.0357,0.0209,-0.1156,-1.9828158817686976,0.0,3.6581027507781982,-1.6508456468582153,-0.0,1.9407963752746582,5.176636683731832,0.0,0.26938503980636597,-1.6212671438800257,0.0,-0.004371517803519964,-0.05192691484560186,-0.0,0.0037244483828544617,1.261565089225769,0.0,-0.024295318871736526
266.0,516.0,-0.8201,0.6544,9.6185,-0.0357,0.0209,-0.1156,-1.9828196964659632,0.0,3.6413021087646484,-1.6508616209030151,-0.0,1.962822675704956,5.176652955799856,0.0,0.2708926796913147,-1.62126332918276,0.0,-0.0003533284179866314,-0.05192691484560186,-0.0,-0.009500632993876934,1.2615814208984375,0.0,-0.001873980974778533
266.0,516.0,-0.8201,0.6544,9.6185,-0.0357,0.0209,-0.1156,-1.982828279534811,0.0,3.6654152870178223,-1.6508660316467285,-0.0,1.9641485214233398,5.176664548903265,0.0,0.27486881613731384,-1.621279541646139,0.0,-0.009546044282615185,-0.05185109773744756,-0.0,-0.008079415187239647,1.2615814208984375,0.0,0.030760997906327248
266.0,516.0,-0.8201,0.6544,9.6185,-0.0357,0.0209,-0.1156,-1.9828158817686976,0.0,3.662163496017456,-1.6508660316467285,-0.0,1.9787858724594116,5.176620411663809,0.0,0.2871551513671875,-1.6212347189532679,0.0,-0.014143579639494419,-0.051911179219381154,-0.0,-0.001988528296351433,1.2615692615509033,0.0,0.017961688339710236
266.0,516.0,-0.8201,0.6544,9.6185,-0.0357,0.0209,-0.1156,-1.9827953777708949,0.0,3.701359987258911,-1.6508903503417969,-0.0,1.9439985752105713,5.176660734205999,0.0,0.2577463984489441,-1.6212390104876917,0.0,-0.009635629132390022,-0.05192691484560186,-0.0,-0.0037842318415641785,1.2615855932235718,0.0,0.0013708302285522223
266.0,516.0,-0.8201,0.6544,9.6185,-0.0357,0.0209,-0.1156,-1.982828279534811,0.0,3.652127265930176,-1.6508779525756836,-0.0,1.9966866970062256,5.176628607302465,0.0,0.27065494656562805,-1.6212385336505335,0.0,-0.01479160226881504,-0.051845852528707326,-0.0,-0.0015922714956104755,1.261573314666748,0.0,0.050574325025081635
266.0,516.0,-0.8201,0.6544,9.6185,-0.0357,0.0209,-0.1156,-1.9827996693053187,0.0,3.708707809448242,-1.6508538722991943,-0.0,1.8971197605133057,5.176648604660787,0.0,0.27061375975608826,-1.6212347189532679,0.0,-0.0026541685219854116,-0.051874939595357716,-0.0,0.006803642027080059,1.2615936994552612,0.0,-0.007484866306185722
266.0,516.0,-0.8201,0.6544,9.6185,-0.0357,0.0209,-0.1156,-1.98280729869985,0.0,3.6775131225585938,-1.6508903503417969,-0.0,1.9470820426940918,5.176668572216787,0.0,0.27185261249542236,-1.6212752501117151,0.0,-0.010769523680210114,-0.051906887684957326,-0.0,-0.0010915241437032819,1.261613368988037,0.0,0.013491455465555191
266.0,516.0,-0.8201,0.6544,9.6185,-0.0357,0.0209,-0.1156,-1.982840200463766,0.0,3.6537933349609375,-1.650857925415039,-0.0,1.9383879899978638,5.176648604660787,0.0,0.27249544858932495,-1.6213153044330042,0.0,-0.0033999369479715824,-0.051906887684957326,-0.0,-0.0063824900425970554,1.2615610361099243,0.0,-0.015509234741330147
266.0,516.0,-0.8201,0.6544,9.6185,-0.0357,0.0209,-0.1156,-1.9828440151610316,0.0,3.651099681854248,-1.6508660316467285,-0.0,1.9698305130004883,5.176648604660787,0.0,0.2544875741004944,-1.6212590376483362,0.0,-0.0033460373524576426,-0.05190736452211553,-0.0,-0.0030424664728343487,1.261573314666748,0.0,-0.0012333090417087078
266.0,516.0,-0.8201,0.6544,9.6185,-0.0357,0.0209,-0.1156,-1.982828279534811,0.0,3.679948329925537,-1.6508214473724365,-0.0,1.9600169658660889,5.176688748389044,0.0,0.2703801691532135,-1.6212227980243128,0.0,-0.007979346439242363,-0.05191928545107061,-0.0,0.00560732651501894,1.2615773677825928,0.0,0.005019958131015301
281.0,514.0,-0.868,0.6239,9.5988,-0.0353,0.0269,-0.1162,-1.9828115902342738,0.0,3.681443691253662,-1.6508985757827759,-0.0,1.9499698877334595,5.1766326306159876,0.0,0.2687956690788269,-1.6212509314166468,0.0,-0.007893378846347332,-0.05192310014833623,-0.0,0.001464911736547947,1.2615290880203247,0.0,0.039055511355400085
281.0,514.0,-0.868,0.6239,9.5988,-0.0353,0.0269,-0.1162,-1.9828721485533656,0.0,3.711796998977661,-1.6509186029434204,-0.0,1.9133973121643066,5.176592308073797,0.0,0.26864320039749146,-1.6212027708636683,0.0,-0.008355928584933281,-0.05189115205873662,-0.0,0.0038135021459311247,1.261613368988037,0.0,-0.05254889652132988
281.0,514.0,-0.868,0.6239,9.5988,-0.0353,0.0269,-0.1162,-1.9828115902342738,0.0,3.619359016418457,-1.650857925415039,-0.0,1.9818904399871826,5.176628607302465,0.0,0.2744882106781006,-1.6213033835040491,0.0,-0.01796891912817955,-0.051874939595357716,-0.0,-0.0022715595550835133,1.2615973949432373,0.0,0.01710132323205471
281.0,514.0,-0.868,0.6239,9.5988,-0.0353,0.0269,-0.1162,-1.9827872715392054,0.0,3.642061710357666,-1.6508581638336182,-0.0,1.9276578426361084,5.176616358547964,0.0,0.27220529317855835,-1.6212428251849573,0.0,-0.011697670444846153,-0.05190736452211553,-0.0,0.005771317519247532,1.2615933418273926,0.0,-0.011186579242348671
281.0,514.0,-0.868,0.6239,9.5988,-0.0353,0.0269,-0.1162,-1.9828158817686976,0.0,3.6792092323303223,-1.6508941650390625,-0.0,2.002535581588745,5.176620411663809,0.0,0.2674807608127594,-1.621246639882223,0.0,-0.005258361808955669,-0.05189067522157842,-0.0,-0.006527083460241556,1.2615892887115479,0.0,0.03228069841861725
281.0,514.0,-0.868,0.6239,9.5988,-0.0353,0.0269,-0.1162,-1.9827829800047816,0.0,3.67680025100708,-1.6509264707565308,-0.0,1.9548084735870361,5.176628607302465,0.0,0.27750906348228455,-1.6212590376483362,0.0,0.004297679290175438,-0.051938835774556935,-0.0,-0.008953127078711987,1.2615450620651245,0.0,0.021864037960767746
281.0,514.0,-0.868,0.6239,9.5988,-0.0353,0.0269,-0.1162,-1.9827915630736292,0.0,3.662217140197754,-1.6508378982543945,-0.0,1.954248309135437,5.176644551544943,0.0,0.264451801776886,-1.6212347189532679,0.0,0.005691602826118469,-0.051887337361471,-0.0,0.008354995399713516,1.2616015672683716,0.0,-0.02615145407617092
281.0,514.0,-0.868,0.6239,9.5988,-0.0353,0.0269,-0.1162,-1.982828279534811,0.0,3.632216215133667,-1.6508619785308838,-0.0,1.9195001125335693,5.176672744541921,0.0,0.2738911509513855,-1.6212146917926233,0.0,-0.01992795057594776,-0.05191499391664678,-0.0,-0.0037958247121423483,1.2615692615509033,0.0,0.010255871340632439
281.0,514.0,-0.868,0.6239,9.5988,-0.0353,0.0269,-0.1162,-1.9827915630736292,0.0,3.693876266479492,-1.6508541107177734,-0.0,1.9937009811401367,5.176580387144842,0.0,0.2611442804336548,-1.62126332918276,0.0,-0.008044230751693249,-0.05185538927187139,-0.0,0.012392782606184483,1.2615491151809692,0.0,-0.02264293096959591
281.0,514.0,-0.868,0.6239,9.5988,-0.0353,0.0269,-0.1162,-1.9828115902342738,0.0,3.6462864875793457,-1.6508779525756836,-0.0,1.939563274383545,5.176640558033743,0.0,0.26357489824295044,-1.621246639882223,0.0,-0.003797993529587984,-0.051886860524312794,-0.0,0.0006341435946524143,1.2615731954574585,0.0,-0.02568100020289421
281.0,514.0,-0.868,0.6239,9.5988,-0.0353,0.0269,-0.1162,-1.982840200463766,0.0,3.7339060306549072,-1.6508419513702393,-0.0,1.9170477390289307,5.176604467421331,0.0,0.26688873767852783,-1.621230427418844,0.0,-0.007149270735681057,-0.051899258290426076,-0.0,0.0018117004074156284,1.2615410089492798,0.0,0.006980643607676029
281.0,514.0,-0.868,0.6239,9.5988,-0.0353,0.0269,-0.1162,-1.982823988000387,0.0,3.6249806880950928,-1.6508698463439941,-0.0,1.9411338567733765,5.176628577500143,0.0,0.27245858311653137,-1.6212347189532679,0.0,-0.010526209138333797,-0.051967922841207326,-0.0,-0.0018692947924137115,1.2615610361099243,0.0,-0.024494878947734833
281.0,514.0,-0.868,0.6239,9.5988,-0.0353,0.0269,-0.1162,-1.9828320942320765,0.0,3.710575580596924,-1.6508780717849731,-0.0,1.9272685050964355,5.176648604660787,0.0,0.27304205298423767,-1.621246639882223,0.0,-0.011127416975796223,-0.05191928545107061,-0.0,0.00017940171528607607,1.2615814208984375,0.0,0.016873005777597427
281.0,514.0,-0.868,0.6239,9.5988,-0.0353,0.0269,-0.1162,-1.9828359089293421,0.0,3.6740779876708984,-1.6508985757827759,-0.0,1.9106202125549316,5.176636683731832,0.0,0.2632761299610138,-1.6212146917926233,0.0,-0.008802426978945732,-0.051854912434713185,-0.0,-0.0010549550643190742,1.261597752571106,0.0,0.001897367648780346
281.0,514.0,-0.868,0.6239,9.5988,-0.0353,0.0269,-0.1162,-1.9828115902342738,0.0,3.6571359634399414,-1.6508172750473022,-0.0,1.919909954071045,5.176676499634542,0.0,0.2567348778247833,-1.6212833563434046,0.0,-0.0045701004564762115,-0.051862541829244435,-0.0,0.0054271025583148,1.2616015672683716,0.0,0.012398277409374714
281.0,514.0,-0.868,0.6239,9.5988,-0.0353,0.0269,-0.1162,-1.9828320942320765,0.0,3.7236971855163574,-1.6508656740188599,-0.0,1.9435300827026367,5.176676499634542,0.0,0.27160221338272095,-1.6212027708636683,0.0,0.0009569802787154913,-0.051911179219381154,-0.0,-0.01274995505809784,1.2615973949432373,0.0,0.0010572897735983133
271.0,500.0,-0.8285,0.6748,9.5892,-0.0342,0.0183,-0.1141,-1.9827753506102503,0.0,3.6869349479675293,-1.6509064435958862,-0.0,1.9169830083847046,5.176596361189642,0.0,0.26701074838638306,-1.6212671438800257,0.0,-0.006642139982432127,-0.05187064806093389,-0.0,0.005610563792288303,1.2615973949432373,0.0,-0.018199468031525612
271.0,500.0,-0.8285,0.6748,9.5892,-0.0342,0.0183,-0.1141,-1.98280729869985,0.0,3.665584087371826,-1.6508738994598389,-0.0,2.0017428398132324,5.176592606097021,0.0,0.2666272222995758,-1.6212423483477991,0.0,-0.006112286821007729,-0.05186683336366826,-0.0,0.0034226577263325453,1.2615773677825928,0.0,0.019968342036008835
271.0,500.0,-0.8285,0.6748,9.5892,-0.0342,0.0183,-0.1141,-1.9828034840025843,0.0,3.6368114948272705,-1.6508820056915283,-0.0,1.9618077278137207,5.176616358547964,0.0,0.2737463712692261,-1.6212428251849573,0.0,0.00031428562942892313,-0.05191070238222295,-0.0,0.00711892731487751,1.2615892887115479,0.0,-0.01802491582930088
271.0,500.0,-0.8285,0.6748,9.5892,-0.0342,0.0183,-0.1141,-1.9827872715392054,0.0,3.684988021850586,-1.6508296728134155,-0.0,1.9738874435424805,5.17664052823142,0.0,0.2809295952320099,-1.6212671438800257,0.0,-0.0033734857570379972,-0.051886860524312794,-0.0,-0.004212738946080208,1.2615933418273926,0.0,-0.025256872177124023
271.0,500.0,-0.8285,0.6748,9.5892,-0.0342,0.0183,-0.1141,-1.98280729869985,0.0,3.688992738723755,-1.6508698463439941,-0.0,1.9554812908172607,5.176648604660787,0.0,0.26256683468818665,-1.6212266127215784,0.0,-0.003906596917659044,-0.051951233540670216,-0.0,-0.0049720942042768,1.2616175413131714,0.0,0.025680433958768845
271.0,500.0,-0.8285,0.6748,9.5892,-0.0342,0.0183,-0.1141,-1.98280729869985,0.0,3.6733322143554688,-1.6508338451385498,-0.0,1.9531503915786743,5.176656770497122,0.0,0.2648410499095917,-1.6212146917926233,0.0,0.008099669590592384,-0.05201942125429326,-0.0,0.0038373717106878757,1.2615692615509033,0.0,0.02545127645134926
271.0,500.0,-0.8285,0.6748,9.5892,-0.0342,0.0183,-0.1141,-1.982823988000387,0.0,3.6431283950805664,-1.6508296728134155,-0.0,1.9775177240371704,5.1766724465186975,0.0,0.26524391770362854,-1.6212714354144495,0.0,-0.0022023471537977457,-0.0519030729876917,-0.0,-0.0014847859274595976,1.2615692615509033,0.0,-0.00340506830252707
271.0,500.0,-0.8285,0.6748,9.5892,-0.0342,0.0183,-0.1141,-1.9828483066954554,0.0,3.68281888961792,-1.6508538722991943,-0.0,1.940773844718933,5.176636683731832,0.0,0.26804468035697937,-1.621230427418844,0.0,-0.01436488889157772,-0.051938835774556935,-0.0,-0.004085787106305361,1.2615489959716797,0.0,-0.0065599726513028145
271.0,500.0,-0.8285,0.6748,9.5892,-0.0342,0.0183,-0.1141,-1.982828279534811,0.0,3.706265449523926,-1.6508985757827759,-0.0,1.9780704975128174,5.1766686020191095,0.0,0.2692405581474304,-1.6212509314166468,0.0,-0.0012923707254230976,-0.0519030729876917,-0.0,0.007728496566414833,1.2615610361099243,0.0,0.011258256621658802
271.0,500.0,-0.8285,0.6748,9.5892,-0.0342,0.0183,-0.1141,-1.982840200463766,0.0,3.6824913024902344,-1.650857925415039,-0.0,1.9256563186645508,5.176636683731832,0.0,0.26182860136032104,-1.6212671438800257,0.0,-0.003179240273311734,-0.051906887684957326,-0.0,0.006228396203368902,1.2616093158721924,0.0,-0.04237162694334984
271.0,500.0,-0.8285,0.6748,9.5892,-0.0342,0.0183,-0.1141,-1.9828034840025843,0.0,3.682997465133667,-1.6508419513702393,-0.0,1.9767251014709473,5.1766526875789545,0.0,0.2667044699192047,-1.621218506489889,0.0,0.005324447527527809,-0.05194694200624639,-0.0,0.0011803826782852411,1.261573314666748,0.0,-0.012665705755352974
271.0,500.0,-0.8285,0.6748,9.5892,-0.0342,0.0183,-0.1141,-1.9828115902342738,0.0,3.669278144836426,-1.6508864164352417,-0.0,1.9563071727752686,5.1766526875789545,0.0,0.26879170536994934,-1.6212509314166468,0.0,-0.00637729000300169,-0.051886860524312794,-0.0,-0.00531085766851902,1.2615814208984375,0.0,0.042037442326545715
271.0,500.0,-0.8285,0.6748,9.5892,-0.0342,0.0183,-0.1141,-1.9828115902342738,0.0,3.6732587814331055,-1.6508656740188599,-0.0,1.926360845565796,5.176676499634542,0.0,0.2710754871368408,-1.6212509314166468,0.0,0.0030499945860356092,-0.05185825029482061,-0.0,-0.0095292367041111,1.261565089225769,0.0,-0.018876198679208755
271.0,500.0,-0.8285,0.6748,9.5892,-0.0342,0.0183,-0.1141,-1.9828115902342738,0.0,3.6725172996520996,-1.6508538722991943,-0.0,1.9959712028503418,5.176624524384298,0.0,0.26043200492858887,-1.6212509314166468,0.0,0.0010661839041858912,-0.051899258290426076,-0.0,0.007320545148104429,1.2615892887115479,0.0,-0.042673904448747635
271.0,500.0,-0.8285,0.6748,9.5892,-0.0342,0.0183,-0.1141,-1.9828483066954554,0.0,3.666147232055664,-1.6508378982543945,-0.0,1.9602041244506836,5.176616358547964,0.0,0.282427579164505,-1.6212227980243128,0.0,-0.021313298493623734,-0.05192262331117803,-0.0,-0.0012652951991185546,1.2615491151809692,0.0,-0.0012431342620402575
271.0,500.0,-0.8285,0.6748,9.5892,-0.0342,0.0183,-0.1141,-1.9828196964659632,0.0,3.716639995574951,-1.6508296728134155,-0.0,1.9480559825897217,5.1766163287456415,0.0,0.2686583399772644,-1.6212671438800257,0.0,-0.011277721263468266,-0.05187875429262334,-0.0,0.0016813757829368114,1.2615852355957031,0.0,-0.01699703559279442
260.0,526.0,-0.8255,0.6855,9.6562,-0.0396,0.0131,-0.1098,-1.9828564129271449,0.0,3.674994468688965,-1.6508738994598389,-0.0,1.9530819654464722,5.176676767855444,0.0,0.26951825618743896,-1.6212671438800257,0.0,-0.016435736790299416,-0.05191070238222295,-0.0,0.008421392180025578,1.2615610361099243,0.0,-0.027795730158686638
260.0,526.0,-0.8255,0.6855,9.6562,-0.0396,0.0131,-0.1098,-1.98280729869985,0.0,3.6703038215637207,-1.650886058807373,-0.0,1.9511380195617676,5.176656740694799,0.0,0.2627986967563629,-1.6212509314166468,0.0,-0.003647441742941737,-0.051834885274068654,-0.0,9.365938603878021e-05,1.2615773677825928,0.0,0.001412276178598404
260.0,526.0,-0.8255,0.6855,9.6562,-0.0396,0.0131,-0.1098,-1.9827996693053187,0.0,3.6502089500427246,-1.6508538722991943,-0.0,1.931577444076538,5.176676767855444,0.0,0.27123671770095825,-1.6212347189532679,0.0,-0.01107232179492712,-0.05191928545107061,-0.0,-0.011009996756911278,1.2615855932235718,0.0,-0.01901678368449211
260.0,526.0,-0.8255,0.6855,9.6562,-0.0396,0.0131,-0.1098,-1.982840200463766,0.0,3.6540451049804688,-1.6508944034576416,-0.0,1.9588978290557861,5.1766326306159876,0.0,0.26966315507888794,-1.6212347189532679,0.0,-0.007486298214644194,-0.05187875429262334,-0.0,-0.002964196726679802,1.261553168296814,0.0,0.037745676934719086
260.0,526.0,-0.8255,0.6855,9.6562,-0.0396,0.0131,-0.1098,-1.982751031915182,0.0,3.660773992538452,-1.6509543657302856,-0.0,1.9494808912277222,5.176652657776632,0.0,0.27435386180877686,-1.6212547461139124,0.0,0.006520700175315142,-0.05189496675600225,-0.0,0.008065104484558105,1.2616093158721924,0.0,0.004603273700922728
260.0,526.0,-0.8255,0.6855,9.6562,-0.0396,0.0131,-0.1098,-1.982828279534811,0.0,3.641141414642334,-1.6508378982543945,-0.0,1.9382102489471436,5.176600384503164,0.0,0.2588841915130615,-1.621230427418844,0.0,-0.008214588277041912,-0.05191499391664678,-0.0,0.003203162457793951,1.261609673500061,0.0,0.029420871287584305
260.0,526.0,-0.8255,0.6855,9.6562,-0.0396,0.0131,-0.1098,-1.9828115902342738,0.0,3.682210683822632,-1.6508903503417969,-0.0,1.9195599555969238,5.176684903889456,0.0,0.2715090811252594,-1.6212347189532679,0.0,-0.0004718940472230315,-0.05191070238222295,-0.0,-0.002439748030155897,1.2615410089492798,0.0,-0.010777865536510944
260.0,526.0,-0.8255,0.6855,9.6562,-0.0396,0.0131,-0.1098,-1.982840200463766,0.0,3.661836862564087,-1.6508660316467285,-0.0,1.937631607055664,5.176660853415289,0.0,0.2681933641433716,-1.6212833563434046,0.0,-0.004744878038764,-0.05183869997133428,-0.0,-0.005343638826161623,1.26152503490448,0.0,0.008643409237265587
260.0,526.0,-0.8255,0.6855,9.6562,-0.0396,0.0131,-0.1098,-1.982852121392721,0.0,3.6355414390563965,-1.6508255004882812,-0.0,1.9539496898651123,5.176648604660787,0.0,0.2583906650543213,-1.6212223211871546,0.0,-0.004665707238018513,-0.051951233540670216,-0.0,0.007418482098728418,1.2615692615509033,0.0,0.040588654577732086
260.0,526.0,-0.8255,0.6855,9.6562,-0.0396,0.0131,-0.1098,-1.98280729869985,0.0,3.7123770713806152,-1.650857925415039,-0.0,1.9744534492492676,5.176648604660787,0.0,0.2730364203453064,-1.6212714354144495,0.0,-0.007494180463254452,-0.051899258290426076,-0.0,0.001059093396179378,1.2616056203842163,0.0,-0.005539521109312773
260.0,526.0,-0.8255,0.6855,9.6562,-0.0396,0.0131,-0.1098,-1.9828158817686976,0.0,3.6465635299682617,-1.6508616209030151,-0.0,1.947385311126709,5.1766646085079095,0.0,0.26989060640335083,-1.6212266127215784,0.0,0.0023919143714010715,-0.05185443559755498,-0.0,-0.00657705869525671,1.2615692615509033,0.0,-0.026731153950095177
260.0,526.0,-0.8255,0.6855,9.6562,-0.0396,0.0131,-0.1098,-1.9828034840025843,0.0,3.673943042755127,-1.6508538722991943,-0.0,1.9492093324661255,5.176660853415289,0.0,0.2694512605667114,-1.62126332918276,0.0,-0.001811382593587041,-0.05187064806093389,-0.0,-0.004988145083189011,1.2615491151809692,0.0,-0.04269837588071823
260.0,526.0,-0.8255,0.6855,9.6562,-0.0396,0.0131,-0.1098,-1.9828359089293421,0.0,3.6501717567443848,-1.6508498191833496,-0.0,1.9665518999099731,5.176652657776632,0.0,0.2713457942008972,-1.6212266127215784,0.0,-0.0009101917967200279,-0.05193502107729131,-0.0,0.010810129344463348,1.2615691423416138,0.0,0.02265292778611183
260.0,526.0,-0.8255,0.6855,9.6562,-0.0396,0.0131,-0.1098,-1.982828279534811,0.0,3.6835622787475586,-1.650857925415039,-0.0,1.930626630783081,5.176648604660787,0.0,0.2725788354873657,-1.621246639882223,0.0,-0.0099587831646204,-0.05189115205873662,-0.0,0.0015220431378111243,1.261573314666748,0.0,-0.0164477601647377
260.0,526.0,-0.8255,0.6855,9.6562,-0.0396,0.0131,-0.1098,-1.9828115902342738,0.0,3.6445083618164062,-1.6508698463439941,-0.0,1.9507554769515991,5.176664578705587,0.0,0.26782986521720886,-1.6212423483477991,0.0,-0.009089471772313118,-0.05187064806093389,-0.0,-0.003580524120479822,1.2615692615509033,0.0,0.014151416718959808
260.0,526.0,-0.8255,0.6855,9.6562,-0.0396,0.0131,-0.1098,-1.9828483066954554,0.0,3.646977663040161,-1.6508171558380127,-0.0,1.9760611057281494,5.176640826254644,0.0,0.27225199341773987,-1.621246639882223,0.0,-0.009135960601270199,-0.05189115205873662,-0.0,0.00360218551941216,1.2615814208984375,0.0,-0.008318397216498852
269.0,558.0,-0.8399,0.6479,9.5815,-0.0333,0.0206,-0.1113,-1.982840200463766,0.0,3.6711676120758057,-1.650857925415039,-0.0,1.9565331935882568,5.176660525589742,0.0,0.2697274386882782,-1.6212509314166468,0.0,-0.009055092930793762,-0.05189496675600225,-0.0,0.007813925854861736,1.2615933418273926,0.0,-0.01150556467473507
269.0,558.0,-0.8399,0.6479,9.5815,-0.0333,0.0206,-0.1113,-1.9827953777708949,0.0,3.633913516998291,-1.6508864164352417,-0.0,1.957019567489624,5.176620381861486,0.0,0.27846559882164,-1.621218506489889,0.0,-0.007135727442800999,-0.05183917680849248,-0.0,-0.006054885685443878,1.2615814208984375,0.0,-0.044622182846069336
269.0,558.0,-0.8399,0.6479,9.5815,-0.0333,0.0206,-0.1113,-1.9827596149840296,0.0,3.690448760986328,-1.6508822441101074,-0.0,1.9420632123947144,5.1766326306159876,0.0,0.26034021377563477,-1.6212590376483362,0.0,-0.008673244155943394,-0.05186683336366826,-0.0,-0.01697452738881111,1.2615610361099243,0.0,-0.016718555241823196
269.0,558.0,-0.8399,0.6479,9.5815,-0.0333,0.0206,-0.1113,-1.9827996693053187,0.0,3.677067518234253,-1.6508619785308838,-0.0,1.9196124076843262,5.176640498429098,0.0,0.26748955249786377,-1.6212266127215784,0.0,0.013532988727092743,-0.05185920396913701,-0.0,0.00462412741035223,1.2615573406219482,0.0,-0.05988277867436409
269.0,558.0,-0.8399,0.6479,9.5815,-0.0333,0.0206,-0.1113,-1.9827915630736292,0.0,3.692178964614868,-1.6508738994598389,-0.0,1.9579353332519531,5.176705020457067,0.0,0.2701425552368164,-1.6212671438800257,0.0,0.005152823403477669,-0.051874939595357716,-0.0,0.0015211032005026937,1.2616212368011475,0.0,-0.024243628606200218
269.0,558.0,-0.8399,0.6479,9.5815,-0.0333,0.0206,-0.1113,-1.982852121392721,0.0,3.68184232711792,-1.650857925415039,-0.0,1.990189552307129,5.1765925762946985,0.0,0.2697286307811737,-1.6212385336505335,0.0,-0.005722863133996725,-0.0519025961505335,-0.0,0.016544898971915245,1.2615610361099243,0.0,0.008585598319768906
269.0,558.0,-0.8399,0.6479,9.5815,-0.0333,0.0206,-0.1113,-1.982828279534811,0.0,3.6721529960632324,-1.6508456468582153,-0.0,1.9030616283416748,5.1766326306159876,0.0,0.2867443263530731,-1.6212385336505335,0.0,-0.012567245401442051,-0.051874939595357716,-0.0,-0.005451510660350323,1.2616015672683716,0.0,-0.02417752891778946
269.0,558.0,-0.8399,0.6479,9.5815,-0.0333,0.0206,-0.1113,-1.98280729869985,0.0,3.675051212310791,-1.650821328163147,-0.0,1.9371339082717896,5.176660525589742,0.0,0.2634738087654114,-1.62126332918276,0.0,-0.011759990826249123,-0.051874939595357716,-0.0,-0.0028520170599222183,1.2615855932235718,0.0,0.05562673136591911
269.0,558.0,-0.8399,0.6479,9.5815,-0.0333,0.0206,-0.1113,-1.9827915630736292,0.0,3.6741037368774414,-1.6508698463439941,-0.0,1.9510917663574219,5.176624524384298,0.0,0.27423155307769775,-1.62126332918276,0.0,-0.013865017332136631,-0.051874939595357716,-0.0,-0.0046753063797950745,1.261565089225769,0.0,-0.03218558430671692
269.0,558.0,-0.8399,0.6479,9.5815,-0.0333,0.0206,-0.1113,-1.9827715359129847,0.0,3.6916322708129883,-1.650857925415039,-0.0,1.9461935758590698,5.1766326306159876,0.0,0.25806155800819397,-1.6212547461139124,0.0,-0.0032039848156273365,-0.05191070238222295,-0.0,-0.001175499870441854,1.261573314666748,0.0,0.024437928572297096
269.0,558.0,-0.8399,0.6479,9.5815,-0.0333,0.0206,-0.1113,-1.9827991924681605,0.0,3.593721866607666,-1.650821328163147,-0.0,1.9584391117095947,5.176600354700842,0.0,0.2631300091743469,-1.6212347189532679,0.0,0.002463720738887787,-0.05191070238222295,-0.0,0.011899377219378948,1.261565089225769,0.0,-0.00575796514749527
269.0,558.0,-0.8399,0.6479,9.5815,-0.0333,0.0206,-0.1113,-1.9828158817686976,0.0,3.7048206329345703,-1.650910496711731,-0.0,1.8985669612884521,5.1766163287456415,0.0,0.26212263107299805,-1.6212266127215784,0.0,0.0015051939990371466,-0.051886860524312794,-0.0,-0.0029362442437559366,1.2615933418273926,0.0,0.008402490988373756
269.0,558.0,-0.8399,0.6479,9.5815,-0.0333,0.0206,-0.1113,-1.9827915630736292,0.0,3.660115957260132,-1.650857925415039,-0.0,1.9539856910705566,5.176644551544943,0.0,0.25926217436790466,-1.6212146917926233,0.0,0.0018761849496513605,-0.05187064806093389,-0.0,-0.005857369396835566,1.261613368988037,0.0,-0.02228979952633381
269.0,558.0,-0.8399,0.6479,9.5815,-0.0333,0.0206,-0.1113,-1.9827715359129847,0.0,3.6504507064819336,-1.6509143114089966,-0.0,1.9548637866973877,5.176676499634542,0.0,0.26680970191955566,-1.6212833563434046,0.0,-0.006060718093067408,-0.05189496675600225,-0.0,0.006206177640706301,1.2615773677825928,0.0,-0.017025722190737724
269.0,558.0,-0.8399,0.6479,9.5815,-0.0333,0.0206,-0.1113,-1.9828440151610316,0.0,3.6919422149658203,-1.6508945226669312,-0.0,1.9110186100006104,5.176656472473898,0.0,0.2646767199039459,-1.6212428251849573,0.0,-0.0013644556747749448,-0.051906887684957326,-0.0,-0.004615489859133959,1.2615896463394165,0.0,-0.010125045664608479
269.0,558.0,-0.8399,0.6479,9.5815,-0.0333,0.0206,-0.1113,-1.982823988000387,0.0,3.7045745849609375,-1.6508864164352417,-0.0,2.0006299018859863,5.176652657776632,0.0,0.26537179946899414,-1.621230427418844,0.0,-0.006845041643828154,-0.05188304582704717,-0.0,0.0025325557217001915,1.2615373134613037,0.0,0.04244237020611763
274.0,580.0,-0.865,0.6401,9.6443,-0.0342,0.0192,-0.1184,-1.9828559360899867,0.0,3.709521770477295,-1.6509424448013306,-0.0,1.98525071144104,5.176644551544943,0.0,0.26849135756492615,-1.6212146917926233,0.0,-0.010505210608243942,-0.05185825029482061,-0.0,0.003843252081423998,1.2615290880203247,0.0,-0.019959114491939545
274.0,580.0,-0.865,0.6401,9.6443,-0.0342,0.0192,-0.1184,-1.9828483066954554,0.0,3.670104503631592,-1.6508538722991943,-0.0,1.912247896194458,5.176644879370489,0.0,0.2662699818611145,-1.62126332918276,0.0,-0.007534421980381012,-0.051931206380025685,-0.0,0.018149297684431076,1.261565089225769,0.0,-0.010461892001330853
274.0,580.0,-0.865,0.6401,9.6443,-0.0342,0.0192,-0.1184,-1.9827953777708949,0.0,3.681696891784668,-1.6508058309555054,-0.0,1.9219181537628174,5.176628577500143,0.0,0.2620120942592621,-1.6212871710406702,0.0,-0.004615881014615297,-0.05191928545107061,-0.0,-0.0038827836979180574,1.2615855932235718,0.0,0.03251013159751892
274.0,580.0,-0.865,0.6401,9.6443,-0.0342,0.0192,-0.1184,-1.9827953777708949,0.0,3.7301011085510254,-1.6508822441101074,-0.0,1.9700570106506348,5.1766163287456415,0.0,0.2711312174797058,-1.6212952772723597,0.0,-0.013392241671681404,-0.051874939595357716,-0.0,0.009802037850022316,1.2616175413131714,0.0,0.02476625330746174
274.0,580.0,-0.865,0.6401,9.6443,-0.0342,0.0192,-0.1184,-1.9828158817686976,0.0,3.666867256164551,-1.6508780717849731,-0.0,1.9599617719650269,5.176632272988119,0.0,0.26695534586906433,-1.6212104002581995,0.0,-0.0051299091428518295,-0.05193072954286748,-0.0,-0.0048512062057852745,1.2615973949432373,0.0,0.01531510055065155
274.0,580.0,-0.865,0.6401,9.6443,-0.0342,0.0192,-0.1184,-1.98280729869985,0.0,3.7026307582855225,-1.6508698463439941,-0.0,1.9239275455474854,5.176644551544943,0.0,0.27575600147247314,-1.621230427418844,0.0,-0.009610967710614204,-0.05182248750795537,-0.0,-0.0029512690380215645,1.2616215944290161,0.0,-0.013466976583003998
274.0,580.0,-0.865,0.6401,9.6443,-0.0342,0.0192,-0.1184,-1.9827996693053187,0.0,3.695465564727783,-1.6509023904800415,-0.0,1.9286763668060303,5.176688778191366,0.0,0.2750844955444336,-1.6212547461139124,0.0,0.0019672957714647055,-0.05191499391664678,-0.0,0.00503525510430336,1.2615331411361694,0.0,-0.03257264569401741
274.0,580.0,-0.865,0.6401,9.6443,-0.0342,0.0192,-0.1184,-1.9827872715392054,0.0,3.6896443367004395,-1.6509143114089966,-0.0,1.9504848718643188,5.176608252316274,0.0,0.2811822295188904,-1.6212714354144495,0.0,-0.0012466737534850836,-0.05185825029482061,-0.0,-0.013832978904247284,1.2615692615509033,0.0,-0.004291435703635216
274.0,580.0,-0.865,0.6401,9.6443,-0.0342,0.0192,-0.1184,-1.982767244378561,0.0,3.6684579849243164,-1.6509023904800415,-0.0,1.961916446685791,5.1766404686267755,0.0,0.2719399631023407,-1.621246639882223,0.0,0.009248854592442513,-0.05189115205873662,-0.0,0.006719093304127455,1.2616056203842163,0.0,-0.01896667666733265
274.0,580.0,-0.865,0.6401,9.6443,-0.0342,0.0192,-0.1184,-1.9827953777708949,0.0,3.712651014328003,-1.6507935523986816,-0.0,1.9270426034927368,5.176672804146566,0.0,0.27038899064064026,-1.6212266127215784,0.0,-0.015076139941811562,-0.051906887684957326,-0.0,0.001951992278918624,1.2616175413131714,0.0,-0.002481114352121949
274.0,580.0,-0.865,0.6401,9.6443,-0.0342,0.0192,-0.1184,-1.982767721215719,0.0,3.68772554397583,-1.6508738994598389,-0.0,1.9308687448501587,5.176656830101766,0.0,0.27844563126564026,-1.6212223211871546,0.0,-0.01140657626092434,-0.05191070238222295,-0.0,0.005894097033888102,1.261565089225769,0.0,-0.01738278567790985
274.0,580.0,-0.865,0.6401,9.6443,-0.0342,0.0192,-0.1184,-1.9828158817686976,0.0,3.67791485786438,-1.6509220600128174,-0.0,1.986534833908081,5.17663665392951,0.0,0.2523488998413086,-1.621230427418844,0.0,-0.0005949339829385281,-0.051886860524312794,-0.0,0.00038826162926852703,1.2615610361099243,0.0,0.07348188757896423
274.0,580.0,-0.865,0.6401,9.6443,-0.0342,0.0192,-0.1184,-1.9827872715392054,0.0,3.6865649223327637,-1.6508738994598389,-0.0,1.9606512784957886,5.176632600813665,0.0,0.26584675908088684,-1.6212266127215784,0.0,-0.001017749193124473,-0.051874939595357716,-0.0,-0.004956732038408518,1.2615973949432373,0.0,-0.03457079827785492
274.0,580.0,-0.865,0.6401,9.6443,-0.0342,0.0192,-0.1184,-1.9828320942320765,0.0,3.6600143909454346,-1.6508985757827759,-0.0,1.9812586307525635,5.176660525589742,0.0,0.2770002484321594,-1.6212509314166468,0.0,0.0010650776093825698,-0.05191499391664678,-0.0,-0.005711458623409271,1.261573314666748,0.0,0.04305505380034447
274.0,580.0,-0.865,0.6401,9.6443,-0.0342,0.0192,-0.1184,-1.9828158817686976,0.0,3.7027933597564697,-1.6508822441101074,-0.0,1.9331440925598145,5.176688778191366,0.0,0.2621529698371887,-1.621230427418844,0.0,-0.0011024073464795947,-0.0519030729876917,-0.0,0.0034198337234556675,1.2615290880203247,0.0,0.0007283478043973446
274.0,580.0,-0.865,0.6401,9.6443,-0.0342,0.0192,-0.1184,-1.9828196964659632,0.0,3.6687798500061035,-1.6508738994598389,-0.0,1.971775770187378,5.176656830101766,0.0,0.2642466723918915,-1.6212347189532679,0.0,-0.0035294489935040474,-0.05186683336366826,-0.0,0.0011972803622484207,1.2615610361099243,0.0,0.016507752239704132
267.0,552.0,-0.8758,0.6395,9.5175,-0.0386,0.0244,-0.1151,-1.9828034840025843,0.0,3.65994930267334,-1.650857925415039,-0.0,1.907210350036621,5.176636683731832,0.0,0.26018357276916504,-1.6212223211871546,0.0,-0.00830887071788311,-0.05191499391664678,-0.0,0.0015964750200510025,1.2615855932235718,0.0,0.003920494578778744
267.0,552.0,-0.8758,0.6395,9.5175,-0.0386,0.0244,-0.1151,-1.9827915630736292,0.0,3.669361114501953,-1.6508337259292603,-0.0,1.9721177816390991,5.176636683731832,0.0,0.27100223302841187,-1.6212223211871546,0.0,-0.008318377658724785,-0.0519030729876917,-0.0,0.0005574841052293777,1.2615573406219482,0.0,0.0011639408767223358
267.0,552.0,-0.8758,0.6395,9.5175,-0.0386,0.0244,-0.1151,-1.9828158817686976,0.0,3.638655424118042,-1.65084969997406,-0.0,1.9751596450805664,5.176636355906286,0.0,0.2705128490924835,-1.621230427418844,0.0,-0.00739575270563364,-0.05186683336366826,-0.0,-0.009558042511343956,1.2615290880203247,0.0,-0.029775749891996384
267.0,552.0,-0.8758,0.6395,9.5175,-0.0386,0.0244,-0.1151,-1.9828115902342738,0.0,3.6946516036987305,-1.6508296728134155,-0.0,1.9099637269973755,5.176652657776632,0.0,0.2767486572265625,-1.6212347189532679,0.0,-0.020203670486807823,-0.05194265047182256,-0.0,-0.0020493443589657545,1.2616215944290161,0.0,0.0012305835261940956
267.0,552.0,-0.8758,0.6395,9.5175,-0.0386,0.0244,-0.1151,-1.982828279534811,0.0,3.6830005645751953,-1.6508374214172363,-0.0,1.9034924507141113,5.176644909172811,0.0,0.2726839482784271,-1.6212428251849573,0.0,-0.00486712483689189,-0.05187064806093389,-0.0,0.007997163571417332,1.261565089225769,0.0,-0.0031678415834903717
267.0,552.0,-0.8758,0.6395,9.5175,-0.0386,0.0244,-0.1151,-1.9828440151610316,0.0,3.6926779747009277,-1.650846004486084,-0.0,1.9692350625991821,5.176664578705587,0.0,0.2771444022655487,-1.6212266127215784,0.0,-0.0025591086596250534,-0.051862541829244435,-0.0,0.004258956294506788,1.261565089225769,0.0,-0.03367380425333977
267.0,552.0,-0.8758,0.6395,9.5175,-0.0386,0.0244,-0.1151,-1.9828440151610316,0.0,3.6748907566070557,-1.6508738994598389,-0.0,1.9479482173919678,5.176652657776632,0.0,0.28067314624786377,-1.6212227980243128,0.0,-0.0002336374018341303,-0.051874939595357716,-0.0,0.005971299484372139,1.2615127563476562,0.0,-0.015340815298259258
267.0,552.0,-0.8758,0.6395,9.5175,-0.0386,0.0244,-0.1151,-1.9827753506102503,0.0,3.6549124717712402,-1.6508945226669312,-0.0,1.9726215600967407,5.176672804146566,0.0,0.2678180932998657,-1.6212385336505335,0.0,-0.01718980073928833,-0.051886860524312794,-0.0,-0.003326241159811616,1.261613368988037,0.0,-0.013554191216826439
267.0,552.0,-0.8758,0.6395,9.5175,-0.0386,0.0244,-0.1151,-1.9827710590758265,0.0,3.673845052719116,-1.6509147882461548,-0.0,1.9375454187393188,5.176628577500143,0.0,0.259162038564682,-1.6212509314166468,0.0,0.0024062367156147957,-0.05187446275819951,-0.0,0.006779190618544817,1.261544942855835,0.0,0.015560748055577278
267.0,552.0,-0.8758,0.6395,9.5175,-0.0386,0.0244,-0.1151,-1.9828602276244105,0.0,3.65963077545166,-1.650846004486084,-0.0,1.958066701889038,5.176668661623754,0.0,0.2821095585823059,-1.6212390104876917,0.0,-0.008076594211161137,-0.051862541829244435,-0.0,0.0028877186123281717,1.2615569829940796,0.0,0.016498463228344917
267.0,552.0,-0.8758,0.6395,9.5175,-0.0386,0.0244,-0.1151,-1.982828279534811,0.0,3.656522274017334,-1.6508656740188599,-0.0,1.9347624778747559,5.176616298943319,0.0,0.2647459805011749,-1.6212871710406702,0.0,-0.001342320116236806,-0.05187064806093389,-0.0,0.0017929158639162779,1.2615892887115479,0.0,-0.026685042306780815
267.0,552.0,-0.8758,0.6395,9.5175,-0.0386,0.0244,-0.1151,-1.9828440151610316,0.0,3.6488800048828125,-1.650857925415039,-0.0,1.9857385158538818,5.176616298943319,0.0,0.26477038860321045,-1.621230427418844,0.0,-0.004368347581475973,-0.051906887684957326,-0.0,-0.0002691691042855382,1.2616252899169922,0.0,0.010152270086109638
267.0,552.0,-0.8758,0.6395,9.5175,-0.0386,0.0244,-0.1151,-1.9828363857665003,0.0,3.667966365814209,-1.650857925415039,-0.0,1.9252995252609253,5.176664578705587,0.0,0.25964516401290894,-1.6212590376483362,0.0,-0.00951497070491314,-0.05186683336366826,-0.0,-0.001048205653205514,1.2615373134613037,0.0,-0.017263729125261307
267.0,552.0,-0.8758,0.6395,9.5175,-0.0386,0.0244,-0.1151,-1.9827953777708949,0.0,3.6820011138916016,-1.6508538722991943,-0.0,1.9503366947174072,5.176644551544943,0.0,0.27537456154823303,-1.6212104002581995,0.0,-0.010867615230381489,-0.05193502107729131,-0.0,-0.0029673934914171696,1.2615933418273926,0.0,0.008957968093454838
267.0,552.0,-0.8758,0.6395,9.5175,-0.0386,0.0244,-0.1151,-1.9827710590758265,0.0,3.713191032409668,-1.6508419513702393,-0.0,1.9704415798187256,5.176616298943319,0.0,0.26629963517189026,-1.6212266127215784,0.0,-0.0053369710221886635,-0.05191070238222295,-0.0,-0.014364026486873627,1.2616015672683716,0.0,-0.027243949472904205
267.0,552.0,-0.8758,0.6395,9.5175,-0.0386,0.0244,-0.1151,-1.9827834568419398,0.0,3.6589932441711426,-1.6508698463439941,-0.0,1.935737133026123,5.176652657776632,0.0,0.2669823169708252,-1.6212752501117151,0.0,-0.004414328373968601,-0.051862541829244435,-0.0,0.00677124410867691,1.2615973949432373,0.0,0.017141085118055344
267.0,552.0,-0.8758,0.6395,9.5175,-0.0386,0.0244,-0.1151,-1.9827753506102503,0.0,3.6979241371154785,-1.6508738994598389,-0.0,1.9031085968017578,5.176676499634542,0.0,0.26881343126296997,-1.6211908499347132,0.0,0.0029267296195030212,-0.05186683336366826,-0.0,0.0022456198930740356,1.2615692615509033,0.0,0.036109477281570435
271.0,523.0,-0.8859,0.6383,9.7047,-0.0405,0.0246,-0.1135,-1.98280729869985,0.0,3.696721315383911,-1.6508945226669312,-0.0,1.9454498291015625,5.176640826254644,0.0,0.2711344361305237,-1.621246639882223,0.0,-0.013066996820271015,-0.05189496675600225,-0.0,-0.007851779460906982,1.261565089225769,0.0,0.01758277416229248
271.0,523.0,-0.8859,0.6383,9.7047,-0.0405,0.0246,-0.1135,-1.9828196964659632,0.0,3.6804709434509277,-1.6508538722991943,-0.0,2.0025763511657715,5.176676499634542,0.0,0.25998160243034363,-1.6211941877948206,0.0,-0.002119016833603382,-0.05186683336366826,-0.0,-0.006144476123154163,1.2615610361099243,0.0,0.03611346706748009
271.0,523.0,-0.8859,0.6383,9.7047,-0.0405,0.0246,-0.1135,-1.9828034840025843,0.0,3.6805741786956787,-1.6508538722991943,-0.0,1.9370113611221313,5.176652657776632,0.0,0.2610616087913513,-1.6212671438800257,0.0,-0.00976947695016861,-0.051862541829244435,-0.0,-0.004212294239550829,1.2615773677825928,0.0,0.00447485689073801
271.0,523.0,-0.8859,0.6383,9.7047,-0.0405,0.0246,-0.1135,-1.9828115902342738,0.0,3.6590864658355713,-1.650829553604126,-0.0,1.9564836025238037,5.176660525589742,0.0,0.27296096086502075,-1.6212266127215784,0.0,-0.0033519610296934843,-0.051886860524312794,-0.0,0.0006362734129652381,1.2615491151809692,0.0,-0.006868351250886917
271.0,523.0,-0.8859,0.6383,9.7047,-0.0405,0.0246,-0.1135,-1.9828115902342738,0.0,3.6702005863189697,-1.6508538722991943,-0.0,1.952688217163086,5.176656830101766,0.0,0.2684057056903839,-1.6212871710406702,0.0,-0.0057961600832641125,-0.051862541829244435,-0.0,0.006598982959985733,1.2616015672683716,0.0,-0.04023679345846176
271.0,523.0,-0.8859,0.6383,9.7047,-0.0405,0.0246,-0.1135,-1.9828039608397425,0.0,3.6900534629821777,-1.6508501768112183,-0.0,1.98398756980896,5.176656830101766,0.0,0.2649790048599243,-1.6212671438800257,0.0,-0.0033327166456729174,-0.05189496675600225,-0.0,0.000364609993994236,1.2616056203842163,0.0,-0.021073607727885246
271.0,523.0,-0.8859,0.6383,9.7047,-0.0405,0.0246,-0.1135,-1.9828196964659632,0.0,3.661180257797241,-1.650902509689331,-0.0,1.9572734832763672,5.176604378014364,0.0,0.27759361267089844,-1.6212509314166468,0.0,0.004237469285726547,-0.051886860524312794,-0.0,0.0010847427183762193,1.2616015672683716,0.0,0.04623322933912277
271.0,523.0,-0.8859,0.6383,9.7047,-0.0405,0.0246,-0.1135,-1.9828683338561,0.0,3.674325942993164,-1.6508619785308838,-0.0,1.9558794498443604,5.1766728339488886,0.0,0.2773497402667999,-1.6212423483477991,0.0,0.004958281759172678,-0.05189496675600225,-0.0,-0.008756847120821476,1.2615573406219482,0.0,0.00021012313663959503
271.0,523.0,-0.8859,0.6383,9.7047,-0.0405,0.0246,-0.1135,-1.982823988000387,0.0,3.6484358310699463,-1.6508538722991943,-0.0,1.9457004070281982,5.176608162909307,0.0,0.26606905460357666,-1.6212347189532679,0.0,0.001800405909307301,-0.05191499391664678,-0.0,-0.001256987452507019,1.261573314666748,0.0,-0.015081875026226044
271.0,523.0,-0.8859,0.6383,9.7047,-0.0405,0.0246,-0.1135,-1.9828363857665003,0.0,3.7337417602539062,-1.6508821249008179,-0.0,1.9842684268951416,5.17667247632102,0.0,0.26600050926208496,-1.6212671438800257,0.0,-0.007161465939134359,-0.05189496675600225,-0.0,0.005877756979316473,1.2615491151809692,0.0,-0.0033674421720206738
271.0,523.0,-0.8859,0.6383,9.7047,-0.0405,0.0246,-0.1135,-1.9828196964659632,0.0,3.6519031524658203,-1.6508904695510864,-0.0,1.9271149635314941,5.176689106016912,0.0,0.2656821608543396,-1.62126332918276,0.0,0.0035194111987948418,-0.05185109773744756,-0.0,-0.00565629405900836,1.2615896463394165,0.0,0.0024458523839712143
271.0,523.0,-0.8859,0.6383,9.7047,-0.0405,0.0246,-0.1135,-1.9827953777708949,0.0,3.6788103580474854,-1.6508582830429077,-0.0,1.9805629253387451,5.17662854769782,0.0,0.26021653413772583,-1.6212027708636683,0.0,-0.0017631396185606718,-0.05189115205873662,-0.0,-0.0015130797401070595,1.2615855932235718,0.0,-0.009567373432219028
271.0,523.0,-0.8859,0.6383,9.7047,-0.0405,0.0246,-0.1135,-1.982852121392721,0.0,3.6869606971740723,-1.6508221626281738,-0.0,1.9414982795715332,5.176676529436865,0.0,0.2780437171459198,-1.6212752501117151,0.0,0.001044185133650899,-0.05189115205873662,-0.0,-0.0015188101679086685,1.2615410089492798,0.0,0.042257100343704224
271.0,523.0,-0.8859,0.6383,9.7047,-0.0405,0.0246,-0.1135,-1.982828279534811,0.0,3.691251754760742,-1.6508821249008179,-0.0,1.9520618915557861,5.176616269140997,0.0,0.27426356077194214,-1.621230427418844,0.0,-0.005612127482891083,-0.05191070238222295,-0.0,-0.003725622547790408,1.2615573406219482,0.0,0.023679960519075394
271.0,523.0,-0.8859,0.6383,9.7047,-0.0405,0.0246,-0.1135,-1.9827753506102503,0.0,3.6388192176818848,-1.6508904695510864,-0.0,1.9103885889053345,5.176632571011343,0.0,0.2765304148197174,-1.621246639882223,0.0,-0.017256785184144974,-0.05187112489809209,-0.0,0.000926807289943099,1.2615573406219482,0.0,0.04011927545070648
271.0,523.0,-0.8859,0.6383,9.7047,-0.0405,0.0246,-0.1135,-1.9828158817686976,0.0,3.6900222301483154,-1.650854229927063,-0.0,1.9474694728851318,5.176656472473898,0.0,0.2655129134654999,-1.6212342421161097,0.0,0.0034062969498336315,-0.05189115205873662,-0.0,-0.0014341097557917237,1.2615896463394165,0.0,-0.040529098361730576
271.0,499.0,-0.8429,0.6736,9.6544,-0.0247,0.0218,-0.1071,-1.9827953777708949,0.0,3.6673829555511475,-1.6508738994598389,-0.0,1.9220175743103027,5.176652657776632,0.0,0.2620711326599121,-1.621246639882223,0.0,-0.0060050878673791885,-0.05192691484560186,-0.0,0.000346961198374629,1.2615975141525269,0.0,-0.01613682508468628
271.0,499.0,-0.8429,0.6736,9.6544,-0.0247,0.0218,-0.1071,-1.9828316173949183,0.0,3.698807716369629,-1.6508253812789917,-0.0,1.9401483535766602,5.176656800299444,0.0,0.27933043241500854,-1.6212509314166468,0.0,-0.004407319240272045,-0.05189115205873662,-0.0,-0.008137952536344528,1.2615774869918823,0.0,0.03820483759045601
271.0,499.0,-0.8429,0.6736,9.6544,-0.0247,0.0218,-0.1071,-1.9828640423216761,0.0,3.680868148803711,-1.6508861780166626,-0.0,1.9517688751220703,5.176632600813665,0.0,0.2699725329875946,-1.6212876478778284,0.0,-0.0038217096589505672,-0.051886860524312794,-0.0,0.00922753382474184,1.2615532875061035,0.0,0.024035416543483734
271.0,499.0,-0.8429,0.6736,9.6544,-0.0247,0.0218,-0.1071,-1.9828359089293421,0.0,3.705275058746338,-1.6508378982543945,-0.0,1.9449400901794434,5.176660525589742,0.0,0.2583363950252533,-1.62126332918276,0.0,-0.013285523280501366,-0.05193072954286748,-0.0,0.016294129192829132,1.2615413665771484,0.0,-0.05162513628602028
271.0,499.0,-0.8429,0.6736,9.6544,-0.0247,0.0218,-0.1071,-1.9827834568419398,0.0,3.659027099609375,-1.6508574485778809,-0.0,1.9740879535675049,5.176648604660787,4.949482672600425e-07,0.26969683170318604,-1.6212266127215784,0.0,-0.013161404058337212,-0.051874939595357716,-0.0,-0.002499443246051669,1.2615973949432373,0.0,0.011494658887386322
271.0,499.0,-0.8429,0.6736,9.6544,-0.0247,0.0218,-0.1071,-1.9828196964659632,0.0,3.6910080909729004,-1.6508419513702393,-0.0,1.9218928813934326,5.1766326306159876,2.1100419189679087e-09,0.2737865149974823,-1.6212871710406702,0.0,-0.012319953180849552,-0.05187875429262334,-0.0,0.0024065528996288776,1.261617660522461,0.0,0.018863722681999207
271.0,499.0,-0.8429,0.6736,9.6544,-0.0247,0.0218,-0.1071,-1.9828726253905238,0.0,3.680327892303467,-1.6508336067199707,-0.0,1.9310877323150635,5.176684635668554,5.87337958216777e-13,0.27642393112182617,-1.6212671438800257,0.0,-0.011540067382156849,-0.051822964345113576,-0.0,0.0015523082111030817,1.2615573406219482,0.0,-0.043192654848098755
271.0,499.0,-0.8429,0.6736,9.6544,-0.0247,0.0218,-0.1071,-1.9827996693053187,0.0,3.7113523483276367,-1.650854229927063,-0.0,1.9345669746398926,5.176676529436865,1.6348766879923483e-16,0.28328824043273926,-1.6212790648089808,0.0,-0.008147160522639751,-0.05183917680849248,-0.0,-0.009195603430271149,1.261553168296814,0.0,-2.7061905711889267e-05
271.0,499.0,-0.8429,0.6736,9.6544,-0.0247,0.0218,-0.1071,-1.9828158817686976,0.0,3.7140626907348633,-1.6508538722991943,-0.0,1.9623925685882568,5.176656830101766,4.5507402791915905e-20,0.26696905493736267,-1.6212790648089808,0.0,0.0013030243571847677,-0.051834885274068654,-0.0,0.0070876674726605415,1.261645793914795,0.0,-0.0018753127660602331
271.0,499.0,-0.8429,0.6736,9.6544,-0.0247,0.0218,-0.1071,-1.9827796421446742,0.0,3.673398494720459,-1.6508139371871948,-0.0,1.96382737159729,5.176599967270651,1.2667153707109028e-23,0.27621012926101685,-1.62126332918276,0.0,0.013794523663818836,-0.05185443559755498,-0.0,-0.008211801759898663,1.2615692615509033,0.0,-0.008086222223937511
271.0,499.0,-0.8429,0.6736,9.6544,-0.0247,0.0218,-0.1071,-1.9828158817686976,0.0,3.6616952419281006,-1.6508904695510864,-0.0,1.8824397325515747,5.176612216025152,5.400205258663163e-26,0.2607753872871399,-1.6212666670428675,0.0,-0.0049907369539141655,-0.05189496675600225,-0.0,-0.009222544729709625,1.2616093158721924,0.0,0.020509980618953705
271.0,499.0,-0.8429,0.6736,9.6544,-0.0247,0.0218,-0.1071,-1.982783933679098,0.0,3.674811363220215,-1.6508986949920654,-0.0,1.9383126497268677,5.1766326306159876,1.503167106272194e-29,0.26801857352256775,-1.6212342421161097,0.0,0.0017980086850002408,-0.05188304582704717,-0.0,-0.002341012004762888,1.2616052627563477,0.0,0.014220410957932472
271.0,499.0,-0.8429,0.6736,9.6544,-0.0247,0.0218,-0.1071,-1.982751031915182,0.0,3.6636037826538086,-1.6508619785308838,-0.0,1.9402062892913818,5.176660525589742,4.184120713874084e-33,0.27184319496154785,-1.6212990919696253,0.0,0.0035544440615922213,-0.05195075670351201,-0.0,0.008374590426683426,1.2616417407989502,0.000556916871573776,0.012647582218050957
271.0,499.0,-0.8429,0.6736,9.6544,-0.0247,0.0218,-0.1071,-1.982828279534811,0.0,3.65273380279541,-1.6508945226669312,-0.0,1.9513320922851562,5.176668274193563,1.1646654750223922e-36,0.2651992738246918,-1.6212871710406702,0.0,-0.0016384010668843985,-0.0519030729876917,-0.0,-0.004939883016049862,1.2616212368011475,0.0005664146738126874,0.044851984828710556
271.0,499.0,-0.8429,0.6736,9.6544,-0.0247,0.0218,-0.1071,-1.9828316173949183,0.0,3.642521858215332,-1.650821328163147,5.074705811125568e-08,1.9653139114379883,5.176708835154333,3.241889984230821e-40,0.266845703125,-1.6212509314166468,0.0,-0.004868588410317898,-0.05185109773744756,-0.0,-0.00422011548653245,1.2616453170776367,0.0006558934692293406,0.000714522204361856
271.0,499.0,-0.8429,0.6736,9.6544,-0.0247,0.0218,-0.1071,-1.9828440151610316,0.0,3.7092208862304688,-1.6508336067199707,9.134289678802698e-12,1.938960313796997,5.1766526875789545,1.3816802858242696e-42,0.2612422704696655,-1.6212828795062464,0.0,-0.01108873263001442,-0.05186683336366826,-0.0,0.007788163609802723,1.261629343032837,0.0006157162133604288,0.018923556432127953
270.0,491.0,-0.7819,0.4881,9.4708,-0.0339,0.0238,-0.1046,-1.982852121392721,0.0,3.687955379486084,-1.6508619785308838,2.2058236797771927e-17,1.9492546319961548,5.17664452174262,0.0,0.2629208564758301,-1.621302906666891,0.0,-0.006346594542264938,-0.051830593739644826,-0.0,0.0033249049447476864,1.261649489402771,0.0005441027460619807,0.0693909227848053
270.0,491.0,-0.7819,0.4881,9.4708,-0.0339,0.0238,-0.1046,-1.982852121392721,0.0,3.6964197158813477,-1.6508501768112183,5.326805350610228e-23,1.9825546741485596,5.176676529436865,0.0,0.2626185417175293,-1.6212509314166468,-0.00019405258353799582,-0.012129917740821838,-0.051847283040181935,-0.0,0.0044907014816999435,1.2616572380065918,0.0004236876266077161,0.04594907909631729
270.0,491.0,-0.7819,0.4881,9.4708,-0.0339,0.0238,-0.1046,-1.9828435383238734,0.0,3.676154613494873,-1.650794267654419,1.2863608691828033e-28,1.9314534664154053,5.1766408560569666,0.0,0.2687777280807495,-1.6212509314166468,-0.00017200388538185507,-0.01474821101874113,-0.05186301866640264,-0.0,0.0004879541229456663,1.2616372108459473,0.0003303472767584026,-0.018338099122047424
270.0,491.0,-0.7819,0.4881,9.4708,-0.0339,0.0238,-0.1046,-1.9828278026976527,0.0,3.6799721717834473,-1.6508861780166626,0.00030452237115241587,1.9610437154769897,5.176592516690054,0.0,0.27186328172683716,-1.6212909857379358,-0.00015430709754582494,-0.0011703802738338709,-0.05192691484560186,-0.0,0.0013652229681611061,1.261641263961792,0.00027071457589045167,0.018701540306210518
270.0,491.0,-0.7819,0.4881,9.4708,-0.0339,0.0238,-0.1046,-1.9828278026976527,0.0,3.70363187789917,-1.650866150856018,0.00026835690368898213,1.9724094867706299,5.176616298943319,0.0,0.2749917507171631,-1.6212828795062464,-0.0001444026711396873,-0.003056144341826439,-0.051899258290426076,-0.0,-0.005321471486240625,1.2616335153579712,0.0002416377392364666,-0.027940494939684868
270.0,491.0,-0.7819,0.4881,9.4708,-0.0339,0.0238,-0.1046,-1.9828397236266078,0.0,3.6841578483581543,-1.650793433189392,0.00022762744629289955,1.931884765625,5.1766728339488886,0.0,0.2693523168563843,-1.6212547461139124,-0.0001317207352258265,-0.005387444980442524,-0.05188304582704717,-0.0,0.0060765622183680534,1.2616335153579712,0.00020810954447370023,0.020728642120957375
270.0,491.0,-0.7819,0.4881,9.4708,-0.0339,0.0238,-0.1046,-1.9828359089293421,0.0,3.6145377159118652,-1.6508376598358154,0.00023709487868472934,1.9382574558258057,5.176644909172811,0.0,0.2816159129142761,-1.6212666670428675,-0.00012108691589673981,0.0005236391443759203,-0.05187112489809209,-0.0,-0.004572577774524689,1.261613130569458,0.00014671329699922353,0.04007367044687271
270.0,491.0,-0.7819,0.4881,9.4708,-0.0339,0.0238,-0.1046,-1.9828316173949183,-0.00011998265836155042,3.6564791202545166,-1.6508947610855103,0.00046622988884337246,1.959429383277893,5.176648604660787,0.0,0.24699608981609344,-1.6212547461139124,-9.113385021919385e-05,-0.010144593194127083,-0.05186683336366826,-0.0,-0.008250316604971886,1.2616212368011475,-7.380251190625131e-05,0.0363534577190876
270.0,491.0,-0.7819,0.4881,9.4708,-0.0339,0.0238,-0.1046,-1.9828597507872523,-9.998562018154189e-05,3.666656970977783,-1.6507657766342163,0.0015058402204886079,1.9453707933425903,5.176604378014364,0.0,0.27602291107177734,-1.6212952772723597,-8.340379281435162e-05,-0.0002587804337963462,-0.05191499391664678,-0.0,-0.005331916268914938,1.2615692615509033,-0.00020863951067440212,-0.028635457158088684
270.0,491.0,-0.7819,0.4881,9.4708,-0.0339,0.0238,-0.1046,-1.9828435383238734,-4.6836063120281324e-05,3.646681785583496,-1.6507774591445923,0.0016101173823699355,1.9654992818832397,5.176624494581976,0.0,0.2659664750099182,-1.6212509314166468,-7.970983278937638e-05,-0.002354318741708994,-0.051899258290426076,-0.0,-0.003387948963791132,1.2615491151809692,-0.0013273749500513077,-0.004315612837672234
270.0,491.0,-0.7819,0.4881,9.4708,-0.0339,0.0238,-0.1046,-1.9828115902342738,-3.9125206967582926e-05,3.66943359375,-1.650769829750061,0.0017023793188855052,1.9479398727416992,5.176604378014364,0.0,0.259972482919693,-1.6212752501117151,-7.47447120375e-05,-0.0012189662083983421,-0.05189496675600225,-0.0,-0.016481894999742508,1.2615371942520142,-0.0029748876113444567,-0.019795959815382957
270.0,491.0,-0.7819,0.4881,9.4708,-0.0339,0.0238,-0.1046,-1.9828359089293421,-3.4611093724379316e-05,3.7014272212982178,-1.6507941484451294,0.002548250136896968,1.946889877319336,5.1765843508537195,0.0,0.2712695896625519,-1.6212828795062464,-7.036195893306285e-05,-0.011073068715631962,-0.05189115205873662,-0.0,-0.0019407747313380241,1.261521339416504,-0.004158249590545893,-0.06012791395187378
270.0,491.0,-0.7819,0.4881,9.4708,-0.0339,0.0238,-0.1046,-1.9828602276244105,-3.103086419287138e-05,3.6559619903564453,-1.6507785320281982,0.0038372697308659554,1.971400260925293,5.176580208330908,0.0,0.26765111088752747,-1.6212509314166468,-6.646470865234733e-05,-0.007507367059588432,-0.0519030729876917,-0.0,0.00985630787909031,1.261448860168457,-0.005784174427390099,0.001220223493874073
270.0,491.0,-0.7819,0.4881,9.4708,-0.0339,0.0238,-0.1046,-1.982852121392721,-2.8121969080530107e-05,3.668511390686035,-1.6506978273391724,0.0049733915366232395,1.9507298469543457,5.176632690220632,0.0,0.2720381021499634,-1.6212628523456019,-6.297660729615018e-05,-0.01097278855741024,-0.05192310014833623,-0.0,-0.006076926831156015,1.2614617347717285,-0.007350011728703976,-0.002590468153357506
270.0,491.0,-0.7819,0.4881,9.4708,-0.0339,0.0238,-0.1046,-1.982840200463766,-2.6467887437320314e-05,3.6899542808532715,-1.6506985425949097,0.004698083736002445,1.9402070045471191,5.176612603455343,0.0,0.2591291666030884,-1.6212752501117151,-6.0847691202070564e-05,-0.011306262575089931,-0.051963154469625294,-0.0,0.002453089691698551,1.2614096403121948,-0.008546634577214718,0.05475997179746628
270.0,491.0,-0.7819,0.4881,9.4708,-0.0339,0.0238,-0.1046,-1.982840200463766,-4.628023297925665e-09,3.720587730407715,-1.650641918182373,0.004979771561920643,1.9535287618637085,5.176664995938101,0.0,0.27097731828689575,-1.6212590376483362,-5.791120565845631e-05,-0.017853297293186188,-0.051886860524312794,-0.0,-0.0015661779325455427,1.2613654136657715,-0.009260538034141064,0.021504204720258713
270.0,527.0,-0.9673,0.4427,9.792,-0.0441,0.0252,-0.1321,-1.9828320942320765,-1.1176132176833609e-14,3.64898943901062,-1.6506459712982178,0.005356793757528067,1.9662796258926392,5.176636683731832,0.0,0.25920453667640686,-1.6212590376483362,-5.52450874238275e-05,-0.0014791195280849934,-0.051899258290426076,-0.0,-0.002255228813737631,1.2612528800964355,-0.00973901804536581,-0.025046585127711296
270.0,527.0,-0.9673,0.4427,9.792,-0.0441,0.0252,-0.1321,-1.982767721215719,-2.698904223122705e-20,3.683399200439453,-1.650533676147461,0.005925074685364962,1.9589576721191406,5.176644909172811,0.0,0.2745340168476105,-1.6212666670428675,-5.2813727961620316e-05,-0.009694898501038551,-0.05189115205873662,-0.0,0.0006775050424039364,1.2612050771713257,-0.010585945099592209,0.0004909038543701172
270.0,527.0,-0.9673,0.4427,9.792,-0.0441,0.0252,-0.1321,-1.9827591381468714,-6.517536135164143e-26,3.6990509033203125,-1.6505664587020874,0.006047063507139683,1.9438410997390747,5.1766408560569666,0.0,0.2684933543205261,-1.6212833563434046,-5.058727037976496e-05,0.0013246776070445776,-0.05185062090028936,-0.0,0.005064912140369415,1.2611531019210815,-0.011188450269401073,-0.04323790222406387
270.0,527.0,-0.9673,0.4427,9.792,-0.0441,0.0252,-0.1321,-1.9827591381468714,-1.1731335820076441e-29,3.708855152130127,-1.6504855155944824,0.006727880798280239,1.96597158908844,5.176604378014364,0.0,0.26482081413269043,-1.6212671438800257,-4.920440915157087e-05,-0.016738999634981155,-0.05185872713197881,-0.0,0.0072305286303162575,1.2611454725265503,-0.010742010548710823,0.013549961149692535
270.0,527.0,-0.9673,0.4427,9.792,-0.0441,0.0252,-0.1321,-1.9827920399107875,-2.8329795546098036e-35,3.7098898887634277,-1.650437831878662,0.006772082764655352,1.961372971534729,5.176616298943319,0.0,0.2763765752315521,-1.6212342421161097,-4.726638144347817e-05,-0.0027613367419689894,-0.05185872713197881,-0.0,0.011638304218649864,1.2610812187194824,-0.010581363923847675,0.005094404332339764
270.0,527.0,-0.9673,0.4427,9.792,-0.0441,0.0252,-0.1321,-1.9828196964659632,0.0003485348424874246,3.705625534057617,-1.6504135131835938,0.006104020867496729,1.9369134902954102,5.176588374167242,0.0,0.2634478211402893,-1.6212671438800257,-4.547515345620923e-05,-0.022077301517128944,-0.05191499391664678,-0.0,-0.005955560132861137,1.260940670967102,-0.010216871276497841,-0.0037724487483501434
270.0,527.0,-0.9673,0.4427,9.792,-0.0441,0.0252,-0.1321,-1.9827915630736292,0.0002836208150256425,3.6775646209716797,-1.6503978967666626,0.006450794171541929,1.9824843406677246,5.176632720022955,0.0,0.2673276960849762,-1.6212509314166468,-4.3814772652694955e-05,-0.009834321215748787,-0.0519030729876917,-0.0,0.020715752616524696,1.2609130144119263,-0.010492797009646893,-0.008208267390727997
270.0,527.0,-0.9673,0.4427,9.792,-0.0441,0.0252,-0.1321,-1.9827996693053187,0.00023851585865486413,3.686615228652954,-1.6503300666809082,0.0064063528552651405,1.956350326538086,5.176572072296896,0.0,0.2781544625759125,-1.6212833563434046,-4.22713637817651e-05,-0.015027834102511406,-0.05195457140077764,-0.0,0.0006863296148367226,1.2608733177185059,-0.01142140943557024,-0.026568159461021423
270.0,527.0,-0.9673,0.4427,9.792,-0.0441,0.0252,-0.1321,-1.9827834568419398,0.00017273151024710387,3.6820693016052246,-1.6503214836120605,0.006618720944970846,1.987676739692688,5.176624464779653,5.202479869126364e-08,0.27499228715896606,-1.6212423483477991,-3.165808448102325e-05,-0.013800757937133312,-0.0519030729876917,-0.0,0.0031697724480181932,1.2608290910720825,-0.01195260789245367,-0.019873060286045074
270.0,527.0,-0.9673,0.4427,9.792,-0.0441,0.0252,-0.1321,-1.9828483066954554,0.00015083528705872595,3.682070255279541,-1.6503350734710693,0.006237155292183161,1.9461700916290283,5.176628577500143,1.4481293768298098e-11,0.2751554250717163,-1.6212266127215784,-2.9945626010885462e-05,-0.0031040972098708153,-0.05185109773744756,-0.0,0.004080999176949263,1.2608342170715332,-0.012668551877140999,0.04234999790787697
270.0,527.0,-0.9673,0.4427,9.792,-0.0441,0.0252,-0.1321,-1.9828440151610316,0.0001339920563623309,3.664564847946167,-1.6502419710159302,0.006287521217018366,1.9545494318008423,5.176604378014364,4.03092179928244e-15,0.27537328004837036,-1.6212423483477991,-1.6443696182477652e-08,-0.00419202446937561,-0.05189115205873662,-0.0,-0.010624437592923641,1.2606490850448608,-0.012950132600963116,-0.010345877148211002
270.0,527.0,-0.9673,0.4427,9.792,-0.0441,0.0252,-0.1321,-1.9828115902342738,0.00012053287355229259,3.691915988922119,-1.6501860618591309,0.00660083070397377,1.9905437231063843,5.176624524384298,1.1220220074647711e-18,0.27327197790145874,-1.6212833563434046,-4.577163734836853e-12,0.006565242074429989,-0.05187064806093389,-0.0,-0.0076606557704508305,1.2605767250061035,-0.013176104053854942,0.006074676290154457
270.0,527.0,-0.9673,0.4427,9.792,-0.0441,0.0252,-0.1321,-1.9828196964659632,0.00010953091259580106,3.644212245941162,-1.6501580476760864,0.006982587277889252,1.9674817323684692,5.176636832743444,3.12318918106235e-22,0.2663215398788452,-1.6212590376483362,-1.2740702192058314e-15,-0.003236567135900259,-0.05184299150575811,-0.0,0.008657440543174744,1.2605135440826416,-0.013109219260513783,0.0390685610473156
270.0,527.0,-0.9673,0.4427,9.792,-0.0441,0.0252,-0.1321,-1.9827877483763636,0.00010324810136808082,3.7171196937561035,-1.6501140594482422,0.008171572349965572,1.9902434349060059,5.176600682526388,1.3314644821657645e-24,0.2703399658203125,-1.6212266127215784,-5.431561551140636e-18,0.0027551031671464443,-0.05185109773744756,-0.0,0.0014417192433029413,1.2604496479034424,-0.013416202738881111,-0.028202040120959282
270.0,527.0,-0.9673,0.4427,9.792,-0.0441,0.0252,-0.1321,-1.9827796421446742,9.506831702310592e-05,3.689645767211914,-1.6500531435012817,0.009218664839863777,1.9763288497924805,5.176636832743444,3.7061801403685907e-28,0.2694598436355591,-1.6212752501117151,-1.5118952175425477e-21,-0.011582446284592152,-0.05195075670351201,-0.0,-0.0023010175209492445,1.2603492736816406,-0.013363877311348915,-0.03226215019822121
270.0,527.0,-0.9673,0.4427,9.792,-0.0441,0.0252,-0.1321,-1.982840200463766,8.808945858618245e-05,3.5982823371887207,-1.6499693393707275,0.010698321275413036,1.9528177976608276,5.176636683731832,1.031628771059895e-31,0.2514847218990326,-1.6212790648089808,-4.20841565021112e-25,0.00334075465798378,-0.05185538927187139,-0.0,0.014829245395958424,1.2602653503417969,-0.013850467279553413,0.058585889637470245
269.0,494.0,-0.7645,0.6431,9.7238,-0.0368,0.0228,-0.1306,-1.9828483066954554,8.206532220356166e-05,3.650110960006714,-1.6499301195144653,0.011547963134944439,2.0035831928253174,5.1765843508537195,-0.00022268494649324566,0.26108884811401367,-1.6212509314166468,-1.171427990485957e-28,-0.009363941848278046,-0.05185538927187139,-0.0,-0.010145740583539009,1.2602177858352661,-0.013101991266012192,0.004295166581869125
269.0,494.0,-0.7645,0.6431,9.7238,-0.0368,0.0228,-0.1306,-1.98280729869985,5.761973807238974e-05,3.6160364151000977,-1.6498252153396606,0.012624957598745823,2.0098509788513184,5.176588552981176,-0.00026472590980120003,0.2646385431289673,-1.6212590376483362,-3.26071318370075e-32,-0.007437709718942642,-0.05189496675600225,-0.0,0.006592553108930588,1.2601419687271118,-0.013047963380813599,-0.0025464389473199844
269.0,494.0,-0.7645,0.6431,9.7238,-0.0368,0.0228,-0.1306,-1.9828483066954554,5.414345650933683e-05,3.629746437072754,-1.6497541666030884,0.014261390082538128,2.0209410190582275,5.176560568600454,-0.0006246226839721203,0.25859391689300537,-1.6212385336505335,-9.07631517234395e-36,-0.007708354853093624,-0.051862541829244435,-0.0,0.006258212961256504,1.2600703239440918,-0.012094717472791672,0.010474661365151405
269.0,494.0,-0.7645,0.6431,9.7238,-0.0368,0.0228,-0.1306,-1.9827872715392054,5.2055722335353494e-05,3.6349399089813232,-1.649681568145752,0.01442616619169712,2.005993366241455,5.17653255441741,-0.0005921688862144947,0.25649353861808777,-1.6212146917926233,-3.761082894015999e-07,0.007351969368755817,-0.051847283040181935,-0.0,-0.0008975991513580084,1.2600425481796265,-0.011701242998242378,-0.021138401702046394
269.0,494.0,-0.7645,0.6431,9.7238,-0.0368,0.0228,-0.1306,-1.982852121392721,-4.170852116658352e-05,3.609830856323242,-1.649646282196045,0.014791333116590977,2.0139760971069336,5.1766048250492,-0.000531441648490727,0.25176897644996643,-1.62126332918276,-1.0469113770339433e-10,-0.006116607692092657,-0.05189878145326787,-0.0,0.0107047650963068,1.2599749565124512,-0.0120297996327281,0.022330017760396004
269.0,494.0,-0.7645,0.6431,9.7238,-0.0368,0.0228,-0.1306,-1.9828359089293421,-5.771606447524391e-05,3.6159653663635254,-1.6495428085327148,0.01667720079421997,2.0105538368225098,5.1765286205108545,-0.00044341289321891963,0.2410612404346466,-1.6212671438800257,-2.9141162275142865e-14,-0.006538638845086098,-0.051886860524312794,-0.0,0.005078091751784086,1.2598905563354492,-0.010931700468063354,0.007473311852663755
269.0,494.0,-0.7645,0.6431,9.7238,-0.0368,0.0228,-0.1306,-1.9828196964659632,-5.4927324526943266e-05,3.60133695602417,-1.6494905948638916,0.017885828390717506,2.022672653198242,5.176516639977255,-0.00041041788063012064,0.24947115778923035,-1.6212390104876917,-8.111548980834866e-18,-0.008854031562805176,-0.05193072954286748,-0.0,-0.003324780147522688,1.2598466873168945,-0.010347167029976845,0.01798412948846817
269.0,494.0,-0.7645,0.6431,9.7238,-0.0368,0.0228,-0.1306,-1.9827991924681605,-6.902280438225716e-05,3.584813356399536,-1.649285912513733,0.019054248929023743,2.0324113368988037,5.176564681320944,-0.0004382824699860066,0.24058032035827637,-1.6211989561664026,-2.2578801567913788e-21,-0.004643391817808151,-0.05189878145326787,-0.0,0.008920593187212944,1.2597589492797852,-0.009755032137036324,0.004450639709830284
269.0,494.0,-0.7645,0.6431,9.7238,-0.0368,0.0228,-0.1306,-1.9828597507872523,-6.64748004055582e-05,3.5867347717285156,-1.649238109588623,0.019934089854359627,2.003176689147949,5.176557171135702,-0.00044005547533743083,0.2590424716472626,-1.621230427418844,-9.625698120446701e-24,0.005381198599934578,-0.05189115205873662,-0.0,-0.0007636719383299351,1.2596986293792725,-0.009229831397533417,0.042442116886377335
269.0,494.0,-0.7645,0.6431,9.7238,-0.0368,0.0228,-0.1306,-1.9827953777708949,-7.872358401073143e-05,3.535395622253418,-1.6490734815597534,0.02110355533659458,2.0548577308654785,5.1765408394630334,-0.0004122759564779699,0.25055795907974243,-1.6212428251849573,-2.6793479608416894e-27,-0.002654355950653553,-0.05188304582704717,-0.0,-0.014671912416815758,1.2596668004989624,-0.008181219920516014,0.012993970885872841
269.0,494.0,-0.7645,0.6431,9.7238,-0.0368,0.0228,-0.1306,-1.9828602276244105,-7.480578642571345e-05,3.6039793491363525,-1.6489781141281128,0.02252078242599964,2.039064884185791,5.176557171135702,-0.00039099983405321836,0.24888132512569427,-1.6212227980243128,-7.458064027718621e-31,0.002915279008448124,-0.05186683336366826,-0.0,-0.01041546929627657,1.259627103805542,-0.007051432505249977,-0.014223987236618996
269.0,494.0,-0.7645,0.6431,9.7238,-0.0368,0.0228,-0.1306,-1.9828316173949183,-0.00019705743761733174,3.5664868354797363,-1.648850679397583,0.02456044964492321,1.9769859313964844,5.176596987038412,-0.00038249732460826635,0.24248471856117249,-1.6212790648089808,-2.075979502382297e-34,-0.007595262490212917,-0.05187446275819951,-0.0,0.0035847052931785583,1.2595348358154297,-0.006228527054190636,0.0035955114290118217
269.0,494.0,-0.7645,0.6431,9.7238,-0.0368,0.0228,-0.1306,-1.9828077755370082,-0.00017417491471860558,3.5953826904296875,-1.6486822366714478,0.02495209127664566,2.009781837463379,5.176536667137899,-0.00042943775770254433,0.24712836742401123,-1.6212428251849573,-5.778565866421849e-38,-0.015003468841314316,-0.05188304582704717,-0.0,0.0025012646801769733,1.2595635652542114,-0.005225971341133118,0.005066182464361191
269.0,494.0,-0.7645,0.6431,9.7238,-0.0368,0.0228,-0.1306,-1.9828602276244105,-0.00019393928232602775,3.5255422592163086,-1.648622751235962,0.02577229216694832,2.0445425510406494,5.17652108052329,-0.0004366167413536459,0.23971185088157654,-1.6212270895587366,-2.4634967132676717e-40,-0.008830774575471878,-0.05192262331117803,-0.0,-0.0001879343471955508,1.2595312595367432,-0.004972837399691343,0.005442680791020393
269.0,494.0,-0.7645,0.6431,9.7238,-0.0368,0.0228,-0.1306,-1.9828196964659632,-0.0001942911621881649,3.5181877613067627,-1.6484465599060059,0.027050139382481575,2.0589969158172607,5.176557230740347,-0.0005684657371602952,0.2484273910522461,-1.6212270895587366,-6.866362475191604e-44,0.00029733404517173767,-0.05181914964784795,-0.0,-0.0009624694939702749,1.2594788074493408,-0.00416629808023572,0.021407686173915863
269.0,494.0,-0.7645,0.6431,9.7238,-0.0368,0.0228,-0.1306,-1.9828678570189417,-0.00018619041657075286,3.481196165084839,-1.6482497453689575,0.0280662439763546,2.0661566257476807,5.1765412268932245,-0.0005979979177936912,0.24118772149085999,-1.6212347189532679,-0.0,0.0075871916487813,-0.05187064806093389,-0.0,-0.003540581092238426,1.2594910860061646,-0.003446142189204693,0.04875565320253372
275.0,490.0,-0.8351,0.6096,9.661,-0.0568,0.0425,-0.1315,-1.982840200463766,-0.00019545429677236825,3.5611939430236816,-1.6480984687805176,0.02811528742313385,2.073495626449585,5.17652108052329,-0.0005472521297633648,0.2309679090976715,-1.6212471167193812,-0.0,0.0004337460268288851,-0.051862541829244435,-0.0,-0.0037818867713212967,1.2594993114471436,-0.0020834258757531643,0.07335291802883148
275.0,490.0,-0.8351,0.6096,9.661,-0.0568,0.0425,-0.1315,-1.9828597507872523,-0.0001807394000934437,3.539768695831299,-1.6479750871658325,0.030812863260507584,2.0890069007873535,5.176537084370413,-0.0004802020266652107,0.2369537651538849,-1.621178929005758,-0.0,-0.01216164417564869,-0.0518267790423792,-0.0,0.000546455557923764,1.2594554424285889,-0.0011464498238638043,0.06184382736682892
275.0,490.0,-0.8351,0.6096,9.661,-0.0568,0.0425,-0.1315,-1.9828640423216761,-0.0002023426495725289,3.539188861846924,-1.6477822065353394,0.030180973932147026,2.005599021911621,5.1765330014522455,-0.0004348532238509506,0.2376534640789032,-1.6212065855609339,-0.0,-0.0038448129780590534,-0.05185538927187139,-0.0,-0.003165140515193343,1.2595075368881226,-0.0009104960481636226,0.0058046854101121426
275.0,490.0,-0.8351,0.6096,9.661,-0.0568,0.0425,-0.1315,-1.9828597507872523,-0.0001815964060369879,3.5486907958984375,-1.6476184129714966,0.030887356027960777,2.076568603515625,5.176505076676168,-0.0004067278350703418,0.2300288826227188,-1.6212227980243128,-0.0,-0.0023389956913888454,-0.05189115205873662,-0.0,-0.003206903813406825,1.2594231367111206,-0.0007935690809972584,0.0154713224619627
275.0,490.0,-0.8351,0.6096,9.661,-0.0568,0.0425,-0.1315,-1.9828597507872523,-0.0001943758688867092,3.5284507274627686,-1.6473898887634277,0.03221403434872627,2.050264835357666,5.1764887450035,-0.00040792053914628923,0.23516680300235748,-1.621178929005758,-0.0,-0.00250432500615716,-0.05189115205873662,-0.0,0.0002354961325181648,1.2594914436340332,-0.0006032625678926706,0.05717653036117554
275.0,490.0,-0.8351,0.6096,9.661,-0.0568,0.0425,-0.1315,-1.9828835926451625,-0.00020467537979129702,3.549873113632202,-1.6471941471099854,0.033319585025310516,2.0654828548431396,5.176536994963445,-0.0003604054218158126,0.23484748601913452,-1.6212065855609339,-0.0,0.007281481754034758,-0.05189115205873662,-0.0,0.008055067621171474,1.2594633102416992,-0.0004243015428073704,0.10532490909099579
275.0,490.0,-0.8351,0.6096,9.661,-0.0568,0.0425,-0.1315,-1.9828835926451625,-0.0003077081055380404,3.5003161430358887,-1.6469941139221191,0.03427805379033089,2.0977108478546143,5.176448988705435,-0.0003218243655283004,0.23594000935554504,-1.6211908499347132,-0.0,-0.018999427556991577,-0.051874939595357716,-0.0,-0.006517968140542507,1.2594350576400757,-0.0004007052048109472,0.08363806456327438
275.0,490.0,-0.8351,0.6096,9.661,-0.0568,0.0425,-0.1315,-1.9829079113402308,-0.000309819559333846,3.5398120880126953,-1.6468827724456787,0.03568029776215553,2.041477918624878,5.176517385035314,-0.0003112328704446554,0.23026864230632782,-1.6212065855609339,-0.0,0.0007120823720470071,-0.051862541829244435,-0.0,0.012894129380583763,1.259467363357544,-0.00036114430986344814,0.03278578445315361
275.0,490.0,-0.8351,0.6096,9.661,-0.0568,0.0425,-0.1315,-1.9828959904112757,-0.0003533680865075439,3.5473644733428955,-1.6465985774993896,0.03683127835392952,2.1104907989501953,5.17646090963439,-0.00030956254340708256,0.23618721961975098,-1.6212347189532679,-0.0,-0.014192704111337662,-0.0518267790423792,-0.0,-0.0014014625921845436,1.259423017501831,-0.00031390413641929626,0.06886829435825348
275.0,490.0,-0.8351,0.6096,9.661,-0.0568,0.0425,-0.1315,-1.9828516445555628,-0.0003489971568342298,3.503209114074707,-1.6464269161224365,0.03814943879842758,2.1108951568603516,5.176485079317846,-0.0003083694900851697,0.24472609162330627,-1.6212590376483362,-0.0,0.0076552885584533215,-0.05187064806093389,-0.0,-0.00868161953985691,1.2595033645629883,-0.0002469937317073345,0.10572278499603271
275.0,490.0,-0.8351,0.6096,9.661,-0.0568,0.0425,-0.1315,-1.9829274616637171,-0.00030605425126850605,3.5324463844299316,-1.6461539268493652,0.04088516905903816,2.0461063385009766,5.176480996399679,-0.0002732900611590594,0.23996038734912872,-1.6212032477008265,-0.0,0.005032833199948072,-0.05189496675600225,-0.0,0.007883094251155853,1.2594836950302124,-0.00021771340107079595,0.04664761573076248
275.0,490.0,-0.8351,0.6096,9.661,-0.0568,0.0425,-0.1315,-1.982919832269186,-0.00027143792249262333,3.545362949371338,-1.6458783149719238,0.041761916130781174,2.114739418029785,5.176485079317846,-0.0002453482011333108,0.23386982083320618,-1.6212227980243128,-0.0,-0.0011184357572346926,-0.05189878145326787,-0.0,0.0030216965824365616,1.2595034837722778,-0.0001972617901628837,0.04266513139009476
275.0,490.0,-0.8351,0.6096,9.661,-0.0568,0.0425,-0.1315,-1.9829274616637171,-0.00025240579270757735,3.51389217376709,-1.6457748413085938,0.04365668073296547,2.0384323596954346,5.176569598704138,-0.00022969255223870277,0.24429406225681305,-1.6212227980243128,-0.0,0.006185285747051239,-0.05191070238222295,-0.0,0.008349340409040451,1.2594512701034546,-5.942982534179464e-05,0.01350925862789154
275.0,490.0,-0.8351,0.6096,9.661,-0.0568,0.0425,-0.1315,-1.9828793011107386,-0.00022838568838778883,3.5695762634277344,-1.645478367805481,0.043918270617723465,2.0592458248138428,5.176480996399679,-0.00020962776034139097,0.23338976502418518,-1.6211827437030237,-0.0,-0.0029837628826498985,-0.05188304582704717,-0.0,0.0028007389046251774,1.2595233917236328,-2.634319207572844e-05,0.06596643477678299
275.0,490.0,-0.8351,0.6096,9.661,-0.0568,0.0425,-0.1315,-1.9828998051085414,-0.00020854079048149288,3.506821632385254,-1.6452510356903076,0.0449250154197216,2.093113422393799,5.176485079317846,-0.00019278771651443094,0.2378726750612259,-1.6212104002581995,-0.0,-0.0010402887128293514,-0.05192691484560186,-0.0,0.005073171574622393,1.2594751119613647,-2.838939735738677e-06,0.04657982289791107
275.0,490.0,-0.8351,0.6096,9.661,-0.0568,0.0425,-0.1315,-1.9828673801817835,-0.00019186885037925094,3.5042591094970703,-1.6449267864227295,0.04581606388092041,2.109577178955078,5.176505076676168,-0.00017845210095401853,0.24310991168022156,-1.621218506489889,-0.0,-0.00700951786711812,-0.05185443559755498,-0.0,0.004983530845493078,1.2595115900039673,-6.855704805935892e-12,0.06596864759922028
257.0,467.0,-0.7537,0.6455,9.6921,-0.0677,0.0496,-0.1206,-1.982915540734762,-0.00017766519158612937,3.56381893157959,-1.6446624994277954,0.047577906399965286,2.053098678588867,5.176501083164968,-0.0001661126734688878,0.23301315307617188,-1.6211865584002894,-0.0,-0.005415127146989107,-0.05189496675600225,-0.0,-0.004405776504427195,1.2595033645629883,-1.655571886650588e-17,0.0684153288602829
257.0,467.0,-0.7537,0.6455,9.6921,-0.0677,0.0496,-0.1206,-1.9828878841795863,-0.0001693094236543402,3.536179542541504,-1.64443039894104,0.049879834055900574,2.117983341217041,5.176456737309255,-0.00015877842088229954,0.23970827460289001,-1.6211989561664026,-0.0,-0.00031973712611943483,-0.05187112489809209,-0.0,9.381910786032677e-05,1.2595196962356567,-2.9799708652525254e-21,0.050500910729169846
257.0,467.0,-0.7537,0.6455,9.6921,-0.0677,0.0496,-0.1206,-1.982859273950094,-0.00015815273218322545,3.559445858001709,-1.6441186666488647,0.05473706126213074,2.092703342437744,5.176444875984945,-0.00014892574108671397,0.2586154341697693,-1.6212065855609339,-0.0,-0.01783015765249729,-0.05184346834291631,-0.0,0.00820212159305811,1.2595115900039673,-7.196278837289706e-27,0.0043204957619309425
257.0,467.0,-0.7537,0.6455,9.6921,-0.0677,0.0496,-0.1206,-1.9829274616637171,-0.00012726127170026302,3.557455539703369,-1.6438148021697998,0.06006816774606705,2.0932979583740234,5.176473158388891,-0.00012106916983611882,0.2382768988609314,-1.6212671438800257,-0.0,0.006040005013346672,-0.051862541829244435,-0.0,-0.014346592128276825,1.259507417678833,-1.7378166119827022e-32,0.046941373497247696
257.0,467.0,-0.7537,0.6455,9.6921,-0.0677,0.0496,-0.1206,-1.982887407342428,-0.00018106702191289514,3.5326805114746094,-1.6434111595153809,0.06550683081150055,2.1488394737243652,5.176480996399679,-0.0001221017591888085,0.2570043206214905,-1.6212309042560022,-0.0,-0.014510292559862137,-0.051862541829244435,-0.0,0.004135326482355595,1.2595033645629883,-4.1966226539446054e-38,0.08550307154655457
257.0,467.0,-0.7537,0.6455,9.6921,-0.0677,0.0496,-0.1206,-1.9828907452025355,-0.0011074853828176856,3.559762477874756,-1.643042802810669,0.07033426314592361,2.125856876373291,5.176493394165792,-0.00013866688823327422,0.25460004806518555,-1.6212309042560022,-0.0,-0.00474023399874568,-0.05189496675600225,-0.0,-0.015604829415678978,1.2594910860061646,-1.0089348943138683e-43,0.025420036166906357
257.0,467.0,-0.7537,0.6455,9.6921,-0.0677,0.0496,-0.1206,-1.9829393825926722,-0.001934219733811915,3.5355842113494873,-1.6427143812179565,0.07350625097751617,2.1371023654937744,5.176473217993536,-0.00015198667824734002,0.24129405617713928,-1.6212347189532679,-0.0,-0.006347577553242445,-0.0519030729876917,-0.0,0.0043953494168818,1.2594870328903198,-0.0,0.08512309938669205
257.0,467.0,-0.7537,0.6455,9.6921,-0.0677,0.0496,-0.1206,-1.9829555950560511,-0.0025567312259227037,3.546302318572998,-1.6423029899597168,0.07784008979797363,2.1015372276306152,5.176453101425924,-0.0004677737015299499,0.23142582178115845,-1.621155087147848,-0.0,-0.0051607596687972546,-0.05185920396913701,-0.0,-0.005154214799404144,1.2594751119613647,0.0,0.07411756366491318
257.0,467.0,-0.7537,0.6455,9.6921,-0.0677,0.0496,-0.1206,-1.9829918346800746,-0.003530970076099038,3.552314519882202,-1.6417670249938965,0.08098705857992172,2.1740822792053223,5.176444965391912,-0.0004975134506821632,0.23514562845230103,-1.6211989561664026,-0.0,-0.0025410247035324574,-0.05185538927187139,-0.0,0.008597065694630146,1.2595075368881226,0.0,0.04939643293619156
257.0,467.0,-0.7537,0.6455,9.6921,-0.0677,0.0496,-0.1206,-1.9829751453795375,-0.0040900311432778835,3.54813551902771,-1.6412991285324097,0.08594103157520294,2.16829776763916,5.176453071623602,-0.0006842217990197241,0.23961326479911804,-1.6211908499347132,-0.0,0.0026533561758697033,-0.051899258290426076,-0.0,-0.0016237893141806126,1.259535789489746,0.0,0.05738314613699913
257.0,467.0,-0.7537,0.6455,9.6921,-0.0677,0.0496,-0.1206,-1.9830075703062953,-0.0040688952431082726,3.51404070854187,-1.640766978263855,0.08901087939739227,2.186168670654297,5.176433104067602,-0.00062540452927351,0.23161634802818298,-1.6212309042560022,-0.0,-0.015960320830345154,-0.051822964345113576,-0.0,6.423750892281532e-05,1.2594512701034546,0.0,0.09567062556743622
257.0,467.0,-0.7537,0.6455,9.6921,-0.0677,0.0496,-0.1206,-1.9830719433226527,-0.0037139584310352802,3.534506320953369,-1.6404392719268799,0.08946190029382706,2.1826071739196777,5.176444995194235,-0.0006900891312398016,0.22874662280082703,-1.6212671438800257,-0.0,-0.006927008740603924,-0.0519030729876917,-0.0,0.002119629178196192,1.2594549655914307,0.0,0.053925901651382446
257.0,467.0,-0.7537,0.6455,9.6921,-0.0677,0.0496,-0.1206,-1.9830676517882289,-0.0026217158883810043,3.552421808242798,-1.639891266822815,0.08757724612951279,2.146864414215088,5.176433104067602,-0.001249787281267345,0.2444583773612976,-1.6211865584002894,-0.0,-0.017637914046645164,-0.051847283040181935,-0.0,0.003833575639873743,1.2595115900039673,0.0,0.05287367105484009
257.0,467.0,-0.7537,0.6455,9.6921,-0.0677,0.0496,-0.1206,-1.9830471477904261,-0.0021799281239509583,3.5055079460144043,-1.6393793821334839,0.08327105641365051,2.089742660522461,5.1764211533363245,-0.0024671857245266438,0.23107537627220154,-1.6212032477008265,-0.0,-0.014808062463998795,-0.05187446275819951,-0.0,-0.009178003296256065,1.2595115900039673,0.0,0.058418966829776764
257.0,467.0,-0.7537,0.6455,9.6921,-0.0677,0.0496,-0.1206,-1.9830953083434046,-0.0017186037730425596,3.5031776428222656,-1.6388189792633057,0.08383582532405853,2.131002187728882,5.176377433329382,-0.004406740888953209,0.24056443572044373,-1.6212270895587366,-0.0,-0.008194319903850555,-0.0519030729876917,-0.0,-0.0003470825031399727,1.2594952583312988,0.0,0.027194693684577942
257.0,467.0,-0.7537,0.6455,9.6921,-0.0677,0.0496,-0.1206,-1.983135839501852,-0.001677897060289979,3.5145843029022217,-1.63834810256958,0.08605551719665527,2.160853624343872,5.176341551333227,-0.009196593426167965,0.23718614876270294,-1.6211989561664026,-0.0,0.0010528129059821367,-0.05188304582704717,-0.0,-0.0009844633750617504,1.2595477104187012,0.0,0.05111236870288849
257.0,467.0,-0.7537,0.6455,9.6921,-0.0677,0.0496,-0.1206,-1.9831191502013148,-0.0019589175935834646,3.5426363945007324,-1.6379833221435547,0.08826643973588943,2.1666204929351807,5.176269429713049,-0.011619179509580135,0.22653019428253174,-1.621223274861471,-0.0,-0.009562347084283829,-0.05184299150575811,-0.0,-0.005415961612015963,1.2595196962356567,0.0,0.03717763349413872
248.0,370.0,-0.9063,0.2154,9.463,-0.1121,0.0761,-0.1148,-1.983103414575094,-0.0031136339530348778,3.4869487285614014,-1.6375000476837158,0.09141838550567627,2.1530401706695557,5.176193284779348,-0.009117288514971733,0.21966129541397095,-1.6211870352374476,6.446113616220828e-07,-0.007466730661690235,-0.05187064806093389,-0.0,-0.003071351908147335,1.259507417678833,0.0,0.04808053374290466
248.0,370.0,-0.9063,0.2154,9.463,-0.1121,0.0761,-0.1148,-1.983142992059225,-0.004322858061641455,3.5025484561920166,-1.6369638442993164,0.09356185048818588,2.1778290271759033,5.176137614041128,-0.004510508384555578,0.23383083939552307,-1.621235195790426,1.7942995700348519e-10,-0.008476239629089832,-0.05187064806093389,-0.0,0.006055545527487993,1.2594993114471436,0.0,0.03507751226425171
248.0,370.0,-0.9063,0.2154,9.463,-0.1121,0.0761,-0.1148,-1.9832436046996058,-0.00518938759341836,3.510765552520752,-1.636344075202942,0.09721604734659195,2.1662633419036865,5.176149534970083,-0.0037251946050673723,0.2178851068019867,-1.6211870352374476,4.994498602672523e-14,-0.0049408357590436935,-0.05183917680849248,-0.0,-0.003655374515801668,1.2594952583312988,-2.5934470613719895e-05,0.054934464395046234
248.0,370.0,-0.9063,0.2154,9.463,-0.1121,0.0761,-0.1148,-1.9832474193968714,-0.006402154918760061,3.4702353477478027,-1.6357719898223877,0.09908578544855118,2.250087022781372,5.176110017090597,-0.004015283193439245,0.21516898274421692,-1.621223274861471,1.3902371615619533e-17,-0.003884995123371482,-0.05187875429262334,-0.0,0.01063678227365017,1.259527564048767,-2.3895505364635028e-05,0.07022176682949066
248.0,370.0,-0.9063,0.2154,9.463,-0.1121,0.0761,-0.1148,-1.983262678185934,-0.006039946805685759,3.4313457012176514,-1.6350998878479004,0.0967777669429779,2.1662280559539795,5.176042008190908,-0.0045550912618637085,0.21057415008544922,-1.6211870352374476,3.869776683825025e-21,-0.0025076172314584255,-0.051906887684957326,-0.0,-0.005291517823934555,1.2594754695892334,-2.213260631833691e-05,0.10522623360157013
248.0,370.0,-0.9063,0.2154,9.463,-0.1121,0.0761,-0.1148,-1.9833318195738734,-0.005372339393943548,3.425457000732422,-1.6347681283950806,0.0951235368847847,2.18585205078125,5.176085936814108,-0.003584221936762333,0.21433717012405396,-1.6211507956134241,1.6497465465826935e-23,-0.010729379020631313,-0.051886860524312794,-0.0,0.007438802160322666,1.259527564048767,-2.1095076590427198e-05,0.09189106523990631
248.0,370.0,-0.9063,0.2154,9.463,-0.1121,0.0761,-0.1148,-1.9833351574339808,-0.003388672135770321,3.40958833694458,-1.6342687606811523,0.09168095886707306,2.161716938018799,5.176082181721487,-0.0018377111991867423,0.2167053520679474,-1.6211589018451136,4.59213073705656e-27,-0.008482053875923157,-0.05185538927187139,-0.0,0.0017771306447684765,1.2595033645629883,-1.9709184925886802e-05,0.07188545912504196
248.0,370.0,-0.9063,0.2154,9.463,-0.1121,0.0761,-0.1148,-1.9833351574339808,-0.0018363249255344272,3.4453110694885254,-1.6336421966552734,0.0905463844537735,2.1658806800842285,5.176053929119863,-0.0011288841487839818,0.19843189418315887,-1.6211627165423792,1.2782364127056261e-30,-0.008196402341127396,-0.05183869997133428,-0.0,0.002608879469335079,1.259479284286499,-2.1643943455273984e-06,0.05305536836385727
248.0,370.0,-0.9063,0.2154,9.463,-0.1121,0.0761,-0.1148,-1.983375688592428,-0.0009499303414486349,3.4673593044281006,-1.6331727504730225,0.09253089129924774,2.19382905960083,5.17600183466033,-0.0008787458064034581,0.2122582197189331,-1.6212151686297815,3.558017754726334e-34,0.006310793571174145,-0.05188304582704717,-0.0,-0.006279259454458952,1.259479284286499,-5.226756961268508e-12,0.057605892419815063
248.0,370.0,-0.9063,0.2154,9.463,-0.1121,0.0761,-0.1148,-1.9833508930602015,-0.00137581885792315,3.4402599334716797,-1.6325368881225586,0.09380348026752472,2.197882652282715,5.176042097597875,-0.002546338364481926,0.19844701886177063,-1.6211751143084925,9.90387307840065e-38,-0.0022006407380104065,-0.05184680620302373,-0.0,0.0037346743047237396,1.2595033645629883,-1.2622002733686465e-17,0.08517123013734818
248.0,370.0,-0.9063,0.2154,9.463,-0.1121,0.0761,-0.1148,-1.9833790264525355,-0.0026903473772108555,3.479210376739502,-1.6321725845336914,0.09573251008987427,2.2026007175445557,5.1759818373020074,-0.0030026892200112343,0.2013164758682251,-1.6211708227740687,4.22218233793389e-40,-0.003684332827106118,-0.0518110434161585,-0.0,0.0013839600142091513,1.2594910860061646,-2.2719157719654627e-21,0.11100869625806808
248.0,370.0,-0.9063,0.2154,9.463,-0.1121,0.0761,-0.1148,-1.9833704433836878,-0.0040311068296432495,3.4328417778015137,-1.6316368579864502,0.10271906107664108,2.21209454536438,5.17599372842864,-0.003164693946018815,0.19261673092842102,-1.6211994330035608,0.00014068403106648475,-0.009203661233186722,-0.051886860524312794,-0.0,-0.014641000889241695,1.2594751119613647,-5.486409343713552e-27,0.06615445017814636
248.0,370.0,-0.9063,0.2154,9.463,-0.1121,0.0761,-0.1148,-1.983467241326803,-0.00542799849063158,3.40718936920166,-1.631013035774231,0.10810068249702454,2.219972848892212,5.175921636610784,-0.004729838576167822,0.18573737144470215,-1.6211994330035608,0.00014781083154957741,0.0003321361728012562,-0.051906887684957326,-0.0,-0.006538547575473785,1.2595800161361694,-1.3249035031684404e-32,0.10485222190618515
248.0,370.0,-0.9063,0.2154,9.463,-0.1121,0.0761,-0.1148,-1.9834424457945765,-0.0068518477492034435,3.443101644515991,-1.6303452253341675,0.11190091818571091,2.2232871055603027,5.175926166563787,-0.0059934682212769985,0.19163192808628082,-1.6211636702166956,0.00015984453784767538,0.008619374595582485,-0.05187446275819951,-0.0,-0.00022968654229771346,1.2594714164733887,-3.1994861321809664e-38,0.058951184153556824
248.0,370.0,-0.9063,0.2154,9.463,-0.1121,0.0761,-0.1148,-1.983518739739889,-0.008504302240908146,3.4011216163635254,-1.6296448707580566,0.10995402187108994,2.250655174255371,5.175866561919012,-0.005541513673961163,0.20473775267601013,-1.6211512724505823,0.0002804339455906302,0.022947173565626144,-0.05186683336366826,-0.0,-0.007723287213593721,1.2594993114471436,-7.707141553786494e-44,0.042388029396533966
248.0,370.0,-0.9063,0.2154,9.463,-0.1121,0.0761,-0.1148,-1.9836155376830042,-0.008694865740835667,3.4499096870422363,-1.6292253732681274,0.10826802253723145,2.184469223022461,5.175874817162313,-0.004686112515628338,0.19728516042232513,-1.6211193243609827,0.00038481695810332894,0.023196589201688766,-0.05181485811342412,-0.0,-5.481566040543839e-05,1.2594513893127441,-0.0004727266205009073,0.023546788841485977
245.0,296.0,-1.1462,0.7244,9.8602,-0.095,0.1045,-0.1324,-1.983603139916891,-0.007167315110564232,3.4267449378967285,-1.628485083580017,0.11003737151622772,2.2113773822784424,5.175886618881979,-0.0024870869237929583,0.17830517888069153,-1.621138874684469,0.00038370239781215787,0.02785908430814743,-0.05191070238222295,-0.0,-0.005487178452312946,1.2594796419143677,-0.0005777972401119769,0.09929342567920685
245.0,296.0,-1.1462,0.7244,9.8602,-0.095,0.1045,-0.1324,-1.9836026630797328,-0.004024997353553772,3.4144513607025146,-1.6278373003005981,0.11230365186929703,2.263383150100708,5.175878870278158,-0.0009461346198804677,0.19818757474422455,-1.6211231390582483,0.0003715662460308522,0.016735540702939034,-0.05185538927187139,-0.0,-0.005929186474531889,1.2594473361968994,-0.001026021782308817,-0.0030598100274801254
245.0,296.0,-1.1462,0.7244,9.8602,-0.095,0.1045,-0.1324,-1.9836307964720667,-0.0025376291014254093,3.4199745655059814,-1.6271897554397583,0.11377670615911484,2.25892972946167,5.175874817162313,-0.0008014349150471389,0.19079682230949402,-1.621138874684469,0.00040136618190445006,0.018468761816620827,-0.05183917680849248,-0.0,0.004262900911271572,1.2594796419143677,-0.0022155730985105038,-0.018323421478271484
245.0,296.0,-1.1462,0.7244,9.8602,-0.095,0.1045,-0.1324,-1.9836427174010218,-0.003033674554899335,3.4282586574554443,-1.6264252662658691,0.11968622356653214,2.2636568546295166,5.175850260048666,-0.000558380619622767,0.19658607244491577,-1.6210907141314905,0.0003166104725096375,0.022933077067136765,-0.051882568989888966,-0.0,-0.004557846579700708,1.2594473361968994,-0.0023520751856267452,-0.040490712970495224
245.0,296.0,-1.1462,0.7244,9.8602,-0.095,0.1045,-0.1324,-1.9836789570250453,-0.004413260612636805,3.4245643615722656,-1.6259818077087402,0.12133624404668808,2.2597811222076416,5.175858485489645,-0.000616246834397316,0.18793942034244537,-1.6211307684527796,0.0003327711019665003,0.028257358819246292,-0.05187446275819951,-0.0,0.0046900236047804356,1.2593873739242554,-0.0021945599000900984,-0.04711025953292847
245.0,296.0,-1.1462,0.7244,9.8602,-0.095,0.1045,-0.1324,-1.9836942158141078,-0.006422193720936775,3.3943967819213867,-1.6252429485321045,0.12676827609539032,2.282335042953491,5.175798225193777,-0.0009545989450998604,0.1889144480228424,-1.621131722127096,0.0002810237056110054,0.03950251266360283,-0.051834885274068654,-0.0,-0.0005574903916567564,1.259415626525879,-0.0028638907242566347,-0.12058808654546738
245.0,296.0,-1.1462,0.7244,9.8602,-0.095,0.1045,-0.1324,-1.9837948284544886,-0.008803620003163815,3.391641139984131,-1.624510645866394,0.12357337027788162,2.287696361541748,5.175810533552923,-0.0013791098026558757,0.18570289015769958,-1.6211231390582483,0.0002835616178344935,0.04121264070272446,-0.051879231129781544,-0.0,-3.075867425650358e-06,1.2594196796417236,-0.004121575504541397,-0.045280106365680695
245.0,296.0,-1.1462,0.7244,9.8602,-0.095,0.1045,-0.1324,-1.9837943516173304,-0.009988627396523952,3.404359817504883,-1.6237057447433472,0.12204691767692566,2.275056838989258,5.175826895027914,-0.0010189401218667626,0.19808553159236908,-1.6211069265948694,0.0002854782505892217,0.04617005214095116,-0.05189878145326787,-0.0,0.004637958016246557,1.2593554258346558,-0.005510763265192509,-0.043458566069602966
245.0,296.0,-1.1462,0.7244,9.8602,-0.095,0.1045,-0.1324,-1.9839183292784632,-0.008797749876976013,3.410465955734253,-1.6230382919311523,0.12398847937583923,2.283313274383545,5.175858872919836,-0.0006081678438931704,0.1883617341518402,-1.6211193243609827,0.00025516009191051126,0.031101025640964508,-0.05183869997133428,-0.0,-0.001022642944008112,1.259311556816101,-0.006476099602878094,-0.11963915824890137
245.0,296.0,-1.1462,0.7244,9.8602,-0.095,0.1045,-0.1324,-1.983894487420553,-0.007644020486623049,3.3657732009887695,-1.6224884986877441,0.12326555699110031,2.252730369567871,5.175818639784612,-0.0005737168830819428,0.1874864399433136,-1.6211469809161585,0.00021456024842336774,0.03604771941900253,-0.05183869997133428,-0.0,0.007117524743080139,1.2593042850494385,-0.007413364946842194,-0.11932146549224854
245.0,296.0,-1.1462,0.7244,9.8602,-0.095,0.1045,-0.1324,-1.9839421711363734,-0.006006227806210518,3.463165521621704,-1.6217063665390015,0.12491057068109512,2.2873597145080566,5.175858872919836,-0.0005459960084408522,0.20177406072616577,-1.621138874684469,0.0001815643481677398,0.05753142386674881,-0.05180722871889287,-0.0,-0.013814952224493027,1.2592518329620361,-0.009179815649986267,-0.13484305143356323
245.0,296.0,-1.1462,0.7244,9.8602,-0.095,0.1045,-0.1324,-1.9839822254576625,-0.005932834930717945,3.4235763549804688,-1.620970368385315,0.1311807930469513,2.2983763217926025,5.175810563355245,-0.0008914070785976946,0.1942824125289917,-1.621155087147848,0.00019432652334216982,0.058218806982040405,-0.05185920396913701,-0.0,0.001349667552858591,1.2592079639434814,-0.00904997531324625,-0.08150231838226318
245.0,296.0,-1.1462,0.7244,9.8602,-0.095,0.1045,-0.1324,-1.9839817486205042,-0.007451874203979969,3.4388718605041504,-1.6201705932617188,0.13371899724006653,2.2977452278137207,5.175754356175222,-0.0019472913118079305,0.1897202432155609,-1.621110741292135,0.00020462235261220485,0.03759513050317764,-0.05185538927187139,-0.0,-0.0039092497900128365,1.2591760158538818,-0.008098572492599487,-0.15739215910434723
