ramyac6/ROB537/final_project/csv/bad/bad_148.csv
tof_0,tof_1,accelx,accely,accelz,gyrox,gyroy,gyroz,shoulder_lift_joint_position,shoulder_lift_joint_velocity,shoulder_lift_joint_effort,elbow_joint_position,elbow_joint_velocity,elbow_joint_effort,wrist_1_joint_position,wrist_1_joint_velocity,wrist_1_joint_effort,wrist_2_joint_position,wrist_2_joint_velocity,wrist_2_joint_effort,wrist_3_joint_position,wrist_3_joint_velocity,wrist_3_joint_effort,shoulder_pan_joint_position,shoulder_pan_joint_velocity,shoulder_pan_joint_effort
475.0,439.0,1.2909,0.2148,9.2871,-0.0324,0.025,-0.1235,-1.6573487720885218,0.0,2.525496482849121,-1.6602003574371338,-0.0,2.1626975536346436,4.647567434901855,0.0,0.29000306129455566,-1.5970500151263636,0.0,-0.004870123229920864,0.7838742733001709,0.0,-0.0030553771648555994,0.7620704174041748,0.0,-0.0035649375058710575
475.0,439.0,1.2909,0.2148,9.2871,-0.0324,0.025,-0.1235,-1.657356401483053,0.0,2.493638038635254,-1.6601800918579102,-0.0,2.2016756534576416,4.647518797511719,0.0,0.300788938999176,-1.5970662275897425,0.0,-0.00885740015655756,0.7838499546051025,0.0,-0.003210846334695816,0.762054443359375,0.0,0.028165284544229507
475.0,439.0,1.2909,0.2148,9.2871,-0.0324,0.025,-0.1235,-1.6573196850218714,0.0,2.553480625152588,-1.6601800918579102,-0.0,2.1789939403533936,4.647510691280029,0.0,0.29351580142974854,-1.5970295111285608,0.0,0.0054759131744503975,0.7838581800460815,0.0,-0.0006653780583292246,0.7620742917060852,0.0,-0.012978721410036087
475.0,439.0,1.2909,0.2148,9.2871,-0.0324,0.025,-0.1235,-1.657384534875387,0.0,2.5473580360412598,-1.660187840461731,-0.0,2.1413826942443848,4.647518797511719,0.0,0.285491406917572,-1.5970500151263636,0.0,-0.004710592329502106,0.7838459014892578,0.0,-0.0027430709451436996,0.7620503306388855,0.0,-0.016664184629917145
475.0,439.0,1.2909,0.2148,9.2871,-0.0324,0.025,-0.1235,-1.657356401483053,0.0,2.540858507156372,-1.6602001190185547,-0.0,2.2079885005950928,4.64750258504834,0.0,0.2938927710056305,-1.5970657507525843,0.0,-0.017433738335967064,0.7838175892829895,0.0,-0.008829166181385517,0.7620263695716858,0.0,0.0064125643111765385
475.0,439.0,1.2909,0.2148,9.2871,-0.0324,0.025,-0.1235,-1.6574002705016078,0.0,2.511000394821167,-1.6602001190185547,-0.0,2.178717613220215,4.647514505977295,0.0,0.29431474208831787,-1.597018067036764,0.0,-0.007212541997432709,0.7838659286499023,0.0,0.003905432764440775,0.7620664238929749,0.0,0.017161410301923752
475.0,439.0,1.2909,0.2148,9.2871,-0.0324,0.025,-0.1235,-1.6573401890196742,0.0,2.5085489749908447,-1.660220742225647,-0.0,2.1777119636535645,4.647578878993652,0.0,0.2911033034324646,-1.5970576445208948,0.0,-0.005827557295560837,0.7838176488876343,0.0,-0.001311655854806304,0.762054443359375,0.0,0.022446870803833008
475.0,439.0,1.2909,0.2148,9.2871,-0.0324,0.025,-0.1235,-1.6573401890196742,0.0,2.5268566608428955,-1.660187840461731,-0.0,2.140136241912842,4.64749447881665,0.0,0.3021390438079834,-1.597058121358053,0.0,-0.007155582308769226,0.7838541269302368,0.0,-0.008057224564254284,0.7620745897293091,0.0,-0.011377350427210331
490.0,432.0,1.2658,0.2746,9.4576,-0.036,0.0223,-0.1116,-1.6573764286436976,0.0,2.5420944690704346,-1.6601604223251343,-0.0,2.1402394771575928,4.647514505977295,0.0,0.2957931458950043,-1.5970376173602503,0.0,-0.006553862243890762,0.7838499546051025,0.0,-0.005909615196287632,0.7620866298675537,0.0,0.023710649460554123
490.0,432.0,1.2658,0.2746,9.4576,-0.036,0.0223,-0.1116,-1.6574083767332972,0.0,2.5237324237823486,-1.6601678133010864,-0.0,2.1751761436462402,4.647535009975098,0.0,0.29795217514038086,-1.5970419088946741,0.0,-0.005381091497838497,0.7838622331619263,0.0,-0.008914930745959282,0.7620824575424194,0.0,-0.030033394694328308
490.0,432.0,1.2658,0.2746,9.4576,-0.036,0.0223,-0.1116,-1.6573168239989222,0.0,2.5480079650878906,-1.660159945487976,-0.0,2.1815543174743652,4.647563143367432,0.0,0.28159937262535095,-1.5970419088946741,0.0,-0.0022140475921332836,0.7838541269302368,0.0,0.004573499783873558,0.7620503902435303,0.0,0.044813163578510284
490.0,432.0,1.2658,0.2746,9.4576,-0.036,0.0223,-0.1116,-1.6573401890196742,0.0,2.5516719818115234,-1.660204291343689,-0.0,2.1737101078033447,4.647546930904053,0.0,0.29730141162872314,-1.5970657507525843,0.0,-0.0038838351611047983,0.7838898301124573,0.0,-0.015773648396134377,0.7620745897293091,0.0,0.0016032587736845016
490.0,432.0,1.2658,0.2746,9.4576,-0.036,0.0223,-0.1116,-1.657372613946432,0.0,2.513443946838379,-1.660168170928955,-0.0,2.1666791439056396,4.647559328670166,0.0,0.3055172562599182,-1.5970419088946741,0.0,0.0018446703907102346,0.7838898301124573,0.0,0.006986497901380062,0.7620545029640198,0.0,-0.01312941499054432
490.0,432.0,1.2658,0.2746,9.4576,-0.036,0.0223,-0.1116,-1.6573487720885218,0.0,2.532634735107422,-1.6601717472076416,-0.0,2.1777303218841553,4.64752642690625,0.0,0.294727623462677,-1.5970576445208948,0.0,-0.011534402146935463,0.7838816046714783,0.0,0.0020188563503324986,0.7620825171470642,0.0,-0.024652570486068726
490.0,432.0,1.2658,0.2746,9.4576,-0.036,0.0223,-0.1116,-1.6573487720885218,0.0,2.538876533508301,-1.6601961851119995,-0.0,2.164626121520996,4.647542639369629,0.0,0.30155521631240845,-1.5970500151263636,0.0,-0.0017657094867900014,0.7838459014892578,0.0,0.001983289374038577,0.7620704770088196,0.0,-0.026836227625608444
490.0,432.0,1.2658,0.2746,9.4576,-0.036,0.0223,-0.1116,-1.6573764286436976,0.0,2.554603099822998,-1.6601600646972656,-0.0,2.233250141143799,4.64752642690625,0.0,0.28543224930763245,-1.597018067036764,0.0,0.005476102232933044,0.7838336229324341,0.0,0.006816673092544079,0.7620503902435303,0.0,0.00486336462199688
490.0,432.0,1.2658,0.2746,9.4576,-0.036,0.0223,-0.1116,-1.6573521099486292,0.0,2.5373265743255615,-1.6601841449737549,-0.0,2.201439380645752,4.647550745601318,0.0,0.2767678201198578,-1.5970576445208948,0.0,-0.006829078309237957,0.7839018106460571,0.0,-0.0008735526353120804,0.762054443359375,0.0,-0.011923447251319885
490.0,432.0,1.2658,0.2746,9.4576,-0.036,0.0223,-0.1116,-1.6573687992491664,0.0,2.497628688812256,-1.6601760387420654,-0.0,2.1697731018066406,4.647538347835205,0.0,0.29426461458206177,-1.5970619360553187,0.0,-0.013658549636602402,0.7838499546051025,0.0,-0.007975351996719837,0.7620223164558411,0.0,0.04324348270893097
490.0,432.0,1.2658,0.2746,9.4576,-0.036,0.0223,-0.1116,-1.657344480554098,0.0,2.523332118988037,-1.6601154804229736,-0.0,2.161280393600464,4.647514505977295,0.0,0.299278199672699,-1.597098175679342,0.0,-0.015010138042271137,0.783881664276123,0.0,0.000979839009232819,0.7620382905006409,0.0,0.007402889430522919
490.0,432.0,1.2658,0.2746,9.4576,-0.036,0.0223,-0.1116,-1.6573521099486292,0.0,2.5247790813446045,-1.6602166891098022,-0.0,2.2006661891937256,4.64749447881665,0.0,0.2977764308452606,-1.5971100966082972,0.0,-0.019746100530028343,0.7838499546051025,0.0,0.00016432494157925248,0.7620503902435303,0.0,0.07271738350391388
490.0,432.0,1.2658,0.2746,9.4576,-0.036,0.0223,-0.1116,-1.6574045620360316,0.0,2.5747642517089844,-1.6602115631103516,-0.0,2.142413377761841,4.647498770351074,0.0,0.28850001096725464,-1.5970333258258265,0.0,-5.9250276535749435e-05,0.7838218212127686,0.0,0.0033972575329244137,0.7620745897293091,0.0,0.0026815906167030334
490.0,432.0,1.2658,0.2746,9.4576,-0.036,0.0223,-0.1116,-1.6573401890196742,0.0,2.5486536026000977,-1.6601722240447998,-0.0,2.1703147888183594,4.647542639369629,0.0,0.2971920073032379,-1.5970500151263636,0.0,-0.009152015671133995,0.7838218212127686,0.0,-0.0014405518304556608,0.7620663642883301,0.0,-0.011324256658554077
486.0,426.0,1.2461,0.2285,9.3799,-0.0374,0.0231,-0.1194,-1.6573363743224085,0.0,2.5388481616973877,-1.6602041721343994,-0.0,2.207005023956299,4.647542639369629,0.0,0.29015082120895386,-1.5970938841449183,0.0,-0.0025585470721125603,0.7838335633277893,0.0,-0.016557831317186356,0.7620585560798645,0.0,0.023272573947906494
486.0,426.0,1.2461,0.2285,9.3799,-0.0374,0.0231,-0.1194,-1.6573363743224085,0.0,2.539726495742798,-1.6602002382278442,-0.0,2.1726717948913574,4.6475183206745605,0.0,0.3067081570625305,-1.5970500151263636,0.0,-0.006121788173913956,0.7838016152381897,0.0,-0.008395286276936531,0.7620382905006409,0.0,-0.02501925639808178
486.0,426.0,1.2461,0.2285,9.3799,-0.0374,0.0231,-0.1194,-1.6573683224120082,0.0,2.5433239936828613,-1.660240650177002,-0.0,2.221681833267212,4.647486372584961,0.0,0.2930505871772766,-1.5970500151263636,0.0,0.00037012260872870684,0.7838899493217468,0.0,-5.137687548995018e-05,0.7620580792427063,0.0,-0.011637727729976177
486.0,426.0,1.2461,0.2285,9.3799,-0.0374,0.0231,-0.1194,-1.657344480554098,0.0,2.5197668075561523,-1.6602002382278442,-0.0,2.197136402130127,4.647518797511719,0.0,0.28761231899261475,-1.5971019903766077,0.0,-0.024369537830352783,0.783829927444458,0.0,0.0012847727630287409,0.7620421051979065,0.0,0.046800971031188965
486.0,426.0,1.2461,0.2285,9.3799,-0.0374,0.0231,-0.1194,-1.6573764286436976,0.0,2.512284755706787,-1.6601722240447998,-0.0,2.162273406982422,4.647530718440674,0.0,0.28674814105033875,-1.5970376173602503,0.0,0.0007247273460961878,0.7838659882545471,0.0,-0.007319893222302198,0.762054443359375,0.0,0.015401171520352364
486.0,426.0,1.2461,0.2285,9.3799,-0.0374,0.0231,-0.1194,-1.657344480554098,0.0,2.5476322174072266,-1.660159945487976,-0.0,2.166090965270996,4.647506399745605,0.0,0.28138822317123413,-1.5970662275897425,0.0,-0.001393833663314581,0.7838499546051025,0.0,-0.0022409316152334213,0.7620503902435303,0.0,-0.0013152756728231907
486.0,426.0,1.2461,0.2285,9.3799,-0.0374,0.0231,-0.1194,-1.657372613946432,0.0,2.533897876739502,-1.6601881980895996,-0.0,2.157602071762085,4.647514505977295,0.0,0.3000297546386719,-1.597070042287008,0.0,-0.007821253500878811,0.7838459014892578,0.0,0.006071394309401512,0.7620382905006409,0.0,0.044820111244916916
486.0,426.0,1.2461,0.2285,9.3799,-0.0374,0.0231,-0.1194,-1.6573764286436976,0.0,2.557447910308838,-1.6601800918579102,-0.0,2.163336753845215,4.647531195277832,0.0,0.2840114235877991,-1.5970099608050745,0.0,0.0009880396537482738,0.7838135957717896,0.0,-0.011967548169195652,0.7620462775230408,0.0,0.06341708451509476
486.0,426.0,1.2461,0.2285,9.3799,-0.0374,0.0231,-0.1194,-1.6573645077147425,0.0,2.531850814819336,-1.6602085828781128,-0.0,2.1687307357788086,4.647538824672363,0.0,0.2928010821342468,-1.5970419088946741,0.0,0.0019239954417571425,0.7838459014892578,0.0,-0.0013875700533390045,0.7620626091957092,0.0,-0.02141912654042244
486.0,426.0,1.2461,0.2285,9.3799,-0.0374,0.0231,-0.1194,-1.657328268090719,0.0,2.5633182525634766,-1.6601961851119995,-0.0,2.13413667678833,4.647518797511719,0.0,0.2962294816970825,-1.5970543066607874,0.0,-0.008567036129534245,0.7838176488876343,0.0,-0.011411977000534534,0.7620626091957092,0.0,-0.027289608493447304
486.0,426.0,1.2461,0.2285,9.3799,-0.0374,0.0231,-0.1194,-1.657344480554098,0.0,2.517106533050537,-1.6601521968841553,-0.0,2.1666102409362793,4.647530718440674,0.0,0.2944244146347046,-1.5970333258258265,0.0,-0.017137011513113976,0.7838935256004333,0.0,0.0023157084360718727,0.7620182037353516,0.0,0.028697917237877846
486.0,426.0,1.2461,0.2285,9.3799,-0.0374,0.0231,-0.1194,-1.6573363743224085,0.0,2.5878379344940186,-1.66019606590271,-0.0,2.1391592025756836,4.64750258504834,0.0,0.2796283960342407,-1.5970619360553187,0.0,-0.004571982659399509,0.7838176488876343,0.0,-0.002401842502877116,0.7620304822921753,0.0,0.014971981756389141
486.0,426.0,1.2461,0.2285,9.3799,-0.0374,0.0231,-0.1194,-1.6573249302306117,0.0,2.519493579864502,-1.6601518392562866,-0.0,2.1804709434509277,4.647530718440674,0.0,0.2822260856628418,-1.5970619360553187,0.0,-0.008807577192783356,0.7838499546051025,0.0,0.002597297541797161,0.7620865702629089,0.0,-0.01921994425356388
486.0,426.0,1.2461,0.2285,9.3799,-0.0374,0.0231,-0.1194,-1.6573363743224085,0.0,2.5819144248962402,-1.6602282524108887,-0.0,2.1489038467407227,4.647530718440674,0.0,0.28586912155151367,-1.5970543066607874,0.0,-0.011959731578826904,0.7838581800460815,0.0,-0.005725971423089504,0.7620300650596619,0.0,-0.011603683233261108
486.0,426.0,1.2461,0.2285,9.3799,-0.0374,0.0231,-0.1194,-1.657311578790182,0.0,2.546334743499756,-1.6601961851119995,-0.0,2.176241397857666,4.647514982814453,0.0,0.3011130690574646,-1.5970543066607874,0.0,-0.003769315080717206,0.7838499546051025,0.0,0.0002417626092210412,0.7620626091957092,0.0,-0.037918057292699814
478.0,444.0,1.1276,0.189,9.6096,-0.0336,0.0211,-0.1162,-1.6573521099486292,0.0,2.5702428817749023,-1.6602001190185547,-0.0,2.169321060180664,4.647506399745605,0.0,0.2896823287010193,-1.5970333258258265,0.0,-0.018439801409840584,0.7838663458824158,0.0,-0.007776014972478151,0.7620424032211304,0.0,0.028656017035245895
478.0,444.0,1.1276,0.189,9.6096,-0.0336,0.0211,-0.1162,-1.6573921642699183,0.0,2.5520169734954834,-1.660176396369934,-0.0,2.1584105491638184,4.647518797511719,0.0,0.29196834564208984,-1.5970662275897425,0.0,-0.01763312704861164,0.7838378548622131,0.0,-0.00994715467095375,0.7620382905006409,0.0,0.012999160215258598
478.0,444.0,1.1276,0.189,9.6096,-0.0336,0.0211,-0.1162,-1.6573487720885218,0.0,2.5458950996398926,-1.660168170928955,-0.0,2.189908027648926,4.647542639369629,0.0,0.30366748571395874,-1.5970543066607874,0.0,0.00455115083605051,0.7838256359100342,0.0,-0.0015421421267092228,0.7620704174041748,0.0,-0.005646875593811274
478.0,444.0,1.1276,0.189,9.6096,-0.0336,0.0211,-0.1162,-1.6573683224120082,0.0,2.5547261238098145,-1.660204529762268,-0.0,2.1815500259399414,4.647566958064697,0.0,0.2867167592048645,-1.597070042287008,0.0,-0.011980625800788403,0.7838499546051025,0.0,-0.0040415991097688675,0.7620663642883301,0.0,-0.011484676972031593
478.0,444.0,1.1276,0.189,9.6096,-0.0336,0.0211,-0.1162,-1.6573521099486292,0.0,2.518813133239746,-1.6601841449737549,-0.0,2.2165443897247314,4.647538824672363,0.0,0.29162707924842834,-1.5970619360553187,0.0,-0.0025157860945910215,0.7838499546051025,0.0,-0.0026223049499094486,0.7620585560798645,0.0,-0.000640869140625
478.0,444.0,1.1276,0.189,9.6096,-0.0336,0.0211,-0.1162,-1.6573239765562953,0.0,2.54535174369812,-1.6601558923721313,-0.0,2.2121739387512207,4.647518797511719,0.0,0.29817530512809753,-1.5970657507525843,0.0,0.001189148286357522,0.7838499546051025,0.0,-0.0024844491854310036,0.7620342373847961,0.0,-0.007107775192707777
478.0,444.0,1.1276,0.189,9.6096,-0.0336,0.0211,-0.1162,-1.6573196850218714,0.0,2.599963903427124,-1.660204291343689,-0.0,2.1495203971862793,4.647542639369629,0.0,0.2886260747909546,-1.597070042287008,0.0,-0.00532159861177206,0.7838418483734131,0.0,-0.009346329607069492,0.7620622515678406,0.0,-0.03538452833890915
478.0,444.0,1.1276,0.189,9.6096,-0.0336,0.0211,-0.1162,-1.657384534875387,0.0,2.5641050338745117,-1.6602085828781128,-0.0,2.2107577323913574,4.6475230890461425,0.0,0.3037906289100647,-1.5970500151263636,0.0,-0.006588112562894821,0.7838176488876343,0.0,-0.004988308530300856,0.7620382905006409,0.0,0.009482931345701218
478.0,444.0,1.1276,0.189,9.6096,-0.0336,0.0211,-0.1162,-1.6573401890196742,0.0,2.555171489715576,-1.6602323055267334,-0.0,2.184628963470459,4.647563143367432,0.0,0.291741281747818,-1.5970786253558558,0.0,-0.016911938786506653,0.7838016152381897,0.0,0.005172267556190491,0.7620704174041748,0.0,0.03292485326528549
478.0,444.0,1.1276,0.189,9.6096,-0.0336,0.0211,-0.1162,-1.6573521099486292,0.0,2.5389931201934814,-1.6601961851119995,-0.0,2.1936404705047607,4.647535009975098,0.0,0.3004923164844513,-1.5970419088946741,0.0,-0.00793924368917942,0.7838499546051025,0.0,-0.013241205364465714,0.762054443359375,0.0,0.007809134665876627
478.0,444.0,1.1276,0.189,9.6096,-0.0336,0.0211,-0.1162,-1.657327791253561,0.0,2.54038143157959,-1.6601920127868652,-0.0,2.184072971343994,4.647514982814453,0.0,0.2877044081687927,-1.5970619360553187,0.0,-0.008773572742938995,0.7838377952575684,0.0,-0.0008719176985323429,0.762078583240509,0.0,-0.010658145882189274
478.0,444.0,1.1276,0.189,9.6096,-0.0336,0.0211,-0.1162,-1.657344480554098,0.0,2.561039924621582,-1.6601639986038208,-0.0,2.2079758644104004,4.647542639369629,0.0,0.30274495482444763,-1.5970333258258265,0.0,-0.0011587815824896097,0.7838336229324341,0.0,0.0013333585811778903,0.7620585560798645,0.0,-0.007063759490847588
478.0,444.0,1.1276,0.189,9.6096,-0.0336,0.0211,-0.1162,-1.6573196850218714,0.0,2.495267391204834,-1.6601800918579102,-0.0,2.2124295234680176,4.647538824672363,0.0,0.28241291642189026,-1.5970662275897425,0.0,-0.018808873370289803,0.7837856411933899,0.0,-0.01101849414408207,0.7620342373847961,0.0,-0.023413116112351418
478.0,444.0,1.1276,0.189,9.6096,-0.0336,0.0211,-0.1162,-1.6573239765562953,0.0,2.5142581462860107,-1.6601881980895996,-0.0,2.1280455589294434,4.647550745601318,0.0,0.29627978801727295,-1.5970576445208948,0.0,0.005317221861332655,0.7838782668113708,0.0,0.002852628706023097,0.7620300650596619,0.0,-0.0003982745110988617
463.0,438.0,1.3238,0.2578,9.5043,-0.0339,0.0249,-0.1147,-1.657372613946432,0.0,2.5340075492858887,-1.6601800918579102,-0.0,2.2052903175354004,4.647534533137939,0.0,0.2880195379257202,-1.5970662275897425,0.0,-0.008892243728041649,0.7838499546051025,0.0,-0.008256467990577221,0.7620301246643066,0.0,-0.03256819769740105
463.0,438.0,1.3238,0.2578,9.5043,-0.0339,0.0249,-0.1147,-1.6573401890196742,0.0,2.5748043060302734,-1.6601837873458862,-0.0,2.162674903869629,4.647518797511719,0.0,0.2976273000240326,-1.5970619360553187,0.0,0.005912317894399166,0.7837975025177002,0.0,0.0026863173115998507,0.7620585560798645,0.0,-0.0023415512405335903
463.0,438.0,1.3238,0.2578,9.5043,-0.0339,0.0249,-0.1147,-1.657344480554098,0.0,2.548419952392578,-1.660159945487976,-0.0,2.209064483642578,4.6474830347248535,0.0,0.29553261399269104,-1.5970500151263636,0.0,-0.007809314411133528,0.7838541269302368,0.0,-0.0021601608023047447,0.762054443359375,0.0,0.01311358530074358
463.0,438.0,1.3238,0.2578,9.5043,-0.0339,0.0249,-0.1147,-1.6573568783202113,0.0,2.503711700439453,-1.6601641178131104,-0.0,2.1591615676879883,4.647554560298584,0.0,0.29807502031326294,-1.5970295111285608,0.0,-0.006318111903965473,0.7838701009750366,0.0,-0.0010314059909433126,0.7620585560798645,0.0,-0.05014791339635849
463.0,438.0,1.3238,0.2578,9.5043,-0.0339,0.0249,-0.1147,-1.6573401890196742,0.0,2.572495222091675,-1.6602001190185547,-0.0,2.1600189208984375,4.6475464540668945,0.0,0.29204466938972473,-1.5970295111285608,0.0,-0.003612181870266795,0.7838857769966125,0.0,0.007568961940705776,0.7620099186897278,0.0,-0.060012511909008026
463.0,438.0,1.3238,0.2578,9.5043,-0.0339,0.0249,-0.1147,-1.6573645077147425,0.0,2.5291857719421387,-1.660151720046997,-0.0,2.1700401306152344,4.647542639369629,0.0,0.2923852205276489,-1.5970657507525843,0.0,-0.005013248883187771,0.7838815450668335,0.0,-0.00866125337779522,0.7620341777801514,0.0,0.03642549738287926
463.0,438.0,1.3238,0.2578,9.5043,-0.0339,0.0249,-0.1147,-1.657384534875387,0.0,2.5483059883117676,-1.6601439714431763,-0.0,2.1838347911834717,4.647542639369629,0.0,0.28962278366088867,-1.597074333821432,0.0,0.0054626381024718285,0.7838659286499023,0.0,-0.002494463697075844,0.7620585560798645,0.0,-0.0006594732403755188
463.0,438.0,1.3238,0.2578,9.5043,-0.0339,0.0249,-0.1147,-1.657384534875387,0.0,2.5873870849609375,-1.6601600646972656,-0.0,2.1693367958068848,4.647542639369629,0.0,0.2851792573928833,-1.5970619360553187,0.0,-0.0020456109195947647,0.7838499546051025,0.0,-0.0042338608764112,0.762046217918396,0.0,0.019532185047864914
463.0,438.0,1.3238,0.2578,9.5043,-0.0339,0.0249,-0.1147,-1.657360693017477,0.0,2.555274724960327,-1.6602447032928467,-0.0,2.143646717071533,4.647558851833008,0.0,0.2919768989086151,-1.5970419088946741,0.0,-0.009649199433624744,0.783889889717102,0.0,0.0016858296003192663,0.7620866298675537,0.0,-0.013019749894738197
463.0,438.0,1.3238,0.2578,9.5043,-0.0339,0.0249,-0.1147,-1.657372613946432,0.0,2.553492784500122,-1.6601639986038208,-0.0,2.1686649322509766,4.647530718440674,0.0,0.29793524742126465,-1.5970137755023401,0.0,0.0007744242320768535,0.7838459610939026,0.0,-0.004638312850147486,0.7620223164558411,0.0,0.039752401411533356
463.0,438.0,1.3238,0.2578,9.5043,-0.0339,0.0249,-0.1147,-1.657372613946432,0.0,2.5531678199768066,-1.6601800918579102,-0.0,2.1938071250915527,4.647530718440674,0.0,0.2741428017616272,-1.5970543066607874,0.0,-0.002916208701208234,0.7838377952575684,0.0,-0.003392354119569063,0.7620663642883301,0.0,0.05192188546061516
463.0,438.0,1.3238,0.2578,9.5043,-0.0339,0.0249,-0.1147,-1.6573764286436976,0.0,2.5589230060577393,-1.6601439714431763,-0.0,2.150698661804199,4.647526903743408,0.0,0.2905431091785431,-1.5970624128924769,0.0,-0.005050748586654663,0.7838499546051025,0.0,0.011429598554968834,0.7620387077331543,0.0,0.0033790981397032738
463.0,438.0,1.3238,0.2578,9.5043,-0.0339,0.0249,-0.1147,-1.657356401483053,0.0,2.5655150413513184,-1.6601722240447998,-0.0,2.1693196296691895,4.6475464540668945,0.0,0.2792455852031708,-1.5970619360553187,0.0,-0.00717149255797267,0.7838499546051025,0.0,0.000525476410984993,0.7620382905006409,0.0,-0.03810099512338638
463.0,438.0,1.3238,0.2578,9.5043,-0.0339,0.0249,-0.1147,-1.657344480554098,0.0,2.538813591003418,-1.660159945487976,-0.0,2.1244983673095703,4.647482557887695,0.0,0.2804543375968933,-1.5970662275897425,0.0,-0.022071126848459244,0.783889889717102,0.0,-0.00706750201061368,0.7620745301246643,0.0,0.008451927453279495
463.0,438.0,1.3238,0.2578,9.5043,-0.0339,0.0249,-0.1147,-1.6573082409300746,0.0,2.558328866958618,-1.6602208614349365,-0.0,2.1388494968414307,4.647570772761963,0.0,0.2987897992134094,-1.5970457235919397,0.0,-0.007772326469421387,0.7838499546051025,0.0,0.0001596575602889061,0.7620341777801514,0.0,-0.014753967523574829
462.0,434.0,1.1336,0.1161,9.457,-0.0324,0.0165,-0.1067,-1.6573683224120082,0.0,2.516758918762207,-1.6601881980895996,-0.0,2.1918869018554688,4.647510691280029,0.0,0.28931325674057007,-1.5970619360553187,0.0,-0.0008514733053743839,0.7838175892829895,0.0,-0.007335029076784849,0.7620626091957092,0.0,-0.05076901614665985
462.0,434.0,1.1336,0.1161,9.457,-0.0324,0.0165,-0.1067,-1.6574002705016078,0.0,2.5470902919769287,-1.6602126359939575,-0.0,2.119920015335083,4.647558851833008,0.0,0.294239342212677,-1.5970295111285608,0.0,0.004346382804214954,0.7838499546051025,0.0,-0.01520705409348011,0.7620099782943726,0.0,0.0014329580590128899
462.0,434.0,1.1336,0.1161,9.457,-0.0324,0.0165,-0.1067,-1.657360693017477,0.0,2.5357913970947266,-1.6601641178131104,-0.0,2.1287081241607666,4.647510691280029,0.0,0.28854435682296753,-1.597086254750387,0.0,-0.003204405540600419,0.7838541269302368,0.0,-0.00868731364607811,0.7620621919631958,0.0,0.024089662358164787
462.0,434.0,1.1336,0.1161,9.457,-0.0324,0.0165,-0.1067,-1.6573440037169398,0.0,2.5386013984680176,-1.6601641178131104,-0.0,2.1966617107391357,4.647526903743408,0.0,0.2921019196510315,-1.5970619360553187,0.0,-0.00610350351780653,0.7838217616081238,0.0,-0.003199134487658739,0.7620623111724854,0.0,0.02127646654844284
462.0,434.0,1.1336,0.1161,9.457,-0.0324,0.0165,-0.1067,-1.6573602161803187,0.0,2.58968448638916,-1.6601518392562866,-0.0,2.251494884490967,4.647510691280029,0.0,0.28676775097846985,-1.5970657507525843,0.0,-0.012979153543710709,0.7838016152381897,0.0,-0.006525390315800905,0.762110710144043,0.0,-0.03925636038184166
462.0,434.0,1.1336,0.1161,9.457,-0.0324,0.0165,-0.1067,-1.6573239765562953,0.0,2.5530974864959717,-1.6601881980895996,-0.0,2.2093288898468018,4.647491140956543,0.0,0.2706436216831207,-1.5970781485186976,0.0,-0.00646016001701355,0.7838499546051025,0.0,-0.002981236670166254,0.7621268630027771,0.0,0.058618463575839996
462.0,434.0,1.1336,0.1161,9.457,-0.0324,0.0165,-0.1067,-1.6573683224120082,0.0,2.5416975021362305,-1.6601439714431763,-0.0,2.1915149688720703,4.647558851833008,8.428434483676028e-08,0.29137468338012695,-1.5970619360553187,0.0,-0.006638465449213982,0.7838541269302368,0.0,-0.009771210141479969,0.7620580792427063,0.0004677412216551602,0.01057210098952055
462.0,434.0,1.1336,0.1161,9.457,-0.0324,0.0165,-0.1067,-1.6572920284666957,0.0,2.545302391052246,-1.6601320505142212,-0.0,2.1483850479125977,4.6475464540668945,2.346085652138452e-11,0.2938272953033447,-1.5970657507525843,0.0,0.006016735918819904,0.783898115158081,0.0,-0.0033220318146049976,0.7621548771858215,0.0006444440805353224,0.015985824167728424
462.0,434.0,1.1336,0.1161,9.457,-0.0324,0.0165,-0.1067,-1.657300134698385,0.0,2.5222549438476562,-1.66015625,-0.0,2.149282455444336,4.647542639369629,6.5304152297091574e-15,0.3021288812160492,-1.5971177260028284,0.0,-0.008353982120752335,0.7838499546051025,0.0,-0.0008620914304628968,0.7621264457702637,0.0009934685658663511,-0.02298264391720295
462.0,434.0,1.1336,0.1161,9.457,-0.0324,0.0165,-0.1067,-1.6573525867857875,0.0,2.5294854640960693,-1.660179615020752,-0.0,2.1660423278808594,4.647522612208984,1.8177651716467712e-18,0.2851831912994385,-1.5971100966082972,0.0,-0.0017587754409760237,0.7838823199272156,0.0,0.012990443035960197,0.7620865106582642,0.0009001686121337116,-0.020153464749455452
462.0,434.0,1.1336,0.1161,9.457,-0.0324,0.0165,-0.1067,-1.6573363743224085,0.0,2.5892210006713867,-1.66019606590271,-0.0,2.1509146690368652,4.647518797511719,0.0003509703674353659,0.2823280394077301,-1.5970576445208948,0.0,-0.012212401255965233,0.783889889717102,0.0,-2.9387883841991425e-06,0.7621145248413086,0.0007943687960505486,-0.02267671562731266
462.0,434.0,1.1336,0.1161,9.457,-0.0324,0.0165,-0.1067,-1.6573206386961878,0.0,2.5410799980163574,-1.6601841449737549,-0.0,2.159315347671509,4.647543116206787,0.00034161267103627324,0.30506274104118347,-1.597070042287008,0.0,-0.007012087851762772,0.7838701605796814,0.0,0.013113949447870255,0.7621264457702637,0.000661550322547555,-0.04762566462159157
462.0,434.0,1.1336,0.1161,9.457,-0.0324,0.0165,-0.1067,-1.657344480554098,0.0,2.525052547454834,-1.6601760387420654,-0.0,2.181140661239624,4.647555037135742,0.0002871150791179389,0.2899530231952667,-1.5970938841449183,0.0,-0.007631581276655197,0.7838499546051025,0.0,-0.004843937233090401,0.762162446975708,0.0004733767418656498,-0.0024253781884908676
462.0,434.0,1.1336,0.1161,9.457,-0.0324,0.0165,-0.1067,-1.6573487720885218,0.0,2.570586681365967,-1.6601800918579102,-0.0,2.1884825229644775,4.647546930904053,0.0002476070949342102,0.2951832115650177,-1.5971058050738733,0.0,-0.002473563887178898,0.7838418483734131,0.0,0.013422003015875816,0.7621585726737976,0.00035978559753857553,-0.020390789955854416
504.0,427.0,0.9685,0.4295,9.4624,-0.0333,0.0261,-0.1093,-1.657316347161764,8.142937440425158e-05,2.5359411239624023,-1.660111427307129,-0.0,2.1360068321228027,4.647563143367432,0.0002176594134652987,0.2978357672691345,-1.5970938841449183,0.0,-0.011989782564342022,0.7838419079780579,0.0,-0.00825184304267168,0.7621585726737976,0.00029016868211328983,-0.005379964131861925
504.0,427.0,0.9685,0.4295,9.4624,-0.0333,0.0261,-0.1093,-1.657372613946432,7.431468111462891e-05,2.557255268096924,-1.6601481437683105,-0.0,2.173703193664551,4.647518797511719,0.00019417493604123592,0.28313329815864563,-1.5970576445208948,0.0,-0.0005792891606688499,0.7838581800460815,0.0,-0.01025411020964384,0.762170672416687,0.0002749805280473083,0.026476308703422546
504.0,427.0,0.9685,0.4295,9.4624,-0.0333,0.0261,-0.1093,-1.657372613946432,4.436000153873465e-07,2.5448808670043945,-1.6601760387420654,-0.0,2.212203025817871,4.647534533137939,0.00015587732195854187,0.2936829626560211,-1.5970738569842737,0.0,0.0020035698544234037,0.7838295698165894,0.0,-0.0032084083650261164,0.7621585726737976,0.00023990319459699094,0.005073018837720156
504.0,427.0,0.9685,0.4295,9.4624,-0.0333,0.0261,-0.1093,-1.6573807201781214,1.0712418365560472e-12,2.5248420238494873,-1.6602085828781128,-0.0,2.2170183658599854,4.647570295924805,0.000129274747450836,0.28651902079582214,-1.5970457235919397,2.788683559629135e-07,-0.010373716242611408,0.7838295698165894,0.0,-0.00014843011740595102,0.7621304988861084,0.0002116881514666602,0.012014362961053848
504.0,427.0,0.9685,0.4295,9.4624,-0.0333,0.0261,-0.1093,-1.6573683224120082,2.5869232001322668e-18,2.5446701049804688,-1.6602085828781128,-0.0,2.1614818572998047,4.647526903743408,0.00011901328980457038,0.3000587224960327,-1.5970781485186976,7.76240391409111e-11,0.0025093313306570053,0.7838619351387024,0.0,-0.0023062925320118666,0.7621788382530212,0.00015789475583005697,0.008810061030089855
504.0,427.0,0.9685,0.4295,9.4624,-0.0333,0.0261,-0.1093,-1.6574002705016078,6.247115726190028e-24,2.575106620788574,-1.6601518392562866,-0.0,2.1648075580596924,4.647498770351074,8.840562077239156e-05,0.3003315329551697,-1.5970781485186976,2.160693465238974e-14,-0.01696057803928852,0.7838499546051025,0.0,-0.003115057945251465,0.7621145248413086,8.905207505449653e-05,0.019934920594096184
504.0,427.0,0.9685,0.4295,9.4624,-0.0333,0.0261,-0.1093,-1.6574040851988734,1.5086048490995498e-29,2.4861679077148438,-1.6602158546447754,-0.0,2.164299488067627,4.647486849422119,6.198295159265399e-05,0.2962891459465027,-1.5970738569842737,6.014369849688348e-18,-0.014369129203259945,0.7838541269302368,0.0,0.010389186441898346,0.762037992477417,7.823937630746514e-05,0.014914168044924736
504.0,427.0,0.9685,0.4295,9.4624,-0.0333,0.0261,-0.1093,-1.6574245891966761,3.643103514108268e-35,2.526569366455078,-1.6601678133010864,-0.0,2.159580707550049,4.647538824672363,-4.852308120462112e-05,0.28025493025779724,-1.5970576445208948,1.6741219762116755e-21,-0.010173521004617214,0.7838336229324341,0.0,-0.0023749847896397114,0.7621145248413086,7.198168896138668e-05,0.005957236513495445
504.0,427.0,0.9685,0.4295,9.4624,-0.0333,0.0261,-0.1093,-1.6574646435179652,-0.002268228679895401,2.582141876220703,-1.660187840461731,-0.0,2.2353711128234863,4.647542639369629,-8.985449676401913e-05,0.2881632149219513,-1.5971139113055628,4.659979846920323e-25,-0.003799260128289461,0.7838214635848999,0.0,-0.011975422501564026,0.7621508240699768,6.665091495960951e-05,-0.0028528175316751003
504.0,427.0,0.9685,0.4295,9.4624,-0.0333,0.0261,-0.1093,-1.657480379144186,-0.005024036392569542,2.5036134719848633,-1.6601837873458862,-0.0,2.129035234451294,4.6474949556538085,-0.0006574082653969526,0.2872038185596466,-1.5970781485186976,1.2971226046001746e-28,0.002307755406945944,0.7838582396507263,0.0,-0.005695103667676449,0.7621344327926636,6.205530371516943e-05,0.020265094935894012
504.0,427.0,0.9685,0.4295,9.4624,-0.0333,0.0261,-0.1093,-1.6575123272337855,-0.00919947400689125,2.541175603866577,-1.6602116823196411,-0.0,2.1822350025177,4.64747874319043,-0.000851171906106174,0.28659242391586304,-1.5970738569842737,3.6105882039002587e-32,-0.011850427836179733,0.7838295102119446,0.0,-0.0024823425337672234,0.7621104717254639,7.739281136309728e-05,-0.030467212200164795
504.0,427.0,0.9685,0.4295,9.4624,-0.0333,0.0261,-0.1093,-1.6576081715025843,-0.012060420587658882,2.5151939392089844,-1.6602520942687988,-0.0008892836049199104,2.1814255714416504,4.64747063695874,-0.0007523847161792219,0.28305721282958984,-1.5970495382892054,1.0050204780366153e-35,-0.0039779613725841045,0.7839058041572571,0.0,0.0022583487443625927,0.7621421813964844,4.1444727685302496e-05,0.01405334658920765
504.0,427.0,0.9685,0.4295,9.4624,-0.0333,0.0261,-0.1093,-1.6577283344664515,-0.01388486661016941,2.524013042449951,-1.660232424736023,-0.0006977607263252139,2.1480259895324707,4.64747874319043,-0.0005306650418788195,0.2899056375026703,-1.5970819632159632,2.7975116165225994e-39,-0.002805235330015421,0.7838816046714783,0.0,0.014216077513992786,0.7621022462844849,3.950728932977654e-05,0.009740818291902542
504.0,427.0,0.9685,0.4295,9.4624,-0.0333,0.0261,-0.1093,-1.657771726647848,-0.015075400471687317,2.5243492126464844,-1.6602964401245117,-0.0005237825098447502,2.1687495708465576,4.647466822261475,-0.0004097362398169935,0.27943184971809387,-1.5970500151263636,7.791219461645983e-43,-0.026774341240525246,0.7838816046714783,0.0,0.0004527033306658268,0.7621384859085083,5.559983037528582e-05,-0.03540138527750969
504.0,427.0,0.9685,0.4295,9.4624,-0.0333,0.0261,-0.1093,-1.657936235467428,-0.016479184851050377,2.5459799766540527,-1.6602448225021362,-0.00039304039091803133,2.170616626739502,4.647498770351074,-0.00031428816146217287,0.27841001749038696,-1.5970295111285608,0.0,-0.0069672525860369205,0.7838499546051025,0.0,-0.001824366394430399,0.7621343731880188,5.13687300554011e-05,0.010046049021184444
482.0,445.0,1.1689,0.728,9.3577,-0.0018,-0.0076,-0.126,-1.658032079736227,-0.01766860857605934,2.513693332672119,-1.660240650177002,-0.0003310694301035255,2.174762725830078,4.6474549013325195,-0.00026755500584840775,0.29904070496559143,-1.5970419088946741,0.0,-0.004376154392957687,0.7838498950004578,0.0,-0.0019496508175507188,0.7621866464614868,6.414619565475732e-05,-0.004593224264681339
482.0,445.0,1.1689,0.728,9.3577,-0.0018,-0.0076,-0.126,-1.6581512890257777,-0.01884704828262329,2.484768867492676,-1.6602603197097778,-0.0002859797386918217,2.1800806522369385,4.64747874319043,-0.00023292294645216316,0.2924256920814514,-1.5970495382892054,0.0,0.0002013975754380226,0.7838459014892578,0.0,-0.0036849412135779858,0.7621302604675293,0.00023537041852250695,0.03192071244120598
482.0,445.0,1.1689,0.728,9.3577,-0.0018,-0.0076,-0.126,-1.6583157978453578,-0.01964564062654972,2.5449440479278564,-1.660232424736023,-0.0002517004613764584,2.181779384613037,4.6474549013325195,-0.00020623140153475106,0.28717321157455444,-1.5970900694476526,0.0,-0.013132482767105103,0.7838499546051025,0.0,-0.013519207015633583,0.7621179819107056,0.00028768827905878425,-0.011227888986468315
482.0,445.0,1.1689,0.728,9.3577,-0.0018,-0.0076,-0.126,-1.6584116421141566,-0.020614614710211754,2.519394874572754,-1.6602325439453125,-0.0002247598604299128,2.1630847454071045,4.647503061885498,-0.00018502870807424188,0.27933889627456665,-1.5970333258258265,0.0,-0.008850829675793648,0.7838701009750366,0.0,-0.004145383834838867,0.7621987462043762,0.0006613587029278278,0.008446099236607552
482.0,445.0,1.1689,0.728,9.3577,-0.0018,-0.0076,-0.126,-1.6585432491698207,-0.021766608580946922,2.5177221298217773,-1.6602364778518677,-0.00020302939810790122,2.136997938156128,4.647498770351074,-0.00016778003191575408,0.2955901622772217,-1.5970619360553187,0.0,-0.011730263009667397,0.7838418483734131,0.0,-0.004382762126624584,0.7621579170227051,0.0013446701923385262,0.02730974368751049
482.0,445.0,1.1689,0.728,9.3577,-0.0018,-0.0076,-0.126,-1.6586748562254847,-0.024020114913582802,2.4678544998168945,-1.6601558923721313,-0.00018513042596168816,2.1800038814544678,4.647450609798096,-0.00017860646767076105,0.2809257507324219,-1.5970333258258265,0.0,-0.007651196327060461,0.7838499546051025,0.0,-0.004463989287614822,0.762206494808197,0.001427207374945283,0.002527940319851041
482.0,445.0,1.1689,0.728,9.3577,-0.0018,-0.0076,-0.126,-1.6588837109007777,-0.026604115962982178,2.4938297271728516,-1.6602448225021362,-0.00017013208707794547,2.1744191646575928,4.647490664119385,-0.00016498418699484318,0.30891063809394836,-1.5970376173602503,0.0,-0.008454419672489166,0.783881664276123,0.0,0.0014047762379050255,0.7622269988059998,0.001456910278648138,0.004207656253129244
482.0,445.0,1.1689,0.728,9.3577,-0.0018,-0.0076,-0.126,-1.65897860149526,-0.030787963420152664,2.549685001373291,-1.660224199295044,-0.00015738164074718952,2.122154951095581,4.647510691280029,-0.00015296581841539592,0.2924255132675171,-1.597070042287008,0.0,-0.014844713732600212,0.7838898301124573,0.0,-0.006136438809335232,0.762190043926239,0.0016391442622989416,0.014492335729300976
482.0,445.0,1.1689,0.728,9.3577,-0.0018,-0.0076,-0.126,-1.6592308483519496,-0.03689577057957649,2.4252467155456543,-1.6601961851119995,-0.00014640945300925523,2.180323362350464,4.647514982814453,-0.000142579767270945,0.2875868082046509,-1.5970538298236292,0.0,-0.016897249966859818,0.7838336229324341,0.0,-0.012602929025888443,0.762222409248352,0.002593774115666747,0.0017011980526149273
482.0,445.0,1.1689,0.728,9.3577,-0.0018,-0.0076,-0.126,-1.6594826183714808,-0.04019594192504883,2.530000686645508,-1.6602199077606201,-0.0001368672092212364,2.1673367023468018,4.647486372584961,-0.00015194120351225138,0.2905941605567932,-1.597070042287008,0.0,-0.018086113035678864,0.7839098572731018,0.0,0.0060765743255615234,0.7622422575950623,0.003409861819818616,0.033078089356422424
482.0,445.0,1.1689,0.728,9.3577,-0.0018,-0.0076,-0.126,-1.6598464451231898,-0.047306761145591736,2.4169235229492188,-1.6602561473846436,-0.00012592447455972433,2.163254976272583,4.647442503566406,-0.00014066352741792798,0.29590433835983276,-1.5970543066607874,0.0,-0.0075350357219576836,0.7838336229324341,0.0,-0.006376032717525959,0.7622138857841492,0.00371366273611784,-0.0012576570734381676
482.0,445.0,1.1689,0.728,9.3577,-0.0018,-0.0076,-0.126,-1.6601621113219203,-0.055219538509845734,2.4342598915100098,-1.6601961851119995,-0.00011880072270287201,2.15742826461792,4.64747063695874,-9.061309538083151e-05,0.2903883457183838,-1.597018067036764,0.0,-0.03090716525912285,0.7838895320892334,0.0,0.01269163005053997,0.7622823715209961,0.002758248709142208,0.012840256094932556
482.0,445.0,1.1689,0.728,9.3577,-0.0018,-0.0076,-0.126,-1.6605140171446742,-0.06157391518354416,2.4429304599761963,-1.6602119207382202,-0.00011243987682973966,2.1745412349700928,4.647431059474609,-8.479695679852739e-05,0.2914997339248657,-1.5969937483416956,0.0,-0.013574987649917603,0.7838377952575684,0.0,-0.004568065516650677,0.7622538805007935,0.001634633750654757,0.03788415342569351
482.0,445.0,1.1689,0.728,9.3577,-0.0018,-0.0076,-0.126,-1.660861154595846,-0.06247096508741379,2.4489474296569824,-1.6602809429168701,-0.00010672563075786456,2.1613569259643555,4.647482557887695,-9.217281331075355e-05,0.28875020146369934,-1.5970304648028772,0.0,-0.025318022817373276,0.783805787563324,0.0,-0.010000109672546387,0.7622620463371277,0.0009751574834808707,0.06103359907865524
457.0,406.0,0.9165,0.7938,8.2409,-0.0322,-0.0318,-0.1251,-1.6612807712950648,-0.062283094972372055,2.409736156463623,-1.6602240800857544,-0.00010156386269954965,2.1493518352508545,4.647474451656006,-9.141866030404344e-05,0.2975609302520752,-1.5970624128924769,0.0,-0.021426018327474594,0.7838618755340576,0.0,-0.011168555356562138,0.7622742056846619,0.0006932703545317054,-0.005509311333298683
457.0,406.0,0.9165,0.7938,8.2409,-0.0322,-0.0318,-0.1251,-1.66166414837026,-0.06010254845023155,2.4405105113983154,-1.6602922677993774,-7.549310248577967e-05,2.1658332347869873,4.647438212031982,-0.00011549655755516142,0.2991905212402344,-1.5970304648028772,0.0,-0.009830748662352562,0.7838499546051025,0.0,-0.0025899973697960377,0.76231449842453,0.0005378523492254317,-0.00799811165779829
457.0,406.0,0.9165,0.7938,8.2409,-0.0322,-0.0318,-0.1251,-1.6620837650694789,-0.0617489293217659,2.4068899154663086,-1.6603007316589355,-0.0015121627366170287,2.172124147415161,4.647414370174072,-0.00037864860496483743,0.2913428246974945,-1.5970385710345667,0.0,-0.008408869616687298,0.7838459014892578,0.0,-0.008306640200316906,0.7623589038848877,0.00043936623842455447,0.010871262289583683
457.0,406.0,0.9165,0.7938,8.2409,-0.0322,-0.0318,-0.1251,-1.662483354608053,-0.06747850030660629,2.362196683883667,-1.6603405475616455,-0.004852920770645142,2.1453568935394287,4.64741484701123,-0.0008520803530700505,0.2950563430786133,-1.5969331900226038,5.782922016805969e-05,-0.004549521487206221,0.783797562122345,0.0,0.011821606196463108,0.7622939944267273,0.00037136964965611696,0.02809739299118519
457.0,406.0,0.9165,0.7938,8.2409,-0.0322,-0.0318,-0.1251,-1.6628910503783167,-0.07553040236234665,2.3538618087768555,-1.6603360176086426,-0.008054818026721478,2.1775906085968018,4.647422476405762,-0.0007270275964401662,0.2791216969490051,-1.5969412962542933,5.020060598326381e-07,-0.013472618535161018,0.7838581800460815,0.0,-0.0035844824742525816,0.7622820734977722,0.0002861637913156301,-0.07819127291440964
457.0,406.0,0.9165,0.7938,8.2409,-0.0322,-0.0318,-0.1251,-1.6633345089354457,-0.08421683311462402,2.380082130432129,-1.660372257232666,-0.007186163682490587,2.125322103500366,4.647458239192627,-0.0005404718103818595,0.2790330648422241,-1.5969856421100062,1.3973522339227884e-10,0.00022989616263657808,0.7838258743286133,0.0,0.0034788139164447784,0.7622985243797302,7.810709212208167e-05,-0.0688115730881691
457.0,406.0,0.9165,0.7938,8.2409,-0.0322,-0.0318,-0.1251,-1.6638385258116664,-0.09094885736703873,2.340907335281372,-1.6603763103485107,-0.002892672084271908,2.1431071758270264,4.647434874171875,-0.00042977117118425667,0.2877475619316101,-1.5969856421100062,0.00046686039422638714,0.005480589345097542,0.7838459014892578,0.0,0.004576673731207848,0.7622703313827515,1.611866906614523e-07,-0.10120689123868942
457.0,406.0,0.9165,0.7938,8.2409,-0.0322,-0.0318,-0.1251,-1.6643740139403285,-0.09676089882850647,2.3203155994415283,-1.660364031791687,-6.515207132906653e-06,2.1573219299316406,4.64739911138501,-0.00035672675585374236,0.26894712448120117,-1.5969579855548304,0.0004958749050274491,0.017511680722236633,0.783817708492279,0.0,-0.007858466356992722,0.762266218662262,3.892468758339568e-13,-0.10671847313642502
457.0,406.0,0.9165,0.7938,8.2409,-0.0322,-0.0318,-0.1251,-1.6651812992491664,-0.10236412286758423,2.2775650024414062,-1.6603484153747559,0.00205425126478076,2.1643898487091064,4.647458716029785,-0.00010531037696637213,0.2689937651157379,-1.5969813505755823,0.0005828906432725489,0.007770862430334091,0.7838255167007446,0.0,-0.0020288084633648396,0.762266218662262,1.2611103530516828e-20,-0.12192733585834503
457.0,406.0,0.9165,0.7938,8.2409,-0.0322,-0.0318,-0.1251,-1.6657639942564906,-0.10855786502361298,2.2826833724975586,-1.6603200435638428,0.0014173160307109356,2.1731972694396973,4.647434397334717,-8.926056761993095e-05,0.2581912577152252,-1.59698993364443,0.0005782239022664726,0.014531505294144154,0.7838258147239685,0.0,-0.014637816697359085,0.7622985243797302,3.045433578014275e-26,-0.10301372408866882
457.0,406.0,0.9165,0.7938,8.2409,-0.0322,-0.0318,-0.1251,-1.6664720974364222,-0.1143757775425911,2.2822816371917725,-1.6604372262954712,0.00034734548535197973,2.178804874420166,4.647411032313965,-7.769848161842674e-05,0.27897608280181885,-1.5969732443438929,0.0005632374668493867,0.02395123802125454,0.7838258743286133,0.0,0.001499999430961907,0.7622625231742859,-0.0005054708453826606,-0.11756263673305511
457.0,406.0,0.9165,0.7938,8.2409,-0.0322,-0.0318,-0.1251,-1.6671911678709925,-0.11910978704690933,2.227811336517334,-1.6603924036026,8.308967736070372e-09,2.087653398513794,4.647454424495361,-6.87887950334698e-05,0.26991498470306396,-1.596982781087057,0.0005818434874527156,0.020889122039079666,0.7837693691253662,0.0,-0.011174187995493412,0.7622785568237305,-0.0007475398597307503,-0.08262509107589722
457.0,406.0,0.9165,0.7938,8.2409,-0.0322,-0.0318,-0.1251,-1.667894025842184,-0.12198694050312042,2.291555166244507,-1.6603963375091553,2.006517883432462e-14,2.1214418411254883,4.647442980403564,-9.249657887266949e-05,0.27211993932724,-1.5969298521624964,0.0008513166103512049,0.03005473129451275,0.7837939262390137,0.0,-0.009104650467634201,0.7622625231742859,-0.000722319062333554,-0.15172454714775085
457.0,406.0,0.9165,0.7938,8.2409,-0.0322,-0.0318,-0.1251,-1.6686979732909144,-0.130337655544281,2.2496321201324463,-1.660384178161621,4.845504798005155e-20,2.1293678283691406,4.647434874171875,-8.393458847422153e-05,0.2641564607620239,-1.5969622770892542,0.002554390113800764,0.03214333578944206,0.7838459014892578,0.0,-0.009263971820473671,0.7622502446174622,-0.0005382552626542747,-0.19847780466079712
457.0,406.0,0.9165,0.7938,8.2409,-0.0322,-0.0318,-0.1251,-1.6694604359068812,-0.1375454217195511,2.2530999183654785,-1.6603516340255737,1.1701324183753326e-25,2.14090633392334,4.6474501329609375,-7.677396934013814e-05,0.26724082231521606,-1.5968812147723597,0.010336113162338734,0.022608017548918724,0.7837856411933899,0.0,-0.011144265532493591,0.762230396270752,-0.0004284180176910013,-0.2257523387670517
424.0,371.0,0.9685,-0.4558,9.338,-0.0712,-0.1232,-0.1206,-1.6702476940550746,-0.14628183841705322,2.279639959335327,-1.6603763103485107,2.8257318435292496e-31,2.1464407444000244,4.647418661708496,-7.073914457578212e-05,0.26448291540145874,-1.5968015829669397,0.024996083229780197,0.04824892058968544,0.7838340401649475,0.0,-0.009010065346956253,0.7622625231742859,-0.0003558151365723461,-0.19654148817062378
424.0,371.0,0.9685,-0.4558,9.338,-0.0712,-0.1232,-0.1206,-1.671115060845846,-0.15380826592445374,2.228699207305908,-1.6603238582611084,6.823809188673513e-37,2.1209311485290527,4.647466822261475,-6.558401219081134e-05,0.25493156909942627,-1.5967219511615198,0.01292958203703165,0.03278464078903198,0.7838218212127686,0.0,-0.01832125335931778,0.7622625231742859,-0.00030425662407651544,-0.1450735628604889
424.0,371.0,0.9685,-0.4558,9.338,-0.0712,-0.1232,-0.1206,-1.672042032281393,-0.1515769213438034,2.2770943641662598,-1.6603474617004395,0.00014774638111703098,2.153747081756592,4.647414370174072,2.4652805223013274e-05,0.25731581449508667,-1.5967100302325647,0.0007238124962896109,0.033220965415239334,0.7837939262390137,0.0,-0.008338717743754387,0.7622742056846619,-0.00026575042284093797,-0.15668737888336182
424.0,371.0,0.9685,-0.4558,9.338,-0.0712,-0.1232,-0.1206,-1.6729651890196742,-0.15549668669700623,2.202569007873535,-1.660372257232666,0.0001314783439738676,2.1210291385650635,4.647446318263672,2.7956011763308197e-05,0.2678585648536682,-1.596694294606344,-0.0014144545421004295,0.030979298055171967,0.7837939262390137,2.22640252900419e-08,-0.017885351553559303,0.762290358543396,-8.404231630265713e-05,-0.23030900955200195
424.0,371.0,0.9685,-0.4558,9.338,-0.0712,-0.1232,-0.1206,-1.6742717228331507,-0.16423767805099487,2.2360572814941406,-1.6603320837020874,3.674155959743075e-05,2.120018482208252,4.647446318263672,2.4867487809387967e-05,0.2595219612121582,-1.5966976324664515,-0.0005845982232131064,0.022957900539040565,0.7837376594543457,4.046377219835834e-13,-0.025424975901842117,0.7622700333595276,-1.7002902552576415e-07,-0.21840059757232666
424.0,371.0,0.9685,-0.4558,9.338,-0.0712,-0.1232,-0.1206,-1.6752058468260707,-0.17361344397068024,2.1728429794311523,-1.6603960990905762,2.1802852856467325e-09,2.1253628730773926,4.647438212031982,2.2963877199799754e-05,0.2540331780910492,-1.5966900030719202,-0.0003924993798136711,0.027007708325982094,0.7837496995925903,1.1263240621612767e-16,-0.022066375240683556,0.7622621059417725,-4.106000749907329e-13,-0.21064171195030212
424.0,371.0,0.9685,-0.4558,9.338,-0.0712,-0.1232,-0.1206,-1.67627014736318,-0.1802336573600769,2.197092294692993,-1.6603360176086426,5.2651322361772605e-15,2.1652462482452393,4.647446318263672,2.1330959498300217e-05,0.25765326619148254,-1.5966900030719202,-0.00011810262367362157,0.026153966784477234,0.7838183641433716,3.1351641249445733e-20,-0.020421922206878662,0.7622543573379517,-9.915509128443586e-19,-0.2186693400144577
424.0,371.0,0.9685,-0.4558,9.338,-0.0712,-0.1232,-0.1206,-1.6773411236205042,-0.17942318320274353,2.229630708694458,-1.6603524684906006,1.271467478270285e-20,2.090416669845581,4.647450609798096,1.9914899894502014e-05,0.268288254737854,-1.5966857115374964,-1.8777802779368358e-07,0.02182573266327381,0.7837820053100586,8.726844761488913e-24,-0.025433063507080078,0.7622621059417725,-2.3944788094239134e-24,-0.20090064406394958
424.0,371.0,0.9685,-0.4558,9.338,-0.0712,-0.1232,-0.1206,-1.6783749065794886,-0.1865098774433136,2.228350877761841,-1.6603679656982422,3.0704441664952743e-26,2.1367883682250977,4.647503061885498,1.867513492470607e-05,0.255939245223999,-1.5967381636248987,-5.2268706723923586e-11,0.03803112730383873,0.7838180065155029,2.429149246208377e-27,-0.030491668730974197,0.762266218662262,-5.7823842293220095e-30,-0.15303122997283936
424.0,371.0,0.9685,-0.4558,9.338,-0.0712,-0.1232,-0.1206,-1.6795946560301722,-0.19748640060424805,2.254162073135376,-1.6603158712387085,0.0005199411534704268,2.1535706520080566,4.647466822261475,2.6230838557239622e-05,0.26451459527015686,-1.5966532866107386,-1.454918508532379e-14,0.026952600106596947,0.7837579250335693,-0.0002235513093182817,-0.03641112521290779,0.7622019052505493,-1.396377660153339e-35,-0.2215036302804947
424.0,371.0,0.9685,-0.4558,9.338,-0.0712,-0.1232,-0.1206,-1.6807729206480921,-0.2055702656507492,2.248941421508789,-1.6602760553359985,0.0007778716972097754,2.130281925201416,4.647482557887695,3.32124182023108e-05,0.2723517417907715,-1.5966780821429651,-4.049819203597357e-18,0.026424411684274673,0.7837377786636353,-0.0002323514490853995,-0.028437728062272072,0.7622741460800171,-3.37208462455124e-41,-0.21444076299667358
424.0,371.0,0.9685,-0.4558,9.338,-0.0712,-0.1232,-0.1206,-1.6820842228331507,-0.20863786339759827,2.229252576828003,-1.660275936126709,0.0021504529286175966,2.103736639022827,4.64744679510083,4.693930168286897e-05,0.2621304392814636,-1.5966900030719202,-1.127282082099532e-21,0.012327214702963829,0.7837660312652588,-0.00024101125018205494,-0.03769107162952423,0.7623026967048645,-0.0,-0.24938660860061646
424.0,371.0,0.9685,-0.4558,9.338,-0.0712,-0.1232,-0.1206,-1.683390279809469,-0.21283620595932007,2.2400145530700684,-1.660239815711975,0.003273867769166827,2.1322827339172363,4.64749447881665,5.977448745397851e-05,0.2632385492324829,-1.5966780821429651,-3.1378313150988566e-25,0.040784697979688644,0.7837337255477905,-0.0003189485869370401,-0.04252511262893677,0.7622502446174622,0.0,-0.2420060932636261
424.0,371.0,0.9685,-0.4558,9.338,-0.0712,-0.1232,-0.1206,-1.6847535572447718,-0.22816143929958344,2.241774082183838,-1.66026771068573,0.0018928436329588294,2.189722776412964,4.647442026729248,5.6968634453369305e-05,0.2653025686740875,-1.5966900030719202,-8.734269844462863e-29,0.023687001317739487,0.7837899327278137,-0.0003731311880983412,-0.04121451824903488,0.762322723865509,0.0,-0.2810622751712799
344.0,312.0,0.4026,-0.0096,9.2004,-0.0324,-0.19,-0.1144,-1.686239858666891,-0.24924294650554657,2.2159316539764404,-1.6602604389190674,8.73967928782804e-06,2.1078567504882812,4.64747063695874,5.438670632429421e-05,0.26787644624710083,-1.596649471913473,-2.4312160441514023e-32,0.028867870569229126,0.7837857007980347,-0.00040894540143199265,-0.051086775958538055,0.7622944116592407,0.0,-0.20282086730003357
344.0,312.0,0.4026,-0.0096,9.2004,-0.0324,-0.19,-0.1144,-1.6877457104124964,-0.251137375831604,2.216844081878662,-1.6602282524108887,2.1105292860590374e-11,2.137481212615967,4.64744679510083,9.484967449679971e-05,0.2644157409667969,-1.5966537634478968,-6.767378518361971e-36,0.038239736109972,0.7837700843811035,-0.00048796020564623177,-0.05234012007713318,0.7622422575950623,0.0,-0.30151546001434326
344.0,312.0,0.4026,-0.0096,9.2004,-0.0324,-0.19,-0.1144,-1.6898037395873011,-0.2539012134075165,2.158534526824951,-1.660264492034912,0.0033632966224104166,2.1407816410064697,4.647454424495361,0.0008887187577784061,0.2614709734916687,-1.5966256300555628,-1.2299336751225352e-40,0.04449475184082985,0.7837218046188354,-0.0004762586031574756,-0.06699763238430023,0.7622420191764832,0.0,-0.22625935077667236
344.0,312.0,0.4026,-0.0096,9.2004,-0.0324,-0.19,-0.1144,-1.6914664707579554,-0.2661661207675934,2.1549062728881836,-1.6602728366851807,0.00323670101352036,2.131605863571167,4.647534533137939,0.0006086642388254404,0.26136916875839233,-1.5966375509845179,-3.363116314379561e-44,0.038023706525564194,0.7837660312652588,-0.0004299434367567301,-0.05449007451534271,0.762218177318573,0.0,-0.24574249982833862
344.0,312.0,0.4026,-0.0096,9.2004,-0.0324,-0.19,-0.1144,-1.693052431146139,-0.27081891894340515,2.2044262886047363,-1.660240650177002,0.0027370783500373363,2.1358113288879395,4.647503061885498,0.0004327352799009532,0.24433067440986633,-1.5966413656817835,-0.0,0.03426577150821686,0.7837582230567932,-0.00037508021341636777,-0.056632719933986664,0.7622580528259277,0.0,-0.24830704927444458
344.0,312.0,0.4026,-0.0096,9.2004,-0.0324,-0.19,-0.1144,-1.694709917108053,-0.2712753117084503,2.2381372451782227,-1.6602321863174438,0.00178961968049407,2.1714158058166504,4.647491140956543,0.0003357694949954748,0.26703310012817383,-1.5966981093036097,-0.0,0.035652369260787964,0.7838020920753479,-0.0003113900311291218,-0.04995838180184364,0.7623226642608643,0.0,-0.29275935888290405
344.0,312.0,0.4026,-0.0096,9.2004,-0.0324,-0.19,-0.1144,-1.696397443810934,-0.28620272874832153,2.2147881984710693,-1.660179615020752,0.0002214483538409695,2.1407980918884277,4.647530718440674,0.00023391838476527482,0.2664729952812195,-1.5966904799090784,-0.0,0.04579537361860275,0.7837942838668823,-0.00025701450067572296,-0.07332954555749893,0.7623103857040405,0.0,-0.27222999930381775
344.0,312.0,0.4026,-0.0096,9.2004,-0.0324,-0.19,-0.1144,-1.6981078586974085,-0.2973491847515106,2.1896872520446777,-1.6602199077606201,3.6264167224686616e-09,2.1084342002868652,4.647486849422119,0.00018552137771621346,0.26819953322410583,-1.5966737906085413,-0.0,0.03612351417541504,0.7837499976158142,-0.0002194066473748535,-0.06516477465629578,0.762257993221283,0.0,-0.2793516218662262
344.0,312.0,0.4026,-0.0096,9.2004,-0.0324,-0.19,-0.1144,-1.6998363933958949,-0.2976441979408264,2.1566853523254395,-1.660119891166687,8.757369456609699e-15,2.11273193359375,4.647554560298584,4.8849473387235776e-05,0.2727871239185333,-1.5966900030719202,-0.0,0.03222866728901863,0.7837623357772827,-0.00022959221678320318,-0.06555597484111786,0.7622703909873962,0.0,-0.260357141494751
344.0,312.0,0.4026,-0.0096,9.2004,-0.0324,-0.19,-0.1144,-1.7015992603697718,-0.2988414168357849,2.175558090209961,-1.66015625,2.1148019426783216e-20,2.1184380054473877,4.647506876582764,8.323589281644672e-05,0.27411070466041565,-1.5966737906085413,-0.0,0.03554096072912216,0.7837742567062378,-0.00023703495389781892,-0.08345244824886322,0.7622785568237305,-0.00012109874660382047,-0.24897409975528717
344.0,312.0,0.4026,-0.0096,9.2004,-0.0324,-0.19,-0.1144,-1.7034055195250453,-0.2990745007991791,2.1838929653167725,-1.660148024559021,0.001789773115888238,2.1552023887634277,4.647554560298584,0.00014613130770158023,0.27905774116516113,-1.5966580549823206,-0.0,0.04298432916402817,0.7837579846382141,-0.0002429202722851187,-0.06946620345115662,0.7622784972190857,-0.00018487937632016838,-0.27782025933265686
344.0,312.0,0.4026,-0.0096,9.2004,-0.0324,-0.19,-0.1144,-1.7051431141295375,-0.30176883935928345,2.2157397270202637,-1.6601722240447998,0.0019303758163005114,2.1428956985473633,4.647546930904053,0.0006046620546840131,0.27056074142456055,-1.5966656843768519,-0.0,0.03591151162981987,0.7837340831756592,-0.00024136665160767734,-0.07438258826732635,0.76228266954422,-0.0001753364922478795,-0.3062556982040405
344.0,312.0,0.4026,-0.0096,9.2004,-0.0324,-0.19,-0.1144,-1.7069860897459925,-0.30368587374687195,2.232886552810669,-1.6601800918579102,0.001034680288285017,2.0679566860198975,4.647534533137939,0.0007809897651895881,0.28473716974258423,-1.596682373677389,-0.0,0.036842428147792816,0.7837058305740356,-0.00029130620532669127,-0.07100620120763779,0.7622142434120178,-0.0005371068837121129,-0.28022104501724243
344.0,312.0,0.4026,-0.0096,9.2004,-0.0324,-0.19,-0.1144,-1.7087789974608363,-0.3042393922805786,2.307465076446533,-1.6601521968841553,0.00024582931655459106,2.178194522857666,4.6475745874592285,0.0005900718970224261,0.28452667593955994,-1.5966418425189417,-0.0,0.030660562217235565,0.7837503552436829,-0.0002926947781816125,-0.08436549454927444,0.762222409248352,-0.0005562541773542762,-0.28377649188041687
344.0,312.0,0.4026,-0.0096,9.2004,-0.0324,-0.19,-0.1144,-1.7111646137633265,-0.3079167604446411,2.2500603199005127,-1.6601604223251343,0.0005659370799548924,2.1765825748443604,4.647566481227539,0.0007726152543909848,0.2902129888534546,-1.5966413656817835,-0.0,0.018110159784555435,0.7836899757385254,-0.00048799527576193213,-0.08629070222377777,0.7622385621070862,-0.001066991942934692,-0.2455519437789917
289.0,266.0,1.9831,0.4253,9.4995,-0.0252,-0.2816,-0.1216,-1.7130209408202113,-0.30744925141334534,2.308088779449463,-1.6601401567459106,0.0035116663202643394,2.194171905517578,4.647590799922607,0.002791137434542179,0.28596925735473633,-1.5966699759112757,-0.0,0.03081216663122177,0.783725917339325,-0.0005085935699753463,-0.07248163223266602,0.762202262878418,-0.0017317218007519841,-0.2794610261917114
289.0,266.0,1.9831,0.4253,9.4995,-0.0252,-0.2816,-0.1216,-1.7148353062071742,-0.2967924475669861,2.318319797515869,-1.6601084470748901,0.008783970959484577,2.208591938018799,4.647642298335693,0.005595586262643337,0.293453574180603,-1.596682373677389,-0.0,0.028123794123530388,0.7836940288543701,-0.0005915079382248223,-0.08283668756484985,0.7622187733650208,-0.004004467278718948,-0.29521679878234863
289.0,266.0,1.9831,0.4253,9.4995,-0.0252,-0.2816,-0.1216,-1.716729303399557,-0.3003930151462555,2.3913233280181885,-1.660008192062378,0.013521443121135235,2.271193742752075,4.647702379817627,0.011829068884253502,0.3056819438934326,-1.5966537634478968,-0.0,0.017637139186263084,0.7836739420890808,-0.0005276179290376604,-0.10140691697597504,0.7621180415153503,-0.0064370036125183105,-0.28477221727371216
289.0,266.0,1.9831,0.4253,9.4995,-0.0252,-0.2816,-0.1216,-1.718644758264059,-0.29879605770111084,2.425225019454956,-1.6598678827285767,0.01625165343284607,2.242244243621826,4.647766275996826,0.01716688647866249,0.3097793459892273,-1.5966737906085413,-0.0,0.02535482496023178,0.7836858034133911,-0.0004825904034078121,-0.09261578321456909,0.7621425986289978,-0.006790692452341318,-0.2567569315433502
289.0,266.0,1.9831,0.4253,9.4995,-0.0252,-0.2816,-0.1216,-1.7204262218871058,-0.2924919128417969,2.4026193618774414,-1.6597352027893066,0.019138002768158913,2.3364098072052,4.647926493281982,0.02016141638159752,0.3179400563240051,-1.5966981093036097,-0.0,0.013589238747954369,0.7837058901786804,-0.0004112201859243214,-0.10430082678794861,0.7621062994003296,-0.0027780740056186914,-0.30216869711875916
289.0,266.0,1.9831,0.4253,9.4995,-0.0252,-0.2816,-0.1216,-1.7221962414183558,-0.30051931738853455,2.4510269165039062,-1.6596399545669556,0.01937447302043438,2.308499813079834,4.647994680995605,0.021429236978292465,0.32760560512542725,-1.596682373677389,-0.0,0.012247800827026367,0.7837262749671936,-0.00038685611798428,-0.10429143905639648,0.7621226906776428,-0.0009304103441536427,-0.20083187520503998
289.0,266.0,1.9831,0.4253,9.4995,-0.0252,-0.2816,-0.1216,-1.724030157128805,-0.30261820554733276,2.435978651046753,-1.6595842838287354,0.01872933655977249,2.2724480628967285,4.6481544214436035,0.020127329975366592,0.3296829164028168,-1.5966861883746546,-0.0,0.006098651327192783,0.7837059497833252,-0.00037187535781413317,-0.09801444411277771,0.7621104717254639,-0.00057270098477602,-0.24645209312438965
289.0,266.0,1.9831,0.4253,9.4995,-0.0252,-0.2816,-0.1216,-1.725833078423971,-0.2922895848751068,2.52990984916687,-1.6594160795211792,0.01882205903530121,2.3102269172668457,4.648234530086182,0.017901567742228508,0.35528454184532166,-1.596682373677389,-0.0,-0.009845603257417679,0.7837303280830383,-0.00039012249908410013,-0.095755934715271,0.7620663642883301,-0.0004143883415963501,-0.2072880119085312
289.0,266.0,1.9831,0.4253,9.4995,-0.0252,-0.2816,-0.1216,-1.7275868854918421,-0.292862206697464,2.530184745788574,-1.6593124866485596,0.019505666568875313,2.343656539916992,4.648326559657715,0.013311256654560566,0.3434206247329712,-1.5966656843768519,-0.0,0.003916485700756311,0.7837263345718384,-0.000393948721466586,-0.10104173421859741,0.7621145248413086,-0.000259846419794485,-0.1956438422203064
289.0,266.0,1.9831,0.4253,9.4995,-0.0252,-0.2816,-0.1216,-1.7292686901488246,-0.29016000032424927,2.5612359046936035,-1.6592047214508057,0.020297106355428696,2.3050739765167236,4.6484104829975585,0.007626584265381098,0.3463591933250427,-1.596694294606344,-0.0,-0.0006242381641641259,0.7837582230567932,-0.00037866615457460284,-0.10845831036567688,0.7621145248413086,-0.00021351099712774158,-0.18618470430374146
289.0,266.0,1.9831,0.4253,9.4995,-0.0252,-0.2816,-0.1216,-1.7314831219115199,-0.27392929792404175,2.590355396270752,-1.65903639793396,0.02412813901901245,2.3978302478790283,4.648511095637939,0.0029572525527328253,0.348015159368515,-1.5966575781451624,-0.0,-0.0046392278745770454,0.7837100028991699,-0.0005689716199412942,-0.09672746062278748,0.7620983719825745,-0.00013003050116822124,-0.24107006192207336
289.0,266.0,1.9831,0.4253,9.4995,-0.0252,-0.2816,-0.1216,-1.7330967388548792,-0.269454687833786,2.587155342102051,-1.6588157415390015,0.026957053691148758,2.373443126678467,4.648434324855469,0.0014648741343989968,0.3413860499858856,-1.5966656843768519,-0.0,-0.003375598695129156,0.7836661338806152,-0.0007841823389753699,-0.09157698601484299,0.7621104717254639,0.00011468201410025358,-0.25326651334762573
289.0,266.0,1.9831,0.4253,9.4995,-0.0252,-0.2816,-0.1216,-1.7347036800780238,-0.2638004422187805,2.6278529167175293,-1.6586639881134033,0.029920974746346474,2.412867784500122,4.648442431087158,0.0009082629694603384,0.3478540778160095,-1.5967024008380335,-0.0,-0.007796887308359146,0.7836341857910156,-0.000860287866089493,-0.10459278523921967,0.7621262073516846,0.0008727306267246604,-0.18118444085121155
289.0,266.0,1.9831,0.4253,9.4995,-0.0252,-0.2816,-0.1216,-1.736192365685934,-0.2592959702014923,2.644054889678955,-1.6585850715637207,0.03008819743990898,2.3974664211273193,4.648430510158203,0.000464058161014691,0.35497647523880005,-1.5967100302325647,-0.0,-0.019955618306994438,0.7836580276489258,-0.0010710995411500335,-0.1055903285741806,0.7621302604675293,0.0009056315175257623,-0.16566035151481628
252.0,255.0,2.6471,0.6383,10.0822,-0.031,-0.2382,-0.1164,-1.7377587757506312,-0.25835689902305603,2.6445765495300293,-1.6583645343780518,0.03262889385223389,2.3968725204467773,4.648474856013916,0.00040387111948803067,0.3640972971916199,-1.5966900030719202,-0.0,-0.0068667978048324585,0.7836342453956604,-0.0015455168904736638,-0.11886094510555267,0.7621022462844849,0.000679102202411741,-0.17750126123428345
252.0,255.0,2.6471,0.6383,10.0822,-0.031,-0.2382,-0.1164,-1.7392527065672816,-0.2515358030796051,2.7440686225891113,-1.6581401824951172,0.0340493805706501,2.423281192779541,4.648406668300293,0.0003971887635998428,0.36621928215026855,-1.596705738698141,-0.0,0.0059807272627949715,0.7836102843284607,-0.0019384463084861636,-0.10495851933956146,0.762162446975708,0.0005292834248393774,-0.15431421995162964
252.0,255.0,2.6471,0.6383,10.0822,-0.031,-0.2382,-0.1164,-1.7407099209227503,-0.2443591058254242,2.710705518722534,-1.6578766107559204,0.038415465503931046,2.423171281814575,4.6484667497822265,0.00038439573836512864,0.35394108295440674,-1.5966780821429651,-0.0,-0.008955060504376888,0.7836103439331055,-0.002230765065178275,-0.12100473046302795,0.7621784210205078,0.000433632725616917,-0.2052728235721588
252.0,255.0,2.6471,0.6383,10.0822,-0.031,-0.2382,-0.1164,-1.7421685657896937,-0.24465247988700867,2.7320406436920166,-1.6576201915740967,0.04268097132444382,2.429335355758667,4.648458643550537,0.00046537211164832115,0.35954219102859497,-1.5966656843768519,-0.0,-0.012948613613843918,0.7836546897888184,-0.0027921192813664675,-0.12276427447795868,0.7621585726737976,0.00036726618418470025,-0.22472546994686127
252.0,255.0,2.6471,0.6383,10.0822,-0.031,-0.2382,-0.1164,-1.7435981235899867,-0.23900192975997925,2.7139816284179688,-1.65738844871521,0.04855779558420181,2.445669412612915,4.648502512569092,0.001013134024105966,0.3605555295944214,-1.5966900030719202,-0.0,-0.01636502891778946,0.7835824489593506,-0.0030113193206489086,-0.11192946881055832,0.7621665596961975,0.0003185196837875992,-0.12110745906829834
252.0,255.0,2.6471,0.6383,10.0822,-0.031,-0.2382,-0.1164,-1.745007177392477,-0.22731922566890717,2.728322982788086,-1.6570042371749878,0.056423310190439224,2.437100887298584,4.648490591640137,0.0018665612442418933,0.3664817810058594,-1.5966981093036097,-0.0,-0.01249911542981863,0.7836025357246399,-0.0027219608891755342,-0.11787386238574982,0.7621422410011292,0.00028119797934778035,-0.18837672472000122
252.0,255.0,2.6471,0.6383,10.0822,-0.031,-0.2382,-0.1164,-1.7464257679381312,-0.22452771663665771,2.748461961746216,-1.6566810607910156,0.06319480389356613,2.4608983993530273,4.648538275355957,0.0024045659229159355,0.3680548071861267,-1.5966861883746546,-0.0,-0.011961505748331547,0.7835624814033508,-0.001996856415644288,-0.11603422462940216,0.7621665596961975,0.00025170526350848377,-0.1987307369709015
252.0,255.0,2.6471,0.6383,10.0822,-0.031,-0.2382,-0.1164,-1.747842927972311,-0.23004138469696045,2.729923725128174,-1.6561435461044312,0.06753755360841751,2.459731101989746,4.648490591640137,0.001768756890669465,0.366720050573349,-1.596694294606344,-0.0,-0.010346455499529839,0.7836188673973083,-0.0012357590021565557,-0.1219455897808075,0.7621583938598633,0.0002278121974086389,-0.17363208532333374
252.0,255.0,2.6471,0.6383,10.0822,-0.031,-0.2382,-0.1164,-1.7498060665526332,-0.22952508926391602,2.719822406768799,-1.655608892440796,0.07095550000667572,2.4590511322021484,4.648510618800781,0.0009726479183882475,0.3569578230381012,-1.5966656843768519,-0.0,-0.016290754079818726,0.7835385799407959,-0.0008568073972128332,-0.1064428985118866,0.7621426582336426,0.00020221827435307205,-0.17581985890865326
252.0,255.0,2.6471,0.6383,10.0822,-0.031,-0.2382,-0.1164,-1.751110693017477,-0.21755364537239075,2.770693778991699,-1.6552046537399292,0.07293333113193512,2.4893789291381836,4.648526354427002,0.0008614015532657504,0.3678271174430847,-1.596682373677389,-0.0,-0.007993684150278568,0.7835745811462402,-0.0005770120769739151,-0.1198233962059021,0.7621262073516846,0.00016319227870553732,-0.14587481319904327
252.0,255.0,2.6471,0.6383,10.0822,-0.031,-0.2382,-0.1164,-1.752432485620016,-0.21493995189666748,2.7908010482788086,-1.654756784439087,0.07650608569383621,2.453853130340576,4.648565931911133,0.002145427977666259,0.3583988547325134,-1.596694294606344,-0.0,-0.009642772376537323,0.7836070656776428,-0.000420145399402827,-0.12212923169136047,0.7621384859085083,0.00015142353367991745,-0.19653433561325073
252.0,255.0,2.6471,0.6383,10.0822,-0.031,-0.2382,-0.1164,-1.753810545007223,-0.2183002084493637,2.7701094150543213,-1.6542805433273315,0.07628694176673889,2.483851909637451,4.6485182481953125,0.0011723245261237025,0.369870126247406,-1.5966451803790491,-0.000107065454358235,-0.027349600568413734,0.7835582494735718,-0.0003661077353172004,-0.12120679765939713,0.7621104717254639,0.00014123936125542969,-0.1494644433259964
252.0,255.0,2.6471,0.6383,10.0822,-0.031,-0.2382,-0.1164,-1.7550507984557093,-0.21611544489860535,2.799436569213867,-1.6537718772888184,0.0766105055809021,2.50079345703125,4.648546381587646,0.00036842317786067724,0.3636833131313324,-1.5966857115374964,-0.0001025575547828339,-0.013740476220846176,0.7835951447486877,-0.00035466847475618124,-0.11126212030649185,0.7621104121208191,0.00013233846402727067,-0.1996074616909027
252.0,255.0,2.6471,0.6383,10.0822,-0.031,-0.2382,-0.1164,-1.7563768825926722,-0.20043684542179108,2.8355703353881836,-1.6533212661743164,0.07922442257404327,2.464798927307129,4.648522539729736,0.00011815855395980179,0.373850554227829,-1.5967219511615198,-9.599469194654375e-05,-0.005606731399893761,0.7835385799407959,-0.000343979598255828,-0.12257162481546402,0.7621544599533081,0.0001244933664565906,-0.18457722663879395
252.0,255.0,2.6471,0.6383,10.0822,-0.031,-0.2382,-0.1164,-1.757566591302389,-0.1953553706407547,2.8320209980010986,-1.6528735160827637,0.08327891677618027,2.522444248199463,4.648514433498047,4.3846783228218555e-05,0.3757389187812805,-1.5966456572162073,-9.022068843478337e-05,0.0037843608297407627,0.7835546135902405,-0.0003268899454269558,-0.10336051881313324,0.7621747851371765,0.0001343017938779667,-0.17475533485412598
243.0,256.0,2.5549,0.2213,9.5767,-0.0354,-0.1222,-0.1141,-1.7587434254088343,-0.2016838788986206,2.8132717609405518,-1.6523733139038086,0.08484947681427002,2.497325897216797,4.648538275355957,1.2204913524271888e-08,0.3580058813095093,-1.5966699759112757,-8.51019358378835e-05,0.0047271037474274635,0.7835385799407959,-0.0003718178195413202,-0.11266830563545227,0.7621784210205078,0.00012719605001620948,-0.18383380770683289
243.0,256.0,2.5549,0.2213,9.5767,-0.0354,-0.1222,-0.1141,-1.7599455318846644,-0.20471200346946716,2.8075692653656006,-1.6518490314483643,0.08508696407079697,2.4333508014678955,4.648510618800781,3.397282455352979e-12,0.3620823919773102,-1.596661392842428,-8.053290366660804e-05,-0.01238710805773735,0.7835144996643066,-0.0006007360061630607,-0.12445499002933502,0.7621586322784424,0.00012078750296495855,-0.22121325135231018
243.0,256.0,2.5549,0.2213,9.5767,-0.0354,-0.1222,-0.1141,-1.761033674279684,-0.1974218338727951,2.7938199043273926,-1.6512854099273682,0.08578578382730484,2.443117380142212,4.648546381587646,9.456462170395405e-16,0.3583497107028961,-1.5966818968402308,-7.642940181540325e-05,-0.0008388729766011238,0.7835385799407959,-0.0006025213515385985,-0.11037497222423553,0.7621264457702637,0.00011500585969770327,-0.17475448548793793
243.0,256.0,2.5549,0.2213,9.5767,-0.0354,-0.1222,-0.1141,-1.762235780755514,-0.1860014647245407,2.777874708175659,-1.6506807804107666,0.0898691788315773,2.4666852951049805,4.648506327266357,-0.0001254847302334383,0.34961050748825073,-1.5966780821429651,-7.272393122548237e-05,-0.01756228134036064,0.7835025787353516,-0.0007093793828971684,-0.14225444197654724,0.7621141076087952,9.602553473087028e-05,-0.1897423416376114
243.0,256.0,2.5549,0.2213,9.5767,-0.0354,-0.1222,-0.1141,-1.7633091411986292,-0.1814059615135193,2.8111281394958496,-1.6501251459121704,0.09286321699619293,2.4859061241149902,4.648546381587646,-7.456381717929617e-05,0.35826557874679565,-1.5966900030719202,-6.936105637578294e-05,-0.000492806313559413,0.7835185527801514,-0.0009667373378761113,-0.12311732769012451,0.762162446975708,0.00010488121188245714,-0.20716571807861328
243.0,256.0,2.5549,0.2213,9.5767,-0.0354,-0.1222,-0.1141,-1.7647911510863246,-0.17768201231956482,2.846803903579712,-1.6494340896606445,0.09305839985609055,2.4998176097869873,4.648502512569092,-0.00011194263061042875,0.3548440635204315,-1.5966981093036097,-6.533302803291008e-05,0.005940515547990799,0.7835103869438171,-0.0009796766098588705,-0.12072227150201797,0.7621179819107056,9.916100680129603e-05,-0.25412312150001526
243.0,256.0,2.5549,0.2213,9.5767,-0.0354,-0.1222,-0.1141,-1.7657519779601039,-0.1747131198644638,2.7967662811279297,-1.6488416194915771,0.09336037188768387,2.498511791229248,4.648510618800781,-0.00014131721400190145,0.34564274549484253,-1.596694294606344,-6.260615191422403e-05,-0.0024299300275743008,0.7835268378257751,-0.0009675865294411778,-0.12221978604793549,0.7621063590049744,9.52265618252568e-05,-0.20541755855083466
243.0,256.0,2.5549,0.2213,9.5767,-0.0354,-0.1222,-0.1141,-1.766757150689596,-0.17338261008262634,2.833934783935547,-1.6482293605804443,0.09412013739347458,2.479219913482666,4.648514433498047,-0.0001223019789904356,0.36048632860183716,-1.5966900030719202,-6.0097885580034927e-05,0.0036905058659613132,0.7835149168968201,-0.0009583928040228784,-0.11297497153282166,0.7621384859085083,9.159248293144628e-05,-0.23791728913784027
243.0,256.0,2.5549,0.2213,9.5767,-0.0354,-0.1222,-0.1141,-1.7678104839720667,-0.17160345613956451,2.819148540496826,-1.647661566734314,0.09456518292427063,2.4921483993530273,4.648546381587646,-0.00010766751802293584,0.3402070999145508,-1.5966699759112757,-5.778277409262955e-05,0.001545604201965034,0.7835025787353516,-0.0009526869980618358,-0.12610317766666412,0.7621501684188843,8.822554082144052e-05,-0.2481599599123001
243.0,256.0,2.5549,0.2213,9.5767,-0.0354,-0.1222,-0.1141,-1.7688318691649378,-0.1698736697435379,2.8254635334014893,-1.6470741033554077,0.09640464186668396,2.4665677547454834,4.648482485408447,-9.616184252081439e-05,0.3420124053955078,-1.5967462698565882,-5.56394224986434e-05,0.003921911120414734,0.7834624648094177,-0.0010450847912579775,-0.13037985563278198,0.7621702551841736,8.509738836437464e-05,-0.26002103090286255
243.0,256.0,2.5549,0.2213,9.5767,-0.0354,-0.1222,-0.1141,-1.7697845898070277,-0.16604262590408325,2.8018875122070312,-1.646481990814209,0.09860239177942276,2.5084521770477295,4.648498697871826,-8.687787340022624e-05,0.34954753518104553,-1.5966737906085413,-5.364942626329139e-05,-0.0020527206361293793,0.7834665775299072,-0.0012260221410542727,-0.1271521896123886,0.7621586322784424,8.218342554755509e-05,-0.24952258169651031
243.0,256.0,2.5549,0.2213,9.5767,-0.0354,-0.1222,-0.1141,-1.7707582912840785,-0.15935999155044556,2.8349287509918213,-1.6458420753479004,0.10067088901996613,2.4595947265625,4.648486776942871,-7.922919030534104e-05,0.35067814588546753,-1.5967100302325647,-5.17968692292925e-05,0.00746234692633152,0.7834222316741943,-0.0015819839900359511,-0.1246500238776207,0.7621303200721741,7.946240657474846e-05,-0.24027173221111298
243.0,256.0,2.5549,0.2213,9.5767,-0.0354,-0.1222,-0.1141,-1.771663328210348,-0.15394973754882812,2.8494057655334473,-1.6452662944793701,0.10139618068933487,2.471665143966675,4.648494406337402,-7.281832949956879e-05,0.3366911709308624,-1.5966900030719202,-5.006798528484069e-05,9.244983084499836e-05,0.7834546566009521,-0.0017827049596235156,-0.13652688264846802,0.7621583938598633,1.9189237698835626e-10,-0.17853903770446777
243.0,256.0,2.5549,0.2213,9.5767,-0.0354,-0.1222,-0.1141,-1.7725678882994593,-0.15799041092395782,2.87152361869812,-1.644629716873169,0.09951674938201904,2.5054240226745605,4.648514433498047,-8.831927698338404e-05,0.347491979598999,-1.5966532866107386,-1.0700137664798604e-07,0.013200747780501842,0.7834346294403076,-0.0022598125506192446,-0.12182848155498505,0.7621747851371765,4.633975376409612e-16,-0.22484086453914642
249.0,293.0,2.5663,0.1663,9.2052,-0.0377,-0.0298,-0.1182,-1.7734853229918421,-0.15991738438606262,2.800586223602295,-1.6440582275390625,0.10187657177448273,2.4973926544189453,4.648466272945068,-8.356707985512912e-05,0.3428054451942444,-1.596694294606344,-2.978422716792828e-11,0.0013478181790560484,0.783410370349884,-0.0027205024380236864,-0.13879689574241638,0.7621422410011292,1.1190505646781532e-21,-0.2779524326324463
249.0,293.0,2.5663,0.1663,9.2052,-0.0377,-0.0298,-0.1182,-1.7744180164732875,-0.15809513628482819,2.7266035079956055,-1.6434221267700195,0.10716748982667923,2.492276668548584,4.648490591640137,-7.812657713657245e-05,0.34960344433784485,-1.5967024008380335,-8.290550117620067e-15,0.023034919053316116,0.7834116220474243,-0.00349253648892045,-0.132858544588089,0.7621706128120422,2.7023753422217553e-27,-0.2650906443595886
249.0,293.0,2.5663,0.1663,9.2052,-0.0377,-0.0298,-0.1182,-1.7756806812682093,-0.1495702862739563,2.875216484069824,-1.6425994634628296,0.11528371274471283,2.442302703857422,4.648542090053223,-7.188620656961575e-05,0.3407352864742279,-1.5966900030719202,-1.5067670006673065e-19,0.014193477109074593,0.7833303809165955,-0.004186884965747595,-0.1457516998052597,0.7621384859085083,8.755352265666212e-35,-0.21723735332489014
249.0,293.0,2.5663,0.1663,9.2052,-0.0377,-0.0298,-0.1182,-1.7765890560545863,-0.14681026339530945,2.8401730060577393,-1.6418265104293823,0.11944179981946945,2.506248950958252,4.648566408748291,-6.782312266295776e-05,0.3457552492618561,-1.5967143217669886,-4.194141507953985e-23,0.0019038692116737366,0.7833188772201538,-0.004275688901543617,-0.1358940452337265,0.7621627449989319,2.1143211619272137e-40,-0.25433996319770813
249.0,293.0,2.5663,0.1663,9.2052,-0.0377,-0.0298,-0.1182,-1.777506490746969,-0.15314637124538422,2.796041965484619,-1.6410903930664062,0.12265388667583466,2.5135486125946045,4.648470087642334,-3.8674483221257105e-05,0.3426614999771118,-1.596661392842428,-1.1674546670104148e-26,-0.0023130527697503567,0.7833431363105774,-0.003917877562344074,-0.149189293384552,0.7621344327926636,0.0,-0.23292525112628937
249.0,293.0,2.5663,0.1663,9.2052,-0.0377,-0.0298,-0.1182,-1.7784401379027308,-0.16503120958805084,2.804114818572998,-1.6403627395629883,0.12209092825651169,2.504635810852051,4.6485182481953125,-6.884118192829192e-05,0.3537619113922119,-1.5966780821429651,-3.249653192452733e-30,0.003413895843550563,0.783319354057312,-0.0037470224779099226,-0.13711956143379211,0.7621504068374634,0.0,-0.3076721429824829
249.0,293.0,2.5663,0.1663,9.2052,-0.0377,-0.0298,-0.1182,-1.7794581852354945,-0.17554333806037903,2.8144867420196533,-1.6396311521530151,0.11938965320587158,2.4884912967681885,4.648538275355957,-6.564819341292605e-05,0.3313837945461273,-1.596633259450094,-9.045529130268315e-34,0.0030570856761187315,0.7832791805267334,-0.0035321025643497705,-0.1353800892829895,0.7621706128120422,0.0,-0.2712419927120209
249.0,293.0,2.5663,0.1663,9.2052,-0.0377,-0.0298,-0.1182,-1.7804471455016078,-0.16678285598754883,2.7704029083251953,-1.6388307809829712,0.1235390305519104,2.4568140506744385,4.648486776942871,-5.0430651754140854e-05,0.33013826608657837,-1.596649471913473,-2.5178564438151457e-37,0.009729121811687946,0.7832387685775757,-0.0032743196934461594,-0.13194246590137482,0.762094259262085,6.2513163534561045e-09,-0.3087213635444641
249.0,293.0,2.5663,0.1663,9.2052,-0.0377,-0.0298,-0.1182,-1.7814446888365687,-0.1508975625038147,2.844094753265381,-1.6380873918533325,0.13488830626010895,2.494239568710327,4.648534460658691,-1.4037557782842214e-08,0.3415420651435852,-1.5967300573932093,-7.008594269320573e-41,0.016346381977200508,0.7832350134849548,-0.0032512834295630455,-0.13539160788059235,0.7621466517448425,1.5096192186397038e-14,-0.2961609661579132
249.0,293.0,2.5663,0.1663,9.2052,-0.0377,-0.0298,-0.1182,-1.782438417474264,-0.14608919620513916,2.868959426879883,-1.6372909545898438,0.14376309514045715,2.5130739212036133,4.648502512569092,-3.907405649039575e-12,0.3429119288921356,-1.5966857115374964,-1.961817850054744e-44,-0.0028406442143023014,0.7832152843475342,-0.003481177380308509,-0.14440543949604034,0.7621825337409973,3.645552334348264e-20,-0.3203204572200775
249.0,293.0,2.5663,0.1663,9.2052,-0.0377,-0.0298,-0.1182,-1.7833711109557093,-0.1595548540353775,2.868177652359009,-1.636483907699585,0.145868182182312,2.496375560760498,4.648430510158203,-1.0876408086140017e-15,0.3412913680076599,-1.596694294606344,-0.0,0.0077995238825678825,0.783194899559021,-0.0030975218396633863,-0.1509568691253662,0.7621905207633972,8.803579850189606e-26,-0.3115374743938446
249.0,293.0,2.5663,0.1663,9.2052,-0.0377,-0.0298,-0.1182,-1.7844168148436488,-0.18013040721416473,2.7937488555908203,-1.635571837425232,0.14519308507442474,2.5296144485473633,4.6484901148029785,-0.001819915953092277,0.3362572193145752,-1.5966780821429651,-0.0,0.026948820799589157,0.7831587791442871,-0.002666276879608631,-0.14230498671531677,0.7621866464614868,2.1259609968802225e-31,-0.2938082814216614
249.0,293.0,2.5663,0.1663,9.2052,-0.0377,-0.0298,-0.1182,-1.785546442071432,-0.19142308831214905,2.8163180351257324,-1.634676218032837,0.1439536064863205,2.495048999786377,4.648450537318848,-0.0009209463023580611,0.3281936049461365,-1.5966656843768519,-0.0,-0.0015627903630957007,0.7832071781158447,-0.0020171678625047207,-0.1529996395111084,0.7621665596961975,5.13394592784925e-37,-0.3372349739074707
249.0,293.0,2.5663,0.1663,9.2052,-0.0377,-0.0298,-0.1182,-1.7866202793517054,-0.18344080448150635,2.7603540420532227,-1.6338086128234863,0.1504356414079666,2.462418556213379,4.648510618800781,-4.740920303447638e-06,0.320368230342865,-1.5966256300555628,-0.0,0.010761617682874203,0.7832152843475342,-0.0017447267891839147,-0.14312151074409485,0.7621425986289978,1.2401491409274631e-42,-0.35264939069747925
249.0,293.0,2.5663,0.1663,9.2052,-0.0377,-0.0298,-0.1182,-1.7880341015257777,-0.16401128470897675,2.819218635559082,-1.6325677633285522,0.1632300317287445,2.5110878944396973,4.648478670711182,-8.616389546300951e-11,0.324332058429718,-1.596661392842428,-0.0,0.004890589974820614,0.7831993699073792,-0.0014252988621592522,-0.15068843960762024,0.7621384859085083,0.0,-0.38241201639175415
257.0,311.0,2.0261,0.149,8.7021,-0.0435,0.0095,-0.1231,-1.7890435657896937,-0.1620948761701584,2.820596694946289,-1.6315923929214478,0.17309385538101196,2.498065948486328,4.648510618800781,0.0001344273186987266,0.3257172703742981,-1.596661392842428,-0.0,0.020306630060076714,0.7831870913505554,-0.0010456222807988524,-0.13265904784202576,0.762162446975708,0.0,-0.2735479474067688
257.0,311.0,2.0261,0.149,8.7021,-0.0435,0.0095,-0.1231,-1.7900973759093226,-0.17759200930595398,2.8167219161987305,-1.6306015253067017,0.17973101139068604,2.547001600265503,4.648482008571289,-0.0009777722880244255,0.331779420375824,-1.5966656843768519,-6.016485940563143e-07,0.018606221303343773,0.7832316160202026,-0.0007986663840711117,-0.1452547162771225,0.762186586856842,0.0,-0.3255739212036133
257.0,311.0,2.0261,0.149,8.7021,-0.0435,0.0095,-0.1231,-1.7912351093687953,-0.19401058554649353,2.7097504138946533,-1.6293925046920776,0.17840181291103363,2.4827685356140137,4.648414774531982,-0.0018701296066865325,0.3033984899520874,-1.5966537634478968,-1.6747106479364504e-10,0.021606668829917908,0.7831111550331116,-0.0005990842473693192,-0.12101247906684875,0.7621743679046631,0.0,-0.3043953776359558
257.0,311.0,2.0261,0.149,8.7021,-0.0435,0.0095,-0.1231,-1.7923490009703578,-0.19939981400966644,2.76509952545166,-1.6283525228500366,0.1777435839176178,2.4998865127563477,4.648478193874023,-0.0006040503503754735,0.3046901524066925,-1.5966737906085413,-4.661618381346551e-14,0.02495826780796051,0.7831874489784241,-0.00036782908136956394,-0.12372797727584839,0.7621866464614868,0.0,-0.32564398646354675
257.0,311.0,2.0261,0.149,8.7021,-0.0435,0.0095,-0.1231,-1.7934862575926722,-0.19636709988117218,2.7300119400024414,-1.627200961112976,0.18644118309020996,2.510158061981201,4.648494406337402,-0.00012657009938266128,0.31149721145629883,-1.5966618696795862,0.0005268433014862239,0.03842562437057495,0.7831714153289795,-0.00029409260605461895,-0.12997393310070038,0.7621262073516846,0.0,-0.3781769871711731
257.0,311.0,2.0261,0.149,8.7021,-0.0435,0.0095,-0.1231,-1.7946359119811,-0.1936773955821991,2.700413703918457,-1.6260730028152466,0.1964198797941208,2.4992926120758057,4.648510618800781,-8.882916154107079e-05,0.3051992356777191,-1.5966375509845179,0.00048553102533333004,0.03673423081636429,0.7832317352294922,-0.00024586409563198686,-0.13225692510604858,0.7621303200721741,0.0,-0.36488568782806396
257.0,311.0,2.0261,0.149,8.7021,-0.0435,0.0095,-0.1231,-1.7958175144591273,-0.19440500438213348,2.7575230598449707,-1.6248009204864502,0.20468302071094513,2.5426158905029297,4.6484386163898925,-0.00013694517838303,0.29573336243629456,-1.596654240285055,0.00045075497473590076,0.04906270280480385,0.7832074761390686,-0.00021122978068888187,-0.12056945264339447,0.7621425986289978,0.0,-0.4257098436355591
257.0,311.0,2.0261,0.149,8.7021,-0.0435,0.0095,-0.1231,-1.79704012493276,-0.1948755830526352,2.755666971206665,-1.6235413551330566,0.20552442967891693,2.552158832550049,4.648478193874023,-0.00011154419917147607,0.30211594700813293,-1.5966180006610315,0.00041796432924456894,0.03914400190114975,0.7832194566726685,-0.00018515072588343173,-0.12439915537834167,0.7621504068374634,0.0,-0.36545443534851074
257.0,311.0,2.0261,0.149,8.7021,-0.0435,0.0095,-0.1231,-1.7982217274107875,-0.20257000625133514,2.6600522994995117,-1.6223502159118652,0.21098771691322327,2.5240042209625244,4.648442431087158,-9.405206947121769e-05,0.29006046056747437,-1.596638027821676,0.00039243645733222365,0.05605832487344742,0.7831591963768005,-0.00013214064529165626,-0.120785191655159,0.7621946334838867,0.0,-0.42885804176330566
257.0,311.0,2.0261,0.149,8.7021,-0.0435,0.0095,-0.1231,-1.7994677029051722,-0.20888575911521912,2.634222984313965,-1.6210417747497559,0.21654808521270752,2.5793442726135254,4.6484386163898925,-8.130348578561097e-05,0.3092886209487915,-1.596609894429342,0.0003758409875445068,0.053727030754089355,0.7831874489784241,-0.00011879037629114464,-0.11977159976959229,0.7621864080429077,0.0,-0.4123348593711853
257.0,311.0,2.0261,0.149,8.7021,-0.0435,0.0095,-0.1231,-1.8011180363097132,-0.2144441157579422,2.7038493156433105,-1.6192739009857178,0.22102199494838715,2.5498125553131104,4.6484386163898925,-0.0001096667765523307,0.2890555262565613,-1.5966256300555628,0.0003469283983577043,0.056428879499435425,0.7831953167915344,-0.00010493804438738152,-0.11709669977426529,0.762154221534729,-5.805912951473147e-05,-0.4467741847038269
257.0,311.0,2.0261,0.149,8.7021,-0.0435,0.0095,-0.1231,-1.8023106060423792,-0.213485449552536,2.673150062561035,-1.61793851852417,0.22028082609176636,2.542717456817627,4.648486300105713,-0.0001407896779710427,0.2913272976875305,-1.5966423193561,0.0003116705338470638,0.059604495763778687,0.7831833362579346,-9.649871935835108e-05,-0.09496007859706879,0.7621421813964844,-4.8463458369951695e-05,-0.3853006064891815
257.0,311.0,2.0261,0.149,8.7021,-0.0435,0.0095,-0.1231,-1.8036371670165003,-0.21879449486732483,2.685114860534668,-1.616591215133667,0.2286948710680008,2.5326263904571533,4.648470564479492,-0.00014658240252174437,0.2780788540840149,-1.5965936819659632,0.0003090235113631934,0.06268259882926941,0.7831628918647766,-8.931580669013783e-05,-0.11172281950712204,0.7621665596961975,-4.17227711295709e-05,-0.4749819040298462
257.0,311.0,2.0261,0.149,8.7021,-0.0435,0.0095,-0.1231,-1.8049231968321742,-0.2244708240032196,2.640300750732422,-1.6151833534240723,0.23744656145572662,2.5342836380004883,4.648494406337402,-9.770007454790175e-05,0.28568997979164124,-1.596576992665426,0.0003083787451032549,0.05844996124505997,0.7832072377204895,-8.312828867929056e-05,-0.10241895914077759,0.7621384859085083,-3.6628211091738194e-05,-0.457980215549469
265.0,287.0,1.9866,0.1143,9.149,-0.0432,0.0444,-0.1235,-1.8062731228270472,-0.22219038009643555,2.704308271408081,-1.6137752532958984,0.2403203696012497,2.5312561988830566,4.6485182481953125,-7.367470243480057e-05,0.29147446155548096,-1.5966499487506312,0.0002689648244995624,0.06196969375014305,0.7831953167915344,-7.774254481773823e-05,-0.10772226750850677,0.7621866464614868,-9.77716117631644e-05,-0.4752171039581299
265.0,287.0,1.9866,0.1143,9.149,-0.0432,0.0444,-0.1235,-1.807655473748678,-0.22085469961166382,2.674896717071533,-1.6123195886611938,0.24767537415027618,2.5688748359680176,4.648486300105713,-5.913976565352641e-05,0.2870755195617676,-1.5965974966632288,0.00027244212105870247,0.055725861340761185,0.7831472754478455,-5.476984006236307e-05,-0.10793457180261612,0.7621666193008423,-0.0001177567319246009,-0.41064023971557617
265.0,287.0,1.9866,0.1143,9.149,-0.0432,0.0444,-0.1235,-1.8090621433653773,-0.23181656002998352,2.720478057861328,-1.610779047012329,0.25758394598960876,2.590019702911377,4.648502512569092,-8.581561269238591e-05,0.2816535234451294,-1.5966013113604944,0.00024469761410728097,0.06491817533969879,0.78316330909729,-5.1618517318274826e-05,-0.09797483682632446,0.762154221534729,-8.046886068768799e-05,-0.44077616930007935
265.0,287.0,1.9866,0.1143,9.149,-0.0432,0.0444,-0.1235,-1.8105231724181117,-0.24421074986457825,2.7105727195739746,-1.6092716455459595,0.26169368624687195,2.5829169750213623,4.648482008571289,-8.4819330368191e-05,0.29058390855789185,-1.596576992665426,0.00022205426648724824,0.06840794533491135,0.7831953167915344,-4.881845961790532e-05,-0.11245295405387878,0.7621303200721741,-7.382777403108776e-05,-0.45731812715530396
265.0,287.0,1.9866,0.1143,9.149,-0.0432,0.0444,-0.1235,-1.8119656048216761,-0.25182831287384033,2.737865686416626,-1.6077529191970825,0.26294612884521484,2.5879337787628174,4.648490591640137,-7.431449193973094e-05,0.27102571725845337,-1.5966013113604944,0.00020324769138824195,0.070943683385849,0.7831871509552002,-4.6306617150548846e-05,-0.10080103576183319,0.7621223330497742,-9.097379370359704e-05,-0.518798828125
265.0,287.0,1.9866,0.1143,9.149,-0.0432,0.0444,-0.1235,-1.8135439358153285,-0.24539415538311005,2.7419586181640625,-1.6060882806777954,0.272432804107666,2.6054859161376953,4.648522539729736,-3.307196675450541e-05,0.2747710049152374,-1.596609894429342,0.0001873780129244551,0.06678344309329987,0.783198893070221,-4.404062565299682e-05,-0.09992517530918121,0.7621867060661316,-8.456337673123926e-05,-0.4483305513858795
265.0,287.0,1.9866,0.1143,9.149,-0.0432,0.0444,-0.1235,-1.8150869808592738,-0.2536013722419739,2.709300994873047,-1.604443907737732,0.28205594420433044,2.6850903034210205,4.648482008571289,-5.7547600590623915e-05,0.2837758958339691,-1.59666616121401,0.00016272792709060013,0.06737588346004486,0.783203125,-4.198605893179774e-05,-0.10338626801967621,0.7621462941169739,-7.899646152509376e-05,-0.4202273488044739
265.0,287.0,1.9866,0.1143,9.149,-0.0432,0.0444,-0.1235,-1.8166724644102992,-0.26453641057014465,2.6769649982452393,-1.6027330160140991,0.2842983901500702,2.6115880012512207,4.648450537318848,-5.417937791207805e-05,0.2839338779449463,-1.596609894429342,0.00014385719259735197,0.07833881676197052,0.7831669449806213,-4.0114646253641695e-05,-0.08994272351264954,0.7621825933456421,-7.411740807583556e-05,-0.3780475854873657
265.0,287.0,1.9866,0.1143,9.149,-0.0432,0.0444,-0.1235,-1.8188320598998011,-0.2643233835697174,2.747742176055908,-1.600486159324646,0.298091858625412,2.6617813110351562,4.648498697871826,-4.8357218474848196e-05,0.2873287796974182,-1.5966180006610315,0.00012754506315104663,0.08246719837188721,0.7832235097885132,-3.786438173847273e-05,-0.1018158495426178,0.7621825337409973,-6.847800977993757e-05,-0.45791181921958923
265.0,287.0,1.9866,0.1143,9.149,-0.0432,0.0444,-0.1235,-1.8204542599120082,-0.2682986557483673,2.674618721008301,-1.5986689329147339,0.30281856656074524,2.6265387535095215,4.648434801692627,-8.823842654237524e-05,0.2936697006225586,-1.5965855757342737,0.00011754935985663906,0.07165162265300751,0.7831953167915344,-3.633570304373279e-05,-0.08958402276039124,0.7621264457702637,-6.478128489106894e-05,-0.4069247245788574
265.0,287.0,1.9866,0.1143,9.149,-0.0432,0.0444,-0.1235,-1.8220325909056605,-0.281220942735672,2.7413933277130127,-1.5968626737594604,0.2963370382785797,2.637868881225586,4.6484266954609375,-0.0022784359753131866,0.2866083085536957,-1.5966299215899866,0.0001090064542950131,0.05585149675607681,0.7831751704216003,-3.492562973406166e-05,-0.09688805043697357,0.7621784806251526,-6.146326632006094e-05,-0.4343542456626892
265.0,287.0,1.9866,0.1143,9.149,-0.0432,0.0444,-0.1235,-1.8237348995604457,-0.2822790741920471,2.6752805709838867,-1.5951061248779297,0.29981812834739685,2.606898784637451,4.648446245784424,-0.0011790760327130556,0.27116501331329346,-1.5966342131244105,0.0001016210881061852,0.07601051032543182,0.7831271886825562,-3.36209122906439e-05,-0.09526728838682175,0.7621743679046631,-5.8468587667448446e-05,-0.41033148765563965
265.0,287.0,1.9866,0.1143,9.149,-0.0432,0.0444,-0.1235,-1.8253566227354945,-0.28309524059295654,2.730966567993164,-1.5932493209838867,0.3054051995277405,2.617103099822998,4.6484266954609375,-0.0006217991467565298,0.2779068350791931,-1.5966222921954554,9.517322177998722e-05,0.08000868558883667,0.7831394076347351,-3.2410185667686164e-05,-0.11534019559621811,0.7621302604675293,-5.575215982389636e-05,-0.44608214497566223
265.0,287.0,1.9866,0.1143,9.149,-0.0432,0.0444,-0.1235,-1.8271080456175746,-0.2877082824707031,2.712724208831787,-1.5914219617843628,0.30517148971557617,2.619844913482666,4.648414774531982,-0.0004425575025379658,0.28174856305122375,-1.5966303984271448,8.949469338404015e-05,0.07554256916046143,0.7831752300262451,-3.128364187432453e-05,-0.09934189915657043,0.7621945738792419,-5.327693361323327e-05,-0.46084338426589966
265.0,287.0,1.9866,0.1143,9.149,-0.0432,0.0444,-0.1235,-1.8287741146483363,-0.28642183542251587,2.714991807937622,-1.589508295059204,0.3121025562286377,2.5854358673095703,4.648454352016113,-0.00033969973446801305,0.27947676181793213,-1.5965974966632288,8.445561252301559e-05,0.07493060827255249,0.783175528049469,-3.023275530722458e-05,-0.1071232408285141,0.7621220946311951,-5.101216083858162e-05,-0.4391214847564697
238.0,271.0,1.9567,0.0108,9.0281,-0.0399,0.0428,-0.1165,-1.8305050335326136,-0.28700706362724304,2.7475874423980713,-1.5875952243804932,0.3157297968864441,2.615377902984619,4.648430510158203,-0.000276939885225147,0.2863066494464874,-1.596638027821676,7.995386113179848e-05,0.07258865237236023,0.783151388168335,-2.51447175969588e-07,-0.09620398283004761,0.7621945738792419,-3.6699850170407444e-05,-0.4190170466899872
238.0,271.0,1.9567,0.0108,9.0281,-0.0399,0.0428,-0.1165,-1.8322035274901332,-0.28915315866470337,2.762197971343994,-1.5857070684432983,0.3156641721725464,2.6276040077209473,4.648474856013916,-0.00023376347962766886,0.2789556682109833,-1.59658128419985,7.590767927467823e-05,0.07891251146793365,0.7831874489784241,-6.999123502993143e-11,-0.10359099507331848,0.7621182203292847,-3.526124055497348e-05,-0.4150564670562744
238.0,271.0,1.9567,0.0108,9.0281,-0.0399,0.0428,-0.1165,-1.8339258633055628,-0.2915123701095581,2.7476956844329834,-1.5838093757629395,0.3192336857318878,2.648221015930176,4.648422403926514,-0.00020223675528541207,0.2852788269519806,-1.5966499487506312,7.225141598610207e-05,0.07654081284999847,0.7831231355667114,-1.9482320216725885e-14,-0.11109757423400879,0.762162446975708,-2.9765604267595336e-05,-0.5037678480148315
238.0,271.0,1.9567,0.0108,9.0281,-0.0399,0.0428,-0.1165,-1.8356367550291957,-0.29919713735580444,2.7303478717803955,-1.5818865299224854,0.31906917691230774,2.6229119300842285,4.6484104829975585,-0.00017820506764110178,0.2649155259132385,-1.5966137091266077,6.893121462780982e-05,0.0807965099811554,0.7831956148147583,-5.422975829972642e-18,-0.11270056664943695,0.7621905207633972,-2.6397668989375234e-05,-0.4756520688533783
238.0,271.0,1.9567,0.0108,9.0281,-0.0399,0.0428,-0.1165,-1.8374420605101527,-0.3001733422279358,2.7917630672454834,-1.5799518823623657,0.32588550448417664,2.6130568981170654,4.648474379176758,-0.00015927894855849445,0.27049294114112854,-1.5966256300555628,6.590259727090597e-05,0.055851228535175323,0.7831353545188904,-1.5095054612489328e-21,-0.10645043849945068,0.7621422410011292,-2.5285226001869887e-05,-0.4231591820716858
238.0,271.0,1.9567,0.0108,9.0281,-0.0399,0.0428,-0.1165,-1.839788099328512,-0.29732537269592285,2.7707457542419434,-1.577337384223938,0.33263251185417175,2.6623082160949707,4.648454352016113,-0.00011210654338356107,0.2708094120025635,-1.596593205128805,5.062892159912735e-05,0.060628972947597504,0.7831673622131348,-2.7434511523710585e-26,-0.12162703275680542,0.7621665596961975,-3.591011045500636e-05,-0.35798484086990356
238.0,271.0,1.9567,0.0108,9.0281,-0.0399,0.0428,-0.1165,-1.8416348896422328,-0.3041972815990448,2.8352489471435547,-1.5753339529037476,0.33850276470184326,2.677755832672119,4.648494406337402,-7.995837950147688e-05,0.28135010600090027,-1.5966137091266077,4.782007454195991e-05,0.07663099467754364,0.7831677794456482,-7.636496547009599e-30,-0.11783041059970856,0.7621504068374634,-3.4532298741396517e-05,-0.4496566653251648
238.0,271.0,1.9567,0.0108,9.0281,-0.0399,0.0428,-0.1165,-1.8435069523253382,-0.3013707995414734,2.8209362030029297,-1.5732171535491943,0.3486727476119995,2.666785717010498,4.648466272945068,-7.058312621666119e-05,0.2873445153236389,-1.5966222921954554,4.5987260818947107e-05,0.055073294788599014,0.7831915020942688,-2.1256466182629348e-33,-0.11244235187768936,0.7621145248413086,-4.055727185914293e-05,-0.39570748805999756
238.0,271.0,1.9567,0.0108,9.0281,-0.0399,0.0428,-0.1165,-1.845384260217184,-0.30019286274909973,2.840648889541626,-1.5711400508880615,0.3510409891605377,2.6362977027893066,4.648478670711182,-6.54491304885596e-05,0.29053252935409546,-1.5966013113604944,4.428995816851966e-05,0.07426945120096207,0.7831516861915588,-8.54109405423742e-09,-0.11788769066333771,0.7621542811393738,-4.2761654185596853e-05,-0.40963810682296753
238.0,271.0,1.9567,0.0108,9.0281,-0.0399,0.0428,-0.1165,-1.8473082981505335,-0.3112631142139435,2.8081674575805664,-1.569068193435669,0.3597698509693146,2.679783344268799,4.648450537318848,3.184397428412922e-05,0.29149746894836426,-1.5966180006610315,4.2713494622148573e-05,0.07804661989212036,0.7831714749336243,-2.3774448121988145e-12,-0.11361750960350037,0.7621344327926636,-4.1290306398877874e-05,-0.4791637063026428
238.0,271.0,1.9567,0.0108,9.0281,-0.0399,0.0428,-0.1165,-1.8491670093932093,-0.3117120862007141,2.8212366104125977,-1.5669687986373901,0.3603084981441498,2.7407169342041016,4.648402853603027,9.122128119543049e-08,0.29142141342163086,-1.5966180006610315,4.124539555050433e-05,0.06489042192697525,0.7831394672393799,-6.617704304264318e-16,-0.11422446370124817,0.7621182799339294,-0.000103146827314049,-0.4608736038208008
238.0,271.0,1.9567,0.0108,9.0281,-0.0399,0.0428,-0.1165,-1.851077219048971,-0.31013429164886475,2.816006660461426,-1.5647485256195068,0.3572441339492798,2.7040653228759766,4.6484386163898925,2.5391777222494305e-11,0.2865873873233795,-1.5965655485736292,3.987486343248747e-05,0.0641399472951889,0.783175528049469,-1.8420622062732327e-19,-0.11750660836696625,0.7621104121208191,-0.0008426416898146272,-0.4635666608810425
238.0,271.0,1.9567,0.0108,9.0281,-0.0399,0.0428,-0.1165,-1.852952619592184,-0.31877800822257996,2.8002681732177734,-1.5625113248825073,0.3592583239078522,2.6672282218933105,4.648418589229248,7.067895327708164e-15,0.28035372495651245,-1.5966342131244105,2.1896239488228275e-08,0.05837815999984741,0.7831112146377563,-5.127447578086395e-23,-0.12757977843284607,0.7621544599533081,-0.0012523707700893283,-0.4474060535430908
238.0,271.0,1.9567,0.0108,9.0281,-0.0399,0.0428,-0.1165,-1.8547951183714808,-0.3169851005077362,2.762712001800537,-1.5603785514831543,0.35502541065216064,2.6557583808898926,4.648434324855469,1.9673744339070934e-18,0.2844253480434418,-1.5966137091266077,6.0948988911402324e-12,0.06308458000421524,0.7831234931945801,-1.4272438194319957e-26,-0.11933204531669617,0.7621268630027771,-0.001453316886909306,-0.3882281482219696
218.0,239.0,2.9043,0.2465,8.4078,-0.0415,0.0648,-0.1289,-1.8566495380797328,-0.31243228912353516,2.8306379318237305,-1.5581951141357422,0.3554155230522156,2.662322998046875,4.648466272945068,5.476258772527822e-22,0.2738284170627594,-1.5966299215899866,1.6965374307695703e-15,0.05202893167734146,0.7831394076347351,-0.0002566816401667893,-0.12038523703813553,0.7620701789855957,-0.0017066383734345436,-0.43996721506118774
218.0,239.0,2.9043,0.2465,8.4078,-0.0415,0.0648,-0.1289,-1.8585049114623011,-0.30752596259117126,2.8302078247070312,-1.5560591220855713,0.35807305574417114,2.59981632232666,4.648422403926514,1.5243365114978067e-25,0.2813642621040344,-1.5966342131244105,4.722373600077352e-19,0.07452757656574249,0.7831480503082275,-0.0003061556490138173,-0.13654248416423798,0.7621152997016907,-0.002801103051751852,-0.4508262276649475
218.0,239.0,2.9043,0.2465,8.4078,-0.0415,0.0648,-0.1289,-1.8609034023680628,-0.2971315383911133,2.8577182292938232,-1.5531970262527466,0.35918083786964417,2.7205121517181396,4.648434324855469,2.7704067787298324e-30,0.2736920714378357,-1.5966299215899866,8.582680431059773e-24,0.06097404286265373,0.7831275463104248,-0.0012901319423690438,-0.11294803023338318,0.7620182037353516,-0.002639822429046035,-0.44147372245788574
218.0,239.0,2.9043,0.2465,8.4078,-0.0415,0.0648,-0.1289,-1.8626576862730921,-0.2936125099658966,2.914137601852417,-1.550939917564392,0.3572976589202881,2.6305301189422607,4.648482008571289,7.711529468142219e-34,0.2829098403453827,-1.5966137091266077,2.3890205698871245e-27,0.0606052428483963,0.783111572265625,-0.0017272662371397018,-0.14842455089092255,0.7620663642883301,-0.001813910435885191,-0.37887126207351685
218.0,239.0,2.9043,0.2465,8.4078,-0.0415,0.0648,-0.1289,-1.8644372425475062,-0.28799793124198914,2.911968231201172,-1.5488603115081787,0.36255714297294617,2.6580772399902344,4.6484386163898925,2.146532305259201e-37,0.2720668315887451,-1.596638027821676,6.64992764825147e-31,0.05349301919341087,0.7831156849861145,-0.001930451369844377,-0.13294604420661926,0.7620424032211304,-0.00084954738849774,-0.40308254957199097
218.0,239.0,2.9043,0.2465,8.4078,-0.0415,0.0648,-0.1289,-1.8660961590208949,-0.29049766063690186,2.921159505844116,-1.5467356443405151,0.3582655191421509,2.660907745361328,4.648498221034668,5.974996522034588e-41,0.2732689380645752,-1.5966180006610315,1.8510317835800332e-34,0.05549542233347893,0.7830349802970886,-0.002153997076675296,-0.1280697137117386,0.7620865702629089,-0.0005421095411293209,-0.4365910291671753
