ramyac6/ROB537/final_project/csv/bad/bad_99.csv
tof_0,tof_1,accelx,accely,accelz,gyrox,gyroy,gyroz,shoulder_lift_joint_position,shoulder_lift_joint_velocity,shoulder_lift_joint_effort,elbow_joint_position,elbow_joint_velocity,elbow_joint_effort,wrist_1_joint_position,wrist_1_joint_velocity,wrist_1_joint_effort,wrist_2_joint_position,wrist_2_joint_velocity,wrist_2_joint_effort,wrist_3_joint_position,wrist_3_joint_velocity,wrist_3_joint_effort,shoulder_pan_joint_position,shoulder_pan_joint_velocity,shoulder_pan_joint_effort
520.0,684.0,-2.3833,-0.3392,9.3488,-0.0399,0.025,-0.1174,-1.925850053826803,0.0,3.021821975708008,-2.0343732833862305,-0.0,1.5593479871749878,5.6985482452209375,0.0,0.25400641560554504,-1.5458219687091272,-0.0,-0.013721799477934837,0.7357897162437439,-0.0,-0.009478379040956497,0.78853440284729,0.0,0.012075080536305904
520.0,684.0,-2.3833,-0.3392,9.3488,-0.0399,0.025,-0.1174,-1.925838132897848,0.0,3.046172618865967,-2.034376859664917,-0.0,1.5311439037322998,5.6985315559204,0.0,0.2548610270023346,-1.5457900206195276,-0.0,-0.007306175772100687,0.7357697486877441,-0.0,0.011890359222888947,0.7885223627090454,0.0,-0.0028579989448189735
520.0,684.0,-2.3833,-0.3392,9.3488,-0.0399,0.025,-0.1174,-1.9258295498290003,0.0,3.0993263721466064,-2.0343286991119385,-0.0,1.5604276657104492,5.698439764767446,0.0,0.25259241461753845,-1.5458105246173304,-0.0,-0.027430417016148567,0.7357336282730103,-0.0,-0.00019160076044499874,0.7885104417800903,0.0,-0.04071970283985138
520.0,684.0,-2.3833,-0.3392,9.3488,-0.0399,0.025,-0.1174,-1.9258138142027796,0.0,3.000666618347168,-2.034381151199341,-0.0,1.551370620727539,5.69851969459609,0.0,0.24971595406532288,-1.5458219687091272,-0.0,-0.01978113129734993,0.7357938289642334,-0.0,0.0130288265645504,0.7885023951530457,0.0,0.055364638566970825
520.0,684.0,-2.3833,-0.3392,9.3488,-0.0399,0.025,-0.1174,-1.9258538685240687,0.0,3.060823440551758,-2.0343847274780273,-0.0,1.5557656288146973,5.698559987335958,0.0,0.2474982589483261,-1.5457618872271937,-0.0,-0.006953057833015919,0.7358020544052124,-0.0,-0.0024473986122757196,0.7884863615036011,0.0,0.015986599028110504
520.0,684.0,-2.3833,-0.3392,9.3488,-0.0399,0.025,-0.1174,-1.9258538685240687,0.0,3.043490409851074,-2.034376859664917,-0.0,1.5220118761062622,5.69851969459609,0.0,0.24946238100528717,-1.545826260243551,-0.0,-0.015659254044294357,0.7358098030090332,-0.0,-0.00622865604236722,0.7885264158248901,0.0,0.046430185437202454
520.0,684.0,-2.3833,-0.3392,9.3488,-0.0399,0.025,-0.1174,-1.925821920434469,0.0,3.1142539978027344,-2.0343286991119385,-0.0,1.548667073249817,5.698471772461691,0.0,0.24705740809440613,-1.5457537809955042,-0.0,-0.012914138846099377,0.7358057498931885,-0.0,0.010127374902367592,0.7885104417800903,0.0,0.033706240355968475
520.0,684.0,-2.3833,-0.3392,9.3488,-0.0399,0.025,-0.1174,-1.9258295498290003,0.0,3.068601608276367,-2.0343806743621826,-0.0,1.5898889303207397,5.698576438217916,0.0,0.2545641362667084,-1.5457857290851038,-0.0,-0.019013993442058563,0.7358220815658569,-0.0,0.012842148542404175,0.7885424494743347,0.0,-0.005460012704133987
545.0,774.0,-2.4191,-0.3266,9.4068,-0.0333,0.0279,-0.1196,-1.9258018932738246,0.0,3.012230634689331,-2.034365177154541,-0.0,1.5533223152160645,5.6985440132911584,0.0,0.25187116861343384,-1.5457857290851038,-0.0,-0.010258984751999378,0.735725462436676,-0.0,-0.012675836682319641,0.7885504961013794,0.0,0.017674501985311508
545.0,774.0,-2.4191,-0.3266,9.4068,-0.0333,0.0279,-0.1196,-1.9258419475951136,8.311309279696033e-11,3.050266981124878,-2.0343449115753174,-0.0,1.5771749019622803,5.698499667435446,0.0,0.2661714553833008,-1.5458105246173304,-0.0,-0.012617718428373337,0.7357777953147888,-0.0,0.010163264349102974,0.7885144948959351,0.0,0.00768226757645607
545.0,774.0,-2.4191,-0.3266,9.4068,-0.0333,0.0279,-0.1196,-1.925850053826803,2.0070834790950791e-16,3.02291202545166,-2.03436541557312,-0.0,1.5089685916900635,5.69850372055129,0.0,0.24333259463310242,-1.5457857290851038,-0.0,-0.014323336072266102,0.7357855439186096,-0.0,0.00939597561955452,0.7885504364967346,0.0,-0.027672884985804558
545.0,774.0,-2.4191,-0.3266,9.4068,-0.0333,0.0279,-0.1196,-1.925821443597311,4.846870453809434e-22,3.039116621017456,-2.034337043762207,-0.0,1.5502219200134277,5.69851969459609,0.0,0.2560790479183197,-1.545826260243551,-0.0,-0.016793008893728256,0.7357860803604126,-0.0,0.006984730251133442,0.7885423898696899,0.0,0.02202422544360161
545.0,774.0,-2.4191,-0.3266,9.4068,-0.0333,0.0279,-0.1196,-1.9258295498290003,1.1704622569894682e-27,3.0070791244506836,-2.0343449115753174,-0.0,1.5801819562911987,5.698507356434622,0.0,0.25145357847213745,-1.5457857290851038,-0.0,-0.018288997933268547,0.7358139157295227,-0.0,0.004161226563155651,0.7885424494743347,0.0,0.0243598110973835
545.0,774.0,-2.4191,-0.3266,9.4068,-0.0333,0.0279,-0.1196,-1.9258338413634242,2.8265290637979773e-33,3.038590908050537,-2.0343167781829834,-0.0,1.5540521144866943,5.698515641480245,0.0,0.2573281526565552,-1.5457661787616175,-0.0,-0.02107297256588936,0.7357819080352783,-0.0,-0.0015306405257433653,0.7885183691978455,0.0,-0.005997761152684689
545.0,774.0,-2.4191,-0.3266,9.4068,-0.0333,0.0279,-0.1196,-1.925850053826803,6.825736030113899e-39,3.0085716247558594,-2.0343728065490723,-0.0,1.4893163442611694,5.698539721756735,0.0,0.2551817297935486,-1.5457900206195276,-0.0,-0.017389200627803802,0.7357737421989441,-0.0,0.0040146904066205025,0.7885384559631348,0.0,0.021479789167642593
545.0,774.0,-2.4191,-0.3266,9.4068,-0.0333,0.0279,-0.1196,-1.925809999505514,1.6815581571897805e-44,3.008936882019043,-2.0343410968780518,-0.0,1.551473617553711,5.69849972704009,0.0,0.2529785633087158,-1.5458181540118616,-0.0,-0.011499707587063313,0.7358222007751465,-0.0,0.0056418366730213165,0.7885665893554688,0.0,0.008983269333839417
545.0,774.0,-2.4191,-0.3266,9.4068,-0.0333,0.0279,-0.1196,-1.9258581600584925,0.0,3.0366973876953125,-2.0343246459960938,-0.0,1.5704004764556885,5.698556411057272,0.0,0.24791739881038666,-1.545802418385641,-0.0,-0.016558831557631493,0.7357258200645447,-0.0,-0.0020400427747517824,0.7885183095932007,0.0,0.032691989094018936
545.0,774.0,-2.4191,-0.3266,9.4068,-0.0333,0.0279,-0.1196,-1.9258257351317347,0.0,3.015284538269043,-2.0342888832092285,-0.0,1.5566215515136719,5.69850372055129,0.0,0.25081712007522583,-1.5458067099200647,-0.0,-0.012711474671959877,0.7357578277587891,-0.0,-0.002154397312551737,0.7884944081306458,0.0,0.015619518235325813
545.0,774.0,-2.4191,-0.3266,9.4068,-0.0333,0.0279,-0.1196,-1.925850053826803,0.0,3.030770778656006,-2.0343728065490723,-0.0,1.5308375358581543,5.698523747711935,0.0,0.2635861337184906,-1.5457828680621546,-0.0,-0.020444311201572418,0.7357778549194336,-0.0,-0.001619044691324234,0.7885064482688904,0.0,-0.0015188194811344147
545.0,774.0,-2.4191,-0.3266,9.4068,-0.0333,0.0279,-0.1196,-1.925838132897848,0.0,3.0511555671691895,-2.0343728065490723,-0.0,1.5626485347747803,5.698531913548269,0.0,0.24389228224754333,-1.5457704702960413,-0.0,0.003847431857138872,0.7357051968574524,-0.0,-0.002403781283646822,0.7885303497314453,0.0,-0.026438679546117783
545.0,774.0,-2.4191,-0.3266,9.4068,-0.0333,0.0279,-0.1196,-1.9257976017394007,0.0,3.064009666442871,-2.03436541557312,-0.0,1.5768308639526367,5.69853566864089,0.0,0.25004205107688904,-1.5458148161517542,-0.0,0.0023188884370028973,0.7357615232467651,-0.0,0.012920106761157513,0.7885423898696899,0.0,0.0020069098100066185
545.0,774.0,-2.4191,-0.3266,9.4068,-0.0333,0.0279,-0.1196,-1.9258295498290003,0.0,3.074282169342041,-2.0343613624572754,-0.0,1.5269272327423096,5.698515641480245,0.0,0.24996978044509888,-1.5458105246173304,-0.0,0.0011595104588195682,0.7357860803604126,-0.0,0.0008703216444700956,0.7885023951530457,0.0,0.016675151884555817
545.0,774.0,-2.4191,-0.3266,9.4068,-0.0333,0.0279,-0.1196,-1.925850053826803,0.0,3.0303685665130615,-2.0343449115753174,-0.0,1.5581800937652588,5.698475408345022,0.0,0.24675723910331726,-1.5457704702960413,-0.0,-0.012325843796133995,0.7357289791107178,-0.0,-0.0022969949059188366,0.7885304093360901,0.0,0.00010144710540771484
525.0,726.0,-2.4317,-0.332,9.4283,-0.0302,0.0264,-0.1237,-1.9258176289000453,0.0,3.048232078552246,-2.034353494644165,-0.0,1.546489953994751,5.698511409550466,0.0,0.2465268075466156,-1.5458148161517542,-0.0,-0.004974354058504105,0.7357897758483887,-0.0,-0.002280512824654579,0.7884743213653564,0.0,-0.03576216101646423
525.0,726.0,-2.4317,-0.332,9.4283,-0.0302,0.0264,-0.1237,-1.9258862934508265,0.0,3.0398106575012207,-2.0343692302703857,-0.0,1.5153815746307373,5.698612260609426,0.0,0.25465691089630127,-1.5458067099200647,-0.0,-0.02725485898554325,0.7358704805374146,-0.0,-0.0015553900739178061,0.7884824872016907,0.0,0.01738932728767395
525.0,726.0,-2.4317,-0.332,9.4283,-0.0302,0.0264,-0.1237,-1.9258419475951136,0.0,3.0667037963867188,-2.034360885620117,-0.0,1.5510413646697998,5.69851969459609,0.0,0.25282153487205505,-1.545826260243551,-0.0,-0.008142190054059029,0.7357655763626099,-0.0,-0.007281986065208912,0.7885104417800903,0.0,-0.03705861419439316
525.0,726.0,-2.4317,-0.332,9.4283,-0.0302,0.0264,-0.1237,-1.9257694683470667,0.0,3.0405454635620117,-2.0344045162200928,-0.0,1.5186008214950562,5.69850372055129,0.0,0.2576855421066284,-1.5457456747638147,-0.0,-0.014511115849018097,0.7357779145240784,-0.0,-0.0015348843298852444,0.7885343432426453,0.0,0.024011097848415375
525.0,726.0,-2.4317,-0.332,9.4283,-0.0302,0.0264,-0.1237,-1.9258295498290003,0.0,3.008249044418335,-2.0343449115753174,-0.0,1.5382347106933594,5.698531615525045,0.0,0.2513875365257263,-1.5457537809955042,-0.0,-0.01110670156776905,0.7357655763626099,-0.0,-0.002109359484165907,0.7884944081306458,0.0,-0.010289501398801804
525.0,726.0,-2.4317,-0.332,9.4283,-0.0302,0.0264,-0.1237,-1.9258743725218714,0.0,3.045851469039917,-2.0343449115753174,-0.0,1.532548189163208,5.698459851532736,0.0,0.2532607316970825,-1.5458219687091272,-0.0,-0.012741311453282833,0.7357737421989441,-0.0,0.008390462026000023,0.7885184288024902,0.0,0.018672779202461243
525.0,726.0,-2.4317,-0.332,9.4283,-0.0302,0.0264,-0.1237,-1.925809999505514,0.0,3.0168027877807617,-2.03436541557312,-0.0,1.5713706016540527,5.6985482452209375,0.0,0.24876388907432556,-1.5457938353167933,-0.0,-0.018203243613243103,0.7357697486877441,-0.0,0.0010432457784190774,0.7885184288024902,0.0,-0.04819510132074356
525.0,726.0,-2.4317,-0.332,9.4283,-0.0302,0.0264,-0.1237,-1.925838132897848,0.0,3.0445847511291504,-2.0343453884124756,-0.0,1.5416967868804932,5.69851969459609,0.0,0.24240998923778534,-1.5457938353167933,-0.0,-0.020755063742399216,0.7358906269073486,-0.0,0.0048117078840732574,0.7885223627090454,0.0,0.02371213212609291
525.0,726.0,-2.4317,-0.332,9.4283,-0.0302,0.0264,-0.1237,-1.9258581600584925,0.0,3.0589685440063477,-2.0343847274780273,-0.0,1.5154814720153809,5.6985482452209375,0.0,0.2624553442001343,-1.5457499662982386,-0.0,-0.005359502509236336,0.7357217073440552,-0.0,0.004732655361294746,0.7884463667869568,0.0,0.00607423298060894
525.0,726.0,-2.4317,-0.332,9.4283,-0.0302,0.0264,-0.1237,-1.9257976017394007,0.0,3.0503792762756348,-2.0343573093414307,-0.0,1.5282447338104248,5.698564457684316,0.0,0.24645428359508514,-1.5457828680621546,-0.0,-0.014888186939060688,0.7357938289642334,-0.0,0.0024712516460567713,0.7885464429855347,0.0,0.009008978493511677
525.0,726.0,-2.4317,-0.332,9.4283,-0.0302,0.0264,-0.1237,-1.9258338413634242,0.0,3.066831588745117,-2.0343732833862305,-0.0,1.5547845363616943,5.698560344963827,0.0,0.25262531638145447,-1.5457704702960413,-0.0,-0.019978798925876617,0.7358421683311462,-0.0,-0.01370758842676878,0.7885024547576904,0.0,-0.01874881237745285
525.0,726.0,-2.4317,-0.332,9.4283,-0.0302,0.0264,-0.1237,-1.9258581600584925,0.0,3.010995626449585,-2.034376859664917,-0.0,1.5565659999847412,5.698523747711935,0.0,0.2526489496231079,-1.5458181540118616,-0.0,-0.01088531780987978,0.7357777953147888,-0.0,-0.005340024828910828,0.7885183691978455,0.0,0.02822684869170189
525.0,726.0,-2.4317,-0.332,9.4283,-0.0302,0.0264,-0.1237,-1.9257976017394007,0.0,3.0438897609710693,-2.0343127250671387,-0.0,1.5455819368362427,5.69851182678298,0.0,0.24629613757133484,-1.545798126851217,-0.0,-0.018328074365854263,0.7357615232467651,-0.0,-0.006742107681930065,0.788470447063446,0.0,-0.013728740625083447
525.0,726.0,-2.4317,-0.332,9.4283,-0.0302,0.0264,-0.1237,-1.9258338413634242,0.0,3.0293679237365723,-2.0343573093414307,-0.0,1.5399237871170044,5.69853566864089,0.0,0.24811393022537231,-1.5458219687091272,-0.0,-0.010796142742037773,0.73579341173172,-0.0,-0.0013278840342536569,0.7885263562202454,0.0,-0.011609579436480999
525.0,726.0,-2.4317,-0.332,9.4283,-0.0302,0.0264,-0.1237,-1.9258700809874476,0.0,3.0428693294525146,-2.0344085693359375,-0.0,1.537154197692871,5.698515641480245,0.0,0.2574431002140045,-1.5457857290851038,-0.0,-0.013495988212525845,0.7358139157295227,-0.0,0.004688405431807041,0.7885144948959351,0.0,0.007224082946777344
491.0,777.0,-2.4191,-0.3476,9.5043,-0.0405,0.0252,-0.1234,-1.9258176289000453,0.0,3.0799694061279297,-2.0343852043151855,-0.0,1.5835191011428833,5.698568510800161,0.0,0.2529606223106384,-1.5457938353167933,-0.0,-0.009751647710800171,0.7357778549194336,-0.0,0.011656991206109524,0.7885423898696899,0.0,0.028850022703409195
491.0,777.0,-2.4191,-0.3476,9.5043,-0.0405,0.0252,-0.1234,-1.9258462391295375,0.0,3.0519280433654785,-2.034332752227783,-0.0,1.533233642578125,5.698515641480245,0.0,0.2427297830581665,-1.5457661787616175,-0.0,-0.019616682082414627,0.7357295155525208,-0.0,0.010444723069667816,0.7885144352912903,0.0,0.010873420163989067
491.0,777.0,-2.4191,-0.3476,9.5043,-0.0405,0.0252,-0.1234,-1.92578186611318,0.0,3.0618691444396973,-2.03436541557312,-0.0,1.5552836656570435,5.6984954355056665,0.0,0.24855872988700867,-1.545758072529928,-0.0,0.0007094831671565771,0.7358343601226807,-0.0,0.00687921978533268,0.7885263562202454,0.0,0.013991404324769974
491.0,777.0,-2.4191,-0.3476,9.5043,-0.0405,0.0252,-0.1234,-1.9258743725218714,0.0,3.0690126419067383,-2.034400701522827,-0.0,1.567350149154663,5.6985278008277795,0.0,0.2506444454193115,-1.5458586851703089,-0.0,0.00030430301558226347,0.7357454895973206,-0.0,0.003111600410193205,0.7885064482688904,0.0,-0.05393959581851959
491.0,777.0,-2.4191,-0.3476,9.5043,-0.0405,0.0252,-0.1234,-1.9258176289000453,0.0,3.048969268798828,-2.0343291759490967,-0.0,1.5579357147216797,5.698539721756735,0.0,0.25545811653137207,-1.5457456747638147,-0.0,-0.011746373027563095,0.7357938289642334,-0.0,0.004850322380661964,0.7885024547576904,0.0,-0.01901214011013508
491.0,777.0,-2.4191,-0.3476,9.5043,-0.0405,0.0252,-0.1234,-1.9258295498290003,0.0,3.0670688152313232,-2.0343127250671387,-0.0,1.5526068210601807,5.69851969459609,0.0,0.24740329384803772,-1.545798126851217,-0.0,-0.0077131763100624084,0.7357901930809021,-0.0,0.009481295011937618,0.7885544896125793,0.0,0.002112173940986395
491.0,777.0,-2.4191,-0.3476,9.5043,-0.0405,0.0252,-0.1234,-1.925833364526266,0.0,3.0265042781829834,-2.0343847274780273,-0.0,1.5544531345367432,5.69850372055129,0.0,0.2459764927625656,-1.5457704702960413,-0.0,-0.01071651466190815,0.7357979416847229,-0.0,0.004049697890877724,0.7884984016418457,0.0,0.011663039214909077
491.0,777.0,-2.4191,-0.3476,9.5043,-0.0405,0.0252,-0.1234,-1.9258414707579554,0.0,3.031599998474121,-2.0343613624572754,-0.0,1.5261949300765991,5.698523330479421,0.0,0.2565036118030548,-1.5457900206195276,-0.0,-0.016841012984514236,0.7357254028320312,-0.0,0.009285284206271172,0.7885223627090454,0.0,0.042967624962329865
491.0,777.0,-2.4191,-0.3476,9.5043,-0.0405,0.0252,-0.1234,-1.9257976017394007,0.0,3.065737247467041,-2.034364938735962,-0.0,1.5449581146240234,5.698507416039266,0.0,0.2715589106082916,-1.5458343664752405,-0.0,-0.011859818361699581,0.7358222007751465,-0.0,0.008326426148414612,0.7885024547576904,0.0,0.0452541746199131
491.0,777.0,-2.4191,-0.3476,9.5043,-0.0405,0.0252,-0.1234,-1.9258457622923792,0.0,3.040252685546875,-2.034393072128296,-0.0,1.5742511749267578,5.698447513371267,0.0,0.25643256306648254,-1.5457785765277308,-0.0,-0.005984692834317684,0.7357614636421204,-0.0,-0.006397061049938202,0.78853839635849,0.0,-0.0125482939183712
491.0,777.0,-2.4191,-0.3476,9.5043,-0.0405,0.0252,-0.1234,-1.9258419475951136,0.0,3.055154800415039,-2.0343494415283203,-0.0,1.5501654148101807,5.69851969459609,0.0,0.25694772601127625,-1.545802418385641,-0.0,0.0001944294199347496,0.7358057498931885,-0.0,-0.003671083366498351,0.78853839635849,0.0,-0.01556418277323246
491.0,777.0,-2.4191,-0.3476,9.5043,-0.0405,0.0252,-0.1234,-1.9258018932738246,0.0,3.049506425857544,-2.0343410968780518,-0.0,1.547321081161499,5.69851969459609,0.0,0.24866029620170593,-1.5457986036883753,-0.0,-0.011181864887475967,0.7357454895973206,-0.0,0.012601219117641449,0.7885223627090454,0.0,0.02248533070087433
491.0,777.0,-2.4191,-0.3476,9.5043,-0.0405,0.0252,-0.1234,-1.925821920434469,0.0,3.015993118286133,-2.0343410968780518,-0.0,1.5669410228729248,5.698552298336782,0.0,0.24780693650245667,-1.5458067099200647,-0.0,-0.005428439937531948,0.7358020544052124,-0.0,0.004707842133939266,0.7885183691978455,0.0,0.01454013679176569
491.0,777.0,-2.4191,-0.3476,9.5043,-0.0405,0.0252,-0.1234,-1.9258138142027796,0.0,3.0881385803222656,-2.034376859664917,-0.0,1.5516242980957031,5.698523747711935,0.0,0.24508610367774963,-1.5458181540118616,-0.0,-0.020427271723747253,0.7357492446899414,-0.0,0.0064369672909379005,0.7885263562202454,0.0,-0.04604729637503624
491.0,777.0,-2.4191,-0.3476,9.5043,-0.0405,0.0252,-0.1234,-1.925850053826803,0.0,3.058039903640747,-2.034376859664917,-0.0,1.5474953651428223,5.69850372055129,0.0,0.24892176687717438,-1.5457900206195276,-0.0,-0.018707195296883583,0.7358261942863464,-0.0,0.014377981424331665,0.7885144352912903,0.0,0.004891279619187117
566.0,776.0,-2.4592,-0.3709,9.3565,-0.027,0.0273,-0.1174,-1.9258138142027796,0.0,3.012582540512085,-2.0343892574310303,-0.0,1.5469508171081543,5.698552298336782,0.0,0.2483806163072586,-1.5458343664752405,-0.0,-0.0075901467353105545,0.7357738018035889,-0.0,0.0070003727450966835,0.7885064482688904,0.0,-0.008730090223252773
566.0,776.0,-2.4592,-0.3709,9.3565,-0.027,0.0273,-0.1174,-1.9258419475951136,0.0,3.0673298835754395,-2.0343852043151855,-0.0,1.541001319885254,5.698523747711935,0.0,0.24357962608337402,-1.5458105246173304,-0.0,-0.018278926610946655,0.7357330918312073,-0.0,0.008999455720186234,0.7885304093360901,0.0,0.04267070069909096
566.0,776.0,-2.4592,-0.3709,9.3565,-0.027,0.0273,-0.1174,-1.9258457622923792,0.0,3.0222268104553223,-2.0343167781829834,-0.0,1.5721569061279297,5.698531615525045,0.0,0.25830382108688354,-1.5457900206195276,-0.0,-0.003961571492254734,0.7358302474021912,-0.0,0.014171083457767963,0.7885024547576904,0.0,0.017179453745484352
566.0,776.0,-2.4592,-0.3709,9.3565,-0.027,0.0273,-0.1174,-1.9258419475951136,0.0,3.085214853286743,-2.0343613624572754,-0.0,1.5641257762908936,5.698499667435446,0.0,0.2495526373386383,-1.5457900206195276,-0.0,-0.010591483674943447,0.7357860803604126,-0.0,-0.0007423716597259045,0.7885584831237793,0.0,0.012072956189513206
566.0,776.0,-2.4592,-0.3709,9.3565,-0.027,0.0273,-0.1174,-1.925850053826803,0.0,2.99790620803833,-2.0343689918518066,-0.0,1.5565022230148315,5.69851969459609,0.0,0.24892380833625793,-1.5457900206195276,-0.0,-0.005678405985236168,0.735713541507721,-0.0,0.007088450714945793,0.7884705662727356,0.0,-0.01347285509109497
566.0,776.0,-2.4592,-0.3709,9.3565,-0.027,0.0273,-0.1174,-1.925821920434469,0.0,3.0378055572509766,-2.0343286991119385,-0.0,1.5167996883392334,5.69851969459609,0.0,0.2562386393547058,-1.545798126851217,-0.0,-0.020893342792987823,0.7357697486877441,-0.0,0.007211517542600632,0.7884984016418457,0.0,-0.015722203999757767
566.0,776.0,-2.4592,-0.3709,9.3565,-0.027,0.0273,-0.1174,-1.925826211968893,0.0,3.033405065536499,-2.0343613624572754,-0.0,1.5711597204208374,5.698507773667135,0.0,0.24729911983013153,-1.5458067099200647,-0.0,-0.011894019320607185,0.7357532978057861,-0.0,0.0020902014803141356,0.7885064482688904,0.0,0.007187706418335438
566.0,776.0,-2.4592,-0.3709,9.3565,-0.027,0.0273,-0.1174,-1.925821920434469,0.0,3.0496902465820312,-2.0343329906463623,-0.0,1.5410388708114624,5.698543774872579,0.0,0.23969826102256775,-1.5457857290851038,-0.0,-0.008343986235558987,0.7358057498931885,-0.0,0.006475056055933237,0.7885023951530457,0.0,0.015478763729333878
566.0,776.0,-2.4592,-0.3709,9.3565,-0.027,0.0273,-0.1174,-1.925821920434469,0.0,3.0683040618896484,-2.034376859664917,-0.0,1.5642189979553223,5.698511409550466,0.0,0.25990232825279236,-1.5458386580096644,-0.0,-0.020334597676992416,0.7357777953147888,-0.0,0.0023394243326038122,0.7885384559631348,0.0,0.029912056401371956
566.0,776.0,-2.4592,-0.3709,9.3565,-0.027,0.0273,-0.1174,-1.9258176289000453,0.0,3.0113892555236816,-2.0343852043151855,-0.0,1.581374168395996,5.69851969459609,0.0,0.2512804865837097,-1.545798126851217,-0.0,-0.015080426819622517,0.7358139157295227,-0.0,0.012291835620999336,0.7885064482688904,0.0,-0.011832482181489468
566.0,776.0,-2.4592,-0.3709,9.3565,-0.027,0.0273,-0.1174,-1.9258338413634242,0.0,3.0257978439331055,-2.0343847274780273,-0.0,1.5305625200271606,5.698556351452627,0.0,0.2478928416967392,-1.5457938353167933,-0.0,-0.009106399491429329,0.7357819080352783,-0.0,0.004797021392732859,0.7885104417800903,0.0,0.005326968617737293
566.0,776.0,-2.4592,-0.3709,9.3565,-0.027,0.0273,-0.1174,-1.925850053826803,0.0,3.055237293243408,-2.0343286991119385,-0.0,1.561246633529663,5.698539721756735,0.0,0.2476552277803421,-1.5457418600665491,-0.0,-0.011718979105353355,0.7357417941093445,-0.0,0.005873137153685093,0.7885183691978455,0.0,-0.03968850523233414
566.0,776.0,-2.4592,-0.3709,9.3565,-0.027,0.0273,-0.1174,-1.925821920434469,0.0,3.0677499771118164,-2.034364938735962,-0.0,1.5792980194091797,5.69850372055129,0.0,0.24594582617282867,-1.5458067099200647,-0.0,0.003466983325779438,0.7357377409934998,-0.0,-0.008920744061470032,0.7885104417800903,0.0,-0.005321758799254894
566.0,776.0,-2.4592,-0.3709,9.3565,-0.027,0.0273,-0.1174,-1.9258300266661585,0.0,3.067532539367676,-2.03436541557312,-0.0,1.5296902656555176,5.698507773667135,0.0,0.24857839941978455,-1.545798126851217,-0.0,-0.001855190610513091,0.7357217669487,-0.0,-0.0018130344105884433,0.788490355014801,0.0,-0.001899890834465623
566.0,776.0,-2.4592,-0.3709,9.3565,-0.027,0.0273,-0.1174,-1.9258338413634242,0.0,3.058135986328125,-2.0343852043151855,-0.0,1.547194242477417,5.698543774872579,0.0,0.25499916076660156,-1.5458148161517542,-0.0,-0.0259137824177742,0.7356930375099182,-0.0,-0.0023023737594485283,0.788494348526001,0.0,0.0019428550731390715
528.0,775.0,-2.3988,-0.3159,9.3829,-0.0367,0.0217,-0.1151,-1.9258624515929164,0.0,3.084704875946045,-2.034360885620117,-0.0,1.5579125881195068,5.698531615525045,0.0,0.2520712912082672,-1.5457785765277308,-0.0,-0.010413192212581635,0.7357253432273865,-0.0,0.010427672415971756,0.7885064482688904,0.0,0.02297002263367176
528.0,775.0,-2.3988,-0.3159,9.3829,-0.0367,0.0217,-0.1151,-1.925838132897848,0.0,3.0707273483276367,-2.0343613624572754,-0.0,1.5598549842834473,5.698523747711935,0.0,0.25678879022598267,-1.5457900206195276,-0.0,-0.01134814415127039,0.7358015775680542,-0.0,0.005251256749033928,0.7885624170303345,0.0,-0.017079705372452736
528.0,775.0,-2.3988,-0.3159,9.3829,-0.0367,0.0217,-0.1151,-1.925821443597311,0.0,3.0332694053649902,-2.0343449115753174,-0.0,1.573938012123108,5.698543774872579,0.0,0.2536010444164276,-1.545802418385641,-0.0,-0.018208714202046394,0.7357938289642334,-0.0,-0.0026293983682990074,0.7885342836380005,0.0,-0.017534872516989708
528.0,775.0,-2.3988,-0.3159,9.3829,-0.0367,0.0217,-0.1151,-1.9258095226683558,0.0,3.038506031036377,-2.0343613624572754,-0.0,1.5690829753875732,5.698539721756735,0.0,0.2499217987060547,-1.545826260243551,-0.0,-0.0022865680512040854,0.735809862613678,-0.0,0.00029785605147480965,0.7884944081306458,0.0,-0.06407727301120758
528.0,775.0,-2.3988,-0.3159,9.3829,-0.0367,0.0217,-0.1151,-1.9258057079710902,0.0,3.0386667251586914,-2.0343291759490967,-0.0,1.55049467086792,5.698527383595266,0.0,0.25194936990737915,-1.5458105246173304,-0.0,-0.0033052186481654644,0.7357614636421204,-0.0,-0.007817709818482399,0.7884622812271118,0.0,0.002627150621265173
528.0,775.0,-2.3988,-0.3159,9.3829,-0.0367,0.0217,-0.1151,-1.9258338413634242,0.0,3.077251434326172,-2.0343408584594727,-0.0,1.5545918941497803,5.69851969459609,0.0,0.24386630952358246,-1.5458148161517542,-0.0,-0.010384036228060722,0.7358098030090332,-0.0,0.0038591050542891026,0.7884904146194458,0.0,-0.02071603573858738
528.0,775.0,-2.3988,-0.3159,9.3829,-0.0367,0.0217,-0.1151,-1.9258414707579554,0.0,3.0597457885742188,-2.0343286991119385,-0.0,1.5469086170196533,5.698531615525045,0.0,0.2412610650062561,-1.5458067099200647,-0.0,-0.012722482904791832,0.7358057498931885,-0.0,0.015018842183053493,0.7885064482688904,0.0,0.01742970384657383
528.0,775.0,-2.3988,-0.3159,9.3829,-0.0367,0.0217,-0.1151,-1.9258057079710902,0.0,3.059412956237793,-2.03436541557312,-0.0,1.583097219467163,5.6984877465064905,0.0,0.25729185342788696,-1.5457785765277308,-0.0,-0.01011713594198227,0.7357938289642334,-0.0,0.013120977208018303,0.788522481918335,0.0,-0.013738713227212429
528.0,775.0,-2.3988,-0.3159,9.3829,-0.0367,0.0217,-0.1151,-1.925826211968893,0.0,3.049349784851074,-2.0343410968780518,-0.0,1.571197509765625,5.698523330479421,0.0,0.25059637427330017,-1.5458067099200647,-0.0,-0.01189327146857977,0.7357901930809021,-0.0,0.0037305974401533604,0.7884542942047119,0.0,0.022821949794888496
528.0,775.0,-2.3988,-0.3159,9.3829,-0.0367,0.0217,-0.1151,-1.9258057079710902,0.0,3.0422873497009277,-2.034313201904297,-0.0,1.5198140144348145,5.698552298336782,0.0,0.2580137550830841,-1.5457661787616175,-0.0,0.001527395099401474,0.7357574105262756,-0.0,0.010085375048220158,0.7884944081306458,0.0,-0.013402219861745834
528.0,775.0,-2.3988,-0.3159,9.3829,-0.0367,0.0217,-0.1151,-1.9258300266661585,0.0,3.0142264366149902,-2.034332513809204,-0.0,1.6014115810394287,5.698576438217916,0.0,0.2498283088207245,-1.5457785765277308,-0.0,-0.0037942943163216114,0.7357814908027649,-0.0,-0.0035080998204648495,0.7884784936904907,0.0,0.043772824108600616
528.0,775.0,-2.3988,-0.3159,9.3829,-0.0367,0.0217,-0.1151,-1.9258457622923792,0.0,3.0097274780273438,-2.0343613624572754,-0.0,1.5153871774673462,5.698523747711935,0.0,0.25129270553588867,-1.545798126851217,-0.0,-0.02474101632833481,0.7357655763626099,-0.0,0.0075940927490592,0.7885503768920898,0.0,-0.03778160363435745
528.0,775.0,-2.3988,-0.3159,9.3829,-0.0367,0.0217,-0.1151,-1.925809999505514,0.0,3.085881233215332,-2.034393310546875,-0.0,1.56925630569458,5.698495912342825,0.0,0.24355843663215637,-1.545774284993307,-0.0,-0.015209255740046501,0.7358021140098572,-0.0,-0.012137658894062042,0.78853839635849,0.0,-0.05704207345843315
528.0,775.0,-2.3988,-0.3159,9.3829,-0.0367,0.0217,-0.1151,-1.9258095226683558,0.0,3.038811683654785,-2.0344085693359375,-0.0,1.5953941345214844,5.698519754200735,0.0,0.24490854144096375,-1.5457704702960413,-0.0,-0.01004299707710743,0.735809862613678,-0.0,0.004299107939004898,0.78853440284729,0.0,-0.00801654439419508
528.0,775.0,-2.3988,-0.3159,9.3829,-0.0367,0.0217,-0.1151,-1.9258581600584925,0.0,2.9904966354370117,-2.0343451499938965,-0.0,1.5555779933929443,5.698507356434622,0.0,0.2510792911052704,-1.5457704702960413,-0.0,-0.013750173151493073,0.73585045337677,-0.0,0.010733239352703094,0.7885023951530457,0.0,0.05348455533385277
538.0,696.0,-2.4018,-0.3751,9.3811,-0.0383,0.0235,-0.1205,-1.925838132897848,0.0,3.0509495735168457,-2.0343246459960938,-0.0,1.5600578784942627,5.698515641480245,0.0,0.2420591413974762,-1.5457704702960413,-0.0,0.0015050503425300121,0.7358425855636597,-0.0,-0.0043441662564873695,0.7885223627090454,0.0,-0.045783624053001404
538.0,696.0,-2.4018,-0.3751,9.3811,-0.0383,0.0235,-0.1205,-1.9258138142027796,0.0,3.044844150543213,-2.0343892574310303,-0.0,1.5555065870285034,5.69851969459609,0.0,0.2574262022972107,-1.5458343664752405,-0.0,-0.019057298079133034,0.7358058094978333,-0.0,0.01004660502076149,0.7884944081306458,0.0,-0.03716513514518738
538.0,696.0,-2.4018,-0.3751,9.3811,-0.0383,0.0235,-0.1205,-1.925821920434469,0.0,3.021937847137451,-2.034376859664917,-0.0,1.587098479270935,5.6985482452209375,0.0,0.24945998191833496,-1.5457661787616175,-0.0,-0.007375308312475681,0.7357855439186096,-0.0,-0.011802272871136665,0.7885024547576904,0.0,-0.013021918945014477
538.0,696.0,-2.4018,-0.3751,9.3811,-0.0383,0.0235,-0.1205,-1.9258295498290003,0.0,3.034959316253662,-2.0343573093414307,-0.0,1.5463449954986572,5.698523330479421,0.0,0.2704229950904846,-1.5457857290851038,-0.0,-0.02158733271062374,0.7357979416847229,-0.0,-0.0019164398545399308,0.7885544896125793,0.0,-0.0005835210904479027
538.0,696.0,-2.4018,-0.3751,9.3811,-0.0383,0.0235,-0.1205,-1.9258176289000453,0.0,3.0228734016418457,-2.0343573093414307,-0.0,1.5520027875900269,5.698552298336782,0.0,0.25097110867500305,-1.5457418600665491,-0.0,-0.0019210124155506492,0.7357938289642334,-0.0,-0.0067881206050515175,0.7885463237762451,0.0,0.00944182276725769
538.0,696.0,-2.4018,-0.3751,9.3811,-0.0383,0.0235,-0.1205,-1.925850053826803,0.0,3.0562031269073486,-2.0343689918518066,-0.0,1.5515642166137695,5.698535728245535,0.0,0.26031696796417236,-1.5457747618304651,-0.0,-0.02383178472518921,0.7358343601226807,-0.0,0.007542272564023733,0.7885143160820007,0.0,-0.01338792871683836
538.0,696.0,-2.4018,-0.3751,9.3811,-0.0383,0.0235,-0.1205,-1.9258581600584925,0.0,3.0283403396606445,-2.0343971252441406,-0.0,1.5735878944396973,5.6985440132911584,0.0,0.257465124130249,-1.5457866827594202,-0.0,-0.019491244107484818,0.7357938885688782,-0.0,0.01177371758967638,0.7885342836380005,0.0,-0.02739240601658821
538.0,696.0,-2.4018,-0.3751,9.3811,-0.0383,0.0235,-0.1205,-1.9258457622923792,0.0,3.0649573802948,-2.0343728065490723,-0.0,1.5013809204101562,5.698568272381582,0.0,0.2559316158294678,-1.5457618872271937,-0.0,0.004520093556493521,0.735842227935791,-0.0,0.0005492436466738582,0.7885423898696899,0.0,0.017788387835025787
538.0,696.0,-2.4018,-0.3751,9.3811,-0.0383,0.0235,-0.1205,-1.925793787042135,0.0,3.068894147872925,-2.0343806743621826,-0.0,1.5320022106170654,5.6985482452209375,0.0,0.2544916272163391,-1.545798126851217,-0.0,-0.0080838892608881,0.7358102202415466,-0.0,-0.001843348960392177,0.7884542942047119,0.0,0.016341079026460648
538.0,696.0,-2.4018,-0.3751,9.3811,-0.0383,0.0235,-0.1205,-1.9258576832213343,0.0,3.035181999206543,-2.034360885620117,-0.0,1.5845837593078613,5.698483633786001,0.0,0.25807082653045654,-1.5457623640643519,-0.0,-0.02137811854481697,0.7357978820800781,-0.0,0.011032301932573318,0.7885024547576904,0.0,0.008781678043305874
538.0,696.0,-2.4018,-0.3751,9.3811,-0.0383,0.0235,-0.1205,-1.9257856808104457,0.0,3.0612869262695312,-2.0343613624572754,-0.0,1.5865399837493896,5.69853566864089,0.0,0.25192323327064514,-1.545798126851217,-0.0,-0.006608549039810896,0.7357491850852966,-0.0,0.0014118640683591366,0.7885664105415344,0.0,0.04566366225481033
538.0,696.0,-2.4018,-0.3751,9.3811,-0.0383,0.0235,-0.1205,-1.9258538685240687,0.0,3.0213782787323,-2.034332513809204,-0.0,1.5688843727111816,5.698531615525045,0.0,0.25796979665756226,-1.5457785765277308,-0.0,-0.01950822025537491,0.7358139157295227,-0.0,-0.010418085381388664,0.7885024547576904,0.0,-0.013527770526707172
538.0,696.0,-2.4018,-0.3751,9.3811,-0.0383,0.0235,-0.1205,-1.9258138142027796,0.0,3.0056796073913574,-2.0343728065490723,-0.0,1.5589845180511475,5.69851182678298,0.0,0.241617351770401,-1.545746151600973,-0.0,-0.021496610715985298,0.7357897758483887,-0.0,0.0065079908818006516,0.7884825468063354,0.0,0.0036416701041162014
538.0,696.0,-2.4018,-0.3751,9.3811,-0.0383,0.0235,-0.1205,-1.9258057079710902,0.0,3.0300865173339844,-2.0344085693359375,-0.0,1.5634171962738037,5.69853566864089,0.0,0.247664675116539,-1.5457618872271937,-0.0,-0.009080023504793644,0.7357615232467651,-0.0,0.010633768513798714,0.7885223627090454,0.0,-0.012709483504295349
538.0,696.0,-2.4018,-0.3751,9.3811,-0.0383,0.0235,-0.1205,-1.9257976017394007,0.0,3.047658920288086,-2.0343053340911865,-0.0,1.5623053312301636,5.698511409550466,0.0,0.2580246031284332,-1.5457900206195276,-0.0,-0.019939471036195755,0.7357779145240784,-0.0,-0.0032773329876363277,0.7885263562202454,0.0,0.03719927370548248
516.0,734.0,-2.3964,-0.3284,9.4923,-0.0279,0.0206,-0.1151,-1.9258457622923792,0.0,3.0499799251556396,-2.034332513809204,-0.0,1.5316572189331055,5.6985440132911584,0.0,0.24980589747428894,-1.5457704702960413,-0.0,-0.0075178188271820545,0.7357695698738098,-0.0,0.006980939768254757,0.7885503172874451,0.0,0.036608994007110596
516.0,734.0,-2.3964,-0.3284,9.4923,-0.0279,0.0206,-0.1151,-1.9258138142027796,0.0,3.0560688972473145,-2.034353017807007,-0.0,1.5183820724487305,5.698576438217916,0.0,0.25405263900756836,-1.5457785765277308,-0.0,-0.00470174103975296,0.7357938885688782,-0.0,-0.0175770353525877,0.7885584235191345,0.0,-0.020436137914657593
516.0,734.0,-2.3964,-0.3284,9.4923,-0.0279,0.0206,-0.1151,-1.9258018932738246,0.0,3.066845417022705,-2.0343573093414307,-0.0,1.5641577243804932,5.6985482452209375,0.0,0.2524483799934387,-1.5457494894610804,-0.0,-0.012273731641471386,0.7358098030090332,-0.0,0.0027914647944271564,0.7885304093360901,0.0,-0.0006463825702667236
516.0,734.0,-2.3964,-0.3284,9.4923,-0.0279,0.0206,-0.1151,-1.9258457622923792,0.0,3.061781883239746,-2.0343167781829834,-0.0,1.570725917816162,5.6985482452209375,0.0,0.2523699104785919,-1.5458067099200647,-0.0,-0.01080264151096344,0.7357937693595886,-0.0,0.0069315931759774685,0.7885064482688904,0.0,0.024948034435510635
516.0,734.0,-2.3964,-0.3284,9.4923,-0.0279,0.0206,-0.1151,-1.9258338413634242,0.0,3.0548181533813477,-2.034364938735962,-0.0,1.5487875938415527,5.698475348740377,0.0,0.256634384393692,-1.5457857290851038,-0.0,-0.016280759125947952,0.7357777953147888,-0.0,-0.0060808053240180016,0.7885023355484009,0.0,-0.010610800236463547
516.0,734.0,-2.3964,-0.3284,9.4923,-0.0279,0.0206,-0.1151,-1.9258419475951136,0.0,3.0609679222106934,-2.0343406200408936,-0.0,1.547546625137329,5.698499667435446,0.0,0.2574186623096466,-1.545758072529928,-0.0,-0.014624468982219696,0.7358020544052124,-0.0,-0.00021577882580459118,0.78853440284729,0.0,0.006234706845134497
516.0,734.0,-2.3964,-0.3284,9.4923,-0.0279,0.0206,-0.1151,-1.9257976017394007,0.0,3.0695605278015137,-2.034376859664917,-0.0,1.5623764991760254,5.698475765972891,0.0,0.25702428817749023,-1.5458300749408167,-0.0,-0.010496651753783226,0.7358301877975464,-0.0,0.010414249263703823,0.7885423898696899,0.0,0.0026754802092909813
516.0,734.0,-2.3964,-0.3284,9.4923,-0.0279,0.0206,-0.1151,-1.9258419475951136,0.0,3.018497943878174,-2.0343687534332275,-0.0,1.5024957656860352,5.698527860432424,0.0,0.26006704568862915,-1.5458105246173304,-0.0,-0.02072838507592678,0.7357938289642334,-0.0,0.0015859717968851328,0.7885105013847351,0.0,0.0241911169141531
516.0,734.0,-2.3964,-0.3284,9.4923,-0.0279,0.0206,-0.1151,-1.9258338413634242,0.0,3.029280185699463,-2.0343246459960938,-0.0,1.5290024280548096,5.698471712857046,0.0,0.2618006765842438,-1.545802418385641,-0.0,-0.008273553103208542,0.7357978820800781,-0.0,-0.004710167180746794,0.7884984016418457,0.0,0.02055877447128296
516.0,734.0,-2.3964,-0.3284,9.4923,-0.0279,0.0206,-0.1151,-1.925821920434469,0.0,3.0747900009155273,-2.0343286991119385,-0.0,1.585028052330017,5.698531615525045,0.0,0.25287795066833496,-1.5457747618304651,-0.0,-0.008970541879534721,0.7358301877975464,-0.0,0.0017484246054664254,0.7885183691978455,0.0,-0.04628970846533775
516.0,734.0,-2.3964,-0.3284,9.4923,-0.0279,0.0206,-0.1151,-1.9258176289000453,0.0,3.000330924987793,-2.03436541557312,-0.0,1.518094778060913,5.698507296829977,0.0,0.23427847027778625,-1.5457938353167933,-0.0,-0.009416121989488602,0.7358261346817017,-0.0,-0.002105540130287409,0.7885743975639343,0.0,-0.010614520870149136
516.0,734.0,-2.3964,-0.3284,9.4923,-0.0279,0.0206,-0.1151,-1.9258300266661585,0.0,3.034865379333496,-2.0343971252441406,-0.0,1.558078408241272,5.698511409550466,0.0,0.25061988830566406,-1.5457900206195276,-0.0,-0.006587537936866283,0.7358179688453674,-0.0,0.0030021665152162313,0.7885463237762451,0.0,0.06002665311098099
516.0,734.0,-2.3964,-0.3284,9.4923,-0.0279,0.0206,-0.1151,-1.9258138142027796,0.0,3.0911641120910645,-2.0343573093414307,-0.0,1.5387705564498901,5.698515641480245,0.0,0.25331205129623413,-1.5457747618304651,-0.0,-0.011694012209773064,0.7358383536338806,-0.0,-0.004835911560803652,0.7885544300079346,0.0,-0.03275003284215927
516.0,734.0,-2.3964,-0.3284,9.4923,-0.0279,0.0206,-0.1151,-1.9258862934508265,0.0,3.020918369293213,-2.0343613624572754,-0.0,1.5650272369384766,5.69851969459609,9.398063438581516e-10,0.27213311195373535,-1.5457704702960413,-0.0,-0.013547555543482304,0.7357537746429443,-0.0,-0.0036826462019234896,0.7885143756866455,0.0,0.025218844413757324
515.0,685.0,-2.4012,-0.3846,9.4295,-0.0368,0.0289,-0.119,-1.9258176289000453,0.0,3.0146431922912598,-2.0343494415283203,-0.0,1.5554492473602295,5.69850783327178,2.6159857700186473e-13,0.24686966836452484,-1.5457661787616175,-0.0,-0.019088666886091232,0.7357819080352783,-0.0,0.0020512256305664778,0.78853839635849,0.0,0.01634853333234787
515.0,685.0,-2.4012,-0.3846,9.4295,-0.0368,0.0289,-0.119,-1.9258095226683558,0.0,3.0609400272369385,-2.0343687534332275,-0.0,1.5398597717285156,5.69850372055129,7.281693431616964e-17,0.25513917207717896,-1.5457785765277308,-0.0,-0.014588669873774052,0.7357697486877441,-0.0,0.008701597340404987,0.7885463833808899,0.0,0.04402944818139076
515.0,685.0,-2.4012,-0.3846,9.4295,-0.0368,0.0289,-0.119,-1.925821920434469,0.0,3.0562331676483154,-2.034393310546875,-0.0,1.531937599182129,5.698552298336782,2.0268857298197193e-20,0.2412814497947693,-1.5457866827594202,-0.0,-0.00938109029084444,0.7358020544052124,-0.0,0.012220819480717182,0.7885065078735352,0.0,-0.031876496970653534
515.0,685.0,-2.4012,-0.3846,9.4295,-0.0368,0.0289,-0.119,-1.925850053826803,0.0,3.028366804122925,-2.0343573093414307,-0.0,1.5567967891693115,5.698564219265737,5.64190952831352e-24,0.26905426383018494,-1.5457900206195276,-0.0,-0.007704338990151882,0.7357455492019653,-0.0,0.012643054127693176,0.7884944081306458,0.0,-0.010797478258609772
515.0,685.0,-2.4012,-0.3846,9.4295,-0.0368,0.0289,-0.119,-1.9258138142027796,0.0,3.0468850135803223,-2.0343613624572754,-0.0,1.5572600364685059,5.698519754200735,1.5704463211876092e-27,0.2472604215145111,-1.545802418385641,-0.0,-0.021827489137649536,0.7357819676399231,-0.0,-0.0026799472980201244,0.7885023355484009,0.0,-0.019338421523571014
515.0,685.0,-2.4012,-0.3846,9.4295,-0.0368,0.0289,-0.119,-1.9258538685240687,0.0,3.053462505340576,-2.0343246459960938,-0.0,1.5877594947814941,5.698568391590872,4.371394537600619e-31,0.24557816982269287,-1.5457618872271937,-0.0,-0.011112023144960403,0.7357496619224548,-0.0,0.010128083638846874,0.7885263562202454,0.0,0.04669323191046715
515.0,685.0,-2.4012,-0.3846,9.4295,-0.0368,0.0289,-0.119,-1.9258538685240687,0.0,3.0336434841156006,-2.0344250202178955,-0.0,1.530048131942749,5.698564219265737,1.2167936917994977e-34,0.2418806552886963,-1.5457618872271937,-0.0,-0.010370468720793724,0.735846221446991,-0.0,0.008739108219742775,0.7885143756866455,0.0,0.03610505163669586
515.0,685.0,-2.4012,-0.3846,9.4295,-0.0368,0.0289,-0.119,-1.9258018932738246,0.0,3.0064280033111572,-2.0343852043151855,-0.0,1.532767653465271,5.698552298336782,3.386989675796877e-38,0.24942603707313538,-1.545802418385641,-0.0,-0.017481215298175812,0.7358221411705017,-0.0,0.00035345772630535066,0.78853839635849,0.0,0.00904162973165512
515.0,685.0,-2.4012,-0.3846,9.4295,-0.0368,0.0289,-0.119,-1.9258581600584925,0.0,3.034827470779419,-2.034309148788452,-0.0,1.5454165935516357,5.698519277363577,6.151700258385947e-43,0.2584768533706665,-1.5457785765277308,-0.0,-0.016709621995687485,0.7358384728431702,-0.0,0.006158779840916395,0.7885302901268005,0.0,0.04322473332285881
515.0,685.0,-2.4012,-0.3846,9.4295,-0.0368,0.0289,-0.119,-1.9258295498290003,0.0,3.0389137268066406,-2.0344045162200928,-0.0,1.5524580478668213,5.69851969459609,0.0,0.2437581717967987,-1.5457785765277308,-0.0,-0.00832914374768734,0.7357938289642334,-0.0,0.002531580626964569,0.7885304093360901,0.0,-0.015930820256471634
515.0,685.0,-2.4012,-0.3846,9.4295,-0.0368,0.0289,-0.119,-1.925821920434469,0.0,3.0494017601013184,-2.0343809127807617,-0.0,1.5526092052459717,5.698552298336782,0.0,0.255353718996048,-1.5458067099200647,-0.0,-0.021137703210115433,0.7358221411705017,-0.0,0.0015885052271187305,0.7885104417800903,0.0,0.015158189460635185
515.0,685.0,-2.4012,-0.3846,9.4295,-0.0368,0.0289,-0.119,-1.9258986912169398,0.0,3.022017240524292,-2.0343246459960938,-0.0,1.5209357738494873,5.698523270874777,0.0,0.24348467588424683,-1.5458105246173304,-0.0,-0.013823384419083595,0.7357778549194336,-0.0,0.014650856144726276,0.7884824275970459,0.0,0.025161534547805786
515.0,685.0,-2.4012,-0.3846,9.4295,-0.0368,0.0289,-0.119,-1.9258295498290003,0.0,3.0121560096740723,-2.034325122833252,-0.0,1.5774040222167969,5.698523330479421,0.0,0.24753987789154053,-1.5457785765277308,-0.0,-0.00988326221704483,0.7358061671257019,-0.0,0.00031547166872769594,0.7885342836380005,0.0,0.05881871283054352
515.0,685.0,-2.4012,-0.3846,9.4295,-0.0368,0.0289,-0.119,-1.9257976017394007,0.0,3.0388529300689697,-2.0343892574310303,-0.0,1.5479819774627686,5.698491322785177,0.0,0.24722877144813538,-1.5457661787616175,-0.0,-0.023068483918905258,0.7358179092407227,-0.0,-0.00522798765450716,0.7885223627090454,0.0,0.02239203453063965
515.0,685.0,-2.4012,-0.3846,9.4295,-0.0368,0.0289,-0.119,-1.9258743725218714,0.0,3.0237483978271484,-2.0343573093414307,-0.0,1.5256736278533936,5.698568272381582,0.0,0.2576372027397156,-1.5457785765277308,-0.0,-0.006977938115596771,0.7357454895973206,-0.0,0.01810016669332981,0.7885223627090454,0.0,-0.02168571949005127
508.0,760.0,-2.4437,-0.3434,9.5192,-0.0368,0.0217,-0.1164,-1.925821920434469,0.0,3.041158676147461,-2.034336566925049,-0.0,1.5626060962677002,5.698519754200735,0.0,0.24390295147895813,-1.5457418600665491,-0.0,-0.014818227849900723,0.735809862613678,-0.0,0.0031256580259650946,0.7885302901268005,0.0,0.0007431311532855034
508.0,760.0,-2.4437,-0.3434,9.5192,-0.0368,0.0217,-0.1164,-1.9258018932738246,0.0,3.0299811363220215,-2.0343732833862305,-0.0,1.521695852279663,5.698515641480245,0.0,0.25358039140701294,-1.5457418600665491,-0.0,-0.01728856936097145,0.7357614636421204,-0.0,-0.008300146088004112,0.78853440284729,0.0,-0.0023702881298959255
508.0,760.0,-2.4437,-0.3434,9.5192,-0.0368,0.0217,-0.1164,-1.9257732830443324,0.0,3.0458176136016846,-2.0343286991119385,2.7867564256212063e-08,1.580291509628296,5.698475348740377,0.0,0.2575434744358063,-1.5457661787616175,-0.0,-0.023394649848341942,0.7357737421989441,-0.0,-0.004254563711583614,0.7885223627090454,0.0,-0.012192427180707455
508.0,760.0,-2.4437,-0.3434,9.5192,-0.0368,0.0217,-0.1164,-1.925850053826803,0.0,3.0556726455688477,-2.034304618835449,6.729688963209857e-14,1.5538499355316162,5.6984954355056665,0.0,0.2442726492881775,-1.5457828680621546,-0.0,-0.009546428918838501,0.7358015775680542,-0.0,-0.006127082277089357,0.7885183691978455,0.0,-0.007222308777272701
508.0,760.0,-2.4437,-0.3434,9.5192,-0.0368,0.0217,-0.1164,-1.9258376560606898,0.0,3.020124673843384,-2.03436541557312,1.063214085661457e-06,1.52701997756958,5.6985559342201135,0.0,0.2574172616004944,-1.5457938353167933,-0.0,-0.010918169282376766,0.7357897758483887,-0.0,-0.0020265555940568447,0.7884785532951355,0.0,0.019482387229800224
508.0,760.0,-2.4437,-0.3434,9.5192,-0.0368,0.0217,-0.1164,-1.9258619747557582,0.0,3.024406671524048,-2.0343573093414307,9.031682566273957e-05,1.5531446933746338,5.698539960175314,0.0,0.252958744764328,-1.5457938353167933,-0.0,-0.013716945424675941,0.7357378005981445,-0.0,-0.008644483983516693,0.7885065078735352,0.0,0.015510119497776031
508.0,760.0,-2.4437,-0.3434,9.5192,-0.0368,0.0217,-0.1164,-1.925838132897848,0.0,3.0381085872650146,-2.034376859664917,6.2513161314115e-10,1.5536848306655884,5.6985559342201135,3.289631786174141e-05,0.2559969425201416,-1.54584247270693,-0.0,-0.028332412242889404,0.7357901930809021,-0.0,-0.005285334773361683,0.7885144352912903,0.0,0.02297201193869114
508.0,760.0,-2.4437,-0.3434,9.5192,-0.0368,0.0217,-0.1164,-1.925838132897848,0.0,3.037552833557129,-2.0343494415283203,1.5096194939254117e-15,1.5402125120162964,5.6985559342201135,8.633339894004166e-05,0.24826347827911377,-1.5458181540118616,-0.0,-0.01971503160893917,0.7358020544052124,-0.0,0.006462974939495325,0.7885143756866455,0.0,0.005780509673058987
508.0,760.0,-2.4437,-0.3434,9.5192,-0.0368,0.0217,-0.1164,-1.9258419475951136,0.0,3.040900945663452,-2.0343971252441406,3.645553788376685e-21,1.5536235570907593,5.698579776078024,9.52300033532083e-05,0.2552464008331299,-1.545854393635885,-0.0,-0.03206200152635574,0.7357615232467651,-0.0,0.001585132209584117,0.7885704636573792,0.0,-0.024746283888816833
508.0,760.0,-2.4437,-0.3434,9.5192,-0.0368,0.0217,-0.1164,-1.925826211968893,0.0,3.029644012451172,-2.034428596496582,8.803582931677517e-27,1.557480812072754,5.69853167512969,9.159890760201961e-05,0.25246310234069824,-1.54584247270693,-0.0,-0.0065605794079601765,0.7357937693595886,-0.0,0.009510502219200134,0.7885143756866455,0.0,-0.0321638286113739
508.0,760.0,-2.4437,-0.3434,9.5192,-0.0368,0.0217,-0.1164,-1.925821920434469,0.0,3.0420479774475098,-2.0343613624572754,2.1259619078883444e-32,1.5683250427246094,5.698567914753713,8.823145617498085e-05,0.24819070100784302,-1.5458501021014612,-0.0,-0.018615391105413437,0.7358020544052124,-0.0,0.0023340194020420313,0.7885704636573792,0.0,-0.030921917408704758
508.0,760.0,-2.4437,-0.3434,9.5192,-0.0368,0.0217,-0.1164,-1.9258581600584925,0.0,3.076805591583252,-2.0343687534332275,5.133947833615161e-38,1.5463719367980957,5.698515164643087,8.510281622875482e-05,0.24869771301746368,-1.5459149519549769,-0.0,-0.005779096391052008,0.7358057498931885,-0.0,0.006900608539581299,0.7885304093360901,0.0,-0.05625373125076294
508.0,760.0,-2.4437,-0.3434,9.5192,-0.0368,0.0217,-0.1164,-1.9258457622923792,0.0,3.0222983360290527,-2.0343892574310303,1.233142648605839e-43,1.566542625427246,5.6985482452209375,8.218853326980025e-05,0.25395041704177856,-1.545826260243551,-0.0,-0.006500882096588612,0.7357938289642334,-0.0,-0.0053087263368070126,0.7885828018188477,0.0006598816835321486,0.06160181388258934
508.0,760.0,-2.4437,-0.3434,9.5192,-0.0368,0.0217,-0.1164,-1.9258257351317347,0.0,3.0212302207946777,-2.0343494415283203,-0.0,1.563289999961853,5.698576020985403,5.188638169784099e-06,0.2531963586807251,-1.545802418385641,-0.0,-0.01127941720187664,0.7357860803604126,-0.0,0.001320043345913291,0.7885344624519348,0.000766822078730911,-0.038737498223781586
508.0,760.0,-2.4437,-0.3434,9.5192,-0.0368,0.0217,-0.1164,-1.9258457622923792,0.0,3.037499189376831,-2.03436541557312,-0.0001922716764966026,1.5660099983215332,5.6985723851020715,1.4442765872146879e-09,0.25047314167022705,-1.5458138624774378,-0.0,-0.014961782842874527,0.7358261942863464,-0.0,-0.0009883398888632655,0.788602352142334,0.0006219208589754999,-0.0059680272825062275
551.0,761.0,-2.4281,-0.2243,9.3852,-0.0304,0.0153,-0.1129,-1.9258295498290003,0.0,3.071171283721924,-2.03436541557312,-7.281431317096576e-05,1.5191125869750977,5.698572444706716,4.02019644787574e-13,0.24567703902721405,-1.5458505789386194,-0.0,-0.019476495683193207,0.7357491850852966,-0.0,-0.002313634380698204,0.7886383533477783,0.00046302913688123226,0.0518607422709465
551.0,761.0,-2.4281,-0.2243,9.3852,-0.0304,0.0153,-0.1129,-1.925793310204977,0.0,3.0208115577697754,-2.0343573093414307,-5.858006261405535e-05,1.553159236907959,5.698552357941427,5.786777546745725e-05,0.2631034255027771,-1.5458138624774378,-0.0,-0.016305694356560707,0.7357860803604126,-0.0,-0.0010573477484285831,0.7885982990264893,0.0003682685492094606,0.01216476783156395
551.0,761.0,-2.4281,-0.2243,9.3852,-0.0304,0.0153,-0.1129,-1.9258414707579554,0.0,3.030013084411621,-2.0343329906463623,-4.900869316770695e-05,1.5588198900222778,5.69851182678298,3.324969293316826e-05,0.25424331426620483,-1.545802418385641,-0.0,0.007879863493144512,0.7358302474021912,-0.0,-0.009755799546837807,0.7885903716087341,0.00030571219394914806,0.022323623299598694
551.0,761.0,-2.4281,-0.2243,9.3852,-0.0304,0.0153,-0.1129,-1.9258533916869105,0.0,3.0521087646484375,-2.0344085693359375,-4.2126135667786e-05,1.502272129058838,5.698531615525045,1.1125664656219669e-07,0.24815593659877777,-1.5458138624774378,-0.0,-0.016982372850179672,0.7357777953147888,-0.0,-0.0014479401288554072,0.7884904742240906,0.0002177698042942211,-0.015556561760604382
551.0,761.0,-2.4281,-0.2243,9.3852,-0.0304,0.0153,-0.1129,-1.9258576832213343,7.606075769217568e-10,3.0385332107543945,-2.0343449115753174,-3.693885446409695e-05,1.544264554977417,5.698483931809225,3.096869635732524e-11,0.26538509130477905,-1.5458300749408167,-0.0,-0.009510267525911331,0.7357372641563416,-0.0,0.007111744489520788,0.7885385155677795,0.00015214986342471093,-0.01604631170630455
551.0,761.0,-2.4281,-0.2243,9.3852,-0.0304,0.0153,-0.1129,-1.9259106121458949,1.8367780288685047e-15,3.0478320121765137,-2.0343687534332275,-5.44814502063673e-05,1.5140037536621094,5.698480355530538,-0.0010581036331132054,0.2442515343427658,-1.5457747618304651,-0.0,-0.010537917725741863,0.7357815504074097,-0.0,-0.004850582219660282,0.7885464429855347,0.00011285369691904634,-0.018100589513778687
551.0,761.0,-2.4281,-0.2243,9.3852,-0.0304,0.0153,-0.1129,-1.9258939228453578,-0.0007033373112790287,3.047196865081787,-2.034376859664917,-5.927903112024069e-05,1.5744585990905762,5.698447692185201,-0.0015027113258838654,0.25675255060195923,-1.5457828680621546,-0.0,-0.01659119315445423,0.7358621954917908,-0.0,-0.0075666774064302444,0.7885823845863342,9.101776959141716e-05,0.0423697791993618
551.0,761.0,-2.4281,-0.2243,9.3852,-0.0304,0.0153,-0.1129,-1.925889631310934,-0.0006753731286153197,3.0413262844085693,-2.0344045162200928,-5.394882464315742e-05,1.5349355936050415,5.6984237907226465,-0.0014934568898752332,0.25149258971214294,-1.5457866827594202,-0.0,-0.007730156183242798,0.7357491850852966,-0.0,0.001241991762071848,0.7885544896125793,-6.503163604065776e-05,-0.013231838122010231
551.0,761.0,-2.4281,-0.2243,9.3852,-0.0304,0.0153,-0.1129,-1.9258939228453578,-0.0005707074888050556,3.047276020050049,-2.0343613624572754,-4.9498241423862055e-05,1.5290050506591797,5.698455858021536,-0.0011354241287335753,0.2624403238296509,-1.5457828680621546,-0.0,-0.0011855305638164282,0.7357654571533203,-0.0,0.0057932911440730095,0.7885984182357788,-8.887122385203838e-05,-0.02501443773508072
551.0,761.0,-2.4281,-0.2243,9.3852,-0.0304,0.0153,-0.1129,-1.925929685632223,-0.0004133475886192173,3.0085344314575195,-2.034416675567627,-4.5725973905064166e-05,1.5474454164505005,5.698427903443136,-0.000772450992371887,0.26168113946914673,-1.5457499662982386,-0.0,-0.019091414287686348,0.7358015775680542,-0.0,-0.004912259057164192,0.7885783910751343,-8.088437607511878e-05,0.02743130922317505
551.0,761.0,-2.4281,-0.2243,9.3852,-0.0304,0.0153,-0.1129,-1.925901552239889,-0.00038882915396243334,2.9825804233551025,-2.0343687534332275,-4.248792538419366e-05,1.53031325340271,5.6984197972114465,-0.0006093801930546761,0.2497723251581192,-1.545729939137594,-0.0,-0.008272398263216019,0.7357975840568542,-0.0,0.0027621700428426266,0.7885504364967346,-0.00012269489525351673,0.020507056266069412
551.0,761.0,-2.4281,-0.2243,9.3852,-0.0304,0.0153,-0.1129,-1.9259058437743128,-0.00031974908779375255,3.0387678146362305,-2.034416913986206,-1.9839142623823136e-05,1.5362930297851562,5.698379921704092,-0.000529854150954634,0.2529478967189789,-1.545746151600973,-0.0,-0.012909338809549809,0.7358015179634094,-0.0,0.011932016350328922,0.7885263562202454,-0.0004077855555806309,-0.04700075462460518
551.0,761.0,-2.4281,-0.2243,9.3852,-0.0304,0.0153,-0.1129,-1.925901552239889,-0.0002715110022109002,3.039252758026123,-2.0343286991119385,-1.8608530808705837e-05,1.5980045795440674,5.698427903443136,-0.0004823377530556172,0.24841122329235077,-1.5457585493670862,-0.0,-0.02269667014479637,0.735833466053009,-0.0,0.007178773637861013,0.7885223627090454,-0.0003331144980620593,-0.035026174038648605
551.0,761.0,-2.4281,-0.2243,9.3852,-0.0304,0.0153,-0.1129,-1.9258448086180628,-0.00027524016331881285,3.0958938598632812,-2.0343925952911377,-1.7521677364129573e-05,1.5237674713134766,5.698427903443136,-0.00040309986798092723,0.25126269459724426,-1.5457585493670862,-0.0,-0.013484391383826733,0.7358216643333435,-1.2675483276325394e-06,0.00935234222561121,0.78853839635849,-0.0002810878795571625,0.007741881534457207
551.0,761.0,-2.4281,-0.2243,9.3852,-0.0304,0.0153,-0.1129,-1.9258653126158656,-0.00024334587214980274,3.0110325813293457,-2.0343408584594727,-1.655480809859e-05,1.533017873764038,5.6984320161636255,-0.0002827828284353018,0.23535087704658508,-1.5457342306720179,-0.0,-0.0072226012125611305,0.7358458638191223,-3.528267955577036e-10,0.007754900958389044,0.7885705232620239,-0.0002431190077913925,-0.0471656396985054
548.0,749.0,-2.3946,-0.5982,9.4875,-0.0458,0.0279,-0.1113,-1.925945898095602,-0.00021807497250847518,3.0548410415649414,-2.0343573093414307,-1.000324600930469e-09,1.5040397644042969,5.6983598349388025,-0.0002846035931725055,0.24593470990657806,-1.545729939137594,-0.0,-0.009116919711232185,0.7358137965202332,-9.821065130848766e-14,0.01225192192941904,0.7885424494743347,-0.00021418771939352155,-0.03491150587797165
548.0,749.0,-2.3946,-0.5982,9.4875,-0.0458,0.0279,-0.1113,-1.9259497127928675,-0.00022577996423933655,3.0176053047180176,-2.034353256225586,-2.4156663912852216e-15,1.5389513969421387,5.698371755867758,-0.0002664450148586184,0.2468847632408142,-1.5457223097430628,-0.0,-0.010149373672902584,0.735849916934967,-2.733729684964045e-17,-0.004507901147007942,0.7885223627090454,-0.00015956081915646791,-0.0038271937519311905
548.0,749.0,-2.3946,-0.5982,9.4875,-0.0458,0.0279,-0.1113,-1.9258891544737757,-0.00020636679255403578,3.01885724067688,-2.034353494644165,-5.833549906156012e-21,1.5891013145446777,5.698379921704092,-0.00028413094696588814,0.23993907868862152,-1.545729939137594,-0.0,-0.004582852125167847,0.7358138561248779,-7.609436403267038e-21,-2.8529437258839607e-05,0.78853440284729,-0.00012523333134595305,-0.005893940106034279
548.0,749.0,-2.3946,-0.5982,9.4875,-0.0458,0.0279,-0.1113,-1.9259253940977992,-0.00018514074326958507,3.0374703407287598,-2.034332513809204,-1.8899963045967234e-28,1.5562390089035034,5.698400008469381,-0.00031358233536593616,0.23322699964046478,-1.545729939137594,-0.0,-0.013687539845705032,0.735825777053833,-1.382977567662859e-25,-0.010991858318448067,0.7885745167732239,-8.543946751160547e-05,-0.04523724690079689
548.0,749.0,-2.3946,-0.5982,9.4875,-0.0458,0.0279,-0.1113,-1.9259220562376917,-0.00017188146011903882,3.0364747047424316,-2.034348964691162,-4.564118089054101e-34,1.5268783569335938,5.6984320161636255,-0.00035882179508917034,0.25637269020080566,-1.5457866827594202,-0.0,0.012399391271173954,0.7358742356300354,-3.849569235846866e-29,0.001229523099027574,0.7885344624519348,-7.06587452441454e-05,-0.007703263312578201
548.0,749.0,-2.3946,-0.5982,9.4875,-0.0458,0.0279,-0.1113,-1.9259616337218226,-0.00011394342436688021,3.0080068111419678,-2.034313201904297,-1.1021814980254346e-39,1.5739470720291138,5.698364305287161,-0.0006797959213145077,0.22514501214027405,-1.5457223097430628,-0.0,-0.0034737777896225452,0.7358097434043884,-1.0715415650224325e-32,0.0004284402821213007,0.7885621190071106,0.00010810603998834267,-0.007379912305623293
548.0,749.0,-2.3946,-0.5982,9.4875,-0.0458,0.0279,-0.1113,-1.9259335003294886,-0.00014806842955294997,3.053401231765747,-2.0343971252441406,-2.802596928649634e-45,1.5763866901397705,5.698376166611471,-0.0008766149403527379,0.24353711307048798,-1.5457380453692835,-0.0,-0.00770019693300128,0.7358097434043884,-2.982675215910842e-36,0.015348994173109531,0.7886145710945129,0.0001345952186966315,-0.058331865817308426
548.0,749.0,-2.3946,-0.5982,9.4875,-0.0458,0.0279,-0.1113,-1.9259659252562464,-0.0007087321137078106,3.0590641498565674,-2.034348964691162,-0.0,1.5530266761779785,5.698319840222158,-0.0008220436284318566,0.22938881814479828,-1.5458105246173304,-0.0,0.007735336199402809,0.7358740568161011,-8.30238511546239e-40,0.020756442099809647,0.7886065244674683,0.0006029796786606312,-0.006893476936966181
548.0,749.0,-2.3946,-0.5982,9.4875,-0.0458,0.0279,-0.1113,-1.9259940586485804,-0.001138371299020946,3.021256923675537,-2.0343613624572754,-0.0,1.5551867485046387,5.698364245682516,-0.0006975001888349652,0.23861752450466156,-1.5457142035113733,-0.0,0.0032659806311130524,0.7358741760253906,-2.312142466135948e-43,0.007928293198347092,0.788651168346405,0.0005849123117513955,-0.03721565008163452
548.0,749.0,-2.3946,-0.5982,9.4875,-0.0458,0.0279,-0.1113,-1.9259616337218226,-0.0010578884975984693,2.977175712585449,-2.034296751022339,-0.0,1.6210148334503174,5.698392677098074,-0.0006611041608266532,0.22073876857757568,-1.5457623640643519,9.120570757659152e-05,0.010567396879196167,0.7358417510986328,-0.0,0.02246668189764023,0.7885945439338684,0.0006190293352119625,-0.0332028791308403
548.0,749.0,-2.3946,-0.5982,9.4875,-0.0458,0.0279,-0.1113,-1.9259535274901332,-0.0012179986806586385,2.9856557846069336,-2.0343172550201416,0.00014842033851891756,1.5463526248931885,5.6983722923095605,-0.0005787450354546309,0.22412583231925964,-1.5457542578326624,0.00010824634955497459,0.006630240473896265,0.7358294129371643,-0.0,0.007434064522385597,0.7886985540390015,0.0008594702230766416,-0.03912540525197983
548.0,749.0,-2.3946,-0.5982,9.4875,-0.0458,0.0279,-0.1113,-1.9260455570616664,-0.00212952122092247,3.019468307495117,-2.0343127250671387,0.00141811091452837,1.6124897003173828,5.698323774128713,-0.0004892778815701604,0.22916573286056519,-1.5457466284381312,0.00013509469863492996,0.009034903720021248,0.735825777053833,-0.0,0.014808246865868568,0.7886626720428467,0.0015316400676965714,-0.11092974245548248
548.0,749.0,-2.3946,-0.5982,9.4875,-0.0458,0.0279,-0.1113,-1.926037450829977,-0.004061741754412651,3.0120019912719727,-2.034281015396118,0.0018616372253745794,1.6273083686828613,5.6983322379882715,-0.0005481835105456412,0.21468159556388855,-1.5457466284381312,0.0004546566342469305,0.009614067152142525,0.7358092665672302,-0.0,0.020035039633512497,0.7887190580368042,0.0028732367791235447,-0.10837332904338837
548.0,749.0,-2.3946,-0.5982,9.4875,-0.0458,0.0279,-0.1113,-1.9260736904540003,-0.00614505959674716,2.9760961532592773,-2.034297227859497,0.0020389389246702194,1.6278843879699707,5.698275911598959,-0.0019890216644853354,0.20650790631771088,-1.5457142035113733,0.00048728848923929036,0.026096511632204056,0.7358658313751221,-0.0,0.02353530190885067,0.788739025592804,0.0056377071887254715,-0.10755419731140137
548.0,749.0,-2.3946,-0.5982,9.4875,-0.0458,0.0279,-0.1113,-1.9261256657042445,-0.008165687322616577,2.961726188659668,-2.0342013835906982,0.0032468088902533054,1.6310269832611084,5.698280322342672,-0.003621642477810383,0.19976936280727386,-1.5457060972796839,0.0004537567438092083,0.03757520765066147,0.735833466053009,-0.0,0.016559915617108345,0.7887790203094482,0.008713695220649242,-0.07982920855283737
533.0,776.0,-2.54,-0.5815,9.3852,-0.0501,0.016,-0.1072,-1.926173826257223,-0.006008015479892492,2.9983344078063965,-2.034228801727295,0.005727600306272507,1.616819143295288,5.698219942837515,-0.006174760404974222,0.20919516682624817,-1.5457103888141077,0.0004956470802426338,0.017220675945281982,0.7358900904655457,-0.0,0.02109987661242485,0.7888026833534241,0.007029930129647255,-0.08321454375982285
533.0,776.0,-2.54,-0.5815,9.3852,-0.0501,0.016,-0.1072,-1.9261976681151332,-0.004183226730674505,3.008357524871826,-2.0341413021087646,0.00679896492511034,1.5978864431381226,5.6981849549110315,-0.01216206420212984,0.19361141324043274,-1.5456822554217737,0.000501266389619559,0.04006507247686386,0.7358015179634094,-0.0,0.0271358210593462,0.7888508439064026,0.005196659825742245,-0.11809314787387848
533.0,776.0,-2.54,-0.5815,9.3852,-0.0501,0.016,-0.1072,-1.926197191277975,-0.003582386765629053,3.005148410797119,-2.0341851711273193,0.0072544412687420845,1.6661252975463867,5.698051976948538,-0.015289165079593658,0.18585306406021118,-1.545722786580221,0.00051226926734671,0.02561778761446476,0.7358133792877197,-0.0,0.02593519724905491,0.7888544797897339,0.003616288071498275,-0.10194998234510422
533.0,776.0,-2.54,-0.5815,9.3852,-0.0501,0.016,-0.1072,-1.926253458062643,-0.003082462353631854,2.9849672317504883,-2.0340888500213623,0.007735877297818661,1.7021020650863647,5.697976815491476,-0.01692334935069084,0.1894133985042572,-1.5457266012774866,0.00046038199798204005,0.03589281812310219,0.735825777053833,-0.0,0.0422404520213604,0.7888227701187134,0.0021783674601465464,-0.12710556387901306
533.0,776.0,-2.54,-0.5815,9.3852,-0.0501,0.016,-0.1072,-1.9262453518309535,-0.0027060217689722776,2.9875364303588867,-2.0340733528137207,0.007787997368723154,1.67154860496521,5.697865235596456,-0.016676586121320724,0.18473777174949646,-1.5457308928119105,0.0004882234788965434,0.0429774671792984,0.7358454465866089,-0.0,0.01637020707130432,0.7888666987419128,0.0010993694886565208,-0.05762050673365593
533.0,776.0,-2.54,-0.5815,9.3852,-0.0501,0.016,-0.1072,-1.9262496433653773,-0.0013003767235204577,3.0466513633728027,-2.0340182781219482,0.0072649093344807625,1.6502594947814941,5.697765874653616,-0.014532381668686867,0.18347325921058655,-1.5456989447223108,0.0005236910074017942,0.04459328204393387,0.7358458042144775,-0.0,0.03391590341925621,0.7888786196708679,0.00034632149618119,-0.11470970511436462
533.0,776.0,-2.54,-0.5815,9.3852,-0.0501,0.016,-0.1072,-1.926197191277975,-0.0007543914834968746,3.0026426315307617,-2.0339224338531494,0.0071305083110928535,1.70289146900177,5.697689699917593,-0.013192888349294662,0.17782355844974518,-1.5456822554217737,0.0005279811448417604,0.0484919548034668,0.7358217239379883,-0.0,0.01270048227161169,0.7888064980506897,-0.0016450687544420362,-0.1977245956659317
533.0,776.0,-2.54,-0.5815,9.3852,-0.0501,0.016,-0.1072,-1.926237245599264,-0.0005314830923452973,2.9594085216522217,-2.0339138507843018,0.007171975448727608,1.6511671543121338,5.697573411255636,-0.011647136881947517,0.16795866191387177,-1.54567796388735,0.0006689903093501925,0.04867589473724365,0.7358900904655457,-0.0,0.020190805196762085,0.7888106107711792,-0.0015436053508892655,-0.11107146739959717
533.0,776.0,-2.54,-0.5815,9.3852,-0.0501,0.016,-0.1072,-1.9262052975096644,-0.00038131119799800217,2.969482898712158,-2.033829927444458,0.006650374736636877,1.6929445266723633,5.697517323284902,-0.011100566014647484,0.15812161564826965,-1.545710865651266,0.000883354980032891,0.05771811306476593,0.7358700037002563,-0.0,0.0466415137052536,0.7888184785842896,-0.0008805420948192477,-0.17392127215862274
533.0,776.0,-2.54,-0.5815,9.3852,-0.0501,0.016,-0.1072,-1.9262577495970667,-0.0003146446542814374,2.9311981201171875,-2.0338380336761475,0.005446549504995346,1.692639708518982,5.697466361313619,-0.013455050997436047,0.15996919572353363,-1.5457313696490687,0.0011536284582689404,0.06438848376274109,0.7358736395835876,-0.0,0.04193862900137901,0.7887906432151794,-0.0006654727039858699,-0.14559611678123474
533.0,776.0,-2.54,-0.5815,9.3852,-0.0501,0.016,-0.1072,-1.9262172184386195,-0.000267823226749897,2.963418960571289,-2.0337977409362793,0.00465152645483613,1.7016557455062866,5.6973667619522,-0.01638125255703926,0.16825023293495178,-1.5457075277911585,0.002631028648465872,0.05421312153339386,0.7358617186546326,-0.0,0.023171618580818176,0.7887986302375793,-0.00048577383859083056,-0.10153469443321228
533.0,776.0,-2.54,-0.5815,9.3852,-0.0501,0.016,-0.1072,-1.926265378991598,-0.00027198539464734495,2.93284273147583,-2.033761501312256,0.0030125556513667107,1.7569741010665894,5.697218525200643,-0.02402493916451931,0.16221579909324646,-1.5456669966327112,0.008825913071632385,0.05430179461836815,0.7359020113945007,-0.0,0.03491256758570671,0.7888384461402893,-0.00038251138175837696,-0.14257407188415527
533.0,776.0,-2.54,-0.5815,9.3852,-0.0501,0.016,-0.1072,-1.9262777767577113,-0.00024079848662950099,2.9197354316711426,-2.0337862968444824,0.002291427692398429,1.7149211168289185,5.69700716713027,-0.03211115300655365,0.15081998705863953,-1.545586887990133,0.01799831911921501,0.06559628993272781,0.7358453869819641,-0.0,0.01879291981458664,0.7887945771217346,-0.00031546177342534065,-0.12006581574678421
533.0,776.0,-2.54,-0.5815,9.3852,-0.0501,0.016,-0.1072,-1.926253458062643,-0.00021602667402476072,2.9383704662323,-2.0337584018707275,0.0016408017836511135,1.6838862895965576,5.696750867157736,-0.04994072765111923,0.14734531939029694,-1.5454705397235315,0.013563071377575397,0.07331131398677826,0.7358494997024536,-0.0,0.03801374509930611,0.7888025641441345,-0.00031314988154917955,-0.10369797050952911
533.0,776.0,-2.54,-0.5815,9.3852,-0.0501,0.016,-0.1072,-1.9262415371336878,-0.00019587647693697363,2.9273600578308105,-2.0337460041046143,0.001175376120954752,1.7477097511291504,5.696388351708212,-0.0732550323009491,0.1370018720626831,-1.545483414326803,0.005270211026072502,0.05509374663233757,0.7358978390693665,-0.0,0.03598114103078842,0.7888146042823792,-0.000272509700153023,-0.06674624979496002
561.0,816.0,-3.0754,-0.082,9.3679,-0.0402,0.0162,-0.1179,-1.9262334309019984,-0.00017916454817168415,2.924370288848877,-2.0337541103363037,0.0011513052741065621,1.7348278760910034,5.695888924389639,-0.09886926412582397,0.11640249192714691,-1.5454548040973108,0.00174630805850029,0.05342785269021988,0.7358777523040771,-0.0,0.023717282339930534,0.7887985706329346,-7.967002602526918e-05,-0.12680618464946747
561.0,816.0,-3.0754,-0.082,9.3679,-0.0402,0.0162,-0.1179,-1.926249166528219,-0.00016508052067365497,2.905984878540039,-2.033698797225952,0.0021145043428987265,1.7297409772872925,5.695226299553671,-0.11483582109212875,0.1052631139755249,-1.5454548040973108,0.0010409646201878786,0.0553395077586174,0.7357770800590515,-0.0,0.0324755534529686,0.7888344526290894,-3.516350261634216e-05,-0.054222047328948975
561.0,816.0,-3.0754,-0.082,9.3679,-0.0402,0.0162,-0.1179,-1.926253458062643,-0.00015304914268199354,2.8988304138183594,-2.0337417125701904,0.0023923059925436974,1.760721206665039,5.694559979229727,-0.12206356972455978,0.10729506611824036,-1.5454672018634241,0.000726238067727536,0.06688165664672852,0.7358700037002563,-0.0,0.041492998600006104,0.7887945771217346,-5.1615135276961155e-08,-0.09194887429475784
561.0,816.0,-3.0754,-0.082,9.3679,-0.0402,0.0162,-0.1179,-1.9262734852232875,-0.000142652599606663,2.9156744480133057,-2.033726215362549,0.002841895679011941,1.7651934623718262,5.6937986491020105,-0.12656064331531525,0.10524000227451324,-1.5454915205584925,0.0005573809612542391,0.06249059736728668,0.7358658313751221,-0.0,0.03873177617788315,0.7888225317001343,-1.246444760556395e-13,-0.10215361416339874
561.0,816.0,-3.0754,-0.082,9.3679,-0.0402,0.0162,-0.1179,-1.9262734852232875,-0.00015263060049619526,2.924859046936035,-2.0337023735046387,0.003215555101633072,1.7552413940429688,5.692940521031179,-0.16500888764858246,0.08826778829097748,-1.5454109350787562,0.0004522729723248631,0.062254711985588074,0.7358577847480774,-0.0,0.04144378378987312,0.7888306975364685,0.0007610141183249652,-0.046847037971019745
561.0,816.0,-3.0754,-0.082,9.3679,-0.0402,0.0162,-0.1179,-1.926265378991598,-9.311202302342281e-05,2.865396022796631,-2.0336496829986572,0.0038275299593806267,1.7337560653686523,5.691711294441976,-0.2064981758594513,0.0659775659441948,-1.5454428831683558,0.00038053133175708354,0.057496100664138794,0.7358617782592773,-0.0,0.038656916469335556,0.7888665795326233,0.0009598837932571769,-0.06536903977394104
561.0,816.0,-3.0754,-0.082,9.3679,-0.0402,0.0162,-0.1179,-1.926249166528219,-8.766162500251085e-05,2.9130516052246094,-2.033618450164795,0.0061117359437048435,1.7790420055389404,5.690390515118398,-0.2282046377658844,0.06047172099351883,-1.5454548040973108,0.00032843864755705,0.06672728806734085,0.7358860373497009,-0.0,0.036444295197725296,0.7888586521148682,0.0010071288561448455,-0.08461303263902664
561.0,816.0,-3.0754,-0.082,9.3679,-0.0402,0.0162,-0.1179,-1.926249166528219,-8.282144699478522e-05,2.9258012771606445,-2.033590316772461,0.007042787969112396,1.7891159057617188,5.688909935742178,-0.2645348906517029,0.03687972575426102,-1.545450512562887,0.0002888952731154859,0.06590288132429123,0.7358736395835876,-0.0,0.03545558080077171,0.7888467311859131,0.0009607484098523855,-0.08213824033737183
561.0,816.0,-3.0754,-0.082,9.3679,-0.0402,0.0162,-0.1179,-1.9262777767577113,-7.848785753594711e-05,2.951030731201172,-2.033534526824951,0.009187608025968075,1.7358274459838867,5.687074053078451,-0.2918144166469574,0.024387098848819733,-1.545450512562887,0.0002578512066975236,0.04855741560459137,0.7358896732330322,-0.0,0.04117579758167267,0.7889071702957153,0.001163353445008397,-0.08902300894260406
561.0,816.0,-3.0754,-0.082,9.3679,-0.0402,0.0162,-0.1179,-1.926281591454977,-8.890681056072935e-05,2.9482784271240234,-2.0334744453430176,0.011177943088114262,1.772165298461914,5.685185837536611,-0.33558833599090576,-0.0042435238137841225,-1.5454266707049769,0.00023283311747945845,0.061884693801403046,0.7358413934707642,-0.0,0.03726585581898689,0.7888546586036682,0.001119340886361897,-0.03809051960706711
561.0,816.0,-3.0754,-0.082,9.3679,-0.0402,0.0162,-0.1179,-1.9262458286681117,-9.461777517572045e-05,2.9266719818115234,-2.0334227085113525,0.013545813038945198,1.7879149913787842,5.683033334999838,-0.36233311891555786,0.008059664629399776,-1.5454829374896448,0.00021224083320703357,0.06144014000892639,0.7358782291412354,-0.0,0.041752561926841736,0.7888467311859131,0.0012118456652387977,-0.0552993081510067
561.0,816.0,-3.0754,-0.082,9.3679,-0.0402,0.0162,-0.1179,-1.9262577495970667,-0.00010847912926692516,2.914914131164551,-2.033327102661133,0.014681068249046803,1.8207769393920898,5.6805922267730615,-0.41064509749412537,-0.029471952468156815,-1.5454428831683558,0.0001949953002622351,0.05944289267063141,0.7358658313751221,-0.0,0.034654006361961365,0.7889187335968018,0.001307617174461484,-0.060678306967020035
561.0,816.0,-3.0754,-0.082,9.3679,-0.0402,0.0162,-0.1179,-1.9262410602965296,-0.00027181918267160654,2.9264729022979736,-2.033247470855713,0.016221338883042336,1.776353359222412,5.677987444191732,-0.46298062801361084,-0.0652809888124466,-1.5454829374896448,0.00018034200184047222,0.04719415679574013,0.7358494997024536,-0.0,0.02117135189473629,0.788894772529602,0.0015348322922363877,-0.03392330929636955
561.0,816.0,-3.0754,-0.082,9.3679,-0.0402,0.0162,-0.1179,-1.9263140163817347,-0.000900417857337743,2.9306201934814453,-2.0331554412841797,0.01829642616212368,1.8301833868026733,5.6749926684196375,-0.5041553974151611,-0.0951543003320694,-1.5454428831683558,0.0001677370601100847,0.06590522825717926,0.7358896136283875,-0.0,0.035223111510276794,0.7889429926872253,0.0015584363136440516,-0.07932461053133011
561.0,816.0,-3.0754,-0.082,9.3679,-0.0402,0.0162,-0.1179,-1.9262453518309535,-0.0007467116229236126,2.952709674835205,-2.032914876937866,0.021977612748742104,1.8042007684707642,5.670616256981649,-0.5783698558807373,-0.08327838778495789,-1.5454109350787562,0.0001534379698568955,0.059371769428253174,0.7358855605125427,-0.0,0.04192584007978439,0.788894772529602,0.0011334355222061276,-0.032198429107666016
568.0,873.0,-4.1115,-0.2243,9.0102,-0.0099,-0.401,-0.1417,-1.9262610874571742,-0.0005702777416445315,2.909290313720703,-2.0327749252319336,0.025584397837519646,1.8117156028747559,5.666912960797109,-0.6246039271354675,-0.09042732417583466,-1.5454915205584925,0.0001442175271222368,0.05655072629451752,0.7357810735702515,-0.0,0.03879615291953087,0.7888868451118469,0.0009776620427146554,-0.019079433754086494
568.0,873.0,-4.1115,-0.2243,9.0102,-0.0099,-0.401,-0.1417,-1.9262730083861292,-0.000460766110336408,2.955868721008301,-2.0326268672943115,0.02893124520778656,1.8259960412979126,5.663083123951711,-0.671674370765686,-0.07713262736797333,-1.545450512562887,0.00013604255218524486,0.03147492557764053,0.735910177230835,-0.0,0.026114504784345627,0.788910448551178,0.0008186346967704594,-0.03693870082497597
568.0,873.0,-4.1115,-0.2243,9.0102,-0.0099,-0.401,-0.1417,-1.9262572727599085,-0.00031842259340919554,2.914677619934082,-2.032447576522827,0.032320890575647354,1.768683671951294,5.658993053227224,-0.7120852470397949,-0.08036850392818451,-1.5454471747027796,0.00012874466483481228,0.044739384204149246,0.7358454465866089,-0.0,0.03268095478415489,0.7889227271080017,0.0006339657702483237,0.011933287605643272
568.0,873.0,-4.1115,-0.2243,9.0102,-0.0099,-0.401,-0.1417,-1.926265378991598,-0.0003151854616589844,2.880718231201172,-2.032243490219116,0.0358489565551281,1.8220024108886719,5.654480802803793,-0.7561020255088806,-0.0815499871969223,-1.5454471747027796,0.0001221898855874315,0.04236264154314995,0.7358818054199219,-0.0,0.04720909148454666,0.7889187335968018,0.0005346777616068721,-0.02211681380867958
568.0,873.0,-4.1115,-0.2243,9.0102,-0.0099,-0.401,-0.1417,-1.9262529812254847,-0.0002682151971384883,2.9283647537231445,-2.032003164291382,0.039771758019924164,1.7679083347320557,5.6498687146003626,-0.8008356094360352,-0.07840675115585327,-1.5454347769366663,0.00011627018102444708,0.04084085673093796,0.7358855605125427,-0.0,0.018324125558137894,0.7888787984848022,0.0004122042446397245,0.03646599501371384
568.0,873.0,-4.1115,-0.2243,9.0102,-0.0099,-0.401,-0.1417,-1.9262453518309535,-0.0002334286255063489,2.921309471130371,-2.0317721366882324,0.04515276849269867,1.8085170984268188,5.644824492722311,-0.8356727361679077,-0.06769246608018875,-1.5453947226153772,9.70433684415184e-05,0.05781445652246475,0.7358741164207458,-0.0,0.037710998207330704,0.7889266014099121,0.000335383607307449,-0.02095676213502884
568.0,873.0,-4.1115,-0.2243,9.0102,-0.0099,-0.401,-0.1417,-1.9262696705260218,-0.00020663101167883724,2.960709810256958,-2.0314550399780273,0.05053199082612991,1.8437724113464355,5.639632689743795,-0.8708521723747253,-0.06474471837282181,-1.5454548040973108,9.27496948861517e-05,0.05363690108060837,0.7358901500701904,-0.0,0.028592869639396667,0.788938581943512,0.00028270221082493663,-0.013812301680445671
568.0,873.0,-4.1115,-0.2243,9.0102,-0.0099,-0.401,-0.1417,-1.926277299920553,-0.0001546078856335953,2.904862642288208,-2.0311360359191895,0.05617089942097664,1.8138476610183716,5.634225356369772,-0.9043725728988647,-0.04848060756921768,-1.5454352537738245,8.882655674824491e-05,0.04439506679773331,0.7358978390693665,-0.0,0.03188478946685791,0.7889425158500671,0.0002443252597004175,0.01836490072309971
568.0,873.0,-4.1115,-0.2243,9.0102,-0.0099,-0.401,-0.1417,-1.9262696705260218,-0.0001400396431563422,2.9109861850738525,-2.0307111740112305,0.06282032281160355,1.8504917621612549,5.628830539971151,-0.9357255697250366,-0.07440339773893356,-1.5454304854022425,8.522185089532286e-05,0.04764062166213989,0.7358577847480774,-0.0,0.04197511076927185,0.7889106273651123,0.00021512356761377305,-0.05527498945593834
568.0,873.0,-4.1115,-0.2243,9.0102,-0.0099,-0.401,-0.1417,-1.9263140163817347,-0.00015369663015007973,2.9815173149108887,-2.030332088470459,0.06983298808336258,1.828222393989563,5.623111653118887,-0.9529600143432617,-0.07467013597488403,-1.5454748312579554,8.189826621674001e-05,0.035170018672943115,0.735905647277832,-0.0,0.0379534587264061,0.7889106273651123,0.00019215729844290763,-0.01592237502336502
568.0,873.0,-4.1115,-0.2243,9.0102,-0.0099,-0.401,-0.1417,-1.9262577495970667,-0.00011801002983702347,2.9536385536193848,-2.029876232147217,0.08007974177598953,1.7924690246582031,5.617337989598074,-0.9797371029853821,-0.05715332180261612,-1.5454147497760218,7.882418140070513e-05,0.04884091764688492,0.7358860373497009,-0.0,0.04604611545801163,0.7889066934585571,0.00014468556037172675,-0.01708107441663742
568.0,873.0,-4.1115,-0.2243,9.0102,-0.0099,-0.401,-0.1417,-1.926253458062643,-0.00010939888306893408,2.907665729522705,-2.029348850250244,0.08666805922985077,1.803194522857666,5.611452090531149,-0.9977275133132935,-0.05013897642493248,-1.5453704039203089,7.597253716085106e-05,0.03452995419502258,0.7358493804931641,-0.0,0.03529553487896919,0.7888908386230469,0.00010560812370385975,-0.01781357452273369
568.0,873.0,-4.1115,-0.2243,9.0102,-0.0099,-0.401,-0.1417,-1.926249166528219,-0.00010196257790084928,2.924440860748291,-2.028836965560913,0.09184328466653824,1.8225762844085693,5.605314242630758,-1.0152065753936768,-0.05530254542827606,-1.545438591633932,7.33200358808972e-05,0.04417604207992554,0.7358212471008301,-0.0,0.0443611815571785,0.7889026999473572,9.702930401545018e-05,0.022011052817106247
568.0,873.0,-4.1115,-0.2243,9.0102,-0.0099,-0.401,-0.1417,-1.9262734852232875,-9.547288209432736e-05,2.9687294960021973,-2.0281965732574463,0.09505370259284973,1.7633165121078491,5.5992774842079065,-1.018777847290039,-0.04235369712114334,-1.5454548040973108,7.084653043420985e-05,0.034974463284015656,0.7358576059341431,-0.0,0.023847531527280807,0.7889425754547119,8.977072138804942e-05,-0.05609789863228798
568.0,873.0,-4.1115,-0.2243,9.0102,-0.0099,-0.401,-0.1417,-1.9262734852232875,-7.18079463695176e-05,2.927649736404419,-2.027637243270874,0.09932999312877655,1.8682775497436523,5.593286561756887,-1.020828366279602,-0.018213994801044464,-1.545455280934469,1.2442734487194684e-06,0.0481523834168911,0.7358700037002563,-0.0,0.032320551574230194,0.7889227271080017,8.352242002729326e-05,-0.03955099731683731
754.0,1008.0,-2.263,-0.5151,10.3406,0.0023,-0.89,-0.1541,-1.926253458062643,-5.2795690862694755e-05,2.9313812255859375,-2.027021884918213,0.10349003970623016,1.7740769386291504,5.5870752213294885,-1.0197241306304932,-0.03427266329526901,-1.5454228560077112,3.463481446086547e-10,0.046864815056324005,0.7358372807502747,-0.0,0.024530136957764626,0.788854718208313,7.808743248460814e-05,-0.05313648283481598
754.0,1008.0,-2.263,-0.5151,10.3406,0.0023,-0.89,-0.1541,-1.9262734852232875,-4.8099434934556484e-05,2.989576816558838,-2.0264034271240234,0.10761702805757523,1.7680552005767822,5.58108942487792,-1.0123724937438965,-0.026242755353450775,-1.5454309622394007,9.640729105872894e-14,0.04285361245274544,0.7358372807502747,-0.0,0.03635184094309807,0.7889227271080017,7.331652886932716e-05,-0.10085911303758621
754.0,1008.0,-2.263,-0.5151,10.3406,0.0023,-0.89,-0.1541,-1.926253458062643,-5.910101026529446e-05,2.95259428024292,-2.025686264038086,0.11331681162118912,1.8160200119018555,5.575027215271749,-1.0000685453414917,-0.05021980032324791,-1.545450512562887,2.6835322294912644e-17,0.039974395185709,0.7358736991882324,-0.0,0.03952638432383537,0.788898766040802,6.909506919328123e-05,-0.07605338096618652
754.0,1008.0,-2.263,-0.5151,10.3406,0.0023,-0.89,-0.1541,-1.9262572727599085,-5.793961463496089e-05,2.9591939449310303,-2.024970293045044,0.12126196175813675,1.781538963317871,5.569040703564443,-0.9878025650978088,-0.0031356685794889927,-1.5454428831683558,7.4697107344052e-21,0.04755425453186035,0.7359015941619873,-0.0,0.03360984846949577,0.788918673992157,2.372036215092521e-05,-0.08671393990516663
754.0,1008.0,-2.263,-0.5151,10.3406,0.0023,-0.89,-0.1541,-1.9262730083861292,-1.648566649237182e-05,2.966622829437256,-2.024031639099121,0.12724430859088898,1.8124700784683228,5.561089563160696,-0.9756028652191162,-0.03835759311914444,-1.5454705397235315,1.3575830257881467e-25,0.040548309683799744,0.7359220385551453,-0.0,0.025018788874149323,0.7889306545257568,3.3437285310355946e-05,-0.05271287262439728
754.0,1008.0,-2.263,-0.5151,10.3406,0.0023,-0.89,-0.1541,-1.92620911220693,-1.560838609293569e-05,2.9738845825195312,-2.023167610168457,0.12924101948738098,1.8443615436553955,5.555257308274069,-0.9701412916183472,-0.009187335148453712,-1.545483414326803,3.778881889283332e-29,0.032143447548151016,0.7358454465866089,-0.0,0.02165398560464382,0.7889306545257568,4.2369083530502394e-05,-0.034578707069158554
754.0,1008.0,-2.263,-0.5151,10.3406,0.0023,-0.89,-0.1541,-1.9262696705260218,-1.4836482478131074e-05,2.9745349884033203,-2.0223593711853027,0.13732627034187317,1.8062047958374023,5.549549805908956,-0.9645674228668213,-0.009460324421525002,-1.5454428831683558,1.0518656997679874e-32,0.030827362090349197,0.7358700037002563,-0.0,0.018022935837507248,0.7889630198478699,5.536787284654565e-05,-0.07944821566343307
754.0,1008.0,-2.263,-0.5151,10.3406,0.0023,-0.89,-0.1541,-1.9262334309019984,-3.5828357641820574e-11,3.030966281890869,-2.0215368270874023,0.146585613489151,1.8745393753051758,5.543654429703512,-0.9547228813171387,-0.018712103366851807,-1.5454748312579554,2.9279066425234166e-36,0.04660700634121895,0.7358376979827881,-0.0,0.04306420311331749,0.7889149785041809,5.777549813501537e-05,-0.06100627779960632
754.0,1008.0,-2.263,-0.5151,10.3406,0.0023,-0.89,-0.1541,-1.9262734852232875,-8.652127227569908e-17,3.0092477798461914,-2.020676851272583,0.15362292528152466,1.8809043169021606,5.537935721665182,-0.9483760595321655,0.016441907733678818,-1.5454428831683558,8.149937855528493e-40,0.0380389578640461,0.7358741164207458,-0.0,0.03289518132805824,0.7889106273651123,0.0002717514580581337,-0.04307691752910614
754.0,1008.0,-2.263,-0.5151,10.3406,0.0023,-0.89,-0.1541,-1.926253458062643,-2.089386838552469e-22,2.954111099243164,-2.0197134017944336,0.1578388214111328,1.8497577905654907,5.532315122872152,-0.9468749165534973,-0.011242346838116646,-1.545438591633932,2.2701035122062037e-43,0.013299590907990932,0.7358453869819641,-0.0,0.03139159828424454,0.788870632648468,0.00015096129209268838,-0.08459421992301941
754.0,1008.0,-2.263,-0.5151,10.3406,0.0023,-0.89,-0.1541,-1.926309724847311,-5.045623490678595e-28,2.942183494567871,-2.0187063217163086,0.16500259935855865,1.8636722564697266,5.526700424938955,-0.9335911870002747,-0.006545785814523697,-1.5454672018634241,5.4236565460996644e-08,0.021483611315488815,0.7358335852622986,-0.0,0.0438968650996685,0.7889106273651123,9.890957153402269e-05,-0.028730446472764015
754.0,1008.0,-2.263,-0.5151,10.3406,0.0023,-0.89,-0.1541,-1.9262696705260218,-1.2184586693448421e-33,3.021116256713867,-2.0176939964294434,0.17092087864875793,1.8597068786621094,5.521141278534689,-0.9341558814048767,0.004925881512463093,-1.5454548040973108,-2.541601861594245e-05,0.03890201449394226,0.735833466053009,-0.0,0.02738742157816887,0.7889266014099121,7.437631575157866e-05,0.03069290705025196
754.0,1008.0,-2.263,-0.5151,10.3406,0.0023,-0.89,-0.1541,-1.926225324670309,-2.942433903703072e-39,3.028650999069214,-2.0166890621185303,0.17940865457057953,1.8928608894348145,5.515507447510519,-0.9239961504936218,0.012231819331645966,-1.5454748312579554,-7.074642205395776e-09,0.014697108417749405,0.7358454465866089,-0.0,0.03703366965055466,0.7889266610145569,5.959680856904015e-05,-0.0025559701025485992
754.0,1008.0,-2.263,-0.5151,10.3406,0.0023,-0.89,-0.1541,-1.9262730083861292,-7.006492321624085e-45,3.0354349613189697,-2.015591859817505,0.18875613808631897,1.839475393295288,5.51004176118926,-0.9228433966636658,0.011796528473496437,-1.5454347769366663,-1.9692524520775745e-12,0.02323475480079651,0.7358617782592773,-0.0,0.014918364584445953,0.788962721824646,9.943320765160024e-05,0.012042977847158909
754.0,1008.0,-2.263,-0.5151,10.3406,0.0023,-0.89,-0.1541,-1.926293512383932,0.0,2.9912891387939453,-2.014383554458618,0.1973154991865158,1.9375090599060059,5.504559266358175,-0.9169664978981018,-0.005218448117375374,-1.5454629103290003,-5.481486897279111e-16,0.019955728203058243,0.7358453869819641,-0.0,0.039732761681079865,0.7888908386230469,8.52990779094398e-05,0.030809814110398293
815.0,995.0,-0.5402,-0.4379,10.0152,-0.0047,-0.7512,-0.1507,-1.926281591454977,0.0,3.0294249057769775,-2.0130927562713623,0.2037302851676941,1.8839482069015503,5.499128210335531,-0.9017605185508728,-0.005719651933759451,-1.545438591633932,-1.5257920255090554e-19,0.02571706287562847,0.7358576655387878,-0.0,0.03505715727806091,0.788962721824646,7.468117109965533e-05,0.015640899538993835
815.0,995.0,-0.5402,-0.4379,10.0152,-0.0047,-0.7512,-0.1507,-1.926265378991598,0.0,3.062492609024048,-2.011866331100464,0.20837083458900452,1.9358845949172974,5.493686902313986,-0.894303560256958,0.01761012338101864,-1.5454629103290003,-4.2470977405214713e-23,0.022383062168955803,0.7358896732330322,-0.0,0.040529049932956696,0.7889747023582458,9.956673602573574e-05,-0.011721101589500904
815.0,995.0,-0.5402,-0.4379,10.0152,-0.0047,-0.7512,-0.1507,-1.9262854061522425,0.0,3.0444223880767822,-2.0106074810028076,0.2238493263721466,1.927016019821167,5.488441037922659,-0.8837125301361084,-0.003027821658179164,-1.5454872290240687,-1.1821954266559636e-26,0.020114723592996597,0.7358577847480774,-0.0,0.03451128304004669,0.7889306545257568,8.969290502136573e-05,-0.04779867082834244
815.0,995.0,-0.5402,-0.4379,10.0152,-0.0047,-0.7512,-0.1507,-1.9262734852232875,0.0,3.0578460693359375,-2.0093071460723877,0.2362205982208252,1.9500248432159424,5.483073818474569,-0.8748694062232971,0.0128270722925663,-1.545450512562887,-3.2906845280647956e-30,0.007901206612586975,0.7358577251434326,-0.0,0.02340894192457199,0.7888908386230469,8.156420517480001e-05,-0.05490393191576004
815.0,995.0,-0.5402,-0.4379,10.0152,-0.0047,-0.7512,-0.1507,-1.926260610620016,0.0,3.0225274562835693,-2.0078468322753906,0.23939299583435059,1.907158374786377,5.477910744934835,-0.865401029586792,0.015666350722312927,-1.545483414326803,-0.00019004708155989647,9.440467692911625e-05,0.7358617782592773,-0.0,0.02851572446525097,0.788934588432312,7.478642510250211e-05,0.026635704562067986
815.0,995.0,-0.5402,-0.4379,10.0152,-0.0047,-0.7512,-0.1507,-1.926309724847311,0.0,3.0308823585510254,-2.0063838958740234,0.2471589893102646,1.9263286590576172,5.47283815124587,-0.8524361848831177,0.01718301698565483,-1.5454586187945765,-0.00017041781393345445,0.005716286599636078,0.7358577251434326,-0.0,0.020689211785793304,0.788938581943512,6.904867041157559e-05,0.017293570563197136
815.0,995.0,-0.5402,-0.4379,10.0152,-0.0047,-0.7512,-0.1507,-1.9262849293150843,0.0,3.0550153255462646,-2.0048413276672363,0.2616557478904724,1.9497268199920654,5.467734145909109,-0.8385255932807922,-0.007040774915367365,-1.5454347769366663,-0.00018309750885237008,0.012600637972354889,0.7359220385551453,-0.0,0.02944180741906166,0.7889147996902466,8.549309859517962e-05,0.06336993724107742
815.0,995.0,-0.5402,-0.4379,10.0152,-0.0047,-0.7512,-0.1507,-1.926321645776266,0.0,3.0694894790649414,-2.0032215118408203,0.2716212570667267,2.024150848388672,5.462689685612478,-0.834105372428894,0.017543591558933258,-1.545495335255758,-0.00016663348651491106,0.014881080947816372,0.7359015345573425,-0.0,0.033288612961769104,0.7888984680175781,6.669192225672305e-05,0.03972068428993225
815.0,995.0,-0.5402,-0.4379,10.0152,-0.0047,-0.7512,-0.1507,-1.9263178310790003,0.0,2.999985694885254,-2.0015268325805664,0.27168694138526917,1.946053385734558,5.457762884884634,-0.8243532180786133,0.008831440471112728,-1.545483414326803,-0.00015251374861691147,0.003543709171935916,0.7358372807502747,-0.0,0.02997560426592827,0.7889068126678467,5.6129752920242026e-05,0.04499437287449837
815.0,995.0,-0.5402,-0.4379,10.0152,-0.0047,-0.7512,-0.1507,-1.9262849293150843,-9.994264837587252e-05,3.028008222579956,-1.9992327690124512,0.2911810278892517,2.0190305709838867,5.451194572239675,-0.8118622899055481,0.004282550420612097,-1.545483414326803,-0.00013703173317480832,-0.0019477298483252525,0.7359461188316345,-0.0,0.0250556617975235,0.7889026999473572,5.182058521313593e-05,0.09136898070573807
815.0,995.0,-0.5402,-0.4379,10.0152,-0.0047,-0.7512,-0.1507,-1.9262367687621058,-0.00010848313104361296,3.067031145095825,-1.9974570274353027,0.3042083978652954,2.044964551925659,5.44631968715743,-0.8092166185379028,0.006847921758890152,-1.545466725026266,-0.00012733727635350078,0.004085303284227848,0.735913872718811,-0.0,0.017551589757204056,0.7888542413711548,6.533239502459764e-05,0.048425428569316864
815.0,995.0,-0.5402,-0.4379,10.0152,-0.0047,-0.7512,-0.1507,-1.9263140163817347,-9.187014802591875e-05,3.0989246368408203,-1.9955631494522095,0.30549341440200806,2.0387585163116455,5.44159613826827,-0.8017242550849915,0.01933627389371395,-1.5454586187945765,-0.00011892381007783115,-0.002693342277780175,0.7358860373497009,-0.0,0.024641629308462143,0.7889106273651123,6.19592028670013e-05,0.06557244807481766
815.0,995.0,-0.5402,-0.4379,10.0152,-0.0047,-0.7512,-0.1507,-1.9263378582396449,-7.967018609633669e-05,3.0665245056152344,-1.9936323165893555,0.3153708875179291,1.9987545013427734,5.436748134880819,-0.7873864769935608,0.00872628390789032,-1.5454943815814417,-0.00012890598736703396,0.010121270082890987,0.7359220385551453,-0.0,0.01715242676436901,0.788934588432312,8.080838597379625e-05,0.12110672891139984
815.0,995.0,-0.5402,-0.4379,10.0152,-0.0047,-0.7512,-0.1507,-1.9263016186156214,-9.341111581306905e-05,3.0649466514587402,-1.9916564226150513,0.331163614988327,2.0280306339263916,5.432063150196829,-0.7800708413124084,0.0023741608019918203,-1.5454466978656214,-0.00012255010369699448,0.018253475427627563,0.7358818650245667,-0.0,0.02807295322418213,0.7889510989189148,0.0001177874073619023,0.004897132515907288
815.0,995.0,-0.5402,-0.4379,10.0152,-0.0047,-0.7512,-0.1507,-1.926333566705221,-9.442721056984738e-05,2.9965057373046875,-1.9896422624588013,0.3421591520309448,2.1357333660125732,5.4274258492286584,-0.7720690369606018,0.016338754445314407,-1.545483414326803,-0.00011579292186070234,-0.010788035579025745,0.7358736991882324,-0.0,0.021642008796334267,0.7889347672462463,0.0009709695586934686,0.03930589184165001
688.0,976.0,-0.0604,-0.3775,9.5833,-0.0032,-0.4959,-0.1391,-1.9262892208495082,-0.00011059465759899467,3.071075201034546,-1.9875917434692383,0.35179901123046875,2.11979341506958,5.422888386040487,-0.759678840637207,-0.005563776940107346,-1.5454748312579554,-0.00010974174074362963,0.01057119108736515,0.7358413338661194,-0.0,0.03043505735695362,0.7889025807380676,0.0017247218638658524,0.04522258788347244
688.0,976.0,-0.0604,-0.3775,9.5833,-0.0032,-0.4959,-0.1391,-1.9263454876341761,-0.00012495822738856077,3.1082510948181152,-1.9854811429977417,0.35612449049949646,2.130998134613037,5.418347763806143,-0.7562350034713745,0.0050952197052538395,-1.5454791227923792,-0.00011915702634723857,-0.01148724090307951,0.7358335256576538,-0.0,0.021417977288365364,0.7889588475227356,0.0018216813914477825,0.04085029661655426
688.0,976.0,-0.0604,-0.3775,9.5833,-0.0032,-0.4959,-0.1391,-1.9263454876341761,-0.0011233697878196836,3.0458691120147705,-1.9833093881607056,0.3677065372467041,2.1031570434570312,5.413889694004812,-0.7405285239219666,0.025689350441098213,-1.5454586187945765,-0.00011355109018040821,0.003277298528701067,0.7357891798019409,-0.0,0.020106028765439987,0.7890146374702454,0.0018978992011398077,0.015480078756809235
688.0,976.0,-0.0604,-0.3775,9.5833,-0.0032,-0.4959,-0.1391,-1.9263864956297816,-0.0016795831033959985,3.044588088989258,-1.9810670614242554,0.3735138773918152,2.151360511779785,5.409504103451528,-0.728215754032135,-0.0015823489520698786,-1.545438591633932,-0.00010842140181921422,0.009487215429544449,0.7358818054199219,-0.0,0.029782548546791077,0.7889345288276672,0.002298598410561681,0.08354738354682922
688.0,976.0,-0.0604,-0.3775,9.5833,-0.0032,-0.4959,-0.1391,-1.9263698063292445,-0.0021382514387369156,3.057220697402954,-1.978837013244629,0.38589760661125183,2.161233901977539,5.40508662441329,-0.718749463558197,0.016913054510951042,-1.5454586187945765,-0.00010373513214290142,-0.00111743516754359,0.7358170747756958,-0.0,0.021674081683158875,0.7890231013298035,0.0030475188978016376,0.09595422446727753
688.0,976.0,-0.0604,-0.3775,9.5833,-0.0032,-0.4959,-0.1391,-1.9263860187926234,-0.0016092773294076324,3.1149237155914307,-1.9765774011611938,0.3962157964706421,2.1661407947540283,5.400758135109701,-0.708884596824646,0.019000602886080742,-1.5455272833453577,-9.943710756488144e-05,-0.004666026681661606,0.7358860373497009,-0.0,0.04342593997716904,0.7890308499336243,0.004154313821345568,0.08412104845046997
688.0,976.0,-0.0604,-0.3775,9.5833,-0.0032,-0.4959,-0.1391,-1.9263931713499964,-0.0009844612795859575,3.086862564086914,-1.9741663932800293,0.4021352529525757,2.182704210281372,5.396574008255758,-0.6961395144462585,0.028856370598077774,-1.5455153624164026,-8.429324952885509e-05,-0.01087898388504982,0.7358535528182983,-0.0,0.02871987223625183,0.7890549302101135,0.005108331795781851,0.021071087568998337
688.0,976.0,-0.0604,-0.3775,9.5833,-0.0032,-0.4959,-0.1391,-1.92637362102651,-0.0015749539015814662,3.059431552886963,-1.9717321395874023,0.411712646484375,2.2059788703918457,5.392467665463247,-0.6817314028739929,0.032385993748903275,-1.5454543272601526,-7.978816574905068e-05,-0.0023059132508933544,0.7358695864677429,-0.0,0.041799597442150116,0.789030134677887,0.00606268597766757,0.07678975909948349
688.0,976.0,-0.0604,-0.3775,9.5833,-0.0032,-0.4959,-0.1391,-1.9264375172057093,-0.003990929573774338,3.1401615142822266,-1.969233751296997,0.41057726740837097,2.2564196586608887,5.3883805749709985,-0.6802830696105957,0.0029311361722648144,-1.5454424063311976,-7.575839845230803e-05,-0.013256611302495003,0.735905647277832,-0.0,0.014481749385595322,0.7890947461128235,0.007106631062924862,0.1013663187623024
688.0,976.0,-0.0604,-0.3775,9.5833,-0.0032,-0.4959,-0.1391,-1.926462312737936,-0.0049121021293103695,3.105694532394409,-1.9667294025421143,0.4200335443019867,2.217068672180176,5.384349751263418,-0.6690071225166321,0.011743871495127678,-1.545450512562887,-8.641414024168625e-05,0.0008984324522316456,0.7358413338661194,-0.0,0.039691559970378876,0.789223313331604,0.009250571951270103,0.10643718391656876
688.0,976.0,-0.0604,-0.3775,9.5833,-0.0032,-0.4959,-0.1391,-1.9264618359007777,-0.00508772162720561,3.12033748626709,-1.9641966819763184,0.42388486862182617,2.176851272583008,5.380406009941854,-0.6627584099769592,0.02076302096247673,-1.5455310980426233,-8.256954606622458e-05,-0.01143506821244955,0.7358896732330322,-0.0,0.034147072583436966,0.7892512679100037,0.011514909565448761,0.16307073831558228
688.0,976.0,-0.0604,-0.3775,9.5833,-0.0032,-0.4959,-0.1391,-1.926509519616598,-0.00543565209954977,3.053864002227783,-1.9615883827209473,0.42898210883140564,2.2118287086486816,5.37650357463912,-0.6536223292350769,0.004669689107686281,-1.5454710165606897,-7.894806913100183e-05,-0.009685739874839783,0.7358860373497009,-0.0,0.029726723209023476,0.7893476486206055,0.013408210128545761,0.09685015678405762
688.0,976.0,-0.0604,-0.3775,9.5833,-0.0032,-0.4959,-0.1391,-1.9265295467772425,-0.005350659601390362,3.0787742137908936,-1.9589753150939941,0.4312463104724884,2.2343435287475586,5.3725296733673,-0.6478185653686523,0.022038081660866737,-1.5454986731158655,-7.563092367490754e-05,-0.006130614317953587,0.7358335256576538,-0.0,0.03989051654934883,0.789423406124115,0.01596216857433319,0.08698596060276031
688.0,976.0,-0.0604,-0.3775,9.5833,-0.0032,-0.4959,-0.1391,-1.9265696010985316,-0.0040966421365737915,3.08119535446167,-1.9564210176467896,0.443604975938797,2.2675657272338867,5.368582594185629,-0.6418916583061218,0.01260447222739458,-1.5454466978656214,-7.258124969666824e-05,0.0008011669269762933,0.7358777523040771,-0.0,0.027337269857525826,0.7895154356956482,0.018746189773082733,0.10368554294109344
688.0,976.0,-0.0604,-0.3775,9.5833,-0.0032,-0.4959,-0.1391,-1.92661776165151,-0.003297684481367469,3.0654759407043457,-1.9528967142105103,0.4496189057826996,2.2317888736724854,5.363364982395925,-0.6442966461181641,0.020775966346263885,-1.5454538504229944,-6.319455860648304e-05,0.0034768579062074423,0.7358777523040771,-0.0,0.03253065422177315,0.789695680141449,0.022802263498306274,0.08227307349443436
737.0,939.0,0.2512,-0.4696,9.7926,-0.0226,-0.2004,-0.1119,-1.9266497097411097,-0.005049654748290777,3.079641819000244,-1.9501546621322632,0.4500103294849396,2.2846364974975586,5.359502064972677,-0.64772629737854,-0.004740084987133741,-1.545490566884176,-5.5284646805375814e-05,-0.004033431876450777,0.7358856201171875,-0.0,0.035012535750865936,0.7898678183555603,0.02586543932557106,0.12313332408666611
737.0,939.0,0.2512,-0.4696,9.7926,-0.0226,-0.2004,-0.1119,-1.9266373119749964,-0.007289472967386246,3.151174545288086,-1.9474254846572876,0.45710694789886475,2.304633617401123,5.355642962246694,-0.6462472677230835,0.005787230562418699,-1.5454943815814417,-5.33179882040713e-05,0.0033518257550895214,0.7359020113945007,-0.0,0.031405940651893616,0.7900359034538269,0.02802583947777748,0.15355944633483887
737.0,939.0,0.2512,-0.4696,9.7926,-0.0226,-0.2004,-0.1119,-1.9267174206175746,-0.008455991744995117,3.142073631286621,-1.944684386253357,0.4644533395767212,2.2955358028411865,5.351814555912771,-0.6403598785400391,0.022230761125683784,-1.5454791227923792,-5.1487837481545284e-05,-0.004501572344452143,0.73592209815979,-0.0,0.03971503674983978,0.7902404069900513,0.030846690759062767,0.12905487418174744
737.0,939.0,0.2512,-0.4696,9.7926,-0.0226,-0.2004,-0.1119,-1.926798006097311,-0.009428483434021473,3.10377836227417,-1.941920280456543,0.4715120196342468,2.328646183013916,5.348103272705831,-0.6356649994850159,0.03016575612127781,-1.545483414326803,-4.977917342330329e-05,-0.005650726612657309,0.7358978390693665,-0.0,0.036452021449804306,0.7904002666473389,0.030705207958817482,0.08563673496246338
737.0,939.0,0.2512,-0.4696,9.7926,-0.0226,-0.2004,-0.1119,-1.9268776379027308,-0.011609246022999287,3.03572678565979,-1.9391295909881592,0.4675659239292145,2.30898380279541,5.344279336720266,-0.6393193006515503,0.0061356485821306705,-1.545483414326803,-1.385621484217836e-08,0.002082663821056485,0.7359097599983215,-0.0,0.019825413823127747,0.7905883193016052,0.031430575996637344,0.14540773630142212
737.0,939.0,0.2512,-0.4696,9.7926,-0.0226,-0.2004,-0.1119,-1.9269453487791957,-0.015448268502950668,3.0767269134521484,-1.9361884593963623,0.4710322320461273,2.3144826889038086,5.340484010964193,-0.6352874636650085,0.01672709919512272,-1.5454915205584925,-3.856928231654733e-12,0.00755468662828207,0.7359057068824768,-0.0,0.03594280034303665,0.7908288240432739,0.030471578240394592,0.11935488879680634
737.0,939.0,0.2512,-0.4696,9.7926,-0.0226,-0.2004,-0.1119,-1.9270373783507289,-0.018384190276265144,3.0787270069122314,-1.933295726776123,0.47849515080451965,2.3029940128326416,5.336652147560873,-0.6374024748802185,0.002117360010743141,-1.545450512562887,-1.073590120205829e-15,-0.003913151100277901,0.7358778119087219,-0.0,0.03879875689744949,0.7909485697746277,0.0310226958245039,0.08578425645828247
737.0,939.0,0.2512,-0.4696,9.7926,-0.0226,-0.2004,-0.1119,-1.9271894894041957,-0.020281625911593437,3.137146472930908,-1.9304261207580566,0.48176658153533936,2.381601333618164,5.332765149861135,-0.6405079364776611,0.007030483800917864,-1.5455029646502894,-2.9883771124614026e-19,-0.004493371583521366,0.7358700037002563,-0.0,0.026716874912381172,0.7911248803138733,0.031067607924342155,0.0861019641160965
737.0,939.0,0.2512,-0.4696,9.7926,-0.0226,-0.2004,-0.1119,-1.9272810421385707,-0.02227918617427349,3.109236717224121,-1.927528977394104,0.4832908809185028,2.388951539993286,5.328873979836263,-0.6369023323059082,0.017078280448913574,-1.5454304854022425,-8.318258042162035e-23,0.002917600329965353,0.73592609167099,-0.0,0.035518985241651535,0.7913208603858948,0.031268127262592316,0.14654390513896942
737.0,939.0,0.2512,-0.4696,9.7926,-0.0226,-0.2004,-0.1119,-1.9274288616576136,-0.024000072851777077,3.0816564559936523,-1.9246174097061157,0.4881730377674103,2.295485496520996,5.325114834099569,-0.642678439617157,0.004216653294861317,-1.5454590956317347,-2.3154176903884664e-26,0.009715082123875618,0.7358413338661194,-0.0,0.020637670531868935,0.7915250658988953,0.03234666958451271,0.05572791025042534
737.0,939.0,0.2512,-0.4696,9.7926,-0.0226,-0.2004,-0.1119,-1.9275647602477015,-0.028330249711871147,3.0690460205078125,-1.9217196702957153,0.49485552310943604,2.3887557983398438,5.321195590287008,-0.6380571126937866,0.011981183663010597,-1.545495335255758,-6.445050831886201e-30,0.002333445241674781,0.7359384298324585,-0.0,0.04093385487794876,0.7916927933692932,0.03318769857287407,0.09128187596797943
