ramyac6/ROB537/final_project/csv/bad/bad_135.csv
tof_0,tof_1,accelx,accely,accelz,gyrox,gyroy,gyroz,shoulder_lift_joint_position,shoulder_lift_joint_velocity,shoulder_lift_joint_effort,elbow_joint_position,elbow_joint_velocity,elbow_joint_effort,wrist_1_joint_position,wrist_1_joint_velocity,wrist_1_joint_effort,wrist_2_joint_position,wrist_2_joint_velocity,wrist_2_joint_effort,wrist_3_joint_position,wrist_3_joint_velocity,wrist_3_joint_effort,shoulder_pan_joint_position,shoulder_pan_joint_velocity,shoulder_pan_joint_effort
451.0,432.0,0.0209,0.4259,9.5827,-0.0417,0.0247,-0.1122,-1.4685660165599366,0.0,1.2802211046218872,-2.3483831882476807,-0.0,1.808407187461853,5.26635621765212,0.0,0.2884190082550049,-1.597257439290182,0.0,-0.011564408428966999,0.636569082736969,-0.0,-0.013674583286046982,0.7328813672065735,0.0,-0.05297159403562546
451.0,432.0,0.0209,0.4259,9.5827,-0.0417,0.0247,-0.1122,-1.4685779598406334,0.0,1.3515077829360962,-2.348395586013794,-0.0,1.7516320943832397,5.266304003983297,0.0,0.2882155776023865,-1.5972698370562952,0.0,0.0014268567319959402,0.6365169882774353,-0.0,-0.010737840086221695,0.7328049540519714,0.0,-0.019036490470170975
451.0,432.0,0.0209,0.4259,9.5827,-0.0417,0.0247,-0.1122,-1.468506173496582,0.0,1.3569464683532715,-2.3483471870422363,-0.0,1.7567278146743774,5.266328084259786,0.0,0.29236042499542236,-1.5972779432879847,0.0,-0.01614038273692131,0.636529266834259,-0.0,0.005207523703575134,0.7328574061393738,0.0,-0.0017513211350888014
451.0,432.0,0.0209,0.4259,9.5827,-0.0417,0.0247,-0.1122,-1.4685859319618721,0.0,1.327826976776123,-2.348375082015991,-0.0,1.7592248916625977,5.266315924912252,0.0,0.2828923761844635,-1.5972335974322718,0.0,-0.011875685304403305,0.6365047693252563,-0.0,-0.005412172060459852,0.7328330874443054,0.0,0.015380976721644402
451.0,432.0,0.0209,0.4259,9.5827,-0.0417,0.0247,-0.1122,-1.4685420554927369,0.0,1.3260918855667114,-2.348379135131836,-0.0,1.7490978240966797,5.266323971539297,0.0,0.2907342314720154,-1.5972822348224085,0.0,-0.004729285836219788,0.6365252733230591,-0.0,-0.01856318488717079,0.7328127026557922,0.0,0.01123860850930214
451.0,432.0,0.0209,0.4259,9.5827,-0.0417,0.0247,-0.1122,-1.468545989399292,0.0,1.295447587966919,-2.3484151363372803,-0.0,1.7701425552368164,5.266299950867452,0.0,0.28418588638305664,-1.5972417036639612,0.0,-0.007970290258526802,0.6365010142326355,-0.0,0.00040530774276703596,0.7328615188598633,0.0,-0.0009754342027008533
451.0,432.0,0.0209,0.4259,9.5827,-0.0417,0.0247,-0.1122,-1.4685301569155236,0.0,1.313075065612793,-2.3483834266662598,-0.0,1.777163028717041,5.266348409443655,0.0,0.27953070402145386,-1.597314182912008,0.0,0.0007352414540946484,0.6365654468536377,-0.0,0.004441248252987862,0.7328692674636841,0.0,-0.005160923581570387
486.0,447.0,-0.0473,0.4086,9.6377,-0.0338,0.0237,-0.1208,-1.468549945657589,0.0,1.3117356300354004,-2.3483757972717285,-0.0,1.7679150104522705,5.26634435632781,0.0,0.2781699299812317,-1.597245995198385,0.0,0.001366789685562253,0.6365047693252563,-0.0,0.0044367751106619835,0.732877254486084,0.0,-0.002416745526716113
486.0,447.0,-0.0473,0.4086,9.6377,-0.0338,0.0237,-0.1208,-1.4685898286155243,0.0,1.3221397399902344,-2.348375082015991,-0.0,1.775498867034912,5.266336190491476,0.0,0.28300783038139343,-1.5972698370562952,0.0,-0.004089021123945713,0.6364853382110596,-0.0,0.0005804827669635415,0.7328733801841736,0.0,-0.0197523795068264
486.0,447.0,-0.0473,0.4086,9.6377,-0.0338,0.0237,-0.1208,-1.4685340759209176,0.0,1.3104186058044434,-2.3484315872192383,-0.0,1.794013500213623,5.266323971539297,0.0,0.2760002017021179,-1.5972254912005823,0.0,-0.012977742590010166,0.6365170478820801,-0.0,-0.009146877564489841,0.7328574061393738,0.0,-0.009199514985084534
486.0,447.0,-0.0473,0.4086,9.6377,-0.0338,0.0237,-0.1208,-1.4685579028776665,0.0,1.3385331630706787,-2.348379135131836,-0.0,1.7545965909957886,5.266292083054342,0.0,0.27696794271469116,-1.5972979704486292,0.0,0.0001680723507888615,0.6364571452140808,-0.0,0.006362678483128548,0.7328854203224182,0.0,0.024536117911338806
486.0,447.0,-0.0473,0.4086,9.6377,-0.0338,0.0237,-0.1208,-1.4685859394124527,0.0,1.3355326652526855,-2.3484151363372803,-0.0,1.7916960716247559,5.266360270767965,0.0,0.27328163385391235,-1.5972612539874476,0.0,-0.006218086462467909,0.6365129947662354,-0.0,-0.0016998443752527237,0.7328776121139526,0.0,0.03886941075325012
486.0,447.0,-0.0473,0.4086,9.6377,-0.0338,0.0237,-0.1208,-1.468538114135601,0.0,1.349670171737671,-2.348407030105591,-0.0,1.7426478862762451,5.266304003983297,0.0,0.27902933955192566,-1.597302261983053,0.0,-0.00894257053732872,0.6365129351615906,-0.0,-0.002660199301317334,0.7328330874443054,0.0,-0.016020148992538452
486.0,447.0,-0.0473,0.4086,9.6377,-0.0338,0.0237,-0.1208,-1.4685619336417695,0.0,1.3147059679031372,-2.348395586013794,-0.0,1.7508955001831055,5.266308057099142,0.0,0.2837977409362793,-1.5972822348224085,0.0,-0.005505450069904327,0.6365252733230591,-0.0,-0.004720048978924751,0.7328371405601501,0.0,-0.030620748177170753
486.0,447.0,-0.0473,0.4086,9.6377,-0.0338,0.0237,-0.1208,-1.4685779598406334,0.0,1.2936832904815674,-2.348463535308838,-0.0,1.7645306587219238,5.2662961957748315,0.0,0.2817037105560303,-1.5972612539874476,0.0,-0.016708876937627792,0.6365530490875244,-0.0,-0.006539631634950638,0.73284512758255,0.0,0.0101290512830019
486.0,447.0,-0.0473,0.4086,9.6377,-0.0338,0.0237,-0.1208,-1.46853011221204,0.0,1.2697277069091797,-2.348407030105591,-0.0,1.805535912513733,5.26634435632781,0.0,0.2856850028038025,-1.597285572682516,0.0,-0.0070468103513121605,0.6365089416503906,-0.0,0.002252791542559862,0.7328248023986816,0.0,0.0063865468837320805
486.0,447.0,-0.0473,0.4086,9.6377,-0.0338,0.0237,-0.1208,-1.4685460415533562,0.0,1.3458528518676758,-2.348367691040039,-0.0,1.7651457786560059,5.2663683769996545,0.0,0.28130874037742615,-1.5972736517535608,0.0,-0.007993620820343494,0.6364772915840149,-0.0,0.003151753917336464,0.7328492403030396,0.0,-0.03345884382724762
486.0,447.0,-0.0473,0.4086,9.6377,-0.0338,0.0237,-0.1208,-1.4685739514282723,0.0,1.3532671928405762,-2.348395586013794,-0.0,1.7908140420913696,5.266304003983297,0.0,0.276596337556839,-1.597257439290182,0.0,0.0041853394359350204,0.6365293264389038,-0.0,-0.0055136848241090775,0.7328453660011292,0.0,0.032027050852775574
486.0,447.0,-0.0473,0.4086,9.6377,-0.0338,0.0237,-0.1208,-1.4685700175217171,0.0,1.3237292766571045,-2.3484275341033936,-0.0,1.7679804563522339,5.26636033037261,0.0,0.274594247341156,-1.5972779432879847,0.0,0.00908436719328165,0.6365169882774353,-0.0,-0.004275890998542309,0.7328049540519714,0.0,0.017940275371074677
486.0,447.0,-0.0473,0.4086,9.6377,-0.0338,0.0237,-0.1208,-1.4685579252294083,0.0,1.347529649734497,-2.348395586013794,-0.0,1.7574543952941895,5.266340243607321,0.0,0.27870893478393555,-1.597257439290182,0.0,-0.005872451700270176,0.6364813446998596,-0.0,-0.008654708974063396,0.7328574061393738,0.0,0.025436945259571075
486.0,447.0,-0.0473,0.4086,9.6377,-0.0338,0.0237,-0.1208,-1.4685499754599114,0.0,1.337817907333374,-2.348395586013794,-0.0,1.805098295211792,5.266307997494497,0.0,0.27643340826034546,-1.5972698370562952,0.0,-0.003856898983940482,0.6364766359329224,-0.0,0.0028279460966587067,0.732812762260437,0.0,0.0030847867019474506
492.0,454.0,-0.0305,0.4158,9.6018,-0.0391,0.0199,-0.1106,-1.4685061809471627,0.0,1.3267896175384521,-2.348351240158081,-0.0,1.7424683570861816,5.266336190491476,0.0,0.29403361678123474,-1.597269360219137,0.0,-0.02047259919345379,0.6365412473678589,-0.0,0.009119388647377491,0.7328656315803528,0.0,-0.0179354939609766
492.0,454.0,-0.0305,0.4158,9.6018,-0.0391,0.0199,-0.1106,-1.4686020922711869,0.0,1.3316872119903564,-2.3484437465667725,-0.0,1.7860229015350342,5.266359913140096,0.0,0.28334707021713257,-1.597314182912008,0.0,-0.003903554053977132,0.6365371346473694,-0.0,0.002248220844194293,0.7328734397888184,0.0,-0.025539696216583252
492.0,454.0,-0.0305,0.4158,9.6018,-0.0391,0.0199,-0.1106,-1.4685460415533562,0.0,1.3383724689483643,-2.348379135131836,-0.0,1.7259774208068848,5.266340243607321,0.0,0.2955276370048523,-1.5972698370562952,0.0,-0.012878090143203735,0.6365170478820801,-0.0,0.0036215055733919144,0.7328209280967712,0.0,-0.002638443373143673
492.0,454.0,-0.0305,0.4158,9.6018,-0.0391,0.0199,-0.1106,-1.46853809923444,0.0,1.297249436378479,-2.3483989238739014,-0.0,1.7813717126846313,5.266368138581075,0.0,0.2908748686313629,-1.5972860495196741,0.0,-0.008465243503451347,0.6365573406219482,-0.0,-0.006497553549706936,0.7329015135765076,0.0,0.02570265904068947
492.0,454.0,-0.0305,0.4158,9.6018,-0.0391,0.0199,-0.1106,-1.468557932679989,0.0,1.3137872219085693,-2.3483266830444336,-0.0,1.7449318170547485,5.26634834983901,0.0,0.27544087171554565,-1.5972698370562952,0.0,0.0019258242100477219,0.6365330219268799,-0.0,0.0034863599576056004,0.7328289151191711,0.0,0.02336340770125389
492.0,454.0,-0.0305,0.4158,9.6018,-0.0391,0.0199,-0.1106,-1.4685818937471886,0.0,1.3145244121551514,-2.3484110832214355,-0.0,1.7540283203125,5.266348409443655,0.0,0.2832639217376709,-1.5972498098956507,0.0,-0.011582937091588974,0.636484682559967,-0.0,0.005123900715261698,0.7328854203224182,0.0,-0.02476247027516365
492.0,454.0,-0.0305,0.4158,9.6018,-0.0391,0.0199,-0.1106,-1.46853809923444,0.0,1.3117783069610596,-2.348355293273926,-0.0,1.7502354383468628,5.266336190491476,0.0,0.2934545576572418,-1.5972612539874476,0.0,-0.007998239248991013,0.6364690065383911,-0.0,-0.0036699147894978523,0.7328454256057739,0.0,-0.014328893274068832
492.0,454.0,-0.0305,0.4158,9.6018,-0.0391,0.0199,-0.1106,-1.4685301420143624,0.0,1.3355212211608887,-2.348423480987549,-0.0,1.757256269454956,5.266340243607321,0.0,0.29222163558006287,-1.5972698370562952,0.0,-0.009918898344039917,0.6365453600883484,-0.0,-0.0033350514713674784,0.7328734397888184,0.0,0.05209939926862717
492.0,454.0,-0.0305,0.4158,9.6018,-0.0391,0.0199,-0.1106,-1.4685658675483246,0.0,1.329810619354248,-2.3484437465667725,-0.0,1.7724623680114746,5.266307997494497,0.0,0.27847251296043396,-1.5972612539874476,0.0,-0.0019072925206273794,0.6365169882774353,-0.0,0.01279283408075571,0.7328412532806396,0.0,0.04676666855812073
492.0,454.0,-0.0305,0.4158,9.6018,-0.0391,0.0199,-0.1106,-1.4685460192016144,0.0,1.317133903503418,-2.3483831882476807,-0.0,1.757653832435608,5.266315924912252,0.0,0.27624213695526123,-1.5973060766803187,0.0,-0.014889542013406754,0.6365412473678589,-0.0,0.0003036157286260277,0.7328330874443054,0.0,0.002567304065451026
492.0,454.0,-0.0305,0.4158,9.6018,-0.0391,0.0199,-0.1106,-1.46853809923444,0.0,1.3160583972930908,-2.3484151363372803,-0.0,1.7909519672393799,5.266319918423452,0.0,0.2856763005256653,-1.5972979704486292,0.0,0.0021426177117973566,0.6365211009979248,-0.0,-0.010473206639289856,0.7328775525093079,0.0,-0.0010378859005868435
492.0,454.0,-0.0305,0.4158,9.6018,-0.0391,0.0199,-0.1106,-1.4685499754599114,0.0,1.3266901969909668,-2.348395586013794,-0.0,1.7665116786956787,5.266312169819631,0.0,0.29047489166259766,-1.5972698370562952,0.0,-0.011507416144013405,0.636457085609436,-0.0,-0.0019002938643097878,0.7328574061393738,0.0,0.021548349410295486
492.0,454.0,-0.0305,0.4158,9.6018,-0.0391,0.0199,-0.1106,-1.468557932679989,0.0,1.2784080505371094,-2.348419189453125,-0.0,1.7704441547393799,5.266292083054342,0.0,0.28460878133773804,-1.597285572682516,0.0,-0.021363742649555206,0.6365010142326355,-0.0,-0.011141939088702202,0.7328656315803528,0.0,-0.040822938084602356
8190.0,513.0,0.0167,0.408,9.533,-0.0345,0.0121,-0.1009,-1.468553976421692,0.0,1.3294057846069336,-2.3484315872192383,-0.0,1.7859313488006592,5.2663001892860315,0.0,0.287286639213562,-1.5972941557513636,0.0,-0.01656338945031166,0.6365493535995483,-0.0,0.004117474891245365,0.7328453660011292,0.0,-0.03087361715734005
8190.0,513.0,0.0167,0.408,9.533,-0.0345,0.0121,-0.1009,-1.4685180646232148,0.0,1.3305431604385376,-2.3484232425689697,-0.0,1.775996208190918,5.266307997494497,0.0,0.29186004400253296,-1.5972941557513636,0.0,-0.004955729935318232,0.6364853382110596,-0.0,-0.00423411512747407,0.7329019904136658,0.0,0.022457614541053772
8190.0,513.0,0.0167,0.408,9.533,-0.0345,0.0121,-0.1009,-1.4685858947089692,0.0,1.2948024272918701,-2.348419189453125,-0.0,1.7564308643341064,5.266352164536276,0.0,0.2734140157699585,-1.5973060766803187,0.0,-0.012998067773878574,0.6365411877632141,-0.0,0.0020848819985985756,0.7328692674636841,0.0,-0.018767427653074265
8190.0,513.0,0.0167,0.408,9.533,-0.0345,0.0121,-0.1009,-1.4685898509672661,0.0,1.3401621580123901,-2.3484480381011963,-0.0,1.7361977100372314,5.266288089543142,0.0,0.28887736797332764,-1.5972779432879847,0.0,-0.015053932555019855,0.6364530324935913,-0.0,-0.009425535798072815,0.7328371405601501,0.0,-0.047222260385751724
8190.0,513.0,0.0167,0.408,9.533,-0.0345,0.0121,-0.1009,-1.4685340982726593,0.0,1.319640040397644,-2.3484232425689697,-0.0,1.7789435386657715,5.26635621765212,0.0,0.2803724408149719,-1.5973103682147425,0.0,-0.009982840158045292,0.6365531086921692,-0.0,-0.00522712292149663,0.7328535914421082,0.0,-0.025367215275764465
8190.0,513.0,0.0167,0.408,9.533,-0.0345,0.0121,-0.1009,-1.4685699951699753,0.0,1.3060295581817627,-2.348395586013794,-0.0,1.7214219570159912,5.266312169819631,0.0,0.2877998948097229,-1.5972698370562952,0.0,-0.007888490334153175,0.6365170478820801,-0.0,-0.0020133471116423607,0.7328251004219055,0.0,0.00447419099509716
8190.0,513.0,0.0167,0.408,9.533,-0.0345,0.0121,-0.1009,-1.468557932679989,0.0,1.3149855136871338,-2.3484349250793457,-0.0,1.7928876876831055,5.266340243607321,0.0,0.2813979387283325,-1.597257439290182,0.0,-0.0037585818208754063,0.6364772915840149,-0.0,0.0047702481970191,0.7328652143478394,0.0,0.03887183964252472
8190.0,513.0,0.0167,0.408,9.533,-0.0345,0.0121,-0.1009,-1.46853809923444,0.0,1.3047666549682617,-2.3484151363372803,-0.0,1.7222130298614502,5.266336190491476,0.0,0.2865576148033142,-1.597302261983053,0.0,-0.002170916646718979,0.6364806294441223,-0.0,0.0014260124880820513,0.7328693270683289,0.0,0.06679321825504303
8190.0,513.0,0.0167,0.408,9.533,-0.0345,0.0121,-0.1009,-1.468553976421692,0.0,1.3254053592681885,-2.348371744155884,-0.0,1.7881321907043457,5.266368078976431,0.0,0.28214794397354126,-1.5972541014300745,0.0,-0.003572215558961034,0.6365047693252563,-0.0,-0.023091688752174377,0.7328652143478394,0.0,-0.025859717279672623
8190.0,513.0,0.0167,0.408,9.533,-0.0345,0.0121,-0.1009,-1.468593844478466,0.0,1.3149858713150024,-2.348391532897949,-0.0,1.7446956634521484,5.266340243607321,0.0,0.29123419523239136,-1.597253147755758,0.0,-0.004705279134213924,0.6364813446998596,-0.0,-0.002631760435178876,0.7328532934188843,0.0,-0.06355023384094238
8190.0,513.0,0.0167,0.408,9.533,-0.0345,0.0121,-0.1009,-1.4685420480421563,0.0,1.3649009466171265,-2.348379135131836,-0.0,1.7626410722732544,5.266307997494497,0.0,0.2760206460952759,-1.5972860495196741,0.0,-0.010805702768266201,0.6365412473678589,-0.0,0.007804695051163435,0.7328895330429077,0.0,0.03387138620018959
8190.0,513.0,0.0167,0.408,9.533,-0.0345,0.0121,-0.1009,-1.4685261037996789,0.0,1.3173906803131104,-2.3483595848083496,-0.0,1.7845526933670044,5.26636033037261,0.0,0.29253026843070984,-1.5972698370562952,0.0,-0.008939164690673351,0.6364489793777466,-0.0,-0.0036805346608161926,0.7328775525093079,0.0,-0.011049119755625725
8190.0,513.0,0.0167,0.408,9.533,-0.0345,0.0121,-0.1009,-1.4685420554927369,0.0,1.2976281642913818,-2.3484349250793457,-0.0,1.8054962158203125,5.26634435632781,0.0,0.2675628066062927,-1.5972779432879847,0.0,-0.004514160566031933,0.6365169882774353,-0.0,0.0039845844730734825,0.7328692674636841,0.0,0.04039453715085983
8190.0,513.0,0.0167,0.408,9.533,-0.0345,0.0121,-0.1009,-1.46853809923444,0.0,1.32622492313385,-2.3483996391296387,-0.0,1.7779544591903687,5.266360270767965,0.0,0.27749454975128174,-1.5972698370562952,0.0,-0.017826758325099945,0.6365252733230591,-0.0,-0.016649581491947174,0.732820987701416,0.0,-0.056185126304626465
478.0,435.0,0.0281,0.4259,9.5396,-0.0333,0.0296,-0.1177,-1.4685061883977433,0.0,1.3293907642364502,-2.348435878753662,-0.0,1.7312211990356445,5.266328084259786,0.0,0.27911707758903503,-1.5972736517535608,0.0,0.0007691944483667612,0.6364966034889221,-0.0,-0.01738259382545948,0.7328532934188843,0.0,-0.0072495536878705025
478.0,435.0,0.0281,0.4259,9.5396,-0.0333,0.0296,-0.1177,-1.4685420554927369,0.0,1.2794668674468994,-2.348443031311035,-0.0,1.8077988624572754,5.266307997494497,0.0,0.2852694094181061,-1.5972655455218714,0.0,-0.0022007040679454803,0.6365130543708801,-0.0,0.015758493915200233,0.7328692674636841,0.0,-0.01407642476260662
478.0,435.0,0.0281,0.4259,9.5396,-0.0333,0.0296,-0.1177,-1.4685220581344147,0.0,1.2936882972717285,-2.3484036922454834,-0.0,1.7057983875274658,5.266336190491476,0.0,0.2911278307437897,-1.5972779432879847,0.0,0.00046953256241977215,0.6364887952804565,-0.0,-0.005374609958380461,0.7328775525093079,0.0,-0.020075982436537743
478.0,435.0,0.0281,0.4259,9.5396,-0.0333,0.0296,-0.1177,-1.468553976421692,0.0,1.3373897075653076,-2.3483996391296387,-0.0,1.7053947448730469,5.266352164536276,0.0,0.2783844769001007,-1.5972335974322718,0.0,-0.01223614253103733,0.6364887356758118,-0.0,-0.01570809632539749,0.7328692674636841,0.0,0.0019879320170730352
478.0,435.0,0.0281,0.4259,9.5396,-0.0333,0.0296,-0.1177,-1.4685499754599114,0.0,1.291190266609192,-2.348402976989746,-0.0,1.7863285541534424,5.26637630441741,0.0,0.286460280418396,-1.5972698370562952,0.0,0.003675807500258088,0.6365534067153931,-0.0,-0.00816617626696825,0.7328330874443054,0.0,0.03397383168339729
478.0,435.0,0.0281,0.4259,9.5396,-0.0333,0.0296,-0.1177,-1.4685539689711113,0.0,1.2744262218475342,-2.3484275341033936,-0.0,1.723259449005127,5.266372132092275,0.0,0.2821529805660248,-1.5972698370562952,0.0,-0.01483929343521595,0.6365007162094116,-0.0,0.0054359957575798035,0.7328895926475525,0.0,0.015059895813465118
478.0,435.0,0.0281,0.4259,9.5396,-0.0333,0.0296,-0.1177,-1.4685700175217171,0.0,1.331176519393921,-2.34844708442688,-0.0,1.7813432216644287,5.266364085465231,0.0,0.28032180666923523,-1.5972860495196741,0.0,-0.005573189817368984,0.6364929676055908,-0.0,-0.001279948279261589,0.7328652143478394,0.0,-0.016589239239692688
478.0,435.0,0.0281,0.4259,9.5396,-0.0333,0.0296,-0.1177,-1.4685340982726593,0.0,1.3378005027770996,-2.348355293273926,-0.0,1.7632139921188354,5.266336190491476,0.0,0.2836874723434448,-1.5972779432879847,0.0,-0.004447104409337044,0.6365489959716797,-0.0,0.002672037575393915,0.7328896522521973,0.0,-0.005625070072710514
478.0,435.0,0.0281,0.4259,9.5396,-0.0333,0.0296,-0.1177,-1.468546026652195,0.0,1.377882719039917,-2.348407030105591,-0.0,1.749678611755371,5.266356158047476,0.0,0.2753428518772125,-1.5972898642169397,0.0,-0.005161321256309748,0.6365007162094116,-0.0,-0.00693273451179266,0.7329016327857971,0.0,-0.0029758047312498093
478.0,435.0,0.0281,0.4259,9.5396,-0.0333,0.0296,-0.1177,-1.468557932679989,0.0,1.30938720703125,-2.3484110832214355,-0.0,1.7666027545928955,5.266332137375631,0.0,0.28182685375213623,-1.5973098913775843,0.0,-0.007723863236606121,0.6364690065383911,-0.0,-0.006377875804901123,0.7328813672065735,0.0,-0.01365677174180746
478.0,435.0,0.0281,0.4259,9.5396,-0.0333,0.0296,-0.1177,-1.468573973780014,0.0,1.3363187313079834,-2.3484151363372803,-0.0,1.757778286933899,5.266348171025076,0.0,0.29598289728164673,-1.5972335974322718,0.0,-0.02060471661388874,0.6364929676055908,-0.0,-0.009997094050049782,0.7328330874443054,0.0,0.015902187675237656
478.0,435.0,0.0281,0.4259,9.5396,-0.0333,0.0296,-0.1177,-1.46856194109235,0.0,1.3410944938659668,-2.3484275341033936,-0.0,1.7314214706420898,5.266392695694723,0.0,0.2762974500656128,-1.5972898642169397,0.0,-0.008739959448575974,0.6365572810173035,-0.0,0.0002955617383122444,0.7328615188598633,0.0,0.02369881235063076
478.0,435.0,0.0281,0.4259,9.5396,-0.0333,0.0296,-0.1177,-1.468577930038311,0.0,1.361114501953125,-2.3484315872192383,-0.0,1.7629482746124268,5.266328084259786,0.0,0.28522366285324097,-1.597269360219137,0.0,-0.01480888295918703,0.6364530324935913,-0.0,0.007459606975317001,0.7328532934188843,0.0,0.022120453417301178
448.0,8190.0,0.0066,0.4307,9.5761,-0.0362,0.0302,-0.1226,-1.4685180646232148,0.0,1.34776771068573,-2.3483989238739014,-0.0,1.7739858627319336,5.266372132092275,0.0,0.29529425501823425,-1.5972822348224085,0.0,0.005563624668866396,0.6364693641662598,-0.0,-0.0034320377744734287,0.7328813672065735,0.0,0.02967609278857708
448.0,8190.0,0.0066,0.4307,9.5761,-0.0362,0.0302,-0.1226,-1.4685180646232148,0.0,1.3633676767349243,-2.348419427871704,-0.0,1.7553799152374268,5.266328084259786,0.0,0.2768768072128296,-1.5973060766803187,0.0,-0.020259452983736992,0.6364887356758118,-0.0,0.011256281286478043,0.7328692674636841,0.0,-0.021359147503972054
448.0,8190.0,0.0066,0.4307,9.5761,-0.0362,0.0302,-0.1226,-1.468554103081562,0.0,1.310166835784912,-2.3484232425689697,-0.0,1.7901561260223389,5.266312110214987,0.0,0.294129341840744,-1.5973218123065394,0.0,0.00018213922157883644,0.6364772915840149,-0.0,0.007668960839509964,0.7328854203224182,0.0,0.014791911467909813
448.0,8190.0,0.0066,0.4307,9.5761,-0.0362,0.0302,-0.1226,-1.4685858947089692,0.0,1.363154649734497,-2.348391532897949,-0.0,1.7674555778503418,5.266320574074545,0.0,0.28875166177749634,-1.5972698370562952,0.0,-0.009268209338188171,0.6365211606025696,-0.0,0.0058980416506528854,0.7328895926475525,0.0,0.014866650104522705
448.0,8190.0,0.0066,0.4307,9.5761,-0.0362,0.0302,-0.1226,-1.4686020922711869,0.0,1.2804615497589111,-2.3484151363372803,-0.0,1.7552814483642578,5.266308295517721,0.0,0.28007686138153076,-1.597253147755758,0.0,-0.008944615721702576,0.636457085609436,-0.0,-0.004905856680124998,0.732877254486084,0.0,0.02837720513343811
448.0,8190.0,0.0066,0.4307,9.5761,-0.0362,0.0302,-0.1226,-1.4685700175217171,0.0,1.3045623302459717,-2.3483874797821045,-0.0,1.7802387475967407,5.266312110214987,0.0,0.2825416326522827,-1.5972774664508265,0.0,-0.013618594966828823,0.6364887356758118,-0.0,0.005443210247904062,0.732885479927063,0.0,-0.017720099538564682
448.0,8190.0,0.0066,0.4307,9.5761,-0.0362,0.0302,-0.1226,-1.4686059740236779,0.0,1.2964179515838623,-2.348379135131836,-0.0,1.7477514743804932,5.266332435398855,0.0,0.28480422496795654,-1.5973299185382288,0.0,-0.006083110347390175,0.6364731192588806,-0.0,-0.008702152408659458,0.7328813672065735,0.0,-0.042862385511398315
448.0,8190.0,0.0066,0.4307,9.5761,-0.0362,0.0302,-0.1226,-1.4685779374888916,0.0,1.3466413021087646,-2.3483831882476807,-0.0,1.732703447341919,5.266320216446676,0.0,0.2772138714790344,-1.5973218123065394,0.0,-0.0034079840406775475,0.6364935636520386,-0.0,0.0004924708046019077,0.7328814268112183,0.0001685849711066112,-0.005719341337680817
448.0,8190.0,0.0066,0.4307,9.5761,-0.0362,0.0302,-0.1226,-1.4686059591225167,0.0,1.3333803415298462,-2.348463773727417,-0.0,1.741798758506775,5.266296136170187,0.0,0.2773250341415405,-1.5973261038409632,0.0,-0.01269911415874958,0.6365610361099243,-0.0,-0.00394790293648839,0.7328731417655945,0.00014665753406006843,-0.04117479920387268
448.0,8190.0,0.0066,0.4307,9.5761,-0.0362,0.0302,-0.1226,-1.4685941350511094,0.0,1.3186168670654297,-2.3484113216400146,-0.0,1.8242560625076294,5.266288268357076,0.0,0.2939951717853546,-1.5972774664508265,0.0,-0.01282260287553072,0.6364772915840149,-0.0,0.004620235413312912,0.7328611016273499,0.0001335955603281036,-0.013300600461661816
448.0,8190.0,0.0066,0.4307,9.5761,-0.0362,0.0302,-0.1226,-1.4685900968364258,0.0,1.31778883934021,-2.348439931869507,-0.0,1.7274541854858398,5.266251671105184,0.0,0.27989980578422546,-1.5973098913775843,0.0,-0.016094639897346497,0.6364966034889221,-0.0,-0.0013252072967588902,0.7328895926475525,0.00012266993871890008,0.020658548921346664
448.0,8190.0,0.0066,0.4307,9.5761,-0.0362,0.0302,-0.1226,-1.468558022086956,0.0,1.3576141595840454,-2.3484315872192383,-0.0,1.7824915647506714,5.266292321472921,0.0,0.2753061354160309,-1.5972817579852503,0.0,0.0038476826157420874,0.6365453600883484,-0.0,0.0002978286938741803,0.7328289151191711,0.0001327309146290645,-0.014330518431961536
448.0,8190.0,0.0066,0.4307,9.5761,-0.0362,0.0302,-0.1226,-1.468554065828659,0.0,1.2603521347045898,-2.3484389781951904,-0.0,1.7641186714172363,5.2663404820259,0.0,0.2861129939556122,-1.5972941557513636,0.0,-0.011458201333880424,0.6364407539367676,-0.0,-0.006095937918871641,0.7328851819038391,0.0001236155949300155,0.041460759937763214
448.0,8190.0,0.0066,0.4307,9.5761,-0.0362,0.0302,-0.1226,-1.468598061507084,0.0,1.3332011699676514,-2.348435640335083,-0.0,1.7814542055130005,5.266304600029745,0.0,0.2830933928489685,-1.5972612539874476,0.0,-0.011564504355192184,0.6365007162094116,-0.0,-0.008403533138334751,0.7328247427940369,0.00011567170440685004,0.031247826293110847
468.0,8190.0,0.0443,0.6646,9.6341,-0.0279,0.0133,-0.1129,-1.4685818788460274,0.0,1.3387377262115479,-2.3483636379241943,-0.0,1.7462983131408691,5.266255724221029,0.0,0.28083986043930054,-1.5972936789142054,0.0,-0.004441277589648962,0.6364530324935913,-0.0,-0.015101123601198196,0.7329255938529968,0.0001065428223228082,-0.02703138068318367
468.0,8190.0,0.0443,0.6646,9.6341,-0.0279,0.0133,-0.1129,-1.468585879807808,0.0,1.349954605102539,-2.348419427871704,-0.0,1.7413909435272217,5.266320216446676,0.0,0.2887427806854248,-1.5973017851458948,0.0,-0.012185584753751755,0.6365572810173035,-0.0,-0.0010758665157482028,0.7328934073448181,0.00010058897896669805,0.009584447368979454
468.0,8190.0,0.0443,0.6646,9.6341,-0.0279,0.0133,-0.1129,-1.4685738992742081,0.0,1.352674961090088,-2.348419427871704,-0.0,1.8015944957733154,5.266308295517721,0.0,0.2731870114803314,-1.5972898642169397,0.0,-0.015521831810474396,0.6364772915840149,-0.0,0.000658117700368166,0.7328892946243286,0.00011114002700196579,-0.00255790539085865
468.0,8190.0,0.0443,0.6646,9.6341,-0.0279,0.0133,-0.1129,-1.4685580071857949,0.0,1.2918128967285156,-2.3484151363372803,-0.0,1.729920744895935,5.266340184002676,0.0,0.2778811454772949,-1.5973098913775843,0.0,-0.005728372372686863,0.6365089416503906,-0.0,0.0006299203960224986,0.732877254486084,5.209833398112096e-05,0.05781030282378197
468.0,8190.0,0.0443,0.6646,9.6341,-0.0279,0.0133,-0.1129,-1.4685579997352143,0.0,1.3322809934616089,-2.348402976989746,-0.0,1.7726202011108398,5.266324269562521,0.0,0.27860039472579956,-1.5972979704486292,0.0,-0.008137542754411697,0.636484682559967,-0.0,-0.006532445549964905,0.7328775525093079,-0.00016894542204681784,0.004534057807177305
468.0,8190.0,0.0443,0.6646,9.6341,-0.0279,0.0133,-0.1129,-1.468585917060711,0.0,1.3299682140350342,-2.348379135131836,-0.0,1.7266901731491089,5.266348409443655,0.0,0.2889132499694824,-1.5972612539874476,0.0,-0.013051272369921207,0.6365493535995483,-0.0,-0.004012897610664368,0.7329016327857971,-0.00010809993545990437,0.041165437549352646
468.0,8190.0,0.0443,0.6646,9.6341,-0.0279,0.0133,-0.1129,-1.4685579252294083,0.0,1.290018081665039,-2.348395586013794,-0.0,1.7492440938949585,5.266336130886831,0.0,0.2898910939693451,-1.5972655455218714,0.0,-0.007473683916032314,0.6365009546279907,-0.0,-0.01231807004660368,0.7328813672065735,-7.945406105136499e-05,0.020083850249648094
468.0,8190.0,0.0443,0.6646,9.6341,-0.0279,0.0133,-0.1129,-1.4685220581344147,0.0,1.352873682975769,-2.348435640335083,-0.0,1.7602720260620117,5.266320276051321,0.0,0.2912973463535309,-1.597318474446432,0.0,0.00037183379754424095,0.6364731192588806,-0.0,-0.0007743390742689371,0.732820987701416,-0.00011741700291167945,-0.034651290625333786
468.0,8190.0,0.0443,0.6646,9.6341,-0.0279,0.0133,-0.1129,-1.4685460415533562,0.0,1.3308640718460083,-2.3484349250793457,-0.0,1.750673532485962,5.266332137375631,0.0,0.28325074911117554,-1.597245995198385,0.0,-0.012453332543373108,0.6364612579345703,-0.0,-0.002825866686180234,0.7328693270683289,-9.820589184528217e-05,0.03937815874814987
468.0,8190.0,0.0443,0.6646,9.6341,-0.0279,0.0133,-0.1129,-1.4685301569155236,0.0,1.3189277648925781,-2.348407030105591,-0.0,1.792860746383667,5.266312110214987,0.0,0.28548046946525574,-1.5972417036639612,0.0,-0.008623899891972542,0.6365330219268799,-0.0,0.0064280834048986435,0.732877254486084,-8.439147495664656e-05,0.013874474912881851
468.0,8190.0,0.0443,0.6646,9.6341,-0.0279,0.0133,-0.1129,-1.4685420554927369,0.0,1.3181235790252686,-2.348402976989746,-0.0,1.7529056072235107,5.266304003983297,0.0,0.28261566162109375,-1.5973098913775843,0.0,-0.008370889350771904,0.636484682559967,-0.0,0.003669049357995391,0.73284512758255,-0.00010609899618430063,-0.048712391406297684
468.0,8190.0,0.0443,0.6646,9.6341,-0.0279,0.0133,-0.1129,-1.4685340908220788,0.0,1.3681479692459106,-2.3484151363372803,-0.0,1.7757723331451416,5.2662720558936975,0.0,0.2824140787124634,-1.5972822348224085,0.0,-0.013474218547344208,0.6365047693252563,-0.0,-0.004127359949052334,0.7328652143478394,-9.530672105029225e-05,0.059267401695251465
468.0,8190.0,0.0443,0.6646,9.6341,-0.0279,0.0133,-0.1129,-1.4685739812305947,0.0,1.343947410583496,-2.3484315872192383,-0.0,1.7776281833648682,5.266352164536276,0.0,0.28372687101364136,-1.5972736517535608,0.0,-0.003694526618346572,0.6365007162094116,-0.0,-0.013759462162852287,0.732885479927063,-8.618024730822071e-05,-0.022241143509745598
487.0,8190.0,0.055,0.5683,9.6329,-0.0472,0.0235,-0.1249,-1.4685579177788277,0.0,1.3324546813964844,-2.348430871963501,-0.0,1.7780323028564453,5.266316163330831,0.0,0.2761746346950531,-1.5972498098956507,0.0,-0.0032139415852725506,0.6364772915840149,-0.0,0.0042495871894061565,0.732869029045105,-0.0001018972325255163,-0.009096147492527962
487.0,8190.0,0.055,0.5683,9.6329,-0.0472,0.0235,-0.1249,-1.468566009109356,0.0,1.3340376615524292,-2.3484556674957275,-0.0,1.7359521389007568,5.266348409443655,0.0,0.28123384714126587,-1.5972779432879847,0.0,-0.021131012588739395,0.6365413069725037,-0.0,-0.019624805077910423,0.7328412532806396,-9.392177889822051e-05,0.009442107751965523
487.0,8190.0,0.055,0.5683,9.6329,-0.0472,0.0235,-0.1249,-1.4685579252294083,0.0,1.3308720588684082,-2.348443031311035,-0.0,1.7967913150787354,5.266332137375631,0.0,0.2757577896118164,-1.5972417036639612,0.0,-0.017704173922538757,0.6365007162094116,-0.0,0.002000550739467144,0.7328652143478394,-8.710433030501008e-05,-0.0006714240880683064
487.0,8190.0,0.055,0.5683,9.6329,-0.0472,0.0235,-0.1249,-1.4685539913228531,0.0,1.334182620048523,-2.348443031311035,-0.0,1.7574071884155273,5.26636432388381,0.0,0.28097274899482727,-1.5972417036639612,0.0,-0.01236959733068943,0.6364731192588806,-0.0,0.005581771954894066,0.7328453660011292,-8.120943675749004e-05,0.051658548414707184
487.0,8190.0,0.055,0.5683,9.6329,-0.0472,0.0235,-0.1249,-1.4685341280749817,0.0,1.3379287719726562,-2.3484678268432617,-0.0,1.7827106714248657,5.266340184002676,0.0,0.2905767858028412,-1.5972698370562952,0.0,-0.027764994651079178,0.6365170478820801,-0.0,-0.0002669980749487877,0.7328330874443054,-0.00010061946522910148,0.00873045064508915
487.0,8190.0,0.055,0.5683,9.6329,-0.0472,0.0235,-0.1249,-1.468570002620556,0.0,1.3195092678070068,-2.3484275341033936,-0.0,1.7258524894714355,5.266352164536276,0.0,0.28909704089164734,-1.5972655455218714,0.0,-0.014627036638557911,0.6364812850952148,-0.0,-0.009068435989320278,0.7328492403030396,-9.430689533473924e-05,-0.05697362869977951
487.0,8190.0,0.055,0.5683,9.6329,-0.0472,0.0235,-0.1249,-1.4685660165599366,0.0,1.3438917398452759,-2.3484554290771484,-0.0,1.7598458528518677,5.266316163330831,0.0,0.2935514450073242,-1.5972541014300745,0.0,-0.007711916230618954,0.6364449262619019,-0.0,0.004106211010366678,0.7328289747238159,-8.872837497619912e-05,-0.03618640825152397
487.0,8190.0,0.055,0.5683,9.6329,-0.0472,0.0235,-0.1249,-1.4685460043004532,0.0,1.3673663139343262,-2.3484110832214355,-0.0,1.7951812744140625,5.266320216446676,0.0,0.28461360931396484,-1.597245995198385,0.0,-0.013262705877423286,0.6365453600883484,-0.0,-0.0025479570031166077,0.7328895926475525,-8.224213524954394e-05,-0.02350940927863121
487.0,8190.0,0.055,0.5683,9.6329,-0.0472,0.0235,-0.1249,-1.468581886296608,0.0,1.344437599182129,-2.3484275341033936,-0.0,1.7733206748962402,5.266316163330831,0.0,0.29041650891304016,-1.5972498098956507,0.0,-0.009290942922234535,0.6365089416503906,-0.0,-0.013325762003660202,0.7328652143478394,-7.796735735610127e-05,0.013440622016787529
487.0,8190.0,0.055,0.5683,9.6329,-0.0472,0.0235,-0.1249,-1.4685460490039368,0.0,1.328650951385498,-2.3484389781951904,-0.0,1.79727041721344,5.266312110214987,0.0,0.2874465584754944,-1.5972374121295374,0.0,-0.003946350887417793,0.6365010142326355,-0.0,-0.00308903562836349,0.7328854203224182,-7.411500700982288e-05,-0.0012767976149916649
487.0,8190.0,0.055,0.5683,9.6329,-0.0472,0.0235,-0.1249,-1.4686020475677033,0.0,1.309102177619934,-2.3484315872192383,-0.0,1.7147095203399658,5.266316163330831,0.0,0.286393940448761,-1.5972736517535608,0.0,-0.01071177702397108,0.6365170478820801,-0.0,-0.01561163179576397,0.7328492403030396,-5.562822479987517e-05,-0.0022992994636297226
487.0,8190.0,0.055,0.5683,9.6329,-0.0472,0.0235,-0.1249,-1.468598098759987,0.0,1.3016550540924072,-2.348419427871704,-0.0,1.803223967552185,5.266251671105184,0.0,0.2764456570148468,-1.5972979704486292,0.0,-0.011256685480475426,0.6365370750427246,-0.0,0.005464949179440737,0.732877254486084,-5.31629630131647e-05,0.009554831311106682
487.0,8190.0,0.055,0.5683,9.6329,-0.0472,0.0235,-0.1249,-1.4685779374888916,0.0,1.3541834354400635,-2.3484315872192383,-0.0,1.7832481861114502,5.266316222935476,0.0,0.2827551066875458,-1.5972779432879847,0.0,-0.006886043585836887,0.6365412473678589,-0.0,-0.004939300008118153,0.7329016327857971,-5.0907630793517455e-05,-0.01038307137787342
487.0,8190.0,0.055,0.5683,9.6329,-0.0472,0.0235,-0.1249,-1.468554103081562,0.0,1.3829388618469238,-2.3483753204345703,-0.0,1.7870523929595947,5.2663165209587,0.0,0.2661266326904297,-1.5973098913775843,0.0,-0.014666711911559105,0.6365330219268799,-0.0,-0.01120474748313427,0.7328975200653076,-3.613672379287891e-05,-0.0015789112076163292
487.0,8190.0,-0.0024,0.384,9.734,-0.0415,0.0153,-0.119,-1.4685739141753693,0.0,1.3242889642715454,-2.3484275341033936,-0.0,1.7725844383239746,5.266300606518545,0.0,0.28420281410217285,-1.5972655455218714,0.0,-0.0032121725380420685,0.6364724636077881,-0.0,-0.0026876258198171854,0.7328934073448181,4.176484435447492e-05,0.0003721201792359352
487.0,8190.0,-0.0024,0.384,9.734,-0.0415,0.0153,-0.119,-1.4685580444386979,0.0,1.30934739112854,-2.3484883308410645,-0.0,1.7716684341430664,5.2663365481193445,0.0,0.26204895973205566,-1.5972860495196741,0.0,-0.0037472997792065144,0.636561393737793,-0.0,-0.0012523510958999395,0.7328409552574158,7.164448470575735e-05,0.015060504898428917
487.0,8190.0,-0.0024,0.384,9.734,-0.0415,0.0153,-0.119,-1.4685980689576645,0.0,1.3420807123184204,-2.348407745361328,-0.0,1.7763558626174927,5.266255783825674,0.0,0.263119101524353,-1.5973098913775843,0.0,0.0011765967356041074,0.6364772915840149,-0.0,-0.007277508731931448,0.7328652143478394,6.639501225436106e-05,-0.037329353392124176
487.0,8190.0,-0.0024,0.384,9.734,-0.0415,0.0153,-0.119,-1.4686260160854836,0.0,1.3034017086029053,-2.3484275341033936,-0.0,1.7655391693115234,5.266300248890676,0.0,0.28246477246284485,-1.5972736517535608,0.0,-0.0034365460742264986,0.6364765763282776,-0.0,-0.0015053045935928822,0.7328409552574158,7.823831401765347e-05,0.020145470276474953
487.0,8190.0,-0.0024,0.384,9.734,-0.0415,0.0153,-0.119,-1.4685940903476258,0.0,1.31752347946167,-2.34844708442688,-0.0,1.774464726448059,5.266288268357076,0.0,0.2839815616607666,-1.5972417036639612,0.0,-0.0063268570229411125,0.6365330219268799,-0.0,-0.012035706080496311,0.7329136729240417,7.552596798632294e-05,0.009057530201971531
487.0,8190.0,-0.0024,0.384,9.734,-0.0415,0.0153,-0.119,-1.468581886296608,0.0,1.3314120769500732,-2.3483948707580566,-0.0,1.7167112827301025,5.266308295517721,0.0,0.2932496666908264,-1.5973261038409632,0.0,-0.0006034225225448608,0.6364731192588806,-0.0,0.0027774786576628685,0.7328492403030396,7.105396798579022e-05,0.031736429780721664
487.0,8190.0,-0.0024,0.384,9.734,-0.0415,0.0153,-0.119,-1.4686099898866196,-9.601056081010029e-05,1.289982557296753,-2.348395586013794,-0.0,1.7411330938339233,5.266308295517721,-3.9219052268890664e-05,0.2665303349494934,-1.5972941557513636,0.0,-0.009599214419722557,0.6364970207214355,-0.0,0.0008658797014504671,0.7329132556915283,8.747738320380449e-05,-0.006393739487975836
487.0,8190.0,-0.0024,0.384,9.734,-0.0415,0.0153,-0.119,-1.4685220581344147,-4.308625648263842e-05,1.3649682998657227,-2.3484389781951904,-0.0,1.7681305408477783,5.266292321472921,-4.556286512524821e-05,0.2835448682308197,-1.597257439290182,0.0,-0.0044412799179553986,0.6365129947662354,-0.0,-0.0009641370270401239,0.7328692674636841,7.634588837390766e-05,-0.008789239451289177
487.0,8190.0,-0.0024,0.384,9.734,-0.0415,0.0153,-0.119,-1.468570002620556,-3.63764374924358e-05,1.3695108890533447,-2.3484110832214355,-0.0,1.7674155235290527,5.26634435632781,-4.2349394789198413e-05,0.28357994556427,-1.5972736517535608,0.0,-0.013820665888488293,0.6365371346473694,-0.0,-0.0038555911742150784,0.7328813672065735,6.772748747607693e-05,-0.0016067593824118376
487.0,8190.0,-0.0024,0.384,9.734,-0.0415,0.0153,-0.119,-1.4685340982726593,-3.13135860778857e-05,1.3336365222930908,-2.348407030105591,-0.0,1.7798142433166504,5.2663001892860315,-3.870656291837804e-05,0.28154146671295166,-1.597318474446432,0.0,-0.012510806322097778,0.6365088820457458,-0.0,0.009525052271783352,0.732877254486084,5.886733561055735e-05,0.025550108402967453
487.0,8190.0,-0.0024,0.384,9.734,-0.0415,0.0153,-0.119,-1.4685579252294083,-2.8354023015708663e-05,1.3369284868240356,-2.3484275341033936,-0.0,1.7823705673217773,5.266336190491476,-3.636082328739576e-05,0.2891422510147095,-1.597262207661764,0.0,0.0022926856763660908,0.6365252733230591,-0.0,0.010891630314290524,0.7329054474830627,5.360761861084029e-05,-0.015792150050401688
487.0,8190.0,-0.0024,0.384,9.734,-0.0415,0.0153,-0.119,-1.468553976421692,-2.5905528673320077e-05,1.3250373601913452,-2.3484349250793457,-0.0,1.7324093580245972,5.266364741116323,-1.7146641766885296e-05,0.2805231511592865,-1.5972941557513636,0.0,0.000593394273892045,0.6364805698394775,-0.0,0.0008616676786914468,0.7328892946243286,4.921079380437732e-05,0.009509784169495106
487.0,8190.0,-0.0024,0.384,9.734,-0.0415,0.0153,-0.119,-1.4685861480287095,-2.384633080509957e-05,1.3783488273620605,-2.348411798477173,-0.0,1.73040771484375,5.266312110214987,-1.6215060895774513e-05,0.28618472814559937,-1.5972979704486292,0.0,-0.012490792199969292,0.6364805698394775,-0.0,0.0004314533434808254,0.7329054474830627,4.548051583697088e-05,-0.03369469195604324
492.0,428.0,0.1825,0.6173,9.6688,-0.0302,0.0214,-0.12,-1.4685779374888916,-2.156121081497986e-05,1.317477822303772,-2.348391532897949,-0.0,1.758394718170166,5.26634435632781,-1.5125031495699659e-05,0.28369489312171936,-1.5972612539874476,0.0,-0.004139908589422703,0.6365613341331482,-0.0,-0.013164432719349861,0.7329297065734863,4.1305789636680856e-05,0.008143601007759571
492.0,428.0,0.1825,0.6173,9.6688,-0.0302,0.0214,-0.12,-1.4685980689576645,-2.011549804592505e-05,1.3166909217834473,-2.3483636379241943,-0.0,1.7611825466156006,5.266328084259786,-1.4399065548786893e-05,0.28063082695007324,-1.597253147755758,0.0,-0.013552894815802574,0.6364887952804565,-0.0,-0.0018396246014162898,0.7328934073448181,5.796683399239555e-05,0.018469661474227905
492.0,428.0,0.1825,0.6173,9.6688,-0.0302,0.0214,-0.12,-1.468573973780014,-1.885147503344342e-05,1.301715612411499,-2.3484315872192383,-0.0,1.7459516525268555,5.266328084259786,-1.3739610949414782e-05,0.2942906320095062,-1.5972779432879847,0.0,-0.006260281428694725,0.6365170478820801,-0.0,0.003643651958554983,0.7328851819038391,5.446034629130736e-05,-0.0019867210648953915
492.0,428.0,0.1825,0.6173,9.6688,-0.0302,0.0214,-0.12,-1.4685738992742081,-2.883961315092165e-05,1.3187096118927002,-2.348379135131836,-0.0,1.7520194053649902,5.266336130886831,-1.2948888070241082e-05,0.2825855016708374,-1.5972979704486292,0.0,0.0022973259910941124,0.6365330219268799,-0.0,0.0005591798690147698,0.7329132556915283,5.0535687478259206e-05,-0.010214691050350666
492.0,428.0,0.1825,0.6173,9.6688,-0.0302,0.0214,-0.12,-1.4685580444386979,-3.288176594651304e-05,1.3297843933105469,-2.3484151363372803,-0.0,1.7223515510559082,5.266307997494497,-1.2413102922437247e-05,0.29242706298828125,-1.5972941557513636,0.0,-0.001084489980712533,0.6364970207214355,-0.0,-0.007932402193546295,0.7328566908836365,9.27271248656325e-05,-0.022297145798802376
492.0,428.0,0.1825,0.6173,9.6688,-0.0302,0.0214,-0.12,-1.4685941276005288,-3.1173382012639195e-05,1.291398286819458,-2.348407745361328,-0.0,1.7662653923034668,5.266316163330831,-1.1919897588086314e-05,0.29185235500335693,-1.5972541014300745,0.0,-0.012638007290661335,0.6365007162094116,-0.0,0.014062677510082722,0.7328811287879944,0.0006475078989751637,-0.04961629956960678
492.0,428.0,0.1825,0.6173,9.6688,-0.0302,0.0214,-0.12,-1.4685861405781289,-4.373070260044187e-05,1.3117763996124268,-2.348395347595215,-0.0,1.7124176025390625,5.266328024655142,-1.1320186786178965e-05,0.29047274589538574,-1.5972655455218714,0.0,-0.01438692957162857,0.6365170478820801,-0.0,0.00013531744480133057,0.7329009175300598,0.0005769456038251519,0.07071220874786377
492.0,428.0,0.1825,0.6173,9.6688,-0.0302,0.0214,-0.12,-1.4685900968364258,-5.085621160105802e-05,1.3271863460540771,-2.3484036922454834,-0.0,1.7635650634765625,5.266280162125387,-1.0908567674050573e-05,0.2904151380062103,-1.5972498098956507,0.0,-0.004776859190315008,0.6365169882774353,-0.0,0.003959867637604475,0.732925295829773,0.0005438691005110741,0.02647654339671135
492.0,428.0,0.1825,0.6173,9.6688,-0.0302,0.0214,-0.12,-1.468602017765381,-5.314328518579714e-05,1.329972267150879,-2.3484158515930176,-0.0,1.7464491128921509,5.266376244812765,-1.0525827747187577e-05,0.29566487669944763,-1.597314182912008,0.0,-0.01161845214664936,0.6364772915840149,-0.0,0.010608101263642311,0.7329248785972595,0.0005554428207688034,0.06611298769712448
492.0,428.0,0.1825,0.6173,9.6688,-0.0302,0.0214,-0.12,-1.468602017765381,-4.740337681141682e-05,1.329993486404419,-2.348351240158081,0.0005396431661210954,1.7502467632293701,5.266296136170187,-1.0055428901978303e-05,0.2937844395637512,-1.5972612539874476,0.0,-0.010102161206305027,0.6365330219268799,-0.0,-0.0016074726590886712,0.7328886985778809,0.0007359833107329905,-0.028202524408698082
492.0,428.0,0.1825,0.6173,9.6688,-0.0302,0.0214,-0.12,-1.4686420199326058,-7.730645302217454e-05,1.3663586378097534,-2.3483633995056152,0.0004921808722428977,1.7938127517700195,5.266323971539297,-4.239422324303632e-08,0.2807341516017914,-1.5972779432879847,0.0,-0.018788646906614304,0.6364813446998596,-0.0,0.004559619352221489,0.7329529523849487,0.001171660260297358,-0.011128831654787064
492.0,428.0,0.1825,0.6173,9.6688,-0.0302,0.0214,-0.12,-1.4686420050314446,-0.0007197013474069536,1.2892022132873535,-2.3483996391296387,0.00045570271322503686,1.7578462362289429,5.266328084259786,-1.1800588284316404e-11,0.2802921533584595,-1.5972817579852503,0.0,-0.004018034785985947,0.6365534663200378,-0.0,-0.001795303076505661,0.7329570651054382,0.002106775064021349,0.005694502964615822
492.0,428.0,0.1825,0.6173,9.6688,-0.0302,0.0214,-0.12,-1.4686300915530701,-0.0009808174800127745,1.3340623378753662,-2.348411798477173,0.0004214978835079819,1.7337712049484253,5.266332137375631,-3.2847372300029475e-15,0.2798061966896057,-1.597318474446432,0.0,-0.001381221110932529,0.6365047693252563,-0.0,0.0028094942681491375,0.7330051064491272,0.0030840823892503977,0.02140648290514946
492.0,428.0,0.1825,0.6173,9.6688,-0.0302,0.0214,-0.12,-1.468598150914051,-0.0007641905103810132,1.2641079425811768,-2.348383903503418,0.0004699222045019269,1.7647862434387207,5.266328084259786,-5.96984778379587e-20,0.27677011489868164,-1.5973098913775843,0.0,-0.01455184631049633,0.6365048289299011,-0.0,0.004244024865329266,0.73305344581604,0.0059621925465762615,0.04222796857357025
488.0,8190.0,-0.0843,0.463,9.6748,-0.031,0.0272,-0.1139,-1.4686340627125283,-0.0006081397295929492,1.3322713375091553,-2.348412036895752,0.0006586856907233596,1.7653601169586182,5.266332137375631,-1.6617291859608196e-23,0.2953609228134155,-1.5972979704486292,0.0,-0.014544734731316566,0.6364887952804565,-0.0,-0.0066253431141376495,0.7330691814422607,0.006235792301595211,-0.019087007269263268
488.0,8190.0,-0.0843,0.463,9.6748,-0.031,0.0272,-0.1139,-1.4686219778708,-0.0004546127456706017,1.303138256072998,-2.3483994007110596,0.0008415335905738175,1.8007768392562866,5.266328084259786,-4.625484762205436e-27,0.28119343519210815,-1.597302261983053,0.0,-0.011318068020045757,0.636533260345459,-0.0,0.0004584405105561018,0.7331172227859497,0.004017809871584177,-0.0033520227298140526
488.0,8190.0,-0.0843,0.463,9.6748,-0.031,0.0272,-0.1139,-1.468661980038025,-0.00034006673377007246,1.3268613815307617,-2.3483591079711914,0.0012131447438150644,1.759186029434204,5.26636033037261,-8.406590167702219e-32,0.2673095464706421,-1.5972822348224085,0.0,-0.008603446185588837,0.6365613341331482,-0.0,0.0019629579037427902,0.7331494092941284,0.0014937648084014654,0.024605389684438705
488.0,8190.0,-0.0843,0.463,9.6748,-0.031,0.0272,-0.1139,-1.4686380189708252,-0.0003806868917308748,1.3145802021026611,-2.348327159881592,0.0013425295474007726,1.7622431516647339,5.266304242401876,-2.340004745825191e-35,0.2887660264968872,-1.5972498098956507,0.0,-0.020971836522221565,0.6364887356758118,-0.0,0.008043244481086731,0.7331131100654602,0.0006118984892964363,0.04921519011259079
488.0,8190.0,-0.0843,0.463,9.6748,-0.031,0.0272,-0.1139,-1.4686859411052247,-0.00037053885171189904,1.303032636642456,-2.348295211791992,0.0011933021014556289,1.7779872417449951,5.2662842748458765,-6.513488897203793e-39,0.28245389461517334,-1.5972941557513636,0.0,-0.008465958759188652,0.6364893913269043,-0.0,0.013171317987143993,0.7331374883651733,0.00039682647911831737,-0.014903996139764786
488.0,8190.0,-0.0843,0.463,9.6748,-0.031,0.0272,-0.1139,-1.4686459612897416,-0.0011207230854779482,1.3163793087005615,-2.3482744693756104,0.0008186252671293914,1.751295566558838,5.266312110214987,-1.1770907100328463e-43,0.2819375693798065,-1.5972860495196741,0.0,-0.0034034433774650097,0.6365089416503906,-0.0,0.009394190274178982,0.7331254482269287,0.00027536306879483163,-0.028412502259016037
488.0,8190.0,-0.0843,0.463,9.6748,-0.031,0.0272,-0.1139,-1.4687019673040886,-0.0018793185008689761,1.2640712261199951,-2.3483076095581055,0.0007082551601342857,1.782865285873413,5.26634435632781,-0.0,0.2879175841808319,-1.597285572682516,0.0,-0.007245231419801712,0.6365050673484802,-0.0,0.0029652693774551153,0.7330808043479919,0.0002239593304693699,0.006305777933448553
488.0,8190.0,-0.0843,0.463,9.6748,-0.031,0.0272,-0.1139,-1.4687338557890435,-0.001978125888854265,1.328304648399353,-2.348278760910034,0.0009624763042666018,1.7728394269943237,5.2662879703338525,-0.0,0.28661131858825684,-1.597285572682516,0.0,-0.009563885629177094,0.6365010142326355,-0.0,-0.0009064291953109205,0.7331778407096863,0.00018873137014452368,0.010824844241142273
488.0,8190.0,-0.0843,0.463,9.6748,-0.031,0.0272,-0.1139,-1.4687019896558304,-0.0025594786275178194,1.3294007778167725,-2.3483197689056396,0.0008005367126315832,1.8104076385498047,5.266328084259786,-0.0,0.27379104495048523,-1.5973017851458948,0.0,-0.014103780500590801,0.6365252733230591,-0.0,-0.0018982300534844398,0.7331292629241943,0.0001560124655952677,-1.3178214430809021e-05
488.0,8190.0,-0.0843,0.463,9.6748,-0.031,0.0272,-0.1139,-1.468697951441147,-0.0024647715035825968,1.2965829372406006,-2.348295211791992,0.0007761383312754333,1.776285171508789,5.266316163330831,-0.0,0.2876375913619995,-1.5972698370562952,0.0,-0.012296415865421295,0.6364408135414124,-0.0,0.0005448836600407958,0.7331334352493286,4.999326847610064e-05,-0.013391191139817238
488.0,8190.0,-0.0843,0.463,9.6748,-0.031,0.0272,-0.1139,-1.4687298771790047,-0.0019534598104655743,1.3303930759429932,-2.3482825756073,0.0012369435280561447,1.807782530784607,5.266312110214987,-0.0,0.29807743430137634,-1.597285572682516,0.0,-0.01929250918328762,0.6365699172019958,-0.0,-0.000705131096765399,0.7331696152687073,3.382685099495575e-05,-0.015234744176268578
488.0,8190.0,-0.0843,0.463,9.6748,-0.031,0.0272,-0.1139,-1.4687617731145401,-0.001418862259015441,1.301796317100525,-2.3483355045318604,0.0013471139827743173,1.7313427925109863,5.266303884774008,-0.0,0.2803393006324768,-1.5973098913775843,0.0,-0.016692791134119034,0.636457085609436,-0.0,-0.001686847535893321,0.7331131100654602,6.0795897297794e-05,0.06557989120483398
488.0,8190.0,-0.0843,0.463,9.6748,-0.031,0.0272,-0.1139,-1.4687340718558808,-0.0011764254886657,1.3059771060943604,-2.348299026489258,0.0012378636747598648,1.7633702754974365,5.266316163330831,-0.0,0.2860105037689209,-1.5972736517535608,0.0,-0.00438035698607564,0.6365010142326355,-0.0,0.0017061799298971891,0.733113169670105,0.00010604283306747675,0.012793241068720818
8190.0,439.0,0.1525,0.6975,9.3811,-0.026,0.0166,-0.1214,-1.4687539872578164,-0.0014300246257334948,1.3601957559585571,-2.3482918739318848,0.001732541830278933,1.7487988471984863,5.266324269562521,-0.0,0.27715086936950684,-1.5972736517535608,0.0,0.0034129545092582703,0.6365089416503906,-0.0,0.009358781389892101,0.7331936359405518,9.834342199610546e-05,0.001657600048929453
8190.0,439.0,0.1525,0.6975,9.3811,-0.026,0.0166,-0.1214,-1.4687898841551323,-0.0016062939539551735,1.3242392539978027,-2.3482112884521484,0.0025929182302206755,1.7549934387207031,5.266304242401876,-0.0,0.28048568964004517,-1.5973261038409632,0.0,-0.0038476542104035616,0.6364731192588806,-0.0,0.002180751645937562,0.7331252098083496,0.00031982295331545174,-0.018533222377300262
8190.0,439.0,0.1525,0.6975,9.3811,-0.026,0.0166,-0.1214,-1.4688376274755974,-0.001949872588738799,1.3272955417633057,-2.348215341567993,0.003544496139511466,1.764331579208374,5.2662396905715845,-0.0,0.28092527389526367,-1.5973017851458948,0.0,0.00022441567853093147,0.6365047693252563,-0.0,-0.0006271905731409788,0.7331252098083496,0.0006530483951792121,-0.03088630549609661
8190.0,439.0,0.1525,0.6975,9.3811,-0.026,0.0166,-0.1214,-1.4688297000578423,-0.00250041950494051,1.3157167434692383,-2.3481791019439697,0.004508912097662687,1.747586727142334,5.266292321472921,-0.0,0.2711523771286011,-1.5972655455218714,0.0,-0.012584029696881771,0.6365130543708801,-0.0,0.008217807859182358,0.733153223991394,0.0005604249890893698,0.004126737825572491
8190.0,439.0,0.1525,0.6975,9.3811,-0.026,0.0166,-0.1214,-1.4688458678177376,-0.0029131481423974037,1.278991937637329,-2.348123073577881,0.005248682107776403,1.7816872596740723,5.266284215241232,-1.8535004642217245e-07,0.27269983291625977,-1.597253147755758,0.0,0.0054949079640209675,0.6365088820457458,-0.0,-0.00022079143673181534,0.7331573367118835,0.0004812914994545281,-0.03929714113473892
8190.0,439.0,0.1525,0.6975,9.3811,-0.026,0.0166,-0.1214,-1.4689463761499901,-0.004351938609033823,1.3211662769317627,-2.348139524459839,0.006259824149310589,1.7444498538970947,5.2663325546081445,-0.0007326769409701228,0.2816348373889923,-1.597314182912008,0.0,-0.013899732381105423,0.6365576386451721,-0.0,-0.005892446730285883,0.7331412434577942,0.00043093616841360927,-0.010899336077272892
8190.0,439.0,0.1525,0.6975,9.3811,-0.026,0.0166,-0.1214,-1.468949781065323,-0.005519726313650608,1.2924760580062866,-2.3480753898620605,0.007742936257272959,1.749880075454712,5.266240107804098,-0.0007630708860233426,0.29504671692848206,-1.5972779432879847,0.0,0.0017660493031144142,0.6365728378295898,-0.0,0.0038422346115112305,0.7331408858299255,0.0009821674320846796,0.005258071236312389
8190.0,439.0,0.1525,0.6975,9.3811,-0.026,0.0166,-0.1214,-1.4689497512630005,-0.005705747753381729,1.3476974964141846,-2.3480637073516846,0.008726110681891441,1.7530766725540161,5.266248273640432,-0.0006591447745449841,0.27428752183914185,-1.5972941557513636,0.0,0.007994514890015125,0.636544942855835,-0.0,-0.0029163125436753035,0.7331569790840149,0.0013810570817440748,0.006770666688680649
8190.0,439.0,0.1525,0.6975,9.3811,-0.026,0.0166,-0.1214,-1.4690454316190262,-0.006350419484078884,1.2999950647354126,-2.3479347229003906,0.01029172819107771,1.795742154121399,5.266211855202474,-0.0005512427305802703,0.2942289113998413,-1.5973299185382288,0.0,-0.008897963911294937,0.6365289092063904,-0.0,-0.0024549439549446106,0.7332255840301514,0.0015977275324985385,0.02187921479344368
8190.0,439.0,0.1525,0.6975,9.3811,-0.026,0.0166,-0.1214,-1.4690332499197503,-0.0065227169543504715,1.3317551612854004,-2.347806453704834,0.011732159182429314,1.7750577926635742,5.266236054688253,-0.0005287349922582507,0.28061360120773315,-1.5972779432879847,0.0,-8.983368752524257e-05,0.6365926861763,-0.0,-0.008864443749189377,0.733180820941925,0.0024776102509349585,-0.0013133366592228413
8190.0,439.0,0.1525,0.6975,9.3811,-0.026,0.0166,-0.1214,-1.4691134703210373,-0.006901487708091736,1.3216423988342285,-2.347783327102661,0.012435686774551868,1.7753946781158447,5.266224133759298,-0.0006036153645254672,0.2751029133796692,-1.5973060766803187,0.0,-0.009063451550900936,0.6365848183631897,-0.0,-0.0033638246823102236,0.7332450747489929,0.0038064499385654926,-0.0082138292491436
8190.0,439.0,0.1525,0.6975,9.3811,-0.026,0.0166,-0.1214,-1.4691494491747399,-0.007806716952472925,1.3440293073654175,-2.3477118015289307,0.014419183135032654,1.7632503509521484,5.266216027527609,-0.0007563559920527041,0.28172600269317627,-1.5973380247699183,0.0,-0.009421426802873611,0.6365687847137451,-0.0,0.002810696605592966,0.73329758644104,0.005679318681359291,0.014180883765220642
8190.0,439.0,0.1525,0.6975,9.3811,-0.026,0.0166,-0.1214,-1.4692697462490578,-0.007870974950492382,1.3194222450256348,-2.3476152420043945,0.016932452097535133,1.7693593502044678,5.266212212830343,-0.0007438683533109725,0.297427773475647,-1.597297493611471,0.0,-0.016263708472251892,0.6365847587585449,-0.0,0.00927602406591177,0.7333976626396179,0.0072881910018622875,0.010700946673750877
8190.0,439.0,0.1525,0.6975,9.3811,-0.026,0.0166,-0.1214,-1.4692412924817582,-0.007769567426294088,1.308281660079956,-2.347531318664551,0.019944030791521072,1.802707314491272,5.266196238785543,-0.000669713830575347,0.2915843427181244,-1.5973461310016077,4.1293193864255784e-10,-0.014554314315319061,0.6366285681724548,-0.0,0.0229207631200552,0.7334215641021729,0.008387899957597256,0.005230707116425037
452.0,417.0,-0.0197,0.4929,9.7196,-0.0205,0.0228,-0.1191,-1.4693453025868912,-0.007979519665241241,1.2986342906951904,-2.3473432064056396,0.022876683622598648,1.829596757888794,5.266167807369985,-0.0005046873702667654,0.2791004180908203,-1.5972779432879847,1.149411241099102e-13,-0.01469886489212513,0.6366327404975891,-0.0,0.02393142320215702,0.7334170341491699,0.00900945346802473,0.03848366439342499
452.0,417.0,-0.0197,0.4929,9.7196,-0.0205,0.0228,-0.1191,-1.4694092360189934,-0.00782280508428812,1.3069909811019897,-2.34713077545166,0.02779674343764782,1.7896077632904053,5.266212212830343,-0.0004284741880837828,0.2903135418891907,-1.5972898642169397,2.0889983148883684e-18,0.0056716385297477245,0.6365523338317871,0.0004024118243250996,0.029245227575302124,0.7334768176078796,0.009455332532525063,0.08639661967754364
452.0,417.0,-0.0197,0.4929,9.7196,-0.0205,0.0228,-0.1191,-1.46946935475383,-0.007796890567988157,1.3252627849578857,-2.346958875656128,0.029703596606850624,1.798572063446045,5.266171800881185,-0.0004066070541739464,0.2896093726158142,-1.597314182912008,5.814803541822085e-22,-0.006942891515791416,0.636588454246521,0.0009306209394708276,0.03121841512620449,0.7335813045501709,0.009757328778505325,0.02921159565448761
452.0,417.0,-0.0197,0.4929,9.7196,-0.0205,0.0228,-0.1191,-1.4694852021387597,-0.007288490887731314,1.3031525611877441,-2.3467957973480225,0.03340018540620804,1.832805871963501,5.266151773720541,-0.00032064400147646666,0.2706536650657654,-1.597309414540426,1.6185717398237293e-25,-0.0016831941902637482,0.636612594127655,0.0008760050986893475,0.03185299038887024,0.7336049675941467,0.010690807364881039,0.04045398160815239
452.0,417.0,-0.0197,0.4929,9.7196,-0.0205,0.0228,-0.1191,-1.4695372146419068,-0.0068457950837910175,1.3483492136001587,-2.3464791774749756,0.03538473695516586,1.7792112827301025,5.2661921856696985,-0.00023256640997715294,0.2804708480834961,-1.5973218123065394,2.941673672537294e-30,-0.006278126034885645,0.636660635471344,0.0011587691260501742,0.03267744183540344,0.7337253093719482,0.01252884604036808,0.05245858430862427
452.0,417.0,-0.0197,0.4929,9.7196,-0.0205,0.0228,-0.1191,-1.469557212000229,-0.006385290529578924,1.3223804235458374,-2.3462562561035156,0.03640048950910568,1.7716184854507446,5.266204106598654,-0.00020134025544393808,0.2822932004928589,-1.5972936789142054,8.188257630602929e-34,-0.010527238249778748,0.6367046236991882,0.0011404815595597029,0.04698418825864792,0.7337610125541687,0.013392304070293903,0.04019875079393387
452.0,417.0,-0.0197,0.4929,9.7196,-0.0205,0.0228,-0.1191,-1.4696091052940865,-0.005448910407721996,1.3480887413024902,-2.3460841178894043,0.03732628375291824,1.827199101448059,5.266208576947012,-0.00021298839419614524,0.2866646647453308,-1.5972893873797815,2.2792316825066927e-37,-0.0006160431075841188,0.6366524696350098,0.0009653017041273415,0.04707963019609451,0.7338809370994568,0.01528382021933794,0.09158581495285034
452.0,417.0,-0.0197,0.4929,9.7196,-0.0205,0.0228,-0.1191,-1.4697054487517853,-0.004877638071775436,1.381197214126587,-2.345763921737671,0.036708079278469086,1.8249518871307373,5.266208576947012,-0.00021256686886772513,0.29343467950820923,-1.5973261038409632,4.142238260544159e-42,-0.02067178674042225,0.6367003917694092,0.0008773193112574518,0.05411762744188309,0.7339767217636108,0.018285676836967468,0.06762154400348663
452.0,417.0,-0.0197,0.4929,9.7196,-0.0205,0.0228,-0.1191,-1.4696892213872452,-0.004093560390174389,1.3052791357040405,-2.345543384552002,0.03445903956890106,1.8221005201339722,5.266167807369985,-0.000194733205717057,0.2910107970237732,-1.597325627003805,1.401298464324817e-45,-0.00776782026514411,0.6367045640945435,0.0010817069560289383,0.07473869621753693,0.7341613173484802,0.02180652506649494,0.05768908932805061
452.0,417.0,-0.0197,0.4929,9.7196,-0.0205,0.0228,-0.1191,-1.469704957013466,-0.004139509052038193,1.2988440990447998,-2.345304012298584,0.030987104400992393,1.7610483169555664,5.266204523831167,-0.00024562489124946296,0.276659220457077,-1.597309414540426,0.0,-0.012036683037877083,0.636708676815033,0.0013918274780735373,0.06423976272344589,0.7342207431793213,0.026045827195048332,0.06788231432437897
452.0,417.0,-0.0197,0.4929,9.7196,-0.0205,0.0228,-0.1191,-1.469720908706524,-0.003951539285480976,1.333633303642273,-2.34511137008667,0.027306735515594482,1.8246382474899292,5.26615999916152,-0.0003098558518104255,0.2929425537586212,-1.5972979704486292,0.0,-0.01628861576318741,0.6367079615592957,0.002738761715590954,0.08791884779930115,0.7344856262207031,0.03248193860054016,0.14711588621139526
452.0,417.0,-0.0197,0.4929,9.7196,-0.0205,0.0228,-0.1191,-1.4697165128639718,-0.004015736747533083,1.3098607063293457,-2.344912528991699,0.023071710020303726,1.7578575611114502,5.266155946045675,-0.0007570934831164777,0.28405219316482544,-1.5973098913775843,0.0,-0.011962317861616611,0.6367760300636292,0.008606056682765484,0.0973263829946518,0.7347815036773682,0.04367665573954582,0.11749592423439026
452.0,417.0,-0.0197,0.4929,9.7196,-0.0205,0.0228,-0.1191,-1.4698293817094346,-0.003670632839202881,1.320406198501587,-2.3448283672332764,0.02058582939207554,1.7871403694152832,5.2661518333251855,-0.0006669945432804525,0.26565828919410706,-1.5972617308246058,0.0,-0.016184179112315178,0.6368676424026489,0.012552094645798206,0.10743503272533417,0.7351056337356567,0.05247826501727104,0.1468621790409088
428.0,8190.0,0.061,0.2542,9.8363,-0.0478,0.0509,-0.1087,-1.4697769594243546,-0.0032982926350086927,1.3020989894866943,-2.3446483612060547,0.01738615147769451,1.7877601385116577,5.266152250557699,-0.0007441684138029814,0.28047358989715576,-1.5972979704486292,0.0,0.0011466932483017445,0.6368430256843567,0.007462470326572657,0.09505660831928253,0.7354415655136108,0.06223302334547043,0.16159096360206604
428.0,8190.0,0.061,0.2542,9.8363,-0.0478,0.0509,-0.1087,-1.4698410493186493,-0.00445740157738328,1.312746286392212,-2.3445322513580322,0.015454783104360104,1.760119915008545,5.266152250557699,-0.0015358045930042863,0.2857130467891693,-1.5972736517535608,0.0,-0.009718835353851318,0.6369311809539795,0.0011125114979222417,0.09972915053367615,0.7359248995780945,0.07263209670782089,0.19274219870567322
428.0,8190.0,0.061,0.2542,9.8363,-0.0478,0.0509,-0.1087,-1.4699088347009202,-0.005518354009836912,1.2643682956695557,-2.344468832015991,0.015140325762331486,1.8046995401382446,5.2661322233970544,-0.00278187426738441,0.2689424157142639,-1.5972698370562952,0.0,-0.004813728388398886,0.6369554400444031,0.0005658644367940724,0.08618313074111938,0.7364458441734314,0.07600393146276474,0.22725802659988403
428.0,8190.0,0.061,0.2542,9.8363,-0.0478,0.0509,-0.1087,-1.4698886212757607,-0.0073564546182751656,1.2919557094573975,-2.3443405628204346,0.015340271405875683,1.8190395832061768,5.266071724682607,-0.00607661996036768,0.27834591269493103,-1.5972941557513636,0.0,-0.01936522126197815,0.6368913650512695,0.0003841914876829833,0.10120758414268494,0.7369576096534729,0.07670528441667557,0.21476784348487854
428.0,8190.0,0.061,0.2542,9.8363,-0.0478,0.0509,-0.1087,-1.4699966993978997,-0.009972560219466686,1.2769933938980103,-2.344151258468628,0.01522347703576088,1.8361310958862305,5.266007888108053,-0.012891381978988647,0.26529496908187866,-1.597297493611471,0.0,-0.025980686768889427,0.6369192600250244,0.00026915856869891286,0.10708242654800415,0.7374848127365112,0.07622166723012924,0.218156099319458
428.0,8190.0,0.061,0.2542,9.8363,-0.0478,0.0509,-0.1087,-1.4700163689306756,-0.012842812575399876,1.2945808172225952,-2.344144582748413,0.016065455973148346,1.7578396797180176,5.265919554024496,-0.009652535431087017,0.2681201100349426,-1.5972698370562952,0.0,-0.018609199672937393,0.6369312405586243,6.800248957006261e-05,0.09781412780284882,0.737944483757019,0.07668843865394592,0.17845046520233154
428.0,8190.0,0.061,0.2542,9.8363,-0.0478,0.0509,-0.1087,-1.4701687780073662,-0.01652422919869423,1.2568615674972534,-2.344048500061035,0.017617978155612946,1.7912719249725342,5.265908169537344,-0.0050933207385241985,0.2608475387096405,-1.5972941557513636,0.0,-0.013581356965005398,0.6369192600250244,5.1621558668557554e-05,0.11289207637310028,0.7383763790130615,0.07650091499090195,0.21732696890830994
428.0,8190.0,0.061,0.2542,9.8363,-0.0478,0.0509,-0.1087,-1.4703282427838822,-0.019550805911421776,1.2909021377563477,-2.343848466873169,0.02112031728029251,1.8003931045532227,5.26589189746932,-0.0020495676435530186,0.2613115608692169,-1.5972655455218714,0.0,-0.025803985074162483,0.6369353532791138,8.3955455920659e-05,0.10974885523319244,0.7389923930168152,0.07746392488479614,0.229349747300148
428.0,8190.0,0.061,0.2542,9.8363,-0.0478,0.0509,-0.1087,-1.4704446730068703,-0.02363712526857853,1.2508790493011475,-2.3437211513519287,0.024723943322896957,1.8090407848358154,5.265879618912496,-0.0016429905081167817,0.2584490180015564,-1.5972498098956507,0.0,-0.022162526845932007,0.6368913650512695,0.00013768569624517113,0.1068364679813385,0.7394842505455017,0.07872197031974792,0.26111045479774475
428.0,8190.0,0.061,0.2542,9.8363,-0.0478,0.0509,-0.1087,-1.4706326586059113,-0.02890784665942192,1.2494206428527832,-2.343508720397949,0.028769120573997498,1.8268959522247314,5.265835749893942,-0.0018204336520284414,0.2652560770511627,-1.597285572682516,0.0,-0.03036859631538391,0.6369512677192688,0.00031408248469233513,0.10308058559894562,0.7399482727050781,0.0841517522931099,0.2621825337409973
428.0,8190.0,0.061,0.2542,9.8363,-0.0478,0.0509,-0.1087,-1.4708000060966988,-0.03636130690574646,1.2279021739959717,-2.343374013900757,0.03348150849342346,1.8262391090393066,5.265827643662252,-0.002178664319217205,0.23387525975704193,-1.5972655455218714,0.0,-0.021758195012807846,0.6368831992149353,0.0003598975599743426,0.10984820872545242,0.7404764890670776,0.09187443554401398,0.2516363561153412
428.0,8190.0,0.061,0.2542,9.8363,-0.0478,0.0509,-0.1087,-1.4711081025055428,-0.04547953978180885,1.2303955554962158,-2.3430464267730713,0.04139246791601181,1.8557960987091064,5.265799748688497,-0.0038336748257279396,0.2539362609386444,-1.597257439290182,0.0,-0.027886224910616875,0.6369954943656921,0.0003400370478630066,0.11128313839435577,0.7412722706794739,0.10525432229042053,0.3128264546394348
428.0,8190.0,0.061,0.2542,9.8363,-0.0478,0.0509,-0.1087,-1.4714160126498719,-0.05260531231760979,1.1939215660095215,-2.3427956104278564,0.04992412403225899,1.883256435394287,5.265699195652761,-0.0036460692062973976,0.2478252351284027,-1.597253147755758,0.0,-0.025691291317343712,0.63692307472229,0.00039574492257088423,0.11925196647644043,0.7419122457504272,0.11161596328020096,0.3640357553958893
428.0,8190.0,0.061,0.2542,9.8363,-0.0478,0.0509,-0.1087,-1.471695565884449,-0.058939144015312195,1.2160652875900269,-2.3424155712127686,0.05756037309765816,1.8546221256256104,5.265759813576498,-0.0036939955316483974,0.2410292625427246,-1.5972655455218714,0.0,-0.023373130708932877,0.6369955539703369,0.000375789066310972,0.11716689169406891,0.7426204085350037,0.11446337401866913,0.31235069036483765
446.0,8190.0,-0.2776,1.0457,9.5498,0.0134,0.0255,-0.0403,-1.472315476541855,-0.06947686523199081,1.1472465991973877,-2.3419172763824463,0.06905976682901382,1.9023144245147705,5.265719640045919,-0.004665810614824295,0.24795794486999512,-1.5972612539874476,0.0,-0.028576921671628952,0.6369070410728455,0.00039170467061921954,0.11089715361595154,0.743520200252533,0.11612898111343384,0.32912641763687134
446.0,8190.0,-0.2776,1.0457,9.5498,0.0134,0.0255,-0.0403,-1.4727229562452813,-0.07932627946138382,1.2111282348632812,-2.3414788246154785,0.0795883908867836,1.9227931499481201,5.265651452332296,-0.005669435486197472,0.2479700744152069,-1.5972498098956507,0.0,-0.015290999785065651,0.636975109577179,0.00040024914778769016,0.11806221306324005,0.7442001104354858,0.11081624031066895,0.2932808995246887
446.0,8190.0,-0.2776,1.0457,9.5498,0.0134,0.0255,-0.0403,-1.4732974854162713,-0.08874485641717911,1.1497349739074707,-2.3409719467163086,0.09090364724397659,1.857920527458191,5.265627372055807,-0.0071667940355837345,0.24947687983512878,-1.597257439290182,0.0,-0.02482912875711918,0.6369107365608215,0.0004652961215469986,0.10379847884178162,0.7448194622993469,0.11266866326332092,0.3198791742324829
446.0,8190.0,-0.2776,1.0457,9.5498,0.0134,0.0255,-0.0403,-1.4739619952491303,-0.09817516803741455,1.1996792554855347,-2.3401410579681396,0.10329299420118332,1.9765734672546387,5.265571343689718,-0.010225742124021053,0.23749834299087524,-1.5972374121295374,0.0,-0.048245348036289215,0.636983335018158,0.001510906033217907,0.11229380965232849,0.7457351684570312,0.12239869683980942,0.3589255213737488
446.0,8190.0,-0.2776,1.0457,9.5498,0.0134,0.0255,-0.0403,-1.4745212954333802,-0.10052648931741714,1.1685335636138916,-2.339510917663574,0.10609602183103561,1.892397403717041,5.265467154770651,-0.011646664701402187,0.23385655879974365,-1.5972936789142054,0.0,-0.028818033635616302,0.6369986534118652,0.004874659702181816,0.11529431492090225,0.7465112209320068,0.13128523528575897,0.35957077145576477
446.0,8190.0,-0.2776,1.0457,9.5498,0.0134,0.0255,-0.0403,-1.4751850453070183,-0.09753156453371048,1.1252834796905518,-2.3388726711273193,0.11317082494497299,1.9247355461120605,5.265415119915762,-0.012056062929332256,0.237359881401062,-1.5972374121295374,0.0,-0.04485536366701126,0.636998176574707,0.015540865249931812,0.13121169805526733,0.7472829222679138,0.1408730000257492,0.3492242097854614
446.0,8190.0,-0.2776,1.0457,9.5498,0.0134,0.0255,-0.0403,-1.4759644728950043,-0.09730507433414459,1.0970393419265747,-2.3378872871398926,0.12079480290412903,1.938166618347168,5.265339123993673,-0.016821768134832382,0.22722269594669342,-1.5972612539874476,0.0,-0.02765447273850441,0.6371939182281494,0.01979854702949524,0.16273368895053864,0.7485033869743347,0.15016445517539978,0.4215450882911682
446.0,8190.0,-0.2776,1.0457,9.5498,0.0134,0.0255,-0.0403,-1.4765676420978089,-0.10474465042352676,1.1447776556015015,-2.3371009826660156,0.12604498863220215,1.9505258798599243,5.26516621091918,-0.027244415134191513,0.2250434160232544,-1.5972898642169397,0.0,-0.02784750796854496,0.6373535990715027,0.02340945601463318,0.1361910104751587,0.7494469285011292,0.1527358740568161,0.404898464679718
446.0,8190.0,-0.2776,1.0457,9.5498,0.0134,0.0255,-0.0403,-1.4771988925388833,-0.11163085699081421,1.1757547855377197,-2.3363425731658936,0.13593299686908722,1.932117223739624,5.264994191914358,-0.04123743623495102,0.22133956849575043,-1.5972822348224085,0.0,-0.03324713557958603,0.6375124454498291,0.03200168535113335,0.14846637845039368,0.7502945065498352,0.154667928814888,0.43753790855407715
446.0,8190.0,-0.2776,1.0457,9.5498,0.0134,0.0255,-0.0403,-1.4778785419515152,-0.12364602833986282,1.0960328578948975,-2.3354926109313965,0.14607647061347961,1.975259780883789,5.264705943852224,-0.06299996376037598,0.21795853972434998,-1.5972941557513636,0.0,-0.0374976322054863,0.6377238035202026,0.0432625375688076,0.1420905441045761,0.7513113021850586,0.16005684435367584,0.4485931098461151
446.0,8190.0,-0.2776,1.0457,9.5498,0.0134,0.0255,-0.0403,-1.4788538676551362,-0.1291709691286087,1.1559327840805054,-2.334214687347412,0.1552630066871643,1.9476534128189087,5.264016318112173,-0.10364141315221786,0.17938019335269928,-1.5972488562213343,0.0,-0.03985310718417168,0.6382060647010803,0.07845881581306458,0.16811196506023407,0.7525421977043152,0.16879096627235413,0.45348241925239563
446.0,8190.0,-0.2776,1.0457,9.5498,0.0134,0.0255,-0.0403,-1.4796733793667336,-0.1298602670431137,1.090444564819336,-2.333225727081299,0.1654060333967209,1.9418654441833496,5.263351607113638,-0.11975669860839844,0.18282796442508698,-1.5972655455218714,0.0,-0.039544686675071716,0.6387356519699097,0.11088220030069351,0.1675531268119812,0.7536221742630005,0.17545631527900696,0.44660115242004395
446.0,8190.0,-0.2776,1.0457,9.5498,0.0134,0.0255,-0.0403,-1.480380193596222,-0.12699633836746216,1.2004410028457642,-2.3322606086730957,0.1758175790309906,1.933516025543213,5.262699174671926,-0.1100996807217598,0.1905238777399063,-1.5972612539874476,0.0,-0.03171950951218605,0.6393886804580688,0.11480715870857239,0.18353888392448425,0.7547065615653992,0.17964334785938263,0.5152411460876465
480.0,479.0,-0.5145,0.2022,9.472,-0.0612,0.0163,0.017,-1.4814997103861351,-0.13103435933589935,1.0688154697418213,-2.330780029296875,0.18726462125778198,2.0658388137817383,5.261793243675985,-0.0914880707859993,0.18255162239074707,-1.5972374121295374,0.0,-0.0352407731115818,0.6402205228805542,0.08787062019109726,0.1628580093383789,0.7561337947845459,0.1830119490623474,0.4521866738796234
480.0,479.0,-0.5145,0.2022,9.472,-0.0612,0.0163,0.017,-1.4823553797653695,-0.14056183397769928,1.1463062763214111,-2.329663038253784,0.18877427279949188,2.0077123641967773,5.2612494108970544,-0.09023316949605942,0.19342853128910065,-1.597302261983053,0.0,-0.02399781346321106,0.640686571598053,0.0683123990893364,0.14064854383468628,0.7572650909423828,0.18662616610527039,0.46629399061203003
480.0,479.0,-0.5145,0.2022,9.472,-0.0612,0.0163,0.017,-1.4831903663328667,-0.15257643163204193,1.1367560625076294,-2.328477621078491,0.19141514599323273,2.0394058227539062,5.260728943138876,-0.1007460206747055,0.18703702092170715,-1.5972655455218714,0.0,-0.03127540275454521,0.6410244703292847,0.06634040176868439,0.15092816948890686,0.7584331035614014,0.19049274921417236,0.4720757007598877
480.0,479.0,-0.5145,0.2022,9.472,-0.0612,0.0163,0.017,-1.4843050253442307,-0.15732482075691223,1.0734798908233643,-2.3268661499023438,0.20825161039829254,2.081294298171997,5.259923982411184,-0.10657903552055359,0.17138278484344482,-1.5972655455218714,0.0,-0.03934731334447861,0.6416861414909363,0.09674425423145294,0.1537356972694397,0.7599486708641052,0.1960519254207611,0.5015798211097717
480.0,479.0,-0.5145,0.2022,9.472,-0.0612,0.0163,0.017,-1.4852084007910271,-0.1543681025505066,1.0722153186798096,-2.3255650997161865,0.22048957645893097,2.043667793273926,5.259351300984182,-0.09505466371774673,0.1926756203174591,-1.5972417036639612,0.0,-0.0384884774684906,0.642471194267273,0.14198961853981018,0.15301746129989624,0.7612325549125671,0.19820553064346313,0.46872758865356445
480.0,479.0,-0.5145,0.2022,9.472,-0.0612,0.0163,0.017,-1.4861716342023392,-0.15315741300582886,1.09149968624115,-2.3242409229278564,0.2299754023551941,2.1145482063293457,5.25882254818038,-0.07480683922767639,0.20166324079036713,-1.5973103682147425,0.0,-0.027719229459762573,0.6433988213539124,0.16704194247722626,0.18388935923576355,0.7624446749687195,0.19908063113689423,0.47100353240966797
480.0,479.0,-0.5145,0.2022,9.472,-0.0612,0.0163,0.017,-1.4874786374023934,-0.161698117852211,1.095297932624817,-2.322380781173706,0.23704083263874054,2.079974412918091,5.2583786127860925,-0.0511450432240963,0.21853846311569214,-1.5972655455218714,0.0,-0.028789473697543144,0.6446725726127625,0.16019348800182343,0.17245644330978394,0.7640451788902283,0.19575759768486023,0.4008428752422333
480.0,479.0,-0.5145,0.2022,9.472,-0.0612,0.0163,0.017,-1.4884701755693932,-0.17126895487308502,1.11624014377594,-2.3209445476531982,0.2519652843475342,2.0886199474334717,5.258114146977224,-0.04822693392634392,0.20409107208251953,-1.5972941557513636,0.0,-0.024333540350198746,0.6457123160362244,0.18285201489925385,0.17645832896232605,0.7652143836021423,0.19715560972690582,0.48445528745651245
480.0,479.0,-0.5145,0.2022,9.472,-0.0612,0.0163,0.017,-1.4895171088031312,-0.1780398190021515,1.0815589427947998,-2.31945538520813,0.25995659828186035,2.12823486328125,5.2577735660369775,-0.05826728045940399,0.18869900703430176,-1.597245995198385,0.0,-0.036064643412828445,0.6467873454093933,0.17509150505065918,0.1700727939605713,0.7663665413856506,0.20169302821159363,0.4626222848892212
480.0,479.0,-0.5145,0.2022,9.472,-0.0612,0.0163,0.017,-1.4905157771757622,-0.17997577786445618,1.1458628177642822,-2.3178441524505615,0.2579810619354248,2.104203224182129,5.257429051190176,-0.08107659220695496,0.19731000065803528,-1.5972736517535608,0.0,-0.03170258179306984,0.6477950215339661,0.15469543635845184,0.1724342405796051,0.767571747303009,0.2022223174571991,0.49728280305862427
480.0,479.0,-0.5145,0.2022,9.472,-0.0612,0.0163,0.017,-1.4920024064234276,-0.18780140578746796,1.0924097299575806,-2.3156328201293945,0.27948763966560364,2.152848243713379,5.256728458195486,-0.09228310734033585,0.18541136384010315,-1.5972417036639612,0.0,-0.03325334191322327,0.6491127014160156,0.18600955605506897,0.16905486583709717,0.7692052125930786,0.18998321890830994,0.424343466758728
480.0,479.0,-0.5145,0.2022,9.472,-0.0612,0.0163,0.017,-1.4932140794447442,-0.19261573255062103,1.1274718046188354,-2.313878059387207,0.29669585824012756,2.167715549468994,5.256167578488149,-0.0806947648525238,0.20125117897987366,-1.597302261983053,0.0,-0.025141537189483643,0.6503473520278931,0.2102304995059967,0.1733793020248413,0.770305871963501,0.1840636432170868,0.385378360748291
480.0,479.0,-0.5145,0.2022,9.472,-0.0612,0.0163,0.017,-1.4944570449045678,-0.19603119790554047,1.1200535297393799,-2.312166929244995,0.2968693673610687,2.155071496963501,5.255711185723104,-0.06273048371076584,0.19601626694202423,-1.5972417036639612,0.0,-0.0221182182431221,0.6515015363693237,0.19339613616466522,0.16500034928321838,0.771394670009613,0.18247145414352417,0.39548152685165405
480.0,479.0,-0.5145,0.2022,9.472,-0.0612,0.0163,0.017,-1.496087060575821,-0.20138180255889893,1.105843186378479,-2.3096704483032227,0.30851447582244873,2.1611456871032715,5.255398618965902,-0.029940340667963028,0.18801507353782654,-1.5972655455218714,0.0,-0.03079216368496418,0.6531102061271667,0.20024912059307098,0.14442163705825806,0.7728280425071716,0.18510399758815765,0.40072348713874817
477.0,525.0,-0.0108,1.3777,10.1868,0.0087,0.0312,0.1797,-1.4974024829319497,-0.21607831120491028,1.154088020324707,-2.3078010082244873,0.3119767904281616,2.185170888900757,5.255335318833151,-0.012246618047356606,0.23211199045181274,-1.5972417036639612,0.0,-0.018231339752674103,0.654268741607666,0.17023243010044098,0.14191599190235138,0.7739368677139282,0.181803897023201,0.4303852915763855
477.0,525.0,-0.0108,1.3777,10.1868,0.0087,0.0312,0.1797,-1.4988051292351265,-0.23398758471012115,1.1098332405090332,-2.305837392807007,0.3147382140159607,2.147124767303467,5.255275296955862,0.0009226411930285394,0.23193563520908356,-1.5972541014300745,0.0,-0.010149594396352768,0.6551806926727295,0.15306562185287476,0.14658452570438385,0.7749372124671936,0.1741843819618225,0.35897496342658997
477.0,525.0,-0.0108,1.3777,10.1868,0.0087,0.0312,0.1797,-1.500719704931118,-0.23722219467163086,1.0994118452072144,-2.303323268890381,0.33164867758750916,2.209463596343994,5.25535939910964,0.007339687552303076,0.2346687614917755,-1.5972583929644983,0.0,-0.02139715850353241,0.6565941572189331,0.19806402921676636,0.14527322351932526,0.7762783765792847,0.16315747797489166,0.3659888505935669
477.0,525.0,-0.0108,1.3777,10.1868,0.0087,0.0312,0.1797,-1.5021098864129563,-0.23003549873828888,1.1758543252944946,-2.3013362884521484,0.33992981910705566,2.2076497077941895,5.255371320038595,0.0045455582439899445,0.2288578748703003,-1.5972698370562952,0.0,-0.0077828592620790005,0.657880961894989,0.202350914478302,0.15335600078105927,0.7772310376167297,0.16090364754199982,0.3345734477043152
477.0,525.0,-0.0108,1.3777,10.1868,0.0087,0.0312,0.1797,-1.5035804224065323,-0.24019351601600647,1.152510404586792,-2.2992968559265137,0.34563112258911133,2.246885299682617,5.255351173668661,0.0012542451731860638,0.24059301614761353,-1.597245995198385,0.0,-0.017705341801047325,0.6589952707290649,0.20341065526008606,0.1477011889219284,0.7781797647476196,0.15895581245422363,0.3011878728866577
477.0,525.0,-0.0108,1.3777,10.1868,0.0087,0.0312,0.1797,-1.505579226916172,-0.2561917006969452,1.1207776069641113,-2.296539783477783,0.3476635813713074,2.1956429481506348,5.25537537315444,-0.0004694071540143341,0.23889416456222534,-1.5972698370562952,0.0,-0.017873823642730713,0.660647451877594,0.20327433943748474,0.15163704752922058,0.7794854044914246,0.15968424081802368,0.30270686745643616
477.0,525.0,-0.0108,1.3777,10.1868,0.0087,0.0312,0.1797,-1.5070856523564835,-0.25674593448638916,1.1675993204116821,-2.2944042682647705,0.3534553050994873,2.2722718715667725,5.255347239762106,-0.00030912968213669956,0.2421305775642395,-1.5972583929644983,0.0,-0.008681027218699455,0.6618975400924683,0.17932967841625214,0.14686700701713562,0.7804014086723328,0.15914520621299744,0.31120866537094116
477.0,525.0,-0.0108,1.3777,10.1868,0.0087,0.0312,0.1797,-1.5085480709424992,-0.2621166408061981,1.139830470085144,-2.292311429977417,0.36035534739494324,2.232421398162842,5.2553672073181055,-9.860051068244502e-05,0.2430242896080017,-1.5972335974322718,0.0,0.0010632266057655215,0.6629763245582581,0.20421642065048218,0.1501452624797821,0.781338632106781,0.15058766305446625,0.31423428654670715
477.0,525.0,-0.0108,1.3777,10.1868,0.0087,0.0312,0.1797,-1.5101433184793969,-0.26974746584892273,1.1316211223602295,-2.2901129722595215,0.3733060359954834,2.224165916442871,5.255383479386129,-6.106008368078619e-05,0.23763078451156616,-1.597217861806051,0.0,-0.006690208800137043,0.6644342541694641,0.23295536637306213,0.1670711636543274,0.782162606716156,0.1468803882598877,0.2789405286312103
477.0,525.0,-0.0108,1.3777,10.1868,0.0087,0.0312,0.1797,-1.512248833929636,-0.26684892177581787,1.152967929840088,-2.2871644496917725,0.3752624988555908,2.23359751701355,5.255351173668661,-5.798287020297721e-05,0.23719993233680725,-1.5972135702716272,0.0,-0.006997190415859222,0.6663256883621216,0.23597486317157745,0.16354689002037048,0.7832674384117126,0.13858242332935333,0.2725793719291687
477.0,525.0,-0.0108,1.3777,10.1868,0.0087,0.0312,0.1797,-1.5138757985881348,-0.26638591289520264,1.160614252090454,-2.2848174571990967,0.38022077083587646,2.2415406703948975,5.2553672073181055,-8.873772117112821e-07,0.24842429161071777,-1.5972254912005823,0.0,-0.005518915597349405,0.6676708459854126,0.2370135486125946,0.16561958193778992,0.784144401550293,0.13819022476673126,0.23440876603126526
477.0,525.0,-0.0108,1.3777,10.1868,0.0087,0.0312,0.1797,-1.51545803368602,-0.2751099169254303,1.135646104812622,-2.282459259033203,0.3895978331565857,2.345445156097412,5.255387592106619,-2.470046944758053e-10,0.22452500462532043,-1.5972297827350062,0.0,-0.013022353872656822,0.6690442562103271,0.2223692238330841,0.15761050581932068,0.7849611639976501,0.1409187763929367,0.26541706919670105
477.0,525.0,-0.0108,1.3777,10.1868,0.0087,0.0312,0.1797,-1.517684244816639,-0.2845798432826996,1.1784030199050903,-2.279388904571533,0.39227238297462463,2.2995541095733643,5.255407678871908,-4.4891886466036455e-15,0.24910782277584076,-1.5971978346454065,0.00011615909170359373,0.0019386911299079657,0.6709875464439392,0.26422378420829773,0.19466665387153625,0.7860497832298279,0.13190960884094238,0.2654438316822052
481.0,8190.0,-0.8752,0.9033,10.6917,-0.0197,0.1982,0.2277,-1.5192783375135441,-0.28691989183425903,1.1906025409698486,-2.277000904083252,0.39531058073043823,2.2815399169921875,5.255363511830129,-1.249582356907186e-18,0.2375035583972931,-1.597222153340475,0.00015031456132419407,0.011349232867360115,0.6725109219551086,0.25276994705200195,0.16998282074928284,0.7867701053619385,0.12405865639448166,0.22113940119743347
481.0,8190.0,-0.8752,0.9033,10.6917,-0.0197,0.1982,0.2277,-1.521017064606287,-0.29010388255119324,1.1491093635559082,-2.2745723724365234,0.3948492705821991,2.276966094970703,5.255387592106619,-3.478258125074969e-22,0.2159295380115509,-1.5972016493426722,0.00016313492960762233,0.011903436854481697,0.6740663051605225,0.25950151681900024,0.17440880835056305,0.7874864339828491,0.11713401973247528,0.21134576201438904
481.0,8190.0,-0.8752,0.9033,10.6917,-0.0197,0.1982,0.2277,-1.5233351935497303,-0.2914085388183594,1.206317663192749,-2.2713420391082764,0.40935736894607544,2.301215171813965,5.255399453430929,-6.321562671449833e-27,0.23819084465503693,-1.5972498098956507,0.0004787385696545243,0.011380459181964397,0.6759896874427795,0.22832292318344116,0.15150555968284607,0.7884315252304077,0.10700561106204987,0.17777347564697266
481.0,8190.0,-0.8752,0.9033,10.6917,-0.0197,0.1982,0.2277,-1.5251459156027813,-0.2981869876384735,1.0902009010314941,-2.2689340114593506,0.41744792461395264,2.30143666267395,5.255407321244039,-1.759630219508609e-30,0.22906509041786194,-1.5972378889666956,0.0003790845221374184,0.009442890994250774,0.6774178147315979,0.2618557810783386,0.16168968379497528,0.7890157699584961,0.10063361376523972,0.15916430950164795
481.0,8190.0,-0.8752,0.9033,10.6917,-0.0197,0.1982,0.2277,-1.5270442490330716,-0.2948393225669861,1.2116498947143555,-2.266453504562378,0.4177651107311249,2.2786338329315186,5.25537126043395,-4.897995218886094e-34,0.2304897904396057,-1.597222153340475,0.0003582447243388742,0.006808752194046974,0.6790128350257874,0.26226967573165894,0.1723577380180359,0.789628267288208,0.09447941929101944,0.19559746980667114
481.0,8190.0,-0.8752,0.9033,10.6917,-0.0197,0.1982,0.2277,-1.5289063838175316,-0.3025627136230469,1.1441562175750732,-2.263899564743042,0.4202486574649811,2.357590913772583,5.255415904312887,-1.3633749558289788e-37,0.23178356885910034,-1.5972016493426722,0.00031114619923755527,0.017951112240552902,0.6805806159973145,0.2729184031486511,0.16914542019367218,0.7902248501777649,0.09090268611907959,0.1588730812072754
481.0,8190.0,-0.8752,0.9033,10.6917,-0.0197,0.1982,0.2277,-1.53147595495496,-0.3215579092502594,1.1386181116104126,-2.260546922683716,0.42555853724479675,2.2576003074645996,5.25537936666564,0.00012879555288236588,0.2395743429660797,-1.597217861806051,0.000259809079580009,0.0028815290424972773,0.6826677322387695,0.24152261018753052,0.1646844446659088,0.7909331917762756,0.085326187312603,0.11274632066488266
481.0,8190.0,-0.8752,0.9033,10.6917,-0.0197,0.1982,0.2277,-1.5334786523929615,-0.32233259081840515,1.1904124021530151,-2.257986068725586,0.43966853618621826,2.341231107711792,5.255355345993795,-6.848719203844666e-05,0.2440188229084015,-1.5971978346454065,0.00026393093867227435,0.016888827085494995,0.6841997504234314,0.2679731845855713,0.16491013765335083,0.7913689017295837,0.08241169154644012,0.1420397162437439
481.0,8190.0,-0.8752,0.9033,10.6917,-0.0197,0.1982,0.2277,-1.5354645115188141,-0.33232367038726807,1.1292234659194946,-2.2553908824920654,0.4367673397064209,2.3052384853363037,5.255367624550619,-0.0018420355627313256,0.24433760344982147,-1.5972016493426722,0.00023806751414667815,0.002063184743747115,0.6858268976211548,0.2707429826259613,0.17417234182357788,0.7918859720230103,0.07957137376070023,0.11674084514379501
481.0,8190.0,-0.8752,0.9033,10.6917,-0.0197,0.1982,0.2277,-1.5381345872632046,-0.3365931510925293,1.207462191581726,-2.2518246173858643,0.43680456280708313,2.3339040279388428,5.25535129287795,-0.001432587276212871,0.22017276287078857,-1.5971816221820276,0.00017181626753881574,0.022287454456090927,0.6880627870559692,0.27844592928886414,0.1745785027742386,0.792502224445343,0.07106935977935791,0.11873608827590942
481.0,8190.0,-0.8752,0.9033,10.6917,-0.0197,0.1982,0.2277,-1.5401241176626463,-0.34039634466171265,1.1640715599060059,-2.2491366863250732,0.4388263523578644,2.3959925174713135,5.25535939910964,-0.000784063246101141,0.22051164507865906,-1.5972664991961878,0.00018497701967135072,0.02081146277487278,0.6895853877067566,0.25971776247024536,0.16997919976711273,0.7929301857948303,0.06666970998048782,0.1376616656780243
481.0,8190.0,-0.8752,0.9033,10.6917,-0.0197,0.1982,0.2277,-1.5421991937658568,-0.35011306405067444,1.1900616884231567,-2.246476650238037,0.45057523250579834,2.3447794914245605,5.255306648999014,-0.000570545147638768,0.22673237323760986,-1.5972579161273401,0.00019567010167520493,0.013442864641547203,0.6912617087364197,0.2906753718852997,0.16243556141853333,0.7933107614517212,0.06250131130218506,0.14149907231330872
481.0,8190.0,-0.8752,0.9033,10.6917,-0.0197,0.1982,0.2277,-1.5449561693570395,-0.35071253776550293,1.2241787910461426,-2.2428345680236816,0.4494040012359619,2.371140480041504,5.255335318833151,-0.0003855887916870415,0.2259456068277359,-1.5972583929644983,0.00017407152336090803,0.026095585897564888,0.693652331829071,0.2891550064086914,0.1766115427017212,0.7937347292900085,0.05044703930616379,0.11413000524044037
481.0,8190.0,-0.8752,0.9033,10.6917,-0.0197,0.1982,0.2277,-1.5470906768790265,-0.35643699765205383,1.187604546546936,-2.240034341812134,0.4550487697124481,2.304234743118286,5.255311238556661,-0.00027636639424599707,0.2300429493188858,-1.5972498098956507,0.0001836834562709555,0.016782812774181366,0.6953955888748169,0.28591105341911316,0.17644137144088745,0.7940027117729187,0.04051720350980759,0.11965964734554291
514.0,1071.0,-1.1809,1.4004,10.322,-0.0548,0.1611,0.233,-1.5491931729814787,-0.35911276936531067,1.1826977729797363,-2.237311840057373,0.46279481053352356,2.4067766666412354,5.255355465203085,-0.00023195907124318182,0.21696573495864868,-1.5971649328814905,0.0001708551135379821,0.018780456855893135,0.6970676779747009,0.2737443447113037,0.1564335972070694,0.794247031211853,0.034896690398454666,0.10642839968204498
514.0,1071.0,-1.1809,1.4004,10.322,-0.0548,0.1611,0.233,-1.5520828434130927,-0.36799192428588867,1.1987180709838867,-2.2335915565490723,0.4686521291732788,2.3953030109405518,5.2553231594856165,-0.00025917383027262986,0.22287029027938843,-1.5972378889666956,0.00018944944895338267,0.005371252074837685,0.6995036005973816,0.3022797107696533,0.18765249848365784,0.7945075035095215,0.027399715036153793,0.09112372249364853
514.0,1071.0,-1.1809,1.4004,10.322,-0.0548,0.1611,0.233,-1.554308633585908,-0.37281206250190735,1.1794512271881104,-2.230846643447876,0.4684850871562958,2.390151023864746,5.255327212601461,-0.00044216850074008107,0.22258278727531433,-1.59723407426943,0.0001846778322942555,0.03228352218866348,0.7012984156608582,0.3098336458206177,0.1689428985118866,0.7946231365203857,0.02215328812599182,0.07993454486131668
514.0,1071.0,-1.1809,1.4004,10.322,-0.0548,0.1611,0.233,-1.5566268379664798,-0.38457489013671875,1.19648277759552,-2.228034496307373,0.47803959250450134,2.341008186340332,5.255335318833151,-0.0003557325399015099,0.2175029218196869,-1.5971859137164515,0.0001814843708416447,0.010242095217108727,0.7030258178710938,0.28514882922172546,0.1626037359237671,0.7947514057159424,0.01630357652902603,0.078465536236763
514.0,1071.0,-1.1809,1.4004,10.322,-0.0548,0.1611,0.233,-1.5589646755582471,-0.3856872022151947,1.1964048147201538,-2.225152015686035,0.4904686212539673,2.381441354751587,5.255303013115682,-0.0002008757001021877,0.2143702507019043,-1.597205940877096,0.00019221690308768302,0.02441776543855667,0.7047812342643738,0.2985759377479553,0.17491848766803741,0.7948756814002991,0.01165132224559784,0.08694453537464142
514.0,1071.0,-1.1809,1.4004,10.322,-0.0548,0.1611,0.233,-1.5622101251832028,-0.40219148993492126,1.2005693912506104,-2.221245765686035,0.4953203797340393,2.4508612155914307,5.255266952305593,-0.0006522664916701615,0.21090953052043915,-1.59723407426943,0.0001956773630809039,0.019792616367340088,0.7071885466575623,0.29735711216926575,0.16805699467658997,0.7948510050773621,0.006040760315954685,-0.02810731530189514
514.0,1071.0,-1.1809,1.4004,10.322,-0.0548,0.1611,0.233,-1.5647161968848486,-0.4055636525154114,1.2683446407318115,-2.218231201171875,0.4909437894821167,2.400621175765991,5.255311655789175,-0.001274188281968236,0.2153819501399994,-1.5971983114825647,0.00020304197096265852,0.021393021568655968,0.7089269161224365,0.29854369163513184,0.1646314561367035,0.7949233055114746,0.002598284278064966,0.021835360676050186
514.0,1071.0,-1.1809,1.4004,10.322,-0.0548,0.1611,0.233,-1.5671972709572692,-0.42373883724212646,1.1452827453613281,-2.2152140140533447,0.5003747344017029,2.4015002250671387,5.255271065026083,-0.000704925274476409,0.22020617127418518,-1.597217861806051,0.00019697016978170723,0.027149152010679245,0.7106916904449463,0.27870625257492065,0.15846498310565948,0.7949073314666748,0.0012487951898947358,-0.03146333619952202
514.0,1071.0,-1.1809,1.4004,10.322,-0.0548,0.1611,0.233,-1.57060273825876,-0.43403559923171997,1.2645249366760254,-2.2111828327178955,0.5071269869804382,2.4194228649139404,5.255263316422262,-0.001392896636389196,0.21104943752288818,-1.5971983114825647,0.00023436601622961462,0.015912409871816635,0.7130016684532166,0.2998829483985901,0.15580934286117554,0.7948993444442749,0.0006961493054404855,-0.001586712896823883
514.0,1071.0,-1.1809,1.4004,10.322,-0.0548,0.1611,0.233,-1.5731970272459925,-0.44662657380104065,1.1738232374191284,-2.2081072330474854,0.5085386037826538,2.4101617336273193,5.255238997727194,-0.0033317708875983953,0.2126176953315735,-1.5972021261798304,0.0004263976006768644,0.018691498786211014,0.714793860912323,0.2933977246284485,0.16208092868328094,0.7948592305183411,8.728897228138521e-05,0.031711746007204056
514.0,1071.0,-1.1809,1.4004,10.322,-0.0548,0.1611,0.233,-1.575794359246725,-0.4457893371582031,1.2343318462371826,-2.205073118209839,0.5117524266242981,2.467954158782959,5.255203234940328,-0.003119721543043852,0.2183617204427719,-1.5971816221820276,0.0004753519024234265,0.03143230825662613,0.7165253162384033,0.2695971131324768,0.14043475687503815,0.7948915362358093,4.801047559510607e-09,0.010433289222419262
514.0,1071.0,-1.1809,1.4004,10.322,-0.0548,0.1611,0.233,-1.5793034038939417,-0.4439660906791687,1.182070255279541,-2.2009527683258057,0.5205541849136353,2.429473638534546,5.255203234940328,-0.001255261478945613,0.21353283524513245,-1.5971654097186487,0.0008853598847053945,0.021591994911432266,0.7185444235801697,0.2711825370788574,0.1371694654226303,0.7948833107948303,-0.0011573750525712967,-0.02217595838010311
514.0,1071.0,-1.1809,1.4004,10.322,-0.0548,0.1611,0.233,-1.5819651089110316,-0.44658222794532776,1.2534576654434204,-2.197751045227051,0.5261430144309998,2.3493518829345703,5.255211460381307,-0.000597373815253377,0.2031717151403427,-1.5971739927874964,0.0014727232046425343,0.026440154761075974,0.7202160954475403,0.27361005544662476,0.14773721992969513,0.7949355840682983,-0.0009290507296100259,-0.053922027349472046
507.0,1053.0,-0.725,0.4828,9.7322,-0.0719,0.1147,0.1917,-1.5846711597838343,-0.45281243324279785,1.2859385013580322,-2.194711923599243,0.5347710251808167,2.420823574066162,5.25518690326766,-0.0004869712283834815,0.20505258440971375,-1.5971334616290491,0.0036251756828278303,0.025475196540355682,0.721790611743927,0.27359023690223694,0.149128258228302,0.7948510646820068,-0.00013571440649684519,-0.0128595856949687
507.0,1053.0,-0.725,0.4828,9.7322,-0.0719,0.1147,0.1917,-1.5883838138976039,-0.4665876030921936,1.2480422258377075,-2.1904335021972656,0.5351548194885254,2.444502830505371,5.255171406060018,-0.002701667370274663,0.2136421799659729,-1.5971019903766077,0.0165025033056736,0.03924323618412018,0.7238461971282959,0.23285327851772308,0.12026245146989822,0.7948551177978516,-1.2428542570108725e-11,0.025521349161863327
507.0,1053.0,-0.725,0.4828,9.7322,-0.0719,0.1147,0.1917,-1.591257711450094,-0.469256192445755,1.289047122001648,-2.1870553493499756,0.5345727205276489,2.4173636436462402,5.255134570389547,-0.0021207998506724834,0.20501405000686646,-1.597018067036764,0.016313347965478897,0.05237802863121033,0.725257933139801,0.2403854876756668,0.1112898588180542,0.7948833107948303,-3.001347097671081e-17,0.004711993969976902
507.0,1053.0,-0.725,0.4828,9.7322,-0.0719,0.1147,0.1917,-1.5941149197020472,-0.4745282530784607,1.2349183559417725,-2.1838250160217285,0.5458106398582458,2.411548376083374,5.255166816502371,-0.0006891652010381222,0.21104587614536285,-1.5969818274127405,0.008218557573854923,0.03673607483506203,0.7268058657646179,0.24822109937667847,0.12338700145483017,0.7948108911514282,-7.247900011521957e-23,-0.0006384085863828659
507.0,1053.0,-0.725,0.4828,9.7322,-0.0719,0.1147,0.1917,-1.5970846615233363,-0.4754839539527893,1.3290250301361084,-2.180502414703369,0.5498328804969788,2.4309616088867188,5.25518690326766,-0.00020816527830902487,0.20961987972259521,-1.5969579855548304,0.0019131158478558064,0.024493210017681122,0.7282455563545227,0.23574291169643402,0.1043417900800705,0.7948956489562988,-1.7502824853054464e-28,-0.031085485592484474
507.0,1053.0,-0.725,0.4828,9.7322,-0.0719,0.1147,0.1917,-1.6010095081725062,-0.48404011130332947,1.2843677997589111,-2.176140069961548,0.5535433292388916,2.444526433944702,5.255110907345571,-0.00020525917352642864,0.20751510560512543,-1.596905533467428,0.0005505020380951464,0.05177426338195801,0.7300117015838623,0.21815438568592072,0.12287890166044235,0.7948915362358093,-5.670693372539514e-36,-0.061898477375507355
507.0,1053.0,-0.725,0.4828,9.7322,-0.0719,0.1147,0.1917,-1.6039682827391566,-0.4987725019454956,1.2601549625396729,-2.1728458404541016,0.5544376969337463,2.385596513748169,5.255179631500997,-0.0008973715594038367,0.2144458293914795,-1.5969536940204065,0.00037706849980168045,0.028250034898519516,0.7312756776809692,0.1920543760061264,0.0997491255402565,0.7949355840682983,-1.3693488593382112e-41,-0.01021235529333353
507.0,1053.0,-0.725,0.4828,9.7322,-0.0719,0.1147,0.1917,-1.6069704494872035,-0.507889986038208,1.3426926136016846,-2.1694438457489014,0.5558278560638428,2.397937297821045,5.25510715225295,-0.004179125186055899,0.20774942636489868,-1.5969417730914515,0.0002868289884645492,0.029699265956878662,0.7324192523956299,0.2117699682712555,0.11799346655607224,0.7949154376983643,0.0001490704744355753,-0.047102928161621094
507.0,1053.0,-0.725,0.4828,9.7322,-0.0719,0.1147,0.1917,-1.6108628712096156,-0.512443482875824,1.3507444858551025,-2.165130615234375,0.5626779794692993,2.406233787536621,5.255090820580282,-0.0034156565088778734,0.21008038520812988,-1.5968979040728968,0.00021747300343122333,0.02784654125571251,0.7341561317443848,0.19836552441120148,0.1092837005853653,0.7948874235153198,0.00011197047570021823,-0.013022063300013542
507.0,1053.0,-0.725,0.4828,9.7322,-0.0719,0.1147,0.1917,-1.6138931713499964,-0.5110716223716736,1.3569741249084473,-2.1617517471313477,0.5675539970397949,2.367325782775879,5.255083071976461,-0.0012794038048014045,0.22484731674194336,-1.596949879323141,0.000184096468728967,0.03455781564116478,0.7351925373077393,0.1854478418827057,0.10358322411775589,0.7949075102806091,9.435900574317202e-05,0.0016600203234702349
507.0,1053.0,-0.725,0.4828,9.7322,-0.0719,0.1147,0.1917,-1.6169430218138636,-0.5105267763137817,1.3925658464431763,-2.158299684524536,0.567862868309021,2.41532301902771,5.255111324578085,-0.0009287816355936229,0.21575260162353516,-1.5969255606280726,0.00015960398013703525,0.022541627287864685,0.7362536787986755,0.16998502612113953,0.09170839190483093,0.7949396371841431,8.153518137987703e-05,-0.030150946229696274
507.0,1053.0,-0.725,0.4828,9.7322,-0.0719,0.1147,0.1917,-1.6210953197874964,-0.5137808918952942,1.3663978576660156,-2.1536478996276855,0.5684101581573486,2.396613597869873,5.255074846535482,-0.0005712474230676889,0.2234741598367691,-1.596945587788717,0.00013555926852859557,0.037652574479579926,0.7373433709144592,0.10681869834661484,0.07573910057544708,0.7948993444442749,0.00010348408250138164,0.0030685835517942905
507.0,1053.0,-0.725,0.4828,9.7322,-0.0719,0.1147,0.1917,-1.6243449650206507,-0.5226268768310547,1.3629159927368164,-2.1501879692077637,0.5738862156867981,2.418975591659546,5.255114960461416,-0.00013775259139947593,0.21547886729240417,-1.5969417730914515,0.00012179822078906,0.027273621410131454,0.7378939986228943,0.0795392245054245,0.0531160905957222,0.7949233055114746,0.00015350863395724446,-0.020051253959536552
507.0,1053.0,-0.725,0.4828,9.7322,-0.0719,0.1147,0.1917,-1.6275388203062953,-0.5229846835136414,1.4361008405685425,-2.1467130184173584,0.5797211527824402,2.375762701034546,5.25510715225295,0.00011814785830210894,0.22129669785499573,-1.5969741980182093,9.673898603068665e-05,0.02215196192264557,0.7383244037628174,0.0763334408402443,0.05531058460474014,0.7949150800704956,0.00019778573187068105,-0.03003850020468235
757.0,1002.0,-0.1645,-0.5139,9.9302,-0.0429,0.0458,0.1292,-1.6317554912962855,-0.5282004475593567,1.49303138256073,-2.1420516967773438,0.5835668444633484,2.3939242362976074,5.255087125092306,2.688611573375965e-07,0.2314184010028839,-1.596949879323141,7.391210237983614e-05,0.03411545231938362,0.7390267848968506,0.10558973252773285,0.06914721429347992,0.7949354648590088,0.00016828304796945304,-0.057029709219932556
757.0,1002.0,-0.1645,-0.5139,9.9302,-0.0429,0.0458,0.1292,-1.6349245510497035,-0.5369184613227844,1.43819260597229,-2.138608455657959,0.5801717638969421,2.414473533630371,5.2551031587417505,7.483849651102048e-11,0.2306206077337265,-1.59698993364443,6.825439777458087e-05,0.012806858867406845,0.7397295832633972,0.12356586009263992,0.07303820550441742,0.7949073314666748,0.00015130764222703874,-0.0002914629876613617
757.0,1002.0,-0.1645,-0.5139,9.9302,-0.0429,0.0458,0.1292,-1.638106485406393,-0.5415813326835632,1.5162522792816162,-2.1351137161254883,0.5795398950576782,2.3894095420837402,5.255071151047506,-0.002268414478749037,0.23646840453147888,-1.5969460646258753,6.34427706245333e-05,0.021477220579981804,0.7404434084892273,0.11256349831819534,0.05573670566082001,0.7949597239494324,0.00013744305761065334,-0.049305204302072525
757.0,1002.0,-0.1645,-0.5139,9.9302,-0.0429,0.0458,0.1292,-1.6413036785521449,-0.542545735836029,1.4920287132263184,-2.1316425800323486,0.5857642889022827,2.3890349864959717,5.255099046021261,-0.000559604843147099,0.23928414285182953,-1.5969341436969202,7.770099909976125e-05,0.01772496849298477,0.7411264181137085,0.08576997369527817,0.054259687662124634,0.7949355840682983,0.00014245722559280694,-0.040423788130283356
