ramyac6/ROB537/final_project/csv/bad/bad_72.csv
tof_0,tof_1,accelx,accely,accelz,gyrox,gyroy,gyroz,shoulder_lift_joint_position,shoulder_lift_joint_velocity,shoulder_lift_joint_effort,elbow_joint_position,elbow_joint_velocity,elbow_joint_effort,wrist_1_joint_position,wrist_1_joint_velocity,wrist_1_joint_effort,wrist_2_joint_position,wrist_2_joint_velocity,wrist_2_joint_effort,wrist_3_joint_position,wrist_3_joint_velocity,wrist_3_joint_effort,shoulder_pan_joint_position,shoulder_pan_joint_velocity,shoulder_pan_joint_effort
353.0,394.0,-2.7703,0.1681,9.2387,-0.0392,0.0206,-0.1129,-2.073033948937887,0.0,3.8388614654541016,-1.7230550050735474,-0.0,1.7432162761688232,5.529246914177694,-0.0,0.2666930556297302,-1.5139034430133265,0.0,-0.01958899386227131,1.1546522378921509,-0.0,-0.002214104635640979,0.9901785850524902,0.0,-0.012144070118665695
353.0,394.0,-2.7703,0.1681,9.2387,-0.0392,0.0206,-0.1129,-2.073033948937887,0.0,3.8662359714508057,-1.7230749130249023,-0.0,1.7638838291168213,5.529274689942159,-0.0,0.26663416624069214,-1.51393968263735,0.0,-0.012358073145151138,1.1546720266342163,-0.0,0.0019487314857542515,0.9902064204216003,0.0,-0.003571081208065152
353.0,394.0,-2.7703,0.1681,9.2387,-0.0392,0.0206,-0.1129,-2.073078771630758,0.0,3.821578025817871,-1.723046898841858,-0.0,1.7881181240081787,5.5292988298232935,-0.0,0.2530537545681,-1.5138796011554163,0.0,-0.015545953065156937,1.1546680927276611,-0.0,-0.0037419525906443596,0.9901785850524902,0.0,0.031404636800289154
353.0,394.0,-2.7703,0.1681,9.2387,-0.0392,0.0206,-0.1129,-2.0730096302428187,0.0,3.8533830642700195,-1.7231035232543945,-0.0,1.790391445159912,5.529294776707449,-0.0,0.2542484998703003,-1.5139239470111292,0.0,-0.02529480680823326,1.1546761989593506,-0.0,-0.002899161772802472,0.9902144074440002,0.0,-0.014961034059524536
353.0,394.0,-2.7703,0.1681,9.2387,-0.0392,0.0206,-0.1129,-2.0730377636351527,0.0,3.8470840454101562,-1.7230675220489502,-0.0,1.6988928318023682,5.529270636826315,-0.0,0.24694028496742249,-1.5138996283160608,0.0,-0.012090865522623062,1.1546317338943481,-0.0,0.0064445422030985355,0.9902346730232239,0.0,-0.042920149862766266
353.0,394.0,-2.7703,0.1681,9.2387,-0.0392,0.0206,-0.1129,-2.0730868778624476,0.0,3.8444175720214844,-1.7231149673461914,-0.0,1.7690198421478271,5.529274689942159,-0.0,0.2598379850387573,-1.5139120260821741,0.0,-0.01655540056526661,1.1546238660812378,-0.0,0.0005903902929276228,0.9901665449142456,0.0,0.005548818036913872
353.0,394.0,-2.7703,0.1681,9.2387,-0.0392,0.0206,-0.1129,-2.0730296574034632,0.0,3.80499267578125,-1.723035454750061,-0.0,1.7462799549102783,5.529206323414602,-0.0,0.25805333256721497,-1.5138915220843714,0.0,-0.031175537034869194,1.1546878814697266,-0.0,0.01081814244389534,0.990218460559845,0.0,0.002353447489440441
353.0,394.0,-2.7703,0.1681,9.2387,-0.0392,0.0206,-0.1129,-2.0730906925597132,0.0,3.8043289184570312,-1.7230148315429688,-0.0,1.7864174842834473,5.52925460317687,-0.0,0.25525856018066406,-1.5138915220843714,0.0,-0.011556495912373066,1.1546437740325928,-0.0,0.007433254271745682,0.9901745915412903,0.0,0.026219148188829422
353.0,394.0,-2.7703,0.1681,9.2387,-0.0392,0.0206,-0.1129,-2.0730301342406214,0.0,3.8333065509796143,-1.7230830192565918,-0.0,1.7498812675476074,5.529262828617849,-0.0,0.2681272625923157,-1.5139077345477503,0.0,-0.014577645808458328,1.154639720916748,-0.0,-0.001661555957980454,0.9901666641235352,0.0,-0.04499322921037674
354.0,392.0,-2.8175,0.1436,9.4122,-0.0342,0.0229,-0.1184,-2.0730539760985316,0.0,3.8889691829681396,-1.7230830192565918,-0.0,1.7520856857299805,5.529294717102804,-0.0,0.2555431127548218,-1.5139277617083948,0.0,-0.024529723450541496,1.1546839475631714,-0.0,-0.0011345124803483486,0.99016273021698,0.0,0.009341390803456306
354.0,392.0,-2.8175,0.1436,9.4122,-0.0342,0.0229,-0.1184,-2.0730463467040003,0.0,3.8453004360198975,-1.7231190204620361,-0.0,1.7437915802001953,5.529274689942159,-0.0,0.2409726232290268,-1.5138676802264612,0.0,-0.009146236814558506,1.1546998023986816,-0.0,0.011689051985740662,0.9901825785636902,0.0,-0.04292798414826393
354.0,392.0,-2.8175,0.1436,9.4122,-0.0342,0.0229,-0.1184,-2.0730496845641078,0.0,3.845271348953247,-1.7230838537216187,-0.0,1.7740211486816406,5.529311108380117,-0.0,0.25791406631469727,-1.5139434973346155,0.0,-0.01282399520277977,1.1546560525894165,-0.0,0.00267597078345716,0.9901785850524902,0.0,0.03207123279571533
354.0,392.0,-2.8175,0.1436,9.4122,-0.0342,0.0229,-0.1184,-2.073066373864645,0.0,3.8196208477020264,-1.7230830192565918,-0.0,1.7578269243240356,5.529250430851736,-0.0,0.24476006627082825,-1.5139358679400843,0.0,-0.006678247824311256,1.1546920537948608,-0.0,0.0038839064072817564,0.9901745915412903,0.0,0.0107791842892766
354.0,392.0,-2.8175,0.1436,9.4122,-0.0342,0.0229,-0.1184,-2.0730377636351527,0.0,3.8634371757507324,-1.7231272459030151,-0.0,1.7674534320831299,5.529306995659628,-0.0,0.26796722412109375,-1.5138915220843714,0.0,-0.007247420493513346,1.154647707939148,-0.0,0.0020308499224483967,0.9901785850524902,0.0,-0.0010304581373929977
354.0,392.0,-2.8175,0.1436,9.4122,-0.0342,0.0229,-0.1184,-2.073022028008932,0.0,3.865468978881836,-1.723079800605774,-0.0,1.7735595703125,5.529266822129049,-0.0,0.24318042397499084,-1.5138915220843714,0.0,-0.007181353401392698,1.1546801328659058,-0.0,-0.0017132095526903868,0.9901464581489563,0.0,-0.026261374354362488
354.0,392.0,-2.8175,0.1436,9.4122,-0.0342,0.0229,-0.1184,-2.0730134449400843,0.0,3.8445582389831543,-1.723079800605774,-0.0,1.752351999282837,5.529274689942159,-0.0,0.24879013001918793,-1.5139153639422815,0.0,-0.010310390032827854,1.1546679735183716,-0.0,0.007094645872712135,0.9902146458625793,0.0,0.009283941239118576
354.0,392.0,-2.8175,0.1436,9.4122,-0.0342,0.0229,-0.1184,-2.0730420551695765,0.0,3.8331992626190186,-1.7230757474899292,-0.0,1.7986782789230347,5.529246377735891,-0.0,0.2527763545513153,-1.5139239470111292,0.0,-0.008133124560117722,1.1547203063964844,-0.0,0.004894200246781111,0.9901705980300903,0.0,0.02159166894853115
354.0,392.0,-2.8175,0.1436,9.4122,-0.0342,0.0229,-0.1184,-2.0730582676329554,0.0,3.8397715091705322,-1.7231035232543945,-0.0,1.752554178237915,5.529287028103628,-0.0,0.25211936235427856,-1.5138996283160608,0.0,-0.013832464814186096,1.154647707939148,-0.0,0.006154616363346577,0.9901666641235352,0.0,0.03528459370136261
354.0,392.0,-2.8175,0.1436,9.4122,-0.0342,0.0229,-0.1184,-2.0730744800963343,0.0,3.849277973175049,-1.72304368019104,-0.0,1.7259849309921265,5.529330718308248,-0.0,0.2659575343132019,-1.5139477888690394,0.0,-0.029794935137033463,1.1546800136566162,-0.0,0.005496634636074305,0.9901904463768005,0.0,-0.0010064783273264766
354.0,392.0,-2.8175,0.1436,9.4122,-0.0342,0.0229,-0.1184,-2.0730706653990687,0.0,3.8516955375671387,-1.723078966140747,-0.0,1.7832441329956055,5.529230463295736,-0.0,0.26158225536346436,-1.5139315764056605,0.0,-0.012416739948093891,1.1546720266342163,-0.0,0.016909275203943253,0.9901666045188904,0.0,-0.005724540911614895
354.0,392.0,-2.8175,0.1436,9.4122,-0.0342,0.0229,-0.1184,-2.0730420551695765,0.0,3.840670585632324,-1.723035454750061,-0.0,1.801615595817566,5.529306995659628,-0.0,0.2661273181438446,-1.5139358679400843,0.0,-0.004769373685121536,1.1546839475631714,-0.0,0.0042321388609707355,0.9901504516601562,0.0,-0.02147057093679905
354.0,392.0,-2.8175,0.1436,9.4122,-0.0342,0.0229,-0.1184,-2.073017736474508,0.0,3.8752527236938477,-1.7230913639068604,-0.0,1.7776618003845215,5.5293229697044275,-0.0,0.25636887550354004,-1.5139153639422815,0.0,-0.01722174882888794,1.154676079750061,-0.0,0.0076874359510838985,0.9901824593544006,0.0,0.0038969051092863083
354.0,392.0,-2.8175,0.1436,9.4122,-0.0342,0.0229,-0.1184,-2.0730377636351527,0.0,3.813701629638672,-1.72304368019104,-0.0,1.7442255020141602,5.529270636826315,-0.0,0.26368847489356995,-1.513911549245016,0.0,-0.019054196774959564,1.1546483039855957,-0.0,0.013316914439201355,0.9901666641235352,0.0,0.011275475844740868
354.0,392.0,-2.8175,0.1436,9.4122,-0.0342,0.0229,-0.1184,-2.073062082330221,0.0,3.8174080848693848,-1.7231076955795288,-0.0,1.7457785606384277,5.529282855778494,-0.0,0.25708678364753723,-1.5138996283160608,0.0,-0.015235668048262596,1.1546680927276611,-0.0,0.004001758061349392,0.9901745915412903,0.0,0.01624680869281292
354.0,392.0,-2.8175,0.1436,9.4122,-0.0342,0.0229,-0.1184,-2.0730582676329554,0.0,3.819366693496704,-1.723071575164795,-0.0,1.7647056579589844,5.52928243854598,-0.0,0.24913066625595093,-1.5139239470111292,0.0,-0.030538540333509445,1.154656171798706,-0.0,-0.00791349820792675,0.9901465177536011,0.0,-0.03006437048316002
354.0,392.0,-2.8175,0.1436,9.4122,-0.0342,0.0229,-0.1184,-2.073050161401266,0.0,3.852367401123047,-1.7230912446975708,-0.0,1.7914525270462036,5.529278743058004,-0.0,0.26181790232658386,-1.513907257710592,0.0,-0.006478612311184406,1.1546159982681274,-0.0,0.02011003904044628,0.9901706576347351,0.0,0.015042148530483246
355.0,408.0,-2.7966,0.1226,9.2662,-0.0386,0.0292,-0.1187,-2.073017736474508,0.0,3.872709274291992,-1.7230838537216187,-0.0,1.7324814796447754,5.529287028103628,-0.0,0.24999916553497314,-1.5139039198504847,0.0,-0.011283542960882187,1.1546279191970825,-0.0,0.003651001024991274,0.9901944994926453,0.0,-0.01309345941990614
355.0,408.0,-2.7966,0.1226,9.2662,-0.0386,0.0292,-0.1187,-2.0730344257750453,0.0,3.821957588195801,-1.7230913639068604,-0.0,1.7857482433319092,5.529290663986959,-0.0,0.25418204069137573,-1.5138633886920374,0.0,-0.03490496054291725,1.1546878814697266,-0.0,-0.0054154531098902225,0.9901706576347351,0.0,-0.0038193129003047943
355.0,408.0,-2.7966,0.1226,9.2662,-0.0386,0.0292,-0.1187,-2.0730463467040003,0.0,3.834911823272705,-1.7230632305145264,-0.0,1.7304115295410156,5.529258298664846,-0.0,0.2617363929748535,-1.513911549245016,0.0,-0.009072454646229744,1.154712438583374,-0.0,0.0007230218034237623,0.9901944398880005,0.0,-0.006845434196293354
355.0,408.0,-2.7966,0.1226,9.2662,-0.0386,0.0292,-0.1187,-2.073062082330221,0.0,3.880499839782715,-1.7231354713439941,-0.0,1.7880421876907349,5.5292467949684045,-0.0,0.25712960958480835,-1.5139153639422815,0.0,-0.01996561698615551,1.1546998023986816,-0.0,0.00430968776345253,0.9901904463768005,0.0,-0.04227632284164429
355.0,408.0,-2.7966,0.1226,9.2662,-0.0386,0.0292,-0.1187,-2.0730258427061976,0.0,3.81022572517395,-1.723055362701416,-0.0,1.7891745567321777,5.5292866108711145,-0.0,0.2484549880027771,-1.5139558951007288,0.0,-0.006645533721894026,1.1546878814697266,-0.0,0.0012767200823873281,0.99015873670578,0.0,-0.020503349602222443
355.0,408.0,-2.7966,0.1226,9.2662,-0.0386,0.0292,-0.1187,-2.0730139217772425,0.0,3.8523433208465576,-1.7230830192565918,-0.0,1.749717116355896,5.529303002148428,-0.0,0.24320250749588013,-1.5139277617083948,0.0,-0.01627296954393387,1.1546522378921509,-0.0,-0.008030695840716362,0.9901866316795349,0.0,-0.018964553251862526
355.0,408.0,-2.7966,0.1226,9.2662,-0.0386,0.0292,-0.1187,-2.0730582676329554,0.0,3.868438243865967,-1.7230591773986816,-0.0,1.764453649520874,5.529287028103628,-0.0,0.2596109211444855,-1.5139077345477503,0.0,-0.009092180989682674,1.1546680927276611,-0.0,0.01860041171312332,0.9901665449142456,0.0,-0.04794221743941307
355.0,408.0,-2.7966,0.1226,9.2662,-0.0386,0.0292,-0.1187,-2.0730420551695765,0.0,3.8320531845092773,-1.7231109142303467,-0.0,1.7284290790557861,5.529302942543783,-0.0,0.25919467210769653,-1.5139153639422815,0.0,-0.005426461808383465,1.154584288597107,-0.0,-0.0017567090690135956,0.9901825189590454,0.0,-0.04192180931568146
355.0,408.0,-2.7966,0.1226,9.2662,-0.0386,0.0292,-0.1187,-2.0730258427061976,0.0,3.8986568450927734,-1.723106861114502,-0.0,1.7581722736358643,5.5292550204093835,-0.0,0.25966140627861023,-1.5138996283160608,0.0,-0.025576595216989517,1.1546443700790405,-0.0,0.00493946298956871,0.9902064204216003,0.0,0.0067273275926709175
355.0,408.0,-2.7966,0.1226,9.2662,-0.0386,0.0292,-0.1187,-2.073094507256979,0.0,3.848322629928589,-1.7231035232543945,-0.0,1.7756798267364502,5.5292866108711145,-0.0,0.2522346079349518,-1.5139358679400843,0.0,-0.01888793148100376,1.1546522378921509,-0.0,-0.003041733056306839,0.9901944398880005,0.0,0.03372667357325554
355.0,408.0,-2.7966,0.1226,9.2662,-0.0386,0.0292,-0.1187,-2.0730377636351527,0.0,3.7848801612854004,-1.7230428457260132,-0.0,1.7229456901550293,5.52923862913207,-0.0,0.24619629979133606,-1.5139477888690394,0.0,-0.008015230298042297,1.154676079750061,-0.0,0.0038913171738386154,0.9901425242424011,0.0,0.03602217137813568
355.0,408.0,-2.7966,0.1226,9.2662,-0.0386,0.0292,-0.1187,-2.072977682153219,0.0,3.820443630218506,-1.7230509519577026,-0.0,1.7627946138381958,5.52925871589736,-0.0,0.25446081161499023,-1.513895336781637,0.0,-0.013052918948233128,1.154607892036438,-0.0,0.015748223289847374,0.9901706576347351,0.0,0.015824027359485626
355.0,408.0,-2.7966,0.1226,9.2662,-0.0386,0.0292,-0.1187,-2.073022028008932,0.0,3.8070154190063477,-1.7230757474899292,-0.0,1.7462083101272583,5.529274689942159,-0.0,0.2537941038608551,-1.513895336781637,0.0,-0.02153632789850235,1.1546522378921509,-0.0,0.005592275410890579,0.9901865124702454,0.0,-0.004039593040943146
355.0,408.0,-2.7966,0.1226,9.2662,-0.0386,0.0292,-0.1187,-2.0730496845641078,0.0,3.8277053833007812,-1.7230675220489502,-0.0,1.8025267124176025,5.529294776707449,-0.0,0.2581225633621216,-1.513895336781637,0.0,-0.010782263241708279,1.154664158821106,-0.0,0.004670744761824608,0.9901745915412903,0.0,0.037159960716962814
355.0,408.0,-2.7966,0.1226,9.2662,-0.0386,0.0292,-0.1187,-2.0730258427061976,0.0,3.817281484603882,-1.7231035232543945,-0.0,1.7060883045196533,5.529278743058004,-0.0,0.26608559489250183,-1.513951603566305,0.0,-0.0275479257106781,1.1546602249145508,-0.0,0.003822120139375329,0.9902544617652893,0.0,0.002269771182909608
355.0,408.0,-2.7966,0.1226,9.2662,-0.0386,0.0292,-0.1187,-2.0730296574034632,0.0,3.8293802738189697,-1.7231035232543945,-0.0,1.8203282356262207,5.529287028103628,-0.0,0.2626371383666992,-1.5138996283160608,0.0,-0.0062325154431164265,1.1546839475631714,-0.0,0.0071072811260819435,0.9901547431945801,0.0,-9.440258145332336e-05
355.0,408.0,-2.7966,0.1226,9.2662,-0.0386,0.0292,-0.1187,-2.073033948937887,0.0,3.849778175354004,-1.7231272459030151,-0.0,1.7659404277801514,5.529290663986959,-0.0,0.2531948387622833,-1.5139272848712366,0.0,-0.009360644966363907,1.154664158821106,-0.0,-0.014921783469617367,0.9901785850524902,0.0,-0.014509135857224464
355.0,408.0,-2.7966,0.1226,9.2662,-0.0386,0.0292,-0.1187,-2.073078771630758,0.0,3.886350154876709,-1.7230912446975708,-0.0,1.7690775394439697,5.529287028103628,-0.0,0.2640690207481384,-1.5138714949237269,0.0,-0.018908722326159477,1.1546720266342163,-0.0,-7.672910578548908e-05,0.99016273021698,0.0,-0.013265280053019524
344.0,371.0,-2.8295,0.1394,9.4008,-0.0354,0.0267,-0.1107,-2.0730582676329554,0.0,3.845217227935791,-1.7231231927871704,-0.0,1.7178056240081787,5.529250848084249,-0.0,0.24784213304519653,-1.5139196554767054,0.0,-0.02012522518634796,1.1546920537948608,-0.0,0.0010358216241002083,0.9901785850524902,0.0,0.005093428306281567
344.0,371.0,-2.8295,0.1394,9.4008,-0.0354,0.0267,-0.1107,-2.0730906925597132,0.0,3.8428070545196533,-1.7231076955795288,-0.0,1.7980988025665283,5.529270994454183,-0.0,0.2506127953529358,-1.5139201323138636,0.0,-0.017726998776197433,1.1547361612319946,-0.0,0.0059682694263756275,0.9901626706123352,0.0,-0.02730046585202217
344.0,371.0,-2.8295,0.1394,9.4008,-0.0354,0.0267,-0.1107,-2.073017736474508,0.0,3.7976229190826416,-1.7231109142303467,-0.0,1.7503373622894287,5.5292866108711145,-0.0,0.2606382369995117,-1.5139802137957972,0.0,-0.0034935602452605963,1.1546199321746826,-0.0,0.007014220580458641,0.9901905059814453,0.0,0.055853016674518585
344.0,371.0,-2.8295,0.1394,9.4008,-0.0354,0.0267,-0.1107,-2.073082586328024,0.0,3.8578240871429443,-1.7230870723724365,-0.0,1.7979485988616943,5.52925460317687,-0.0,0.27178308367729187,-1.5139277617083948,0.0,-0.011310219764709473,1.1547480821609497,-0.0,0.006204470060765743,0.9902346730232239,0.0,-0.008431784808635712
344.0,371.0,-2.8295,0.1394,9.4008,-0.0354,0.0267,-0.1107,-2.073022028008932,0.0,3.851630687713623,-1.7230675220489502,-0.0,1.7410266399383545,5.529266822129049,-0.0,0.25025010108947754,-1.5139153639422815,0.0,-0.009528025984764099,1.154639482498169,-0.0,-0.006043829023838043,0.9901785850524902,0.0,-0.00706374179571867
344.0,371.0,-2.8295,0.1394,9.4008,-0.0354,0.0267,-0.1107,-2.0730377636351527,0.0,3.826901435852051,-1.723046898841858,-0.0,1.7669110298156738,5.529282855778494,-0.0,0.2620255947113037,-1.5138757864581507,0.0,-0.009537721984088421,1.1546521186828613,-0.0,0.0054775080643594265,0.9901785850524902,0.0,0.0301042590290308
344.0,371.0,-2.8295,0.1394,9.4008,-0.0354,0.0267,-0.1107,-2.0730420551695765,0.0,3.851841449737549,-1.7230913639068604,-0.0,1.7838160991668701,5.5293070552642725,-0.0,0.2679273784160614,-1.5139434973346155,0.0,-0.017160924151539803,1.1547000408172607,-0.0,0.0026465742848813534,0.9902504682540894,0.0,-0.016251321882009506
344.0,371.0,-2.8295,0.1394,9.4008,-0.0354,0.0267,-0.1107,-2.0730182133116664,0.0,3.809360980987549,-1.7230912446975708,-0.0,1.7613388299942017,5.529270636826315,-0.0,0.25799405574798584,-1.5139477888690394,0.0,-0.013126736506819725,1.154639482498169,-0.0,-0.004891903139650822,0.9902185797691345,0.0,-0.004048109985888004
344.0,371.0,-2.8295,0.1394,9.4008,-0.0354,0.0267,-0.1107,-2.073066373864645,0.0,3.8649449348449707,-1.7230594158172607,-0.0,1.7674881219863892,5.5292866108711145,-0.0,0.26327866315841675,-1.51393968263735,0.0,-0.00863526202738285,1.1546118259429932,-0.0,0.012399682775139809,0.9901984333992004,0.0,-0.011473970487713814
344.0,371.0,-2.8295,0.1394,9.4008,-0.0354,0.0267,-0.1107,-2.0730706653990687,0.0,3.8252344131469727,-1.7231028079986572,-0.0,1.7275933027267456,5.529270636826315,-0.0,0.2538392245769501,-1.5139477888690394,0.0,-0.008571604266762733,1.1546556949615479,-0.0,0.0013760336441919208,0.9901905059814453,0.0,-0.04033404216170311
344.0,371.0,-2.8295,0.1394,9.4008,-0.0354,0.0267,-0.1107,-2.0730463467040003,0.0,3.8427000045776367,-1.7230870723724365,-0.0,1.745347499847412,5.5293147442634485,-0.0,0.2542162537574768,-1.5138714949237269,0.0,-0.018200911581516266,1.1546154022216797,-0.0,0.0060603562742471695,0.9901745915412903,0.0,-0.024358045309782028
344.0,371.0,-2.8295,0.1394,9.4008,-0.0354,0.0267,-0.1107,-2.073078771630758,0.0,3.866278648376465,-1.7230994701385498,-0.0,1.78426194190979,5.52925460317687,-0.0,0.25409913063049316,-1.5139315764056605,0.0,-0.013029329478740692,1.1546599864959717,-0.0,-0.007506523281335831,0.9902103543281555,0.0,-0.04470835626125336
344.0,371.0,-2.8295,0.1394,9.4008,-0.0354,0.0267,-0.1107,-2.0730539760985316,0.0,3.815951347351074,-1.7230830192565918,-0.0,1.7514021396636963,5.529242682247915,-0.0,0.25244343280792236,-1.5138796011554163,0.0,-0.019442737102508545,1.1546804904937744,-0.0,0.002892065793275833,0.9901984333992004,0.0,-0.06474263221025467
344.0,371.0,-2.8295,0.1394,9.4008,-0.0354,0.0267,-0.1107,-2.0730744800963343,0.0,3.819019317626953,-1.7230314016342163,-0.0,1.7433335781097412,5.529282855778494,-0.0,0.2621154189109802,-1.51393968263735,0.0,-0.01467924565076828,1.1546273231506348,-0.0,0.007529350463300943,0.9901785850524902,0.0,-0.02839522622525692
344.0,371.0,-2.8295,0.1394,9.4008,-0.0354,0.0267,-0.1107,-2.073082586328024,0.0,3.8681797981262207,-1.723071575164795,-0.0,1.7666780948638916,5.529266822129049,-0.0,0.24923595786094666,-1.5138714949237269,0.0,-0.014693809673190117,1.1546764373779297,-0.0,0.003760813968256116,0.9902064204216003,0.0,-0.005032019689679146
344.0,371.0,-2.8295,0.1394,9.4008,-0.0354,0.0267,-0.1107,-2.073062082330221,0.0,3.8081703186035156,-1.7230830192565918,-0.0,1.7646063566207886,5.52925871589736,-0.0,0.2511606216430664,-1.5139239470111292,0.0,-0.010197523981332779,1.1547001600265503,-0.0,0.006541115231812,0.9901983737945557,0.0,-0.012414196506142616
344.0,371.0,-2.8295,0.1394,9.4008,-0.0354,0.0267,-0.1107,-2.0730496845641078,0.0,3.8390655517578125,-1.7230952978134155,-0.0,1.7572550773620605,5.529230463295736,-0.0,0.2557484805583954,-1.5138958136187952,0.0,-0.01535673439502716,1.1546964645385742,-0.0,-0.0032221742440015078,0.9901665449142456,0.0,0.002980767050758004
356.0,386.0,-2.7858,0.0999,9.387,-0.0344,0.0232,-0.111,-2.0730420551695765,0.0,3.8449220657348633,-1.7230757474899292,-0.0,1.750411033630371,5.529282498150625,-0.0,0.2576371133327484,-1.5139034430133265,0.0,-0.0092508215457201,1.1546604633331299,-0.0,0.006278212182223797,0.9901666641235352,0.0,0.007877640426158905
356.0,386.0,-2.7858,0.0999,9.387,-0.0344,0.0232,-0.111,-2.0730139217772425,0.0,3.8343989849090576,-1.723115086555481,-0.0,1.7411690950393677,5.529278743058004,-0.0,0.2552795708179474,-1.513883415852682,0.0,-0.011914881877601147,1.1546396017074585,-0.0,0.011019062250852585,0.9902226328849792,0.0,0.01838509738445282
356.0,386.0,-2.7858,0.0999,9.387,-0.0344,0.0232,-0.111,-2.0730463467040003,0.0,3.863265037536621,-1.723078966140747,-0.0,1.6951258182525635,5.529274689942159,-0.0,0.24742470681667328,-1.5138877073871058,0.0,-0.0053215427324175835,1.1546480655670166,-0.0,0.004125943873077631,0.9901745915412903,0.0,-0.02352791838347912
356.0,386.0,-2.7858,0.0999,9.387,-0.0344,0.0232,-0.111,-2.0730420551695765,0.0,3.8781394958496094,-1.7230477333068848,-0.0,1.7724133729934692,5.5292866108711145,-0.0,0.2566477656364441,-1.5139434973346155,0.0,-0.016574662178754807,1.1546924114227295,-0.0,0.004624966066330671,0.9901666641235352,0.0,-0.004051721654832363
356.0,386.0,-2.7858,0.0999,9.387,-0.0344,0.0232,-0.111,-2.073017736474508,0.0,3.8106284141540527,-1.7230994701385498,-0.0,1.781034231185913,5.529294776707449,-0.0,0.2687159478664398,-1.5139196554767054,0.0,-0.010111643001437187,1.1546881198883057,-0.0,-0.0030452245846390724,0.9901746511459351,0.0,0.013988152146339417
356.0,386.0,-2.7858,0.0999,9.387,-0.0344,0.0232,-0.111,-2.0730582676329554,0.0,3.8672327995300293,-1.7231076955795288,-0.0,1.7870075702667236,5.52923862913207,-0.0,0.2591376304626465,-1.5139196554767054,0.0,-0.014843403361737728,1.154627799987793,-0.0,-0.0025419872254133224,0.9901506900787354,0.0,0.012190490029752254
356.0,386.0,-2.7858,0.0999,9.387,-0.0344,0.0232,-0.111,-2.0729781589903773,0.0,3.840381145477295,-1.723071575164795,-0.0,1.743041753768921,5.529331135540762,-0.0,0.2581561803817749,-1.5138915220843714,0.0,-0.020265378057956696,1.1546882390975952,-0.0,-0.00867204274982214,0.9901547431945801,0.0,0.004981569945812225
356.0,386.0,-2.7858,0.0999,9.387,-0.0344,0.0232,-0.111,-2.0730706653990687,0.0,3.8136746883392334,-1.7231028079986572,-0.0,1.716026782989502,5.52925871589736,-0.0,0.2631766200065613,-1.5138915220843714,0.0,-0.02089044265449047,1.1546599864959717,-0.0,-0.007137611508369446,0.99016273021698,0.0,0.004474984481930733
356.0,386.0,-2.7858,0.0999,9.387,-0.0344,0.0232,-0.111,-2.0730496845641078,0.0,3.8306093215942383,-1.7230830192565918,-0.0,1.7718795537948608,5.529262769013204,-0.0,0.2509133815765381,-1.5139277617083948,0.0,-0.008685464970767498,1.1547083854675293,-0.0,0.0018562537152320147,0.9901705980300903,0.0,-0.028236180543899536
356.0,386.0,-2.7858,0.0999,9.387,-0.0344,0.0232,-0.111,-2.0730539760985316,0.0,3.8272056579589844,-1.7230509519577026,-0.0,1.7706375122070312,5.529270636826315,-0.0,0.26063141226768494,-1.5138996283160608,0.0,-0.00024027912877500057,1.1546964645385742,-0.0,0.0019948503468185663,0.9902184009552002,0.0,0.01063074916601181
356.0,386.0,-2.7858,0.0999,9.387,-0.0344,0.0232,-0.111,-2.0730744800963343,0.0,3.856414794921875,-1.7230511903762817,-0.0,1.7722020149230957,5.529290663986959,-0.0,0.24730342626571655,-1.5138996283160608,0.0,-0.003477599937468767,1.1547040939331055,-0.0,-0.018518365919589996,0.9902145862579346,0.0,0.023314934223890305
356.0,386.0,-2.7858,0.0999,9.387,-0.0344,0.0232,-0.111,-2.073010107079977,0.0,3.852536916732788,-1.7230993509292603,-0.0,1.7482099533081055,5.52928243854598,-0.0,0.2635803818702698,-1.5139320532428187,0.0,-0.014523675665259361,1.1546924114227295,-0.0,-0.0007006782107055187,0.990218460559845,0.0,-0.002330266870558262
356.0,386.0,-2.7858,0.0999,9.387,-0.0344,0.0232,-0.111,-2.0730020008482875,0.0,3.8324737548828125,-1.7230913639068604,-0.0,1.7342264652252197,5.529294776707449,-0.0,0.27082422375679016,-1.5139034430133265,0.0,-0.016356032341718674,1.1546194553375244,-0.0,0.0012618020409718156,0.9901745915412903,0.0,0.02797924540936947
356.0,386.0,-2.7858,0.0999,9.387,-0.0344,0.0232,-0.111,-2.073010107079977,0.0,3.846226692199707,-1.7230675220489502,-0.0,1.7484362125396729,5.529266822129049,-0.0,0.25683027505874634,-1.513911549245016,0.0,-0.005819494370371103,1.1546919345855713,-0.0,0.018816228955984116,0.9901984333992004,0.0,0.004421344492584467
356.0,386.0,-2.7858,0.0999,9.387,-0.0344,0.0232,-0.111,-2.0730539760985316,0.0,3.821687936782837,-1.7231076955795288,-0.0,1.7741172313690186,5.529246377735891,-0.0,0.2556508779525757,-1.5139196554767054,0.0,-0.027836516499519348,1.1546924114227295,-0.0,0.005441311746835709,0.9901666641235352,0.0,-0.03953031823039055
356.0,386.0,-2.7858,0.0999,9.387,-0.0344,0.0232,-0.111,-2.073033948937887,0.0,3.874629259109497,-1.7230558395385742,-0.0,1.725521445274353,5.529218125134268,-0.0,0.24043744802474976,-1.5138996283160608,0.0,-0.007809215225279331,1.154656171798706,-0.0,0.005494590848684311,0.9901666641235352,0.0,0.04883485659956932
356.0,386.0,-2.7858,0.0999,9.387,-0.0344,0.0232,-0.111,-2.0730377636351527,0.0,3.806025505065918,-1.7230870723724365,-0.0,1.755746841430664,5.529287028103628,-0.0,0.2546800971031189,-1.5138958136187952,0.0,-0.011686506681144238,1.154579758644104,-0.0,0.0008144151070155203,0.99015873670578,0.0,-0.010814119130373001
351.0,401.0,-2.7864,0.1322,9.3619,-0.0334,0.0284,-0.1132,-2.0730463467040003,0.0,3.831702947616577,-1.7230634689331055,-0.0,1.7430908679962158,5.5292988298232935,-0.0,0.24872562289237976,-1.5139153639422815,0.0,-0.013221219182014465,1.1546804904937744,-0.0,0.0054129064083099365,0.9901506304740906,0.0,-0.06404322385787964
351.0,401.0,-2.7864,0.1322,9.3619,-0.0334,0.0284,-0.1132,-2.073106428185934,0.0,3.8459577560424805,-1.723071575164795,-0.0,1.7998716831207275,5.529274689942159,-0.0,0.24270685017108917,-1.5139196554767054,0.0,-0.01764778047800064,1.1546190977096558,-0.0,-0.006048992276191711,0.990178644657135,0.0,-0.011581501923501492
351.0,401.0,-2.7864,0.1322,9.3619,-0.0334,0.0284,-0.1132,-2.073062082330221,0.0,3.882134437561035,-1.7230873107910156,-0.0,1.7662436962127686,5.52926646450118,-0.0,0.2727971076965332,-1.5139120260821741,0.0,-0.004621988162398338,1.1546680927276611,-0.0,0.004390927497297525,0.990150511264801,0.0,0.04003120958805084
351.0,401.0,-2.7864,0.1322,9.3619,-0.0334,0.0284,-0.1132,-2.0730377636351527,0.0,3.848346710205078,-1.7230873107910156,-0.0,1.777214527130127,5.529290663986959,-0.0,0.2624267637729645,-1.5139153639422815,0.0,-0.008320481516420841,1.1546273231506348,-0.0,0.007176890037953854,0.9902024269104004,0.0,-0.010134049691259861
351.0,401.0,-2.7864,0.1322,9.3619,-0.0334,0.0284,-0.1132,-2.0730139217772425,0.0,3.856752395629883,-1.7230675220489502,-0.0,1.6988228559494019,5.529306995659628,-0.0,0.2599080801010132,-1.5138996283160608,0.0,-0.022552937269210815,1.1546876430511475,-0.0,0.0037390710785984993,0.9901905059814453,0.0,0.015906833112239838
351.0,401.0,-2.7864,0.1322,9.3619,-0.0334,0.0284,-0.1132,-2.073022028008932,0.0,3.8387203216552734,-1.7231191396713257,-0.0,1.8111026287078857,5.529290663986959,-0.0,0.2562316060066223,-1.5138958136187952,0.0,-0.018397482112050056,1.1546680927276611,-0.0,-0.00675349123775959,0.9901944994926453,0.0,-0.04319052770733833
351.0,401.0,-2.7864,0.1322,9.3619,-0.0334,0.0284,-0.1132,-2.0730463467040003,0.0,3.8612117767333984,-1.7230830192565918,-0.0,1.7890270948410034,5.52928243854598,-0.0,0.2655251920223236,-1.5139439741717737,0.0,-0.022948842495679855,1.1546759605407715,-0.0,0.0068871150724589825,0.9901465177536011,0.0,0.009871171787381172
351.0,401.0,-2.7864,0.1322,9.3619,-0.0334,0.0284,-0.1132,-2.0730906925597132,0.0,3.843348264694214,-1.723078966140747,-0.0,1.7589993476867676,5.529315161495962,-0.0,0.25251883268356323,-1.513883415852682,0.0,-0.015478025190532207,1.1546478271484375,-0.0,0.01265054102987051,0.9901785850524902,0.0,-0.009602570906281471
351.0,401.0,-2.7864,0.1322,9.3619,-0.0334,0.0284,-0.1132,-2.0730377636351527,0.0,3.8192861080169678,-1.7230830192565918,-0.0,1.7422547340393066,5.529238688736715,-0.0,0.24894165992736816,-1.5139239470111292,0.0,-0.021395809948444366,1.1546235084533691,-0.0,0.006471805274486542,0.9901547431945801,0.0,0.00652912724763155
351.0,401.0,-2.7864,0.1322,9.3619,-0.0334,0.0284,-0.1132,-2.0730420551695765,0.0,3.8605411052703857,-1.7231035232543945,-0.0,1.7394156455993652,5.529274689942159,-0.0,0.2591877579689026,-1.5138915220843714,0.0,0.004195645451545715,1.154656171798706,-0.0,0.006707821972668171,0.9902025461196899,0.0,-0.006483902223408222
351.0,401.0,-2.7864,0.1322,9.3619,-0.0334,0.0284,-0.1132,-2.073050161401266,0.0,3.824108123779297,-1.7230838537216187,-0.0,1.7374645471572876,5.52925460317687,-0.0,0.26019343733787537,-1.5139153639422815,0.0,-0.018786447122693062,1.1546437740325928,-0.0,0.01126141007989645,0.9902266263961792,0.0,-0.025903616100549698
351.0,401.0,-2.7864,0.1322,9.3619,-0.0334,0.0284,-0.1132,-2.073022028008932,0.0,3.884817600250244,-1.723071575164795,-0.0,1.767421007156372,5.529250848084249,-0.0,0.2655411660671234,-1.5139153639422815,0.0,-0.019552988931536674,1.1546478271484375,-0.0,0.006633366923779249,0.9901745915412903,0.0,-0.023566056042909622
351.0,401.0,-2.7864,0.1322,9.3619,-0.0334,0.0284,-0.1132,-2.073010107079977,0.0,3.8315746784210205,-1.7231076955795288,-0.0,1.7682385444641113,5.529303002148428,-0.0,0.2661665081977844,-1.5138877073871058,0.0,-0.011898783035576344,1.1546437740325928,-0.0,-0.007405020296573639,0.9901905059814453,0.0,0.024393847212195396
351.0,401.0,-2.7864,0.1322,9.3619,-0.0334,0.0284,-0.1132,-2.0730987987914027,0.0,3.838001251220703,-1.7230675220489502,-0.0,1.7594246864318848,5.529315101891317,-0.0,0.25358083844184875,-1.5139077345477503,0.0,-0.016568396240472794,1.154639720916748,-0.0,0.010523084551095963,0.9902145862579346,0.0,0.014095166698098183
351.0,401.0,-2.7864,0.1322,9.3619,-0.0334,0.0284,-0.1132,-2.0730463467040003,0.0,3.840294361114502,-1.7230830192565918,-0.0,1.7747018337249756,5.52926646450118,-0.0,0.24466311931610107,-1.5138800779925745,0.0,-0.0030871471390128136,1.1546924114227295,-0.0,0.0047279284335672855,0.9901984930038452,0.0,0.06449969112873077
351.0,401.0,-2.7864,0.1322,9.3619,-0.0334,0.0284,-0.1132,-2.0730463467040003,0.0,3.842592239379883,-1.7230830192565918,-0.0,1.8013908863067627,5.529303002148428,-0.0,0.24596580862998962,-1.5139358679400843,0.0,-0.028746429830789566,1.1546924114227295,-0.0,-0.003512689843773842,0.9902024269104004,0.0,-0.016469214111566544
351.0,401.0,-2.7864,0.1322,9.3619,-0.0334,0.0284,-0.1132,-2.073094507256979,0.0,3.88010311126709,-1.7230634689331055,-0.0,1.7418062686920166,5.529294776707449,-0.0,0.26875197887420654,-1.5139120260821741,0.0,-0.02139277011156082,1.1546882390975952,-0.0,0.014467144384980202,0.9901984333992004,0.0,0.01042617205530405
352.0,395.0,-2.784,0.1537,9.3966,-0.0315,0.0241,-0.109,-2.0730377636351527,0.0,3.849787712097168,-1.7230870723724365,-0.0,1.7738386392593384,5.5292783854301355,-0.0,0.26783788204193115,-1.5139120260821741,0.0,0.0013428670354187489,1.154704213142395,-0.0,0.005947066470980644,0.9901944994926453,0.0,-0.04324127733707428
352.0,395.0,-2.784,0.1537,9.3966,-0.0315,0.0241,-0.109,-2.073106428185934,0.0,3.845644950866699,-1.7230428457260132,-0.0,1.8250527381896973,5.529230284481802,-0.0,0.2558985948562622,-1.513895336781637,0.0,0.0019682920537889004,1.1546964645385742,-0.0,-0.0045292070135474205,0.9902023673057556,0.0,0.07748161256313324
352.0,395.0,-2.784,0.1537,9.3966,-0.0315,0.0241,-0.109,-2.0730258427061976,0.0,3.8340489864349365,-1.723095417022705,-0.0,1.7318696975708008,5.529274689942159,-0.0,0.2606596052646637,-1.5139358679400843,0.0,-0.025499816983938217,1.1547207832336426,-0.0,-0.015261368826031685,0.99016273021698,0.0,0.025733422487974167
352.0,395.0,-2.784,0.1537,9.3966,-0.0315,0.0241,-0.109,-2.0730377636351527,0.0,3.86592435836792,-1.7230552434921265,-0.0,1.7221729755401611,5.529226290970602,-0.0,0.25537675619125366,-1.5138714949237269,0.0,-0.011123104952275753,1.154623031616211,-0.0,-0.003660260234028101,0.9902024269104004,0.0,-0.012945076450705528
352.0,395.0,-2.784,0.1537,9.3966,-0.0315,0.0241,-0.109,-2.0730420551695765,0.0,3.814970016479492,-1.723131537437439,-0.0,1.8117475509643555,5.5292866108711145,-0.0,0.2608852982521057,-1.5139196554767054,0.0,-0.01104623544961214,1.1546355485916138,-0.0,0.0078030601143836975,0.9902103543281555,0.0,0.03519601374864578
352.0,395.0,-2.784,0.1537,9.3966,-0.0315,0.0241,-0.109,-2.0730539760985316,0.0,3.888587474822998,-1.7230708599090576,-0.0,1.746512532234192,5.529262411385336,-0.0,0.2626340985298157,-1.5139277617083948,0.0,-0.02910074219107628,1.1546521186828613,-0.0,0.00842414703220129,0.990178644657135,0.0,0.013320176862180233
352.0,395.0,-2.784,0.1537,9.3966,-0.0315,0.0241,-0.109,-2.0730906925597132,0.0,3.8348023891448975,-1.7230675220489502,-0.0,1.7771875858306885,5.529226350575247,-0.0,0.2656383216381073,-1.5139196554767054,0.0,-0.017279990017414093,1.1547000408172607,-0.0,-0.0018535901326686144,0.9901984333992004,0.0,-0.03090457059442997
352.0,395.0,-2.784,0.1537,9.3966,-0.0315,0.0241,-0.109,-2.0730582676329554,0.0,3.8563551902770996,-1.7231076955795288,-0.0,1.7484792470932007,5.529290663986959,-0.0,0.2746327519416809,-1.5139277617083948,0.0,-0.014025669544935226,1.1546680927276611,-0.0,0.0074606528505682945,0.9901706576347351,0.0,-0.002705509075894952
352.0,395.0,-2.784,0.1537,9.3966,-0.0315,0.0241,-0.109,-2.0730420551695765,0.0,3.809971809387207,-1.7230428457260132,-0.0,1.7579842805862427,5.529266822129049,-0.0,0.268314391374588,-1.5139158407794397,0.0,-0.02010657824575901,1.1547167301177979,-0.0,-0.008982893079519272,0.9902024269104004,0.0,0.030811123549938202
352.0,395.0,-2.784,0.1537,9.3966,-0.0315,0.0241,-0.109,-2.0730582676329554,0.0,3.8496949672698975,-1.7230830192565918,-0.0,1.76554536819458,5.5292988298232935,-0.0,0.25627243518829346,-1.5139077345477503,0.0,-0.005416417960077524,1.1546437740325928,-0.0,0.01292381715029478,0.9901905059814453,0.0,-0.01022328995168209
352.0,395.0,-2.784,0.1537,9.3966,-0.0315,0.0241,-0.109,-2.073066373864645,0.0,3.8431010246276855,-1.7230395078659058,-0.0,1.7649717330932617,5.52925460317687,-0.0,0.2602332830429077,-1.5139597097979944,0.0,-0.01757269911468029,1.154684066772461,-0.0,0.002168044215068221,0.9901866316795349,0.0,-0.0016005272045731544
352.0,395.0,-2.784,0.1537,9.3966,-0.0315,0.0241,-0.109,-2.073050161401266,0.0,3.8644847869873047,-1.7230870723724365,-0.0,1.74710214138031,5.529294776707449,-0.0,0.2536475658416748,-1.5139196554767054,0.0,-0.004292474128305912,1.1546804904937744,-0.0,-0.0008713291608728468,0.990178644657135,0.0,-0.02866942435503006
352.0,395.0,-2.784,0.1537,9.3966,-0.0315,0.0241,-0.109,-2.0729900799193324,0.0,3.8030312061309814,-1.7230592966079712,-0.0,1.7802455425262451,5.529230463295736,-0.0,0.25124120712280273,-1.5139120260821741,0.0,-0.013668126426637173,1.1546354293823242,-0.0,0.0073992908000946045,0.9901905059814453,0.0,0.004397350363433361
352.0,395.0,-2.784,0.1537,9.3966,-0.0315,0.0241,-0.109,-2.0730258427061976,0.0,3.8098678588867188,-1.723106861114502,-0.0,1.7877154350280762,5.5292988298232935,-0.0,0.26085853576660156,-1.5139434973346155,0.0,-0.024436792358756065,1.1546438932418823,-0.0,0.008638596162199974,0.9902225732803345,0.0,-0.003387819044291973
352.0,395.0,-2.784,0.1537,9.3966,-0.0315,0.0241,-0.109,-2.0730420551695765,0.0,3.823096752166748,-1.7230552434921265,-0.0,1.7327897548675537,5.52924274185256,-0.0,0.25408241152763367,-1.5138877073871058,0.0,-0.018624451011419296,1.1546599864959717,-0.0,0.008055172860622406,0.9901905059814453,0.0,0.006883932277560234
352.0,395.0,-2.784,0.1537,9.3966,-0.0315,0.0241,-0.109,-2.073050161401266,0.0,3.8014698028564453,-1.7230870723724365,-0.0,1.7364838123321533,5.529270636826315,-0.0,0.255687415599823,-1.5138915220843714,0.0,-0.010108107700943947,1.1547127962112427,-0.0,0.005314626730978489,0.99015873670578,0.0,8.102436549961567e-05
352.0,395.0,-2.784,0.1537,9.3966,-0.0315,0.0241,-0.109,-2.0730744800963343,0.0,3.8846874237060547,-1.7230509519577026,-0.0,1.7748374938964844,5.529315101891317,-0.0,0.2539919316768646,-1.5139153639422815,0.0,-0.02247743122279644,1.154623031616211,-0.0,-0.0006927843205630779,0.9902063608169556,0.0,0.02321327105164528
352.0,395.0,-2.784,0.1537,9.3966,-0.0315,0.0241,-0.109,-2.0730496845641078,0.0,3.83622407913208,-1.72304368019104,-0.0,1.7712411880493164,5.52928655126647,-0.0,0.25354838371276855,-1.5139558951007288,0.0,-0.005385077558457851,1.1546924114227295,-0.0,0.011848993599414825,0.9902024269104004,0.0,0.0033094314858317375
357.0,8190.0,-2.8116,0.146,9.3206,-0.036,0.0224,-0.1142,-2.073082586328024,0.0,3.8474714756011963,-1.7230626344680786,-0.0,1.8162782192230225,5.529331075936117,-0.0,0.25046274065971375,-1.51393968263735,0.0,-0.00914283748716116,1.1546800136566162,-0.0,0.011954551562666893,0.9901905059814453,0.0,0.03962535783648491
357.0,8190.0,-2.8116,0.146,9.3206,-0.036,0.0224,-0.1142,-2.073033948937887,0.0,3.8905277252197266,-1.723103642463684,-0.0,1.7434372901916504,5.529254662781515,-0.0,0.26519614458084106,-1.5139196554767054,0.0,-0.006116969510912895,1.1546882390975952,-0.0,-0.0011599260615184903,0.9901385307312012,0.0,0.037581074982881546
357.0,8190.0,-2.8116,0.146,9.3206,-0.036,0.0224,-0.1142,-2.073062082330221,0.0,3.8445918560028076,-1.7230952978134155,-0.0,1.796330213546753,5.52928655126647,-0.0,0.2488502562046051,-1.5139153639422815,0.0,-0.00436056312173605,1.1546721458435059,-0.0,0.00018990569515153766,0.9902102947235107,0.0,0.0035133864730596542
357.0,8190.0,-2.8116,0.146,9.3206,-0.036,0.0224,-0.1142,-2.0730377636351527,0.0,3.860466718673706,-1.7230912446975708,-0.0,1.7675107717514038,5.529287028103628,-0.0,0.24352429807186127,-1.5138996283160608,0.0,-0.014044172130525112,1.1547167301177979,-0.0,0.0016417964361608028,0.9901425242424011,0.0,0.051354892551898956
357.0,8190.0,-2.8116,0.146,9.3206,-0.036,0.0224,-0.1142,-2.0730582676329554,0.0,3.850825786590576,-1.7231191396713257,-0.0,1.761826992034912,5.529290663986959,-0.0,0.24741131067276,-1.5139153639422815,0.0,-0.014767557382583618,1.154656171798706,-0.0,-0.001455091405659914,0.9901984333992004,0.0,0.013065976090729237
357.0,8190.0,-2.8116,0.146,9.3206,-0.036,0.0224,-0.1142,-2.073094507256979,0.0,3.7894937992095947,-1.723071575164795,-0.0,1.7795076370239258,5.529266822129049,-0.0,0.2659514844417572,-1.5139158407794397,0.0,-0.016470156610012054,1.1546318531036377,-0.0,0.007114722393453121,0.9901905059814453,0.0,-0.015281008556485176
357.0,8190.0,-2.8116,0.146,9.3206,-0.036,0.0224,-0.1142,-2.0730377636351527,0.0,3.8602771759033203,-1.723071575164795,-0.0,1.7932002544403076,5.529302942543783,-0.0,0.2658357620239258,-1.5139077345477503,0.0,-0.004456913564354181,1.1546354293823242,-0.0,0.0027816775254905224,0.9901547431945801,0.0,-0.020834680646657944
357.0,8190.0,-2.8116,0.146,9.3206,-0.036,0.0224,-0.1142,-2.073017736474508,0.0,3.8372116088867188,-1.7230749130249023,-0.0,1.7343802452087402,5.5292988298232935,-0.0,0.24252113699913025,-1.513911549245016,0.0,-0.018952473998069763,1.1546521186828613,-0.0,0.009232714772224426,0.9901944398880005,0.0,-0.0039380984380841255
357.0,8190.0,-2.8116,0.146,9.3206,-0.036,0.0224,-0.1142,-2.073022028008932,0.0,3.8701066970825195,-1.7230912446975708,-0.0,1.7642722129821777,5.529234576016226,-0.0,0.26913368701934814,-1.5139077345477503,0.0,-0.017347145825624466,1.1545833349227905,-0.0,0.009630465880036354,0.9902305603027344,0.0,0.003110380843281746
357.0,8190.0,-2.8116,0.146,9.3206,-0.036,0.0224,-0.1142,-2.0730420551695765,0.0,3.813983917236328,-1.7230870723724365,-0.0,1.8141330480575562,5.529262769013204,-0.0,0.25660184025764465,-1.5139239470111292,0.0,-0.012218836694955826,1.1546721458435059,-0.0,0.01910189725458622,0.9901424646377563,0.0,0.021195799112319946
357.0,8190.0,-2.8116,0.146,9.3206,-0.036,0.0224,-0.1142,-2.0730582676329554,0.0,3.832385540008545,-1.7230675220489502,-0.0,1.7640609741210938,5.52923862913207,-0.0,0.26540231704711914,-1.5139034430133265,0.0,-0.0072196717374026775,1.1546273231506348,-0.0,0.0013733254745602608,0.9902024269104004,0.0,-0.01996401883661747
357.0,8190.0,-2.8116,0.146,9.3206,-0.036,0.0224,-0.1142,-2.0730420551695765,0.0,3.8415117263793945,-1.7230757474899292,-0.0,1.7863973379135132,5.529254662781515,-0.0,0.24419951438903809,-1.5139077345477503,0.0,-0.01670137420296669,1.1546354293823242,-0.0,-0.007425088435411453,0.9901707172393799,0.0,-0.040932875126600266
357.0,8190.0,-2.8116,0.146,9.3206,-0.036,0.0224,-0.1142,-2.0730420551695765,0.0,3.827711820602417,-1.723079800605774,-0.0,1.7937791347503662,5.529290663986959,-0.0,0.2577766478061676,-1.5139315764056605,0.0,-0.006714026443660259,1.1546640396118164,-0.0,0.008666133508086205,0.9901626706123352,0.0,-0.018766865134239197
357.0,8190.0,-2.8116,0.146,9.3206,-0.036,0.0224,-0.1142,-2.0730463467040003,0.0,3.8368892669677734,-1.7230912446975708,-0.0,1.7569549083709717,5.52928655126647,-0.0,0.24368837475776672,-1.513911549245016,0.0,-0.014305248856544495,1.1546680927276611,-0.0,0.001629563164897263,0.9901507496833801,0.0,0.028640050441026688
357.0,8190.0,-2.8116,0.146,9.3206,-0.036,0.0224,-0.1142,-2.0730420551695765,0.0,3.8066558837890625,-1.7230912446975708,-0.0,1.780024528503418,5.529274689942159,-0.0,0.2660183906555176,-1.5139239470111292,0.0,-0.022435352206230164,1.1546680927276611,-0.0,0.002819174202159047,0.9902186393737793,0.0,-0.01959386095404625
357.0,8190.0,-2.8116,0.146,9.3206,-0.036,0.0224,-0.1142,-2.0730582676329554,0.0,3.8610754013061523,-1.7230592966079712,-0.0,1.7908480167388916,5.529274689942159,-0.0,0.2615182399749756,-1.5139239470111292,0.0,-0.021229686215519905,1.154684066772461,-0.0,0.012535855174064636,0.99016273021698,0.0,0.02062862180173397
357.0,8190.0,-2.8116,0.146,9.3206,-0.036,0.0224,-0.1142,-2.0731026134886683,0.0,3.853121042251587,-1.7230757474899292,-0.0,1.7687238454818726,5.529282796173849,-0.0,0.2670915424823761,-1.5138996283160608,0.0,-0.011371774598956108,1.154684066772461,-0.0,-0.0008476241491734982,0.9901507496833801,0.0,0.00954180397093296
340.0,389.0,-2.7924,0.1017,9.3535,-0.0443,0.0211,-0.1135,-2.073033948937887,0.0,3.831308364868164,-1.723078966140747,-0.0,1.725271224975586,5.529294717102804,-0.0,0.25329843163490295,-1.5139239470111292,0.0,-0.006745620165020227,1.1546763181686401,-0.0,0.01313263550400734,0.9902344942092896,0.0,-0.00968195777386427
340.0,389.0,-2.7924,0.1017,9.3535,-0.0443,0.0211,-0.1135,-2.073050161401266,0.0,3.8811280727386475,-1.7231438159942627,-0.0,1.7617199420928955,5.529290663986959,-0.0,0.26161104440689087,-1.513895336781637,0.0,-0.01431960053741932,1.1546356678009033,-0.0,-0.00605324562638998,0.9901825785636902,0.0,0.002763727679848671
340.0,389.0,-2.7924,0.1017,9.3535,-0.0443,0.0211,-0.1135,-2.073033948937887,0.0,3.841794490814209,-1.7231035232543945,-0.0,1.7637348175048828,5.5292988298232935,-0.0,0.25768035650253296,-1.5138838926898401,0.0,-0.020019790157675743,1.1546764373779297,-0.0,-0.0014509821776300669,0.9901465177536011,0.0,-0.024558471515774727
340.0,389.0,-2.7924,0.1017,9.3535,-0.0443,0.0211,-0.1135,-2.073033948937887,0.0,3.85567569732666,-1.7231149673461914,-0.0,1.7874846458435059,5.529270994454183,-0.0,0.25470635294914246,-1.5139196554767054,0.0,-0.0014957275707274675,1.1546881198883057,-0.0,0.017886405810713768,0.9901824593544006,0.0,-0.023419177159667015
340.0,389.0,-2.7924,0.1017,9.3535,-0.0443,0.0211,-0.1135,-2.0730258427061976,0.0,3.865154266357422,-1.7230428457260132,-0.0,1.7812480926513672,5.52925460317687,-0.0,0.24911341071128845,-1.5139759222613733,0.0,-0.016642726957798004,1.1546764373779297,-0.0,-0.0026014302857220173,0.9901465177536011,0.0,-0.03886144235730171
340.0,389.0,-2.7924,0.1017,9.3535,-0.0443,0.0211,-0.1135,-2.073050161401266,0.0,3.8393406867980957,-1.7230550050735474,-0.0,1.736291766166687,5.529271054058828,-0.0,0.25039947032928467,-1.5139153639422815,0.0,-0.005057620350271463,1.1546680927276611,-0.0,0.014557179063558578,0.9901944398880005,0.0,-0.02414332516491413
340.0,389.0,-2.7924,0.1017,9.3535,-0.0443,0.0211,-0.1135,-2.073082586328024,0.0,3.8146867752075195,-1.7231076955795288,-0.0,1.7949588298797607,5.52925460317687,-0.0,0.26051098108291626,-1.5138915220843714,0.0,-0.007389269769191742,1.1546354293823242,-0.0,-0.010224723257124424,0.9901545643806458,0.0,-0.018906960263848305
340.0,389.0,-2.7924,0.1017,9.3535,-0.0443,0.0211,-0.1135,-2.073022028008932,0.0,3.8236641883850098,-1.7230550050735474,-0.0,1.7720947265625,5.529246854573049,-0.0,0.25128331780433655,-1.5138996283160608,0.0,-0.012122150510549545,1.154684066772461,-0.0,0.0033676058519631624,0.9901785850524902,0.0,0.010186005383729935
340.0,389.0,-2.7924,0.1017,9.3535,-0.0443,0.0211,-0.1135,-2.073094507256979,0.0,3.841341495513916,-1.723078966140747,-0.0,1.7528045177459717,5.529250490456381,-0.0,0.25948387384414673,-1.5139439741717737,0.0,-0.007037543226033449,1.154704213142395,-0.0,0.00952671654522419,0.9901984333992004,0.0,-0.027529601007699966
340.0,389.0,-2.7924,0.1017,9.3535,-0.0443,0.0211,-0.1135,-2.0730864010252894,0.0,3.844855308532715,-1.7230634689331055,-0.0,1.7887113094329834,5.529262769013204,-0.0,0.257824182510376,-1.5139196554767054,0.0,-0.005641016643494368,1.1546438932418823,-0.0,0.007741834502667189,0.9901706576347351,0.0,0.001112855039536953
340.0,389.0,-2.7924,0.1017,9.3535,-0.0443,0.0211,-0.1135,-2.0730258427061976,0.0,3.8231234550476074,-1.7231035232543945,-0.0,1.7444682121276855,5.529262769013204,-0.0,0.25115323066711426,-1.5139239470111292,0.0,-0.01962423324584961,1.1547000408172607,-0.0,0.011108685284852982,0.99015873670578,0.0,-0.00606193020939827
340.0,389.0,-2.7924,0.1017,9.3535,-0.0443,0.0211,-0.1135,-2.0730744800963343,0.0,3.799985885620117,-1.7230395078659058,-0.0,1.7385032176971436,5.529278743058004,-0.0,0.25226837396621704,-1.5139034430133265,0.0,-0.013132128864526749,1.1546521186828613,-0.0,0.0014823214150965214,0.9901666045188904,0.0,0.006555916741490364
340.0,389.0,-2.7924,0.1017,9.3535,-0.0443,0.0211,-0.1135,-2.073050161401266,0.0,3.8463668823242188,-1.7230994701385498,-0.0,1.756983757019043,5.529294776707449,-0.0,0.2591097950935364,-1.5139196554767054,0.0,-0.004625351168215275,1.1546521186828613,-0.0,-0.00918028224259615,0.9902064204216003,0.0,0.009943254292011261
340.0,389.0,-2.7924,0.1017,9.3535,-0.0443,0.0211,-0.1135,-2.0730377636351527,0.0,3.8474934101104736,-1.723078966140747,-0.0,1.762145757675171,5.529294776707449,-0.0,0.25713834166526794,-1.5139277617083948,0.0,-0.012203695252537727,1.1546680927276611,-0.0,0.006510473787784576,0.9901746511459351,0.0,0.06585153937339783
340.0,389.0,-2.7924,0.1017,9.3535,-0.0443,0.0211,-0.1135,-2.073033948937887,0.0,3.8253531455993652,-1.7230591773986816,-0.0,1.7953276634216309,5.52928243854598,-0.0,0.25628963112831116,-1.5139239470111292,0.0,-0.01989438198506832,1.1546680927276611,-0.0,0.001956959255039692,0.9902024269104004,0.0,-0.002736421301960945
340.0,389.0,-2.7924,0.1017,9.3535,-0.0443,0.0211,-0.1135,-2.0730377636351527,0.0,3.8378896713256836,-1.7230312824249268,-0.0,1.7173888683319092,5.529262351780691,-0.0,0.2769049406051636,-1.5139358679400843,0.0,-0.024680862203240395,1.1546680927276611,-0.0,0.02177116461098194,0.9901825189590454,0.0,0.014076611027121544
340.0,389.0,-2.7924,0.1017,9.3535,-0.0443,0.0211,-0.1135,-2.0730463467040003,0.0,3.838268995285034,-1.7230675220489502,-0.0,1.7412614822387695,5.529290663986959,-0.0,0.25466009974479675,-1.51396352449526,0.0,-0.01903395727276802,1.1547043323516846,-0.0,-0.0003666131815407425,0.9901825785636902,0.0,-0.047585878521203995
361.0,387.0,-2.799,0.1047,9.3081,-0.0338,0.0232,-0.1168,-2.0730296574034632,0.0,3.866424083709717,-1.7230066061019897,-0.0,1.8081365823745728,5.52928243854598,-0.0,0.2554463744163513,-1.5139358679400843,0.0,-0.017506485804915428,1.1546354293823242,-0.0,-0.003598308190703392,0.9901706576347351,0.0,-0.021020064130425453
361.0,387.0,-2.799,0.1047,9.3081,-0.0338,0.0232,-0.1168,-2.0730301342406214,0.0,3.825684070587158,-1.723119854927063,-0.0,1.7602145671844482,5.5292866108711145,-0.0,0.2540878653526306,-1.5139272848712366,0.0,-0.014622718095779419,1.1546721458435059,-0.0,0.007453302852809429,0.9902186393737793,0.0,0.0011336866300553083
361.0,387.0,-2.799,0.1047,9.3081,-0.0338,0.0232,-0.1168,-2.073066373864645,0.0,3.8361315727233887,-1.7230230569839478,-0.0,1.764250636100769,5.5292550204093835,-0.0,0.26173555850982666,-1.513923470173971,0.0,-0.013143738731741905,1.154656171798706,-0.0,-0.0003632518055383116,0.9902225732803345,0.0,0.008551931008696556
361.0,387.0,-2.799,0.1047,9.3081,-0.0338,0.0232,-0.1168,-2.0730463467040003,0.0,3.8238415718078613,-1.7230757474899292,-0.0,1.7715587615966797,5.52927057722167,-0.0,0.24876311421394348,-1.513911549245016,0.0,-0.024825645610690117,1.1547000408172607,-0.0,-0.0029112903866916895,0.9902063608169556,0.0,-0.004192954860627651
361.0,387.0,-2.799,0.1047,9.3081,-0.0338,0.0232,-0.1168,-2.0730420551695765,0.0,3.862539768218994,-1.7230675220489502,-0.0,1.742098331451416,5.529323029309072,-0.0,0.26526516675949097,-1.513911549245016,0.0,-0.009994651190936565,1.1546640396118164,-0.0,-0.0005686028162017465,0.9902344942092896,0.0,0.027418669313192368
361.0,387.0,-2.799,0.1047,9.3081,-0.0338,0.0232,-0.1168,-2.0730344257750453,0.0,3.828132152557373,-1.72304368019104,-0.0,1.825239896774292,5.529274689942159,-0.0,0.2490435540676117,-1.51396352449526,0.0,-0.008600244298577309,1.154695987701416,-0.0,-0.0003429082571528852,0.9902145862579346,9.825736924540251e-06,0.020498260855674744
361.0,387.0,-2.799,0.1047,9.3081,-0.0338,0.0232,-0.1168,-2.073005815545553,0.0,3.8497207164764404,-1.7230632305145264,-0.0,1.7557321786880493,5.52928243854598,-0.0,0.2643737196922302,-1.5139315764056605,0.0,-0.013887004926800728,1.1546598672866821,-0.0,0.007400616072118282,0.9902265071868896,2.3727996997791045e-11,-0.02527860552072525
361.0,387.0,-2.799,0.1047,9.3081,-0.0338,0.0232,-0.1168,-2.0730258427061976,0.0,3.8582940101623535,-1.7230066061019897,-0.0,1.7779786586761475,5.529315161495962,-0.0,0.24955256283283234,-1.5139392058001917,0.0,-0.00716617563739419,1.1546640396118164,-0.0,-0.00019496213644742966,0.9902145862579346,4.2709556899412585e-15,0.016631022095680237
361.0,387.0,-2.799,0.1047,9.3081,-0.0338,0.0232,-0.1168,-2.0730301342406214,0.0,3.816160202026367,-1.723027229309082,-0.0,1.750812292098999,5.529298770218649,-0.0,0.2584412395954132,-1.5139558951007288,0.0,-0.017867080867290497,1.1546521186828613,-0.0,-0.00024113105610013008,0.9902145862579346,1.0313855756188712e-20,-0.02663743868470192
361.0,387.0,-2.799,0.1047,9.3081,-0.0338,0.0232,-0.1168,-2.0730301342406214,0.0,3.8504490852355957,-1.723019003868103,-0.0,1.7785453796386719,5.52928243854598,-0.0,0.25568687915802,-1.513951603566305,0.0,-0.03677752986550331,1.1546640396118164,-0.0,0.0007798555307090282,0.9901905655860901,2.4906746960629804e-26,0.017026392742991447
361.0,387.0,-2.799,0.1047,9.3081,-0.0338,0.0232,-0.1168,-2.073010107079977,0.0,3.854060173034668,-1.7230353355407715,-0.0,1.7951421737670898,5.5292866108711145,-0.0,0.24841442704200745,-1.513911549245016,0.0,-0.007493738085031509,1.1546764373779297,-0.0,0.003900847164914012,0.9901824593544006,4.483125933923114e-30,-0.019545843824744225
361.0,387.0,-2.799,0.1047,9.3081,-0.0338,0.0232,-0.1168,-2.073005815545553,0.0,3.8657774925231934,-1.723035454750061,-0.0,1.7369599342346191,5.529278743058004,-0.0,0.2594032883644104,-1.51393968263735,0.0,-0.015071557834744453,1.1546556949615479,-0.0,0.010502473451197147,0.9901746511459351,1.0826221897549316e-35,0.007601932622492313
361.0,387.0,-2.799,0.1047,9.3081,-0.0338,0.0232,-0.1168,-2.0729900799193324,0.0,3.8379569053649902,-1.72304368019104,-0.0,1.7739098072052002,5.529298770218649,-0.0,0.25715145468711853,-1.513951603566305,0.0,-0.007017495110630989,1.1546841859817505,-0.0,-0.002609969349578023,0.9902145862579346,1.948682078250163e-39,0.005719929933547974
361.0,387.0,-2.799,0.1047,9.3081,-0.0338,0.0232,-0.1168,-2.0730463467040003,0.0,3.827543258666992,-1.7230714559555054,-1.368288451430999e-07,1.8115490674972534,5.529274689942159,-0.0,0.26293012499809265,-1.5139034430133265,0.0,-0.02274261973798275,1.1546355485916138,-0.0,-0.00013235444203019142,0.9902066588401794,4.203895392974451e-45,-0.03569065034389496
361.0,387.0,-2.799,0.1047,9.3081,-0.0338,0.0232,-0.1168,-2.073010107079977,0.0,3.856105089187622,-1.7230870723724365,-2.462871052932858e-11,1.744544506072998,5.529270636826315,-0.0,0.25364255905151367,-1.5139034430133265,0.0,-0.004843032918870449,1.154656171798706,-0.0,-0.0055153630673885345,0.9901745319366455,0.0,-0.03896075859665871
361.0,387.0,-2.799,0.1047,9.3081,-0.0338,0.0232,-0.1168,-2.0729781589903773,0.0,3.819549798965454,-1.7230591773986816,-5.947544409542026e-17,1.7391324043273926,5.5292866108711145,-0.0,0.24387964606285095,-1.5139077345477503,0.0,-0.0104143675416708,1.1547330617904663,-0.0,0.013594824820756912,0.9902423620223999,0.0,-0.01632101833820343
361.0,387.0,-2.799,0.1047,9.3081,-0.0338,0.0232,-0.1168,-2.0730258427061976,0.0,3.849139928817749,-1.72304368019104,-1.4362618845225986e-22,1.7489162683486938,5.529306995659628,-0.0,0.2578931748867035,-1.5139315764056605,0.0,-0.008560864254832268,1.1546680927276611,-0.0,0.002131860004737973,0.9901865720748901,0.0,-0.04736855998635292
356.0,435.0,-2.8062,0.2495,9.3027,-0.0365,0.0347,-0.1144,-2.073050161401266,0.0,3.871711254119873,-1.7231231927871704,-2.5852204459256965e-26,1.7634706497192383,5.529278743058004,-0.0,0.24297279119491577,-1.5139477888690394,0.0,-0.013504131697118282,1.1546716690063477,-0.0,-0.00026774825528264046,0.9901746511459351,0.0,-0.007597414776682854
356.0,435.0,-2.8062,0.2495,9.3027,-0.0365,0.0347,-0.1144,-2.0730139217772425,0.0,3.8872642517089844,-1.723079800605774,-6.243002889695961e-32,1.7878788709640503,5.529274689942159,-0.0,0.24908696115016937,-1.5139034430133265,0.0,-0.008488073013722897,1.1547207832336426,-0.0,0.0005639123264700174,0.9901785850524902,0.0,-0.012582825496792793
356.0,435.0,-2.8062,0.2495,9.3027,-0.0365,0.0347,-0.1144,-2.072993894616598,0.0,3.857903480529785,-1.723019003868103,-1.1237185742856327e-35,1.7695814371109009,5.529302942543783,-0.0,0.2514607310295105,-1.5139034430133265,0.0,-0.01736273616552353,1.1547001600265503,-0.0,0.008370802737772465,0.9901706576347351,0.0,-0.02188352309167385
356.0,435.0,-2.8062,0.2495,9.3027,-0.0365,0.0347,-0.1144,-2.0730301342406214,0.0,3.856949806213379,-1.72304368019104,-2.7136144761650083e-41,1.7760939598083496,5.529282855778494,-0.0,0.24732618033885956,-1.5139883200274866,0.0,-0.0236623864620924,1.1546437740325928,-0.0,0.007438500877469778,0.9902066588401794,0.0,0.008602445013821125
356.0,435.0,-2.8062,0.2495,9.3027,-0.0365,0.0347,-0.1144,-2.0730420551695765,0.0,3.837181329727173,-1.7230870723724365,-4.203895392974451e-45,1.7619004249572754,5.529282855778494,-0.0,0.26064610481262207,-1.5139196554767054,0.0,-0.01716792583465576,1.1545873880386353,-0.0,-0.005079852417111397,0.9901666641235352,0.0,0.009775493294000626
356.0,435.0,-2.8062,0.2495,9.3027,-0.0365,0.0347,-0.1144,-2.0730344257750453,0.0,3.8395586013793945,-1.72304368019104,-0.0,1.7699835300445557,5.52925460317687,-0.0,0.2471005618572235,-1.5139153639422815,0.0,-0.01675480417907238,1.154639482498169,-0.0,0.015805110335350037,0.9901507496833801,0.0,0.010479167103767395
356.0,435.0,-2.8062,0.2495,9.3027,-0.0365,0.0347,-0.1144,-2.0730377636351527,0.0,3.905107021331787,-1.7230591773986816,-0.0,1.7735464572906494,5.52925460317687,-0.0,0.25840431451797485,-1.5139239470111292,0.0,-0.0068501075729727745,1.1546800136566162,-0.0,0.00803733617067337,0.9901865720748901,0.0,-0.036851171404123306
356.0,435.0,-2.8062,0.2495,9.3027,-0.0365,0.0347,-0.1144,-2.0729452572264613,0.0,3.828206777572632,-1.7231035232543945,-0.0,1.8033608198165894,5.5292866108711145,-0.0,0.265211284160614,-1.5139277617083948,0.0,-0.016349613666534424,1.154704213142395,-0.0,-0.0011222329922020435,0.9901824593544006,0.0,-0.03916707634925842
356.0,435.0,-2.8062,0.2495,9.3027,-0.0365,0.0347,-0.1144,-2.073022028008932,0.0,3.850048542022705,-1.723071575164795,-0.0,1.7897908687591553,5.52925460317687,-0.0,0.26436156034469604,-1.5139120260821741,0.0,-0.011844933964312077,1.1546924114227295,-0.0,-0.00038756721187382936,0.9901666641235352,0.0,-0.015085173770785332
356.0,435.0,-2.8062,0.2495,9.3027,-0.0365,0.0347,-0.1144,-2.0730582676329554,0.0,3.8545117378234863,-1.7230550050735474,-0.0,1.7875431776046753,5.529327082424917,-0.0,0.2502328157424927,-1.5139120260821741,0.0,-0.01613122969865799,1.1546438932418823,-0.0,-0.0011673388071358204,0.9902384877204895,0.0,-0.06407207250595093
356.0,435.0,-2.8062,0.2495,9.3027,-0.0365,0.0347,-0.1144,-2.0730463467040003,0.0,3.856257677078247,-1.7230912446975708,-0.0,1.713639497756958,5.52923862913207,-0.0,0.2618922293186188,-1.5139077345477503,0.0,-0.01942092552781105,1.154687762260437,-0.0,-0.004176645539700985,0.9901548027992249,0.0,0.017689241096377373
356.0,435.0,-2.8062,0.2495,9.3027,-0.0365,0.0347,-0.1144,-2.07305445293569,0.0,3.8163082599639893,-1.723071575164795,-0.0,1.795604944229126,5.529306995659628,-0.0,0.256916880607605,-1.5138714949237269,0.0,-0.005071599036455154,1.1546313762664795,-0.0,0.008785717189311981,0.9901745915412903,0.0,0.0017926322761923075
356.0,435.0,-2.8062,0.2495,9.3027,-0.0365,0.0347,-0.1144,-2.0730377636351527,0.0,3.862213611602783,-1.7230312824249268,-0.0,1.7582796812057495,5.52925871589736,-0.0,0.24906188249588013,-1.5139077345477503,0.0,-0.025802910327911377,1.1546764373779297,-0.0,0.004253088030964136,0.9902024269104004,0.0,-0.01505236141383648
356.0,435.0,-2.8062,0.2495,9.3027,-0.0365,0.0347,-0.1144,-2.0730377636351527,0.0,3.8510184288024902,-1.7230993509292603,-0.0,1.794081211090088,5.5293147442634485,-0.0,0.25370389223098755,-1.5139077345477503,0.0,-0.014926843345165253,1.1546680927276611,-0.0,0.01978159323334694,0.9901865720748901,0.0,-0.00853727851063013
356.0,435.0,-2.8062,0.2495,9.3027,-0.0365,0.0347,-0.1144,-2.073005815545553,0.0,3.8683457374572754,-1.7230106592178345,-0.0,1.7600176334381104,5.52926646450118,-0.0,0.24407844245433807,-1.5139239470111292,0.0,-0.022801849991083145,1.1546721458435059,-0.0,0.010291259735822678,0.9902063608169556,0.0,-0.023927560076117516
356.0,435.0,-2.8062,0.2495,9.3027,-0.0365,0.0347,-0.1144,-2.073050161401266,0.0,3.8287439346313477,-1.723079800605774,-0.0,1.755965232849121,5.529302942543783,-0.0,0.2501603960990906,-1.5139272848712366,0.0,-0.0244061890989542,1.154704213142395,-0.0,-0.00869830697774887,0.9902103543281555,0.0,0.00012357672676444054
356.0,435.0,-2.8062,0.2495,9.3027,-0.0365,0.0347,-0.1144,-2.073005815545553,0.0,3.8250436782836914,-1.7230106592178345,-0.0,1.7614895105361938,5.5292988298232935,-0.0,0.2523174583911896,-1.5139477888690394,0.0,-0.028613010421395302,1.1546881198883057,-0.0,0.005536193028092384,0.9902145862579346,0.0,-0.020856721326708794
356.0,435.0,-2.8062,0.2495,9.3027,-0.0365,0.0347,-0.1144,-2.073022028008932,0.0,3.884237289428711,-1.7230558395385742,0.00037237751530483365,1.7784547805786133,5.52925460317687,-0.0,0.2613459825515747,-1.5139558951007288,0.0,-0.010839398950338364,1.1546480655670166,-0.0,-0.006853687111288309,0.9901983737945557,5.977683758828789e-05,-0.07215443253517151
346.0,426.0,-2.8887,0.0257,9.3625,-0.0301,0.0351,-0.1115,-2.073010107079977,0.0,3.8582911491394043,-1.7230188846588135,0.0003969931276515126,1.7531782388687134,5.529298770218649,-0.0,0.262203186750412,-1.5138996283160608,0.0,-0.00744511978700757,1.154623031616211,-0.0,-0.013050878420472145,0.9902265071868896,7.93702420196496e-05,-0.024416178464889526
346.0,426.0,-2.8887,0.0257,9.3625,-0.0301,0.0351,-0.1115,-2.0730744800963343,0.0,3.856290578842163,-1.7230393886566162,0.0003687440184876323,1.7712693214416504,5.529274689942159,-0.0,0.27099883556365967,-1.5139678160296839,0.0,-0.012212849222123623,1.1546359062194824,-0.0,-0.006775381974875927,0.9902425408363342,9.00425438885577e-05,-0.02700165845453739
346.0,426.0,-2.8887,0.0257,9.3625,-0.0301,0.0351,-0.1115,-2.0730258427061976,0.0,3.841552257537842,-1.7230393886566162,0.00035846332320943475,1.7589657306671143,5.529234397202291,-0.0,0.24827569723129272,-1.5139597097979944,0.0,-0.008840887807309628,1.1546313762664795,-0.0,-0.006770736537873745,0.9902304410934448,0.0011954879155382514,-0.03607455641031265
346.0,426.0,-2.8887,0.0257,9.3625,-0.0301,0.0351,-0.1115,-2.0730539760985316,0.0,3.825359344482422,-1.722990870475769,0.00041611434426158667,1.7479102611541748,5.529278743058004,-0.0,0.24684497714042664,-1.5139597097979944,0.0,-0.018312087282538414,1.1546521186828613,-0.0,0.0056623853743076324,0.9902503490447998,0.0014490419998764992,-0.04811020940542221
346.0,426.0,-2.8887,0.0257,9.3625,-0.0301,0.0351,-0.1115,-2.0730744800963343,0.0,3.857567310333252,-1.7230393886566162,0.0004658449033740908,1.7334389686584473,5.5292866108711145,-0.0,0.2572753429412842,-1.5139196554767054,0.0,-0.01661279797554016,1.154684066772461,-0.0,0.008300840854644775,0.9902665615081787,0.0020100807305425406,0.0026730787940323353
346.0,426.0,-2.8887,0.0257,9.3625,-0.0301,0.0351,-0.1115,-2.0730582676329554,0.0,3.826969623565674,-1.7229753732681274,0.0006005896138958633,1.7789826393127441,5.52925871589736,-0.0,0.2583620846271515,-1.5139558951007288,0.0,-0.02586105652153492,1.154611349105835,-0.0,0.009091256186366081,0.9902665615081787,0.0016306749312207103,0.02616753987967968
346.0,426.0,-2.8887,0.0257,9.3625,-0.0301,0.0351,-0.1115,-2.0730139217772425,0.0,3.827636480331421,-1.7230031490325928,0.0004798787704203278,1.7878098487854004,5.529315161495962,-0.0,0.25472134351730347,-1.513951603566305,0.0,-0.02381337806582451,1.1547000408172607,-0.0,0.008913337253034115,0.9902423620223999,0.0011538323014974594,0.024529770016670227
346.0,426.0,-2.8887,0.0257,9.3625,-0.0301,0.0351,-0.1115,-2.073066373864645,0.0,3.844749927520752,-1.7230271100997925,0.00029082538094371557,1.7914535999298096,5.529242682247915,-0.0,0.25611135363578796,-1.5139434973346155,0.0,-0.010381091386079788,1.1546480655670166,-0.0,-0.008119795471429825,0.9902344942092896,0.000653815281111747,0.006459885276854038
346.0,426.0,-2.8887,0.0257,9.3625,-0.0301,0.0351,-0.1115,-2.0730420551695765,0.0,3.8138766288757324,-1.7230311632156372,0.00025036203442141414,1.785873532295227,5.52925460317687,-0.0,0.25525814294815063,-1.5139191786395472,0.0,-0.02502370998263359,1.1546640396118164,-0.0,0.012406619265675545,0.9902384281158447,0.0005064970464445651,0.006969202309846878
346.0,426.0,-2.8887,0.0257,9.3625,-0.0301,0.0351,-0.1115,-2.0730139217772425,0.0,3.828174591064453,-1.7230476140975952,0.0002071378257824108,1.7377333641052246,5.52925460317687,-0.0,0.2617700397968292,-1.5139434973346155,0.0,-0.010700739920139313,1.1546924114227295,-0.0,0.007518840488046408,0.990282416343689,0.0004543006944004446,-0.007695041596889496
346.0,426.0,-2.8887,0.0257,9.3625,-0.0301,0.0351,-0.1115,-2.073066373864645,0.0,3.8811120986938477,-1.7229670286178589,0.00018575858848635107,1.7635445594787598,5.529282855778494,-0.0,0.26103755831718445,-1.5139678160296839,0.0,-0.010814245790243149,1.1546800136566162,-0.0,0.00024283688981086016,0.9902783632278442,0.00045274014701135457,-0.011679675430059433
346.0,426.0,-2.8887,0.0257,9.3625,-0.0301,0.0351,-0.1115,-2.0730906925597132,0.0,3.8546719551086426,-1.7230435609817505,0.00016085589595604688,1.7381095886230469,5.529242682247915,-0.0,0.2642408311367035,-1.5139873663531702,0.0,-0.018923062831163406,1.1547043323516846,-0.0,0.005547902546823025,0.9902863502502441,0.0004263489681761712,0.037818968296051025
346.0,426.0,-2.8887,0.0257,9.3625,-0.0301,0.0351,-0.1115,-2.073017736474508,0.0,3.847684383392334,-1.7229835987091064,0.00014765998639632016,1.7596070766448975,5.529270636826315,-0.0,0.2601343095302582,-1.5139721075641077,0.0,-0.017041388899087906,1.1547000408172607,-0.0,-0.004768925718963146,0.9902462959289551,0.0003040917217731476,-0.016892705112695694
346.0,426.0,-2.8887,0.0257,9.3625,-0.0301,0.0351,-0.1115,-2.0730420551695765,0.0,3.791778564453125,-1.7230114936828613,0.0001314805558649823,1.814667820930481,5.529282855778494,-0.0,0.24846459925174713,-1.5139759222613733,0.0,-0.014168567024171352,1.1546640396118164,-0.0,0.0004954145988449454,0.9902185797691345,0.0002196402638219297,0.02766312286257744
346.0,426.0,-2.8887,0.0257,9.3625,-0.0301,0.0351,-0.1115,-2.0730539760985316,0.0,3.8641066551208496,-1.7229795455932617,0.00011849694419652224,1.7885338068008423,5.5292550204093835,-0.0,0.25511831045150757,-1.5139392058001917,0.0,-0.010916266590356827,1.1547000408172607,-0.0,-0.0023049276787787676,0.9902383685112,0.00017303501954302192,-0.009820735082030296
346.0,426.0,-2.8887,0.0257,9.3625,-0.0301,0.0351,-0.1115,-2.0730139217772425,0.0,3.8615241050720215,-1.723015546798706,0.00011117766553070396,1.790287971496582,5.529246914177694,-0.0,0.2556217908859253,-1.5139835516559046,0.0,-0.019785834476351738,1.1546680927276611,-0.0,-0.0022583340760320425,0.9902383685112,0.00011858509969897568,0.009829817339777946
346.0,426.0,-2.8887,0.0257,9.3625,-0.0301,0.0351,-0.1115,-2.0730139217772425,0.0,3.8096933364868164,-1.7230114936828613,0.00010175044008065015,1.754745364189148,5.529230940132894,-0.0,0.24083346128463745,-1.5139873663531702,0.0,-0.007761373650282621,1.1547000408172607,-0.0,-0.0031456085853278637,0.9902265071868896,-0.00014249456580728292,0.007346394471824169
350.0,387.0,-2.7565,-0.3027,9.5378,-0.0509,0.0347,-0.1165,-2.072993894616598,0.0,3.8415348529815674,-1.7229713201522827,5.205332854529843e-05,1.775819182395935,5.5292104361350916,-0.0006755868089385331,0.25985366106033325,-1.5139835516559046,0.0,-0.02386854961514473,1.1546313762664795,-0.0,0.0050369855016469955,0.9901865720748901,-0.00012332982441876084,0.010938616469502449
350.0,387.0,-2.7565,-0.3027,9.5378,-0.0509,0.0347,-0.1165,-2.073050161401266,0.0,3.823960304260254,-1.723015546798706,2.632979885675013e-05,1.7619872093200684,5.52922289350585,-0.0008910773904062808,0.26261404156684875,-1.5139310995685022,0.0,-0.02176608145236969,1.1547167301177979,-0.0,0.008830679580569267,0.9902344942092896,-0.0001534476614324376,-0.016974573954939842
350.0,387.0,-2.7565,-0.3027,9.5378,-0.0509,0.0347,-0.1165,-2.0730258427061976,0.0,3.814385414123535,-1.7229185104370117,2.4874309019651264e-05,1.773888349533081,5.529198574810781,-0.0010021687485277653,0.2544686198234558,-1.51396352449526,0.0,-0.0028888850938528776,1.154656171798706,-0.0,0.006621454376727343,0.9902185797691345,-9.731536556500942e-05,-0.02508082613348961
350.0,387.0,-2.7565,-0.3027,9.5378,-0.0509,0.0347,-0.1165,-2.0730582676329554,1.4469527798155468e-09,3.805039405822754,-1.7229793071746826,2.2969788915361278e-05,1.746893286705017,5.529214608460226,-0.0007936519104987383,0.27101972699165344,-1.5140116850482386,0.0,-0.009882182814180851,1.1546598672866821,-0.0,-0.0014087383169680834,0.9902384281158447,-4.454773079487495e-05,-0.03926762193441391
350.0,387.0,-2.7565,-0.3027,9.5378,-0.0509,0.0347,-0.1165,-2.0730463467040003,3.4942201245619607e-15,3.8321104049682617,-1.7229671478271484,2.1336154532036744e-05,1.740364670753479,5.5291538713272,-0.0005983778391964734,0.2562117278575897,-1.5139721075641077,0.0,-0.020427068695425987,1.1547000408172607,-0.0,0.010308566503226757,0.9902462959289551,-3.516146898618899e-05,-0.005269564688205719
350.0,387.0,-2.7565,-0.3027,9.5378,-0.0509,0.0347,-0.1165,-2.0730301342406214,6.289472440437892e-19,3.874271869659424,-1.723015546798706,2.037033482338302e-05,1.777523398399353,5.529198694020071,-0.0005130317877046764,0.25941652059555054,-1.513991657887594,0.0,-0.017609339207410812,1.1546194553375244,-0.0,-0.0013545267283916473,0.9902264475822449,-1.8415908797919656e-08,-0.015501798130571842
350.0,387.0,-2.7565,-0.3027,9.5378,-0.0509,0.0347,-0.1165,-2.073050161401266,1.5188337382977277e-24,3.830787420272827,-1.723035216331482,3.815021045738831e-05,1.7617846727371216,5.529206859856405,-0.0003417847619857639,0.23987561464309692,-1.5140040556537073,0.0,-0.005370085593312979,1.1546235084533691,-0.0,-0.004014358390122652,0.9902462959289551,-4.447225194440657e-14,0.003768035676330328
350.0,387.0,-2.7565,-0.3027,9.5378,-0.0509,0.0347,-0.1165,-2.0730020008482875,2.73384720418423e-28,3.8285603523254395,-1.7229753732681274,3.659884168882854e-05,1.7461521625518799,5.5291703818138025,-0.00035462668165564537,0.24512457847595215,-1.5139430204974573,0.0,-0.001971771940588951,1.1546599864959717,-0.0,0.00575173320248723,0.9902225136756897,-8.004848472079813e-18,-0.005266456864774227
350.0,387.0,-2.7565,-0.3027,9.5378,-0.0509,0.0347,-0.1165,-2.0730425320067347,6.601918820618636e-34,3.865017890930176,-1.722999095916748,3.449475116212852e-05,1.767615556716919,5.529166269093313,-0.0005827319109812379,0.2663956880569458,-1.5139678160296839,0.0,-0.0087127685546875,1.1547000408172607,-0.0,0.010710516944527626,0.9902546405792236,-1.933076669201131e-23,0.011585489846765995
350.0,387.0,-2.7565,-0.3027,9.5378,-0.0509,0.0347,-0.1165,-2.0730744800963343,1.594285288831631e-39,3.83510422706604,-1.7230393886566162,3.2619449484627694e-05,1.7613872289657593,5.529158639698782,-0.000993985217064619,0.2344643771648407,-1.5139759222613733,0.0,-0.012566620483994484,1.1546759605407715,-0.0,0.006126712542027235,0.9902863502502441,-4.668153258640849e-29,-0.02327677235007286
350.0,387.0,-2.7565,-0.3027,9.5378,-0.0509,0.0347,-0.1165,-2.0730420551695765,2.872661851865875e-43,3.8484020233154297,-1.7229588031768799,3.1478528399020433e-05,1.7795345783233643,5.529182660370626,-0.0011522624408826232,0.2565997540950775,-1.51396352449526,0.0,-0.005934408865869045,1.1546313762664795,-0.0,0.01092727854847908,0.9902862906455994,-8.402510761494484e-33,0.02462482638657093
350.0,387.0,-2.7565,-0.3027,9.5378,-0.0509,0.0347,-0.1165,-2.0730463467040003,0.0,3.852952003479004,-1.7229629755020142,2.990939174196683e-05,1.7619035243988037,5.529138493328848,-0.0010281953727826476,0.24888890981674194,-1.5139597097979944,0.0,-0.01811559498310089,1.1546680927276611,-0.0,0.0006591437850147486,0.9902863502502441,-2.0291079220519288e-38,0.034305013716220856
350.0,387.0,-2.7565,-0.3027,9.5378,-0.0509,0.0347,-0.1165,-2.0730744800963343,0.0,3.880596160888672,-1.723015546798706,4.339808219810948e-05,1.7424566745758057,5.529118346958914,-0.000895366130862385,0.2583177387714386,-1.5139835516559046,0.0,-0.014216950163245201,1.1546480655670166,-0.0,0.003650399623438716,0.9902863502502441,0.0006286248099058867,0.01647266186773777
350.0,387.0,-2.7565,-0.3027,9.5378,-0.0509,0.0347,-0.1165,-2.073066373864645,0.0,3.822387933731079,-1.7229835987091064,5.5042110034264624e-05,1.7489900588989258,5.529174911766805,-0.000705033540725708,0.24202147126197815,-1.5139802137957972,0.0,-0.016680806875228882,1.154627799987793,-0.0,-0.00379823031835258,0.9902585744857788,0.0010386317735537887,-0.04513869062066078
350.0,387.0,-2.7565,-0.3027,9.5378,-0.0509,0.0347,-0.1165,-2.073022028008932,0.0,3.8317089080810547,-1.7229835987091064,0.00013935324386693537,1.8034629821777344,5.529130685120382,-0.0006442159065045416,0.2487468719482422,-1.5139597097979944,0.0,-0.01468687504529953,1.1546640396118164,-0.0,0.00650625629350543,0.9903224110603333,0.0011468445882201195,-0.012557780370116234
350.0,387.0,-2.7565,-0.3027,9.5378,-0.0509,0.0347,-0.1165,-2.073094507256979,0.0,3.8410263061523438,-1.7230031490325928,0.0011352752335369587,1.774404525756836,5.52918307760314,-0.0005538792465813458,0.25893789529800415,-1.5139477888690394,0.0,-0.009235277771949768,1.1546273231506348,-0.0,-0.0060478257946670055,0.9903143644332886,0.001270787208341062,0.03498709574341774
350.0,387.0,-2.7565,-0.3027,9.5378,-0.0509,0.0347,-0.1165,-2.0730463467040003,0.0,3.8448448181152344,-1.7229307889938354,0.0019051966955885291,1.7406561374664307,5.529062318592825,-0.0005005690036341548,0.24682071805000305,-1.5140240828143519,0.0,-0.014965024776756763,1.1547207832336426,-0.0,-0.006465652491897345,0.9902945756912231,0.0014557014219462872,-0.036417633295059204
361.0,416.0,-2.9222,-0.3398,9.3535,-0.0687,0.0174,-0.1106,-2.0730301342406214,0.0,3.822622776031494,-1.7229390144348145,0.0021457402035593987,1.7328791618347168,5.529110598355093,-0.0004159445525147021,0.25931817293167114,-1.513935391102926,0.0,-0.021609006449580193,1.1546804904937744,-0.0,0.003792865900322795,0.9903144240379333,0.0014722553314641118,0.05723556503653526
361.0,416.0,-2.9222,-0.3398,9.3535,-0.0687,0.0174,-0.1106,-2.0730420551695765,0.0,3.837911605834961,-1.7229596376419067,0.0029947746079415083,1.7993814945220947,5.529142963677206,-0.00044604387949220836,0.24812693893909454,-1.5139511267291468,0.0,-0.01961379684507847,1.1546640396118164,-0.0,-0.005299894139170647,0.9902783632278442,0.0020984045695513487,-0.01584579423069954
361.0,416.0,-2.9222,-0.3398,9.3535,-0.0687,0.0174,-0.1106,-2.0730706653990687,0.0,3.877422332763672,-1.7228915691375732,0.003735734149813652,1.7414684295654297,5.529118764191427,-0.0005968593177385628,0.24626155197620392,-1.51396352449526,0.0,0.004609249532222748,1.1546354293823242,-0.0,0.005997689440846443,0.9903461933135986,0.0025190836749970913,0.03422638773918152
361.0,416.0,-2.9222,-0.3398,9.3535,-0.0687,0.0174,-0.1106,-2.0730983219542445,0.0,3.8597474098205566,-1.7228955030441284,0.004435241688042879,1.7462890148162842,5.529138910561361,-0.0014231099048629403,0.25389528274536133,-1.5139554182635706,0.0,-0.022261468693614006,1.1547126770019531,-0.0,7.01509416103363e-05,0.9903741478919983,0.002570206066593528,-0.02552870847284794
361.0,416.0,-2.9222,-0.3398,9.3535,-0.0687,0.0174,-0.1106,-2.073050161401266,0.0,3.8490047454833984,-1.7229036092758179,0.00427460391074419,1.7508488893508911,5.5291106579597376,-0.0015418353723362088,0.24397782981395721,-1.5139477888690394,0.0,-0.012431000359356403,1.1546759605407715,-0.0,-0.0029799346812069416,0.9903622269630432,0.0025834967382252216,0.054239414632320404
361.0,416.0,-2.9222,-0.3398,9.3535,-0.0687,0.0174,-0.1106,-2.073062082330221,0.0,3.8497867584228516,-1.722875714302063,0.00309539632871747,1.7760274410247803,5.529045986920156,-0.002142738550901413,0.2567635774612427,-1.5139511267291468,0.0,-0.03409195318818092,1.154695987701416,-0.0,0.007485267706215382,0.9903660416603088,0.0025977257173508406,0.007025107275694609
361.0,416.0,-2.9222,-0.3398,9.3535,-0.0687,0.0174,-0.1106,-2.073062082330221,0.0,3.8238911628723145,-1.7228280305862427,0.001824570121243596,1.7877018451690674,5.52905427196578,-0.0030831308104097843,0.24630218744277954,-1.5139473120318812,0.0,-0.003441903041675687,1.154687762260437,-0.0,-0.010450229980051517,0.9903777837753296,0.002247847383841872,0.04144681617617607
361.0,416.0,-2.9222,-0.3398,9.3535,-0.0687,0.0174,-0.1106,-2.0730344257750453,0.0,3.9078574180603027,-1.7228362560272217,0.0013327155029401183,1.7837939262390137,5.52904241064147,-0.004671956412494183,0.24935871362686157,-1.513935391102926,0.0,-0.006976183038204908,1.1545989513397217,-0.0,0.009886350482702255,0.9904224872589111,0.002462862990796566,-0.004824119620025158
361.0,416.0,-2.9222,-0.3398,9.3535,-0.0687,0.0174,-0.1106,-2.0730296574034632,0.0,3.8036561012268066,-1.7228518724441528,0.0008576454129070044,1.7367198467254639,5.529078888684072,-0.007270748261362314,0.253831148147583,-1.5139554182635706,0.0,-0.012708654627203941,1.1546835899353027,-0.0,0.00658456003293395,0.9904218912124634,0.0025145953986793756,0.04297535493969917
361.0,416.0,-2.9222,-0.3398,9.3535,-0.0687,0.0174,-0.1106,-2.073017736474508,0.0,3.876926898956299,-1.722832202911377,0.0006928042857907712,1.7396125793457031,5.528986680298605,-0.007239759434014559,0.24365746974945068,-1.5139434973346155,0.0,-0.00818576943129301,1.1547167301177979,-0.0,-0.0017496380023658276,0.9904500246047974,0.0024225632660090923,-0.013647623360157013
361.0,416.0,-2.9222,-0.3398,9.3535,-0.0687,0.0174,-0.1106,-2.073045869866842,0.0,3.8414347171783447,-1.7227991819381714,0.00038379523903131485,1.7532553672790527,5.52897863367156,-0.004153238609433174,0.2496154010295868,-1.5139721075641077,0.0,-0.011788628064095974,1.1547167301177979,-0.0,0.0056445240043103695,0.9904096722602844,0.002545546507462859,0.0010291039943695068
361.0,416.0,-2.9222,-0.3398,9.3535,-0.0687,0.0174,-0.1106,-2.0730782947936,0.0,3.799398422241211,-1.7228198051452637,0.00045615824637934566,1.7825963497161865,5.5289790509040735,-0.0016717776888981462,0.2624821364879608,-1.5139191786395472,0.0,-0.027700228616595268,1.154684066772461,-0.0,0.014522918500006199,0.9905106425285339,0.002483793767169118,0.021510085090994835
361.0,416.0,-2.9222,-0.3398,9.3535,-0.0687,0.0174,-0.1106,-2.0730377636351527,0.0,3.820146322250366,-1.7228518724441528,0.000795958680100739,1.7786288261413574,5.5289180157478235,-0.0007850896799936891,0.2573156952857971,-1.5139272848712366,0.0,-0.01643618568778038,1.1546556949615479,-0.0,0.007084604352712631,0.9905064702033997,0.0027183389756828547,-0.0035350657999515533
361.0,416.0,-2.9222,-0.3398,9.3535,-0.0687,0.0174,-0.1106,-2.0730582676329554,0.0,3.8409690856933594,-1.7228033542633057,0.0007438634638674557,1.7905153036117554,5.528926360398092,-0.000514763465616852,0.25365781784057617,-1.5139759222613733,0.0,-0.016453223302960396,1.154684066772461,-0.0,-0.0007976540364325047,0.9904940724372864,0.0025135597679764032,-0.007042556535452604
361.0,416.0,-2.9222,-0.3398,9.3535,-0.0687,0.0174,-0.1106,-2.0731026134886683,0.0,3.841932773590088,-1.7228280305862427,0.0007066707476042211,1.7516437768936157,5.528897988587179,-0.00041879367199726403,0.25035959482192993,-1.5139759222613733,0.0,-0.010419865138828754,1.1546721458435059,-0.0,0.017523108050227165,0.9904899597167969,0.002467494457960129,0.01808183826506138
361.0,416.0,-2.9222,-0.3398,9.3535,-0.0687,0.0174,-0.1106,-2.0731026134886683,0.0,3.8349204063415527,-1.7228196859359741,0.0005794892203994095,1.795121669769287,5.528934347420492,-0.0003921522875316441,0.24872273206710815,-1.5139272848712366,0.0,-0.01165439747273922,1.1547166109085083,-0.0,0.008062387816607952,0.9904855489730835,0.0022608626168221235,0.02566033974289894
361.0,416.0,-2.9222,-0.3398,9.3535,-0.0687,0.0174,-0.1106,-2.0730706653990687,0.0,3.8589677810668945,-1.7227680683135986,0.0005554305389523506,1.828050136566162,5.52895067909316,-0.000396030955016613,0.23772461712360382,-1.5139558951007288,0.0,-0.000724680139683187,1.1547162532806396,-0.0,0.009757851250469685,0.9905098676681519,0.0020160411950200796,-0.05303052067756653
369.0,382.0,-2.93,-0.0467,9.6772,-0.0428,0.0166,-0.0977,-2.0730744800963343,0.0,3.828603982925415,-1.7227919101715088,0.0005001762183383107,1.7663755416870117,5.528938519745626,-0.00029153202194720507,0.25598204135894775,-1.513935391102926,0.0,-0.004671030677855015,1.1547446250915527,-0.0,-0.009115725755691528,0.9905217289924622,0.0019107582047581673,0.028649095445871353
369.0,382.0,-2.93,-0.0467,9.6772,-0.0428,0.0166,-0.0977,-2.073005815545553,0.0,3.822906494140625,-1.7228156328201294,0.00038304520421661437,1.7586729526519775,5.528942751675405,-0.00034081481862813234,0.2348286658525467,-1.5139678160296839,0.0,-0.002996000461280346,1.1547645330429077,-0.0,-0.003373687854036689,0.9905179142951965,0.0016046956880018115,-0.06756681203842163
369.0,382.0,-2.93,-0.0467,9.6772,-0.0428,0.0166,-0.0977,-2.0730983219542445,0.0,3.798982858657837,-1.7228001356124878,0.0003907791106030345,1.78131103515625,5.528922188072958,-0.0010012860875576735,0.2518223226070404,-1.5139034430133265,0.0,-0.011147047393023968,1.1546599864959717,-0.0,-0.0001890712301246822,0.9905416369438171,0.001256160088814795,0.003248294349759817
369.0,382.0,-2.93,-0.0467,9.6772,-0.0428,0.0166,-0.0977,-2.0730258427061976,0.0,3.810690402984619,-1.7228280305862427,0.00042983313323929906,1.7873036861419678,5.528882431774893,-0.001324292505159974,0.2354663759469986,-1.51396352449526,0.0,-0.011000683531165123,1.1547125577926636,-0.0,-0.004819512367248535,0.9905535578727722,0.0010203649289906025,0.01652352884411812
369.0,382.0,-2.93,-0.0467,9.6772,-0.0428,0.0166,-0.0977,-2.073045869866842,0.0,3.837247848510742,-1.7227836847305298,0.0007649248582310975,1.7763198614120483,5.528870153218069,-0.0015438715927302837,0.2399096041917801,-1.5139477888690394,0.0,-0.009357004426419735,1.1546680927276611,-0.0,-0.012883247807621956,0.9905574917793274,0.0007324469042941928,0.006114885210990906
369.0,382.0,-2.93,-0.0467,9.6772,-0.0428,0.0166,-0.0977,-2.0730415783324183,0.0,3.7762675285339355,-1.7228041887283325,0.0012058368884027004,1.788116216659546,5.528922664910116,-0.0023542987182736397,0.2361815869808197,-1.5139678160296839,0.0,-0.016385985538363457,1.1547000408172607,-0.0,0.0070770238526165485,0.9906014800071716,0.0006844925228506327,-0.042939476668834686
369.0,382.0,-2.93,-0.0467,9.6772,-0.0428,0.0166,-0.0977,-2.0730706653990687,0.0,3.814602851867676,-1.7227959632873535,0.0015788201708346605,1.8056187629699707,5.528894769936361,-0.002707982901483774,0.2350602149963379,-1.5139315764056605,0.0,0.004721597768366337,1.1547043323516846,-0.0,0.003014283487573266,0.9905336499214172,0.0006454162648878992,-0.00814698077738285
369.0,382.0,-2.93,-0.0467,9.6772,-0.0428,0.0166,-0.0977,-2.0730582676329554,0.0,3.7950940132141113,-1.7227556705474854,0.0018828704487532377,1.7925612926483154,5.528838562756338,-0.0029558860696852207,0.23787346482276917,-1.5139477888690394,0.0,-0.001740077044814825,1.1547002792358398,-0.0,-0.004409156274050474,0.9905574321746826,0.0005817855708301067,-0.026872869580984116
369.0,382.0,-2.93,-0.0467,9.6772,-0.0428,0.0166,-0.0977,-2.0730420551695765,0.0,3.8269286155700684,-1.7227802276611328,0.003135017352178693,1.8357408046722412,5.528842794686117,-0.003264399478211999,0.224224254488945,-1.5139392058001917,0.0,-0.01221720315515995,1.1546800136566162,-0.0,0.006933858618140221,0.9905495643615723,0.0005862083635292947,-0.057523153722286224
369.0,382.0,-2.93,-0.0467,9.6772,-0.0428,0.0166,-0.0977,-2.0730539760985316,0.0,3.8257241249084473,-1.7226998805999756,0.0034035006538033485,1.8037210702896118,5.528814542084493,-0.0033908935729414225,0.23759683966636658,-1.5139272848712366,0.0,-0.007370336912572384,1.1546759605407715,-0.0,0.002966661937534809,0.9905171394348145,0.0007147666765376925,-0.027507204562425613
369.0,382.0,-2.93,-0.0467,9.6772,-0.0428,0.0166,-0.0977,-2.073094507256979,0.0,3.791712999343872,-1.7227046489715576,0.004506819415837526,1.8277827501296997,5.52877818325118,-0.003731714328750968,0.2449156641960144,-1.5139473120318812,0.0,-0.010832143016159534,1.154671311378479,-0.0,-0.003538494696840644,0.9905574917793274,0.0006622454384341836,-0.06244157999753952
369.0,382.0,-2.93,-0.0467,9.6772,-0.0428,0.0166,-0.0977,-2.073045869866842,0.0,3.8356499671936035,-1.7226603031158447,0.005032150074839592,1.7823755741119385,5.528782355576315,-0.003781188279390335,0.2229636013507843,-1.5139802137957972,0.0,-0.0003627216210588813,1.1546398401260376,-0.0,0.001618795096874237,0.9905935525894165,0.0006852585938759148,-0.0032840725034475327
369.0,382.0,-2.93,-0.0467,9.6772,-0.0428,0.0166,-0.0977,-2.0730906925597132,0.0,3.7738640308380127,-1.722628116607666,0.006027857307344675,1.8729968070983887,5.528754520207205,-0.004182337783277035,0.23127381503582,-1.5139434973346155,0.0,-0.003805855754762888,1.1546880006790161,-0.0,0.0033090836368501186,0.9905816316604614,0.0006693905452266335,-0.04033350571990013
369.0,382.0,-2.93,-0.0467,9.6772,-0.0428,0.0166,-0.0977,-2.0730377636351527,0.0,3.7991061210632324,-1.7225877046585083,0.0063861217349767685,1.8258323669433594,5.528774845391073,-0.004528617952018976,0.2417297661304474,-1.5139597097979944,0.0,0.0014216471463441849,1.154760479927063,-0.0,-0.003829604247584939,0.9905336499214172,0.000806727446615696,-0.0705452486872673
369.0,382.0,-2.93,-0.0467,9.6772,-0.0428,0.0166,-0.0977,-2.073074003259176,0.0,3.785001754760742,-1.7225638628005981,0.007852435111999512,1.8416998386383057,5.528718876629629,-0.004698697943240404,0.2176768034696579,-1.5139511267291468,0.0,-0.0069760652258992195,1.1547285318374634,-0.0,5.039823008701205e-05,0.9905617237091064,0.001062809838913381,-0.03206930309534073
369.0,382.0,-2.93,-0.0467,9.6772,-0.0428,0.0166,-0.0977,-2.073074003259176,0.0,3.7986600399017334,-1.7225286960601807,0.009646211750805378,1.8399596214294434,5.52867870309905,-0.004645213484764099,0.2167339026927948,-1.5139597097979944,0.0,0.0017887044232338667,1.1546835899353027,1.3525927897717338e-06,-0.002604179549962282,0.9905657172203064,0.001062634401023388,-0.0714387372136116
369.0,382.0,-2.93,-0.0467,9.6772,-0.0428,0.0166,-0.0977,-2.073090215722555,0.0,3.7116494178771973,-1.72244393825531,0.010606510564684868,1.8701503276824951,5.528646099358358,-0.004733846057206392,0.21591603755950928,-1.5139954725848597,0.0,0.008595747873187065,1.1547002792358398,5.766314981059395e-09,0.0013671513879671693,0.9905816912651062,0.0012183927465230227,-0.09397678077220917
369.0,382.0,-2.93,-0.0467,9.6772,-0.0428,0.0166,-0.0977,-2.073066373864645,0.0,3.7601318359375,-1.7224085330963135,0.01311579905450344,1.8690146207809448,5.528638350754537,-0.004390657413750887,0.22313222289085388,-1.5139678160296839,0.0,-0.0021768896840512753,1.154687762260437,1.6050750138718595e-12,0.0059296563267707825,0.9905974268913269,0.0014838411007076502,-0.07543657720088959
342.0,406.0,-2.8122,0.1693,9.3841,-0.0269,0.0202,-0.106,-2.073090215722555,0.0,3.792208194732666,-1.7223494052886963,0.015015896409749985,1.8535819053649902,5.528598177223959,-0.004283993039280176,0.2157433032989502,-1.5139392058001917,0.0,-0.0076361000537872314,1.1546837091445923,6.842686631208664e-15,-0.006832286715507507,0.9906256198883057,0.0014871766325086355,-0.06235145404934883
342.0,406.0,-2.8122,0.1693,9.3841,-0.0269,0.0202,-0.106,-2.073118349114889,0.0,3.75706148147583,-1.722204327583313,0.01707310415804386,1.9068078994750977,5.528534340649404,-0.003863472258672118,0.21364790201187134,-1.5139434973346155,0.0,0.014814324676990509,1.1546716690063477,1.9046869647750685e-18,0.00647254753857851,0.9906417727470398,0.0014876144705340266,-0.046196259558200836
342.0,406.0,-2.8122,0.1693,9.3841,-0.0269,0.0202,-0.106,-2.073106428185934,0.0,3.8109822273254395,-1.7221484184265137,0.019089577719569206,1.8988330364227295,5.528550314694204,-0.004164013080298901,0.2081182599067688,-1.5139477888690394,0.0,0.007134133949875832,1.1547080278396606,8.119978901242016e-21,0.009442128241062164,0.9906176328659058,0.0013233395293354988,-0.05475863069295883
342.0,406.0,-2.8122,0.1693,9.3841,-0.0269,0.0202,-0.106,-2.0731102428831996,0.0,3.775282382965088,-1.7220282554626465,0.02319081500172615,1.9203391075134277,5.528570937901296,-0.004645043518394232,0.2132258117198944,-1.513935391102926,0.0,0.010548771359026432,1.1547322273254395,2.260226121838423e-24,0.004569365177303553,0.9906615614891052,0.0012207402614876628,-0.046285513788461685
342.0,406.0,-2.8122,0.1693,9.3841,-0.0269,0.0202,-0.106,-2.0731145344176234,0.0,3.7636733055114746,-1.721860408782959,0.027412625029683113,1.8981611728668213,5.528530466347494,-0.004784088581800461,0.20525872707366943,-1.5139434973346155,0.0,0.004796184599399567,1.1546756029129028,6.291421386337687e-28,0.007610789034515619,0.9906215667724609,0.0010802237084135413,-0.06465649604797363
342.0,406.0,-2.8122,0.1693,9.3841,-0.0269,0.0202,-0.106,-2.073094507256979,0.0,3.7921876907348633,-1.7217971086502075,0.03049645945429802,1.9914460182189941,5.528482425003805,-0.004904348868876696,0.20746955275535583,-1.5139153639422815,0.0,0.00477973697707057,1.1547162532806396,2.682131854960482e-30,0.010740735568106174,0.9906413555145264,0.0011272445553913713,-0.019581478089094162
342.0,406.0,-2.8122,0.1693,9.3841,-0.0269,0.0202,-0.106,-2.073074003259176,0.0,3.7525172233581543,-1.7215290069580078,0.03598267585039139,1.9317066669464111,5.528462457447805,-0.00410206476226449,0.20926573872566223,-1.5139272848712366,0.0,0.006686574779450893,1.154659628868103,7.465813037089455e-34,0.010131421498954296,0.9906575679779053,0.0011145946336910129,-0.06090638414025307
342.0,406.0,-2.8122,0.1693,9.3841,-0.0269,0.0202,-0.106,-2.0730658970274867,0.0,3.7591209411621094,-1.7214936017990112,0.03971797600388527,1.9337713718414307,5.528450119286337,-0.003628075821325183,0.21455055475234985,-1.5139597097979944,0.0,0.004854800179600716,1.154687762260437,3.18279337161687e-36,0.019190693274140358,0.9906575679779053,0.0010669967159628868,-0.05612900108098984
342.0,406.0,-2.8122,0.1693,9.3841,-0.0269,0.0202,-0.106,-2.073062082330221,0.0,3.7370989322662354,-1.7211973667144775,0.044771041721105576,1.9364643096923828,5.52845464923934,-0.003082164330407977,0.1995266228914261,-1.5139434973346155,0.0,0.014527987688779831,1.1546837091445923,8.859415268016148e-40,0.009103227406740189,0.9906575679779053,0.0010077235056087375,-0.06890778988599777
342.0,406.0,-2.8122,0.1693,9.3841,-0.0269,0.0202,-0.106,-2.073085924188131,0.0,3.781111717224121,-1.720888614654541,0.05002729967236519,1.9490704536437988,5.528422343521871,-0.002822489943355322,0.19863402843475342,-1.5139272848712366,0.0,0.009983368217945099,1.1547441482543945,0.0001407971139997244,0.004499778617173433,0.9907171130180359,0.0009614376467652619,-0.051889389753341675
342.0,406.0,-2.8122,0.1693,9.3841,-0.0269,0.0202,-0.106,-2.07310213665151,0.0,3.754188299179077,-1.720599889755249,0.05425163358449936,1.9838347434997559,5.5283944485481165,-0.0024717121850699186,0.208568274974823,-1.5139721075641077,0.0,0.00891792681068182,1.1547244787216187,0.0001368717639707029,0.02165979892015457,0.9907051920890808,0.0008455931092612445,-0.04100834205746651
342.0,406.0,-2.8122,0.1693,9.3841,-0.0269,0.0202,-0.106,-2.0730778179564417,0.0,3.7802281379699707,-1.7202732563018799,0.06274309009313583,2.04238224029541,5.528373706131735,-0.0018949824152514338,0.20703750848770142,-1.5139392058001917,0.0,0.015387535095214844,1.1548051834106445,0.0001500953221693635,0.006699725985527039,0.9906774759292603,0.0005858986405655742,-0.07202931493520737
342.0,406.0,-2.8122,0.1693,9.3841,-0.0269,0.0202,-0.106,-2.0730415783324183,0.0,3.77360200881958,-1.7200121879577637,0.06699887663125992,2.0156121253967285,5.528398501663961,-0.0016073897713795304,0.20133860409259796,-1.5139034430133265,0.0,0.008752578869462013,1.1547281742095947,0.00014258034934755415,0.020376376807689667,0.9906575679779053,0.00046478735748678446,-0.0666954517364502
342.0,406.0,-2.8122,0.1693,9.3841,-0.0269,0.0202,-0.106,-2.073045869866842,0.0,3.7801806926727295,-1.719592571258545,0.07730729877948761,2.031381130218506,5.528365838318624,-0.0013329944340512156,0.19441300630569458,-1.5139554182635706,0.0,-0.007627193350344896,1.1547523736953735,0.00015375418297480792,0.01994980499148369,0.9906853437423706,0.0003548025561030954,-0.0830921083688736
342.0,406.0,-2.8122,0.1693,9.3841,-0.0269,0.0202,-0.106,-2.0730534992613734,0.0,3.759049892425537,-1.71918785572052,0.0845770612359047,2.006817102432251,5.5283540962036035,-0.0011994005180895329,0.20560333132743835,-1.5139272848712366,0.0,0.00821803417056799,1.1547081470489502,0.0001469432027079165,0.014532219618558884,0.9907012581825256,0.0003064643533434719,-0.01221499964594841
342.0,406.0,-2.8122,0.1693,9.3841,-0.0269,0.0202,-0.106,-2.073094507256979,0.0,3.745062828063965,-1.7186800241470337,0.09544698148965836,2.013421058654785,5.528342175274648,-0.0011380392825230956,0.20679089426994324,-1.5139597097979944,0.0,0.005392814986407757,1.1547043323516846,0.00013733473315369338,0.011536388657987118,0.9906536340713501,0.00025446503423154354,-0.1077248603105545
342.0,406.0,-2.8122,0.1693,9.3841,-0.0269,0.0202,-0.106,-2.0730701885619105,0.0,3.7884724140167236,-1.7180999517440796,0.1040668860077858,2.0749731063842773,5.528398382454672,-0.0011275256983935833,0.19371747970581055,-1.5139477888690394,0.0,0.006338679231703281,1.1546961069107056,0.0001289044157601893,0.01815560646355152,0.9906097650527954,0.0002175541449105367,-0.09828756749629974
362.0,412.0,-2.784,0.2016,9.6766,-0.024,0.0577,-0.0786,-2.0730782947936,0.0,3.7368292808532715,-1.7176645994186401,0.10678451508283615,2.072631359100342,5.528346228390493,-0.0010938216000795364,0.21350140869617462,-1.5139558951007288,0.0,0.010376954451203346,1.1547167301177979,0.00013254077930469066,0.018199995160102844,0.9906892776489258,0.0001983717957045883,-0.08078739047050476
362.0,412.0,-2.784,0.2016,9.6766,-0.024,0.0577,-0.0786,-2.0730983219542445,0.0,3.777799129486084,-1.7170006036758423,0.1134757399559021,2.065871000289917,5.528354513436117,-0.001170631032437086,0.20323117077350616,-1.5139558951007288,0.0,0.016305075958371162,1.1547327041625977,0.00013364356709644198,0.02295033261179924,0.9906535744667053,0.0001752007519826293,-0.11639465391635895
362.0,412.0,-2.784,0.2016,9.6766,-0.024,0.0577,-0.0786,-2.0730582676329554,0.0,3.75253963470459,-1.7164925336837769,0.119239941239357,2.148204803466797,5.528342234879293,-0.0012028062483295798,0.20101308822631836,-1.513935391102926,0.0,0.008648524060845375,1.154712200164795,0.0001288622006541118,0.021482324227690697,0.9907011985778809,0.00016254352522082627,-0.037042781710624695
362.0,412.0,-2.784,0.2016,9.6766,-0.024,0.0577,-0.0786,-2.073094507256979,0.0,3.800107002258301,-1.7157196998596191,0.12433917075395584,2.0804812908172607,5.52830200174407,-0.0015333837363868952,0.19106248021125793,-1.513883415852682,0.0,0.008995495736598969,1.1547081470489502,0.00012229560525156558,0.00809076614677906,0.9906413555145264,0.00014665140770375729,-0.10094691812992096
362.0,412.0,-2.784,0.2016,9.6766,-0.024,0.0577,-0.0786,-2.073122640649313,0.0,3.7735555171966553,-1.7152281999588013,0.13015784323215485,2.091270923614502,5.528310286789694,-0.001657111686654389,0.20199066400527954,-1.513883415852682,0.0,0.01422245241701603,1.1546754837036133,0.00011827754497062415,0.0059396568685770035,0.9906973242759705,0.00013767770724371076,-0.10929149389266968
362.0,412.0,-2.784,0.2016,9.6766,-0.024,0.0577,-0.0786,-2.073130270043844,0.0,3.761991500854492,-1.7144315242767334,0.14125794172286987,2.0764856338500977,5.528314339905538,-0.001322849071584642,0.1986590176820755,-1.5139434973346155,0.0,0.002379243727773428,1.1547892093658447,0.0001127222494687885,0.013713905587792397,0.9907131195068359,0.00015120444004423916,-0.08455955237150192
362.0,412.0,-2.784,0.2016,9.6766,-0.024,0.0577,-0.0786,-2.073134561578268,0.0,3.758373975753784,-1.7135117053985596,0.15149125456809998,2.1751716136932373,5.528334426670828,-0.001064783544279635,0.2002987265586853,-1.5139196554767054,0.0,-0.0016103966627269983,1.154728651046753,0.00010766531340777874,0.026756195351481438,0.9906654953956604,0.00018600793555378914,-0.13512638211250305
362.0,412.0,-2.784,0.2016,9.6766,-0.024,0.0577,-0.0786,-2.0731221638121546,0.0,3.7711076736450195,-1.7128591537475586,0.15592122077941895,2.1405742168426514,5.528318452626028,-0.0014532541390508413,0.19986212253570557,-1.5139320532428187,0.0,0.012610265985131264,1.1547322273254395,0.00010453887807670981,0.008171130903065205,0.9907290935516357,0.00012771107139997184,-0.06953543424606323
362.0,412.0,-2.784,0.2016,9.6766,-0.024,0.0577,-0.0786,-2.073085924188131,0.0,3.7921080589294434,-1.7119678258895874,0.16243624687194824,2.166240692138672,5.528318452626028,-0.0016296394169330597,0.20893988013267517,-1.5139196554767054,0.0,0.008519310504198074,1.1547162532806396,0.00010017539898399264,0.02872844971716404,0.9907251000404358,0.0001637886161915958,-0.08900994062423706
362.0,412.0,-2.784,0.2016,9.6766,-0.024,0.0577,-0.0786,-2.073130270043844,3.715522334246657e-09,3.794095277786255,-1.7112714052200317,0.16559593379497528,2.142313003540039,5.528294312744894,-0.001522447681054473,0.20996107161045074,-1.513907257710592,0.0,0.0071248202584683895,1.1547441482543945,9.746327850734815e-05,0.022606009617447853,0.9906691312789917,0.0004985618870705366,-0.10439512133598328
362.0,412.0,-2.784,0.2016,9.6766,-0.024,0.0577,-0.0786,-2.0731221638121546,8.972550553563129e-15,3.788869857788086,-1.7102829217910767,0.17312587797641754,2.167083263397217,5.52828203418807,-0.0012019233545288444,0.19751203060150146,-1.513911549245016,0.0,-0.007051507942378521,1.1546598672866821,9.365980076836422e-05,0.009461527690291405,0.990729033946991,0.0007127699791453779,-0.0836760625243187
362.0,412.0,-2.784,0.2016,9.6766,-0.024,0.0577,-0.0786,-2.073085924188131,1.6150274428106635e-18,3.810117244720459,-1.709551215171814,0.17764896154403687,2.201712131500244,5.528266417771139,-0.0012051083613187075,0.20308822393417358,-1.5139196554767054,0.0,0.015841113403439522,1.1546716690063477,9.12848990992643e-05,0.010902945883572102,0.9907171130180359,0.0010318094864487648,-0.09506892412900925
362.0,412.0,-2.784,0.2016,9.6766,-0.024,0.0577,-0.0786,-2.073114057580465,3.900101494141905e-24,3.7919797897338867,-1.7084954977035522,0.18334975838661194,2.1416280269622803,5.5282824514205835,-0.001449535135179758,0.18731720745563507,-1.5139034430133265,0.0,0.005363394506275654,1.1546754837036133,8.794009045232087e-05,0.009004734456539154,0.9907290935516357,0.0011895925272256136,-0.07829254865646362
362.0,412.0,-2.784,0.2016,9.6766,-0.024,0.0577,-0.0786,-2.0731221638121546,9.41828718601991e-30,3.7875046730041504,-1.7073394060134888,0.19106636941432953,2.175391912460327,5.528286623745718,-0.001340509974397719,0.1944155991077423,-1.5139477888690394,0.0,0.009427651762962341,1.1546555757522583,8.483169949613512e-05,0.01598033681511879,0.9907410144805908,0.0016112483572214842,-0.10271035134792328
362.0,412.0,-2.784,0.2016,9.6766,-0.024,0.0577,-0.0786,-2.0731541119017542,1.695258463492555e-33,3.7664217948913574,-1.706603765487671,0.19487640261650085,2.202334403991699,5.528213608055868,-0.0012226186227053404,0.2023075968027115,-1.513951603566305,0.0,0.009406167082488537,1.154679536819458,8.287876698886976e-05,0.0036551235243678093,0.9907251596450806,0.0019018263556063175,-0.14540845155715942
362.0,412.0,-2.784,0.2016,9.6766,-0.024,0.0577,-0.0786,-2.0730821094908656,4.093850023272559e-39,3.776660442352295,-1.7053948640823364,0.20654432475566864,2.1688575744628906,5.528237926750936,-0.0021586078219115734,0.19821038842201233,-1.5139191786395472,0.0,0.008235213346779346,1.154728651046753,8.011222234927118e-05,0.0005001502577215433,0.9907330274581909,0.0024718379136174917,-0.11630427837371826
362.0,412.0,-2.784,0.2016,9.6766,-0.024,0.0577,-0.0786,-2.0731097660460414,7.370829922348538e-43,3.744659423828125,-1.704627513885498,0.2115410715341568,2.230926990509033,5.528262662678518,-0.004134724847972393,0.19757553935050964,-1.5139759222613733,0.0,0.015983643010258675,1.1546919345855713,2.622179408717784e-06,0.003686999436467886,0.9907692074775696,0.0025421075988560915,-0.14572662115097046
320.0,350.0,-2.7637,-0.1143,9.3248,0.0003,0.1826,-0.1,-2.0731216869749964,0.0,3.7884254455566406,-1.7033025026321411,0.22048479318618774,2.2379415035247803,5.528146254807272,-0.008617921732366085,0.20026417076587677,-1.5138753096209925,0.0,0.004598086699843407,1.154679536819458,7.298933679678044e-10,0.007316648494452238,0.9907809495925903,0.0034007951617240906,-0.08004944026470184
320.0,350.0,-2.7637,-0.1143,9.3248,0.0003,0.1826,-0.1,-2.0731336079039515,-0.00019724710728041828,3.781493902206421,-1.7019790410995483,0.22338160872459412,2.210905075073242,5.52804975488738,-0.01568635180592537,0.19038832187652588,-1.51393968263735,0.0,0.011214092373847961,1.1546800136566162,2.0316852312931427e-13,0.003782500047236681,0.9908290505409241,0.004046714399009943,-0.08734767138957977
320.0,350.0,-2.7637,-0.1143,9.3248,0.0003,0.1826,-0.1,-2.0731784305968226,-0.00022881831682752818,3.759561061859131,-1.7010751962661743,0.2259950041770935,2.2270710468292236,5.527977871685781,-0.02104937471449375,0.17697063088417053,-1.5139153639422815,0.0,0.010493188165128231,1.1546921730041504,8.661394165059564e-16,0.007416201755404472,0.990817129611969,0.004452352412045002,-0.0749380886554718
320.0,350.0,-2.7637,-0.1143,9.3248,0.0003,0.1826,-0.1,-2.07315792659902,-0.0005741321365348995,3.7801284790039062,-1.699602723121643,0.23744656145572662,2.3008408546447754,5.527789640217581,-0.03195831924676895,0.18683063983917236,-1.5139153639422815,0.0,0.009299702011048794,1.154684066772461,2.4109305986442595e-19,-0.001563608180731535,0.9908449053764343,0.0042711361311376095,-0.11494963616132736
