ramyac6/ROB537/final_project/csv/bad/bad_79.csv
tof_0,tof_1,accelx,accely,accelz,gyrox,gyroy,gyroz,shoulder_lift_joint_position,shoulder_lift_joint_velocity,shoulder_lift_joint_effort,elbow_joint_position,elbow_joint_velocity,elbow_joint_effort,wrist_1_joint_position,wrist_1_joint_velocity,wrist_1_joint_effort,wrist_2_joint_position,wrist_2_joint_velocity,wrist_2_joint_effort,wrist_3_joint_position,wrist_3_joint_velocity,wrist_3_joint_effort,shoulder_pan_joint_position,shoulder_pan_joint_velocity,shoulder_pan_joint_effort
331.0,308.0,0.4265,-0.807,9.5258,-0.0299,0.0281,-0.1222,-1.6690079174437464,0.0,2.4506311416625977,-1.8521897792816162,-0.0,2.0595266819000244,4.965212422400274,0.0,0.28395459055900574,-1.4973953405963343,-0.0,-0.010218971408903599,0.7630903720855713,-0.0,0.004927001893520355,0.8357265591621399,0.0,-0.0026998373214155436
331.0,308.0,0.4265,-0.807,9.5258,-0.0299,0.0281,-0.1222,-1.6689874134459437,0.0,2.470176935195923,-1.852185845375061,-0.0,2.0792038440704346,4.9651880142982385,0.0,0.2904893755912781,-1.4974353949176233,-0.0,-0.023215271532535553,0.763221800327301,-0.0,0.005584262311458588,0.8357825875282288,0.0,-0.004624844528734684
331.0,308.0,0.4265,-0.807,9.5258,-0.0299,0.0281,-0.1222,-1.669027944604391,0.0,2.4762754440307617,-1.8521897792816162,-0.0,2.076913833618164,4.96517630198554,0.0,0.2802112102508545,-1.4974311033831995,-0.0,-0.013293299823999405,0.763122022151947,-0.0,-0.011286593973636627,0.8357185125350952,0.0,0.020867565646767616
331.0,308.0,0.4265,-0.807,9.5258,-0.0299,0.0281,-0.1222,-1.6690355739989222,0.0,2.4946680068969727,-1.8521502017974854,-0.0,2.098564863204956,4.9651715634162805,0.0,0.2776462137699127,-1.4974554220782679,-0.0,-0.01938803866505623,0.763122022151947,-0.0,-0.005398901645094156,0.8357465863227844,0.0,-0.01292531006038189
331.0,308.0,0.4265,-0.807,9.5258,-0.0299,0.0281,-0.1222,-1.669039865533346,0.0,2.469766855239868,-1.8521660566329956,-0.0,2.075432062149048,4.96517642119483,0.0,0.283674418926239,-1.497443977986471,-0.0,-0.024538623169064522,0.7631661891937256,-0.0,-0.0017499488312751055,0.8357425332069397,0.0,0.010686110705137253
331.0,308.0,0.4265,-0.807,9.5258,-0.0299,0.0281,-0.1222,-1.669011732141012,0.0,2.4802145957946777,-1.8521621227264404,-0.0,2.0567755699157715,4.9651880142982385,0.0,0.2793985605239868,-1.4974272886859339,-0.0,-0.026775527745485306,0.7631819844245911,-0.0,-0.010668252594769001,0.8357185125350952,0.0,0.000593328382819891
328.0,312.0,0.4164,-0.7986,9.4469,-0.0308,0.0255,-0.1168,-1.6690317593016566,0.0,2.4750425815582275,-1.8521541357040405,-0.0,1.9897675514221191,4.965179759054937,0.0,0.2785162329673767,-1.4974635283099573,-0.0,-0.016590740531682968,0.7631062269210815,-0.0,0.0060385484248399734,0.8357585072517395,0.0,-0.0033944109454751015
328.0,312.0,0.4164,-0.7986,9.4469,-0.0308,0.0255,-0.1168,-1.669016023675436,0.0,2.418081283569336,-1.8521621227264404,-0.0,2.079918622970581,4.965196090727606,0.0,0.2831478416919708,-1.4973991552936,-0.0,-0.015499988570809364,0.7631300091743469,-0.0,0.0035105475690215826,0.8357345461845398,0.0,-0.01876695454120636
328.0,312.0,0.4164,-0.7986,9.4469,-0.0308,0.0255,-0.1168,-1.669011732141012,0.0,2.4782602787017822,-1.8521541357040405,-0.0,2.03568959236145,4.965172338276663,0.0,0.28120285272598267,-1.4974315802203577,-0.0,-0.014420835301280022,0.7631621360778809,-0.0,-0.002740119583904743,0.8357506394386292,0.0,-0.020878927782177925
328.0,312.0,0.4164,-0.7986,9.4469,-0.0308,0.0255,-0.1168,-1.6690637073912562,0.0,2.490017890930176,-1.8521744012832642,-0.0,2.0655863285064697,4.965208339482107,0.0,0.2780520021915436,-1.497411076222555,-0.0,-0.015414396300911903,0.7631422877311707,-0.0,-0.0027131224051117897,0.8357225060462952,0.0,-0.03263023868203163
328.0,312.0,0.4164,-0.7986,9.4469,-0.0308,0.0255,-0.1168,-1.66906799892568,0.0,2.490062713623047,-1.8521580696105957,-0.0,2.027407646179199,4.965183841973104,0.0,0.2968099117279053,-1.4974272886859339,-0.0,-0.025497421622276306,0.7631260752677917,-0.0,0.0035573523491621017,0.8357104659080505,0.0,-0.03248537704348564
328.0,312.0,0.4164,-0.7986,9.4469,-0.0308,0.0255,-0.1168,-1.6690355739989222,0.0,2.4943501949310303,-1.8521784543991089,-0.0,2.0476794242858887,4.965196090727606,0.0,0.2797836661338806,-1.4974191824542444,-0.0,-0.027621228247880936,0.7631300687789917,-0.0,0.0015052265953272581,0.8357185125350952,0.0,-0.01130400225520134
328.0,312.0,0.4164,-0.7986,9.4469,-0.0308,0.0255,-0.1168,-1.6689635715880335,0.0,2.431195020675659,-1.8521347045898438,-0.0,2.0554916858673096,4.965200173645773,0.0,0.2913792133331299,-1.4974072615252894,-0.0,-0.010605104267597198,0.7631423473358154,-0.0,0.010368337854743004,0.8356904983520508,0.0,0.0011668941006064415
328.0,312.0,0.4164,-0.7986,9.4469,-0.0308,0.0255,-0.1168,-1.669027944604391,0.0,2.4826550483703613,-1.8521500825881958,-0.0,2.075716018676758,4.96526454666213,0.0,0.2832173705101013,-1.4974396864520472,-0.0,-0.020169008523225784,0.7631300687789917,-0.0,-0.002089358400553465,0.8357465863227844,0.0,0.012688536196947098
328.0,312.0,0.4164,-0.7986,9.4469,-0.0308,0.0255,-0.1168,-1.6690598926939906,0.0,2.4975109100341797,-1.8521977663040161,-0.0,2.0973405838012695,4.9651880142982385,0.0,0.2869144678115845,-1.4974554220782679,-0.0,-0.006004313938319683,0.7631180882453918,-0.0,-0.006966442801058292,0.8357545137405396,0.0,-0.013594045303761959
328.0,312.0,0.4164,-0.7986,9.4469,-0.0308,0.0255,-0.1168,-1.6690317593016566,0.0,2.492985725402832,-1.8521502017974854,-0.0,2.0177645683288574,4.965208339482107,0.0,0.286049485206604,-1.497443977986471,-0.0,-0.016550060361623764,0.763201892375946,-0.0,-0.003487763460725546,0.8357185125350952,0.0,0.027224667370319366
328.0,312.0,0.4164,-0.7986,9.4469,-0.0308,0.0255,-0.1168,-1.669011732141012,0.0,2.4576034545898438,-1.8521699905395508,-0.0,2.076476812362671,4.965200203448095,0.0,0.28588059544563293,-1.4974477926837366,-0.0,-0.015546422451734543,0.7631582617759705,-0.0,0.003019049996510148,0.8357065320014954,0.0,0.047240156680345535
326.0,307.0,0.3799,-0.8171,9.5157,-0.0356,0.0228,-0.1126,-1.6689797840514125,0.0,2.477593421936035,-1.8521462678909302,-0.0,2.03928279876709,4.9651880142982385,0.0,0.28721562027931213,-1.49742299715151,-0.0,-0.026888441294431686,0.7631978392601013,-0.0,0.009320516139268875,0.8356904983520508,0.0,-0.006367209833115339
326.0,307.0,0.3799,-0.8171,9.5157,-0.0356,0.0228,-0.1126,-1.669011732141012,0.0,2.495675802230835,-1.8521897792816162,-0.0,2.0795111656188965,4.965204345970907,0.0,0.2732933759689331,-1.4973791281329554,-0.0,-0.014308945275843143,0.7631819844245911,-0.0,0.0018090044613927603,0.83571857213974,0.0,0.022339530289173126
326.0,307.0,0.3799,-0.8171,9.5157,-0.0356,0.0228,-0.1126,-1.6689955196776332,0.0,2.485858917236328,-1.8521580696105957,-0.0,2.0667378902435303,4.965252446919241,0.0,0.29990509152412415,-1.4974592367755335,-0.0,-0.006567426025867462,0.7631462812423706,-0.0,-0.0005420796805992723,0.8357265591621399,0.0,0.03723561018705368
326.0,307.0,0.3799,-0.8171,9.5157,-0.0356,0.0228,-0.1126,-1.6689516506590785,0.0,2.455677032470703,-1.8521103858947754,-0.0,2.017636775970459,4.9651880142982385,0.0,0.273050993680954,-1.49742299715151,-0.0,-0.008641460910439491,0.7631222605705261,-0.0,0.01102896872907877,0.8356984257698059,0.0,-0.030372237786650658
326.0,307.0,0.3799,-0.8171,9.5157,-0.0356,0.0228,-0.1126,-1.668999811212057,0.0,2.4834072589874268,-1.8521784543991089,-0.0,2.0595197677612305,4.9651880142982385,0.0,0.2810211181640625,-1.49742299715151,-0.0,-0.018570590764284134,0.7631819844245911,-0.0,-0.0024429759941995144,0.8357024788856506,0.0,-0.05314691364765167
326.0,307.0,0.3799,-0.8171,9.5157,-0.0356,0.0228,-0.1126,-1.6690236530699671,0.0,2.4800734519958496,-1.8521347045898438,-0.0,2.0104780197143555,4.965179759054937,0.0,0.2887553572654724,-1.4974315802203577,-0.0,-0.024788349866867065,0.7631819844245911,-0.0,-0.003355597145855427,0.8357065320014954,0.0,-0.02548360824584961
326.0,307.0,0.3799,-0.8171,9.5157,-0.0356,0.0228,-0.1126,-1.6690479717650355,0.0,2.4971091747283936,-1.852142572402954,-0.0,2.0810089111328125,4.965148108988561,0.0,0.28054147958755493,-1.4974592367755335,-0.0,-0.021859386935830116,0.7631380558013916,-0.0,0.009903625585138798,0.8357465863227844,0.0,0.002402098849415779
326.0,307.0,0.3799,-0.8171,9.5157,-0.0356,0.0228,-0.1126,-1.6690079174437464,0.0,2.468709945678711,-1.8521897792816162,-0.0,2.0240907669067383,4.9651880142982385,0.0,0.2960737943649292,-1.497451130543844,-0.0,-0.011391298845410347,0.7631260752677917,-0.0,-0.006375700235366821,0.8357065320014954,0.0,-0.02196376770734787
326.0,307.0,0.3799,-0.8171,9.5157,-0.0356,0.0228,-0.1126,-1.6690355739989222,0.0,2.470095157623291,-1.8521262407302856,-0.0,2.089329719543457,4.965220320015707,0.0,0.2843458354473114,-1.4974554220782679,-0.0,-0.0040819416753947735,0.7631542682647705,-0.0,0.0034778001718223095,0.8357225656509399,0.0,-0.025606779381632805
326.0,307.0,0.3799,-0.8171,9.5157,-0.0356,0.0228,-0.1126,-1.669039865533346,0.0,2.4989962577819824,-1.8521426916122437,-0.0,2.069660186767578,4.965159970312872,0.0,0.28616905212402344,-1.4974153677569788,-0.0,-0.016775554046034813,0.7631221413612366,-0.0,1.416075974702835e-05,0.8357546329498291,0.0,0.013698015362024307
326.0,307.0,0.3799,-0.8171,9.5157,-0.0356,0.0228,-0.1126,-1.6690236530699671,0.0,2.4732723236083984,-1.8521897792816162,-0.0,2.0325965881347656,4.965164112835684,0.0,0.27502545714378357,-1.4974315802203577,-0.0,-0.0030966410413384438,0.7631423473358154,-0.0,-0.005123532377183437,0.8357625007629395,0.0,0.022237859666347504
326.0,307.0,0.3799,-0.8171,9.5157,-0.0356,0.0228,-0.1126,-1.669027944604391,0.0,2.4883508682250977,-1.8521580696105957,-0.0,2.054478645324707,4.965196090727606,0.0,0.2852485775947571,-1.4974592367755335,-0.0,-0.018678724765777588,0.7631701231002808,-0.0,-0.0060524726286530495,0.8357664942741394,0.0,0.018072137609124184
308.0,320.0,0.3242,-0.8237,9.6616,-0.0379,0.0273,-0.1226,-1.669027944604391,0.0,2.472913980484009,-1.8521580696105957,-0.0,2.040499210357666,4.965236323862829,0.0,0.2749534249305725,-1.4974396864520472,-0.0,-0.025117993354797363,0.7631581425666809,-0.0,0.012965892441570759,0.8357704877853394,0.0,0.030973099172115326
308.0,320.0,0.3242,-0.8237,9.6616,-0.0379,0.0273,-0.1226,-1.6690236530699671,0.0,2.454772710800171,-1.8521502017974854,-0.0,2.0782241821289062,4.965236413269796,0.0,0.2888469696044922,-1.4974148909198206,-0.0,-0.0034560703206807375,0.7631423473358154,-0.0,0.010702020488679409,0.8357304930686951,0.0,-0.0014801113866269588
308.0,320.0,0.3242,-0.8237,9.6616,-0.0379,0.0273,-0.1226,-1.6690556011595667,0.0,2.458879232406616,-1.8521020412445068,-0.0,2.067927360534668,4.96515633442954,0.0,0.2875603139400482,-1.4974191824542444,-0.0,-0.01788702793419361,0.763185977935791,-0.0,-0.005815175827592611,0.8357185125350952,0.0,0.03877691552042961
308.0,320.0,0.3242,-0.8237,9.6616,-0.0379,0.0273,-0.1226,-1.6690236530699671,0.0,2.481621265411377,-1.852158546447754,-0.0,2.041086196899414,4.9651920078094385,0.0,0.28730204701423645,-1.4973872343646448,-0.0,-0.013745220378041267,0.7631261944770813,-0.0,-0.006334898993372917,0.8357064723968506,0.0,-0.03118576481938362
308.0,320.0,0.3242,-0.8237,9.6616,-0.0379,0.0273,-0.1226,-1.669011732141012,0.0,2.4923505783081055,-1.8521580696105957,-0.0,2.0737521648406982,4.965140360384741,0.0,0.2809755206108093,-1.4974396864520472,-0.0,-0.014572683721780777,0.7631779909133911,-0.0,-0.003595629706978798,0.8357465863227844,0.0,0.013765299692749977
308.0,320.0,0.3242,-0.8237,9.6616,-0.0379,0.0273,-0.1226,-1.669011732141012,0.0,2.471710681915283,-1.8522101640701294,-0.0,2.0220580101013184,4.9651880142982385,0.0,0.28700584173202515,-1.4974153677569788,-0.0,-0.01631643809378147,0.7631261348724365,-0.0,0.0063938843086361885,0.8357465863227844,0.0,0.020873334258794785
308.0,320.0,0.3242,-0.8237,9.6616,-0.0379,0.0273,-0.1226,-1.6690355739989222,0.0,2.460151195526123,-1.8522062301635742,-0.0,2.113018035888672,4.965156274824896,0.0,0.2671869993209839,-1.4974797407733362,-0.0,-0.03068971261382103,0.7632256150245667,-0.0,0.002760721603408456,0.8357104659080505,0.0,-0.026179807260632515
308.0,320.0,0.3242,-0.8237,9.6616,-0.0379,0.0273,-0.1226,-1.669011732141012,0.0,2.484980344772339,-1.8520865440368652,-0.0,2.007432222366333,4.96518041470603,0.0,0.29112276434898376,-1.497451130543844,-0.0,-0.012352807447314262,0.7631423473358154,-0.0,0.008848672732710838,0.8357385993003845,0.0,0.003623492084443569
308.0,320.0,0.3242,-0.8237,9.6616,-0.0379,0.0273,-0.1226,-1.669011732141012,0.0,2.4999239444732666,-1.8521819114685059,-0.0,2.078033924102783,4.965136188059606,0.0,0.27924150228500366,-1.4974477926837366,-0.0,-0.021396836265921593,0.7631423473358154,-0.0,-0.008655965328216553,0.8357425928115845,0.0,-0.008159379474818707
308.0,320.0,0.3242,-0.8237,9.6616,-0.0379,0.0273,-0.1226,-1.668955465356344,0.0,2.496518611907959,-1.8522140979766846,-0.0,2.0263595581054688,4.965204375773229,0.0,0.2780059576034546,-1.4973910490619105,-0.0,-0.033713798969984055,0.763185977935791,-0.0,-0.00017318269237875938,0.8357225656509399,0.0,0.008973976597189903
308.0,320.0,0.3242,-0.8237,9.6616,-0.0379,0.0273,-0.1226,-1.6690474949278773,0.0,2.465646743774414,-1.8521502017974854,-0.0,2.0853681564331055,4.965224432736196,0.0,0.2891935706138611,-1.4974353949176233,-0.0,-0.013585545122623444,0.7631621360778809,-0.0,-0.00021890609059482813,0.8357345461845398,0.0,-0.03224305808544159
327.0,330.0,0.3864,-0.7848,9.5474,-0.026,0.0272,-0.117,-1.6690317593016566,0.0,2.444094657897949,-1.8521183729171753,-0.0,1.980046272277832,4.965204345970907,0.0,0.27992087602615356,-1.497467343007223,-0.0,-0.004675752017647028,0.7632097601890564,-0.0,0.0037104696966707706,0.8357024788856506,0.0,0.002379059325903654
327.0,330.0,0.3864,-0.7848,9.5474,-0.026,0.0272,-0.117,-1.6690079174437464,0.0,2.476458787918091,-1.852213740348816,-0.0,2.0810182094573975,4.9651880142982385,0.0,0.2835738956928253,-1.4974959532367151,-0.0,-0.01595880649983883,0.7631899118423462,-0.0,-0.005974285304546356,0.8357305526733398,0.0,0.002411274239420891
327.0,330.0,0.3864,-0.7848,9.5474,-0.026,0.0272,-0.117,-1.668955465356344,0.0,2.459296941757202,-1.852142572402954,-0.0,2.060868978500366,4.9651880142982385,0.0,0.29927384853363037,-1.4974592367755335,-0.0,-0.021792899817228317,0.7631580233573914,-0.0,-0.006367353722453117,0.8357506394386292,0.0,-0.04140106961131096
327.0,330.0,0.3864,-0.7848,9.5474,-0.026,0.0272,-0.117,-1.669011732141012,0.0,2.4594686031341553,-1.8521977663040161,-0.0,2.114276885986328,4.965216177492895,0.0,0.27747297286987305,-1.49742299715151,-0.0,-0.011387033388018608,0.7631740570068359,-0.0,0.004248024895787239,0.8357104659080505,0.0,0.004305264912545681
327.0,330.0,0.3864,-0.7848,9.5474,-0.026,0.0272,-0.117,-1.6690479717650355,0.0,2.509887218475342,-1.8522101640701294,-0.0,2.04114031791687,4.9651644108589075,0.0,0.2934601306915283,-1.4974153677569788,-0.0,-0.01957521215081215,0.7631340026855469,-0.0,-0.0011971448548138142,0.8357305526733398,0.0,-0.033865153789520264
327.0,330.0,0.3864,-0.7848,9.5474,-0.026,0.0272,-0.117,-1.6689874134459437,0.0,2.4716248512268066,-1.8521897792816162,-0.0,2.0434441566467285,4.965252417116918,0.0,0.2878798842430115,-1.4974592367755335,-0.0,-0.020242884755134583,0.763185977935791,-0.0,0.008675294928252697,0.8357265591621399,0.0,0.0033339071087539196
327.0,330.0,0.3864,-0.7848,9.5474,-0.026,0.0272,-0.117,-1.6690079174437464,0.0,2.4880943298339844,-1.8521665334701538,-0.0,2.051250457763672,4.9651797888572595,0.0,0.27435559034347534,-1.4974272886859339,-0.0,-0.018214166164398193,0.7631580829620361,-0.0,0.008510475978255272,0.8357506394386292,0.0,-0.0320657454431057
327.0,330.0,0.3864,-0.7848,9.5474,-0.026,0.0272,-0.117,-1.6690041027464808,0.0,2.4636223316192627,-1.8521347045898438,-0.0,2.075103521347046,4.965204345970907,0.0,0.2847808301448822,-1.4974592367755335,-0.0,-0.012255217880010605,0.763185977935791,-0.0,0.011521263048052788,0.8357104659080505,0.0,-0.03869831562042236
327.0,330.0,0.3864,-0.7848,9.5474,-0.026,0.0272,-0.117,-1.6689673862852992,0.0,2.473217010498047,-1.8521744012832642,-0.0,2.072753429412842,4.965208339482107,0.0,0.29457080364227295,-1.49742299715151,-0.0,-0.021797267720103264,0.763206422328949,-0.0,0.001736832084134221,0.8357265591621399,0.0,0.055236686021089554
327.0,330.0,0.3864,-0.7848,9.5474,-0.026,0.0272,-0.117,-1.669016023675436,0.0,2.498676300048828,-1.8521580696105957,-0.0,2.0353786945343018,4.965183841973104,0.0,0.28711533546447754,-1.497451130543844,-0.0,-0.005054842215031385,0.7631900310516357,-0.0,-0.013932384550571442,0.8357345461845398,0.0,-0.0022403893526643515
327.0,330.0,0.3864,-0.7848,9.5474,-0.026,0.0272,-0.117,-1.6690079174437464,0.0,2.4691617488861084,-1.8521262407302856,-0.0,2.052438735961914,4.965232181340017,0.0,0.2706391215324402,-1.4973791281329554,-0.0,-0.013888666406273842,0.7631580233573914,-0.0,-0.012057249434292316,0.8357625007629395,0.0,0.013000380247831345
330.0,332.0,0.396,-0.8028,9.5246,-0.0444,0.0244,-0.1176,-1.6690236530699671,0.0,2.4946234226226807,-1.8521541357040405,-0.0,2.113727569580078,4.965248155384817,0.0,0.2809336483478546,-1.4974148909198206,-0.0,-0.0259132981300354,0.7631343007087708,-0.0,-0.0008298293687403202,0.8356984853744507,0.0,-0.010417656973004341
330.0,332.0,0.396,-0.8028,9.5246,-0.0444,0.0244,-0.1176,-1.669011732141012,0.0,2.510972261428833,-1.8522216081619263,-0.0,2.075809955596924,4.965240317374029,0.0,0.2812115550041199,-1.4974592367755335,-0.0,-0.011415887624025345,0.7631502151489258,-0.0,-0.001851146575063467,0.8357825875282288,0.0,-0.0014733653515577316
330.0,332.0,0.396,-0.8028,9.5246,-0.0444,0.0244,-0.1176,-1.6690041027464808,0.0,2.4467968940734863,-1.8521466255187988,-0.0,2.0772082805633545,4.96515633442954,0.0,0.29102396965026855,-1.49742299715151,-0.0,-0.012372537516057491,0.7630978226661682,-0.0,-0.009549099951982498,0.8357225656509399,0.0,-0.019847538322210312
330.0,332.0,0.396,-0.8028,9.5246,-0.0444,0.0244,-0.1176,-1.6690079174437464,0.0,2.46067214012146,-1.8522300720214844,-0.0,2.0276572704315186,4.9651920078094385,0.0,0.3033853769302368,-1.4974196592914026,-0.0,-0.016391493380069733,0.7631338834762573,-0.0,0.007874144241213799,0.8357145190238953,0.0,-0.011676972731947899
330.0,332.0,0.396,-0.8028,9.5246,-0.0444,0.0244,-0.1176,-1.669039865533346,0.0,2.4871177673339844,-1.8521621227264404,-0.0,2.0591135025024414,4.96517230847434,0.0,0.27992281317710876,-1.4974916617022913,-0.0,-0.023716071620583534,0.7631544470787048,-0.0,-0.008849188685417175,0.8357225060462952,0.0,0.04304506629705429
330.0,332.0,0.396,-0.8028,9.5246,-0.0444,0.0244,-0.1176,-1.6689874134459437,0.0,2.472942352294922,-1.8521699905395508,-0.0,2.03092622756958,4.9651880142982385,0.0,0.28700029850006104,-1.4974802176104944,-0.0,-0.013287926092743874,0.7631580233573914,-0.0,-0.0027019523549824953,0.8356905579566956,0.0,-0.013677718117833138
330.0,332.0,0.396,-0.8028,9.5246,-0.0444,0.0244,-0.1176,-1.668955465356344,0.0,2.489384651184082,-1.8521897792816162,-0.0,2.0936710834503174,4.965183841973104,0.0,0.2801411747932434,-1.4973910490619105,-0.0,-0.01136750727891922,0.7631461024284363,-0.0,0.003931653220206499,0.8357104659080505,0.0,0.01347602903842926
330.0,332.0,0.396,-0.8028,9.5246,-0.0444,0.0244,-0.1176,-1.6689797840514125,0.0,2.4745993614196777,-1.8521541357040405,-0.0,2.030590295791626,4.965220320015707,0.0,0.2862129807472229,-1.497443977986471,-0.0,-0.020188849419355392,0.7631781697273254,-0.0,7.813004776835442e-05,0.8357145190238953,0.0,-0.0202404223382473
330.0,332.0,0.396,-0.8028,9.5246,-0.0444,0.0244,-0.1176,-1.6690041027464808,0.0,2.4647696018218994,-1.8521262407302856,-0.0,2.103893280029297,4.965200173645773,0.0,0.3019096851348877,-1.49742299715151,-0.0,-0.006888937670737505,0.7631421089172363,-0.0,-0.00198874669149518,0.8357304930686951,0.0,0.001629948616027832
330.0,332.0,0.396,-0.8028,9.5246,-0.0444,0.0244,-0.1176,-1.6690079174437464,0.0,2.457489013671875,-1.8521744012832642,-0.0,2.051365375518799,4.9651920078094385,0.0,0.2864094376564026,-1.4974635283099573,-0.0,-0.0170010756701231,0.7632060647010803,-0.0,0.0031812842935323715,0.8357185125350952,0.0,-0.03793446719646454
330.0,332.0,0.396,-0.8028,9.5246,-0.0444,0.0244,-0.1176,-1.6689959965147914,0.0,2.431994915008545,-1.8521580696105957,-0.0,1.9964065551757812,4.965175735741415,0.0,0.2980947196483612,-1.4974315802203577,-0.0,-0.016341358423233032,0.7631941437721252,-0.0,0.004289495758712292,0.8357185125350952,0.0,-0.020016387104988098
327.0,312.0,0.3727,-0.789,9.7119,-0.038,0.0229,-0.1156,-1.6689874134459437,0.0,2.4725027084350586,-1.8522062301635742,-0.0,2.099398612976074,4.965172278672018,0.0,0.2938176691532135,-1.4974520842181605,-0.0,-0.026338864117860794,0.7631703615188599,-0.0,-0.00037130527198314667,0.8357145190238953,0.0,0.0263943150639534
327.0,312.0,0.3727,-0.789,9.7119,-0.038,0.0229,-0.1156,-1.6689993343748988,0.0,2.496544599533081,-1.8521387577056885,-0.0,2.0251882076263428,4.965140360384741,0.0,0.28570055961608887,-1.4974272886859339,-0.0,-0.01967986300587654,0.7632182836532593,-0.0,4.420732147991657e-05,0.8357545733451843,0.0,-0.03641492873430252
327.0,312.0,0.3727,-0.789,9.7119,-0.038,0.0229,-0.1156,-1.6690317593016566,0.0,2.4749796390533447,-1.852185845375061,-0.0,2.0818839073181152,4.965200173645773,0.0,0.28600239753723145,-1.4974272886859339,-0.0,-0.005752331577241421,0.7631539702415466,-0.0,0.0013684580335393548,0.8357064723968506,0.0,0.0008993009105324745
327.0,312.0,0.3727,-0.789,9.7119,-0.038,0.0229,-0.1156,-1.6689917049803675,0.0,2.5210981369018555,-1.8521541357040405,-0.0,2.029937982559204,4.965196090727606,0.0,0.2911170423030853,-1.4974034468280237,-0.0,-0.024142036214470863,0.7631298303604126,-0.0,-0.0017385253449901938,0.8357945680618286,0.0,0.008005864918231964
327.0,312.0,0.3727,-0.789,9.7119,-0.038,0.0229,-0.1156,-1.668983598748678,0.0,2.4940567016601562,-1.8521660566329956,-0.0,2.0546977519989014,4.965144324093618,0.0,0.2852257192134857,-1.4973910490619105,-0.0,-0.02778361365199089,0.7631658911705017,-0.0,0.0038303572218865156,0.8357625603675842,0.0,-0.042977962642908096
327.0,312.0,0.3727,-0.789,9.7119,-0.038,0.0229,-0.1156,-1.6690079174437464,0.0,2.466623067855835,-1.8521819114685059,-0.0,2.0465950965881348,4.965204375773229,0.0,0.28827205300331116,-1.49742299715151,-0.0,-0.02876824140548706,0.7631821632385254,-0.0,-0.007177875842899084,0.8357265591621399,0.0,0.00905363354831934
327.0,312.0,0.3727,-0.789,9.7119,-0.038,0.0229,-0.1156,-1.6689754925169886,0.0,2.488016128540039,-1.8521307706832886,-0.0,2.0054848194122314,4.9651880142982385,0.0,0.2951875627040863,-1.4974272886859339,-0.0,-0.027254484593868256,0.7631781697273254,-0.0,0.0060582817532122135,0.8357426524162292,0.0,0.008393533527851105
327.0,312.0,0.3727,-0.789,9.7119,-0.038,0.0229,-0.1156,-1.669027944604391,0.0,2.4650449752807617,-1.852154016494751,-0.0,2.038647174835205,4.965183841973104,0.0,0.2826381027698517,-1.49742299715151,-0.0,-0.01802738942205906,0.7631178498268127,-0.0,0.0008499082177877426,0.8357425928115845,0.0,0.016130130738019943
327.0,312.0,0.3727,-0.789,9.7119,-0.038,0.0229,-0.1156,-1.6689955196776332,0.0,2.4831464290618896,-1.8521541357040405,-0.0,2.044818878173828,4.9651880142982385,0.0,0.28628310561180115,-1.4974635283099573,-0.0,-0.02428857423365116,0.7631338834762573,-0.0,-0.0014675370184704661,0.8357185125350952,0.0,-0.005238462705165148
327.0,312.0,0.3727,-0.789,9.7119,-0.038,0.0229,-0.1156,-1.6690236530699671,0.0,2.5003161430358887,-1.8521466255187988,-0.0,2.0718116760253906,4.965220320015707,0.0,0.276603639125824,-1.4974272886859339,-0.0,-0.025223184376955032,0.7632220983505249,-0.0,0.0012878740672022104,0.8357104659080505,0.0,-0.009685471653938293
327.0,312.0,0.3727,-0.789,9.7119,-0.038,0.0229,-0.1156,-1.669027944604391,0.0,2.492659568786621,-1.8521307706832886,-0.0,2.033759593963623,4.9651920078094385,0.0,0.3012107014656067,-1.4974396864520472,-0.0,-0.01153063215315342,0.7632180452346802,-0.0,0.005926147568970919,0.835758626461029,0.0,0.008221382275223732
327.0,312.0,0.3727,-0.789,9.7119,-0.038,0.0229,-0.1156,-1.668983598748678,0.0,2.4814207553863525,-1.8521466255187988,-0.0,2.0756258964538574,4.965204345970907,0.0,0.268213152885437,-1.4974716345416468,-0.0,-0.009819683618843555,0.7631543874740601,-0.0,0.008514436893165112,0.8357144594192505,0.0,0.04219773784279823
314.0,334.0,0.4439,-0.7513,9.4283,-0.0324,0.0276,-0.119,-1.6689874134459437,0.0,2.4635868072509766,-1.8521625995635986,-0.0,2.0250344276428223,4.965204345970907,0.0,0.28815609216690063,-1.4974072615252894,-0.0,-0.014543966390192509,0.7632668614387512,-0.0,-0.007819592952728271,0.8357265591621399,0.0,-0.014153346419334412
314.0,334.0,0.4439,-0.7513,9.4283,-0.0324,0.0276,-0.119,-1.669011732141012,0.0,2.4719414710998535,-1.8521223068237305,-0.0,2.0800862312316895,4.965132015734472,0.0,0.303566575050354,-1.4974153677569788,-0.0,-0.01504669152200222,0.7631580829620361,-0.0,-0.0030683097429573536,0.8357305526733398,0.0,0.005586552899330854
314.0,334.0,0.4439,-0.7513,9.4283,-0.0324,0.0276,-0.119,-1.6690198383727015,0.0,2.4753637313842773,-1.8521621227264404,-0.0,2.0465428829193115,4.965156304627218,0.0,0.29457664489746094,-1.4974153677569788,-0.0,-0.019803877919912338,0.7631822228431702,-0.0,0.0025428326334804296,0.8357266187667847,0.0,0.04918469116091728
314.0,334.0,0.4439,-0.7513,9.4283,-0.0324,0.0276,-0.119,-1.6690517864623011,0.0,2.514768600463867,-1.852205753326416,-0.0,2.0640270709991455,4.9651797888572595,0.0,0.2834875285625458,-1.497411076222555,-0.0,-0.015108417719602585,0.7632220387458801,-0.0,-0.007114213891327381,0.8357386589050293,0.0,0.018762774765491486
314.0,334.0,0.4439,-0.7513,9.4283,-0.0324,0.0276,-0.119,-1.6689955196776332,0.0,2.4762306213378906,-1.8521541357040405,-0.0,2.1156928539276123,4.965168136149206,0.0,0.2943118214607239,-1.49742299715151,-0.0,-0.02372884750366211,0.7631585001945496,-0.0,-0.005154557526111603,0.8357104659080505,0.0,0.029324376955628395
314.0,334.0,0.4439,-0.7513,9.4283,-0.0324,0.0276,-0.119,-1.6689797840514125,0.0,2.500349998474121,-1.8521744012832642,-0.0,2.0463101863861084,4.965168165951528,0.0,0.27877533435821533,-1.4974635283099573,-0.0,-0.016857536509633064,0.7631904482841492,-0.0,0.001405114307999611,0.8356944918632507,0.0,0.011686566285789013
314.0,334.0,0.4439,-0.7513,9.4283,-0.0324,0.0276,-0.119,-1.6690317593016566,0.0,2.50650954246521,-1.8521541357040405,-0.0,2.0651612281799316,4.965168165951528,0.0,0.28505346179008484,-1.4974072615252894,-0.0,-0.015386010520160198,0.7632142305374146,-0.0,0.0072129033505916595,0.8357505798339844,0.0,-0.0024227420799434185
314.0,334.0,0.4439,-0.7513,9.4283,-0.0324,0.0276,-0.119,-1.6689955196776332,0.0,2.471187114715576,-1.8521898984909058,-0.0,2.061901569366455,4.965204316168585,0.0,0.2877183258533478,-1.4974315802203577,-0.0,-0.009474677965044975,0.7631822228431702,-0.0,-0.0020636492408812046,0.8357345461845398,0.0,0.03263406828045845
314.0,334.0,0.4439,-0.7513,9.4283,-0.0324,0.0276,-0.119,-1.6689635715880335,0.0,2.4632797241210938,-1.8521779775619507,-0.0,2.0574073791503906,4.965164053231039,0.0,0.29296109080314636,-1.497451130543844,-0.0,-0.013408724218606949,0.7632261514663696,-0.0,0.0030554444529116154,0.835778534412384,0.0,-0.03686431795358658
314.0,334.0,0.4439,-0.7513,9.4283,-0.0324,0.0276,-0.119,-1.6689917049803675,0.0,2.480313777923584,-1.8521584272384644,-0.0,2.1327342987060547,4.965180384903707,0.0,0.2829570770263672,-1.4974272886859339,-0.0,-0.018722686916589737,0.7631703615188599,-0.0,0.001763307023793459,0.8357385993003845,0.0,0.0038456632755696774
314.0,334.0,0.4439,-0.7513,9.4283,-0.0324,0.0276,-0.119,-1.6690079174437464,0.0,2.4926395416259766,-1.8521943092346191,-0.0,1.998460054397583,4.96516032794074,0.0,0.2916460335254669,-1.497451130543844,-0.0,-0.02481279894709587,0.7631704211235046,-0.0,0.00022831326350569725,0.835778534412384,0.0,0.010272469371557236
319.0,324.0,0.4289,-0.8423,9.2064,-0.0316,0.0243,-0.1185,-1.6689959965147914,0.0,2.489121913909912,-1.8521943092346191,-0.0,2.0691604614257812,4.965172338276663,0.0,0.30497968196868896,-1.4974997679339808,-0.0,-0.018391191959381104,0.7631662487983704,-0.0,0.004626380279660225,0.8357705473899841,0.0,-0.026760276407003403
319.0,324.0,0.4289,-0.8423,9.2064,-0.0316,0.0243,-0.1185,-1.6690355739989222,0.0,2.446228504180908,-1.852213740348816,-0.0,2.0719778537750244,4.96518041470603,0.0,0.28066402673721313,-1.4974468390094202,-0.0,-0.01847265288233757,0.7631461024284363,-0.0,-0.011445512995123863,0.8357265591621399,3.6235283573660126e-07,-0.002255761995911598
319.0,324.0,0.4289,-0.8423,9.2064,-0.0316,0.0243,-0.1185,-1.6690355739989222,0.0,2.4768872261047363,-1.8522018194198608,-0.0,2.045321464538574,4.965172338276663,0.0,0.29952070116996765,-1.4974797407733362,-0.0,-0.019489342346787453,0.7631740570068359,-0.0,-0.012323712930083275,0.8357386589050293,1.1739769922793249e-14,0.005536806769669056
319.0,324.0,0.4289,-0.8423,9.2064,-0.0316,0.0243,-0.1185,-1.668971677819723,0.0,2.5217676162719727,-1.8522220849990845,-0.0,2.0499823093414307,4.9651644108589075,0.0,0.28050723671913147,-1.4974353949176233,-0.0,-0.023382076993584633,0.763210117816925,-0.0,-0.004864300135523081,0.8357505202293396,3.803536147209587e-22,0.019798506051301956
319.0,324.0,0.4289,-0.8423,9.2064,-0.0316,0.0243,-0.1185,-1.669016023675436,0.0,2.5317904949188232,-1.8521982431411743,-0.0,2.035849094390869,4.96518041470603,0.0,0.28032949566841125,-1.4974353949176233,-0.0,-0.012149214744567871,0.7631698846817017,-0.0,-0.0051530832424759865,0.8357625603675842,1.2322973975828355e-29,0.0008135393727570772
319.0,324.0,0.4289,-0.8423,9.2064,-0.0316,0.0243,-0.1185,-1.6690474949278773,0.0,2.472433567047119,-1.8521744012832642,-0.0,2.0629215240478516,4.965148407011785,0.0,0.282898485660553,-1.49742299715151,-0.0,-0.02847975119948387,0.7631179094314575,-0.0,0.008673151955008507,0.8357786536216736,3.9924872109595005e-37,-0.016081495210528374
319.0,324.0,0.4289,-0.8423,9.2064,-0.0316,0.0243,-0.1185,-1.6690474949278773,0.0,2.536972999572754,-1.8521779775619507,-0.0,2.0125999450683594,4.965140330582418,0.0,0.28055667877197266,-1.497500244771139,-0.0,-0.013011503964662552,0.7631298303604126,-0.0,0.005188790615648031,0.8357584476470947,1.2611686178923354e-44,0.02317311242222786
319.0,324.0,0.4289,-0.8423,9.2064,-0.0316,0.0243,-0.1185,-1.6690079174437464,0.0,2.4556186199188232,-1.8522908687591553,-0.00016091842553578317,2.0921289920806885,4.965136158257284,0.0,0.28769487142562866,-1.4973915258990687,-0.0,-0.013084638863801956,0.7631740570068359,-0.0,-0.01386991236358881,0.8357425928115845,0.0,0.03546111285686493
319.0,324.0,0.4289,-0.8423,9.2064,-0.0316,0.0243,-0.1185,-1.6690594158568324,0.0,2.4824249744415283,-1.8522098064422607,-0.00016778401914052665,2.013197898864746,4.965124326735296,0.0,0.26815733313560486,-1.4974554220782679,-0.0,-0.008840895257890224,0.7631740570068359,-0.0,-0.0004444181686267257,0.8357465267181396,0.0,0.005555504932999611
319.0,324.0,0.4289,-0.8423,9.2064,-0.0316,0.0243,-0.1185,-1.6690637073912562,0.0,2.4514997005462646,-1.8522261381149292,-0.0001516309566795826,2.077106475830078,4.965140330582418,0.0,0.29537278413772583,-1.4974520842181605,-0.0,-0.017154349014163017,0.7631703615188599,-0.0,-0.002495772670954466,0.8357145190238953,0.0,0.015150897204875946
319.0,324.0,0.4289,-0.8423,9.2064,-0.0316,0.0243,-0.1185,-1.6690675220885218,-0.0002098645782098174,2.495711088180542,-1.8522580862045288,-0.00013831483374815434,2.070328712463379,4.965172666102209,0.0,0.2826303243637085,-1.4973915258990687,-0.0,-0.015321237966418266,0.7631539702415466,-0.0,0.001250451197847724,0.8357305526733398,0.0,0.0005381360533647239
314.0,320.0,0.5294,-0.6185,9.5103,-0.0428,0.018,-0.1271,-1.6690556011595667,-0.00025636606733314693,2.510730743408203,-1.8522305488586426,-0.00014530951739288867,2.0642764568328857,4.965152609139242,0.0,0.27598345279693604,-1.4973834196673792,-0.0,-0.02108139917254448,0.7631900906562805,-0.0,-0.011447031982243061,0.8357425928115845,0.0,-0.006709226872771978
314.0,320.0,0.5294,-0.6185,9.5103,-0.0428,0.018,-0.1271,-1.6691118679442347,-0.0004867934621870518,2.466369152069092,-1.8522264957427979,-0.0002310867712367326,2.0589520931243896,4.965116488724508,0.0,0.28377747535705566,-1.4974234739886683,-0.0,-0.016987739130854607,0.7632184028625488,-0.0,-5.555269308388233e-05,0.8357705473899841,0.0,-0.010158867575228214
314.0,320.0,0.5294,-0.6185,9.5103,-0.0428,0.018,-0.1271,-1.669119497338766,-0.0004984302795492113,2.4935760498046875,-1.8522385358810425,-0.00023398257326334715,2.0787787437438965,4.96513249257163,0.0,0.2848031520843506,-1.4974153677569788,-0.0,-0.014690674841403961,0.7631502151489258,-0.0,0.005563867744058371,0.8357425928115845,0.0,0.07705400884151459
314.0,320.0,0.5294,-0.6185,9.5103,-0.0428,0.018,-0.1271,-1.6691156826415003,-0.0004327059432398528,2.4719865322113037,-1.8522707223892212,-0.0002329107519472018,2.0312719345092773,4.965132462769308,-0.0002383983664913103,0.28326737880706787,-1.4974272886859339,6.311508332146332e-05,-0.01584506593644619,0.7631699442863464,-0.0,0.005744304973632097,0.8357346653938293,0.0,0.0011606160551309586
314.0,320.0,0.5294,-0.6185,9.5103,-0.0428,0.018,-0.1271,-1.669079919854635,-0.00042235080036334693,2.4479668140411377,-1.8522460460662842,-0.00030871963826939464,2.048391580581665,4.965128409653463,-0.00026512343902140856,0.3056291341781616,-1.4974311033831995,5.630245141219348e-05,-0.022819645702838898,0.7631420493125916,-0.0,-0.00395992724224925,0.83571457862854,0.0,0.009806236252188683
314.0,320.0,0.5294,-0.6185,9.5103,-0.0428,0.018,-0.1271,-1.6690918407835902,-0.0003810472262557596,2.5185232162475586,-1.8521977663040161,-0.00024223570653703064,2.0200655460357666,4.965108263283529,-0.0002677399024832994,0.2792130708694458,-1.4974353949176233,7.505760731874034e-05,-0.020406946539878845,0.7631298303604126,-0.0,-0.014498639851808548,0.8357545137405396,0.0,0.0008512018248438835
314.0,320.0,0.5294,-0.6185,9.5103,-0.0428,0.018,-0.1271,-1.6691118679442347,-0.0003955325810238719,2.433603048324585,-1.8522224426269531,-0.0002254579303553328,2.0832269191741943,4.965100484877386,-0.0002759441558737308,0.2925682067871094,-1.4974315802203577,-4.97816131428408e-07,-0.023940453305840492,0.763146162033081,-0.0,0.0019235190702602267,0.8357785940170288,0.0,-0.016239050775766373
314.0,320.0,0.5294,-0.6185,9.5103,-0.0428,0.018,-0.1271,-1.669131418267721,-0.0004142207035329193,2.478875160217285,-1.8522862195968628,-0.00029779213946312666,2.0391478538513184,4.965112793236532,-0.00034597175545059144,0.2934553623199463,-1.4973991552936,-9.047562178621238e-12,-0.022757992148399353,0.7631421089172363,-0.0,-0.004596125800162554,0.8357386589050293,0.0,0.028496580198407173
314.0,320.0,0.5294,-0.6185,9.5103,-0.0428,0.018,-0.1271,-1.669107576409811,-0.0008140789577737451,2.480900526046753,-1.852293610572815,-0.001425253925845027,2.0248329639434814,4.965080487519064,-0.0011009122245013714,0.291461706161499,-1.4973953405963343,-1.6443496927162035e-16,-0.020947478711605072,0.7632023692131042,-0.0,0.008302993141114712,0.8357625603675842,0.0,0.011161635629832745
314.0,320.0,0.5294,-0.6185,9.5103,-0.0428,0.018,-0.1271,-1.669215818444723,-0.002398770535364747,2.469675064086914,-1.8522340059280396,-0.0012509271036833525,1.9774844646453857,4.965032148152151,-0.0009418161353096366,0.2724534273147583,-1.4974234739886683,-2.9885239854877448e-21,-0.008839637972414494,0.7631338834762573,-0.0,0.0010838971938937902,0.8357825875282288,0.0,-0.015328885987401009
314.0,320.0,0.5294,-0.6185,9.5103,-0.0428,0.018,-0.1271,-1.6692353687682093,-0.005614439491182566,2.437964916229248,-1.8522424697875977,-0.0011592772789299488,1.9519463777542114,4.965088653355398,-0.0005541086429730058,0.2871396541595459,-1.4973796049701136,-5.431495303209238e-26,-0.01833929307758808,0.7630978226661682,-0.0,-0.005297345109283924,0.8357465267181396,0.0,-0.005173286888748407
327.0,324.0,0.4959,-0.4421,9.326,-0.0287,0.0189,-0.1324,-1.6692472896971644,-0.010349179618060589,2.4118175506591797,-1.8523105382919312,-0.0014668535441160202,2.061290740966797,4.96507682183341,-0.000517001491971314,0.2772800922393799,-1.4973953405963343,-9.871474300578302e-31,-0.026032835245132446,0.7631257176399231,-0.0,-0.007597136311233044,0.8357386589050293,0.0,0.04015330970287323
327.0,324.0,0.4959,-0.4421,9.326,-0.0287,0.0189,-0.1324,-1.6693431339659632,-0.011380253359675407,2.3946163654327393,-1.8523544073104858,-0.0012997905723750591,1.9990980625152588,4.965044486313619,-0.00044676559627987444,0.2620464265346527,-1.497403923665182,-1.79409165226623e-35,-0.027693573385477066,0.7631097435951233,-0.0,-0.0010561703238636255,0.8357505202293396,0.0,0.014630875550210476
327.0,324.0,0.4959,-0.4421,9.326,-0.0287,0.0189,-0.1324,-1.6694790325560511,-0.012670716270804405,2.405155658721924,-1.8523298501968384,-0.0009792540222406387,1.9773670434951782,4.965056824475088,-0.00045860643149353564,0.27626946568489075,-1.4973714987384241,-3.2606673836527736e-40,-0.02275661751627922,0.7631142139434814,-0.0,-0.0035205690655857325,0.8357226252555847,0.0,-0.028951218351721764
327.0,324.0,0.4959,-0.4421,9.326,-0.0287,0.0189,-0.1324,-1.6696106396117152,-0.017002467066049576,2.3910374641418457,-1.8523133993148804,-0.0021959131117910147,1.9132263660430908,4.965052652149954,-0.000895761710125953,0.2603874206542969,-1.4973514715777796,0.0002477364323567599,-0.0011830080766230822,0.7631101012229919,-0.0,0.00016843515913933516,0.8357465863227844,0.0,-0.007176916114985943
327.0,324.0,0.4959,-0.4421,9.326,-0.0287,0.0189,-0.1324,-1.6697427235045375,-0.02232501283288002,2.340437889099121,-1.8524099588394165,-0.004079208709299564,1.9550997018814087,4.965020644455709,-0.002159605035558343,0.255841463804245,-1.497375790272848,0.0004301253648009151,-0.008022160269320011,0.7630454897880554,-0.0,-0.011528531089425087,0.8357185125350952,0.0,-0.01937989518046379
327.0,324.0,0.4959,-0.4421,9.326,-0.0287,0.0189,-0.1324,-1.6699029407896937,-0.026146626099944115,2.305927276611328,-1.8524346351623535,-0.00514849042519927,1.9562373161315918,4.964968877821722,-0.003748653456568718,0.23125872015953064,-1.4973719755755823,0.0005339081399142742,-0.0009627327090129256,0.7630696296691895,-0.0,-0.005033949390053749,0.8357385396957397,0.0,0.012897182255983353
327.0,324.0,0.4959,-0.4421,9.326,-0.0287,0.0189,-0.1324,-1.6701632938780726,-0.028823619708418846,2.2539753913879395,-1.8524420261383057,-0.006178427487611771,1.8833940029144287,4.964916872769155,-0.01109932828694582,0.23878654837608337,-1.4973433653460901,0.0005223681218922138,-0.0015037728007882833,0.7631257176399231,-0.0,-0.005980509798973799,0.8357385993003845,-0.0005781013169325888,0.01088839303702116
327.0,324.0,0.4959,-0.4421,9.326,-0.0287,0.0189,-0.1324,-1.6703821621336878,-0.03236384317278862,2.255377769470215,-1.8525339365005493,-0.006509727798402309,1.9104115962982178,4.964805114060201,-0.018562737852334976,0.23682813346385956,-1.4973433653460901,0.0005164116737432778,0.007239772472530603,0.7630977630615234,-0.0,0.009524300694465637,0.8356623649597168,-0.0011755231535062194,-0.043587297201156616
327.0,324.0,0.4959,-0.4421,9.326,-0.0287,0.0189,-0.1324,-1.670650144616598,-0.03545112907886505,2.258117437362671,-1.8525454998016357,-0.00811418704688549,1.8844025135040283,4.96466942408637,-0.018420618027448654,0.23226669430732727,-1.4973681608783167,0.00042846918222494423,-0.005283414851874113,0.7631987929344177,-0.0,-0.004260914400219917,0.8356985449790955,-0.0013030540430918336,-0.11536962538957596
327.0,324.0,0.4959,-0.4421,9.326,-0.0287,0.0189,-0.1324,-1.6709214649596156,-0.037513457238674164,2.218993663787842,-1.8526625633239746,-0.009874728508293629,1.902204155921936,4.964505898743429,-0.022076420485973358,0.21192073822021484,-1.4972952047931116,0.0004661089042201638,0.015259861014783382,0.7631381154060364,-0.0,0.005097728222608566,0.8356584310531616,-0.0015219926135614514,-0.13797976076602936
327.0,324.0,0.4959,-0.4421,9.326,-0.0287,0.0189,-0.1324,-1.6712414226927699,-0.03930608928203583,2.19024920463562,-1.8527461290359497,-0.011615805327892303,1.9308574199676514,4.9643385289009,-0.03020511195063591,0.22080746293067932,-1.4972994963275355,0.00048684526700526476,0.025602638721466064,0.7631745338439941,-0.0,0.0014926530420780182,0.8356184959411621,-0.001489959191530943,-0.15258777141571045
329.0,326.0,-0.1149,-0.7454,9.3266,-0.0305,-0.0142,-0.1335,-1.6715699634947718,-0.03987361118197441,2.2141590118408203,-1.852893590927124,-0.01340059470385313,1.9040781259536743,4.9639910636241815,-0.043624140322208405,0.19038519263267517,-1.4973157087909144,0.0006393051007762551,0.020595764741301537,0.7631502151489258,-0.0,-0.01209201943129301,0.8356143236160278,-0.0015239565400406718,-0.16804222762584686
329.0,326.0,-0.1149,-0.7454,9.3266,-0.0305,-0.0142,-0.1335,-1.6719094715514125,-0.03918721526861191,2.1768853664398193,-1.8529422283172607,-0.015707211568951607,1.910614252090454,4.96353970745162,-0.06504063308238983,0.1808287799358368,-1.4973276297198694,0.000558581086806953,0.03191846236586571,0.7631822228431702,-0.0,0.008010733872652054,0.8356146216392517,-0.0013150227023288608,-0.09231714904308319
329.0,326.0,-0.1149,-0.7454,9.3266,-0.0305,-0.0142,-0.1335,-1.672192235986227,-0.039861273020505905,2.129668712615967,-1.85306978225708,-0.016245819628238678,1.9078679084777832,4.962960886746206,-0.08527576923370361,0.16901931166648865,-1.4973152319537562,0.0005416916683316231,0.02314840257167816,0.7631584405899048,-0.0,-0.003089326433837414,0.8356624245643616,-0.0010809771483764052,-0.12793691456317902
329.0,326.0,-0.1149,-0.7454,9.3266,-0.0305,-0.0142,-0.1335,-1.6724640331664027,-0.04320155084133148,2.1224536895751953,-1.853157877922058,-0.016859259456396103,1.929558277130127,4.962258907943525,-0.08546259254217148,0.16724683344364166,-1.497291390095846,0.000515012361574918,0.03714457526803017,0.7631863951683044,-0.0,0.0006902008899487555,0.8356146216392517,-0.0007365705678239465,-0.16294261813163757
329.0,326.0,-0.1149,-0.7454,9.3266,-0.0305,-0.0142,-0.1335,-1.672880312005514,-0.047840017825365067,2.1037447452545166,-1.8533215522766113,-0.01588515192270279,1.8958429098129272,4.961632224708357,-0.06527383625507355,0.1648421287536621,-1.497303311024801,0.0005785475950688124,0.024505486711859703,0.7631744742393494,-0.0,-0.007861878722906113,0.8355985283851624,-0.0006298105581663549,-0.13581891357898712
329.0,326.0,-0.1149,-0.7454,9.3266,-0.0305,-0.0142,-0.1335,-1.6732713184752406,-0.051772359758615494,2.132648468017578,-1.8534337282180786,-0.014785823412239552,1.9461733102798462,4.961262109666624,-0.04674796015024185,0.18275660276412964,-1.497324291859762,0.0010421947808936238,0.041657719761133194,0.763146162033081,-0.0,-0.004231259226799011,0.8356065154075623,-0.0008580480935052037,-0.13868428766727448
329.0,326.0,-0.1149,-0.7454,9.3266,-0.0305,-0.0142,-0.1335,-1.6737076244749964,-0.05790781229734421,2.045738458633423,-1.8535295724868774,-0.011931815184652805,1.855248212814331,4.960914867907324,-0.04814844951033592,0.1840948462486267,-1.4972918669330042,0.0035413457080721855,0.049693264067173004,0.7631502151489258,-0.0,-0.015297597274184227,0.8356265425682068,-0.001034475164487958,-0.16438791155815125
329.0,326.0,-0.1149,-0.7454,9.3266,-0.0305,-0.0142,-0.1335,-1.6741749248900355,-0.06501194089651108,2.0922951698303223,-1.8536584377288818,-0.007937382906675339,1.93300199508667,4.960423949151792,-0.07247218489646912,0.17023184895515442,-1.4971678892718714,0.01497656013816595,0.04295416921377182,0.7631060481071472,-0.0,-0.00017630041111260653,0.8356664180755615,-0.0013143299147486687,-0.17907166481018066
329.0,326.0,-0.1149,-0.7454,9.3266,-0.0305,-0.0142,-0.1335,-1.6748019657530726,-0.07049881666898727,2.1024487018585205,-1.8536343574523926,-0.00212657218798995,1.958830714225769,4.959497976094045,-0.10361458361148834,0.14273959398269653,-1.4970243612872522,0.017556678503751755,0.046900711953639984,0.7631261348724365,-0.0,-0.004671728704124689,0.8355545401573181,-0.0016355178086087108,-0.19291405379772186
329.0,326.0,-0.1149,-0.7454,9.3266,-0.0305,-0.0142,-0.1335,-1.6754380665221156,-0.07054433971643448,2.1468167304992676,-1.8537019491195679,-0.0005496003432199359,1.9231568574905396,4.958639728813925,-0.09712321311235428,0.15661008656024933,-1.4969280401812952,0.01071186363697052,0.0353609174489975,0.7630777955055237,-0.0,-0.004287009127438068,0.8355823159217834,-0.0021860445849597454,-0.2566298842430115
329.0,326.0,-0.1149,-0.7454,9.3266,-0.0305,-0.0142,-0.1335,-1.6759892902769984,-0.07203950732946396,2.1448614597320557,-1.853622317314148,-9.600432531442493e-05,1.9518990516662598,4.95795817950324,-0.0793800801038742,0.16401389241218567,-1.4969123045550745,0.0009030167711898685,0.06385502964258194,0.7631178498268127,-0.0,0.004274047911167145,0.8356067538261414,-0.0029496364295482635,-0.21349821984767914
329.0,326.0,-0.1149,-0.7454,9.3266,-0.0305,-0.0142,-0.1335,-1.6766087017455042,-0.07586687058210373,2.0777173042297363,-1.8536542654037476,-6.727450818289071e-05,2.008671283721924,4.95730351188735,-0.07383276522159576,0.16561606526374817,-1.4969046751605433,0.00028935627778992057,0.05923638865351677,0.7631380558013916,-0.0,0.007462909445166588,0.8355503082275391,-0.003855807241052389,-0.2005612552165985
323.0,310.0,-0.2572,-0.6437,9.4074,-0.0455,-0.1115,-0.1323,-1.6772037945189417,-0.07875080406665802,2.104918956756592,-1.8536423444747925,-5.178728315513581e-05,1.984983205795288,4.956733467965879,-0.09112300723791122,0.15362095832824707,-1.4968927542315882,0.000178179529029876,0.05135931447148323,0.7631744742393494,-0.0,-0.0075181880965828896,0.8355063796043396,-0.006276020780205727,-0.25035691261291504
323.0,310.0,-0.2572,-0.6437,9.4074,-0.0455,-0.1115,-0.1323,-1.6777993641295375,-0.08446676284074783,2.10048246383667,-1.8536497354507446,-4.0799953693326785e-11,1.9923664331436157,4.955871048360624,-0.11542324721813202,0.1353730857372284,-1.4968403021441858,0.0002382585807936266,0.05780819430947304,0.7631179094314575,-0.0,-0.0038214875385165215,0.835450291633606,-0.00844552181661129,-0.23572289943695068
323.0,310.0,-0.2572,-0.6437,9.4074,-0.0455,-0.1115,-0.1323,-1.6784664593138636,-0.0891260951757431,2.0293312072753906,-1.8536258935928345,-1.3218668789036278e-18,1.9556443691253662,4.954925599485197,-0.1169353723526001,0.1396859884262085,-1.4969008604632776,0.00015521440946031362,0.06889718025922775,0.7631703615188599,-0.0,0.00355753512121737,0.8353421092033386,-0.009018907323479652,-0.22541557252407074
323.0,310.0,-0.2572,-0.6437,9.4074,-0.0455,-0.1115,-0.1323,-1.6791979275145472,-0.09107712656259537,2.1061506271362305,-1.8536219596862793,0.00013355685223359615,2.0140697956085205,4.954083907395162,-0.10755174607038498,0.15670698881149292,-1.496868912373678,0.00013130006846040487,0.07053841650485992,0.7631257176399231,-0.0,-0.002263767644762993,0.8352742195129395,-0.00940031185746193,-0.2846256196498871
323.0,310.0,-0.2572,-0.6437,9.4074,-0.0455,-0.1115,-0.1323,-1.6799575291075648,-0.09109511971473694,2.1159701347351074,-1.8535538911819458,0.0006725646671839058,2.000019073486328,4.953186008125105,-0.1346956193447113,0.13221821188926697,-1.496880833302633,0.0001101974630728364,0.06709171831607819,0.763130247592926,-0.0,0.008755143731832504,0.8352102637290955,-0.009174253791570663,-0.265087366104126
323.0,310.0,-0.2572,-0.6437,9.4074,-0.0455,-0.1115,-0.1323,-1.6807242832579554,-0.09350113570690155,2.0950684547424316,-1.8535737991333008,0.0013937463518232107,2.0025432109832764,4.951969089895048,-0.13731710612773895,0.13385409116744995,-1.4968565146075647,0.00012630547280423343,0.05005987733602524,0.7631380558013916,-0.0,-0.013688204810023308,0.835117757320404,-0.008478676900267601,-0.22454027831554413
323.0,310.0,-0.2572,-0.6437,9.4074,-0.0455,-0.1115,-0.1323,-1.6814266643919886,-0.09416114538908005,2.1475582122802734,-1.8535373210906982,0.0005905128200538456,2.0416369438171387,4.950927677541532,-0.1161162331700325,0.14300842583179474,-1.4968646208392542,0.00013796579150948673,0.07399557530879974,0.7631298303604126,-0.0,-0.012851249426603317,0.835098147392273,-0.007652724161744118,-0.2776731550693512
323.0,310.0,-0.2572,-0.6437,9.4074,-0.0455,-0.1115,-0.1323,-1.6822544536986292,-0.09487979114055634,2.111403465270996,-1.853557825088501,9.987066005123779e-05,1.97214937210083,4.950034144311704,-0.10979801416397095,0.15420541167259216,-1.4968603293048304,0.00012327749573159963,0.06962340325117111,0.7631502151489258,-0.0,-0.005434632766991854,0.8350622653961182,-0.006449359003454447,-0.30473583936691284
323.0,310.0,-0.2572,-0.6437,9.4074,-0.0455,-0.1115,-0.1323,-1.6830092869200648,-0.10086215287446976,2.137868881225586,-1.8536136150360107,6.909805233590305e-05,1.9826862812042236,4.949116426497259,-0.11638951301574707,0.1554526835680008,-1.496795956288473,0.0001856070593930781,0.05540136992931366,0.7631097435951233,-0.0,-0.007714106701314449,0.8349617123603821,-0.00483925873413682,-0.26696211099624634
323.0,310.0,-0.2572,-0.6437,9.4074,-0.0455,-0.1115,-0.1323,-1.6838485203185023,-0.11058752238750458,2.150033950805664,-1.8535703420639038,0.00010572187602519989,2.000840902328491,4.94823037365035,-0.10675390809774399,0.1332225650548935,-1.496840778981344,0.00018407526658847928,0.07026219367980957,0.7631543874740601,-0.0,-0.003683066926896572,0.8349700570106506,-0.003945156931877136,-0.24019336700439453
323.0,310.0,-0.2572,-0.6437,9.4074,-0.0455,-0.1115,-0.1323,-1.6848002872862757,-0.11917781084775925,2.111809253692627,-1.8535258769989014,0.00015644586528651416,1.9927451610565186,4.947584870248594,-0.07453739643096924,0.16799387335777283,-1.496868912373678,0.000168411890626885,0.06184965372085571,0.7631502151489258,-0.0,0.009502504020929337,0.8349100947380066,-0.002818868262693286,-0.22649817168712616
320.0,303.0,0.8883,-0.9398,9.6132,-0.0583,-0.2705,-0.1425,-1.685707231561178,-0.12287352979183197,2.1197030544281006,-1.8535022735595703,0.0019132550805807114,2.0118017196655273,4.947098377137937,-0.06425109505653381,0.16607658565044403,-1.4968202749835413,0.00014973149518482387,0.06151380017399788,0.7631543874740601,-0.0,-0.0025671401526778936,0.8349339365959167,-0.002271255012601614,-0.2756516933441162
320.0,303.0,0.8883,-0.9398,9.6132,-0.0583,-0.2705,-0.1425,-1.686810155908102,-0.12143319845199585,2.080941915512085,-1.8535336256027222,0.004406939260661602,1.9599614143371582,4.946475642710485,-0.08293060958385468,0.16578897833824158,-1.4968159834491175,0.00015724406694062054,0.06004132330417633,0.7631220817565918,-0.0,-0.0026768269017338753,0.8348939418792725,-0.0017717801965773106,-0.22472432255744934
320.0,303.0,0.8883,-0.9398,9.6132,-0.0583,-0.2705,-0.1425,-1.6878658733763636,-0.11714731156826019,2.154310941696167,-1.8534973859786987,0.001888916827738285,2.0327110290527344,4.945697086840429,-0.09955883771181107,0.15341641008853912,-1.4968526999102991,0.0001429704570909962,0.06715893745422363,0.7631822228431702,-0.0,-0.0009349720785394311,0.834909975528717,-0.000980393961071968,-0.2472034990787506
320.0,303.0,0.8883,-0.9398,9.6132,-0.0583,-0.2705,-0.1425,-1.6888600788512171,-0.12755854427814484,2.142124652862549,-1.8535336256027222,-0.0007794844568707049,1.9698505401611328,4.94491574445323,-0.09430868923664093,0.1553068459033966,-1.4968159834491175,0.0001310718507738784,0.06400158256292343,0.7631421685218811,-0.0,-0.003005383536219597,0.8349100351333618,-0.0006041099550202489,-0.3200286626815796
320.0,303.0,0.8883,-0.9398,9.6132,-0.0583,-0.2705,-0.1425,-1.6899143658080042,-0.1468072235584259,2.09969162940979,-1.853501796722412,-0.000438482005847618,2.032824993133545,4.94414963105277,-0.08092022687196732,0.1654261350631714,-1.4968121687518519,0.0001379909081151709,0.06671123951673508,0.7631539702415466,-0.0,0.008046942763030529,0.834909975528717,-0.00043659392395056784,-0.26546773314476013
320.0,303.0,0.8883,-0.9398,9.6132,-0.0583,-0.2705,-0.1425,-1.69110169033193,-0.15974877774715424,2.0704591274261475,-1.853461503982544,-1.7977124855406146e-07,1.934790849685669,4.943630787521162,-0.06642589718103409,0.17565152049064636,-1.4968040625201624,0.00013461204071063548,0.0805400162935257,0.7631420493125916,-0.0,0.0006646558176726103,0.8349139094352722,-0.0004262860747985542,-0.298568457365036
320.0,303.0,0.8883,-0.9398,9.6132,-0.0583,-0.2705,-0.1425,-1.6924573383727015,-0.15680044889450073,2.090230941772461,-1.8534178733825684,0.006122765596956015,2.009502410888672,4.943163963943281,-0.061749882996082306,0.1707572638988495,-1.4968083540545862,0.0001446808164473623,0.05944087356328964,0.7631700038909912,-0.0,-0.00010846671648323536,0.8348697423934937,-0.002613300224766135,-0.2618383467197418
320.0,303.0,0.8883,-0.9398,9.6132,-0.0583,-0.2705,-0.1425,-1.6936828098692835,-0.14475922286510468,2.1053483486175537,-1.8533746004104614,0.006047460716217756,2.021939277648926,4.94264172294692,-0.06922633200883865,0.1591707170009613,-1.4968488852130335,0.00013076393224764615,0.07180697470903397,0.7631822228431702,-0.0,-0.0012912919046357274,0.8348580002784729,-0.0022286190651357174,-0.2742619514465332
320.0,303.0,0.8883,-0.9398,9.6132,-0.0583,-0.2705,-0.1425,-1.69496550182485,-0.158311128616333,2.0907671451568604,-1.8533661365509033,0.0002950493071693927,1.9969311952590942,4.942023220449247,-0.07407588511705399,0.16278325021266937,-1.4968326727496546,0.00011921588884433731,0.07060965150594711,0.7631543874740601,-0.0,-0.01572415977716446,0.8348739147186279,-0.0008717764867469668,-0.276302307844162
320.0,303.0,0.8883,-0.9398,9.6132,-0.0583,-0.2705,-0.1425,-1.6963240108885707,-0.18535862863063812,2.0774288177490234,-1.8534855842590332,-0.0022010784596204758,2.0163562297821045,4.941424342780866,-0.0676724910736084,0.16204434633255005,-1.4968164602862757,0.00012779366807080805,0.06357825547456741,0.7631662487983704,-0.0,0.000700698234140873,0.8348820805549622,-0.0006529049715027213,-0.3255259394645691
320.0,303.0,0.8883,-0.9398,9.6132,-0.0583,-0.2705,-0.1425,-1.6977058849730433,-0.19113348424434662,2.097641706466675,-1.8533741235733032,-1.0969409913741401e-06,1.9979403018951416,4.941094177752294,-0.04163679853081703,0.17544759809970856,-1.4968531767474573,0.00019327328482177109,0.07197648286819458,0.7631782293319702,-0.0,0.008123641833662987,0.8348779082298279,-0.0024261337239295244,-0.2997710108757019
333.0,350.0,0.3434,-0.539,9.0766,-0.0279,-0.2188,-0.1449,-1.699245115319723,-0.18107858300209045,2.06542706489563,-1.853285312652588,0.0030709835700690746,2.00832200050354,4.9408903298671625,-0.009037473239004612,0.18223990499973297,-1.4968364874469202,0.00021617498714476824,0.08851803839206696,0.7631822228431702,-0.0,0.002731923246756196,0.8348581790924072,-0.004137537907809019,-0.29707837104797363
333.0,350.0,0.3434,-0.539,9.0766,-0.0279,-0.2188,-0.1449,-1.7007562122740687,-0.17803505063056946,2.091599702835083,-1.8533140420913696,0.0028806827031075954,2.0006251335144043,4.940898108273306,0.010072614066302776,0.1822178065776825,-1.4967883268939417,0.00021739222574979067,0.0826287716627121,0.763146162033081,-0.0,0.001732886303216219,0.8348178863525391,-0.003324405290186405,-0.33115828037261963
333.0,350.0,0.3434,-0.539,9.0766,-0.0279,-0.2188,-0.1449,-1.7022620640196742,-0.192058265209198,2.082559108734131,-1.853350043296814,0.0006456050323322415,1.9792563915252686,4.9409662810857675,0.005005468614399433,0.19306069612503052,-1.496784512196676,0.000191023777006194,0.08572842180728912,0.7631900906562805,-0.0,0.02386157587170601,0.8347458243370056,-0.002078221645206213,-0.294985830783844
333.0,350.0,0.3434,-0.539,9.0766,-0.0279,-0.2188,-0.1449,-1.7038241825499476,-0.20355919003486633,1.9957988262176514,-1.8533140420913696,6.40157787890061e-11,1.9802813529968262,4.940986695676603,-0.0011763055808842182,0.19058167934417725,-1.4967883268939417,0.0001946952543221414,0.08877614885568619,0.7631543874740601,-0.0,0.012957124039530754,0.8347177505493164,-0.0016809084918349981,-0.3042353391647339
333.0,350.0,0.3434,-0.539,9.0766,-0.0279,-0.2188,-0.1449,-1.7053901157774867,-0.21012720465660095,2.039330244064331,-1.8533215522766113,2.074029654523609e-18,1.9755356311798096,4.940986621170797,-0.0006783384596928954,0.18587279319763184,-1.496800724660055,0.00024138177104759961,0.08890010416507721,0.763146162033081,-0.0,-0.02209543064236641,0.8347458839416504,-0.0030550265219062567,-0.34050267934799194
333.0,350.0,0.3434,-0.539,9.0766,-0.0279,-0.2188,-0.1449,-1.707057615319723,-0.20737487077713013,2.074565887451172,-1.8532254695892334,0.001343060052022338,1.9572213888168335,4.941026496678152,0.00021824757277499884,0.19463692605495453,-1.4967764059649866,0.00025730079505592585,0.08554644882678986,0.7631502747535706,-0.0,-0.0025858436711132526,0.8347218036651611,-0.004154963418841362,-0.30690914392471313
333.0,350.0,0.3434,-0.539,9.0766,-0.0279,-0.2188,-0.1449,-1.7085830173888148,-0.19949975609779358,2.0772078037261963,-1.8532058000564575,0.0026830541901290417,1.9995156526565552,4.941002297192373,0.0006146590458229184,0.18585211038589478,-1.4967687765704554,0.0002530368510633707,0.09065249562263489,0.7631822228431702,-0.0,-0.013988111168146133,0.8346697688102722,-0.004388158675283194,-0.36893701553344727
333.0,350.0,0.3434,-0.539,9.0766,-0.0279,-0.2188,-0.1449,-1.7101646862425746,-0.20161528885364532,2.0469038486480713,-1.8532664775848389,0.0018426445312798023,1.9719241857528687,4.940974461823263,0.0004927238333038986,0.18916310369968414,-1.496800724660055,0.00022185106354299933,0.08795607089996338,0.7631380558013916,-0.0,0.0003969117533415556,0.8346737623214722,-0.0032028579153120518,-0.3343387544155121
333.0,350.0,0.3434,-0.539,9.0766,-0.0279,-0.2188,-0.1449,-1.7119399509825648,-0.20961590111255646,2.0227255821228027,-1.8532664775848389,0.0005457280785776675,2.006622314453125,4.941006454616346,0.0003425239119678736,0.190765842795372,-1.496756378804342,0.0002237252629129216,0.0946757048368454,0.7631462216377258,-0.0,-0.006048258394002914,0.8345893025398254,-0.00221975683234632,-0.3590579330921173
333.0,350.0,0.3434,-0.539,9.0766,-0.0279,-0.2188,-0.1449,-1.7135778866209925,-0.20597335696220398,2.089402198791504,-1.8532859086990356,0.0002115424576913938,1.9960414171218872,4.941002297192373,0.0002625402994453907,0.18687260150909424,-1.4967611471759241,0.0001494910684414208,0.08675079792737961,0.7631261348724365,-0.0,-0.007204581517726183,0.8346136808395386,-0.0025137250777333975,-0.380632221698761
333.0,350.0,0.3434,-0.539,9.0766,-0.0279,-0.2188,-0.1449,-1.7152072391905726,-0.20534203946590424,2.0804443359375,-1.8532222509384155,0.0007293153321370482,1.9167413711547852,4.941010224610128,0.0003292154869996011,0.20068581402301788,-1.4967969099627894,8.973717194749042e-05,0.07739073038101196,0.7631421089172363,-0.0,-0.001096780993975699,0.8345814943313599,-0.0026475090999156237,-0.3253859877586365
387.0,481.0,0.7663,-0.0538,9.6431,0.0124,-0.1744,-0.1617,-1.7169538937010707,-0.21616630256175995,2.061699151992798,-1.8532137870788574,0.001466280547901988,2.007920503616333,4.940998303681173,0.0003325090219732374,0.1864616572856903,-1.4967849890338343,0.00011951446504099295,0.07013395428657532,0.763138473033905,-0.0,-0.003322821343317628,0.8345498442649841,-0.0021433753427118063,-0.3658382296562195
387.0,481.0,0.7663,-0.0538,9.6431,0.0124,-0.1744,-0.1617,-1.7186595402159632,-0.2105615884065628,2.125072956085205,-1.8531858921051025,0.004656920675188303,1.9842352867126465,4.941042589932241,0.0020574494265019894,0.19247844815254211,-1.496744457875387,9.980266622733325e-05,0.08193136751651764,0.7630941271781921,-0.0,-0.007332267239689827,0.8345857262611389,-0.0024285572580993176,-0.3116356134414673
387.0,481.0,0.7663,-0.0538,9.6431,0.0124,-0.1744,-0.1617,-1.7204543552794398,-0.20658865571022034,2.1329965591430664,-1.8531302213668823,0.005661642644554377,2.0048909187316895,4.941042560129919,0.0021333021577447653,0.19976571202278137,-1.4967730681048792,8.168128988472745e-05,0.07341001182794571,0.7631543874740601,-0.0,0.0021860869601368904,0.8345377445220947,-0.0025362044107168913,-0.3116461932659149
387.0,481.0,0.7663,-0.0538,9.6431,0.0124,-0.1744,-0.1617,-1.722135683099264,-0.21987465023994446,2.088282585144043,-1.8530939817428589,0.0029927422292530537,2.000196695327759,4.941082301526823,0.0008610461954958737,0.1961885690689087,-1.4967525641070765,3.517717414069921e-05,0.064527228474617,0.7631224393844604,-0.0,-0.011922447010874748,0.8344736695289612,-0.0012936851708218455,-0.34960776567459106
387.0,481.0,0.7663,-0.0538,9.6431,0.0124,-0.1744,-0.1617,-1.7239629230894984,-0.22348655760288239,2.0748071670532227,-1.8530861139297485,0.001461725332774222,1.969339370727539,4.941054078727522,0.0006938914302736521,0.19767546653747559,-1.496828858052389,2.9961762265884317e-05,0.07354890555143356,0.7631101012229919,-0.0,-0.014674864709377289,0.8345257043838501,-0.0008799774805083871,-0.3297826647758484
387.0,481.0,0.7663,-0.0538,9.6431,0.0124,-0.1744,-0.1617,-1.7256394825377406,-0.20980678498744965,2.164757251739502,-1.8530383110046387,0.0032570327166467905,1.9914588928222656,4.9410863546426675,0.0017382223159074783,0.20594793558120728,-1.4967487494098108,2.6440473448019475e-05,0.06054321676492691,0.7630941271781921,-0.0,-0.012717634439468384,0.8345375657081604,-0.0011221764143556356,-0.34513184428215027
387.0,481.0,0.7663,-0.0538,9.6431,0.0124,-0.1744,-0.1617,-1.7274147472777308,-0.2147013545036316,2.1703875064849854,-1.8530818223953247,0.0018037392292171717,1.968055009841919,4.94108638444499,0.0011568699264898896,0.20566502213478088,-1.496756378804342,2.365986983932089e-05,0.06562303751707077,0.7630298733711243,-0.0,-0.018160654231905937,0.8345536589622498,-0.000809449062217027,-0.33248770236968994
387.0,481.0,0.7663,-0.0538,9.6431,0.0124,-0.1744,-0.1617,-1.7290893993773402,-0.21897250413894653,2.196211099624634,-1.853094220161438,0.000854406738653779,2.006098985671997,4.941102373390951,0.0007493496523238719,0.2109403908252716,-1.4967764059649866,2.1408539396361448e-05,0.05702017620205879,0.763142466545105,-0.0,-0.005652203224599361,0.8345336318016052,-0.0005345622776076198,-0.2575264573097229
387.0,481.0,0.7663,-0.0538,9.6431,0.0124,-0.1744,-0.1617,-1.7307659588255824,-0.21209071576595306,2.1673946380615234,-1.8530220985412598,0.0006497185095213354,1.9846655130386353,4.9411024180944345,0.001201909501105547,0.21067681908607483,-1.496756378804342,1.9548440832295455e-05,0.06695055961608887,0.7630904912948608,-0.0,-0.01113404892385006,0.834513783454895,-0.0003990776021964848,-0.3182269334793091
387.0,481.0,0.7663,-0.0538,9.6431,0.0124,-0.1744,-0.1617,-1.7324968777098597,-0.20946981012821198,2.1797521114349365,-1.8529976606369019,0.0033399879466742277,1.9414594173431396,4.941110092192449,0.002624324755743146,0.21586325764656067,-1.4968088308917444,1.798575249267742e-05,0.050042614340782166,0.7631305456161499,-0.0,-0.024119006469845772,0.834517776966095,-0.0003638765192590654,-0.3413962721824646
387.0,481.0,0.7663,-0.0538,9.6431,0.0124,-0.1744,-0.1617,-1.734171052972311,-0.2079196274280548,2.1876254081726074,-1.8530102968215942,0.004095755517482758,2.038405418395996,4.941097828536787,0.0021749832667410374,0.22217634320259094,-1.4967764059649866,3.2688213247311637e-10,0.03925527632236481,0.7630462646484375,-0.0,-0.024009905755519867,0.8345456123352051,-0.00030268324189819396,-0.33526381850242615
387.0,481.0,0.7663,-0.0538,9.6431,0.0124,-0.1744,-0.1617,-1.7357970676817835,-0.20692011713981628,2.2374706268310547,-1.8529107570648193,0.003071780549362302,1.9859390258789062,4.941093760519781,0.0016007311642169952,0.22372768819332123,-1.4967401663409632,5.94092180303458e-15,0.045091141015291214,0.7630699872970581,-0.0,-0.03700883314013481,0.8345376253128052,-0.00025911006378009915,-0.26474711298942566
634.0,857.0,1.5697,-0.6676,9.1119,-0.0195,-0.2089,-0.1457,-1.737382551232809,-0.2067755162715912,2.2613534927368164,-1.852970004081726,0.002148029860109091,2.0263421535491943,4.941114145308294,0.0008885140414349735,0.22719904780387878,-1.4967806974994105,1.079733199979216e-19,0.03958185762166977,0.7630699872970581,-0.0,-0.032315172255039215,0.83452969789505,-0.00022650370374321938,-0.3462788760662079
634.0,857.0,1.5697,-0.6676,9.1119,-0.0195,-0.2089,-0.1457,-1.738931795159811,-0.20173215866088867,2.22591495513916,-1.8529616594314575,0.002045214409008622,2.0069069862365723,4.94117450991229,0.0006791350315324962,0.23569262027740479,-1.496772591267721,1.962361907573058e-24,0.06016352400183678,0.7630741596221924,-0.00012557917216327041,-0.034690000116825104,0.8344737887382507,-0.0002011869801208377,-0.2643013596534729
634.0,857.0,1.5697,-0.6676,9.1119,-0.0195,-0.2089,-0.1457,-1.740525861779684,-0.1941620111465454,2.3096706867218018,-1.85295832157135,0.003064204240217805,1.9998581409454346,4.941130119353094,0.001458610757254064,0.2320900559425354,-1.496772591267721,3.5664954507677226e-29,0.039957478642463684,0.7630782127380371,-0.0001129721276811324,-0.031024139374494553,0.834577739238739,-0.000180960661964491,-0.30464762449264526
634.0,857.0,1.5697,-0.6676,9.1119,-0.0195,-0.2089,-0.1457,-1.7420999012389125,-0.19914865493774414,2.320577383041382,-1.852869987487793,0.0032442291267216206,2.0413551330566406,4.941162171750822,0.0018661929061636329,0.23685204982757568,-1.4967964331256312,6.481928857226009e-34,0.02625463902950287,0.7630622386932373,-0.0001231930364156142,-0.033879317343235016,0.8345256447792053,-0.00016442999185528606,-0.30280062556266785
634.0,857.0,1.5697,-0.6676,9.1119,-0.0195,-0.2089,-0.1457,-1.7436658344664515,-0.19329217076301575,2.2588722705841064,-1.8528214693069458,0.004038790240883827,2.0377397537231445,4.9411740628774545,0.0022678396198898554,0.241680309176445,-1.4967682997332972,1.1780585868821555e-38,0.04236646741628647,0.7630622386932373,-0.00013170459715183824,-0.0468163900077343,0.8345774412155151,-0.00015066660125739872,-0.28659743070602417
634.0,857.0,1.5697,-0.6676,9.1119,-0.0195,-0.2089,-0.1457,-1.7452036343016566,-0.18531034886837006,2.3298606872558594,-1.8528026342391968,0.004527478013187647,2.0218660831451416,4.9411978153283975,0.0028629060834646225,0.25325044989585876,-1.4967969099627894,2.14398665041697e-43,0.012872084975242615,0.7630543112754822,-0.00013890139234717935,-0.05805860832333565,0.834513783454895,-0.0001390294055454433,-0.2858182191848755
634.0,857.0,1.5697,-0.6676,9.1119,-0.0195,-0.2089,-0.1457,-1.7467414341368617,-0.19178643822669983,2.3499650955200195,-1.8527499437332153,0.0028889833483844995,2.0464837551116943,4.941169965058126,0.0020912103354930878,0.24918723106384277,-1.4968121687518519,-0.00015383349091280252,0.03205570578575134,0.7630220651626587,-0.00022505556989926845,-0.03743463754653931,0.8345336318016052,-0.00012906111078336835,-0.2799978256225586
634.0,857.0,1.5697,-0.6676,9.1119,-0.0195,-0.2089,-0.1457,-1.7483636341490687,-0.20128291845321655,2.3487136363983154,-1.8527425527572632,0.0023218952119350433,2.028653621673584,4.941193449288168,0.001845099381171167,0.2492101639509201,-1.4968488852130335,-0.00022948507103137672,0.03419509530067444,0.7630385160446167,-0.00022668427845928818,-0.050684504210948944,0.8345217108726501,-0.00012042644812026992,-0.3233242630958557
634.0,857.0,1.5697,-0.6676,9.1119,-0.0195,-0.2089,-0.1457,-1.7499495945372523,-0.18899255990982056,2.412137985229492,-1.852710247039795,0.0032611365895718336,2.029539108276367,4.941221672087469,0.0029470690060406923,0.254729688167572,-1.4968083540545862,-0.0002287135721417144,0.022296812385320663,0.7630265951156616,-0.0003620217612478882,-0.06165500357747078,0.8345375657081604,-0.00011287481902400032,-0.2802356481552124
634.0,857.0,1.5697,-0.6676,9.1119,-0.0195,-0.2089,-0.1457,-1.7515117130675257,-0.18284693360328674,2.4154629707336426,-1.852750539779663,0.004872940946370363,2.109743356704712,4.9412777600582025,0.003221949329599738,0.2648985683917999,-1.4968283812152308,-0.0002281667257193476,0.01749795489013195,0.7629901766777039,-0.00038634947850368917,-0.06862916052341461,0.8345217108726501,-0.0001062144510797225,-0.30523404479026794
634.0,857.0,1.5697,-0.6676,9.1119,-0.0195,-0.2089,-0.1457,-1.7530495129027308,-0.19457349181175232,2.406766891479492,-1.8526699542999268,0.0030322980601340532,2.009450912475586,4.941265913635053,0.001152952667325735,0.2705044746398926,-1.4968002478228968,-0.0002277494641020894,0.009834148921072483,0.7630307078361511,-0.0003655249602161348,-0.08638539165258408,0.8345456719398499,-8.825863915262744e-05,-0.2532769441604614
916.0,895.0,1.3992,-0.7645,9.1669,-0.0394,-0.1695,-0.1429,-1.7546431026854457,-0.20554004609584808,2.3930835723876953,-1.852637767791748,0.001562556717544794,2.0249955654144287,4.941286000400343,0.0006206592079252005,0.27809059619903564,-1.4968684355365198,-0.0002250883262604475,0.014459425583481789,0.7629663944244385,-0.00038905354449525476,-0.09241355955600739,0.8345416784286499,-8.312741556437686e-05,-0.2432211935520172
916.0,895.0,1.3992,-0.7645,9.1669,-0.0394,-0.1695,-0.1429,-1.7562571964659632,-0.18900708854198456,2.443103313446045,-1.8525978326797485,0.0035708637442439795,2.0798699855804443,4.941249403148451,0.0004243324510753155,0.27859655022621155,-1.4968040625201624,-0.00018756154167931527,0.003309103427454829,0.7629704475402832,-0.0003765016735997051,-0.08547644317150116,0.8345057964324951,-7.896007446106523e-05,-0.3106755316257477
916.0,895.0,1.3992,-0.7645,9.1669,-0.0394,-0.1695,-0.1429,-1.7577587566771449,-0.18452239036560059,2.462193727493286,-1.8525652885437012,0.004659452009946108,2.046698570251465,4.941289770394125,0.0009528764639981091,0.2722342610359192,-1.496824089680807,-0.0001607555168448016,-0.0017128684557974339,0.7630307078361511,-0.0003479687438812107,-0.08952534198760986,0.834513783454895,-7.519060454797e-05,-0.25238099694252014
916.0,895.0,1.3992,-0.7645,9.1669,-0.0394,-0.1695,-0.1429,-1.759268423120016,-0.19533313810825348,2.4227652549743652,-1.8525418043136597,0.003992802929133177,2.075279712677002,4.941245439439573,0.0006353214266709983,0.288435161113739,-1.4968326727496546,-0.0001406544033670798,0.006847944110631943,0.76291424036026,-0.0002978612610604614,-0.1005287915468216,0.8345575332641602,-7.176462531788275e-05,-0.2477337121963501
916.0,895.0,1.3992,-0.7645,9.1669,-0.0394,-0.1695,-0.1429,-1.7608028850951136,-0.1919790804386139,2.4344942569732666,-1.8525503873825073,0.005068023689091206,2.0307955741882324,4.941306087165632,0.0005353082669898868,0.29570597410202026,-1.4968121687518519,-0.00014980488049332052,-0.0010058197658509016,0.7630226612091064,-0.0002824016846716404,-0.10160128027200699,0.8345257043838501,-3.177258349751355e-07,-0.25590798258781433
916.0,895.0,1.3992,-0.7645,9.1669,-0.0394,-0.1695,-0.1429,-1.7622600994505824,-0.18106253445148468,2.4932000637054443,-1.8524504899978638,0.009180554188787937,2.114367723464966,4.9413339523370645,0.003087050514295697,0.29041963815689087,-1.4968450705157679,-0.00013502038200385869,-0.008890895172953606,0.7629984021186829,-0.0002726108650676906,-0.0972691997885704,0.834549605846405,-1.0293912633917417e-14,-0.28211602568626404
916.0,895.0,1.3992,-0.7645,9.1669,-0.0394,-0.1695,-0.1429,-1.7636734447874964,-0.17479459941387177,2.515930414199829,-1.852381944656372,0.012765387073159218,2.0801756381988525,4.941337603121557,0.004109990317374468,0.29835760593414307,-1.4968202749835413,-0.0001227435132022947,-0.011720497161149979,0.7629541158676147,-0.0002633476979099214,-0.10824175179004669,0.8345177173614502,-3.335096910172908e-22,-0.3274777829647064
916.0,895.0,1.3992,-0.7645,9.1669,-0.0394,-0.1695,-0.1429,-1.7650796375670375,-0.1707061529159546,2.530414581298828,-1.852302074432373,0.015181995928287506,2.0992050170898438,4.9413252649600885,0.0032588185276836157,0.30084604024887085,-1.4968283812152308,-0.00013110133295413107,-0.03322475403547287,0.7629987001419067,-0.00023144323495216668,-0.11103293299674988,0.8345096707344055,-1.080529077445345e-29,-0.2863102853298187
916.0,895.0,1.3992,-0.7645,9.1669,-0.0394,-0.1695,-0.1429,-1.766393323937887,-0.16717198491096497,2.572287082672119,-1.8521345853805542,0.017924262210726738,2.1294517517089844,4.941337603121557,0.0017547872848808765,0.29232555627822876,-1.4967764059649866,-0.00012116668949602172,-0.02127399668097496,0.7629547715187073,-0.0002023647102760151,-0.09822146594524384,0.834553599357605,-8.074462876095367e-09,-0.2852208614349365
916.0,895.0,1.3992,-0.7645,9.1669,-0.0394,-0.1695,-0.1429,-1.767675062219137,-0.16086918115615845,2.566418170928955,-1.8519822359085083,0.02133713662624359,2.083333969116211,4.941385644465246,0.0009530530660413206,0.29621171951293945,-1.4968488852130335,-0.00011251102114329115,-0.017061902210116386,0.7629704475402832,-0.0001715209655230865,-0.10050413012504578,0.8345375657081604,-2.616023405810076e-16,-0.29754555225372314
916.0,895.0,1.3992,-0.7645,9.1669,-0.0394,-0.1695,-0.1429,-1.7688876591124476,-0.15501388907432556,2.537533760070801,-1.8518142700195312,0.026618117466568947,2.1173741817474365,4.941369908839025,0.000458866503322497,0.2906132936477661,-1.496856991444723,-0.00010500955977477133,-0.015558675862848759,0.7629704475402832,-0.00017859133367892355,-0.13301973044872284,0.8344377279281616,-0.0006320573738776147,-0.25803300738334656
911.0,919.0,2.004,-0.6419,9.8435,-0.0315,-0.1329,-0.15,-1.7700287304320277,-0.14936533570289612,2.533555030822754,-1.8515499830245972,0.035103000700473785,2.0977749824523926,4.941341596632757,0.00045044306898489594,0.298221230506897,-1.4968364874469202,-9.844572196016088e-05,-0.029910147190093994,0.7629305720329285,-0.00018224373343400657,-0.1215602308511734,0.8344696760177612,-0.0011657493887469172,-0.30703145265579224
911.0,919.0,2.004,-0.6419,9.8435,-0.0315,-0.1329,-0.15,-1.7711826763548792,-0.13585713505744934,2.602090835571289,-1.851226568222046,0.04507734254002571,2.1794543266296387,4.941337603121557,0.00046366386231966317,0.29800575971603394,-1.496856991444723,-9.265438711736351e-05,-0.009838184341788292,0.762962281703949,-0.0001647608441999182,-0.1159062534570694,0.8344377875328064,-0.0016741337021812797,-0.3259521722793579
911.0,919.0,2.004,-0.6419,9.8435,-0.0315,-0.1329,-0.15,-1.7722860775389613,-0.135793536901474,2.6052186489105225,-1.8507943153381348,0.05667269229888916,2.2061901092529297,4.941337603121557,0.000461658404674381,0.3038059175014496,-1.4968164602862757,-8.750649431021884e-05,-0.01428251713514328,0.7629704475402832,-0.00014915666542947292,-0.10508707165718079,0.8344656229019165,-0.0016816053539514542,-0.2879630923271179
911.0,919.0,2.004,-0.6419,9.8435,-0.0315,-0.1329,-0.15,-1.773325105706686,-0.1354997307062149,2.5850749015808105,-1.8502858877182007,0.06955772638320923,2.2462587356567383,4.9413334904010675,0.0004071487346664071,0.2996951937675476,-1.4968164602862757,-8.290060213766992e-05,-0.016174959018826485,0.762946605682373,-0.00015569473907817155,-0.11027872562408447,0.8344696164131165,-0.002012799493968487,-0.33885085582733154
911.0,919.0,2.004,-0.6419,9.8435,-0.0315,-0.1329,-0.15,-1.7743822536864222,-0.13136722147464752,2.6207141876220703,-1.8496860265731812,0.0864911898970604,2.267540216445923,4.941417637258329,0.0005339868366718292,0.3109213709831238,-1.4968088308917444,-2.9099936000420712e-05,-0.008367600850760937,0.7629187107086182,-0.00014331832062453032,-0.1221773773431778,0.8344056606292725,-0.003489428898319602,-0.30174463987350464
911.0,919.0,2.004,-0.6419,9.8435,-0.0315,-0.1329,-0.15,-1.7753917179503382,-0.1179814487695694,2.6529617309570312,-1.8488987684249878,0.10523746907711029,2.2759904861450195,4.941389280348577,0.0009603829239495099,0.318279504776001,-1.4968245665179651,5.478461753227748e-05,-0.00958101823925972,0.7629302740097046,-0.00013274828961584717,-0.11845453083515167,0.8343335390090942,-0.004599359352141619,-0.38174086809158325
911.0,919.0,2.004,-0.6419,9.8435,-0.0315,-0.1329,-0.15,-1.7763687572874964,-0.11547138541936874,2.636120319366455,-1.8479952812194824,0.1188722625374794,2.333176612854004,4.941333550005712,0.000620820268522948,0.3104655146598816,-1.4968164602862757,4.997950213692093e-07,-0.013137031346559525,0.7629663944244385,-0.00012363058340270072,-0.12229980528354645,0.8343296647071838,-0.0038607155438512564,-0.35212624073028564
911.0,919.0,2.004,-0.6419,9.8435,-0.0315,-0.1329,-0.15,-1.7773267231383265,-0.12166569381952286,2.651639938354492,-1.8469798564910889,0.12171110510826111,2.252501964569092,4.941377046495237,0.00046874332474544644,0.303742378950119,-1.4968450705157679,9.083527333086927e-12,-0.013218149542808533,0.7629589438438416,-0.00010747760097729042,-0.11617518961429596,0.8343334794044495,-0.0033281510695815086,-0.346084326505661
911.0,919.0,2.004,-0.6419,9.8435,-0.0315,-0.1329,-0.15,-1.7782398662962855,-0.12531302869319916,2.667341709136963,-1.8458566665649414,0.13712581992149353,2.3024725914001465,4.9414052841956995,0.001565964543260634,0.3079303801059723,-1.4968364874469202,1.6508861400910466e-16,-0.01595757156610489,0.762946605682373,-9.810435585677624e-05,-0.1289864331483841,0.8343014717102051,-0.004068499896675348,-0.3422406315803528
911.0,919.0,2.004,-0.6419,9.8435,-0.0315,-0.1329,-0.15,-1.7792211971678675,-0.12123846262693405,2.7123093605041504,-1.8447152376174927,0.15773601830005646,2.414637327194214,4.941433208971777,0.0030041118152439594,0.3172326683998108,-1.4968088308917444,3.000404407425216e-21,-0.008748447522521019,0.7629384398460388,-0.00010591562750050798,-0.129799947142601,0.8343101143836975,-0.007151898927986622,-0.37488555908203125
911.0,919.0,2.004,-0.6419,9.8435,-0.0315,-0.1329,-0.15,-1.7801820240416468,-0.10584141314029694,2.6992173194885254,-1.8433247804641724,0.18085111677646637,2.426393747329712,4.941453206330099,0.004713866394013166,0.32830536365509033,-1.4968326727496546,5.453087905299335e-26,-0.015591371804475784,0.7629305720329285,-0.00010024172661360353,-0.1258476972579956,0.8342053890228271,-0.008231565356254578,-0.355929970741272
939.0,889.0,2.3833,-0.6467,10.0247,-0.0421,0.025,-0.1229,-1.7810899219908656,-0.09672422707080841,2.7337255477905273,-1.84174382686615,0.19645021855831146,2.484929084777832,4.941473307996549,0.004034793935716152,0.3263791501522064,-1.496784512196676,9.910717944381633e-31,-0.008643634617328644,0.7629343271255493,-9.331278852187097e-05,-0.1338742971420288,0.8341574668884277,-0.006430282257497311,-0.315227746963501
939.0,889.0,2.3833,-0.6467,10.0247,-0.0421,0.025,-0.1229,-1.7819568119444789,-0.1043408066034317,2.7295286655426025,-1.8401110172271729,0.2057049572467804,2.453324317932129,4.941420885711469,0.0006697599892504513,0.3118748664855957,-1.4967926184283655,1.8012242569654882e-35,-0.0024743343237787485,0.7628623247146606,-0.0001018243347061798,-0.13622036576271057,0.8341213464736938,-0.004450764507055283,-0.3523982763290405
939.0,889.0,2.3833,-0.6467,10.0247,-0.0421,0.025,-0.1229,-1.7828065357603968,-0.11926545202732086,2.6487069129943848,-1.8384064435958862,0.21639995276927948,2.455885171890259,4.9414168176944635,-0.0003834602248389274,0.32049626111984253,-1.4968164602862757,3.273629394447778e-40,-0.021631354466080666,0.7629106044769287,-9.564303763909265e-05,-0.12550899386405945,0.8340052962303162,-0.005031206179410219,-0.41853296756744385
939.0,889.0,2.3833,-0.6467,10.0247,-0.0421,0.025,-0.1229,-1.7836877308287562,-0.12205004692077637,2.6530494689941406,-1.8365342617034912,0.22958381474018097,2.479307174682617,4.94149329045371,-4.883105430053547e-05,0.290073961019516,-1.4967682997332972,5.605193857299268e-45,-0.0004680692218244076,0.7629224061965942,-9.016744297696277e-05,-0.14170248806476593,0.8340092301368713,-0.009397163055837154,-0.434726744890213
939.0,889.0,2.3833,-0.6467,10.0247,-0.0421,0.025,-0.1229,-1.7845760784544886,-0.11194026470184326,2.694528102874756,-1.8345454931259155,0.2572914958000183,2.491424083709717,4.941505211382665,0.0021761797834187746,0.30055099725723267,-1.4968245665179651,0.0,0.009670550934970379,0.762942910194397,-9.746493742568418e-05,-0.12983177602291107,0.8339576721191406,-0.012031984515488148,-0.42518240213394165
939.0,889.0,2.3833,-0.6467,10.0247,-0.0421,0.025,-0.1229,-1.7855950794615687,-0.10273668169975281,2.725318193435669,-1.8323851823806763,0.2818966507911682,2.5876243114471436,4.94150889196948,0.0023526090662926435,0.3151085674762726,-1.496840778981344,0.0,-0.0003619135241024196,0.7629346251487732,-9.246176341548562e-05,-0.13837815821170807,0.8338492512702942,-0.011247432790696621,-0.4284020960330963
939.0,889.0,2.3833,-0.6467,10.0247,-0.0421,0.025,-0.1229,-1.7864681682982386,-0.0968005508184433,2.724797487258911,-1.8301053047180176,0.29730504751205444,2.5866646766662598,4.941460969835081,3.360000846441835e-05,0.30590325593948364,-1.4967644850360315,0.0,-0.0030946708284318447,0.7629387378692627,-8.794420136837289e-05,-0.14054763317108154,0.8337810635566711,-0.008338668383657932,-0.38524529337882996
939.0,889.0,2.3833,-0.6467,10.0247,-0.0421,0.025,-0.1229,-1.7872525654234828,-0.10478644073009491,2.668012857437134,-1.8276288509368896,0.31157785654067993,2.6316497325897217,4.941428932338514,-0.0013961922377347946,0.2975897789001465,-1.4968088308917444,0.0,0.01084761880338192,0.7629387378692627,-9.44812927627936e-05,-0.13109514117240906,0.8336730599403381,-0.007178895641118288,-0.3791707754135132
939.0,889.0,2.3833,-0.6467,10.0247,-0.0421,0.025,-0.1229,-1.7881204090514125,-0.11155541986227036,2.6928534507751465,-1.8251216411590576,0.3160470128059387,2.476653814315796,4.941420870810308,-0.0016453310381621122,0.2804598808288574,-1.4968050161944788,0.0,0.0002307934919372201,0.7629306316375732,-8.720725600142032e-05,-0.13691702485084534,0.8336410522460938,-0.009457411244511604,-0.4320068955421448
939.0,889.0,2.3833,-0.6467,10.0247,-0.0421,0.025,-0.1229,-1.7889253101744593,-0.11669083684682846,2.667637348175049,-1.8225395679473877,0.33749979734420776,2.575240135192871,4.941465127259054,-0.0007555136689916253,0.2744685709476471,-1.4967611471759241,5.5055530538083985e-05,0.003416724968701601,0.762922465801239,-8.093343785731122e-05,-0.1371915191411972,0.8335408568382263,-0.014143317006528378,-0.5103591084480286
939.0,889.0,2.3833,-0.6467,10.0247,-0.0421,0.025,-0.1229,-1.7898570499815882,-0.11224288493394852,2.5938267707824707,-1.8197119235992432,0.35565176606178284,2.5871052742004395,4.941501128464498,-0.000347934226738289,0.2595711052417755,-1.4967883268939417,7.581336103612557e-05,0.028313711285591125,0.7629786133766174,-7.550152076873928e-05,-0.13406430184841156,0.8334009051322937,-0.01625165343284607,-0.4715691804885864
939.0,889.0,2.3833,-0.6467,10.0247,-0.0421,0.025,-0.1229,-1.7906881771483363,-0.10650051385164261,2.6373257637023926,-1.8167685270309448,0.3863247036933899,2.6203298568725586,4.941441285401144,-0.0001497430057497695,0.2610534131526947,-1.4967764059649866,7.102729432517663e-05,0.02919119969010353,0.7629186511039734,-7.075299799907953e-05,-0.126865416765213,0.8332968354225159,-0.01593538373708725,-0.47213074564933777
915.0,904.0,2.5113,-2.1523,9.4911,-0.0918,0.1759,-0.1216,-1.791642805139059,-0.10644365847110748,2.6606574058532715,-1.8136507272720337,0.3929411768913269,2.5981435775756836,4.94142538586215,-0.0016905892407521605,0.2504570484161377,-1.4967525641070765,6.680924707325175e-05,0.021481305360794067,0.7629387974739075,-6.656656478298828e-05,-0.13340124487876892,0.8332207202911377,-0.014661003835499287,-0.4817686676979065
915.0,904.0,2.5113,-2.1523,9.4911,-0.0918,0.1759,-0.1216,-1.7925926647581996,-0.11792472749948502,2.6087989807128906,-1.810428261756897,0.40186432003974915,2.5809998512268066,4.941401618510046,-0.0031544917728751898,0.24815654754638672,-1.4967883268939417,6.306416617007926e-05,0.031095974147319794,0.7629827260971069,-6.284783739829436e-05,-0.11960229277610779,0.8330845236778259,-0.013138893991708755,-0.4846498668193817
915.0,904.0,2.5113,-2.1523,9.4911,-0.0918,0.1759,-0.1216,-1.7935663662352503,-0.13433295488357544,2.5968637466430664,-1.8072538375854492,0.4035613536834717,2.5685486793518066,4.941337603121557,-0.008096438832581043,0.22573167085647583,-1.4967363516436976,8.349965355591848e-05,0.05114070698618889,0.762946605682373,-5.068017708254047e-05,-0.12305892258882523,0.8329843878746033,-0.013864610344171524,-0.4899243414402008
915.0,904.0,2.5113,-2.1523,9.4911,-0.0918,0.1759,-0.1216,-1.7946111164488734,-0.14593443274497986,2.500945806503296,-1.8039153814315796,0.4067143499851227,2.553666353225708,4.941228899150648,-0.010210954584181309,0.20960603654384613,-1.4967644850360315,9.070533997146413e-05,0.04099293053150177,0.7629541158676147,-4.522528615780175e-05,-0.11384952068328857,0.8328360319137573,-0.018629729747772217,-0.5253840684890747
915.0,904.0,2.5113,-2.1523,9.4911,-0.0918,0.1759,-0.1216,-1.7957335911192835,-0.14549297094345093,2.5075154304504395,-1.8006056547164917,0.4175621569156647,2.53947114944458,4.941253575473585,-0.0018046725308522582,0.212063267827034,-1.4968169371234339,0.0001404624927090481,0.06059396266937256,0.762962281703949,-3.247892891522497e-05,-0.10482543706893921,0.8327201008796692,-0.021652091294527054,-0.5166971683502197
915.0,904.0,2.5113,-2.1523,9.4911,-0.0918,0.1759,-0.1216,-1.7969070873656214,-0.13882994651794434,2.470383644104004,-1.7972722053527832,0.42784029245376587,2.5482425689697266,4.941313761263647,0.0003929314552806318,0.20857025682926178,-1.496760670338766,0.0001119472217396833,0.04825902730226517,0.7629500031471252,-3.086031574639492e-05,-0.10726351290941238,0.8325561881065369,-0.021433115005493164,-0.5599345564842224
915.0,904.0,2.5113,-2.1523,9.4911,-0.0918,0.1759,-0.1216,-1.7981492481627406,-0.14808981120586395,2.497443199157715,-1.793882131576538,0.4241945743560791,2.4963061809539795,4.9412134168441675,-0.0022287790197879076,0.19942408800125122,-1.4967883268939417,9.955884161172435e-05,0.052514929324388504,0.7630143761634827,5.6216955272248015e-05,-0.11059761792421341,0.8324201107025146,-0.018491914495825768,-0.5040540099143982
915.0,904.0,2.5113,-2.1523,9.4911,-0.0918,0.1759,-0.1216,-1.7993909321227015,-0.16559778153896332,2.4261651039123535,-1.79054856300354,0.4224242866039276,2.4839155673980713,4.941161724715986,-0.004311857745051384,0.17613554000854492,-1.496784512196676,8.964200969785452e-05,0.04012739658355713,0.7629902362823486,7.20279713277705e-05,-0.0971890389919281,0.832304060459137,-0.0144402040168643,-0.4600738286972046
915.0,904.0,2.5113,-2.1523,9.4911,-0.0918,0.1759,-0.1216,-1.8007732830443324,-0.18301071226596832,2.4944891929626465,-1.7872222661972046,0.4193165600299835,2.4718308448791504,4.9411740628774545,-0.003371044062077999,0.1899433434009552,-1.4967764059649866,8.152180089382455e-05,0.05388273298740387,0.7630344033241272,8.341136708622798e-05,-0.08757071197032928,0.8321840763092041,-0.010974372737109661,-0.4573284685611725
915.0,904.0,2.5113,-2.1523,9.4911,-0.0918,0.1759,-0.1216,-1.80216707805776,-0.18454255163669586,2.4542076587677,-1.783879041671753,0.4098134934902191,2.4635672569274902,4.941149818688192,-0.0018779028905555606,0.19464853405952454,-1.4967764059649866,7.475063466699794e-05,0.057217881083488464,0.7630144357681274,0.0003093247360084206,-0.06758694350719452,0.8321038484573364,-0.010070777498185635,-0.45480749011039734
915.0,904.0,2.5113,-2.1523,9.4911,-0.0918,0.1759,-0.1216,-1.8035975895323695,-0.18706782162189484,2.461967945098877,-1.7805588245391846,0.4064639210700989,2.481755256652832,4.941145750671186,-0.0010243956930935383,0.17754894495010376,-1.4967682997332972,3.68739347322844e-05,0.06392338871955872,0.7629860043525696,0.0002924916334450245,-0.06935432553291321,0.8320678472518921,-0.006543661467730999,-0.4395650327205658
903.0,890.0,1.2317,-0.7956,8.677,-0.0832,0.2676,-0.1098,-1.8051277599730433,-0.19366765022277832,2.491687774658203,-1.7773889303207397,0.40247368812561035,2.4936635494232178,4.941145750671186,-0.0005708418902941048,0.18531891703605652,-1.496800724660055,3.167781324009411e-05,0.06302863359451294,0.7629778981208801,0.00026288279332220554,-0.06982001662254333,0.8320479989051819,-0.0020343917421996593,-0.4492913484573364
903.0,890.0,1.2317,-0.7956,8.677,-0.0832,0.2676,-0.1098,-1.8067661724486292,-0.19814859330654144,2.4625601768493652,-1.774138331413269,0.397050678730011,2.428837537765503,4.941194522171774,-0.00041564356070011854,0.17878003418445587,-1.4968088308917444,2.7767875508288853e-05,0.059008315205574036,0.7629979252815247,0.000257455394603312,-0.058529384434223175,0.8320599794387817,-0.0003001318546012044,-0.38108617067337036
903.0,890.0,1.2317,-0.7956,8.677,-0.0832,0.2676,-0.1098,-1.8084446392455042,-0.2118883579969406,2.483350992202759,-1.771009922027588,0.3853333592414856,2.445882558822632,4.941114130407133,-0.0012341940309852362,0.17845949530601501,-1.4967682997332972,2.4717195628909394e-05,0.0732775628566742,0.7630426287651062,0.00023097661323845387,-0.04654086381196976,0.832055926322937,-0.00017992906214203686,-0.3835526406764984
903.0,890.0,1.2317,-0.7956,8.677,-0.0832,0.2676,-0.1098,-1.8102108440794886,-0.2342710644006729,2.4129116535186768,-1.7679173946380615,0.3825441002845764,2.3948121070861816,4.941186311631956,-0.00036746860132552683,0.19228315353393555,-1.4968169371234339,2.2270523913903162e-05,0.07983565330505371,0.7630786299705505,0.00022734314552508295,-0.04871609807014465,0.8320599794387817,-0.00012852255895268172,-0.38177281618118286
903.0,890.0,1.2317,-0.7956,8.677,-0.0832,0.2676,-0.1098,-1.8121057949461878,-0.23473232984542847,2.4597079753875732,-1.7649462223052979,0.38163724541664124,2.445319890975952,4.941166150360861,0.00014178176934365183,0.19280089437961578,-1.4968088308917444,2.0264640625100583e-05,0.07192768156528473,0.76308274269104,0.00019648228771984577,-0.044721078127622604,0.8320239186286926,-9.996632434194908e-05,-0.40114712715148926
903.0,890.0,1.2317,-0.7956,8.677,-0.0832,0.2676,-0.1098,-1.8141538105406703,-0.2359614223241806,2.4882819652557373,-1.7619179487228394,0.37553152441978455,2.41853666305542,4.9411580739314935,9.930903615895659e-05,0.1860353648662567,-1.4967969099627894,3.7159094063099474e-05,0.07964223623275757,0.7630257606506348,0.0001715158869046718,-0.0496525764465332,0.8320638537406921,-0.00012269086437299848,-0.3896370530128479
903.0,890.0,1.2317,-0.7956,8.677,-0.0832,0.2676,-0.1098,-1.8161202869811,-0.2608044445514679,2.4201574325561523,-1.7590090036392212,0.37288787961006165,2.3728082180023193,4.941198530584135,6.887318886583671e-05,0.1806718409061432,-1.496784512196676,3.434284735703841e-05,0.06442571431398392,0.7630626559257507,0.00017752801068127155,-0.0352599173784256,0.8320837616920471,-0.00010381917672930285,-0.34438151121139526
903.0,890.0,1.2317,-0.7956,8.677,-0.0832,0.2676,-0.1098,-1.818303724328512,-0.2707100212574005,2.4453091621398926,-1.7560447454452515,0.37002265453338623,2.3900773525238037,4.9411658374364755,5.2724200941156596e-05,0.19266332685947418,-1.4967687765704554,3.1907686206977814e-05,0.08247984945774078,0.763054370880127,0.00015955556591507047,-0.040091607719659805,0.8320237398147583,-0.00011643919424386695,-0.4035254120826721
903.0,890.0,1.2317,-0.7956,8.677,-0.0832,0.2676,-0.1098,-1.820475240746969,-0.27751949429512024,2.484649419784546,-1.7531763315200806,0.3599298298358917,2.385411262512207,4.941126066237249,5.2793524218941457e-08,0.18292048573493958,-1.4967849890338343,4.4683936721412465e-05,0.06727486848831177,0.7630143761634827,0.00014487824228126556,-0.036840252578258514,0.8320158123970032,-0.0018643592484295368,-0.37135249376296997
903.0,890.0,1.2317,-0.7956,8.677,-0.0832,0.2676,-0.1098,-1.8227383098998011,-0.2889483869075775,2.4831390380859375,-1.7501883506774902,0.35354048013687134,2.363966464996338,4.941169994860449,9.594962628242665e-13,0.1905474066734314,-1.496760670338766,4.191713378531858e-05,0.07762671262025833,0.7629901766777039,0.0001326733618043363,-0.03849348425865173,0.8319999575614929,-0.0034811566583812237,-0.3571925163269043
903.0,890.0,1.2317,-0.7956,8.677,-0.0832,0.2676,-0.1098,-1.8250137768187464,-0.2904798686504364,2.452324867248535,-1.7473751306533813,0.3515958786010742,2.345879554748535,4.941193747311392,1.7438371865297938e-17,0.1661485731601715,-1.4967764059649866,5.2606843382818624e-05,0.08653756976127625,0.7630261778831482,5.18567867402453e-05,-0.03838444501161575,0.831951916217804,-0.005692039616405964,-0.38381096720695496
879.0,846.0,0.8728,-0.5258,9.5647,-0.0386,0.0988,-0.1121,-1.8273335895934046,-0.29095616936683655,2.4877231121063232,-1.7444872856140137,0.35004061460494995,2.3925132751464844,4.941182154207983,3.169338427541993e-22,0.19387470185756683,-1.496760670338766,4.9757603846956044e-05,0.06513869762420654,0.7630226016044617,4.649388210964389e-05,-0.03893079608678818,0.8318517208099365,-0.010954257100820541,-0.366649866104126
879.0,846.0,0.8728,-0.5258,9.5647,-0.0386,0.0988,-0.1121,-1.829616209069723,-0.2927563488483429,2.511518955230713,-1.7416670322418213,0.34770143032073975,2.3562512397766113,4.941193747311392,5.760115959248055e-27,0.1794118583202362,-1.4968088308917444,8.173832611646503e-05,0.07595091313123703,0.762974202632904,4.213974534650333e-05,-0.048978690057992935,0.8317797183990479,-0.014474969357252121,-0.3414233326911926
879.0,846.0,0.8728,-0.5258,9.5647,-0.0386,0.0988,-0.1121,-1.8318950138487757,-0.2935815155506134,2.475167751312256,-1.73888099193573,0.3487210273742676,2.382457733154297,4.941166180163183,1.0468726993507935e-31,0.17986443638801575,-1.4967644850360315,7.620218093506992e-05,0.08097909390926361,0.7630343437194824,3.853133603115566e-05,-0.04449276253581047,0.8316313028335571,-0.016628997400403023,-0.4398782551288605
879.0,846.0,0.8728,-0.5258,9.5647,-0.0386,0.0988,-0.1121,-1.8342305622496546,-0.2951772212982178,2.4763102531433105,-1.7361525297164917,0.34662970900535583,2.3740296363830566,4.941114204912939,1.9026390204572937e-36,0.18056592345237732,-1.4967926184283655,7.136807107599452e-05,0.06618613749742508,0.7630142569541931,3.549221219145693e-05,-0.04448255896568298,0.8314510583877563,-0.019297167658805847,-0.40067052841186523
879.0,846.0,0.8728,-0.5258,9.5647,-0.0386,0.0988,-0.1121,-1.8365899525084437,-0.3010129928588867,2.4514060020446777,-1.7333307266235352,0.3465735912322998,2.399233818054199,4.941202017455854,3.457984220414351e-41,0.18894153833389282,-1.49681264558901,8.053179772105068e-05,0.08579666912555695,0.7630342841148376,3.28974929288961e-05,-0.04653263837099075,0.8313233852386475,-0.023832594975829124,-0.38483530282974243
879.0,846.0,0.8728,-0.5258,9.5647,-0.0386,0.0988,-0.1121,-1.83898987392568,-0.29128530621528625,2.557288646697998,-1.7305574417114258,0.3529256284236908,2.38659405708313,4.941185223847189,0.00022074639855418354,0.1835058480501175,-1.4967687765704554,7.599910895805806e-05,0.0764806717634201,0.7630142569541931,3.0656272429041564e-05,-0.04849947243928909,0.8310592174530029,-0.026966875419020653,-0.4242549240589142
879.0,846.0,0.8728,-0.5258,9.5647,-0.0386,0.0988,-0.1121,-1.841344495812887,-0.29745227098464966,2.5162429809570312,-1.7277178764343262,0.3603464663028717,2.453026056289673,4.9411815134580515,0.0002280202170368284,0.18546943366527557,-1.496784512196676,7.194873614935204e-05,0.06453826278448105,0.7630220055580139,2.8700862458208576e-05,-0.057641297578811646,0.8308666348457336,-0.029778404161334038,-0.4096575975418091
879.0,846.0,0.8728,-0.5258,9.5647,-0.0386,0.0988,-0.1121,-1.843785902062887,-0.29378533363342285,2.563448905944824,-1.724808692932129,0.36749184131622314,2.4105429649353027,4.941253679781713,0.0006151427514851093,0.18492531776428223,-1.4967849890338343,6.269645382417366e-05,0.056507550179958344,0.763050377368927,2.6980051188729703e-05,-0.04129470884799957,0.8306468725204468,-0.03214848041534424,-0.44018304347991943
879.0,846.0,0.8728,-0.5258,9.5647,-0.0386,0.0988,-0.1121,-1.8468605480589808,-0.3008318543434143,2.625969886779785,-1.7211562395095825,0.3695451319217682,2.4410738945007324,4.941241758852758,0.00043776820530183613,0.19502705335617065,-1.4967644850360315,5.353737287805416e-05,0.0645071342587471,0.7629979252815247,2.509898695279844e-05,-0.060049526393413544,0.8302902579307556,-0.03608008474111557,-0.40739378333091736
879.0,846.0,0.8728,-0.5258,9.5647,-0.0386,0.0988,-0.1121,-1.8493348560728968,-0.302945613861084,2.566222667694092,-1.718119740486145,0.3740048110485077,2.429055690765381,4.941241758852758,0.0003906057681888342,0.20004287362098694,-1.496784512196676,5.110536585561931e-05,0.0630258321762085,0.7630307078361511,2.3773036446073093e-05,-0.04024767875671387,0.8300062417984009,-0.03579558804631233,-0.3753662109375
879.0,846.0,0.8728,-0.5258,9.5647,-0.0386,0.0988,-0.1121,-1.8516975841917933,-0.29959458112716675,2.6412105560302734,-1.7151553630828857,0.37318065762519836,2.3825480937957764,4.941241818457403,0.0002857802901417017,0.19988372921943665,-1.4967969099627894,8.290992354886839e-07,0.05712542682886124,0.7630467414855957,2.2580141376238316e-05,-0.05120893940329552,0.8296856880187988,-0.03444834053516388,-0.40099483728408813
772.0,791.0,1.2592,-0.5151,10.197,-0.0354,0.0976,-0.1489,-1.8540922604002894,-0.30032479763031006,2.638469696044922,-1.7121590375900269,0.37345001101493835,2.424408435821533,4.941245826869764,0.00022648558660876006,0.21460813283920288,-1.496760670338766,1.5068469041978894e-11,0.04891149699687958,0.7630708813667297,2.150124782929197e-05,-0.04043721407651901,0.8294619917869568,-0.03221026435494423,-0.3610502779483795
772.0,791.0,1.2592,-0.5151,10.197,-0.0354,0.0976,-0.1489,-1.8564430675902308,-0.2916312515735626,2.6409153938293457,-1.709188461303711,0.3711467683315277,2.3837199211120605,4.941217991500654,0.0001042989460984245,0.21246585249900818,-1.4967363516436976,2.7386197782221114e-16,0.04813677445054054,0.7630339860916138,2.0520763428066857e-05,-0.04151088371872902,0.8291899561882019,-0.030343541875481606,-0.36309507489204407
772.0,791.0,1.2592,-0.5151,10.197,-0.0354,0.0976,-0.1489,-1.858725210229391,-0.28641363978385925,2.6682214736938477,-1.7061927318572998,0.3755584955215454,2.421449661254883,4.941217574268141,0.00019239811808802187,0.20746952295303345,-1.4967525641070765,4.97730649665139e-21,0.06216926872730255,0.7630102634429932,9.84844064078061e-07,-0.058160070329904556,0.8289775252342224,-0.02642248198390007,-0.37814462184906006
772.0,791.0,1.2592,-0.5151,10.197,-0.0354,0.0976,-0.1489,-1.8609477482237757,-0.2771192193031311,2.6972761154174805,-1.7032753229141235,0.38215792179107666,2.5140810012817383,4.941209766059675,0.00019686318410094827,0.20188209414482117,-1.496760670338766,9.046008516018085e-26,0.06535281985998154,0.7629979848861694,1.7899053766923245e-11,-0.03531729429960251,0.8287328481674194,-0.022244207561016083,-0.3499350845813751
772.0,791.0,1.2592,-0.5151,10.197,-0.0354,0.0976,-0.1489,-1.8631464443602503,-0.27435651421546936,2.698209047317505,-1.7002687454223633,0.3748093545436859,2.448524236679077,4.941193449288168,6.892420788062736e-05,0.20063962042331696,-1.496744457875387,1.644067275839722e-30,0.04601828008890152,0.7630143165588379,3.2530644446436227e-16,-0.04221523925662041,0.8286012411117554,-0.017051685601472855,-0.3778245151042938
772.0,791.0,1.2592,-0.5151,10.197,-0.0354,0.0976,-0.1489,-1.8652693233885707,-0.27156776189804077,2.6973085403442383,-1.6972678899765015,0.37414786219596863,2.458371639251709,4.941225740104475,5.255194992059842e-05,0.20760226249694824,-1.4968169371234339,2.9880110734770654e-35,0.05666445940732956,0.7630422711372375,5.912283121745569e-21,-0.03960510715842247,0.8284732699394226,-0.011820465326309204,-0.33445271849632263
772.0,791.0,1.2592,-0.5151,10.197,-0.0354,0.0976,-0.1489,-1.8674313030638636,-0.2755480706691742,2.7055983543395996,-1.6942999362945557,0.3731764853000641,2.424293041229248,4.941253709584036,4.259883280610666e-05,0.20366936922073364,-1.496800724660055,5.4305640426751096e-40,0.05362270772457123,0.7630426287651062,1.074528393119335e-25,-0.03313115984201431,0.8283811807632446,-0.008045175112783909,-0.3402966260910034
772.0,791.0,1.2592,-0.5151,10.197,-0.0354,0.0976,-0.1489,-1.869582315484518,-0.26245033740997314,2.689140796661377,-1.6912962198257446,0.3747001588344574,2.4335310459136963,4.9411934343870065,3.58162542397622e-05,0.21172389388084412,-1.4967487494098108,9.80908925027372e-45,0.05814419314265251,0.7629778981208801,1.9529019914052715e-30,-0.03906818479299545,0.828369140625,-0.006639524362981319,-0.3498724102973938
772.0,791.0,1.2592,-0.5151,10.197,-0.0354,0.0976,-0.1489,-1.8717533550658167,-0.2625480890274048,2.7336626052856445,-1.6882635354995728,0.36917275190353394,2.433311939239502,4.941233593016424,5.970522397547029e-05,0.2037653923034668,-1.4968088308917444,0.0,0.05238420516252518,0.7630265951156616,3.549302164360645e-35,-0.04014813154935837,0.8282930850982666,-0.0036329326685518026,-0.295982301235199
