ramyac6/ROB537/final_project/csv/bad/bad_14.csv
tof_0,tof_1,accelx,accely,accelz,gyrox,gyroy,gyroz,shoulder_lift_joint_position,shoulder_lift_joint_velocity,shoulder_lift_joint_effort,elbow_joint_position,elbow_joint_velocity,elbow_joint_effort,wrist_1_joint_position,wrist_1_joint_velocity,wrist_1_joint_effort,wrist_2_joint_position,wrist_2_joint_velocity,wrist_2_joint_effort,wrist_3_joint_position,wrist_3_joint_velocity,wrist_3_joint_effort,shoulder_pan_joint_position,shoulder_pan_joint_velocity,shoulder_pan_joint_effort
478.0,886.0,-3.719,3.9452,8.1147,-0.047,0.0208,-0.1147,-2.127941747704977,0.0,4.0445098876953125,-1.6827645301818848,0.00010496456525288522,1.7394360303878784,-0.7192896169475098,-0.0,0.24546366930007935,-2.018395725880758,9.535130577640087e-24,0.01969931274652481,0.5560072660446167,-0.0,0.00174309266731143,1.04632568359375,0.0,0.012989092618227005
478.0,886.0,-3.719,3.9452,8.1147,-0.047,0.0208,-0.1147,-2.12789311031484,0.0,4.065214157104492,-1.6827645301818848,0.00010103671229444444,1.7800922393798828,-0.7193334859660645,-0.0,0.25962889194488525,-2.018435780202047,4.0649755927005857e-26,0.03917398303747177,0.5559389591217041,-0.0,0.010601136833429337,1.0462896823883057,0.0,0.01587546616792679
478.0,886.0,-3.719,3.9452,8.1147,-0.047,0.0208,-0.1147,-2.1279336414732875,0.0,4.018233299255371,-1.6827845573425293,9.739226516103372e-05,1.797805666923523,-0.7193457645228882,-0.0,0.23995746672153473,-2.0184195677386683,1.7329627176861935e-28,0.0452432818710804,0.5559270977973938,-0.0,-0.005677817389369011,1.0462896823883057,0.0,0.03678300231695175
478.0,886.0,-3.719,3.9452,8.1147,-0.047,0.0208,-0.1147,-2.1278487644591273,0.0,4.006814002990723,-1.6827480792999268,9.239323117071763e-05,1.7294816970825195,-0.7193576854518433,-0.0,0.24326872825622559,-2.018468205128805,4.823765377126856e-32,0.04402845352888107,0.5559430122375488,-0.0,0.00610356405377388,1.046269416809082,0.0,-0.025178318843245506
478.0,886.0,-3.719,3.9452,8.1147,-0.047,0.0208,-0.1147,-2.12786926845693,0.0,4.019608497619629,-1.6828006505966187,8.933622302720323e-05,1.7789371013641357,-0.7193215650371094,-0.0,0.25495994091033936,-2.018400017415182,2.0564470107044538e-34,0.03166015446186066,0.5559310913085938,-0.0,0.0017075457144528627,1.0462652444839478,0.0,0.03495058789849281
478.0,886.0,-3.719,3.9452,8.1147,-0.047,0.0208,-0.1147,-2.1279455624022425,0.0,4.019521713256836,-1.682788372039795,8.647502545500174e-05,1.7363098859786987,-0.7193215650371094,-0.0,0.24525214731693268,-2.018439594899313,8.76695546536633e-37,0.04838448390364647,0.5559430122375488,-0.0,-0.004283658228814602,1.0463138818740845,-5.275525472825393e-05,-0.033304374665021896
478.0,886.0,-3.719,3.9452,8.1147,-0.047,0.0208,-0.1147,-2.127836843530172,0.0,4.0056328773498535,-1.6827682256698608,9.62627018452622e-05,1.7588845491409302,-0.7192735832980652,-0.0,0.24190136790275574,-2.0184314886676233,2.440319236667739e-40,0.03497302532196045,0.5558789372444153,-0.0,0.0019368774956092238,1.046269416809082,-5.11006910528522e-05,0.012738954275846481
478.0,886.0,-3.719,3.9452,8.1147,-0.047,0.0208,-0.1147,-2.1279055080809535,0.0,3.989834785461426,-1.6827526092529297,9.340851829620078e-05,1.7411880493164062,-0.71931345880542,-0.0,0.25201931595802307,-2.018400017415182,1.0397634605290143e-42,0.03596998006105423,0.555911123752594,-0.0,0.014203133061528206,1.0462610721588135,-4.99659072374925e-05,-0.0018041329458355904
478.0,886.0,-3.719,3.9452,8.1147,-0.047,0.0208,-0.1147,-2.127857347527975,0.0,4.037909507751465,-1.6827964782714844,0.00010218620445812121,1.7054579257965088,-0.7192453306964417,-0.0,0.25217798352241516,-2.0184477011310022,0.0,0.03828663006424904,0.5559632778167725,-0.0,0.004433128982782364,1.0462692975997925,-1.0359754165634172e-09,-0.037865642458200455
478.0,886.0,-3.719,3.9452,8.1147,-0.047,0.0208,-0.1147,-2.127929826776022,0.0,4.024547100067139,-1.6827768087387085,0.00010121219384018332,1.7587571144104004,-0.7192575496486207,-0.0,0.24933215975761414,-2.018407646809713,0.0,0.04319792613387108,0.5559471249580383,-0.0,-0.0011753907892853022,1.0462652444839478,-1.864719316457819e-13,-0.009998049587011337
491.0,874.0,-3.7561,3.9942,8.3067,-0.0392,0.027,-0.1156,-2.127857347527975,0.0,4.024843692779541,-1.6827927827835083,9.712472092360258e-05,1.7313272953033447,-0.7192776960185547,-0.0,0.2537565529346466,-2.0184038321124476,0.0,0.03109733760356903,0.5559391975402832,-0.0,-0.0024320841766893864,1.046302080154419,-3.356429595732739e-17,0.013497535139322281
491.0,874.0,-3.7561,3.9942,8.3067,-0.0392,0.027,-0.1156,-2.127897401849264,1.4024952179170214e-05,3.9752368927001953,-1.6827608346939087,0.00010946210386464372,1.7518036365509033,-0.7193215650371094,-0.0,0.2505851089954376,-2.018423859273092,0.0,0.03696529567241669,0.5559832453727722,-0.0,0.010434141382575035,1.046277403831482,-8.10538171807761e-23,0.004576058126986027
491.0,874.0,-3.7561,3.9942,8.3067,-0.0392,0.027,-0.1156,-2.1278773746886195,8.057699596974999e-05,4.040197372436523,-1.6827242374420166,0.0001226480962941423,1.7246556282043457,-0.7192534965327759,-0.0,0.2355506718158722,-2.0183799902545374,0.0,0.0418127104640007,0.5559831857681274,-0.0,0.007477812934666872,1.0463016033172607,-1.458940004084743e-26,0.04420693218708038
491.0,874.0,-3.7561,3.9942,8.3067,-0.0392,0.027,-0.1156,-2.12784542659902,8.804437675280496e-05,4.004380226135254,-1.682756781578064,0.00011812781303888187,1.753511667251587,-0.7193096441081543,-0.0,0.25024551153182983,-2.018411938344137,0.0,0.030284114181995392,0.555955171585083,-0.0,-0.000830637407489121,1.0462896823883057,-2.6260402738047804e-30,-0.02042807638645172
491.0,874.0,-3.7561,3.9942,8.3067,-0.0392,0.027,-0.1156,-2.1278935871519984,8.875967614585534e-05,4.034224987030029,-1.6827448606491089,0.00012594643339980394,1.7425217628479004,-0.7192817491343995,-0.0,0.2607353925704956,-2.0184157530414026,0.0,0.030252467840909958,0.5559791922569275,-0.0,-0.006973537616431713,1.0462570190429688,-6.341578218171748e-36,0.029761802405118942
491.0,874.0,-3.7561,3.9942,8.3067,-0.0392,0.027,-0.1156,-2.1278935871519984,8.593468373874202e-05,4.031370639801025,-1.6827406883239746,0.00012343114940449595,1.7259927988052368,-0.7192977231791993,-0.0,0.25546443462371826,-2.0184157530414026,0.0,0.03205740079283714,0.5559831261634827,-0.0,-0.0017654956318438053,1.0463097095489502,-1.1414612952789235e-39,-0.009433845058083534
491.0,874.0,-3.7561,3.9942,8.3067,-0.0392,0.027,-0.1156,-2.1278773746886195,9.568883251631632e-05,4.067741394042969,-1.6827526092529297,0.00011739398178178817,1.71492600440979,-0.7192896169475098,-0.0,0.2546088993549347,-2.018423859273092,0.0,0.03847993165254593,0.5559791922569275,-0.0,-0.005088898818939924,1.0463138818740845,-2.802596928649634e-45,0.007841377519071102
491.0,874.0,-3.7561,3.9942,8.3067,-0.0392,0.027,-0.1156,-2.1278773746886195,9.286787826567888e-05,4.041507720947266,-1.6827526092529297,0.00011368677951395512,1.742737889289856,-0.7192854446223755,-0.0,0.248978853225708,-2.0184038321124476,0.0,0.04278791695833206,0.5559591054916382,-0.0,-0.010806934908032417,1.0463097095489502,0.0,0.026909589767456055
491.0,874.0,-3.7561,3.9942,8.3067,-0.0392,0.027,-0.1156,-2.1278935871519984,9.020842117024586e-05,4.033943176269531,-1.6827645301818848,0.0001102066453313455,1.7813563346862793,-0.7193457049182435,-0.0,0.2499236762523651,-2.018435780202047,0.0,0.034877948462963104,0.5559030771255493,-0.0,0.001899410504847765,1.0462857484817505,0.0,-0.011455641128122807
491.0,874.0,-3.7561,3.9942,8.3067,-0.0392,0.027,-0.1156,-2.1278654537596644,8.649303345009685e-05,4.047709941864014,-1.6827887296676636,0.00010536830814089626,1.7051897048950195,-0.7193335455707093,-0.0,0.24611841142177582,-2.018395725880758,0.0,0.037450384348630905,0.5559189319610596,-0.0,0.001364950672723353,1.046285629272461,0.0,-0.02737562730908394
491.0,874.0,-3.7561,3.9942,8.3067,-0.0392,0.027,-0.1156,-2.1278492412962855,9.604403021512553e-05,4.001416206359863,-1.6827208995819092,0.00010237204696750268,1.7527105808258057,-0.7193297308734437,-0.0,0.25430071353912354,-2.0184195677386683,0.0,0.03906434029340744,0.5558990836143494,-0.0,-0.0009732150356285274,1.0462692975997925,0.0,-0.02494731917977333
491.0,874.0,-3.7561,3.9942,8.3067,-0.0392,0.027,-0.1156,-2.1278373203673304,9.37033910304308e-05,4.03700590133667,-1.6827168464660645,9.954144479706883e-05,1.7373851537704468,-0.7193178099444886,-0.0,0.23341551423072815,-2.018407646809713,0.0,0.03695154935121536,0.5559830069541931,-0.0,-0.008098652586340904,1.046285629272461,0.0,-0.058613620698451996
491.0,874.0,-3.7561,3.9942,8.3067,-0.0392,0.027,-0.1156,-2.127885480920309,9.018251148518175e-05,4.035686492919922,-1.6827282905578613,9.557739394949749e-05,1.760698914527893,-0.7192776960185547,-0.0,0.23772260546684265,-2.0183919111834925,0.0,0.04223989322781563,0.5559550523757935,-0.0,-0.0038458809722214937,1.046302080154419,0.0,-0.00412655109539628
491.0,874.0,-3.7561,3.9942,8.3067,-0.0392,0.027,-0.1156,-2.127885480920309,8.797866757959127e-05,4.029706954956055,-1.6827845573425293,9.310558380093426e-05,1.7556959390640259,-0.7193215650371094,-0.0,0.2500012516975403,-2.0184558073626917,0.0,0.03841012716293335,0.5559470057487488,-0.0,0.0021748568397015333,1.0462733507156372,0.0,0.01576361060142517
491.0,874.0,-3.7561,3.9942,8.3067,-0.0392,0.027,-0.1156,-2.127897401849264,8.486765727866441e-05,3.9981045722961426,-1.6827727556228638,8.962854917626828e-05,1.7295969724655151,-0.7193297308734437,-0.0,0.25279638171195984,-2.0184038321124476,0.0,0.028983507305383682,0.5559230446815491,-0.0,0.015084448270499706,1.046302080154419,0.0,-0.023814361542463303
491.0,874.0,-3.7561,3.9942,8.3067,-0.0392,0.027,-0.1156,-2.127885480920309,8.291303674923256e-05,4.0206990242004395,-1.682708740234375,8.745137165533379e-05,1.7219138145446777,-0.7193018955043335,-0.0,0.23940517008304596,-2.0184600988971155,0.0,0.04546302556991577,0.5559551119804382,-0.0,-0.005676999222487211,1.046277403831482,0.0,-0.015610233880579472
491.0,874.0,-3.7561,3.9942,8.3067,-0.0392,0.027,-0.1156,-2.1278773746886195,0.0001263387530343607,4.0314435958862305,-1.682756781578064,8.537747635273263e-05,1.7469583749771118,-0.7193334859660645,-0.0,0.2591969072818756,-2.0183799902545374,0.0,0.035705193877220154,0.5559310913085938,-0.0,-0.0003898658324033022,1.0462610721588135,0.0,0.004339884035289288
491.0,874.0,-3.7561,3.9942,8.3067,-0.0392,0.027,-0.1156,-2.1278816662230433,0.00011817232007160783,4.021181106567383,-1.6828129291534424,0.00010363019828218967,1.7422523498535156,-0.7192576092532654,-0.0,0.24287569522857666,-2.0183876196490687,0.0,0.033382825553417206,0.5559349060058594,-0.0,-0.0005848231958225369,1.0462652444839478,0.0,-0.028449712321162224
491.0,874.0,-3.7561,3.9942,8.3067,-0.0392,0.027,-0.1156,-2.12784542659902,0.00011227565119042993,4.030848503112793,-1.682748794555664,9.906753257382661e-05,1.7110052108764648,-0.7193096441081543,-0.0,0.2537883222103119,-2.018411938344137,0.0,0.026371479034423828,0.5559592843055725,-0.0,0.00022980791982263327,1.046269416809082,0.0,0.03855235502123833
518.0,858.0,-3.7053,4.1019,8.15,-0.0257,0.022,-0.1129,-2.1279059849181117,0.00010693918738979846,4.010746955871582,-1.682748794555664,9.488961950410157e-05,1.76701021194458,-0.7193256181529541,-0.0,0.2503703236579895,-2.018435780202047,0.0,0.045137256383895874,0.5559189915657043,-0.0,-0.0017606017645448446,1.0462857484817505,0.0,0.02871350757777691
518.0,858.0,-3.7053,4.1019,8.15,-0.0257,0.022,-0.1129,-2.1278654537596644,9.982266055885702e-05,3.9968881607055664,-1.6827489137649536,8.924410212785006e-05,1.7526562213897705,-0.7192410987666626,-0.0,0.23143205046653748,-2.018451515828268,0.0,0.03507934510707855,0.5558911561965942,-0.0,-0.00016707449685782194,1.0462857484817505,0.0,0.028817035257816315
518.0,858.0,-3.7053,4.1019,8.15,-0.0257,0.022,-0.1129,-2.1278697452940882,9.558210877003148e-05,4.009825706481934,-1.6827529668807983,8.58394123497419e-05,1.714367389678955,-0.7192694705775757,-0.0,0.25015032291412354,-2.018411938344137,0.0,0.038505442440509796,0.5559470057487488,-0.0,-0.007410220801830292,1.0462815761566162,0.0,-0.03865606337785721
518.0,858.0,-3.7053,4.1019,8.15,-0.0257,0.022,-0.1129,-2.1278611622252406,8.98563812370412e-05,4.035957336425781,-1.682708740234375,8.119313861243427e-05,1.7527217864990234,-0.7192855042270203,-0.0,0.23049339652061462,-2.018407646809713,0.0,0.049524568021297455,0.5558949708938599,-0.0,-0.0034648492000997066,1.0462734699249268,-6.779896648367867e-05,-0.01064277533441782
518.0,858.0,-3.7053,4.1019,8.15,-0.0257,0.022,-0.1129,-2.127857347527975,8.640562737127766e-05,4.04184103012085,-1.6827406883239746,7.836530130589381e-05,1.7238861322402954,-0.7193093460849305,-0.0,0.2492017149925232,-2.018439594899313,0.0,0.042915306985378265,0.5559592247009277,-0.0,0.017451805993914604,1.0462374687194824,-6.583447247976437e-05,-0.017384711652994156
518.0,858.0,-3.7053,4.1019,8.15,-0.0257,0.022,-0.1129,-2.127841135064596,8.321020141011104e-05,4.003929138183594,-1.6827284097671509,7.572775211883709e-05,1.753702163696289,-0.7192813915065308,-0.0,0.2518545687198639,-2.018395725880758,0.0,0.0362696498632431,0.5560029745101929,-0.0,0.0013833261327818036,1.0462857484817505,-7.673527579754591e-05,-0.008846630342304707
518.0,858.0,-3.7053,4.1019,8.15,-0.0257,0.022,-0.1129,-2.1278654537596644,7.883691432652995e-05,4.025720596313477,-1.6827406883239746,7.208851457107812e-05,1.763363242149353,-0.7193256777575989,-0.0,0.24627354741096497,-2.018423859273092,0.0,0.03998609259724617,0.555911123752594,-0.0,-0.008224539458751678,1.04629385471344,-7.361643656622618e-05,0.04268082231283188
518.0,858.0,-3.7053,4.1019,8.15,-0.0257,0.022,-0.1129,-2.127885480920309,7.616807852173224e-05,4.029510974884033,-1.6827685832977295,6.985053914831951e-05,1.7069623470306396,-0.7192654770663758,-0.0,0.2445136308670044,-2.0184195677386683,0.0,0.031138679012656212,0.5559509992599487,-0.0,-0.0036884662695229053,1.046269416809082,-8.355088357347995e-05,-0.03599084913730621
518.0,858.0,-3.7053,4.1019,8.15,-0.0257,0.022,-0.1129,-2.1278492412962855,7.367409125436097e-05,3.996436595916748,-1.682776927947998,6.774737994419411e-05,1.7213616371154785,-0.7192892593196412,-0.0,0.25219962000846863,-2.018468205128805,0.0,0.027981720864772797,0.5560150146484375,-0.0,0.001127043622545898,1.0462332963943481,-8.144473395077512e-05,-0.004418165422976017
518.0,858.0,-3.7053,4.1019,8.15,-0.0257,0.022,-0.1129,-2.1278773746886195,7.022497447906062e-05,4.003567218780518,-1.6827242374420166,6.481987657025456e-05,1.7175776958465576,-0.7193575662425538,-0.0,0.23237867653369904,-2.0184276739703577,0.0,0.04301028326153755,0.5559030771255493,-0.0,0.009212527424097061,1.0462734699249268,-8.960392733570188e-05,0.02584652416408062
518.0,858.0,-3.7053,4.1019,8.15,-0.0257,0.022,-0.1129,-2.1278654537596644,6.809952174080536e-05,4.010046482086182,-1.682715892791748,6.300475797615945e-05,1.7374213933944702,-0.7193096441081543,-0.0,0.24508899450302124,-2.0184157530414026,0.0,0.03528904169797897,0.5559552311897278,-0.0,-0.002649006899446249,1.0462415218353271,-8.742852514842525e-05,-0.012562703341245651
518.0,858.0,-3.7053,4.1019,8.15,-0.0257,0.022,-0.1129,-2.1278697452940882,6.514222332043573e-05,4.02739953994751,-1.6827003955841064,6.046513226465322e-05,1.8043005466461182,-0.7193454068950196,-0.0,0.25898241996765137,-2.018400017415182,0.0,0.033510711044073105,0.5559872388839722,-0.0,-0.005079654511064291,1.0462939739227295,-8.435561903752387e-05,0.03709102049469948
518.0,858.0,-3.7053,4.1019,8.15,-0.0257,0.022,-0.1129,-2.127853055993551,6.330928590614349e-05,4.023407459259033,-1.6826963424682617,5.888277883059345e-05,1.7457342147827148,-0.7193175119212647,-0.0,0.24409109354019165,-2.018411938344137,0.0,0.038201287388801575,0.5558911561965942,-0.0,0.002869460266083479,1.0462734699249268,-8.242425974458456e-05,-0.01437477394938469
518.0,858.0,-3.7053,4.1019,8.15,-0.0257,0.022,-0.1129,-2.1278892956175746,6.157672760309651e-05,3.999569892883301,-1.682708740234375,5.7381144870305434e-05,1.7430113554000854,-0.719325379734375,-0.0,0.25155797600746155,-2.0183919111834925,0.0,0.026178400963544846,0.5559511780738831,-0.0,-0.0013021586928516626,1.0462092161178589,-8.057946979533881e-05,-0.01581021398305893
518.0,858.0,-3.7053,4.1019,8.15,-0.0257,0.022,-0.1129,-2.1278892956175746,5.914864595979452e-05,3.998650550842285,-1.6827127933502197,5.526702443603426e-05,1.729627251625061,-0.7193051737597962,-0.0,0.24645370244979858,-2.018435780202047,0.0,0.045399151742458344,0.5559430122375488,-0.0,0.004923829343169928,1.046269416809082,-4.2028542424077386e-08,-0.020790185779333115
518.0,858.0,-3.7053,4.1019,8.15,-0.0257,0.022,-0.1129,-2.1278492412962855,5.763358058175072e-05,4.023581027984619,-1.6827127933502197,5.394204708863981e-05,1.7653121948242188,-0.7193094056895752,-0.0,0.2512146532535553,-2.0184157530414026,0.0,0.028300665318965912,0.5559590458869934,-0.0,0.008150516077876091,1.0462775230407715,-7.564988566133302e-12,0.003982764668762684
518.0,858.0,-3.7053,4.1019,8.15,-0.0257,0.022,-0.1129,-2.1278730831541957,5.619420699076727e-05,4.014490127563477,-1.6827242374420166,5.267913729767315e-05,1.7077935934066772,-0.71931345880542,-0.0,0.24210169911384583,-2.018423859273092,0.0,0.021297194063663483,0.5559389591217041,-0.0,0.008941645734012127,1.0462415218353271,-1.3616712136438184e-15,0.05077590420842171
518.0,858.0,-3.7053,4.1019,8.15,-0.0257,0.022,-0.1129,-2.1278816662230433,5.416509884526022e-05,4.031543731689453,-1.6827447414398193,6.093217234592885e-05,1.7785093784332275,-0.7192974251559754,-0.0,0.2518027126789093,-2.0184314886676233,0.0,0.04316362366080284,0.5559791922569275,-0.0,-0.005152770783752203,1.046269416809082,-3.2882761852907408e-21,-0.023002026602625847
518.0,858.0,-3.7053,4.1019,8.15,-0.0257,0.022,-0.1129,-2.127896925012106,5.289183900458738e-05,4.016317844390869,-1.6827242374420166,5.971947393845767e-05,1.7360899448394775,-0.7193658512881775,-4.835948857362382e-06,0.2491900622844696,-2.018383804951803,0.0,0.044236719608306885,0.555955171585083,-0.0,-0.0032977601513266563,1.0462652444839478,-5.918780970599596e-25,-0.023383786901831627
502.0,887.0,-3.7155,3.9117,8.3127,-0.0437,0.0298,-0.1139,-2.1278935871519984,5.109036646899767e-05,4.034571647644043,-1.682748794555664,4.2256045884592197e-10,1.7228937149047852,-0.7193818253329773,-1.3461042280837887e-09,0.24168749153614044,-2.0184195677386683,0.0,0.03577603027224541,0.5559430122375488,-0.0,0.009511582553386688,1.0462980270385742,-1.429315930769354e-30,-0.007753204554319382
502.0,887.0,-3.7155,3.9117,8.3127,-0.0437,0.0298,-0.1139,-2.1278816662230433,4.995605195290409e-05,4.001171112060547,-1.6827529668807983,7.605939803759926e-14,1.7537624835968018,-0.7193495196155091,-5.738653042347552e-12,0.2451295554637909,-2.0183919111834925,0.0,0.027749646455049515,0.5559511780738831,-0.0,0.003802808467298746,1.046217441558838,-2.572718160278352e-34,-0.018909960985183716
502.0,887.0,-3.7155,3.9117,8.3127,-0.0437,0.0298,-0.1139,-2.1278773746886195,7.720259276311481e-08,3.9866952896118164,-1.6826921701431274,1.3690425608806908e-17,1.716202974319458,-0.7193535727313538,-2.4464778076646598e-14,0.24771550297737122,-2.0183799902545374,0.0,0.03676693141460419,0.5559751391410828,-0.0,0.0026691616512835026,1.0462734699249268,-4.6308018109100853e-38,-0.013017317280173302
502.0,887.0,-3.7155,3.9117,8.3127,-0.0437,0.0298,-0.1139,-2.127925535241598,1.8643520429718896e-13,4.025393009185791,-1.682732343673706,3.3060766107359994e-23,1.7134191989898682,-0.719337598686554,-6.809860759384163e-18,0.24497103691101074,-2.018411938344137,0.0,0.039331790059804916,0.5559191703796387,-0.0,0.00734121585264802,1.0462415218353271,-9.595233859727159e-05,-0.06335914134979248
502.0,887.0,-3.7155,3.9117,8.3127,-0.0437,0.0298,-0.1139,-2.1278730831541957,3.3557678512426966e-17,4.020424842834473,-1.6827250719070435,5.950821542341279e-27,1.7489771842956543,-0.71931345880542,-2.903150302881106e-20,0.25356411933898926,-2.018463913594381,0.0,0.02897888794541359,0.555971086025238,-0.0,-0.004174595233052969,1.0462455749511719,-9.226202382706106e-05,0.0008253529667854309
502.0,887.0,-3.7155,3.9117,8.3127,-0.0437,0.0298,-0.1139,-2.1278535328307093,6.040263068247224e-21,3.983341693878174,-1.6827250719070435,1.0711268153506318e-30,1.722245216369629,-0.7193294328502198,-1.2376583892419015e-22,0.24428501725196838,-2.0184600988971155,0.0,0.04241469129920006,0.5559470057487488,-0.0,-0.007003997918218374,1.0463101863861084,-8.862779941409826e-05,0.004274411126971245
502.0,887.0,-3.7155,3.9117,8.3127,-0.0437,0.0298,-0.1139,-2.1278935871519984,1.458652501262645e-26,4.047384262084961,-1.6827242374420166,2.5866452213355075e-36,1.7122809886932373,-0.7193294328502198,-3.4450677392601197e-26,0.2421649694442749,-2.018407646809713,0.0,0.043894656002521515,0.5559470057487488,-0.0,0.004562529269605875,1.046257495880127,-8.368340786546469e-05,0.009152526035904884
502.0,887.0,-3.7155,3.9117,8.3127,-0.0437,0.0298,-0.1139,-2.1279012165465296,2.6255230562904186e-30,4.004232406616211,-1.6827208995819092,4.655870199657778e-40,1.7434070110321045,-0.7193215650371094,-1.4686862496055124e-28,0.2569541335105896,-2.0184477011310022,0.0,0.04426663741469383,0.5559309124946594,-0.0,0.00016830302774906158,1.0462734699249268,-8.068260649451986e-05,0.012075680308043957
502.0,887.0,-3.7155,3.9117,8.3127,-0.0437,0.0298,-0.1139,-2.1278816662230433,6.340328394466223e-36,4.0197649002075195,-1.6827127933502197,1.401298464324817e-45,1.7325396537780762,-0.719361738567688,-4.088142481750207e-32,0.24637718498706818,-2.018400017415182,0.0,0.037421777844429016,0.5559270977973938,-0.0,-0.008109623566269875,1.046302080154419,-7.656445086468011e-05,-0.01507369801402092
502.0,887.0,-3.7155,3.9117,8.3127,-0.0437,0.0298,-0.1139,-2.1278697452940882,1.1412370875246316e-39,4.077225685119629,-1.682732343673706,-0.0,1.7581236362457275,-0.7193294328502198,-1.7428391228182315e-34,0.25542521476745605,-2.018383804951803,0.0,0.03120042011141777,0.5559191703796387,-0.0,-0.00150271225720644,1.0462455749511719,-7.404482312267646e-05,-0.021496055647730827
502.0,887.0,-3.7155,3.9117,8.3127,-0.0437,0.0298,-0.1139,-2.127857347527975,2.059908742557481e-43,4.075898170471191,-1.6827168464660645,-0.0,1.742997169494629,-0.7193175119212647,-7.429997451875172e-37,0.24477222561836243,-2.018359963093893,0.0,0.03071763552725315,0.5559388995170593,-0.0,-0.0005823350511491299,1.0462374687194824,-7.168573210947216e-05,-0.028431152924895287
502.0,887.0,-3.7155,3.9117,8.3127,-0.0437,0.0298,-0.1139,-2.1278087101378382,0.0,4.011325836181641,-1.6827447414398193,-0.0,1.697636365890503,-0.71931345880542,-2.0681623905123543e-40,0.2406076192855835,-2.018383804951803,0.0,0.024547193199396133,0.5559870004653931,-0.0,-0.0019285294692963362,1.0462455749511719,-6.841613503638655e-05,0.005055008921772242
502.0,887.0,-3.7155,3.9117,8.3127,-0.0437,0.0298,-0.1139,-2.12784542659902,0.0,3.9976000785827637,-1.6827447414398193,-0.0,1.7193703651428223,-0.7193495196155091,-8.8141673406031e-43,0.25434088706970215,-2.018423859273092,0.0,0.04071022570133209,0.5559591054916382,-0.0,-0.0014268639497458935,1.046265721321106,-6.639726052526385e-05,-0.033342838287353516
502.0,887.0,-3.7155,3.9117,8.3127,-0.0437,0.0298,-0.1139,-2.1278816662230433,0.0,4.033294200897217,-1.6827003955841064,-0.0,1.7276761531829834,-0.7193294328502198,-4.203895392974451e-45,0.24785774946212769,-2.018411938344137,0.0,0.035740602761507034,0.5559592843055725,-0.0,0.0007952563464641571,1.0462534427642822,-7.737242412986234e-05,0.011966975405812263
502.0,887.0,-3.7155,3.9117,8.3127,-0.0437,0.0298,-0.1139,-2.127909322778219,0.0,4.043001174926758,-1.682740569114685,5.253375638858415e-05,1.7112318277359009,-0.7193175119212647,-0.0,0.24952758848667145,-2.0183919111834925,0.0,0.022096361964941025,0.5559790134429932,-0.0,-0.0073365336284041405,1.046269416809082,-7.420252950396389e-05,-0.030178500339388847
502.0,887.0,-3.7155,3.9117,8.3127,-0.0437,0.0298,-0.1139,-2.127841135064596,0.0,4.0263800621032715,-1.6826481819152832,5.1335264288354665e-05,1.7125463485717773,-0.7192974251559754,-0.0,0.25447285175323486,-2.0184038321124476,0.0,0.021762676537036896,0.555955171585083,-0.0,0.0033000633120536804,1.0462497472763062,-7.221785199362785e-05,0.025430908426642418
502.0,887.0,-3.7155,3.9117,8.3127,-0.0437,0.0298,-0.1139,-2.127909322778219,0.0,4.020779132843018,-1.6826962232589722,5.954817606834695e-05,1.7405953407287598,-0.7193977993777771,-0.0,0.2536405622959137,-2.0184038321124476,0.0,0.027322731912136078,0.5559751987457275,-0.0,0.017703842371702194,1.0462332963943481,-6.943217886146158e-05,0.017213743180036545
502.0,887.0,-3.7155,3.9117,8.3127,-0.0437,0.0298,-0.1139,-2.1278892956175746,0.0,3.993652105331421,-1.6827003955841064,1.0718461673775437e-08,1.778397560119629,-0.7193294328502198,-0.0,0.23942622542381287,-2.018388096486227,0.0,0.028865326195955276,0.555955171585083,-0.0,-0.011940645053982735,1.0462415218353271,-6.769151514163241e-05,0.003475208766758442
502.0,887.0,-3.7155,3.9117,8.3127,-0.0437,0.0298,-0.1139,-2.1278850040831507,0.0,4.039693355560303,-1.6827168464660645,1.9292850737123723e-12,1.7230221033096313,-0.7193294328502198,-0.0,0.2431490123271942,-2.018400017415182,0.0,0.04234307259321213,0.5559908747673035,-0.0,0.0008711060509085655,1.046257495880127,-6.603597284993157e-05,0.039509691298007965
474.0,865.0,-3.673,3.9284,8.1194,-0.0296,0.0241,-0.1129,-2.1279012165465296,0.0,4.017724514007568,-1.6826362609863281,4.6589963657120346e-18,1.7551144361495972,-0.7193175119212647,-0.0,0.24194800853729248,-2.018388096486227,0.0,0.03828682377934456,0.5559710264205933,-0.0,-4.295608960092068e-05,1.046257495880127,-6.369909533532336e-05,0.03497513383626938
474.0,865.0,-3.673,3.9284,8.1194,-0.0296,0.0241,-0.1129,-2.1279012165465296,0.0,4.0307722091674805,-1.6826846599578857,8.386029650509424e-22,1.7796165943145752,-0.7193454068950196,-0.0,0.24959556758403778,-2.018395725880758,0.0,0.032199084758758545,0.5559471249580383,-0.0,0.005982565227895975,1.0462815761566162,-6.223095260793343e-05,-0.016288485378026962
474.0,865.0,-3.673,3.9284,8.1194,-0.0296,0.0241,-0.1129,-2.1278892956175746,0.0,4.019066333770752,-1.6826523542404175,1.5094556365969439e-25,1.7294361591339111,-0.7193294328502198,-0.0,0.2517208456993103,-2.0183680693255823,0.0,0.044067882001399994,0.5559592247009277,-0.0,0.007022724486887455,1.0462251901626587,-7.096530316630378e-05,-0.06769026070833206
474.0,865.0,-3.673,3.9284,8.1194,-0.0296,0.0241,-0.1129,-2.1278850040831507,0.0,4.008794784545898,-1.6827086210250854,3.6451576707416984e-31,1.7557567358016968,-0.7193010610393067,-0.0,0.24226334691047668,-2.0184157530414026,0.0,0.037416279315948486,0.5559229850769043,-0.0,0.002078115940093994,1.0462415218353271,-3.1777318554304657e-07,0.03802133724093437
474.0,865.0,-3.673,3.9284,8.1194,-0.0296,0.0241,-0.1129,-2.127841135064596,0.0,4.05171537399292,-1.6826564073562622,6.561154880584027e-35,1.7597320079803467,-0.7192974251559754,-0.0,0.2439802885055542,-2.0184319655047815,0.0,0.0330427810549736,0.5559348464012146,-0.0,0.007859213277697563,1.0462615489959717,-5.7198051850448905e-11,-0.051451969891786575
474.0,865.0,-3.673,3.9284,8.1194,-0.0296,0.0241,-0.1129,-2.1279336414732875,0.0,4.0274858474731445,-1.6826683282852173,1.5844481736120707e-40,1.7537610530853271,-0.719325379734375,-0.0,0.2530687749385834,-2.0183919111834925,0.0,0.03300806134939194,0.5559672713279724,-0.0,0.0025521491188555956,1.0462292432785034,-1.3812656268126521e-16,0.027863675728440285
474.0,865.0,-3.673,3.9284,8.1194,-0.0296,0.0241,-0.1129,-2.127929826776022,0.0,4.04231071472168,-1.6826883554458618,2.802596928649634e-44,1.747849464416504,-0.7193454068950196,-0.0,0.24627438187599182,-2.0183799902545374,0.0,0.04117098078131676,0.5559632778167725,-0.0,-0.00780851673334837,1.0462697744369507,-2.4862294637280725e-20,0.020764965564012527
474.0,865.0,-3.673,3.9284,8.1194,-0.0296,0.0241,-0.1129,-2.1278935871519984,0.0,4.003536224365234,-1.6827127933502197,-0.0,1.7564228773117065,-0.7193413537791749,-0.0,0.2468465268611908,-2.018383804951803,0.0,0.03587709367275238,0.5559990406036377,-0.0,0.002932277275249362,1.0462055206298828,-4.475124690493299e-24,-0.006898604333400726
474.0,865.0,-3.673,3.9284,8.1194,-0.0296,0.0241,-0.1129,-2.1279055080809535,0.0,4.038595676422119,-1.6826921701431274,0.0001015978486975655,1.7365370988845825,-0.7193454068950196,-0.0,0.24163910746574402,-2.018376175557272,0.0,0.030779263004660606,0.5559712052345276,-0.0,0.005109191872179508,1.046265721321106,-7.736634142929688e-05,0.007984684780240059
474.0,865.0,-3.673,3.9284,8.1194,-0.0296,0.0241,-0.1129,-2.127897401849264,0.0,3.9963269233703613,-1.6826883554458618,0.0001482210063841194,1.7294864654541016,-0.7193294328502198,-0.0,0.24446730315685272,-2.018423859273092,0.0,0.03593888133764267,0.5559470057487488,-0.0,-0.01052122376859188,1.046257495880127,-7.480020576622337e-05,0.06071748584508896
474.0,865.0,-3.673,3.9284,8.1194,-0.0296,0.0241,-0.1129,-2.1278697452940882,0.0,4.0420989990234375,-1.682708740234375,0.00016607172437943518,1.708082914352417,-0.7193454068950196,-0.0,0.2428542673587799,-2.0184038321124476,0.0,0.04454171657562256,0.5559550523757935,-0.0,-0.00411452678963542,1.0462169647216797,-8.629458898212761e-05,0.026815978810191154
474.0,865.0,-3.673,3.9284,8.1194,-0.0296,0.0241,-0.1129,-2.1278816662230433,0.0,4.002449035644531,-1.6826481819152832,0.0005969337653368711,1.7282991409301758,-0.7192773383906861,-0.0,0.25793227553367615,-2.018388096486227,0.0,0.037487246096134186,0.5559632182121277,-0.0,0.0118214450776577,1.0462374687194824,-8.287274977192283e-05,0.014975093305110931
474.0,865.0,-3.673,3.9284,8.1194,-0.0296,0.0241,-0.1129,-2.1278897724547328,0.0,3.9900779724121094,-1.682748794555664,0.0006734993075951934,1.7310329675674438,-0.7193014782718201,-0.0,0.2501879334449768,-2.018371884022848,0.0,0.03336327150464058,0.555927038192749,-0.0,-0.003266342682763934,1.0462374687194824,-8.040486136451364e-05,-0.02131141722202301
474.0,865.0,-3.673,3.9284,8.1194,-0.0296,0.0241,-0.1129,-2.1278730831541957,0.0,4.033271789550781,-1.6826883554458618,0.001204299507662654,1.7363982200622559,-0.7193896931460877,-0.0,0.24021118879318237,-2.018383804951803,0.0,0.042665813118219376,0.5559270977973938,-0.0,0.002434832975268364,1.0462615489959717,-8.979463018476963e-05,-0.014530705288052559
474.0,865.0,-3.673,3.9284,8.1194,-0.0296,0.0241,-0.1129,-2.1278654537596644,0.0,4.053253173828125,-1.68268883228302,0.0027178965974599123,1.7628726959228516,-0.719353513126709,-0.0,0.24144357442855835,-2.018400017415182,0.0,0.04776495695114136,0.5559309124946594,-0.0,-0.0007331542437896132,1.0462898015975952,-8.730601257411763e-05,-0.014500891789793968
474.0,865.0,-3.673,3.9284,8.1194,-0.0296,0.0241,-0.1129,-2.1278935871519984,0.0,3.9828710556030273,-1.6826403141021729,0.007451626472175121,1.7558777332305908,-0.7193413537791749,-0.0,0.24627679586410522,-2.0184195677386683,0.0,0.044817328453063965,0.5559310913085938,-0.0,0.005583447869867086,1.0462251901626587,-8.495148358633742e-05,-0.03702933341264725
474.0,865.0,-3.673,3.9284,8.1194,-0.0296,0.0241,-0.1129,-2.1279336414732875,0.0,4.069289207458496,-1.682519555091858,0.015592141076922417,1.7951335906982422,-0.7193412941745301,-0.0,0.24229228496551514,-2.018400017415182,0.0,0.025972258299589157,0.5559470057487488,-0.0,0.005753176286816597,1.0462214946746826,-9.331196633866057e-05,0.011047033593058586
474.0,865.0,-3.673,3.9284,8.1194,-0.0296,0.0241,-0.1129,-2.1279174290099085,0.0,4.000297546386719,-1.6825045347213745,0.014534860849380493,1.7417712211608887,-0.7193576854518433,-0.0,0.23769158124923706,-2.0183799902545374,0.0,0.03830884024500847,0.5559031367301941,-0.0,0.008368873037397861,1.0462214946746826,-0.00018367948359809816,-0.015449296683073044
505.0,882.0,-3.6808,4.0373,8.2373,-0.0283,0.0307,-0.1226,-2.1278730831541957,0.0,3.993842124938965,-1.682420015335083,0.012972293421626091,1.810788869857788,-0.7193938058665772,-0.0,0.2546740770339966,-2.018407646809713,0.0,0.039694588631391525,0.5559309124946594,-0.0,-0.007574349641799927,1.0462214946746826,-0.00018055710825137794,0.01087471004575491
505.0,882.0,-3.6808,4.0373,8.2373,-0.0283,0.0307,-0.1226,-2.1278487644591273,0.0,4.058779716491699,-1.6823326349258423,0.012639136984944344,1.7343839406967163,-0.7193777722171326,-0.0,0.2522217035293579,-2.018407646809713,0.0,0.05563893914222717,0.5559509992599487,-0.0,-0.0038906438276171684,1.0462538003921509,-0.00019208535377401859,-0.010262400843203068
505.0,882.0,-3.6808,4.0373,8.2373,-0.0283,0.0307,-0.1226,-2.127896925012106,0.0,4.053733825683594,-1.6822640895843506,0.011000128462910652,1.7979936599731445,-0.7193011206439515,-0.0,0.2425241470336914,-2.018400017415182,0.0,0.036351799964904785,0.5559670925140381,-0.0,-0.009335245005786419,1.046217441558838,-0.0001804644998628646,0.06315377354621887
505.0,882.0,-3.6808,4.0373,8.2373,-0.0283,0.0307,-0.1226,-2.127901693383688,0.0,4.02791690826416,-1.6822165250778198,0.007878342643380165,1.7390978336334229,-0.7193736594966431,-0.0,0.25643476843833923,-2.018383804951803,0.0,0.04261452704668045,0.555971086025238,-0.0,0.00782434456050396,1.04615318775177,-0.00021831484627909958,-0.025538500398397446
505.0,882.0,-3.6808,4.0373,8.2373,-0.0283,0.0307,-0.1226,-2.1278611622252406,0.0,4.01621150970459,-1.6822041273117065,0.006771959364414215,1.7570310831069946,-0.7193535727313538,-0.0,0.2583370506763458,-2.0183642546283167,0.0,0.04352530464529991,0.5559592247009277,-0.0,0.00044732121750712395,1.0461612939834595,-0.00036016336525790393,-0.02533828280866146
505.0,882.0,-3.6808,4.0373,8.2373,-0.0283,0.0307,-0.1226,-2.1278492412962855,0.0,4.0009446144104,-1.6821284294128418,0.006222844123840332,1.7556545734405518,-0.7193576854518433,-0.0,0.24378645420074463,-2.018395725880758,0.0,0.04305526614189148,0.5558993220329285,-0.0,-0.0017554998630657792,1.0461972951889038,-0.00031108883558772504,0.02890094742178917
505.0,882.0,-3.6808,4.0373,8.2373,-0.0283,0.0307,-0.1226,-2.1278211079039515,4.547942467070243e-09,4.004970550537109,-1.6821480989456177,0.005626460071653128,1.7498581409454346,-0.7193494600108643,-0.0,0.25518399477005005,-2.0184438864337366,0.0,0.03090513125061989,0.5559430122375488,-0.0,0.008291211910545826,1.0462337732315063,-0.0002576460246928036,0.014199184253811836
505.0,882.0,-3.6808,4.0373,8.2373,-0.0283,0.0307,-0.1226,-2.127845903436178,0.0011895635398104787,4.016728401184082,-1.682108759880066,0.004897639621049166,1.7622087001800537,-0.7193454068950196,-0.0,0.24852308630943298,-2.0183919111834925,0.0,0.03254338353872299,0.5559389591217041,-0.0,0.0020434788893908262,1.0462538003921509,-0.00023117173986975104,-0.0020742015913128853
505.0,882.0,-3.6808,4.0373,8.2373,-0.0283,0.0307,-0.1226,-2.127784868279928,0.0010318623390048742,4.010500907897949,-1.6820963621139526,0.004315786063671112,1.747481107711792,-0.7193859380534668,-0.0,0.24948251247406006,-2.018423859273092,0.0,0.03808395937085152,0.5559389591217041,-0.0,-0.0053576938807964325,1.0462255477905273,-0.00020963148563168943,0.001209060661494732
505.0,882.0,-3.6808,4.0373,8.2373,-0.0283,0.0307,-0.1226,-2.127824922601217,0.0007917092880234122,4.010854721069336,-1.682055950164795,0.004120899364352226,1.7766039371490479,-0.7193736594966431,-0.0,0.24915000796318054,-2.0183799902545374,0.0,0.024404535070061684,0.5559430122375488,-0.0,-0.013827714137732983,1.0461935997009277,-0.00021921430015936494,0.030848052352666855
505.0,882.0,-3.6808,4.0373,8.2373,-0.0283,0.0307,-0.1226,-2.1278091869749964,0.0006489267689175904,4.051028251647949,-1.6820886135101318,0.003653324441984296,1.7124446630477905,-0.7193737191012879,-0.0,0.2365262508392334,-2.0183799902545374,1.41244015594566e-06,0.034640416502952576,0.555990993976593,-0.0,-0.0016868559177964926,1.0462337732315063,-0.0002040307444985956,0.0039027314633131027
505.0,882.0,-3.6808,4.0373,8.2373,-0.0283,0.0307,-0.1226,-2.1278535328307093,0.0005107751931063831,4.027557849884033,-1.682044506072998,0.0030982925090938807,1.7744578123092651,-0.7193093460849305,-0.0,0.23814719915390015,-2.0183919111834925,3.931579506399885e-10,0.032990191131830215,0.5560028553009033,-0.0,0.0036723422817885876,1.046181321144104,-0.00023385812528431416,0.009637311100959778
505.0,882.0,-3.6808,4.0373,8.2373,-0.0283,0.0307,-0.1226,-2.1278048954405726,0.00044729869114235044,4.015982151031494,-1.6820042133331299,0.0027155957650393248,1.757817029953003,-0.7193654340556641,-0.0,0.24584843218326569,-2.0183642546283167,1.6760940508772637e-12,0.03987159952521324,0.5559430718421936,-0.0,0.0029416168108582497,1.0461935997009277,-0.0002249824465252459,0.00995510071516037
505.0,882.0,-3.6808,4.0373,8.2373,-0.0283,0.0307,-0.1226,-2.1278697452940882,0.00039785695844329894,4.053158760070801,-1.6819968223571777,0.0022337220143526793,1.7981529235839844,-0.7193371814540406,-0.0,0.23829835653305054,-2.0183919111834925,7.14545220545761e-15,0.02933225780725479,0.5559270977973938,-0.0,-0.013937486335635185,1.0462337732315063,-0.0002420445525785908,0.029692508280277252
505.0,882.0,-3.6808,4.0373,8.2373,-0.0283,0.0307,-0.1226,-2.127857824365133,0.0003412772493902594,4.025397300720215,-1.6820363998413086,0.0016676724189892411,1.7151567935943604,-0.7193613213351746,-0.0,0.24109375476837158,-2.0183680693255823,1.9889626071238086e-18,0.04089123383164406,0.5559310913085938,-0.0,0.001264622318558395,1.0461976528167725,-0.00025035353610292077,0.004745328798890114
505.0,882.0,-3.6808,4.0373,8.2373,-0.0283,0.0307,-0.1226,-2.127845903436178,0.0003117241431027651,3.9984540939331055,-1.6820042133331299,0.001269281841814518,1.7106502056121826,-0.7194380921176453,-3.551060601125755e-08,0.2557619512081146,-2.018371884022848,8.479259630425595e-21,0.028030913323163986,0.555907130241394,-0.0,0.005648244172334671,1.0461814403533936,-0.000265055219642818,-0.017526021227240562
505.0,882.0,-3.6808,4.0373,8.2373,-0.0283,0.0307,-0.1226,-2.127857824365133,0.0002868807059712708,4.0142669677734375,-1.6820008754730225,0.001083767507225275,1.7277522087097168,-0.7193975013545533,-1.5138729159147601e-10,0.24426159262657166,-2.0184157530414026,3.614841502204935e-23,0.03667362034320831,0.5559230446815491,-0.0,0.004843815229833126,1.0461695194244385,-0.0004864706424996257,-0.00641848798841238
505.0,882.0,-3.6808,4.0373,8.2373,-0.0283,0.0307,-0.1226,-2.1278091869749964,0.00025624941918067634,4.031118392944336,-1.6820008754730225,0.0013050591805949807,1.7183191776275635,-0.7193933886340638,-4.213921149954364e-14,0.2529739737510681,-2.018383804951803,1.0062044875982424e-26,0.044523417949676514,0.555971086025238,-0.0,-0.00943499431014061,1.046177625656128,-0.0005064320284873247,-0.033687740564346313
505.0,882.0,-3.6808,4.0373,8.2373,-0.0283,0.0307,-0.1226,-2.1278535328307093,0.00023922098625916988,3.990143299102783,-1.6820008754730225,0.002030842937529087,1.7735143899917603,-0.7193733018687745,-1.7964609281753149e-16,0.2500399053096771,-2.018359963093893,4.2896078160263385e-29,0.03576037287712097,0.5559430122375488,-0.0,0.008198187686502934,1.0461732149124146,-0.0005034913774579763,0.03526819869875908
483.0,900.0,-3.8076,4.0696,8.1177,-0.0452,0.0414,-0.1231,-2.127824922601217,0.00015117174189072102,4.048220634460449,-1.6819565296173096,0.0033197980374097824,1.7192716598510742,-0.7193772953799744,-5.000514567388471e-20,0.24812763929367065,-2.018376175557272,1.194027929441321e-32,0.031130649149417877,0.5559630990028381,-0.0,-0.01470243465155363,1.0461289882659912,-0.00048661144683137536,-0.05835343897342682
483.0,900.0,-3.8076,4.0696,8.1177,-0.0452,0.0414,-0.1231,-2.1278416119017542,0.00014165308675728738,4.021086692810059,-1.6818840503692627,0.004200470633804798,1.7707821130752563,-0.7194420260242005,-2.1317975154300886e-22,0.2536965608596802,-2.0184157530414026,5.090327905610957e-35,0.03532811999320984,0.5559152364730835,-0.0,0.0025967946276068687,1.0461854934692383,-0.0004777835274580866,-0.013376221992075443
483.0,900.0,-3.8076,4.0696,8.1177,-0.0452,0.0414,-0.1231,-2.127824922601217,0.00013326296175364405,4.042428493499756,-1.6819486618041992,0.004827843047678471,1.7507174015045166,-0.7193855208209534,-9.088188415582187e-25,0.23812372982501984,-2.0183919111834925,2.1700868993018527e-37,0.03682232275605202,0.5560109615325928,-0.0,-0.008976709097623825,1.046189546585083,-0.000408371037337929,0.026146460324525833
483.0,900.0,-3.8076,4.0696,8.1177,-0.0452,0.0414,-0.1231,-2.127845903436178,0.00012238953786436468,4.027186393737793,-1.6818714141845703,0.005456465296447277,1.721187949180603,-0.7193572086146851,-2.5297308894057517e-28,0.24923430383205414,-2.0183919111834925,6.040577290164989e-41,0.040581196546554565,0.5559430122375488,-0.0,0.004675310105085373,1.0461735725402832,-0.00038830420817248523,0.005020290147513151
483.0,900.0,-3.8076,4.0696,8.1177,-0.0452,0.0414,-0.1231,-2.127824922601217,0.00011607562191784382,4.037477493286133,-1.6819170713424683,0.0053442721255123615,1.740252137184143,-0.7193896931460877,-1.0784640630093684e-30,0.2494492083787918,-2.0183399359332483,2.5783891743576634e-43,0.02521112747490406,0.5559592247009277,-0.0,-0.011820917017757893,1.0461695194244385,-0.00039505050517618656,-0.053849369287490845
483.0,900.0,-3.8076,4.0696,8.1177,-0.0452,0.0414,-0.1231,-2.127829214135641,0.00011038105003535748,4.024631500244141,-1.6818199157714844,0.005555736366659403,1.7621057033538818,-0.7193694871715088,-4.597661463203288e-33,0.2614176273345947,-2.018376175557272,1.401298464324817e-45,0.037620268762111664,0.5559750199317932,-0.0,0.004654215183109045,1.0461372137069702,-0.00037388488999567926,5.254146526567638e-05
483.0,900.0,-3.8076,4.0696,8.1177,-0.0452,0.0414,-0.1231,-2.1278778515257777,0.00010281521099386737,4.086258888244629,-1.6817556619644165,0.005727505777031183,1.751978874206543,-0.7193330687335511,-1.2797759781534329e-36,0.25386565923690796,-2.018383804951803,0.0,0.031012557446956635,0.5559670925140381,-0.0,-0.0017505394062027335,1.0461575984954834,-0.0003013758105225861,0.03654509037733078
483.0,900.0,-3.8076,4.0696,8.1177,-0.0452,0.0414,-0.1231,-2.127873559991354,9.832219802774489e-05,4.016707420349121,-1.6817885637283325,0.006317920051515102,1.762084722518921,-0.7194014352611084,-5.455885505925459e-39,0.2587066888809204,-2.0183680693255823,0.0,0.027816105633974075,0.555971086025238,-0.0,-0.0015836779493838549,1.0461854934692383,-0.0002657710574567318,0.029090847820043564
483.0,900.0,-3.8076,4.0696,8.1177,-0.0452,0.0414,-0.1231,-2.127885480920309,9.227393456967548e-05,4.007029056549072,-1.6817445755004883,0.006431738380342722,1.7785199880599976,-0.7193732422641297,-1.5190075353281017e-42,0.25350457429885864,-2.018400017415182,0.0,0.029803074896335602,0.5559670925140381,-0.0,-0.0014842244563624263,1.0462136268615723,-0.0002257646556245163,-0.03863385319709778
483.0,900.0,-3.8076,4.0696,8.1177,-0.0452,0.0414,-0.1231,-2.1278211079039515,8.863882248988375e-05,4.030549049377441,-1.6817286014556885,0.006347939372062683,1.7425272464752197,-0.7193609041026612,-7.006492321624085e-45,0.2559170722961426,-2.018359963093893,0.0,0.033172689378261566,0.5559470057487488,-0.0,-0.00030398668604902923,1.0461653470993042,-0.00020517551456578076,0.007778921164572239
483.0,900.0,-3.8076,4.0696,8.1177,-0.0452,0.0414,-0.1231,-2.127845903436178,8.527920726919547e-05,4.0212249755859375,-1.6817450523376465,0.006327363662421703,1.7671005725860596,-0.7194096607020875,-0.0,0.2549731135368347,-2.0183799902545374,0.0,0.04297958314418793,0.555907130241394,-0.0,0.0017893798649311066,1.0462017059326172,-0.00018802839622367173,0.01677839271724224
483.0,900.0,-3.8076,4.0696,8.1177,-0.0452,0.0414,-0.1231,-2.127857824365133,8.069181785685942e-05,4.02101993560791,-1.6816198825836182,0.006873839534819126,1.7505449056625366,-0.7194215816310425,-0.00011992891813861206,0.26197606325149536,-2.018376175557272,0.0,0.025055304169654846,0.5558832883834839,-0.0,-0.007550881244242191,1.046177625656128,-0.00020048086298629642,0.008085230365395546
483.0,900.0,-3.8076,4.0696,8.1177,-0.0452,0.0414,-0.1231,-2.1278492412962855,7.789814117131755e-05,4.03947114944458,-1.6816446781158447,0.007246465887874365,1.7458360195159912,-0.7194657486728211,-0.00011396360787330195,0.25214359164237976,-2.0183799902545374,0.0,0.02727469988167286,0.555994987487793,-0.0,-0.00030318385688588023,1.046181321144104,-0.0001866396050900221,-0.011536152102053165
483.0,900.0,-3.8076,4.0696,8.1177,-0.0452,0.0414,-0.1231,-2.1278697452940882,6.02413565502502e-05,4.058376789093018,-1.681612491607666,0.00808269064873457,1.7841461896896362,-0.7194056075862427,-0.00012942547618877143,0.24283063411712646,-2.018383804951803,0.0,0.029733337461948395,0.5559231638908386,-0.0,-0.008579237386584282,1.046225905418396,-0.0001745717745507136,0.03408494591712952
483.0,900.0,-3.8076,4.0696,8.1177,-0.0452,0.0414,-0.1231,-2.127824922601217,5.735439481213689e-05,3.939030170440674,-1.6815358400344849,0.008411341346800327,1.7659099102020264,-0.7194056075862427,-0.0001389583630952984,0.24977454543113708,-2.018400017415182,-1.5865191016928293e-05,0.01617136411368847,0.5559191703796387,-0.0,-0.0042454334907233715,1.0461735725402832,-0.00015913743118289858,0.00428204657509923
483.0,900.0,-3.8076,4.0696,8.1177,-0.0452,0.0414,-0.1231,-2.1278778515257777,5.55833030375652e-05,4.038185119628906,-1.6815487146377563,0.008767111226916313,1.7353590726852417,-0.7193569105914612,-0.00013551217853091657,0.25289666652679443,-2.018376175557272,-6.763579563084932e-08,0.029491446912288666,0.5559231638908386,-0.0,0.0012504500336945057,1.046197772026062,-0.00015027985500637442,0.018525609746575356
483.0,900.0,-3.8076,4.0696,8.1177,-0.0452,0.0414,-0.1231,-2.127897878686422,5.312274879543111e-05,4.005438804626465,-1.681464433670044,0.009208542294800282,1.7435286045074463,-0.719417468910553,-0.00014487825683318079,0.2502979636192322,-2.018371884022848,-1.8826671124849703e-11,0.03103107586503029,0.555959165096283,-0.0,0.0111560532823205,1.046189546585083,-0.0001386999647365883,0.03462770953774452
483.0,900.0,-3.8076,4.0696,8.1177,-0.0452,0.0414,-0.1231,-2.127873559991354,5.1599916332634166e-05,4.012827396392822,-1.6814689636230469,0.009549479000270367,1.7749477624893188,-0.7194252771190186,-0.0001398397726006806,0.24700507521629333,-2.018376175557272,-8.026105415047738e-14,0.029667459428310394,0.5559831261634827,-0.0,-0.008164690807461739,1.0461535453796387,-0.00013192306505516171,-0.001052236300893128
483.0,900.0,-3.8076,4.0696,8.1177,-0.0452,0.0414,-0.1231,-2.1278935871519984,5.016198701923713e-05,3.9879157543182373,-1.6813400983810425,0.009146051481366158,1.7707046270370483,-0.7194736164859314,-0.00022885252838023007,0.24443325400352478,-2.0183799902545374,-3.4216541766959744e-16,0.018052197992801666,0.5559152364730835,-0.0,-0.006936710327863693,1.046177625656128,-0.00012577745656017214,0.03262884542346001
481.0,858.0,-3.7208,3.9434,8.2528,-0.0492,0.029,-0.1243,-2.1278816662230433,4.81493043480441e-05,4.038069725036621,-1.6812800168991089,0.009374802932143211,1.7833088636398315,-0.7193932694247742,-0.00020987795141991228,0.24970051646232605,-2.018376175557272,-9.524300390838197e-20,0.02002141810953617,0.555955171585083,-0.0,-0.0039079259149730206,1.0461735725402832,-0.00011756263847928494,0.00977239664644003
481.0,858.0,-3.7208,3.9434,8.2528,-0.0492,0.029,-0.1243,-2.1278654537596644,4.6894889237592e-05,4.014928340911865,-1.681268572807312,0.010417112149298191,1.7795313596725464,-0.7193892163089295,-0.00019197027722839266,0.23097532987594604,-2.0183799902545374,-4.0603584608198086e-22,0.033952344208955765,0.5559191703796387,-0.0,0.0015056373085826635,1.0461894273757935,-0.00011265739158261567,0.059605348855257034
481.0,858.0,-3.7208,3.9434,8.2528,-0.0492,0.029,-0.1243,-2.127833505670065,4.570421151584014e-05,4.010777473449707,-1.6812323331832886,0.011036072857677937,1.7426385879516602,-0.7194093030742188,-0.00021208796533755958,0.23931387066841125,-2.018411938344137,-1.7309945260980716e-24,0.029296182096004486,0.5559350252151489,-0.0,0.009397100657224655,1.046177625656128,-0.00010814504639711231,0.03183748573064804
481.0,858.0,-3.7208,3.9434,8.2528,-0.0492,0.029,-0.1243,-2.127885480920309,4.4027365220244974e-05,4.050012588500977,-1.681168556213379,0.012851390056312084,1.7616735696792603,-0.7193645399859925,-0.00018986019131261855,0.24685078859329224,-2.018400017415182,-4.818286720043126e-28,0.027290213853120804,0.5558953285217285,-0.0,-0.0048933192156255245,1.046181321144104,-0.00010201585973845795,0.07800647616386414
481.0,858.0,-3.7208,3.9434,8.2528,-0.0492,0.029,-0.1243,-2.127829214135641,4.297620398574509e-05,4.0018839836120605,-1.681048035621643,0.014204568229615688,1.7772265672683716,-0.7193892163089295,-0.00017738505266606808,0.2401268184185028,-2.0183642546283167,-2.054111302694686e-30,0.020913025364279747,0.5559909343719482,-0.0,0.006626305170357227,1.046189546585083,-9.830178169067949e-05,0.021545330062508583
481.0,858.0,-3.7208,3.9434,8.2528,-0.0492,0.029,-0.1243,-2.127845903436178,4.149031883571297e-05,4.033758640289307,-1.681040644645691,0.017147600650787354,1.8169386386871338,-0.7193932098201294,-0.0001883207296486944,0.2352931797504425,-2.018376175557272,-5.717694521185841e-34,0.010572327300906181,0.5559031367301941,-0.0,0.011899600736796856,1.0461658239364624,-9.321131801698357e-05,0.06353182345628738
481.0,858.0,-3.7208,3.9434,8.2528,-0.0492,0.029,-0.1243,-2.1278535328307093,4.05555110774003e-05,4.028241157531738,-1.6809122562408447,0.019640156999230385,1.837355375289917,-0.7194453638843079,-0.00017775152809917927,0.24666422605514526,-2.018371884022848,-2.437542939308668e-36,0.027741173282265663,0.5559828877449036,-0.0,0.014386284165084362,1.04611337184906,-9.010090434458107e-05,0.0337999127805233
481.0,858.0,-3.7208,3.9434,8.2528,-0.0492,0.029,-0.1243,-2.127841135064596,3.31302871927619e-05,4.025991916656494,-1.6808764934539795,0.020461222156882286,1.7874696254730225,-0.7194093030742188,-0.00018912498489953578,0.22543279826641083,-2.018400017415182,-1.0391627238773582e-38,0.01679428480565548,0.555971086025238,-0.0,-0.008293558843433857,1.0461575984954834,-9.675718320067972e-05,0.01741277426481247
481.0,858.0,-3.7208,3.9434,8.2528,-0.0492,0.029,-0.1243,-2.127857824365133,8.000573814559431e-11,4.028739929199219,-1.6807122230529785,0.02475152537226677,1.8316006660461426,-0.7194371980479737,-0.00017802756337914616,0.24390244483947754,-2.018383804951803,-2.8922800303664224e-42,0.01914302259683609,0.5559751391410828,-0.0,0.0017938176169991493,1.0462058782577515,-9.702348324935883e-05,0.008331246674060822
481.0,858.0,-3.7208,3.9434,8.2528,-0.0492,0.029,-0.1243,-2.1278373203673304,1.4400751031646945e-14,4.031761646270752,-1.6806200742721558,0.02678961120545864,1.7938241958618164,-0.7194493573955079,-0.00018124456983059645,0.22480863332748413,-2.0183642546283167,-1.2611686178923354e-44,0.016717195510864258,0.5559033155441284,-0.0,0.0030753244645893574,1.046189546585083,-9.412439976586029e-05,0.05777869373559952
481.0,858.0,-3.7208,3.9434,8.2528,-0.0492,0.029,-0.1243,-2.1278816662230433,1.804728526622057e-05,4.0169758796691895,-1.680448055267334,0.031170714646577835,1.7805920839309692,-0.7194535297206421,-0.00017844990361481905,0.23441354930400848,-2.018388096486227,-0.0,0.012861551716923714,0.5559071898460388,-0.0,-0.0035834999289363623,1.0461817979812622,-8.597497799200937e-05,0.06973790377378464
481.0,858.0,-3.7208,3.9434,8.2528,-0.0492,0.029,-0.1243,-2.1278892956175746,-2.4509115974069573e-05,3.982074022293091,-1.6803123950958252,0.03490130230784416,1.814720630645752,-0.7194612783244629,-0.00018181977793574333,0.23241092264652252,-2.018383804951803,-0.0,0.011896152049303055,0.5559231638908386,-0.0,-0.004102037288248539,1.0461616516113281,-8.922115375753492e-05,0.013233551755547523
481.0,858.0,-3.7208,3.9434,8.2528,-0.0492,0.029,-0.1243,-2.1278492412962855,-2.386675259913318e-05,4.02155876159668,-1.6801239252090454,0.03778116777539253,1.8629984855651855,-0.7194493573955079,-0.0001704087626421824,0.23500943183898926,-2.018376175557272,-0.0,0.023593859747052193,0.555955171585083,-0.0,0.0023067938163876534,1.0461453199386597,-0.00011047065345337614,0.07102009654045105
481.0,858.0,-3.7208,3.9434,8.2528,-0.0492,0.029,-0.1243,-2.1278492412962855,-2.2953719962970354e-05,3.9777584075927734,-1.6799073219299316,0.04398174583911896,1.844174861907959,-0.7194488805583497,-0.00018158488092012703,0.2393825501203537,-2.0183680693255823,-0.0,0.02650407701730728,0.5559590458869934,-0.0,0.00504285329952836,1.0461335182189941,-0.0007177439401857555,0.031893208622932434
481.0,858.0,-3.7208,3.9434,8.2528,-0.0492,0.029,-0.1243,-2.127853055993551,-2.2382873794413172e-05,4.003383159637451,-1.679760217666626,0.047105081379413605,1.8433761596679688,-0.719505564575531,-0.00017171409854199737,0.23819789290428162,-2.018383804951803,-0.0,0.023537512868642807,0.5559790730476379,-0.0,0.010585695505142212,1.0461535453796387,-0.0006717139622196555,0.07558661699295044
481.0,858.0,-3.7208,3.9434,8.2528,-0.0492,0.029,-0.1243,-2.1278773746886195,-2.183974902436603e-05,4.068446636199951,-1.6795036792755127,0.0524219274520874,1.871044397354126,-0.7194653314403077,-0.0001742641325108707,0.22656729817390442,-2.0183518568622034,-0.0,0.02388237975537777,0.5559471845626831,-0.0,0.0011200725566595793,1.0461009740829468,-0.0006334094796329737,0.005663847550749779
481.0,858.0,-3.7208,3.9434,8.2528,-0.0492,0.029,-0.1243,-2.1278816662230433,-2.1072715753689408e-05,3.9882802963256836,-1.679195523262024,0.056833114475011826,1.8910622596740723,-0.7194612783244629,-0.00017270342505071312,0.2416045367717743,-2.018383804951803,-0.0,0.02898474968969822,0.5559231638908386,-0.0,-0.0071380864828825,1.0461375713348389,-0.0005233961273916066,-0.003155728802084923
481.0,858.0,-3.7208,3.9434,8.2528,-0.0492,0.029,-0.1243,-2.127829214135641,-2.0590610802173615e-05,3.998732566833496,-1.6789196729660034,0.05953264608979225,1.886627435684204,-0.7195415061763306,-0.00016480020713061094,0.23575037717819214,-2.018376175557272,-0.0,0.02370704710483551,0.5559549331665039,-0.0,0.0008281749906018376,1.0461453199386597,-0.0005090532940812409,-0.008430949412286282
481.0,858.0,-3.7208,3.9434,8.2528,-0.0492,0.029,-0.1243,-2.127861639062399,-1.9907452951883897e-05,4.009896755218506,-1.6785197257995605,0.06615479290485382,1.9009320735931396,-0.7194451850703736,-0.00015421080752275884,0.22843992710113525,-2.018376175557272,-0.0,0.016241302713751793,0.555950939655304,-0.0,-0.004194759763777256,1.0461293458938599,-0.00039706681855022907,0.006328159943223
473.0,874.0,-3.8052,4.0205,8.321,-0.0386,0.0356,-0.1316,-2.127885480920309,-1.0499533686925133e-08,3.9957451820373535,-1.6782957315444946,0.07132014632225037,1.8926324844360352,-0.7194772523692627,-0.00014787627151235938,0.22116819024085999,-2.018411938344137,-0.0,0.0178779736161232,0.5559509992599487,-0.0,-0.005086683668196201,1.0461658239364624,-0.0004037407925352454,0.027175884693861008
473.0,874.0,-3.8052,4.0205,8.321,-0.0386,0.0356,-0.1316,-2.127857347527975,-1.889879095232083e-12,3.9445905685424805,-1.6779597997665405,0.07647480815649033,1.879392147064209,-0.7194535297206421,-0.00014204130275174975,0.23211199045181274,-2.018343750630514,-0.0,0.02933168224990368,0.5558953285217285,-0.0,0.015385018661618233,1.046205997467041,-0.00035794367431662977,0.024073943495750427
473.0,874.0,-3.8052,4.0205,8.321,-0.0386,0.0356,-0.1316,-2.127833505670065,-4.563835853682709e-18,4.010319232940674,-1.6774396896362305,0.08498480170965195,1.981999158859253,-0.719473199253418,-0.00013410455721896142,0.23378080129623413,-2.0183680693255823,-0.0,0.03097866103053093,0.5559230446815491,-0.0,0.014775638468563557,1.0461256504058838,-0.000349490437656641,0.047923747450113297
473.0,874.0,-3.8052,4.0205,8.321,-0.0386,0.0356,-0.1316,-2.127901693383688,-8.214743587961189e-22,4.011738300323486,-1.6771035194396973,0.09000308811664581,1.9430220127105713,-0.7194891732982178,-0.00013487145770341158,0.23162727057933807,-2.0183356443988245,-0.0,0.027547212317585945,0.5559751391410828,-0.0,0.005869428161531687,1.0461338758468628,-0.00031925918301567435,0.012136681005358696
473.0,874.0,-3.8052,4.0205,8.321,-0.0386,0.0356,-0.1316,-2.127836843530172,-1.4786246104900943e-25,3.9834165573120117,-1.6767351627349854,0.09462922066450119,1.9372053146362305,-0.719473199253418,-0.00013257756654638797,0.23261800408363342,-2.0183919111834925,-0.0,0.028544384986162186,0.5558953881263733,-0.0,-0.0044680386781692505,1.0460933446884155,-0.000247087242314592,0.043279074132442474
473.0,874.0,-3.8052,4.0205,8.321,-0.0386,0.0356,-0.1316,-2.127833505670065,-3.5707042095493163e-31,4.0210771560668945,-1.676192283630371,0.09673076868057251,1.9440503120422363,-0.7194892329028626,-0.00012183220678707585,0.23266038298606873,-2.018355671559469,-0.0,0.03205043822526932,0.5559191107749939,-0.0,0.006396300159394741,1.046109676361084,-0.0002969158813357353,0.01736515946686268
473.0,874.0,-3.8052,4.0205,8.321,-0.0386,0.0356,-0.1316,-2.1278535328307093,-6.427141062956223e-35,4.0111494064331055,-1.675771713256836,0.10136653482913971,1.9550445079803467,-0.7194813650897522,-0.00011557390098460019,0.22911792993545532,-2.018343750630514,-0.0,0.031914547085762024,0.555955171585083,-0.0,0.006592775695025921,1.0461297035217285,-0.00030998128931969404,-0.0070244744420051575
473.0,874.0,-3.8052,4.0205,8.321,-0.0386,0.0356,-0.1316,-2.1278535328307093,-1.5520781790861674e-40,3.9861268997192383,-1.6751431226730347,0.10975191742181778,2.014397382736206,-0.7194612783244629,-0.0001073055827873759,0.22687555849552155,-2.018376175557272,-0.0,0.0404866561293602,0.5559270977973938,-0.0,-0.006373767741024494,1.0461220741271973,-0.0005418697837740183,-0.039920467883348465
473.0,874.0,-3.8052,4.0205,8.321,-0.0386,0.0356,-0.1316,-2.1278897724547328,-2.802596928649634e-44,4.039708614349365,-1.6747076511383057,0.11679385602474213,1.9890248775482178,-0.7194453042796631,-0.00012220906501170248,0.2380138635635376,-2.018371884022848,-0.0,0.030801240354776382,0.5559430718421936,-0.0,-0.00011638132855296135,1.0460973978042603,-0.0005765993846580386,0.018290512263774872
473.0,874.0,-3.8052,4.0205,8.321,-0.0386,0.0356,-0.1316,-2.127829214135641,0.0,4.066997528076172,-1.6741836071014404,0.12420591711997986,2.0159389972686768,-0.7194608610919495,-0.00011755057494156063,0.23266267776489258,-2.0183356443988245,-0.0,0.03639054298400879,0.555950939655304,-0.0,-0.0005403379909694195,1.046117901802063,-0.0007015735027380288,-0.03276919946074486
473.0,874.0,-3.8052,4.0205,8.321,-0.0386,0.0356,-0.1316,-2.1279055080809535,0.0,4.035740375518799,-1.6734111309051514,0.13354800641536713,2.026127576828003,-0.7194370788386841,-0.00011034691851818934,0.22407010197639465,-2.0183356443988245,-0.0,0.03707459568977356,0.5559709668159485,-0.0,0.004314506892114878,1.046101450920105,-0.0007632180931977928,-0.022731952369213104
473.0,874.0,-3.8052,4.0205,8.321,-0.0386,0.0356,-0.1316,-2.1279055080809535,0.0,4.043167591094971,-1.672830581665039,0.13984054327011108,2.0351710319519043,-0.7195014518550416,-0.00012360479740891606,0.2277914583683014,-2.018351380025045,-0.0,0.04283023998141289,0.555950939655304,-0.0,-0.016860079020261765,1.0460891723632812,-0.0009039295255206525,-0.005722215864807367
473.0,874.0,-3.8052,4.0205,8.321,-0.0386,0.0356,-0.1316,-2.1278730831541957,0.0,4.084798812866211,-1.6722627878189087,0.14914999902248383,2.047218084335327,-0.7194608610919495,-0.00011900985555257648,0.22402477264404297,-2.0183356443988245,-0.0,0.0463494136929512,0.5559033155441284,-0.0,0.009272400289773941,1.046101450920105,-0.0009030994842760265,-0.04205750674009323
473.0,874.0,-3.8052,4.0205,8.321,-0.0386,0.0356,-0.1316,-2.127864976922506,0.0,4.057727336883545,-1.6712985038757324,0.15288780629634857,2.079599380493164,-0.719473199253418,-0.00012869862257502973,0.22789713740348816,-2.018331829701559,-0.0,0.04604385793209076,0.5559710264205933,-0.0,-0.0037650419399142265,1.0460647344589233,-0.0014636920532211661,-0.07030826807022095
473.0,874.0,-3.8052,4.0205,8.321,-0.0386,0.0356,-0.1316,-2.1278850040831507,-8.2938298874069e-05,4.06024169921875,-1.6707228422164917,0.15382440388202667,2.0455880165100098,-0.7194370788386841,-0.0001242734579136595,0.22479599714279175,-2.0183079878436487,-0.0,0.05956508219242096,0.5559549331665039,-0.0,-0.0008740887278690934,1.0460692644119263,-0.0018720895750448108,-0.062473081052303314
473.0,874.0,-3.8052,4.0205,8.321,-0.0386,0.0356,-0.1316,-2.1278892956175746,-6.846528413007036e-05,4.052680969238281,-1.6697826385498047,0.16276700794696808,2.0395798683166504,-0.7194448274425049,-0.00013571977615356445,0.22323788702487946,-2.0183475653277796,-0.0,0.038142167031764984,0.555962860584259,-0.0,-0.0007482417859137058,1.0460894107818604,-0.00215291790664196,-0.06622260063886642
473.0,874.0,-3.8052,4.0205,8.321,-0.0386,0.0356,-0.1316,-2.1278487644591273,-6.094077980378643e-05,4.036251544952393,-1.6690948009490967,0.17127938568592072,2.106438159942627,-0.7194972795299073,-0.00014433779870159924,0.22036778926849365,-2.018343750630514,-0.0,0.042952489107847214,0.5559032559394836,-0.0,0.005404864903539419,1.0460935831069946,-0.0020874510519206524,-0.11510787904262543
473.0,874.0,-3.8052,4.0205,8.321,-0.0386,0.0356,-0.1316,-2.1278892956175746,-5.894423520658165e-05,4.054901123046875,-1.6684138774871826,0.17802132666110992,2.071597099304199,-0.7194727820209046,-0.00013570536975748837,0.2235681116580963,-2.018331829701559,-0.0,0.031058814376592636,0.5559350848197937,-0.0,0.010436931625008583,1.046053409576416,-0.0021576799917966127,-0.10111892968416214
473.0,874.0,-3.8052,4.0205,8.321,-0.0386,0.0356,-0.1316,-2.127909322778219,-5.624231562251225e-05,4.064040184020996,-1.6673190593719482,0.19026531279087067,2.113515853881836,-0.719489113693573,-0.00014927850861568004,0.22732290625572205,-2.0183680693255823,-0.0,0.04843537136912346,0.5559389591217041,-0.0,0.0014575289096683264,1.046069622039795,-0.002252018777653575,-0.04847528040409088
474.0,859.0,-3.9966,3.9027,8.3862,-0.0568,0.1188,-0.1724,-2.1279455624022425,-0.00011308481043670326,4.059621810913086,-1.6664820909500122,0.19630999863147736,2.134594202041626,-0.7194932264140625,-0.00016428811068180948,0.21559709310531616,-2.0183356443988245,-0.0,0.04330883175134659,0.5559191703796387,-0.0,0.009691130369901657,1.0460739135742188,-0.0020245013292878866,-0.0949137806892395
474.0,859.0,-3.9966,3.9027,8.3862,-0.0568,0.1188,-0.1724,-2.127929826776022,-0.00017567981558386236,4.05828857421875,-1.6656978130340576,0.20012035965919495,2.140230655670166,-0.7194968622973938,-0.00015686747792642564,0.227883979678154,-2.018343750630514,-0.0,0.04517579451203346,0.5558993220329285,-0.0,0.0014916799264028668,1.0460537672042847,-0.0016452649142593145,-0.07713474333286285
474.0,859.0,-3.9966,3.9027,8.3862,-0.0568,0.1188,-0.1724,-2.127896925012106,-0.0001981917448574677,4.055097579956055,-1.6644980907440186,0.208257257938385,2.159989595413208,-0.7195612353137513,-0.00016710763156879693,0.2145305871963501,-2.018371884022848,-0.0,0.0486292727291584,0.5559310913085938,-0.0,0.006964243948459625,1.0460329055786133,-0.001245561521500349,-0.03774849325418472
474.0,859.0,-3.9966,3.9027,8.3862,-0.0568,0.1188,-0.1724,-2.1279336414732875,-0.00013416765432339162,4.083985805511475,-1.6636662483215332,0.21117720007896423,2.1558496952056885,-0.7195456188968201,-0.00032527619623579085,0.22182810306549072,-2.018388096486227,-0.0,0.038609933108091354,0.5558871030807495,-0.0,0.0027673705480992794,1.0460255146026611,-0.0011159556452184916,-0.08199478685855865
474.0,859.0,-3.9966,3.9027,8.3862,-0.0568,0.1188,-0.1724,-2.127929826776022,-0.0001553959446027875,4.038693904876709,-1.6623618602752686,0.2221524864435196,2.1640288829803467,-0.7195128363421937,-0.0003687431162688881,0.22603538632392883,-2.018376175557272,-0.0,0.03786147013306618,0.5559190511703491,-0.0,-0.00046410365030169487,1.0460342168807983,-0.0015489708166569471,-0.08315590023994446
474.0,859.0,-3.9966,3.9027,8.3862,-0.0568,0.1188,-0.1724,-2.12789311031484,-0.00030045947642065585,4.099794387817383,-1.66146981716156,0.23150604963302612,2.240588665008545,-0.7195374530604859,-0.0005615289555862546,0.20375794172286987,-2.0183594862567347,-0.0,0.04778541624546051,0.5559632182121277,-0.0,0.005978927947580814,1.0459853410720825,-0.001371166785247624,-0.047652874141931534
474.0,859.0,-3.9966,3.9027,8.3862,-0.0568,0.1188,-0.1724,-2.1278726063170375,-0.00033807838917709887,4.0978288650512695,-1.6605302095413208,0.23295989632606506,2.155120611190796,-0.7195853751948853,-0.0006504320190288126,0.21777725219726562,-2.018331829701559,-0.0,0.04222672060132027,0.5559350252151489,-0.0,0.0032847339753061533,1.0460418462753296,-0.00110726454295218,-0.06317923963069916
474.0,859.0,-3.9966,3.9027,8.3862,-0.0568,0.1188,-0.1724,-2.1279331646361292,-0.0003795525699388236,4.043595314025879,-1.659073829650879,0.23589344322681427,2.196885108947754,-0.7196091574481507,-0.0010518990457057953,0.20947006344795227,-2.018343750630514,-0.0,0.03941012918949127,0.5559112429618835,-0.0,0.007980424910783768,1.0460500717163086,-0.0007998608634807169,-0.06168418377637863
474.0,859.0,-3.9966,3.9027,8.3862,-0.0568,0.1188,-0.1724,-2.1279455624022425,-0.0005860298406332731,4.06838321685791,-1.6581263542175293,0.23963305354118347,2.2309885025024414,-0.7195648711970826,-0.0017522500129416585,0.21828430891036987,-2.0183118025409144,5.45757393410895e-05,0.048886217176914215,0.5559592247009277,-0.0,0.014281101524829865,1.0459972620010376,-0.0006378008401952684,-0.07847091555595398
474.0,859.0,-3.9966,3.9027,8.3862,-0.0568,0.1188,-0.1724,-2.1279574833311976,-0.0004724149766843766,4.0758891105651855,-1.6571182012557983,0.24671372771263123,2.2692995071411133,-0.7196616691401978,-0.00322086364030838,0.20737482607364655,-2.0183280150042933,8.844663534546271e-05,0.06254251301288605,0.5559270977973938,-0.0,0.004197129048407078,1.0459812879562378,-0.0005303682410158217,-0.04597236588597298
474.0,859.0,-3.9966,3.9027,8.3862,-0.0568,0.1188,-0.1724,-2.127965589562887,-0.00043095118599012494,4.058352947235107,-1.6556103229522705,0.254652202129364,2.2416954040527344,-0.7196648877910157,-0.02006554789841175,0.21147146821022034,-2.0183194319354456,8.36648468975909e-05,0.05296924710273743,0.5558953881263733,-0.0,0.008217418566346169,1.0460295677185059,-0.0004830219259019941,-0.026273827999830246
474.0,859.0,-3.9966,3.9027,8.3862,-0.0568,0.1188,-0.1724,-2.1279293499388636,-0.0004952566232532263,4.055133819580078,-1.6545825004577637,0.255939781665802,2.270012855529785,-0.7198413175395508,-0.040651191025972366,0.21251855790615082,-2.018331829701559,8.066535519901663e-05,0.04845638573169708,0.5558993220329285,-0.0,-0.0007711469661444426,1.046057939529419,-0.00042654722346924245,-0.06117534637451172
474.0,859.0,-3.9966,3.9027,8.3862,-0.0568,0.1188,-0.1724,-2.1279689274229945,-0.0012124559143558145,4.0785040855407715,-1.6529710292816162,0.2600363492965698,2.2733004093170166,-0.7201812428287049,-0.04406159371137619,0.18851853907108307,-2.0183280150042933,7.654875662410632e-05,0.05422741919755936,0.5559032559394836,-0.0,-0.011638469994068146,1.0460537672042847,-0.0003621719079092145,0.006532976403832436
474.0,859.0,-3.9966,3.9027,8.3862,-0.0568,0.1188,-0.1724,-2.127977510491842,-0.0014045888092368841,4.087170124053955,-1.6519314050674438,0.2663134038448334,2.266589403152466,-0.7202804845622559,-0.04202324151992798,0.17548686265945435,-2.0183799902545374,7.403007475659251e-05,0.05415578931570053,0.5558913946151733,-0.0,0.006845963653177023,1.046053409576416,-0.0003290642926003784,-0.07858678698539734
474.0,859.0,-3.9966,3.9027,8.3862,-0.0568,0.1188,-0.1724,-2.1280099354186,-0.001272464171051979,4.044906139373779,-1.6509480476379395,0.2712882161140442,2.314851760864258,-0.7204603117755433,-0.039707429707050323,0.19555456936359406,-2.0182998816119593,7.167190779000521e-05,0.05660314857959747,0.5559389591217041,-0.0,-0.00787727627903223,1.046013593673706,-0.0003015022084582597,-0.07027566432952881
474.0,859.0,-3.9966,3.9027,8.3862,-0.0568,0.1188,-0.1724,-2.1280256710448207,-0.001257684431038797,4.075824737548828,-1.6492159366607666,0.2715664803981781,2.276723623275757,-0.7207237643054505,-0.04266423359513283,0.19602608680725098,-2.018331829701559,8.20802160887979e-05,0.05636473745107651,0.5559430122375488,-0.0,0.000641487305983901,1.0460176467895508,-0.0002458705275785178,-0.06646180897951126
474.0,859.0,-3.9966,3.9027,8.3862,-0.0568,0.1188,-0.1724,-2.128017087975973,-0.002377074910327792,4.069804668426514,-1.6480960845947266,0.2742760479450226,2.273231267929077,-0.7208913129619141,-0.04996681213378906,0.1792743057012558,-2.0183356443988245,7.966232806211337e-05,0.046396587044000626,0.5559470057487488,-0.0,-0.01235605776309967,1.046041488647461,-0.00021814138744957745,-0.009273070842027664
474.0,859.0,-3.9966,3.9027,8.3862,-0.0568,0.1188,-0.1724,-2.1280132732787074,-0.003082286100834608,4.074968338012695,-1.646959662437439,0.2779064178466797,2.2931902408599854,-0.7211473745158692,-0.06405392289161682,0.17530421912670135,-2.018316094075338,7.737923442618921e-05,0.06512095779180527,0.5558910965919495,-0.0,-0.002768624806776643,1.0460574626922607,-0.00020401111396495253,-0.0725579708814621
474.0,859.0,-3.9966,3.9027,8.3862,-0.0568,0.1188,-0.1724,-2.128049989739889,-0.0028269467875361443,4.071666717529297,-1.6452641487121582,0.2822619080543518,2.3088810443878174,-0.7216622990420838,-0.09845002740621567,0.16065829992294312,-2.018331829701559,7.418999302899465e-05,0.0525052547454834,0.5559909343719482,-0.0,-0.007183697074651718,1.0460697412490845,-0.00018594654102344066,-0.03861745446920395
382.0,874.0,-4.014,4.0989,8.4042,-0.0657,0.2321,-0.228,-2.1280533275999964,-0.0021471818909049034,4.082180500030518,-1.6441569328308105,0.28318026661872864,2.3577609062194824,-0.7221468251994629,-0.1253519505262375,0.14984233677387238,-2.0183280150042933,7.220589759526774e-05,0.04323165863752365,0.5559710264205933,-0.0,-0.0010728008346632123,1.0460011959075928,-0.00017558163381181657,-0.10038037598133087
382.0,874.0,-4.014,4.0989,8.4042,-0.0657,0.2321,-0.228,-2.1280375919737757,-0.001223971601575613,4.102607727050781,-1.6424206495285034,0.29106032848358154,2.3664679527282715,-0.7230191391757508,-0.14962545037269592,0.1417999118566513,-2.0183280150042933,6.94211630616337e-05,0.05691959708929062,0.5559592247009277,-0.0,0.009952807798981667,1.046005368232727,-0.0001620337861822918,0.012442703358829021
382.0,874.0,-4.014,4.0989,8.4042,-0.0657,0.2321,-0.228,-2.1280814609923304,-0.0007115200278349221,4.096267223358154,-1.6412888765335083,0.2944736182689667,2.388502597808838,-0.7236474317363282,-0.15729062259197235,0.13177213072776794,-2.018303696309225,6.768097227904946e-05,0.04668514430522919,0.5559592247009277,-0.0,0.006463378667831421,1.046033263206482,-0.00015410661580972373,-0.012572492472827435
382.0,874.0,-4.014,4.0989,8.4042,-0.0657,0.2321,-0.228,-2.128073831597799,-0.0008242185576818883,4.10477876663208,-1.6401537656784058,0.2964273989200592,2.367262363433838,-0.7242840093425293,-0.1600813865661621,0.13819381594657898,-2.0182998816119593,6.602591747650877e-05,0.04379668086767197,0.5559671521186829,-0.0,-0.004533188883215189,1.0460857152938843,-0.00014724480570293963,-0.0432889498770237
382.0,874.0,-4.014,4.0989,8.4042,-0.0657,0.2321,-0.228,-2.1280890903868617,-0.0026243021711707115,4.06480598449707,-1.6383460760116577,0.29454708099365234,2.324749231338501,-0.7253320974162598,-0.18625886738300323,0.11825824528932571,-2.018319908772604,6.368973845383152e-05,0.04667367413640022,0.5559231638908386,-0.0,-0.007526350673288107,1.0460171699523926,-4.1763760236790404e-05,-0.04985344409942627
382.0,874.0,-4.014,4.0989,8.4042,-0.0657,0.2321,-0.228,-2.1281377277769984,-0.0035295186098665,4.081918239593506,-1.6371217966079712,0.29994073510169983,2.3367090225219727,-0.7261207860759278,-0.21004295349121094,0.11882750689983368,-2.0183399359332483,6.091609611758031e-05,0.04178716242313385,0.5558953881263733,-0.0,0.002413347130641341,1.046033263206482,-3.991144330939278e-05,-0.059033434838056564
382.0,874.0,-4.014,4.0989,8.4042,-0.0657,0.2321,-0.228,-2.1281496487059535,-0.0034368119668215513,4.07211446762085,-1.6359786987304688,0.3043319880962372,2.387223243713379,-0.7271097463420411,-0.22876965999603271,0.0950261801481247,-2.0183280150042933,5.1347498811082914e-05,0.060914523899555206,0.5559310913085938,-0.0,-0.00016696332022547722,1.046033263206482,-3.821668360615149e-05,-0.0035125180147588253
382.0,874.0,-4.014,4.0989,8.4042,-0.0657,0.2321,-0.228,-2.128141542474264,-0.0031747545581310987,4.059184551239014,-1.6341062784194946,0.3008009195327759,2.336543083190918,-0.7285464566997071,-0.2572154402732849,0.08840180933475494,-2.0183118025409144,1.6406684153480455e-06,0.0377950519323349,0.5559033155441284,-0.0,0.0010391424875706434,1.0460374355316162,-3.592827488319017e-05,-0.0009849835187196732
382.0,874.0,-4.014,4.0989,8.4042,-0.0657,0.2321,-0.228,-2.128181596795553,-0.0030928582418709993,4.058694839477539,-1.6328904628753662,0.30289193987846375,2.3426270484924316,-0.7296192807010193,-0.2920030355453491,0.06224805489182472,-2.0182998816119593,6.994426815509769e-09,0.03488262742757797,0.5558433532714844,-0.0,-0.011033209972083569,1.0460774898529053,-3.4549051633803174e-05,0.02960037998855114
382.0,874.0,-4.014,4.0989,8.4042,-0.0657,0.2321,-0.228,-2.128197809258932,-0.002752578817307949,4.042919635772705,-1.6310712099075317,0.31208235025405884,2.4038219451904297,-0.7315845054439087,-0.31513160467147827,0.06090100109577179,-2.0182998816119593,1.946924392537408e-12,0.04718754440546036,0.5559390187263489,-0.0,-0.004125507082790136,1.0460615158081055,-1.633413921808824e-05,-0.0125169912353158
382.0,874.0,-4.014,4.0989,8.4042,-0.0657,0.2321,-0.228,-2.1281773052611292,-0.0021699785720556974,4.107465744018555,-1.629886507987976,0.3140166699886322,2.3978099822998047,-0.7328646940043946,-0.3435395359992981,0.03629227355122566,-2.0183356443988245,8.300043662892893e-15,0.05526789277791977,0.5559588670730591,-0.0,0.00494208000600338,1.04604971408844,-1.57618778757751e-05,-0.007758302614092827
382.0,874.0,-4.014,4.0989,8.4042,-0.0657,0.2321,-0.228,-2.1281854114928187,-0.002126011997461319,4.092522621154785,-1.6286592483520508,0.30781006813049316,2.4142801761627197,-0.7342937153628846,-0.3642691373825073,0.018829908221960068,-2.018331829701559,3.538438778124212e-17,0.03138381242752075,0.5558992624282837,-0.0,0.012063242495059967,1.046053409576416,-1.5228494703478646e-05,0.03386281430721283
382.0,874.0,-4.014,4.0989,8.4042,-0.0657,0.2321,-0.228,-2.1282254658141078,-0.004135171417146921,4.086500644683838,-1.6267156600952148,0.3067700266838074,2.4185097217559814,-0.7366510194591065,-0.41215384006500244,0.015575851313769817,-2.01829177538027,9.849372839607447e-21,0.03866182267665863,0.5559430122375488,-0.0,0.007611277047544718,1.0460374355316162,-1.449282262910856e-05,-0.028191838413476944
382.0,874.0,-4.014,4.0989,8.4042,-0.0657,0.2321,-0.228,-2.128293653527731,-0.005219342187047005,4.062405586242676,-1.6255322694778442,0.31113728880882263,2.392136335372925,-0.738513247375824,-0.43191879987716675,0.0001218478282680735,-2.0183356443988245,4.198942199878798e-23,0.05536840856075287,0.5559152364730835,-0.0,-0.0001625556033104658,1.0460011959075928,-1.4040640053281095e-05,-0.035199716687202454
382.0,874.0,-4.014,4.0989,8.4042,-0.0657,0.2321,-0.228,-2.128277441064352,-0.004959863144904375,4.063182830810547,-1.624231219291687,0.311481773853302,2.4322729110717773,-0.7402930420688172,-0.4650771915912628,-0.006852388381958008,-2.018331829701559,1.7900745379613691e-25,0.04996536672115326,0.5559112429618835,-0.0,0.006879482418298721,1.0460094213485718,-1.361580962111475e-05,-0.047576505690813065
382.0,874.0,-4.014,4.0989,8.4042,-0.0657,0.2321,-0.228,-2.12833370784902,-0.003837208030745387,4.122002601623535,-1.622392177581787,0.3048265278339386,2.4190969467163086,-0.7432030600360413,-0.5022867918014526,-0.045397475361824036,-2.0183714071856897,4.9827391696553675e-29,0.04918824881315231,0.5559191703796387,-0.0,-0.0037434466648846865,1.0460615158081055,-1.3024687177676242e-05,-0.00817565806210041
382.0,874.0,-4.014,4.0989,8.4042,-0.0657,0.2321,-0.228,-2.128346105615133,-0.0033518741838634014,4.133576393127441,-1.6211246252059937,0.30539578199386597,2.457521915435791,-0.7453325551799317,-0.5265809893608093,-0.02936020866036415,-2.018275562916891,2.1242200897466547e-31,0.05855301767587662,0.555931031703949,-0.0,-0.0014190047513693571,1.0460011959075928,-1.2658307241508737e-05,-0.03638671338558197
382.0,874.0,-4.014,4.0989,8.4042,-0.0657,0.2321,-0.228,-2.12835754970693,-0.00298091652803123,4.054136276245117,-1.6192766427993774,0.31163290143013,2.4333133697509766,-0.7484743756106873,-0.563040554523468,-0.03133866935968399,-2.018287483845846,5.912845639287794e-35,0.06769596040248871,0.5559152364730835,-0.0,-0.009374591521918774,1.0460697412490845,-1.2145839718868956e-05,-0.07185767590999603
382.0,874.0,-4.014,4.0989,8.4042,-0.0657,0.2321,-0.228,-2.1283089123167933,-0.0024956476408988237,4.075099945068359,-1.6180449724197388,0.30980080366134644,2.411442995071411,-0.7508831781199952,-0.594609797000885,-0.04529194533824921,-2.018287483845846,6.284541450440884e-05,0.069936603307724,0.5559033155441284,-0.0,0.00779250543564558,1.0460898876190186,-2.227432378276717e-05,-0.05309097841382027
321.0,755.0,-4.0588,3.9374,7.6636,-0.0159,0.0446,-0.1912,-2.1283656559386195,-0.00200979458168149,4.147585868835449,-1.6168256998062134,0.30685505270957947,2.398754119873047,-0.7533045572093506,-0.613567590713501,-0.045613326132297516,-2.0183280150042933,6.332895281957462e-05,0.059647463262081146,0.5558792352676392,-0.0,0.010723941028118134,1.0460574626922607,-2.3047305148793384e-05,-0.04474671557545662
321.0,755.0,-4.0588,3.9374,7.6636,-0.0159,0.0446,-0.1912,-2.128401895562643,-0.002306601731106639,4.132833480834961,-1.6149542331695557,0.3098122477531433,2.4226198196411133,-0.7570495766452332,-0.6452046632766724,-0.05104471370577812,-2.0183079878436487,6.0772672441089526e-05,0.06704411655664444,0.5559350252151489,-0.0,0.015911612659692764,1.0460894107818604,-2.2195003111846745e-05,-0.08985987305641174
321.0,755.0,-4.0588,3.9374,7.6636,-0.0159,0.0446,-0.1912,-2.1283771000304164,-0.0032339217141270638,4.084799766540527,-1.6137909889221191,0.3095882833003998,2.4331724643707275,-0.7596075099757691,-0.6622160077095032,-0.02677793800830841,-2.0183079878436487,5.917440648772754e-05,0.0560341402888298,0.5559548735618591,-0.0,0.005953063257038593,1.0460857152938843,-2.1660845959559083e-05,-0.07902903109788895
321.0,755.0,-4.0588,3.9374,7.6636,-0.0159,0.0446,-0.1912,-2.128385683099264,-0.0036475462839007378,4.128072261810303,-1.612542986869812,0.31070050597190857,2.412168025970459,-0.762284592991211,-0.6788216233253479,-0.023865191265940666,-2.018319908772604,6.880277214804664e-05,0.05251862481236458,0.5559072494506836,-0.0,-0.007203100249171257,1.0460214614868164,-2.115177812811453e-05,-0.12979021668434143
321.0,755.0,-4.0588,3.9374,7.6636,-0.0159,0.0446,-0.1912,-2.128397604028219,-0.0035163797438144684,4.1410932540893555,-1.6107110977172852,0.31075403094291687,2.4649033546447754,-0.7665480536273499,-0.6990628242492676,-0.017233043909072876,-2.018348042164938,6.662837404292077e-05,0.04971115663647652,0.5559430122375488,-0.0,-0.004750644322484732,1.0460213422775269,-3.064704287680797e-05,-0.1215115636587143
321.0,755.0,-4.0588,3.9374,7.6636,-0.0159,0.0446,-0.1912,-2.128465791741842,-0.0033235508017241955,4.1401166915893555,-1.6094305515289307,0.31112971901893616,2.418356418609619,-0.7693163913539429,-0.719787061214447,-0.0250004380941391,-2.018304173146383,7.581387762911618e-05,0.07159166038036346,0.5559430122375488,-0.0,0.004902672488242388,1.0460255146026611,-2.9966991860419512e-05,-0.12927445769309998
321.0,755.0,-4.0588,3.9374,7.6636,-0.0159,0.0446,-0.1912,-2.128505846063131,-0.0056496961042284966,4.144761085510254,-1.6076154708862305,0.3070164918899536,2.4672958850860596,-0.7737832826427002,-0.7429136037826538,-0.03485479578375816,-2.018316094075338,8.332554716616869e-05,0.0634031742811203,0.5559271574020386,-0.0,-0.004168231040239334,1.046033263206482,-6.213261571907935e-10,-0.12811864912509918
321.0,755.0,-4.0588,3.9374,7.6636,-0.0159,0.0446,-0.1912,-2.128505846063131,-0.0071175601333379745,4.1601152420043945,-1.6064881086349487,0.30990371108055115,2.447460412979126,-0.7767127317241211,-0.7520898580551147,-0.021521782502532005,-2.018303696309225,8.185797923943028e-05,0.07552498579025269,0.5559113025665283,-0.0,-0.0019386650528758764,1.0460574626922607,-1.1183651796526153e-13,-0.1220184713602066
321.0,755.0,-4.0588,3.9374,7.6636,-0.0159,0.0446,-0.1912,-2.1285740337767542,-0.00796073954552412,4.139972686767578,-1.605211853981018,0.3113422691822052,2.5162389278411865,-0.7797526282123108,-0.7679880857467651,-0.03618931397795677,-2.0182955900775355,0.00020443758694455028,0.06694784015417099,0.5559430718421936,-0.0,0.012712341733276844,1.0460774898529053,-2.0130178051584326e-17,-0.16503313183784485
321.0,755.0,-4.0588,3.9374,7.6636,-0.0159,0.0446,-0.1912,-2.1285935841002406,-0.008527782745659351,4.153338432312012,-1.6033604145050049,0.3083360195159912,2.4640674591064453,-0.7844527524760743,-0.7784454822540283,-0.03707578778266907,-2.0182679335223597,0.00021641951752826571,0.07931176573038101,0.5559350252151489,-0.0,0.0021641338244080544,1.0460492372512817,-4.861201027231424e-23,-0.14729043841362
321.0,755.0,-4.0588,3.9374,7.6636,-0.0159,0.0446,-0.1912,-2.1286260090269984,-0.008678787387907505,4.201623916625977,-1.602100133895874,0.30675819516181946,2.4916741847991943,-0.7874770325473328,-0.7797608375549316,-0.038581009954214096,-2.01825982729067,0.0002336399193154648,0.0759551152586937,0.5558950901031494,-0.0,-0.01337641105055809,1.0460492372512817,-8.749990464301042e-27,-0.1626877784729004
321.0,755.0,-4.0588,3.9374,7.6636,-0.0159,0.0446,-0.1912,-2.128629346887106,-0.008397379890084267,4.1251935958862305,-1.6008884906768799,0.31214332580566406,2.4503493309020996,-0.7906042498401185,-0.7802790403366089,-0.020746763795614243,-2.018292252217428,0.00024844991276040673,0.06754625588655472,0.5558592677116394,-0.0,-0.01542389951646328,1.0460455417633057,-2.804483665386215e-05,-0.1888435184955597
321.0,755.0,-4.0588,3.9374,7.6636,-0.0159,0.0446,-0.1912,-2.1287180385985316,-0.006605494301766157,4.224163055419922,-1.5990163087844849,0.3171376585960388,2.480445146560669,-0.7952110332301636,-0.7779416441917419,-0.0006488573271781206,-2.0182717482196253,0.00044749147491529584,0.07251372933387756,0.5558950901031494,-0.0,0.0060537634417414665,1.0460374355316162,-6.66257255943492e-05,-0.21887126564979553
321.0,755.0,-4.0588,3.9374,7.6636,-0.0159,0.0446,-0.1912,-2.1287299595274867,-0.006188330240547657,4.211249351501465,-1.5978176593780518,0.3112603724002838,2.4531986713409424,-0.7983085078052063,-0.7712434530258179,-0.01781344786286354,-2.0182674566852015,0.0004354580014478415,0.07145772874355316,0.5558950901031494,-0.0,-0.002921714913100004,1.0460213422775269,-0.001149724586866796,-0.2627083957195282
321.0,755.0,-4.0588,3.9374,7.6636,-0.0159,0.0446,-0.1912,-2.128773351708883,-0.007134591694921255,4.195409774780273,-1.5959293842315674,0.30829912424087524,2.417130708694458,-0.8028505605510254,-0.7606164813041687,-0.006526552140712738,-2.018247906361715,0.00042453850619494915,0.0799252837896347,0.555946946144104,-0.0,-0.008511999621987343,1.0460255146026611,-0.0014059714740142226,-0.22178217768669128
321.0,755.0,-4.0588,3.9374,7.6636,-0.0159,0.0446,-0.1912,-2.12884583095693,-0.00902353972196579,4.248184680938721,-1.594666838645935,0.31058362126350403,2.443898916244507,-0.8058384221843262,-0.7471559643745422,-0.005094108637422323,-2.01825982729067,0.0004645279550459236,0.08140073716640472,0.5559231042861938,-0.0,-0.006431214511394501,1.0460820198059082,-0.0011871270835399628,-0.28624194860458374
321.0,755.0,-4.0588,3.9374,7.6636,-0.0159,0.0446,-0.1912,-2.1288539371886195,-0.010914153419435024,4.228899002075195,-1.593461275100708,0.3095143735408783,2.501631736755371,-0.808691994552948,-0.7241103053092957,-0.004811888560652733,-2.01825982729067,0.0003959133755415678,0.08731319010257721,0.555859386920929,-0.0,-0.0222479198127985,1.0460336208343506,-0.001128914300352335,-0.3080093264579773
321.0,755.0,-4.0588,3.9374,7.6636,-0.0159,0.0446,-0.1912,-2.128914018670553,-0.013207615353167057,4.184743404388428,-1.5916002988815308,0.3012605905532837,2.454360246658325,-0.8128874462893982,-0.7042262554168701,-0.004534559324383736,-2.0182798544513147,0.0003132228448521346,0.08286885172128677,0.5558751821517944,-0.0,-0.017393888905644417,1.0460176467895508,-0.0011802447261288762,-0.3314427137374878
287.0,771.0,-3.7729,3.6485,7.9472,0.0441,-0.3826,0.0069,-2.1290465794005335,-0.015109366737306118,4.222586154937744,-1.590378761291504,0.2973349690437317,2.486055374145508,-0.8156803411296387,-0.6767755150794983,0.01826256699860096,-2.0182841459857386,0.00032939325319603086,0.10429050028324127,0.5558871030807495,-8.766655668068779e-08,-0.0209331177175045,1.0459972620010376,-0.001404795330017805,-0.31245481967926025
287.0,771.0,-3.7729,3.6485,7.9472,0.0441,-0.3826,0.0069,-2.1290298900999964,-0.015992550179362297,4.229310035705566,-1.5892372131347656,0.29976165294647217,2.475588083267212,-0.8183248800090333,-0.6489053964614868,0.015772562474012375,-2.0182398001300257,0.0002939737169072032,0.07576366513967514,0.5558431148529053,-3.737362919142839e-10,-0.017081717029213905,1.0459848642349243,-0.0011655698763206601,-0.3088827431201935
287.0,771.0,-3.7729,3.6485,7.9472,0.0441,-0.3826,0.0069,-2.1291901073851527,-0.016005797311663628,4.187356472015381,-1.5874403715133667,0.2955248951911926,2.45609188079834,-0.8220378917506714,-0.6130213141441345,0.012149217538535595,-2.0182679335223597,0.00025269214529544115,0.09553350508213043,0.5559192299842834,-1.040308789633515e-13,-0.01596076600253582,1.0459930896759033,-0.0012011474464088678,-0.35563698410987854
287.0,771.0,-3.7729,3.6485,7.9472,0.0441,-0.3826,0.0069,-2.129226347009176,-0.015791388228535652,4.253008842468262,-1.586238145828247,0.29057198762893677,2.4347474575042725,-0.8244291108897706,-0.5864361524581909,0.04084449261426926,-2.0183075110064905,0.0002692216949071735,0.0928739607334137,0.5558990240097046,-4.4350001902590845e-16,-0.032449327409267426,1.0460255146026611,-0.0012588822282850742,-0.3091476261615753
287.0,771.0,-3.7729,3.6485,7.9472,0.0441,-0.3826,0.0069,-2.1293260059752406,-0.016906173899769783,4.236320495605469,-1.584497332572937,0.2885357737541199,2.429642677307129,-0.8277097505382081,-0.5390881896018982,0.03852265328168869,-2.0182440916644495,0.00023889973817858845,0.09083080291748047,0.5559030175209045,-1.2344986925878875e-19,-0.0364251434803009,1.0460214614868164,-0.000870538700837642,-0.3764951229095459
287.0,771.0,-3.7729,3.6485,7.9472,0.0441,-0.3826,0.0069,-2.1294027767577113,-0.018420958891510963,4.226625442504883,-1.583351969718933,0.28932467103004456,2.487011194229126,-0.8297992509654541,-0.5135416984558105,0.026386791840195656,-2.018292252217428,0.000222055779886432,0.08262700587511063,0.5558592677116394,-5.262860916721737e-22,-0.03698113560676575,1.0460495948791504,-0.0006274360348470509,-0.35452979803085327
287.0,771.0,-3.7729,3.6485,7.9472,0.0441,-0.3826,0.0069,-2.1295024357237757,-0.019063090905547142,4.242464065551758,-1.5821737051010132,0.28379395604133606,2.4132649898529053,-0.8318097156337281,-0.4847467541694641,0.034544747322797775,-2.0182398001300257,0.0002074314106721431,0.08915793895721436,0.5558434724807739,-2.2436399268756986e-24,-0.02059853821992874,1.046013593673706,-0.0005886178114451468,-0.3669755160808563
287.0,771.0,-3.7729,3.6485,7.9472,0.0441,-0.3826,0.0069,-2.1296264133849085,-0.02074699103832245,4.243312358856201,-1.5805245637893677,0.2809808850288391,2.450068950653076,-0.8345806759646912,-0.44355306029319763,0.05735790356993675,-2.0182517210589808,0.0001887820690171793,0.09436535835266113,0.555855393409729,-6.245253475193322e-28,-0.04315613582730293,1.0460013151168823,-0.0005174046964384615,-0.35516560077667236
287.0,771.0,-3.7729,3.6485,7.9472,0.0441,-0.3826,0.0069,-2.1297103367247523,-0.023090951144695282,4.194888114929199,-1.5793585777282715,0.2809801697731018,2.4359331130981445,-0.836211697464325,-0.4140879511833191,0.08182835578918457,-2.018292252217428,0.00017810707504395396,0.0823557898402214,0.5558593273162842,-2.6624493775503135e-30,-0.035598915070295334,1.046053409576416,-0.0004444251535460353,-0.3912704586982727
287.0,771.0,-3.7729,3.6485,7.9472,0.0441,-0.3826,0.0069,-2.129810472527975,-0.0254666730761528,4.248230457305908,-1.5783133506774902,0.278416246175766,2.446220636367798,-0.8377092641643067,-0.37089288234710693,0.09068595618009567,-2.0182798544513147,0.0001685748138697818,0.07755791395902634,0.5558193325996399,-1.1350438269689664e-32,-0.047270964831113815,1.0460258722305298,-0.0004450078122317791,-0.4239538311958313
287.0,771.0,-3.7729,3.6485,7.9472,0.0441,-0.3826,0.0069,-2.130002637902731,-0.032138243317604065,4.199373245239258,-1.5766432285308838,0.26766732335090637,2.4046592712402344,-0.8397267621806641,-0.330343633890152,0.11408062279224396,-2.0182440916644495,0.0001560476521262899,0.09676413983106613,0.5558112859725952,-0.0001589769235579297,-0.0460251048207283,1.0459972620010376,-0.00029389330302365124,-0.35419726371765137
287.0,771.0,-3.7729,3.6485,7.9472,0.0441,-0.3826,0.0069,-2.130118509332174,-0.034773241728544235,4.2038726806640625,-1.5755925178527832,0.26491469144821167,2.460777521133423,-0.8409179014018555,-0.28858959674835205,0.13880611956119537,-2.0182841459857386,0.00014868170546833426,0.09152878820896149,0.5558352470397949,-0.00016935744497459382,-0.031184202060103416,1.0460176467895508,-0.00025137112243101,-0.43150341510772705
287.0,771.0,-3.7729,3.6485,7.9472,0.0441,-0.3826,0.0069,-2.1303588352599085,-0.04116365686058998,4.195370674133301,-1.5740398168563843,0.2664107084274292,2.418660879135132,-0.8424871128848572,-0.22878344357013702,0.14858931303024292,-2.0182321707354944,0.00013885046064388007,0.09322161972522736,0.5558633804321289,-0.00015225734387058765,-0.05418560281395912,1.0460095405578613,-0.00025834524421952665,-0.4193539619445801
287.0,771.0,-3.7729,3.6485,7.9472,0.0441,-0.3826,0.0069,-2.1305753193297328,-0.04468834400177002,4.1879472732543945,-1.5729013681411743,0.26235130429267883,2.4694957733154297,-0.8432383698276062,-0.19470645487308502,0.17692549526691437,-2.018287960683004,0.00013298826524987817,0.09511831402778625,0.5558751821517944,-0.00016735331155359745,-0.046102385967969894,1.0460054874420166,-0.0002750155399553478,-0.4743865430355072
287.0,771.0,-3.7729,3.6485,7.9472,0.0441,-0.3826,0.0069,-2.1307431660094203,-0.049400366842746735,4.191988945007324,-1.5718882083892822,0.2565257251262665,2.467658281326294,-0.8438243430903931,-0.14801697432994843,0.1961326003074646,-2.0182555357562464,0.00013656806549988687,0.07098926603794098,0.55581134557724,-0.0001609103346709162,-0.036916911602020264,1.0459930896759033,-0.0002901063999161124,-0.41768521070480347
287.0,771.0,-3.7729,3.6485,7.9472,0.0441,-0.3826,0.0069,-2.131047864953512,-0.05623560771346092,4.150834560394287,-1.5703634023666382,0.25773492455482483,2.42459774017334,-0.8444430989078064,-0.06478149443864822,0.23557603359222412,-2.0182398001300257,0.00013747358752880245,0.08119910210371017,0.5558751821517944,-0.0001477188488934189,-0.04613640159368515,1.0460013151168823,-0.0005039260140620172,-0.4035797119140625
287.0,771.0,-3.7729,3.6485,7.9472,0.0441,-0.3826,0.0069,-2.1312557659544886,-0.06077535077929497,4.200420379638672,-1.5693604946136475,0.2595425248146057,2.422761917114258,-0.844671444301941,-0.01614297181367874,0.2686797082424164,-2.0182440916644495,0.0001324192271567881,0.09326985478401184,0.55584317445755,-0.0001400557957822457,-0.04641009122133255,1.0459932088851929,-0.000845406437292695,-0.4129239618778229
287.0,771.0,-3.7729,3.6485,7.9472,0.0441,-0.3826,0.0069,-2.1315156422057093,-0.06523870676755905,4.179350852966309,-1.5683790445327759,0.26026350259780884,2.464779853820801,-0.844530002479889,0.024995265528559685,0.2855951488018036,-2.018263641987936,0.00012772121408488601,0.08676768839359283,0.5558990240097046,-0.0001552404573885724,-0.035209108144044876,1.0460054874420166,-0.0010124645195901394,-0.4311509132385254
287.0,771.0,-3.7729,3.6485,7.9472,0.0441,-0.3826,0.0069,-2.131996294061178,-0.0749770998954773,4.131505489349365,-1.5667452812194824,0.25049930810928345,2.3997256755828857,-0.8443181079677125,0.06571152061223984,0.3101300597190857,-2.01825982729067,0.00012126757792429999,0.10523951053619385,0.5559029579162598,-0.00014464015839621425,-0.05130326375365257,1.046021819114685,-0.0015692622400820255,-0.43423762917518616
280.0,824.0,-1.986,4.0247,8.1087,0.0134,-0.1863,-0.0425,-2.1323253117003382,-0.08400002121925354,4.233333587646484,-1.565787672996521,0.2472076416015625,2.4580788612365723,-0.8440662187388916,0.08519627898931503,0.30355778336524963,-2.0182679335223597,8.660608727950603e-05,0.08716094493865967,0.5558712482452393,-0.00013828981900587678,-0.038887158036231995,1.045965313911438,-0.0015470775542780757,-0.4134766161441803
280.0,824.0,-1.986,4.0247,8.1087,0.0134,-0.1863,-0.0425,-2.132792135278219,-0.0899762436747551,4.174915790557861,-1.5642821788787842,0.24701371788978577,2.4706692695617676,-0.843639151459076,0.09362319111824036,0.31833726167678833,-2.018247906361715,8.092672942439094e-05,0.09037858247756958,0.5558633804321289,-0.00012974566197954118,-0.041867826133966446,1.0459976196289062,-0.0015886824112385511,-0.4911620616912842
280.0,824.0,-1.986,4.0247,8.1087,0.0134,-0.1863,-0.0425,-2.1332293949522914,-0.0909794270992279,4.139927864074707,-1.5632797479629517,0.24313849210739136,2.4365482330322266,-0.8432391446879883,0.08743582665920258,0.32773399353027344,-2.0182717482196253,7.81167545937933e-05,0.11184439808130264,0.5558910369873047,-0.00012461275036912411,-0.048498522490262985,1.045973539352417,-0.0022014083806425333,-0.4694993793964386
280.0,824.0,-1.986,4.0247,8.1087,0.0134,-0.1863,-0.0425,-2.1335650883116664,-0.08917786180973053,4.182205677032471,-1.5623133182525635,0.24079468846321106,2.4300730228424072,-0.8429316443255921,0.07319720089435577,0.31383413076400757,-2.01823598543276,7.549561996711418e-05,0.09372353553771973,0.555855393409729,-0.00011987063771812245,-0.04903643578290939,1.045945644378662,-0.0030613511335104704,-0.45369458198547363
280.0,824.0,-1.986,4.0247,8.1087,0.0134,-0.1863,-0.0425,-2.1340533695616664,-0.08463228493928909,4.240814208984375,-1.5608197450637817,0.23293575644493103,2.3935294151306152,-0.842692570095398,0.044073641300201416,0.31773194670677185,-2.0182679335223597,8.619020081823692e-05,0.1016363576054573,0.5558751821517944,-0.000113397698441986,-0.03360036388039589,1.045925498008728,-0.004918800201267004,-0.5235823392868042
280.0,824.0,-1.986,4.0247,8.1087,0.0134,-0.1863,-0.0425,-2.1345025501646937,-0.08335195481777191,4.181047439575195,-1.5599498748779297,0.22980494797229767,2.435868501663208,-0.8424599331668396,0.022582504898309708,0.3150280714035034,-2.018247906361715,8.358313061762601e-05,0.10613416135311127,0.5559069514274597,-0.0001094571707653813,-0.03839479386806488,1.0459010601043701,-0.005072828382253647,-0.5190751552581787
280.0,824.0,-1.986,4.0247,8.1087,0.0134,-0.1863,-0.0425,-2.134773393670553,-0.08500795811414719,4.176358699798584,-1.559051513671875,0.2241569310426712,2.427478790283203,-0.8425048154643555,0.003541861427947879,0.28784579038619995,-2.0182836691485804,8.107360190479085e-05,0.10168766230344772,0.555827260017395,-0.00010578137153061107,-0.04724058136343956,1.045877456665039,-0.006175019778311253,-0.46544915437698364
280.0,824.0,-1.986,4.0247,8.1087,0.0134,-0.1863,-0.0425,-2.1353260479369105,-0.08682914823293686,4.245561599731445,-1.5576941967010498,0.2177032083272934,2.435767650604248,-0.8425690096667786,-0.020295489579439163,0.2778541147708893,-2.018263641987936,7.757933053653687e-05,0.10755027830600739,0.5558831691741943,-0.00010070839925901964,-0.04489675164222717,1.0458656549453735,-0.007016749121248722,-0.47458380460739136
280.0,824.0,-1.986,4.0247,8.1087,0.0134,-0.1863,-0.0425,-2.135658403436178,-0.08962775766849518,4.232841968536377,-1.556819200515747,0.21089524030685425,2.4019763469696045,-0.8427254122546692,-0.025355221703648567,0.2658243775367737,-2.018247906361715,8.776711911195889e-05,0.10255841165781021,0.5558673143386841,-9.758838859852403e-05,-0.026777205988764763,1.0457929372787476,-0.008971798233687878,-0.45021042227745056
280.0,824.0,-1.986,4.0247,8.1087,0.0134,-0.1863,-0.0425,-2.1361705265440882,-0.09227427840232849,4.232119083404541,-1.5555905103683472,0.20335237681865692,2.439908742904663,-0.8427405518344422,-0.02347850799560547,0.27101391553878784,-2.01825982729067,8.444343256996945e-05,0.09887602180242538,0.5558392405509949,-9.325480641564354e-05,-0.051057226955890656,1.045737385749817,-0.011237507686018944,-0.45614057779312134
280.0,824.0,-1.986,4.0247,8.1087,0.0134,-0.1863,-0.0425,-2.1365391216673792,-0.09183990955352783,4.1837921142578125,-1.554738998413086,0.19916094839572906,2.4205880165100098,-0.8428970140269776,-0.017246298491954803,0.2804442048072815,-2.0182560125934046,8.223886106861755e-05,0.08889158070087433,0.5558712482452393,-9.057336865225807e-05,-0.04322807863354683,1.0456808805465698,-0.011914826929569244,-0.4814780652523041
280.0,824.0,-1.986,4.0247,8.1087,0.0134,-0.1863,-0.0425,-2.1368705234923304,-0.09229547530412674,4.205347537994385,-1.5539849996566772,0.19686119258403778,2.4168171882629395,-0.8429047626307984,-0.009786080569028854,0.2745799124240875,-2.0182440916644495,9.01027669897303e-05,0.10393257439136505,0.5558673143386841,-8.804179378785193e-05,-0.05142626166343689,1.0456774234771729,-0.013443305157124996,-0.5084717273712158
280.0,824.0,-1.986,4.0247,8.1087,0.0134,-0.1863,-0.0425,-2.1374312839903773,-0.09281101822853088,4.236696243286133,-1.552787184715271,0.19377779960632324,2.4372215270996094,-0.8429530423930665,-0.001545045292004943,0.29381054639816284,-2.018247906361715,8.822828385746107e-05,0.10238903015851974,0.5559110045433044,-9.616529132472351e-05,-0.03565344214439392,1.0456057786941528,-0.01655563898384571,-0.48750609159469604
280.0,824.0,-1.986,4.0247,8.1087,0.0134,-0.1863,-0.0425,-2.137810846368307,-0.09422068297863007,4.176815986633301,-1.5520002841949463,0.18864206969738007,2.390504837036133,-0.842839853172638,0.0007532471790909767,0.2693338394165039,-2.0182679335223597,8.611818338977173e-05,0.0905868262052536,0.5558154582977295,-9.404592856299132e-05,-0.040239762514829636,1.0455374717712402,-0.018219051882624626,-0.5307361483573914
280.0,824.0,-1.986,4.0247,8.1087,0.0134,-0.1863,-0.0425,-2.1382156811156214,-0.0939093828201294,4.2242841720581055,-1.551245927810669,0.18561699986457825,2.41055965423584,-0.8428760927966614,0.0007742712623439729,0.27041131258010864,-2.0182679335223597,8.410619193455204e-05,0.10361368954181671,0.5558671355247498,-9.16532808332704e-05,-0.04269920289516449,1.045461654663086,-0.021046100184321404,-0.4759002923965454
280.0,824.0,-1.986,4.0247,8.1087,0.0134,-0.1863,-0.0425,-2.1387273273863734,-0.09454186260700226,4.192267417907715,-1.5501753091812134,0.18356013298034668,2.38782000541687,-0.8429084581187745,0.0004098946519661695,0.2619445025920868,-2.018275562916891,8.125859312713146e-05,0.1170540377497673,0.5558950304985046,-8.828196587273851e-05,-0.047312866896390915,1.0452935695648193,-0.025116514414548874,-0.5251694321632385
280.0,824.0,-1.986,4.0247,8.1087,0.0134,-0.1863,-0.0425,-2.1391035519041957,-0.09247959405183792,4.230837821960449,-1.5494647026062012,0.1828186810016632,2.433992624282837,-0.8429325383952637,0.00023753239656798542,0.2802600860595703,-2.0182560125934046,7.946490222821012e-05,0.08232013881206512,0.5559155941009521,-8.085867011686787e-05,-0.039207156747579575,1.0451689958572388,-0.02863973192870617,-0.5007723569869995
280.0,824.0,-1.986,4.0247,8.1087,0.0134,-0.1863,-0.0425,-2.139672418633932,-0.09671596437692642,4.187284469604492,-1.5483912229537964,0.17646071314811707,2.376305341720581,-0.8430087727359314,2.547829467403062e-07,0.26756638288497925,-2.0182321707354944,2.2119348130900107e-08,0.09924261271953583,0.5558673143386841,-7.278603879967704e-05,-0.04703419283032417,1.0450013875961304,-0.03320333734154701,-0.5081295967102051
