ramyac6/ROB537/final_project/csv/bad/bad_23.csv
tof_0,tof_1,accelx,accely,accelz,gyrox,gyroy,gyroz,shoulder_lift_joint_position,shoulder_lift_joint_velocity,shoulder_lift_joint_effort,elbow_joint_position,elbow_joint_velocity,elbow_joint_effort,wrist_1_joint_position,wrist_1_joint_velocity,wrist_1_joint_effort,wrist_2_joint_position,wrist_2_joint_velocity,wrist_2_joint_effort,wrist_3_joint_position,wrist_3_joint_velocity,wrist_3_joint_effort,shoulder_pan_joint_position,shoulder_pan_joint_velocity,shoulder_pan_joint_effort
235.0,332.0,2.3611,0.1077,9.2704,-0.0319,0.0209,-0.1138,-1.701592584649557,0.0,2.6791586875915527,-1.6900688409805298,-0.0,2.0932905673980713,4.640376253718994,0.0,0.30133581161499023,-1.6248329321490687,0.0,0.010878065600991249,0.9819753170013428,0.0,0.00020403822418302298,0.718888521194458,0.0,0.013095565140247345
235.0,332.0,2.3611,0.1077,9.2704,-0.0319,0.0209,-0.1138,-1.7015687427916468,0.0,2.694249391555786,-1.6900646686553955,-0.0,2.169760227203369,4.6404172617146,0.0,0.29785576462745667,-1.6248534361468714,0.0,0.006703903898596764,0.9819953441619873,0.0,-0.004361598286777735,0.718888521194458,0.0,-0.01626570150256157
235.0,332.0,2.3611,0.1077,9.2704,-0.0319,0.0209,-0.1138,-1.701564451257223,0.0,2.720590591430664,-1.6899969577789307,-0.0,2.168220043182373,4.640352888698242,0.0,0.28835490345954895,-1.624800984059469,0.0,0.003419981338083744,0.9819839000701904,0.0,-0.0006526699289679527,0.7188566327095032,0.0,0.005960957147181034
235.0,332.0,2.3611,0.1077,9.2704,-0.0319,0.0209,-0.1138,-1.701592584649557,0.0,2.7135472297668457,-1.6900285482406616,-0.0,2.1471076011657715,4.640397234553955,0.0,0.29763108491897583,-1.6248248259173792,0.0,0.001853221794590354,0.9819633960723877,0.0,-0.012562395073473454,0.7188443541526794,0.0,0.01048862561583519
235.0,332.0,2.3611,0.1077,9.2704,-0.0319,0.0209,-0.1138,-1.7016126118102015,0.0,2.73211669921875,-1.6900527477264404,-0.0,2.1564700603485107,4.640388651485107,0.0,0.2873757779598236,-1.6248248259173792,0.0,0.0020161871798336506,0.9819793701171875,0.0,-0.0064208246767520905,0.718904972076416,0.0,-0.006161919794976711
235.0,332.0,2.3611,0.1077,9.2704,-0.0319,0.0209,-0.1138,-1.7015720806517542,0.0,2.68681001663208,-1.6900166273117065,-0.0,2.1486165523529053,4.640376253718994,0.0,0.28859367966651917,-1.6248176733600062,0.0,0.005744080524891615,0.981999397277832,0.0,0.00015316857025027275,0.7188685536384583,0.0,0.016413630917668343
235.0,332.0,2.3611,0.1077,9.2704,-0.0319,0.0209,-0.1138,-1.7015844784178675,0.0,2.6906018257141113,-1.690040946006775,-0.0,2.1321089267730713,4.64043299734082,0.0,0.2836674153804779,-1.6248372236834925,0.0,0.003439836436882615,0.9820394515991211,0.0,-0.015516705811023712,0.7188644409179688,0.0,-0.007008764427155256
235.0,332.0,2.3611,0.1077,9.2704,-0.0319,0.0209,-0.1138,-1.7015963993468226,0.0,2.7115097045898438,-1.6900084018707275,-0.0,2.128568410873413,4.64043299734082,0.0,0.2848714292049408,-1.6247809568988245,0.0,-0.005869641434401274,0.9820153713226318,0.0,0.008136995136737823,0.7188684940338135,0.0,0.008365815505385399
235.0,332.0,2.3611,0.1077,9.2704,-0.0319,0.0209,-0.1138,-1.7015277347960414,0.0,2.698655128479004,-1.6900206804275513,-0.0,2.1332144737243652,4.640380545253418,0.0,0.3001527786254883,-1.624800984059469,0.0,-0.0059018791653215885,0.9819633960723877,0.0,0.001437393482774496,0.7188805937767029,0.0,0.035562146455049515
235.0,332.0,2.3611,0.1077,9.2704,-0.0319,0.0209,-0.1138,-1.701580663720602,0.0,2.7202351093292236,-1.6899927854537964,-0.0,2.0830893516540527,4.640384836787842,0.0,0.2955327033996582,-1.6247809568988245,0.0,-0.008146146312355995,0.9819592833518982,0.0,-0.008649103343486786,0.718896746635437,0.0,-0.03478743135929108
235.0,332.0,2.3611,0.1077,9.2704,-0.0319,0.0209,-0.1138,-1.7015439472594203,0.0,2.654818534851074,-1.6900248527526855,-0.0,2.1494967937469482,4.640397234553955,0.0,0.29504841566085815,-1.6248133818255823,0.0,-0.002512739971280098,0.9819389581680298,0.0,-0.00950548890978098,0.7188926339149475,0.0,0.02225359156727791
233.0,335.0,2.4443,0.0796,9.0018,-0.0348,0.0224,-0.1133,-1.701576372186178,0.0,2.680513381958008,-1.690044641494751,-0.0,2.118586540222168,4.640397234553955,0.0,0.2984762191772461,-1.624772850667135,0.0,-0.006618079729378223,0.9819474220275879,0.0,-0.0037826222833245993,0.718847930431366,0.0,-0.00119297718629241
233.0,335.0,2.4443,0.0796,9.0018,-0.0348,0.0224,-0.1133,-1.7015439472594203,0.0,2.6914806365966797,-1.6900084018707275,-0.0,2.155043125152588,4.640429182643555,0.0,0.3034687042236328,-1.624800984059469,0.0,-0.0020450223237276077,0.981999397277832,0.0,-0.0018003344302996993,0.7188562154769897,0.0,-0.0014527643797919154
233.0,335.0,2.4443,0.0796,9.0018,-0.0348,0.0224,-0.1133,-1.7015277347960414,0.0,2.696620464324951,-1.6900687217712402,-0.0,2.1598987579345703,4.6403443056293945,0.0,0.29781609773635864,-1.6248052755938929,0.0,0.00455681374296546,0.981999397277832,0.0,-0.009358169510960579,0.7188764810562134,0.0,-0.06160038709640503
233.0,335.0,2.4443,0.0796,9.0018,-0.0348,0.0224,-0.1133,-1.701580663720602,0.0,2.6946425437927246,-1.6900084018707275,-0.0,2.128859758377075,4.640380545253418,0.0,0.2947215139865875,-1.624789063130514,0.0,0.007274797186255455,0.9819515347480774,0.0,-0.009927966631948948,0.7188562154769897,0.0,-0.009791898541152477
233.0,335.0,2.4443,0.0796,9.0018,-0.0348,0.0224,-0.1133,-1.7015358410277308,0.0,2.727318286895752,-1.6900290250778198,-0.0,2.1694490909576416,4.6404334741779785,0.0,0.2927713692188263,-1.6248133818255823,0.0,-0.0024492728989571333,0.981947124004364,0.0,-0.0071283867582678795,0.7188805937767029,0.0,-0.0072198668494820595
233.0,335.0,2.4443,0.0796,9.0018,-0.0348,0.0224,-0.1133,-1.7015520534911097,0.0,2.6728789806365967,-1.6900646686553955,-0.0,2.159149169921875,4.64040915548291,0.0,0.30114373564720154,-1.6247766653644007,0.0,0.006486078724265099,0.9819514155387878,0.0,-0.0009915281552821398,0.7188319563865662,0.0,0.005782328546047211
233.0,335.0,2.4443,0.0796,9.0018,-0.0348,0.0224,-0.1133,-1.7015277347960414,0.0,2.728022575378418,-1.6900527477264404,-0.0,2.1123602390289307,4.640421076411865,0.0,0.29309600591659546,-1.6247966925250452,0.0,0.007381880190223455,0.9819953441619873,0.0,-0.014558793976902962,0.718888521194458,0.0,0.017575735226273537
233.0,335.0,2.4443,0.0796,9.0018,-0.0348,0.0224,-0.1133,-1.701580663720602,0.0,2.6696372032165527,-1.6900367736816406,-0.0,2.190171241760254,4.640397234553955,0.0,0.307746946811676,-1.6248095671283167,0.0,-0.0024324855767190456,0.9819912314414978,0.0,-0.009049603715538979,0.7188562154769897,0.0,-0.03022570163011551
233.0,335.0,2.4443,0.0796,9.0018,-0.0348,0.0224,-0.1133,-1.7015887699522914,0.0,2.680582046508789,-1.690032958984375,-0.0,2.1081528663635254,4.640404863948486,0.0,0.29927772283554077,-1.624857250844137,0.0,-0.007566898129880428,0.9819595813751221,0.0,0.004399639554321766,0.7188888192176819,0.0,-0.004963948857039213
233.0,335.0,2.4443,0.0796,9.0018,-0.0348,0.0224,-0.1133,-1.701547761956686,0.0,2.707502841949463,-1.690044641494751,-0.0,2.174480676651001,4.640380545253418,0.0,0.29380208253860474,-1.624829117451803,0.0,0.0033598211593925953,0.9819674491882324,0.0,-0.017213119193911552,0.7188443541526794,0.0,-0.046329185366630554
233.0,335.0,2.4443,0.0796,9.0018,-0.0348,0.0224,-0.1133,-1.7015401325621546,0.0,2.6909847259521484,-1.6900289058685303,-0.0,2.1528263092041016,4.640356703395508,0.0,0.29180479049682617,-1.6248133818255823,0.0,-0.0033777044154703617,0.9819633960723877,0.0,0.0069601223804056644,0.7189005613327026,0.0,-0.02353787235915661
233.0,335.0,2.4443,0.0796,9.0018,-0.0348,0.0224,-0.1133,-1.7015353641905726,0.0,2.696131706237793,-1.6900609731674194,-0.0,2.1601691246032715,4.6403724390217285,0.0,0.29194819927215576,-1.6248090902911585,0.0,0.000804870156571269,0.9819633364677429,0.0,-0.008751815184950829,0.7189087867736816,0.0,0.011002588085830212
233.0,335.0,2.4443,0.0796,9.0018,-0.0348,0.0224,-0.1133,-1.7015358410277308,0.0,2.709486961364746,-1.6900248527526855,-0.0,2.1571168899536133,4.640364809627197,0.0,0.29776108264923096,-1.6248090902911585,0.0,-0.0012050134828314185,0.9819874167442322,0.0,-0.00935293734073639,0.718888521194458,0.0,-0.005190436262637377
233.0,335.0,2.4443,0.0796,9.0018,-0.0348,0.0224,-0.1133,-1.7015439472594203,0.0,2.689772605895996,-1.6900367736816406,-0.0,2.151547431945801,4.640401049251221,0.0,0.2878802716732025,-1.6248372236834925,0.0,0.00018021458527073264,0.9820277094841003,0.0,-0.017933117225766182,0.7188805937767029,0.0,-0.022506732493638992
233.0,335.0,2.4443,0.0796,9.0018,-0.0348,0.0224,-0.1133,-1.701580663720602,0.0,2.6858134269714355,-1.6900564432144165,-0.0,2.1124963760375977,4.640404863948486,0.0,0.29846715927124023,-1.6248653570758265,0.0,-0.0028071936685591936,0.9819871783256531,0.0,-0.00851521361619234,0.7188521027565002,0.0,0.018160337582230568
233.0,335.0,2.4443,0.0796,9.0018,-0.0348,0.0224,-0.1133,-1.7015239200987757,0.0,2.7174081802368164,-1.6900606155395508,-0.0,2.13222599029541,4.640384836787842,0.0,0.2919929623603821,-1.6247928778277796,0.0,-0.001890153856948018,0.9819993376731873,0.0,0.007130473852157593,0.7188684940338135,0.0,0.0024429112672805786
233.0,335.0,2.4443,0.0796,9.0018,-0.0348,0.0224,-0.1133,-1.7015520534911097,0.0,2.712017774581909,-1.6900166273117065,-0.0,2.1578779220581055,4.640401049251221,0.0,0.2868068516254425,-1.6248372236834925,0.0,-0.0001912832958623767,0.9819270372390747,0.0,-0.00822502002120018,0.7189289927482605,0.0,0.0247256588190794
233.0,335.0,2.4443,0.0796,9.0018,-0.0348,0.0224,-0.1133,-1.701576372186178,0.0,2.6542742252349854,-1.6900687217712402,-0.0,2.1558854579925537,4.640388651485107,0.0,0.2940863072872162,-1.6247766653644007,0.0,-0.004425449762493372,0.9819474816322327,0.0,-0.013285892084240913,0.7189046740531921,0.0,0.032061848789453506
233.0,335.0,2.4443,0.0796,9.0018,-0.0348,0.0224,-0.1133,-1.7015844784178675,0.0,2.7381763458251953,-1.690040946006775,-0.0,2.129960060119629,4.640364809627197,0.0,0.29441171884536743,-1.6247766653644007,0.0,-0.002691244473680854,0.9819552898406982,0.0,-0.009236523881554604,0.718856155872345,0.0,-0.001692717196419835
233.0,335.0,2.4443,0.0796,9.0018,-0.0348,0.0224,-0.1133,-1.701564451257223,0.0,2.685044288635254,-1.6900930404663086,-0.0,2.1087305545806885,4.640388651485107,0.0,0.29040229320526123,-1.6248248259173792,0.0,-0.009127354249358177,0.9819229245185852,0.0,0.002819704357534647,0.7188682556152344,0.0,0.02454438805580139
233.0,335.0,2.4443,0.0796,9.0018,-0.0348,0.0224,-0.1133,-1.7015963993468226,0.0,2.7049455642700195,-1.6899722814559937,-0.0,2.128335475921631,4.640352411861084,0.0,0.28205496072769165,-1.6248739401446741,0.0,-0.006806783843785524,0.9819474220275879,0.0,0.003325912170112133,0.7188401818275452,0.0,-0.0033754557371139526
230.0,348.0,2.4491,0.0239,9.2088,-0.0388,0.0208,-0.1151,-1.701592584649557,0.0,2.7356719970703125,-1.690016508102417,-0.0,2.1520042419433594,4.6403724390217285,0.0,0.2959263026714325,-1.6248167196856897,0.0,0.010468484833836555,0.9820034503936768,0.0,-0.001363540766760707,0.7188926339149475,0.0,-0.05936870723962784
230.0,348.0,2.4491,0.0239,9.2088,-0.0388,0.0208,-0.1151,-1.7015320263304652,0.0,2.692424774169922,-1.6900084018707275,-0.0,2.068603515625,4.6403724390217285,0.0,0.2948683500289917,-1.6248090902911585,0.0,-0.0017249296652153134,0.9819793701171875,0.0,-0.002785477554425597,0.7188764810562134,0.0,-0.017678026109933853
230.0,348.0,2.4491,0.0239,9.2088,-0.0388,0.0208,-0.1151,-1.701576372186178,0.0,2.68159556388855,-1.690024495124817,-0.0,2.186241388320923,4.6404005724140625,0.0,0.29815831780433655,-1.6248052755938929,0.0,-0.005524231120944023,0.9820113182067871,0.0,-0.003047168953344226,0.718888521194458,0.0,-0.007085634395480156
230.0,348.0,2.4491,0.0239,9.2088,-0.0388,0.0208,-0.1151,-1.701564451257223,0.0,2.6881237030029297,-1.6900367736816406,-0.0,2.0988826751708984,4.640384836787842,0.0,0.298098087310791,-1.6247966925250452,0.0,-0.0006854601670056581,0.9819267392158508,0.0,0.0030499231070280075,0.7189087867736816,0.0,0.008656204678118229
230.0,348.0,2.4491,0.0239,9.2088,-0.0388,0.0208,-0.1151,-1.7015520534911097,0.0,2.6636290550231934,-1.6900569200515747,-0.0,2.148855209350586,4.64040915548291,0.0,0.29503196477890015,-1.6248248259173792,0.0,-0.012302499264478683,0.9819595813751221,0.0,0.004624550696462393,0.7188401818275452,0.0,-0.028729086741805077
230.0,348.0,2.4491,0.0239,9.2088,-0.0388,0.0208,-0.1151,-1.7016126118102015,0.0,2.72318696975708,-1.6900042295455933,-0.0,2.1338987350463867,4.640376253718994,0.0,0.28523916006088257,-1.6248415152179163,0.0,0.0006176161114126444,0.9819791316986084,0.0,-0.002390444977208972,0.7188764214515686,0.0,-0.005231751594692469
230.0,348.0,2.4491,0.0239,9.2088,-0.0388,0.0208,-0.1151,-1.7015439472594203,0.0,2.6833882331848145,-1.6899805068969727,-0.0,2.131875514984131,4.640348597163818,0.0,0.29646632075309753,-1.6247966925250452,0.0,0.001373297767713666,0.9819953441619873,0.0,-0.001073362655006349,0.7189008593559265,0.0,-0.016980964690446854
230.0,348.0,2.4491,0.0239,9.2088,-0.0388,0.0208,-0.1151,-1.7015358410277308,0.0,2.7301371097564697,-1.6900733709335327,-0.0,2.1576812267303467,4.640392943019531,0.0,0.29847264289855957,-1.6248052755938929,0.0,-0.0045814127661287785,0.9820313453674316,0.0,0.006388859823346138,0.718848466873169,0.0,-0.028478330001235008
230.0,348.0,2.4491,0.0239,9.2088,-0.0388,0.0208,-0.1151,-1.701580663720602,0.0,2.70351505279541,-1.690032720565796,-0.0,2.158111572265625,4.6404005724140625,0.0,0.2850828170776367,-1.6248176733600062,0.0,-0.002178565599024296,0.9820554256439209,0.0,0.0071160695515573025,0.7188926339149475,0.0,0.002684361068531871
230.0,348.0,2.4491,0.0239,9.2088,-0.0388,0.0208,-0.1151,-1.701592584649557,0.0,2.7157773971557617,-1.6900204420089722,-0.0,2.1441328525543213,4.640376253718994,0.0,0.29894906282424927,-1.6248372236834925,0.0,0.0022514616139233112,0.9820157289505005,0.0,-0.0020574317313730717,0.7188681960105896,0.0,0.014140237122774124
230.0,348.0,2.4491,0.0239,9.2088,-0.0388,0.0208,-0.1151,-1.701592584649557,0.0,2.7178242206573486,-1.6900688409805298,-0.0,2.1756443977355957,4.640397234553955,0.0,0.29510045051574707,-1.624829117451803,0.0,0.0038060976658016443,0.9819953441619873,0.0,-0.004054022021591663,0.7189128994941711,0.0,-0.00523567758500576
230.0,348.0,2.4491,0.0239,9.2088,-0.0388,0.0208,-0.1151,-1.701564451257223,0.0,2.7249932289123535,-1.6900527477264404,-0.0,2.1327505111694336,4.640436812038086,0.0,0.302677720785141,-1.6248052755938929,0.0,-0.008351612836122513,0.9820034503936768,0.0,0.001043782103806734,0.7188603281974792,0.0,0.002650630660355091
230.0,348.0,2.4491,0.0239,9.2088,-0.0388,0.0208,-0.1151,-1.7015563450255335,0.0,2.6846306324005127,-1.6900367736816406,-0.0,2.11676287651062,4.640404863948486,0.0,0.2884443402290344,-1.624829117451803,0.0,0.005448843818157911,0.9819634556770325,0.0,-0.005909989587962627,0.7188644409179688,0.0,-0.00188336125575006
230.0,348.0,2.4491,0.0239,9.2088,-0.0388,0.0208,-0.1151,-1.701547761956686,0.0,2.704375743865967,-1.6900206804275513,-0.0,2.1931209564208984,4.640388651485107,0.0,0.29206907749176025,-1.6247485319720667,0.0,-0.008157579228281975,0.9819793701171875,0.0,0.009569765999913216,0.7188644409179688,0.0,0.008852791041135788
230.0,348.0,2.4491,0.0239,9.2088,-0.0388,0.0208,-0.1151,-1.7015887699522914,0.0,2.673792839050293,-1.690000057220459,-0.0,2.150151252746582,4.640311880702637,0.0,0.29826119542121887,-1.6248090902911585,0.0,-0.003848383203148842,0.981999397277832,0.0,0.0119363684207201,0.7188846468925476,0.0,0.0019338615238666534
230.0,348.0,2.4491,0.0239,9.2088,-0.0388,0.0208,-0.1151,-1.7015968761839808,0.0,2.715886116027832,-1.6899927854537964,-0.0,2.1213650703430176,4.640380545253418,0.0,0.29439353942871094,-1.6247847715960901,0.0,-0.003946629818528891,0.9819713234901428,0.0,-0.003557434305548668,0.7188926339149475,0.0,-0.0022329948842525482
230.0,348.0,2.4491,0.0239,9.2088,-0.0388,0.0208,-0.1151,-1.701576372186178,0.0,2.70125150680542,-1.6900486946105957,-0.0,2.162856101989746,4.640436812038086,0.0,0.3005933165550232,-1.6248248259173792,0.0,-0.0049958364106714725,0.981959342956543,0.0,0.0006093531847000122,0.7189170122146606,0.0,0.030735738575458527
230.0,348.0,2.4491,0.0239,9.2088,-0.0388,0.0208,-0.1151,-1.7015963993468226,0.0,2.7002391815185547,-1.6900001764297485,-0.0,2.145226001739502,4.640388651485107,0.0,0.31356576085090637,-1.6247966925250452,0.0,-0.004292326048016548,0.9820117354393005,0.0,-0.008925322443246841,0.718848466873169,0.0,0.012096133083105087
230.0,348.0,2.4491,0.0239,9.2088,-0.0388,0.0208,-0.1151,-1.701580663720602,0.0,2.683600425720215,-1.6900449991226196,-0.0,2.1543707847595215,4.640412970180176,0.0,0.29865068197250366,-1.6248415152179163,0.0,0.005561077501624823,0.9820276498794556,0.0,-0.01506047509610653,0.7189087867736816,0.0,0.008553681895136833
230.0,348.0,2.4491,0.0239,9.2088,-0.0388,0.0208,-0.1151,-1.7015439472594203,0.0,2.6966445446014404,-1.6900166273117065,-0.0,2.1435327529907227,4.640404863948486,0.0,0.2898094058036804,-1.624857250844137,0.0,-0.001808130880817771,0.9819793701171875,0.0,-0.006169676780700684,0.7188566327095032,0.0,-0.016934890300035477
230.0,348.0,2.4491,0.0239,9.2088,-0.0388,0.0208,-0.1151,-1.7014996014037074,0.0,2.728339672088623,-1.6900125741958618,-0.0,2.1408724784851074,4.640340014094971,0.0,0.30011022090911865,-1.6247885862933558,0.0,0.007070465013384819,0.9819953441619873,0.0,-0.008464586921036243,0.7188281416893005,0.0,0.04542975127696991
230.0,348.0,2.4491,0.0239,9.2088,-0.0388,0.0208,-0.1151,-1.7015840015807093,0.0,2.704587459564209,-1.690040946006775,-0.0,2.1517977714538574,4.6403724390217285,0.0,0.296105295419693,-1.6248415152179163,0.0,0.00023501180112361908,0.981987476348877,0.0,-0.0039774575270712376,0.7188723683357239,0.0,0.03626425564289093
238.0,340.0,2.4443,0.1017,9.149,-0.0444,0.0179,-0.1151,-1.701564451257223,0.0,2.727193832397461,-1.6900206804275513,-0.0,2.113295555114746,4.640392943019531,0.0,0.292142391204834,-1.6248205343829554,0.0,-0.003357290755957365,0.9820032119750977,0.0,-0.014448785223066807,0.7189046144485474,0.0,-0.019845163449645042
238.0,340.0,2.4443,0.1017,9.149,-0.0444,0.0179,-0.1151,-1.7015563450255335,0.0,2.673236608505249,-1.690032958984375,-0.0,2.120922565460205,4.640401049251221,0.0,0.2899468243122101,-1.6248090902911585,0.0,2.0259758457541466e-06,0.9820153117179871,0.0,0.0014993494842201471,0.7188080549240112,0.0,0.026111502200365067
238.0,340.0,2.4443,0.1017,9.149,-0.0444,0.0179,-0.1151,-1.7015963993468226,0.0,2.711571216583252,-1.6900405883789062,-0.0,2.134536027908325,4.640380545253418,0.0,0.29157692193984985,-1.6248248259173792,0.0,0.00038743321783840656,0.9819674491882324,0.0,-0.007937893271446228,0.7188603281974792,0.0,0.048954568803310394
238.0,340.0,2.4443,0.1017,9.149,-0.0444,0.0179,-0.1151,-1.7015720806517542,0.0,2.6650774478912354,-1.69005286693573,-0.0,2.1248068809509277,4.640397234553955,0.0,0.2924433648586273,-1.6247966925250452,0.0,-0.0031371561344712973,0.9819514751434326,0.0,-0.002930413233116269,0.7188888192176819,0.0,-0.016512222588062286
238.0,340.0,2.4443,0.1017,9.149,-0.0444,0.0179,-0.1151,-1.7015358410277308,0.0,2.6538562774658203,-1.6900651454925537,-0.0,2.1895647048950195,4.640356703395508,0.0,0.2919035851955414,-1.6248090902911585,0.0,-0.0018517572898417711,0.9820272326469421,0.0,0.0036003575660288334,0.7188122868537903,0.0,0.03584638983011246
238.0,340.0,2.4443,0.1017,9.149,-0.0444,0.0179,-0.1151,-1.7016006908812464,0.0,2.6694860458374023,-1.6900248527526855,-0.0,2.127838611602783,4.640328570003174,0.0,0.2822705805301666,-1.6247847715960901,0.0,-0.006313583347946405,0.9819349050521851,0.0,-0.003921643365174532,0.7189170122146606,0.0,-0.005670704413205385
238.0,340.0,2.4443,0.1017,9.149,-0.0444,0.0179,-0.1151,-1.7015563450255335,0.0,2.715651512145996,-1.6900206804275513,-0.0,2.1270761489868164,4.640368147487305,0.0,0.2954001724720001,-1.6247966925250452,0.0,0.003870763350278139,0.9819793701171875,0.0,-0.011195553466677666,0.7188846468925476,0.0,0.04808473587036133
238.0,340.0,2.4443,0.1017,9.149,-0.0444,0.0179,-0.1151,-1.7015401325621546,0.0,2.6992244720458984,-1.690040946006775,-0.0,2.1075267791748047,4.640429182643555,0.0,0.2917400896549225,-1.6248248259173792,0.0,-0.005585945211350918,0.9820153713226318,0.0,0.007359907031059265,0.718848466873169,0.0,0.023301638662815094
238.0,340.0,2.4443,0.1017,9.149,-0.0444,0.0179,-0.1151,-1.7015439472594203,0.0,2.7208268642425537,-1.6900206804275513,-0.0,2.1455307006835938,4.640384836787842,0.0,0.29567086696624756,-1.6247804800616663,0.0,0.006858573295176029,0.9819594025611877,0.0,-0.0001932913437485695,0.7188764810562134,0.0,0.011118796654045582
238.0,340.0,2.4443,0.1017,9.149,-0.0444,0.0179,-0.1151,-1.7015353641905726,0.0,2.709005832672119,-1.6900248527526855,-0.0,2.1423985958099365,4.640384836787842,0.0,0.29422956705093384,-1.6248133818255823,0.0,-0.006897146813571453,0.9819634556770325,0.0,-0.0005776759935542941,0.7188603281974792,0.0,0.03571828454732895
238.0,340.0,2.4443,0.1017,9.149,-0.0444,0.0179,-0.1151,-1.701592584649557,0.0,2.709228992462158,-1.6900286674499512,-0.0,2.155831813812256,4.640384836787842,0.0,0.297404944896698,-1.6248372236834925,0.0,0.013586306944489479,0.9819474220275879,0.0,0.013684839010238647,0.7188844084739685,0.0,-0.00684601254761219
238.0,340.0,2.4443,0.1017,9.149,-0.0444,0.0179,-0.1151,-1.7015396557249964,0.0,2.704017162322998,-1.6900206804275513,-0.0,2.155726909637451,4.640376253718994,0.0,0.28750988841056824,-1.6248133818255823,0.0,0.0017727608792483807,0.9819834232330322,0.0,0.014022337272763252,0.7188723683357239,0.0,0.011370697058737278
238.0,340.0,2.4443,0.1017,9.149,-0.0444,0.0179,-0.1151,-1.7015358410277308,0.0,2.7011842727661133,-1.690040946006775,-0.0,2.109771966934204,4.6404005724140625,0.0,0.2922793924808502,-1.6248658339129847,0.0,-0.002605672925710678,0.9819755554199219,0.0,-0.0010654022917151451,0.7188443541526794,0.0,0.02405482903122902
238.0,340.0,2.4443,0.1017,9.149,-0.0444,0.0179,-0.1151,-1.7015687427916468,0.0,2.7320590019226074,-1.69005286693573,-0.0,2.139708995819092,4.640380545253418,0.0,0.29979977011680603,-1.6248491446124476,0.0,-0.00627849530428648,0.9819872975349426,0.0,0.00040893538971431553,0.7189087867736816,0.0,-0.005466812290251255
238.0,340.0,2.4443,0.1017,9.149,-0.0444,0.0179,-0.1151,-1.7015887699522914,0.0,2.7254652976989746,-1.6900285482406616,-0.0,2.1808769702911377,4.640368147487305,0.0,0.29712995886802673,-1.6248329321490687,0.0,-0.0026546032167971134,0.9819308519363403,0.0,-0.013852362520992756,0.7188684940338135,0.0,-0.0003038826398551464
238.0,340.0,2.4443,0.1017,9.149,-0.0444,0.0179,-0.1151,-1.7016126118102015,0.0,2.7216956615448,-1.6900286674499512,-0.0,2.1474130153656006,4.6404172617146,0.0,0.29600197076797485,-1.6247766653644007,0.0,-0.002894932869821787,0.9820034503936768,0.0,-0.008018567226827145,0.7188846468925476,0.0,-0.03472041338682175
238.0,340.0,2.4443,0.1017,9.149,-0.0444,0.0179,-0.1151,-1.701547761956686,0.0,2.717334032058716,-1.6900367736816406,-0.0,2.1356701850891113,4.640421076411865,0.0,0.29351136088371277,-1.6248534361468714,0.0,0.009944013319909573,0.9820393323898315,0.0,-0.0030495368409901857,0.7188764810562134,0.0,0.02001817896962166
238.0,340.0,2.4443,0.1017,9.149,-0.0444,0.0179,-0.1151,-1.7015563450255335,0.0,2.706594944000244,-1.6900248527526855,-0.0,2.175828456878662,4.640376253718994,0.0,0.3090151250362396,-1.6247766653644007,0.0,-0.006702310871332884,0.9819308519363403,0.0,0.003919700160622597,0.7188682556152344,0.0,0.016528328880667686
238.0,340.0,2.4443,0.1017,9.149,-0.0444,0.0179,-0.1151,-1.7015882931151332,0.0,2.7303056716918945,-1.6900609731674194,-0.0,2.144604444503784,4.640424891109131,0.0,0.30490753054618835,-1.6248167196856897,0.0,0.000156147638335824,0.9819554686546326,0.0,0.00022587087005376816,0.7188764810562134,0.0,-0.005119399167597294
238.0,340.0,2.4443,0.1017,9.149,-0.0444,0.0179,-0.1151,-1.7015320263304652,0.0,2.683602809906006,-1.689984679222107,-0.0,2.1457557678222656,4.640364332790039,0.0,0.2848905324935913,-1.624800984059469,0.0,0.0008267319644801319,0.9819793701171875,0.0,-0.000805376679636538,0.718824028968811,0.0,-0.0030162036418914795
238.0,340.0,2.4443,0.1017,9.149,-0.0444,0.0179,-0.1151,-1.7016049824156703,0.0,2.6790771484375,-1.6900289058685303,-0.0,2.199958562850952,4.640388651485107,0.0,0.2969517707824707,-1.6248248259173792,0.0,0.00941426306962967,0.9819633960723877,0.0,-0.010422050952911377,0.7188846468925476,0.0,0.003022653516381979
232.0,337.0,2.4544,0.0915,9.137,-0.0391,0.0313,-0.1173,-1.701580663720602,0.0,2.7031984329223633,-1.690016508102417,-0.0,2.114750385284424,4.6403724390217285,0.0,0.29105865955352783,-1.6248176733600062,0.0,-0.009669293649494648,0.981999397277832,0.0,-0.020769640803337097,0.7188844084739685,0.0,-0.021663127467036247
232.0,337.0,2.4544,0.0915,9.137,-0.0391,0.0313,-0.1173,-1.7015439472594203,0.0,2.7422549724578857,-1.6900367736816406,-0.0,2.188746929168701,4.640356703395508,0.0,0.2971248924732208,-1.6248090902911585,0.0,-0.0032545095309615135,0.9819594025611877,0.0,-0.012846086174249649,0.7188600301742554,0.0,-0.025517258793115616
232.0,337.0,2.4544,0.0915,9.137,-0.0391,0.0313,-0.1173,-1.7015358410277308,0.0,2.724834680557251,-1.6900367736816406,-0.0,2.1492557525634766,4.640388651485107,0.0,0.2852645516395569,-1.6248133818255823,0.0,0.005796643905341625,0.981987476348877,0.0,-0.0033080081921070814,0.7188562154769897,0.0,0.008046791888773441
232.0,337.0,2.4544,0.0915,9.137,-0.0391,0.0313,-0.1173,-1.701547761956686,0.0,2.7163209915161133,-1.6900248527526855,-0.0,2.1751251220703125,4.640340490932129,0.0,0.2995215058326721,-1.6248248259173792,0.0,-0.005088674835860729,0.9819594025611877,0.0,-0.014316948130726814,0.7188644409179688,0.0,0.0077933091670274734
232.0,337.0,2.4544,0.0915,9.137,-0.0391,0.0313,-0.1173,-1.7015601597227992,0.0,2.7292943000793457,-1.6900367736816406,-0.0,2.1094210147857666,4.640421076411865,0.0,0.297590434551239,-1.6247766653644007,0.0,0.004779420793056488,0.9819953441619873,0.0,-0.0013926336541771889,0.7188644409179688,0.0,-0.0032557183876633644
232.0,337.0,2.4544,0.0915,9.137,-0.0391,0.0313,-0.1173,-1.701576372186178,0.0,2.6555097103118896,-1.6900527477264404,-0.0,2.128866195678711,4.640384836787842,0.0,0.29428720474243164,-1.6248248259173792,0.0,0.0032652742229402065,0.9819713830947876,0.0,-0.011238154023885727,0.7188566327095032,0.0,-0.0420551560819149
232.0,337.0,2.4544,0.0915,9.137,-0.0391,0.0313,-0.1173,-1.7015158138670863,0.0,2.6885018348693848,-1.690044641494751,-0.0,2.1444177627563477,4.64044110357251,0.0,0.28319045901298523,-1.624829117451803,0.0,-0.01041771937161684,0.9820034503936768,0.0,-0.005940718110650778,0.7188723683357239,0.0,0.01266701240092516
232.0,337.0,2.4544,0.0915,9.137,-0.0391,0.0313,-0.1173,-1.701604505578512,0.0,2.6777236461639404,-1.6900449991226196,-0.0,2.140900135040283,4.64044110357251,0.0,0.289974570274353,-1.6248329321490687,0.0,-0.003986638970673084,0.9820153713226318,0.0,0.007684481795877218,0.7188684940338135,0.0,-0.03147342801094055
232.0,337.0,2.4544,0.0915,9.137,-0.0391,0.0313,-0.1173,-1.7015277347960414,0.0,2.6906864643096924,-1.6900001764297485,-0.0,2.146944761276245,4.640404863948486,0.0,0.2989960312843323,-1.6248496214496058,0.0,-0.004197976551949978,0.9820233583450317,0.0,-0.0033869538456201553,0.7189170122146606,0.0,0.02419615536928177
232.0,337.0,2.4544,0.0915,9.137,-0.0391,0.0313,-0.1173,-1.701576372186178,0.0,2.7726893424987793,-1.6900166273117065,-0.0,2.140460968017578,4.640404863948486,0.0,0.2878988981246948,-1.624829117451803,0.0,-3.7114135921001434e-05,0.9819555282592773,0.0,-0.0023347416426986456,0.7188401222229004,0.0,-0.03488101065158844
232.0,337.0,2.4544,0.0915,9.137,-0.0391,0.0313,-0.1173,-1.7015277347960414,0.0,2.7061290740966797,-1.6900124549865723,-0.0,2.131467580795288,4.640392943019531,0.0,0.2873431146144867,-1.6248248259173792,0.0,-0.008506378158926964,0.9819349050521851,0.0,0.00790040660649538,0.7188484072685242,0.0,0.010658775456249714
232.0,337.0,2.4544,0.0915,9.137,-0.0391,0.0313,-0.1173,-1.7015563450255335,0.0,2.694777727127075,-1.690032958984375,-0.0,2.13993239402771,4.640388651485107,0.0,0.30233150720596313,-1.6247566382037562,0.0,-0.015444835647940636,0.9820153117179871,0.0,-0.004963076673448086,0.7188764810562134,0.0,0.0462663397192955
232.0,337.0,2.4544,0.0915,9.137,-0.0391,0.0313,-0.1173,-1.7015720806517542,0.0,2.7085959911346436,-1.690040946006775,-0.0,2.189014434814453,4.640397234553955,0.0,0.29428762197494507,-1.6248248259173792,0.0,0.005791006609797478,0.9819713234901428,0.0,-0.005525336600840092,0.7189009189605713,0.0,-0.016609778627753258
232.0,337.0,2.4544,0.0915,9.137,-0.0391,0.0313,-0.1173,-1.7015239200987757,0.0,2.699759006500244,-1.6900449991226196,-0.0,2.1371569633483887,4.640404863948486,0.0,0.2948545813560486,-1.624845329915182,0.0,0.008074907585978508,0.9820113182067871,0.0,-0.0039258054457604885,0.7188764810562134,0.0,-0.02661387249827385
232.0,337.0,2.4544,0.0915,9.137,-0.0391,0.0313,-0.1173,-1.701547761956686,0.0,2.715312957763672,-1.6900084018707275,-0.0,2.129279613494873,4.640392943019531,0.0,0.29049792885780334,-1.6247928778277796,0.0,-0.002119616838172078,0.9820316433906555,0.0,-0.005004936829209328,0.718888521194458,0.0,-0.03896841034293175
232.0,337.0,2.4544,0.0915,9.137,-0.0391,0.0313,-0.1173,-1.7015320263304652,0.0,2.6919431686401367,-1.6900449991226196,-0.0,2.1431751251220703,4.640424891109131,0.0,0.29572248458862305,-1.6248052755938929,0.0,-0.002754446119070053,0.9819512963294983,0.0,-0.010779866948723793,0.7189129590988159,0.0,-0.03264004364609718
232.0,337.0,2.4544,0.0915,9.137,-0.0391,0.0313,-0.1173,-1.7015077076353968,0.0,2.708956718444824,-1.6900206804275513,-0.0,2.1477134227752686,4.640412970180176,0.0,0.3002091646194458,-1.624829117451803,0.0,-0.0027101130690425634,0.981999397277832,0.0,-0.0016948155825957656,0.7188926339149475,0.0,-0.007293956354260445
232.0,337.0,2.4544,0.0915,9.137,-0.0391,0.0313,-0.1173,-1.701564451257223,0.0,2.6953887939453125,-1.6900248527526855,-0.0,2.1568312644958496,4.640352411861084,0.0,0.2941095232963562,-1.6247809568988245,0.0,-0.0035842282231897116,0.981999397277832,0.0,-0.0068077268078923225,0.7189130187034607,0.0,0.02030046097934246
232.0,337.0,2.4544,0.0915,9.137,-0.0391,0.0313,-0.1173,-1.701592584649557,0.0,2.6953916549682617,-1.6900084018707275,-0.0,2.155970335006714,4.640364809627197,2.030891721460648e-07,0.30568835139274597,-1.6248133818255823,0.0,0.0007059385534375906,0.9819634556770325,0.0,0.002516650129109621,0.7188602685928345,0.0,0.04844772070646286
232.0,337.0,2.4544,0.0915,9.137,-0.0391,0.0313,-0.1173,-1.7015401325621546,0.0,2.654604911804199,-1.690016508102417,-0.0,2.166717052459717,4.640444918269775,5.653061699306683e-11,0.2939668297767639,-1.624857250844137,0.0,-0.0052215903997421265,0.982011616230011,0.0,-0.002129455329850316,0.7189088463783264,0.0,0.021674582734704018
232.0,337.0,2.4544,0.0915,9.137,-0.0391,0.0313,-0.1173,-1.701592584649557,0.0,2.659501552581787,-1.6900248527526855,-0.0,2.129258632659912,4.640461130733154,2.409988712499117e-13,0.28993678092956543,-1.6248176733600062,0.0,-0.007057655602693558,0.9819793701171875,0.0,-0.010656476952135563,0.718847930431366,0.0,-0.002774294465780258
237.0,347.0,2.5579,0.0658,9.2016,-0.0356,0.0324,-0.1136,-1.701564451257223,0.0,2.736578941345215,-1.690049171447754,-0.0,2.1738834381103516,4.640397234553955,1.0274159190312737e-15,0.30123355984687805,-1.6247685591327112,0.0,0.0013243290595710278,0.9819349646568298,0.0,-0.004114577081054449,0.7188926935195923,0.0,0.008512036874890327
237.0,347.0,2.5579,0.0658,9.2016,-0.0356,0.0324,-0.1136,-1.7015968761839808,0.0,2.644446849822998,-1.6900367736816406,-0.0,2.1570773124694824,4.64040915548291,4.3800350808025076e-18,0.2956937849521637,-1.6247966925250452,0.0,-0.007187004201114178,0.9819555282592773,0.0,-0.004680295009166002,0.7188764810562134,0.0,-0.017286159098148346
237.0,347.0,2.5579,0.0658,9.2016,-0.0356,0.0324,-0.1136,-1.7015119991698207,7.898014686702481e-09,2.7347631454467773,-1.6900248527526855,4.8186279855144676e-08,2.134293556213379,4.6404124933430175,1.867277676335918e-20,0.3082241714000702,-1.6248491446124476,0.0,-0.0009266801062040031,0.9819832444190979,0.0,-0.009680302813649178,0.7188360691070557,0.0,0.011672720313072205
237.0,347.0,2.5579,0.0658,9.2016,-0.0356,0.0324,-0.1136,-1.7015325031676234,1.4216147790208078e-12,2.6832046508789062,-1.6900289058685303,8.673359773447853e-12,2.2052764892578125,4.640424891109131,7.960496999869823e-23,0.2849048674106598,-1.6247766653644007,0.0,0.0083322674036026,0.9820432066917419,0.0,0.0031420676968991756,0.7188484072685242,0.0,-0.04742070287466049
237.0,347.0,2.5579,0.0658,9.2016,-0.0356,0.0324,-0.1136,-1.7015277347960414,2.5588566228042914e-16,2.7696290016174316,-1.6900728940963745,1.5611741542600447e-15,2.102956771850586,4.640448732967041,5.6648328609298915e-05,0.29930227994918823,-1.6248205343829554,0.0,-0.008664126507937908,0.9819953441619873,0.0,0.0027706045657396317,0.7188644409179688,0.0,-0.005640653893351555
237.0,347.0,2.5579,0.0658,9.2016,-0.0356,0.0324,-0.1136,-1.7015401325621546,4.6058518337377896e-20,2.7206156253814697,-1.6900248527526855,2.8100586858860493e-19,2.1693036556243896,4.6404005724140625,0.00010015756561188027,0.2956428527832031,-1.624857250844137,0.0,0.0028567390982061625,0.9820310473442078,0.0,0.00671739038079977,0.7189326882362366,0.0,-0.02147403545677662
237.0,347.0,2.5579,0.0658,9.2016,-0.0356,0.0324,-0.1136,-1.7015563450255335,1.1122588706589575e-25,2.696598768234253,-1.6900733709335327,6.785960972567081e-25,2.157033920288086,4.640448732967041,8.600187720730901e-05,0.28427639603614807,-1.6247809568988245,0.0,0.0003455702681094408,0.9819672107696533,0.0,-0.007983480580151081,0.718848466873169,0.0,0.010041246190667152
237.0,347.0,2.5579,0.0658,9.2016,-0.0356,0.0324,-0.1136,-1.7015563450255335,2.0020264457555136e-29,2.6965794563293457,-1.6900050640106201,1.2214488448546898e-28,2.1270251274108887,4.640384836787842,7.849880057619885e-05,0.2939557433128357,-1.6247885862933558,0.0,0.009991159662604332,0.9820113182067871,0.0,0.0004162895493209362,0.718888521194458,0.0,-0.021096140146255493
237.0,347.0,2.5579,0.0658,9.2016,-0.0356,0.0324,-0.1136,-1.701548238793844,3.603577114781573e-33,2.68695330619812,-1.6899969577789307,2.1985647001621506e-32,2.156381845474243,4.64040915548291,0.0001076596017810516,0.29727351665496826,-1.624829117451803,0.0,0.001011512242257595,0.9820312857627869,0.0,0.008323648944497108,0.7188319563865662,0.0,0.009181193076074123
237.0,347.0,2.5579,0.0658,9.2016,-0.0356,0.0324,-0.1136,-1.7015358410277308,6.486311498215353e-37,2.695956230163574,-1.6899887323379517,0.00027198359020985663,2.1355984210968018,4.64043299734082,0.00010025363735621795,0.294128954410553,-1.6248248259173792,0.0,-0.0028178414795547724,0.9819953441619873,0.0,-0.0021080023143440485,0.7189126014709473,0.0,0.013038150034844875
237.0,347.0,2.5579,0.0658,9.2016,-0.0356,0.0324,-0.1136,-1.70152010540151,1.1675198415215078e-40,2.7164855003356934,-1.690016508102417,0.0003012225206475705,2.1506340503692627,4.640424414271973,9.332442277809605e-05,0.2918231785297394,-1.6248214880572718,0.0,0.0002918788231909275,0.9820231795310974,0.0,-0.013174323365092278,0.718888521194458,0.0,0.003723383182659745
237.0,347.0,2.5579,0.0658,9.2016,-0.0356,0.0324,-0.1136,-1.701552530328268,2.1019476964872256e-44,2.6682043075561523,-1.6899725198745728,0.0003161901840940118,2.1336140632629395,4.640444918269775,8.728967804927379e-05,0.28965121507644653,-1.624857250844137,0.0,0.006677827797830105,0.9820388555526733,0.0,-0.013719729147851467,0.7188723683357239,0.0,-0.04895554482936859
237.0,347.0,2.5579,0.0658,9.2016,-0.0356,0.0324,-0.1136,-1.7015000782408656,0.0,2.719856023788452,-1.690016508102417,0.00032841830397956073,2.1596500873565674,4.640436812038086,8.198779687518254e-05,0.2959541976451874,-1.6248534361468714,0.0,-0.0021342942491173744,0.9819833040237427,0.0,0.001886631827801466,0.7188764810562134,0.0,-0.023489639163017273
237.0,347.0,2.5579,0.0658,9.2016,-0.0356,0.0324,-0.1136,-1.701480051080221,0.0,2.703554630279541,-1.6900010108947754,0.00030144621268846095,2.1644749641418457,4.640424891109131,7.729308708803728e-05,0.29515042901039124,-1.6248329321490687,0.0,-0.0009401062852703035,0.9819953441619873,0.0,-0.003626798978075385,0.718880295753479,0.0,0.04558592289686203
237.0,347.0,2.5579,0.0658,9.2016,-0.0356,0.0324,-0.1136,-1.7015239200987757,0.0,2.65439510345459,-1.6899359226226807,0.00038495330954901874,2.1178956031799316,4.640436812038086,7.117982022464275e-05,0.2877024710178375,-1.624772850667135,0.0,0.001899208058603108,0.9820072650909424,0.0,0.002568622352555394,0.7189249992370605,0.0,-0.02700355276465416
237.0,347.0,2.5579,0.0658,9.2016,-0.0356,0.0324,-0.1136,-1.701548238793844,0.0,2.6772613525390625,-1.690016508102417,0.0003716587380040437,2.160047769546509,4.640392943019531,6.761450640624389e-05,0.28391531109809875,-1.6248248259173792,0.0,0.012137258425354958,0.9819954037666321,0.0,-0.000422855606302619,0.7188281416893005,0.0,0.066648930311203
237.0,347.0,2.5579,0.0658,9.2016,-0.0356,0.0324,-0.1136,-1.7015158138670863,0.0,2.694777727127075,-1.6900010108947754,0.00034415413392707705,2.1638081073760986,4.640376730556152,6.438948184950277e-05,0.2937513589859009,-1.624784294758932,0.0,0.011335935443639755,0.9820072650909424,0.0,0.007362759672105312,0.7188964486122131,0.0,0.01958392560482025
237.0,347.0,2.5579,0.0658,9.2016,-0.0356,0.0324,-0.1136,-1.7015358410277308,0.0,2.6991968154907227,-1.6900124549865723,0.0003052439133170992,2.12471866607666,4.640444918269775,6.145800580270588e-05,0.29700303077697754,-1.6248415152179163,0.0,0.0020778372418135405,0.9819912910461426,0.0,-0.008631320670247078,0.7189046740531921,0.0,0.004222630988806486
237.0,347.0,2.5579,0.0658,9.2016,-0.0356,0.0324,-0.1136,-1.701552530328268,0.0,2.6768312454223633,-1.6900084018707275,0.0002285405498696491,2.1836040019989014,4.640392943019531,5.8781977713806555e-05,0.2763434648513794,-1.6248133818255823,0.0,-0.0010608916636556387,0.9820113182067871,0.0,0.009692151099443436,0.7189046740531921,0.0,0.01093963161110878
237.0,347.0,2.5579,0.0658,9.2016,-0.0356,0.0324,-0.1136,-1.7015439472594203,0.0,2.6917777061462402,-1.689992904663086,0.00020745802612509578,2.1308817863464355,4.640404863948486,5.6329186918446794e-05,0.2868848145008087,-1.6248205343829554,0.0,-0.006671354174613953,0.9819872975349426,0.0,-0.0027722297236323357,0.7189129590988159,0.0,-0.004172934219241142
237.0,347.0,2.5579,0.0658,9.2016,-0.0356,0.0324,-0.1136,-1.7015282116331996,0.0,2.732764720916748,-1.6899442672729492,0.00018994344281964004,2.1923208236694336,4.640444918269775,5.407288335845806e-05,0.2896500527858734,-1.6247485319720667,0.0,0.008613303303718567,0.9820432066917419,0.0,-0.00038166396552696824,0.7188443541526794,0.0,-0.007419060915708542
237.0,347.0,2.5579,0.0658,9.2016,-0.0356,0.0324,-0.1136,-1.7015563450255335,0.0,2.7397055625915527,-1.689992904663086,0.00017515631043352187,2.102440595626831,4.6404005724140625,5.199051884119399e-05,0.30514657497406006,-1.6248329321490687,0.0,-0.0007691278588026762,0.982019305229187,0.0,-0.0035904101096093655,0.7188361287117004,0.0,-0.030776623636484146
235.0,334.0,2.1583,0.2136,9.3242,-0.0386,0.0333,-0.1176,-1.7014881573119105,2.7838474125019275e-05,2.7078943252563477,-1.6899564266204834,0.0001568409352330491,2.1193528175354004,4.6403724390217285,4.91510727442801e-05,0.3015206456184387,-1.6248052755938929,0.0,-0.003929144237190485,0.9820352792739868,0.0,0.0012389926705509424,0.7188764810562134,0.0,-0.0016945884563028812
235.0,334.0,2.1583,0.2136,9.3242,-0.0386,0.0333,-0.1176,-1.7015801868834437,3.900168667314574e-05,2.719860076904297,-1.690049171447754,0.00014662003377452493,2.126333236694336,4.640436812038086,4.7424400690943e-05,0.2886321544647217,-1.624784294758932,0.0,0.0029865046963095665,0.9820112586021423,0.0,-0.005223988555371761,0.7188926339149475,0.0,-0.026528375223279
235.0,334.0,2.1583,0.2136,9.3242,-0.0386,0.0333,-0.1176,-1.7015601597227992,5.581970981438644e-05,2.730085849761963,-1.689992904663086,0.00013765042240265757,2.164182662963867,4.640352888698242,4.58149952464737e-05,0.3085218071937561,-1.6247766653644007,0.0,-0.008367653004825115,0.9820430874824524,0.0,-0.007154933642596006,0.7189008593559265,0.0,0.02411891147494316
235.0,334.0,2.1583,0.2136,9.3242,-0.0386,0.0333,-0.1176,-1.7015277347960414,5.383943425840698e-05,2.706928014755249,-1.6900330781936646,0.00012971456453669816,2.2103233337402344,4.6404124933430175,4.4311193050816655e-05,0.30073249340057373,-1.624772850667135,0.0,0.0027639223262667656,0.9819673895835876,0.0,0.0026459735818207264,0.718820333480835,0.0,-0.008212428539991379
235.0,334.0,2.1583,0.2136,9.3242,-0.0386,0.0333,-0.1176,-1.7015887699522914,5.177467392059043e-05,2.718794345855713,-1.6899927854537964,0.00012264386168681085,2.102353572845459,4.640428705806396,4.2902978748315945e-05,0.295893132686615,-1.624857250844137,0.0,0.007709281053394079,0.9819753766059875,0.0,0.00018874270608648658,0.7188805937767029,0.0,-0.033498309552669525
235.0,334.0,2.1583,0.2136,9.3242,-0.0386,0.0333,-0.1176,-1.7015239200987757,4.986235580872744e-05,2.6626992225646973,-1.6900092363357544,0.00011630418157437816,2.1890642642974854,4.64043299734082,5.187278657103889e-05,0.29120489954948425,-1.6248248259173792,0.0,-0.009881308302283287,0.9820113182067871,0.0,-0.01238952949643135,0.7188603281974792,0.0,-0.013196047395467758
235.0,334.0,2.1583,0.2136,9.3242,-0.0386,0.0333,-0.1176,-1.7015601597227992,4.80863091070205e-05,2.7252731323242188,-1.6899927854537964,0.00011058797099394724,2.1346004009246826,4.640421076411865,5.3770156227983534e-05,0.29597604274749756,-1.6248205343829554,0.0,-0.012342347763478756,0.9819954037666321,0.0,0.00514596002176404,0.7189290523529053,0.0,-0.004098987206816673
235.0,334.0,2.1583,0.2136,9.3242,-0.0386,0.0333,-0.1176,-1.7015038929381312,4.643241481971927e-05,2.704376220703125,-1.6899603605270386,0.00010540719813434407,2.15177059173584,4.6404406267353515,5.222481195232831e-05,0.2752874493598938,-1.624869171773092,0.0,-0.00219574267975986,0.9819953441619873,0.0,0.0017484362469986081,0.7188640832901001,0.0,0.008032902143895626
235.0,334.0,2.1583,0.2136,9.3242,-0.0386,0.0333,-0.1176,-1.701564451257223,5.880402022739872e-05,2.7156763076782227,-1.6900010108947754,0.0001181837433250621,2.0990073680877686,4.640424414271973,6.254434265429154e-05,0.27822771668434143,-1.6248772780047815,0.0,0.006228459998965263,0.9820112586021423,0.0,-0.00637618126347661,0.7189126014709473,0.0,-0.015231112018227577
235.0,334.0,2.1583,0.2136,9.3242,-0.0386,0.0333,-0.1176,-1.7015282116331996,5.70080810575746e-05,2.7108988761901855,-1.6900290250778198,0.0001132275428972207,2.1549928188323975,4.640472574824951,6.086609937483445e-05,0.2926228642463684,-1.6248448530780237,0.0,0.00890205055475235,0.9819713830947876,0.0,0.007047444116324186,0.7188882827758789,0.0,-0.011145737022161484
235.0,334.0,2.1583,0.2136,9.3242,-0.0386,0.0333,-0.1176,-1.7015239200987757,5.5258002248592675e-05,2.7347168922424316,-1.6900010108947754,0.0001266973267775029,2.1426429748535156,4.640448732967041,7.440782064804807e-05,0.29375767707824707,-1.6248329321490687,0.0,0.004897663835436106,0.9820032715797424,0.0,-0.01088043488562107,0.7189208269119263,0.0,-0.00023481948301196098
235.0,334.0,2.1583,0.2136,9.3242,-0.0386,0.0333,-0.1176,-1.701564451257223,5.361220974009484e-05,2.6956663131713867,-1.690024733543396,0.00013930235581938177,2.0973474979400635,4.640424414271973,7.252523209899664e-05,0.2859519124031067,-1.6248567740069788,0.0,-0.004495146218687296,0.9819750189781189,0.0,-0.013714276254177094,0.7189203500747681,0.0,-0.030258309096097946
235.0,334.0,2.1583,0.2136,9.3242,-0.0386,0.0333,-0.1176,-1.7015119991698207,7.110215665306896e-05,2.7179243564605713,-1.6899927854537964,0.00014016448403708637,2.0981807708740234,4.640428705806396,8.407516725128517e-05,0.2935245633125305,-1.6248729864703577,0.0,0.007102056872099638,0.9820716381072998,0.0,-0.009956604801118374,0.7189204096794128,0.0,0.0050553916953504086
235.0,334.0,2.1583,0.2136,9.3242,-0.0386,0.0333,-0.1176,-1.7014996014037074,6.592563295271248e-05,2.7193446159362793,-1.6899605989456177,0.0013097452465444803,2.105130195617676,4.640436335200928,8.176093979272991e-05,0.2855662405490875,-1.6248849073993128,0.0,-0.003929395694285631,0.9819794297218323,0.0,-0.006067461334168911,0.718956708908081,-1.446241668645598e-07,0.03177591785788536
235.0,334.0,2.1583,0.2136,9.3242,-0.0386,0.0333,-0.1176,-1.7015038929381312,6.142603524494916e-05,2.7086267471313477,-1.6899688243865967,0.0020678152795881033,2.1738839149475098,4.640461130733154,7.935878966236487e-05,0.28333741426467896,-1.6248653570758265,0.0,-0.00738066341727972,0.9819673299789429,0.0,-0.00916026160120964,0.718912661075592,-2.603184161287242e-11,0.014144254848361015
235.0,334.0,2.1583,0.2136,9.3242,-0.0386,0.0333,-0.1176,-1.7015282116331996,8.358175546163693e-05,2.6844377517700195,-1.6899203062057495,0.004067183937877417,2.156059980392456,4.640420599574707,7.600778189953417e-05,0.2971913814544678,-1.6248849073993128,2.2958278123041964e-07,-0.0010157671058550477,0.9820352792739868,0.0,-0.005394044332206249,0.7189122438430786,-6.286383396478858e-17,-0.04922729730606079
235.0,334.0,2.1583,0.2136,9.3242,-0.0386,0.0333,-0.1176,-1.7015320263304652,7.870875560911372e-05,2.7395496368408203,-1.6899125576019287,0.006734623573720455,2.175182819366455,4.640392466182373,7.392668339889497e-05,0.29958903789520264,-1.6248930136310022,9.787473054245766e-10,-0.0035134677309542894,0.981979250907898,0.0,-0.009564487263560295,0.718972384929657,0.0007863925420679152,-0.03962266072630882
235.0,334.0,2.1583,0.2136,9.3242,-0.0386,0.0333,-0.1176,-1.7015601597227992,7.437263411702588e-05,2.7001495361328125,-1.6898927688598633,0.00998824741691351,2.094120502471924,4.640424414271973,7.195649232016876e-05,0.28284260630607605,-1.6248891989337366,4.172553361853071e-12,-0.006017232313752174,0.9820716977119446,0.0,-0.005160946398973465,0.7189929485321045,0.0019510571146383882,-0.013552460819482803
235.0,334.0,2.1583,0.2136,9.3242,-0.0386,0.0333,-0.1176,-1.7015325031676234,7.048924453556538e-05,2.7008042335510254,-1.6898047924041748,0.01196632906794548,2.1688942909240723,4.640388651485107,7.008859392954037e-05,0.2864556610584259,-1.6249049345599573,1.77882492400196e-14,-0.005510127637535334,0.9820510745048523,0.0,-0.004829989280551672,0.7190000414848328,0.003337086411193013,0.026784658432006836
235.0,334.0,2.1583,0.2136,9.3242,-0.0386,0.0333,-0.1176,-1.7015282116331996,4.4968128349864855e-05,2.6813669204711914,-1.6897130012512207,0.015357227995991707,2.1499695777893066,4.640444918269775,6.831524660810828e-05,0.3010845184326172,-1.6249049345599573,7.583410537895886e-17,0.0029165553860366344,0.9820189476013184,0.0,-0.008544417098164558,0.7190529704093933,0.004124851897358894,-0.009809027425944805
235.0,334.0,2.1583,0.2136,9.3242,-0.0386,0.0333,-0.1176,-1.7015601597227992,2.1374878997448832e-05,2.6678175926208496,-1.6896849870681763,0.019096218049526215,2.139793634414673,4.640428705806396,5.697224332834594e-05,0.2964183986186981,-1.6249130407916468,3.232926856708111e-19,0.003405134193599224,0.9820713996887207,0.0,0.0006318050436675549,0.7190804481506348,0.0056071472354233265,0.01668659970164299
232.0,346.0,2.2277,-0.5737,9.4098,-0.0379,0.0536,-0.1071,-1.7015358410277308,9.546595691745097e-08,2.7005434036254883,-1.6895406246185303,0.02274114079773426,2.1635067462921143,4.6404406267353515,5.419349326984957e-05,0.28541043400764465,-1.6249130407916468,1.3782473874784135e-21,0.013509578071534634,0.9820231795310974,0.0,-0.0015831817872822285,0.7191250920295715,0.008595094084739685,0.0015753461048007011
232.0,346.0,2.2277,-0.5737,9.4098,-0.0379,0.0536,-0.1071,-1.701580663720602,1.7183535844234044e-11,2.7297215461730957,-1.6893718242645264,0.02659650146961212,2.178402900695801,4.640424891109131,5.2913077524863183e-05,0.2816615402698517,-1.6248686949359339,5.875684118840788e-24,-0.002786878030747175,0.9820675849914551,0.0,-0.012864451855421066,0.7191764712333679,0.012329481542110443,0.07428193092346191
232.0,346.0,2.2277,-0.5737,9.4098,-0.0379,0.0536,-0.1071,-1.7015801868834437,-0.0011814676690846682,2.700007438659668,-1.689328670501709,0.026568271219730377,2.16587233543396,4.640448732967041,5.111014252179302e-05,0.28951728343963623,-1.6248968283282679,1.6355181977011068e-27,-0.0017925691790878773,0.9820636510848999,0.0,0.0038150830660015345,0.7192647457122803,0.0169681329280138,0.05949471518397331
232.0,346.0,2.2277,-0.5737,9.4098,-0.0379,0.0536,-0.1071,-1.7016083202757777,-0.0011504185386002064,2.7200241088867188,-1.6891883611679077,0.024762945249676704,2.153691530227661,4.640436812038086,4.997492942493409e-05,0.2894664704799652,-1.6249168554889124,6.972470508738568e-30,0.005030485335737467,0.9821388125419617,0.0,0.007572514936327934,0.7193812131881714,0.020213080570101738,0.04324241355061531
232.0,346.0,2.2277,-0.5737,9.4098,-0.0379,0.0536,-0.1071,-1.7016121349730433,-0.0012725930428132415,2.7346324920654297,-1.6891566514968872,0.021807629615068436,2.1435277462005615,4.640388651485107,7.473990990547463e-07,0.29577872157096863,-1.6249406973468226,2.9724734465450815e-32,-0.0052089993841946125,0.982055127620697,0.0,-0.014322968199849129,0.7194814682006836,0.023594839498400688,0.05692629516124725
232.0,346.0,2.2277,-0.5737,9.4098,-0.0379,0.0536,-0.1071,-1.7016078434386195,-0.0011180462315678596,2.7549684047698975,-1.6890324354171753,0.01786823384463787,2.1303188800811768,4.64043299734082,3.1862799065862646e-09,0.30889344215393066,-1.624880615864889,1.267211953162086e-34,0.005220593884587288,0.9820948243141174,0.0,-0.0019519571214914322,0.7195851802825928,0.02886996604502201,0.00637245737016201
232.0,346.0,2.2277,-0.5737,9.4098,-0.0379,0.0536,-0.1071,-1.7016040287413539,-0.0010537671623751521,2.690011739730835,-1.6890323162078857,0.014281404204666615,2.1656150817871094,4.640428705806396,1.3583611666034834e-11,0.2756739854812622,-1.6249168554889124,5.402324403398773e-37,0.007295234128832817,0.982086718082428,0.0,-0.011106068268418312,0.7196969985961914,0.03248462826013565,0.04159119352698326
232.0,346.0,2.2277,-0.5737,9.4098,-0.0379,0.0536,-0.1071,-1.7015754185118617,-0.001134339952841401,2.6829991340637207,-1.6889526844024658,0.011412221938371658,2.1884779930114746,4.640392466182373,5.790907439988044e-14,0.28170308470726013,-1.624892536793844,2.303095683250267e-39,-0.0046678027138113976,0.982030987739563,0.0,0.002068684436380863,0.71980881690979,0.03576309233903885,0.056003179401159286
232.0,346.0,2.2277,-0.5737,9.4098,-0.0379,0.0536,-0.1071,-1.7016526661314906,-0.0010984622640535235,2.7044525146484375,-1.6888718605041504,0.009636740200221539,2.139456272125244,4.640448732967041,2.1838141037733294e-05,0.288736492395401,-1.624880615864889,9.818898339523993e-42,0.00041625741869211197,0.9820111989974976,0.0,-0.004821532405912876,0.7199373841285706,0.039133816957473755,0.03719859942793846
232.0,346.0,2.2277,-0.5737,9.4098,-0.0379,0.0536,-0.1071,-1.7016684017577113,-0.0014181490987539291,2.6629366874694824,-1.6888728141784668,0.007774494122713804,2.1943066120147705,4.6404124933430175,2.086383210553322e-05,0.28356075286865234,-1.6248891989337366,4.203895392974451e-44,0.019071495160460472,0.982102632522583,0.0,0.003770418930798769,0.7200886011123657,0.040534306317567825,0.04028649628162384
232.0,346.0,2.2277,-0.5737,9.4098,-0.0379,0.0536,-0.1071,-1.701667924920553,-0.00277679692953825,2.717064380645752,-1.68882417678833,0.004972185008227825,2.128995180130005,4.640444918269775,1.9507308024913073e-05,0.29101458191871643,-1.6248768011676233,0.0,0.016911430284380913,0.9820716381072998,0.0,0.014360763132572174,0.7203366756439209,0.041896626353263855,0.07297234237194061
232.0,346.0,2.2277,-0.5737,9.4098,-0.0379,0.0536,-0.1071,-1.7016760311522425,-0.005759379826486111,2.7286486625671387,-1.6888086795806885,0.0027549215592443943,2.1627068519592285,4.640465422267578,8.316272470665353e-08,0.2790490984916687,-1.624948803578512,0.0,0.003518536686897278,0.9821147322654724,0.0,0.002344076056033373,0.7204440236091614,0.0430249348282814,0.08521489799022675
232.0,346.0,2.2277,-0.5737,9.4098,-0.0379,0.0536,-0.1071,-1.7017518482603968,-0.00823285710066557,2.7012996673583984,-1.6887880563735962,0.0016053670551627874,2.1563720703125,4.640396757716797,3.545357896150847e-10,0.2841210961341858,-1.6249049345599573,0.0,0.0015521564055234194,0.9820676445960999,0.0,0.0009689023718237877,0.7206442356109619,0.04325833544135094,0.053345371037721634
232.0,346.0,2.2277,-0.5737,9.4098,-0.0379,0.0536,-0.1071,-1.7017961941161097,-0.011460908688604832,2.6621546745300293,-1.6888563632965088,0.00019896290905307978,2.1599488258361816,4.640388651485107,1.5114416879527526e-12,0.2925304174423218,-1.6248725096331995,0.0,-0.0007904717931523919,0.9819952249526978,0.0,0.009182976558804512,0.7207849621772766,0.04225699231028557,0.04994770884513855
232.0,346.0,2.2277,-0.5737,9.4098,-0.0379,0.0536,-0.1071,-1.7018958530821742,-0.014173733070492744,2.6587939262390137,-1.6888325214385986,9.662483080319362e-08,2.168703079223633,4.640416784877441,6.443513460969129e-15,0.2766595482826233,-1.624908749257223,0.0,0.011390585452318192,0.9819952845573425,0.0,-0.005564351566135883,0.720960259437561,0.040197696536779404,0.06031116843223572
232.0,346.0,2.2277,-0.5737,9.4098,-0.0379,0.0536,-0.1071,-1.701928278008932,-0.015397239476442337,2.676084041595459,-1.688840627670288,1.7392127668602875e-11,2.114494800567627,4.640448732967041,2.7469708613375488e-17,0.2955304682254791,-1.6248772780047815,0.0,0.014945825561881065,0.9820271134376526,0.0,-0.015345485880970955,0.7211083769798279,0.03699864074587822,0.04251818358898163
232.0,346.0,2.2277,-0.5737,9.4098,-0.0379,0.0536,-0.1071,-1.7020040951170863,-0.015559283085167408,2.641357660293579,-1.6888525485992432,3.130521541186383e-15,2.151146173477173,4.640416784877441,1.1710766870719155e-19,0.30138683319091797,-1.6248529593097132,0.0,-0.006633453071117401,0.9820988774299622,0.0,0.00217351783066988,0.7212122678756714,0.03331608697772026,0.04555196315050125
232.0,346.0,2.2277,-0.5737,9.4098,-0.0379,0.0536,-0.1071,-1.702076097527975,-0.01538659818470478,2.666718006134033,-1.6888484954833984,5.634827744990589e-19,2.1678500175476074,4.640404863948486,4.992483827058157e-22,0.2890626788139343,-1.6248849073993128,0.0,0.0034076643642038107,0.9820188879966736,0.0,0.004353738855570555,0.7214128375053406,0.02974057011306286,0.010240337811410427
232.0,346.0,2.2277,-0.5737,9.4098,-0.0379,0.0536,-0.1071,-1.702179571191305,-0.014773876406252384,2.7510616779327393,-1.6888604164123535,1.3607446323848528e-24,2.1196889877319336,4.640392943019531,1.3896762293433498e-25,0.2808634340763092,-1.6248567740069788,0.0,0.00862858071923256,0.9820470809936523,0.0,0.007990041747689247,0.7215089201927185,0.024260856211185455,0.033298078924417496
232.0,346.0,2.2277,-0.5737,9.4098,-0.0379,0.0536,-0.1071,-1.7022515736021937,-0.014469386078417301,2.7000112533569336,-1.6888850927352905,2.4492920178659883e-28,2.1536550521850586,4.640360994929932,5.924407027968019e-28,0.2862321436405182,-1.6248686949359339,0.0,-0.002283921930938959,0.9820351004600525,0.0,0.0037920684553682804,0.7216048836708069,0.019644154235720634,0.01694461703300476
232.0,346.0,2.2277,-0.5737,9.4098,-0.0379,0.0536,-0.1071,-1.7023235760130824,-0.014690319076180458,2.669630289077759,-1.6888810396194458,4.4086392532603777e-32,2.179492473602295,4.640388651485107,2.5256675383349592e-30,0.29698118567466736,-1.6248567740069788,0.0,0.004403907805681229,0.9820826649665833,0.0,-0.014545775018632412,0.7216440439224243,0.01560989674180746,0.0016474728472530842
237.0,331.0,2.7099,0.4481,8.8965,-0.0473,-0.0305,-0.0938,-1.7023917637267054,-0.01457215566188097,2.6782941818237305,-1.6888443231582642,7.935395450895519e-36,2.1130309104919434,4.6403724390217285,1.0767315929865036e-32,0.29412510991096497,-1.6248729864703577,0.0,0.009457113221287727,0.9819552302360535,0.0,-0.012395687401294708,0.7217322587966919,0.011985884979367256,0.03731495887041092
237.0,331.0,2.7099,0.4481,8.8965,-0.0473,-0.0305,-0.0938,-1.702439924279684,-0.013719526119530201,2.716398239135742,-1.6889005899429321,1.428343524686286e-39,2.123201370239258,4.640356703395508,4.590275880410707e-35,0.29614371061325073,-1.6248610655414026,0.0,-0.010053226724267006,0.9820188879966736,0.0,-0.00038731517270207405,0.7217283844947815,0.008501422591507435,0.050162773579359055
237.0,331.0,2.7099,0.4481,8.8965,-0.0473,-0.0305,-0.0938,-1.7024952373900355,-0.015075093135237694,2.733893394470215,-1.6888686418533325,-0.0006518253358080983,2.1423850059509277,4.640376253718994,1.9569068034047326e-37,0.31342440843582153,-1.6248610655414026,0.0,0.004207313526421785,0.9820595979690552,0.0,-0.001906366553157568,0.7217885851860046,0.005586739629507065,-0.002423243597149849
237.0,331.0,2.7099,0.4481,8.8965,-0.0473,-0.0305,-0.0938,-1.7025472126402796,-0.014852228574454784,2.7001397609710693,-1.6888320446014404,-0.0006200041971169412,2.1709723472595215,4.640360994929932,8.342602381388512e-40,0.29636499285697937,-1.6248772780047815,0.0,0.0024228354450315237,0.9820351004600525,0.0,0.00458330474793911,0.7217355370521545,0.0034347577020525932,-0.014839348383247852
237.0,331.0,2.7099,0.4481,8.8965,-0.0473,-0.0305,-0.0938,-1.7026235065855921,-0.013619259931147099,2.682554006576538,-1.6888645887374878,-0.00042115815449506044,2.134080410003662,4.640388651485107,3.556495502456386e-42,0.295541912317276,-1.6248729864703577,0.0,-0.013595478609204292,0.9819794297218323,0.0,-0.00150291936006397,0.7217838764190674,0.001890734420157969,-0.0020508356392383575
237.0,331.0,2.7099,0.4481,8.8965,-0.0473,-0.0305,-0.0938,-1.7026549778380335,-0.011430541053414345,2.688107967376709,-1.6888402700424194,-0.0002629772643558681,2.1084139347076416,4.640352411861084,1.401298464324817e-45,0.303808331489563,-1.6248729864703577,0.0,0.003802068065851927,0.9820907115936279,0.0,0.006261385977268219,0.7217838764190674,0.0009950092062354088,0.016009094193577766
237.0,331.0,2.7099,0.4481,8.8965,-0.0473,-0.0305,-0.0938,-1.7027274570860804,-0.00949202198535204,2.664827585220337,-1.6888283491134644,-0.00017445735284127295,2.168800115585327,4.640356703395508,0.0,0.2930915653705597,-1.6248210112201136,0.0,-0.013398643583059311,0.982067346572876,0.0,-0.010745597071945667,0.7217880487442017,0.0007559676305390894,0.004845681134611368
237.0,331.0,2.7099,0.4481,8.8965,-0.0473,-0.0305,-0.0938,-1.702726503411764,-0.008263682015240192,2.6816632747650146,-1.6888246536254883,-0.00015262597298715264,2.118136167526245,4.6403772073933105,-0.0003187050751876086,0.3091384470462799,-1.6248248259173792,0.0,-0.003949247766286135,0.9820430278778076,0.0,-0.005175448022782803,0.7217599749565125,0.0006095846183598042,-0.005756769794970751
237.0,331.0,2.7099,0.4481,8.8965,-0.0473,-0.0305,-0.0938,-1.7027470074095667,-0.0063250623643398285,2.644277572631836,-1.6888892650604248,-0.00013712125655729324,2.1585021018981934,4.6403209406086425,-0.0003695063933264464,0.3040067255496979,-1.6248329321490687,0.0,-0.008568799123167992,0.9820311069488525,0.0,0.0014772261492908,0.7218363285064697,0.0005107144243083894,0.0123828686773777
237.0,331.0,2.7099,0.4481,8.8965,-0.0473,-0.0305,-0.0938,-1.7028428516783656,-0.00562423188239336,2.689601421356201,-1.6888686418533325,0.00010482811921974644,2.1560044288635254,4.640344782466553,-0.0003813040384557098,0.29459148645401,-1.6248810927020472,0.0,-0.013703981414437294,0.9820787906646729,0.0,0.013505958952009678,0.7218080759048462,0.0004996119532734156,-0.04427466541528702
237.0,331.0,2.7099,0.4481,8.8965,-0.0473,-0.0305,-0.0938,-1.7028304539122523,-0.00607735849916935,2.686028242111206,-1.6888402700424194,0.00010170422319788486,2.2299864292144775,4.640337153072021,-0.0005208534421399236,0.30201655626296997,-1.6248772780047815,0.0,-0.0049517033621668816,0.9820713996887207,0.0,0.0013188471784815192,0.7217637896537781,0.00044270383659750223,-0.03532254323363304
237.0,331.0,2.7099,0.4481,8.8965,-0.0473,-0.0305,-0.0938,-1.7028542957701625,-0.006482962518930435,2.6705994606018066,-1.6888443231582642,9.137827146332711e-05,2.216949939727783,4.640360994929932,-0.0006682779639959335,0.3012029528617859,-1.6248448530780237,0.0,-0.014507899060845375,0.9820470809936523,0.0,0.010037200525403023,0.7217638492584229,0.00035046733682975173,0.006145581603050232
237.0,331.0,2.7099,0.4481,8.8965,-0.0473,-0.0305,-0.0938,-1.702890535394186,-0.007011292967945337,2.7149415016174316,-1.6888325214385986,7.930022547952831e-05,2.155397653579712,4.640337153072021,-0.0010033997241407633,0.2939319610595703,-1.624873463307516,0.0,0.0010337642161175609,0.982051432132721,0.0,-0.001879471237771213,0.7217877507209778,0.0012392726493999362,0.03401915729045868
237.0,331.0,2.7099,0.4481,8.8965,-0.0473,-0.0305,-0.0938,-1.7029348812498988,-0.007934204302728176,2.6810617446899414,-1.6888283491134644,0.00010783607285702601,2.1331214904785156,4.6403533655354,-0.0007651454070582986,0.2914523184299469,-1.6248534361468714,0.0,-0.0012258151546120644,0.9820747971534729,0.0,0.0035733566619455814,0.7218278646469116,0.001943177543580532,-0.03638016805052757
237.0,331.0,2.7099,0.4481,8.8965,-0.0473,-0.0305,-0.0938,-1.7029749355711878,-0.00783825945109129,2.64517879486084,-1.6888563632965088,0.00013436749577522278,2.1726901531219482,4.640328570003174,-0.000596029800362885,0.294342964887619,-1.6248610655414026,0.0,-0.009612763300538063,0.9820271134376526,0.0,0.004313307348638773,0.7218039035797119,0.0020989547483623028,-0.0070365420542657375
237.0,331.0,2.7099,0.4481,8.8965,-0.0473,-0.0305,-0.0938,-1.702958723107809,-0.007869278080761433,2.624262571334839,-1.6888809204101562,0.00015665101818740368,2.1281325817108154,4.640308542842529,-0.0005664430791512132,0.30503717064857483,-1.6248891989337366,0.0,-0.0055313254706561565,0.9820192456245422,0.0,0.008196435868740082,0.7218319773674011,0.0020988460164517164,-0.02261069416999817
237.0,331.0,2.7099,0.4481,8.8965,-0.0473,-0.0305,-0.0938,-1.7029863796629847,-0.00861701276153326,2.618144989013672,-1.6888206005096436,0.0002864008420147002,2.160365343093872,4.640336676234863,-0.00048219520249404013,0.3044838309288025,-1.6248486677752894,0.0,0.0024453066289424896,0.982067346572876,0.0,0.013932591304183006,0.7218237519264221,0.002171708270907402,-0.03473282232880592
237.0,331.0,2.7099,0.4481,8.8965,-0.0473,-0.0305,-0.0938,-1.7030588589110316,-0.008577545173466206,2.5865516662597656,-1.688840627670288,0.000305521854897961,2.1361849308013916,4.640332861537598,-0.000418151292251423,0.30053189396858215,-1.624857250844137,0.0,-0.0018650623969733715,0.9820595979690552,0.0,-0.005193904507905245,0.7218599915504456,0.0022195950150489807,-0.02738022804260254
237.0,331.0,2.7099,0.4481,8.8965,-0.0473,-0.0305,-0.0938,-1.7031227550902308,-0.009834169410169125,2.6021053791046143,-1.6888567209243774,0.00027448529726825655,2.140326976776123,4.640337153072021,-0.0003691247839014977,0.2924867272377014,-1.624885384236471,0.0,0.0004858876345679164,0.9820674061775208,0.0,0.009341603145003319,0.7218397855758667,0.0017729615792632103,0.014348330907523632
237.0,331.0,2.7099,0.4481,8.8965,-0.0473,-0.0305,-0.0938,-1.703146596948141,-0.01071453932672739,2.5711092948913574,-1.6888447999954224,0.0002491546038072556,2.1274197101593018,4.640337153072021,-0.0003712474135681987,0.2979466915130615,-1.6248491446124476,0.0,0.002963668666779995,0.9820595979690552,0.0,0.005401903763413429,0.721900224685669,0.0015880630817264318,-0.06241370737552643
237.0,331.0,2.7099,0.4481,8.8965,-0.0473,-0.0305,-0.0938,-1.7032228908934535,-0.012700017541646957,2.5696487426757812,-1.6888206005096436,0.0002188585785916075,2.1135966777801514,4.640337153072021,-0.00032624698360450566,0.3010019063949585,-1.6248849073993128,0.0,-0.003153666853904724,0.9820554256439209,0.0,-0.0036984009202569723,0.7218883037567139,0.0013419428141787648,-0.04255570471286774
234.0,341.0,2.2355,0.2417,9.1627,-0.0371,0.0344,-0.1106,-1.7032543621458949,-0.013630194589495659,2.5399973392486572,-1.6888046264648438,0.00020244733605068177,2.161060333251953,4.6403090196796875,-0.00022794729738961905,0.29718565940856934,-1.624808136616842,0.0,0.005534742027521133,0.9820865988731384,0.0,-0.021316789090633392,0.7218477129936218,0.0013596127973869443,-0.07882826030254364
234.0,341.0,2.2355,0.2417,9.1627,-0.0371,0.0344,-0.1106,-1.7033430538573207,-0.014655319042503834,2.5746970176696777,-1.6887962818145752,0.00018832602654583752,2.165408134460449,4.6403209406086425,-0.00020280247554183006,0.29061418771743774,-1.6248729864703577,0.0,0.0021569302771240473,0.9821226596832275,0.0,0.002368353772908449,0.7219118475914001,0.0014743247302249074,-0.05294276401400566
234.0,341.0,2.2355,0.2417,9.1627,-0.0371,0.0344,-0.1106,-1.7033826313414515,-0.015830567106604576,2.534952402114868,-1.6888365745544434,0.00017604643653612584,2.135327100753784,4.640260382289551,-0.00018601244664750993,0.2955348491668701,-1.6248934904681605,0.0,0.0013148614671081305,0.982026994228363,0.0,-0.006423474755138159,0.7218959927558899,0.002105762716382742,-0.029673777520656586
234.0,341.0,2.2355,0.2417,9.1627,-0.0371,0.0344,-0.1106,-1.7034584484496058,-0.016782833263278008,2.5326497554779053,-1.6888529062271118,0.00019277044339105487,2.1506259441375732,4.640340967769287,-0.0001718065468594432,0.29157736897468567,-1.6248329321490687,0.0,-0.008547593839466572,0.9821025133132935,0.0,-0.004406162537634373,0.7219039797782898,0.00255825137719512,-0.03037012740969658
234.0,341.0,2.2355,0.2417,9.1627,-0.0371,0.0344,-0.1106,-1.7035380802550257,-0.017408838495612144,2.5319108963012695,-1.6888206005096436,0.0002082267455989495,2.135218620300293,4.640313311214111,-0.0001596166257513687,0.29718464612960815,-1.6248810927020472,0.0,0.0017144714947789907,0.9820111989974976,0.0,-0.002760364906862378,0.7219601273536682,0.003322714241221547,-0.062173597514629364
234.0,341.0,2.2355,0.2417,9.1627,-0.0371,0.0344,-0.1106,-1.7036224804320277,-0.018358362838625908,2.4975576400756836,-1.6888525485992432,0.00027740636141970754,2.1163272857666016,4.640345259303711,-0.00014904231647960842,0.30068084597587585,-1.6248367468463343,0.0,-0.0006673273164778948,0.982051432132721,0.0,0.006210977211594582,0.7219398617744446,0.0038659756537526846,-0.03062450885772705
234.0,341.0,2.2355,0.2417,9.1627,-0.0371,0.0344,-0.1106,-1.7036262951292933,-0.019746659323573112,2.5205187797546387,-1.688828706741333,0.0012990611139684916,2.1362340450286865,4.640264673823975,-0.00013978166680317372,0.29213008284568787,-1.6248367468463343,0.0,-0.00641329400241375,0.9820348620414734,0.0,0.007561658509075642,0.7219555377960205,0.00464062811806798,-0.08340279757976532
234.0,341.0,2.2355,0.2417,9.1627,-0.0371,0.0344,-0.1106,-1.7038341961302699,-0.021918730810284615,2.53240966796875,-1.6887805461883545,0.0015814881771802902,2.162306547164917,4.6403090196796875,-0.00012786526349373162,0.30959653854370117,-1.6248772780047815,0.0,-0.004870888777077198,0.9819991588592529,0.0,-0.0012155891163274646,0.7220523357391357,0.00658206595107913,-0.0519489161670208
234.0,341.0,2.2355,0.2417,9.1627,-0.0371,0.0344,-0.1106,-1.7038856945433558,-0.02312813140451908,2.502681255340576,-1.688772439956665,0.0014763233484700322,2.16245174407959,4.640300913447998,-0.00012098910519853234,0.2952400743961334,-1.6248810927020472,0.0,0.00407369015738368,0.9820595979690552,0.0,0.011095335707068443,0.7219991087913513,0.007701450027525425,-0.06330297887325287
234.0,341.0,2.2355,0.2417,9.1627,-0.0371,0.0344,-0.1106,-1.703993936578268,-0.02480340003967285,2.531620502471924,-1.688788890838623,0.001289732870645821,2.09098219871521,4.640288515681885,-0.00011481486581033096,0.2955339848995209,-1.6248729864703577,0.0,0.0038942359387874603,0.982015073299408,0.0,-0.0018447712063789368,0.7220718264579773,0.00878344476222992,-0.08486106246709824
234.0,341.0,2.2355,0.2417,9.1627,-0.0371,0.0344,-0.1106,-1.704053064385885,-0.026957077905535698,2.5895891189575195,-1.688724398612976,0.0012265426339581609,2.1942193508148193,4.640325232143066,-0.00010924023081315681,0.29696935415267944,-1.6248729864703577,0.0,-0.006174660753458738,0.982015073299408,0.0,-0.0006876542465761304,0.7221319079399109,0.01006290502846241,-0.08154545724391937
234.0,341.0,2.2355,0.2417,9.1627,-0.0371,0.0344,-0.1106,-1.7042018375792445,-0.029031001031398773,2.5380184650421143,-1.6887609958648682,0.0013022186467424035,2.135342836380005,4.640316649074219,-8.370554860448465e-05,0.3001784086227417,-1.6249049345599573,0.0,0.001332261716015637,0.9820634722709656,0.0,-0.003394677769392729,0.7221677899360657,0.01135165523737669,-0.049894727766513824
234.0,341.0,2.2355,0.2417,9.1627,-0.0371,0.0344,-0.1106,-1.7043420277037562,-0.03100806474685669,2.527362823486328,-1.6887444257736206,0.001456379541195929,2.135601043701172,4.640296621913574,-7.965845725266263e-05,0.30024734139442444,-1.624841038380758,0.0,-0.018429327756166458,0.9821025133132935,0.0,0.003980991430580616,0.7222319841384888,0.012896746397018433,-0.054354943335056305
234.0,341.0,2.2355,0.2417,9.1627,-0.0371,0.0344,-0.1106,-1.70444979290151,-0.032316699624061584,2.5515103340148926,-1.6887526512145996,0.0018315974157303572,2.0846621990203857,4.640329046840332,-7.62810668675229e-05,0.2992118000984192,-1.6248930136310022,0.0,-0.00103328051045537,0.9821107387542725,0.0,0.012056746520102024,0.7222919464111328,0.014432848431169987,-0.03495641052722931
234.0,341.0,2.2355,0.2417,9.1627,-0.0371,0.0344,-0.1106,-1.7045532665648402,-0.03511062636971474,2.5308403968811035,-1.688760757446289,0.002306909067556262,2.1775918006896973,4.640304728145264,-7.31798354536295e-05,0.31645411252975464,-1.6248491446124476,0.0,-0.022780271247029305,0.9820947051048279,0.0,-0.003686338197439909,0.7223559617996216,0.015656286850571632,-0.0590679794549942
234.0,341.0,2.2355,0.2417,9.1627,-0.0371,0.0344,-0.1106,-1.7047730884947718,-0.03634567931294441,2.5093581676483154,-1.6887447834014893,0.0029840327333658934,2.160521984100342,4.640345259303711,-6.897364073665813e-05,0.30259546637535095,-1.624897305165426,0.0,-0.0075928871519863605,0.9820755124092102,0.0,0.010307111777365208,0.7224438786506653,0.017168760299682617,-0.029991433024406433
234.0,341.0,2.2355,0.2417,9.1627,-0.0371,0.0344,-0.1106,-1.7049409351744593,-0.038445405662059784,2.5125210285186768,-1.688712239265442,0.004090862814337015,2.16117000579834,4.640296621913574,-6.642800872214139e-05,0.30668511986732483,-1.6248567740069788,0.0,-0.00221751956269145,0.9820747971534729,0.0,0.009715409949421883,0.7224918007850647,0.018754640594124794,-0.004031444899737835
234.0,341.0,2.2355,0.2417,9.1627,-0.0371,0.0344,-0.1106,-1.7050930462279261,-0.04174959659576416,2.531174421310425,-1.688712239265442,0.0043722037225961685,2.137645721435547,4.640328570003174,-6.406378088286147e-05,0.314046174287796,-1.6249092260943812,0.0,-0.02498798444867134,0.9820865988731384,0.0,0.010554183274507523,0.7225712537765503,0.020435618236660957,-0.04511885344982147
234.0,341.0,2.2355,0.2417,9.1627,-0.0371,0.0344,-0.1106,-1.7052084408202113,-0.04273099824786186,2.5340421199798584,-1.6887168884277344,0.0054353694431483746,2.1521170139312744,4.640316649074219,-6.186203972902149e-05,0.3006824851036072,-1.624897305165426,0.0,-0.009939366020262241,0.982106626033783,0.0,0.013292036950588226,0.7226676940917969,0.021152177825570107,0.008123648352921009
234.0,341.0,2.2355,0.2417,9.1627,-0.0371,0.0344,-0.1106,-1.7054807148375453,-0.04562538489699364,2.5137805938720703,-1.6886727809906006,0.006283094175159931,2.123964548110962,4.640300913447998,-5.980664354865439e-05,0.3030726909637451,-1.6248205343829554,0.0,-0.009150560013949871,0.9820946455001831,0.0,0.01177685521543026,0.7227433323860168,0.022245360538363457,-0.05623749643564224
234.0,341.0,2.2355,0.2417,9.1627,-0.0371,0.0344,-0.1106,-1.705588003198141,-0.048954591155052185,2.478964328765869,-1.688697099685669,0.007007071282714605,2.1644344329833984,4.640360994929932,-5.788340058643371e-05,0.31626373529434204,-1.6248930136310022,0.0,-0.013326792046427727,0.9821344614028931,0.0,0.018617045134305954,0.7228757739067078,0.022229470312595367,-0.0823061466217041
234.0,341.0,2.2355,0.2417,9.1627,-0.0371,0.0344,-0.1106,-1.7058245144286097,-0.052109844982624054,2.515333652496338,-1.6886210441589355,0.007971559651196003,2.1497058868408203,4.640364809627197,-4.21216718677897e-05,0.30993854999542236,-1.6248486677752894,0.0,-0.015418910421431065,0.9821106195449829,0.00012120970495743677,0.019742151722311974,0.722996175289154,0.022655751556158066,-0.027250267565250397
233.0,342.0,2.1577,-0.1693,9.0066,-0.0431,-0.0057,-0.0935,-1.7060557804503382,-0.053765807300806046,2.4556808471679688,-1.6885569095611572,0.008883601054549217,2.171982765197754,4.6403772073933105,-1.7814587636166834e-06,0.3036220669746399,-1.6248930136310022,0.0,-0.0009330987231805921,0.9820550084114075,0.00014643240137957036,0.030164290219545364,0.7230597734451294,0.02268432453274727,-0.0055159106850624084
233.0,342.0,2.1577,-0.1693,9.0066,-0.0431,-0.0057,-0.0935,-1.7062908611693324,-0.05430134758353233,2.4969639778137207,-1.6885091066360474,0.01189443003386259,2.173659324645996,4.640332861537598,4.95835738547612e-05,0.3113284707069397,-1.6248605887042444,0.0,-0.014095926657319069,0.9821180701255798,0.00016990497533697635,0.03255602344870567,0.7232240438461304,0.022898711264133453,0.005416585132479668
233.0,342.0,2.1577,-0.1693,9.0066,-0.0431,-0.0057,-0.0935,-1.7065631351866664,-0.05760699138045311,2.520699977874756,-1.6884527206420898,0.01256215013563633,2.1352851390838623,4.640340490932129,5.214680641074665e-05,0.3218475580215454,-1.624908749257223,0.0,-0.010923239402472973,0.9820667505264282,0.0004649100301321596,0.032763801515102386,0.7232674360275269,0.022504199296236038,-0.008657075464725494
233.0,342.0,2.1577,-0.1693,9.0066,-0.0431,-0.0057,-0.0935,-1.706823011437887,-0.059573665261268616,2.500929355621338,-1.6884007453918457,0.013267184607684612,2.1642394065856934,4.640381498927734,5.0225866289110854e-05,0.3075977563858032,-1.6248686949359339,0.0,-0.0027439510449767113,0.982142984867096,0.0005264294450171292,0.0360800102353096,0.7234039306640625,0.022600004449486732,0.002268553012982011
233.0,342.0,2.1577,-0.1693,9.0066,-0.0431,-0.0057,-0.0935,-1.7070352039732875,-0.0629672035574913,2.471251964569092,-1.6883082389831543,0.013930832035839558,2.126335382461548,4.640296621913574,4.842430280405097e-05,0.3155146539211273,-1.624841038380758,0.0,-0.0006754277274012566,0.9821630120277405,0.0005287535605020821,0.045593731105327606,0.7235081195831299,0.0227260310202837,0.004769239109009504
233.0,342.0,2.1577,-0.1693,9.0066,-0.0431,-0.0057,-0.0935,-1.7073546848692835,-0.06644432246685028,2.4751062393188477,-1.6882803440093994,0.014988712966442108,2.2217559814453125,4.640356703395508,4.6747460146434605e-05,0.30877214670181274,-1.6248567740069788,0.0,-0.018476713448762894,0.9820784330368042,0.0005207707872614264,0.03976035863161087,0.7235718965530396,0.022239184007048607,0.032626230269670486
233.0,342.0,2.1577,-0.1693,9.0066,-0.0431,-0.0057,-0.0935,-1.7076102695860804,-0.06877853721380234,2.476027250289917,-1.6881312131881714,0.015282430686056614,2.1493968963623047,4.640308542842529,4.518292917055078e-05,0.31609487533569336,-1.6249049345599573,0.0,-0.027080142870545387,0.982138454914093,0.0005356246256269515,0.046614520251750946,0.7236757874488831,0.02225537598133087,-0.01663641259074211
233.0,342.0,2.1577,-0.1693,9.0066,-0.0431,-0.0057,-0.0935,-1.7078944645323695,-0.07040978223085403,2.4813790321350098,-1.6880762577056885,0.016506412997841835,2.1522645950317383,4.6403490740009765,4.3719592213165015e-05,0.3115001320838928,-1.6248529593097132,0.0,-0.02499299868941307,0.9821547865867615,0.0005192732787691057,0.041715748608112335,0.7237150073051453,0.02246060222387314,0.008989247493445873
233.0,342.0,2.1577,-0.1693,9.0066,-0.0431,-0.0057,-0.0935,-1.7082778416075648,-0.07054413110017776,2.509174108505249,-1.6880366802215576,0.016511350870132446,2.1322081089019775,4.640356703395508,4.169425301370211e-05,0.3251449465751648,-1.6248768011676233,0.0,-0.014136388897895813,0.982073962688446,0.0004699183627963066,0.06394247710704803,0.7238996028900146,0.021781597286462784,-0.029448896646499634
233.0,342.0,2.1577,-0.1693,9.0066,-0.0431,-0.0057,-0.0935,-1.708581110040182,-0.07129382342100143,2.4526989459991455,-1.6879565715789795,0.017589444294571877,2.132659435272217,4.6403490740009765,4.044507659273222e-05,0.3286956548690796,-1.624897305165426,0.0,-0.021218087524175644,0.9821104407310486,0.00043925197678618133,0.054557591676712036,0.7239514589309692,0.022245289757847786,-0.06979100406169891
233.0,342.0,2.1577,-0.1693,9.0066,-0.0431,-0.0057,-0.0935,-1.7088853321471156,-0.07535753399133682,2.470712661743164,-1.687933087348938,0.017699049785733223,2.173494815826416,4.640328570003174,3.9268648833967745e-05,0.3194802403450012,-1.6248729864703577,0.0,-0.02635769173502922,0.9821667075157166,0.00041511599556542933,0.05012515187263489,0.724111795425415,0.02303454279899597,-0.012889495119452477
233.0,342.0,2.1577,-0.1693,9.0066,-0.0431,-0.0057,-0.0935,-1.7091409168639125,-0.07864739745855331,2.465040683746338,-1.687800645828247,0.01780102588236332,2.1796464920043945,4.640296621913574,3.81587196898181e-05,0.3162546753883362,-1.6248768011676233,0.0,-0.020619910210371017,0.9821388721466064,0.000372285459889099,0.04824342578649521,0.7241594195365906,0.02417745627462864,-0.010886858217418194
233.0,342.0,2.1577,-0.1693,9.0066,-0.0431,-0.0057,-0.0935,-1.709496637383932,-0.08266449719667435,2.518249750137329,-1.6877281665802002,0.017240401357412338,2.1500587463378906,4.640312834376953,3.7109770346432924e-05,0.3189246654510498,-1.6248844305621546,0.0,0.0005756337195634842,0.9821629524230957,0.00031944652437232435,0.05779697000980377,0.7242754697799683,0.025929613038897514,0.0607496052980423
233.0,342.0,2.1577,-0.1693,9.0066,-0.0431,-0.0057,-0.0935,-1.7098084888853968,-0.08792325109243393,2.4593470096588135,-1.6877009868621826,0.017051314935088158,2.1883273124694824,4.640332861537598,3.611694774008356e-05,0.3227924704551697,-1.6248891989337366,0.0,-0.017925072461366653,0.9821430444717407,0.00027945288456976414,0.05547831952571869,0.7243513464927673,0.02676577679812908,-0.03469891473650932
233.0,342.0,2.1577,-0.1693,9.0066,-0.0431,-0.0057,-0.0935,-1.710168024102682,-0.09170148521661758,2.5038304328918457,-1.6875886917114258,0.017565684393048286,2.1621551513671875,4.64030043661084,3.517591176205315e-05,0.3354099988937378,-1.6248968283282679,0.0,-0.030344141647219658,0.9821866154670715,0.00029781440389342606,0.061743300408124924,0.7245033979415894,0.028750840574502945,-0.015723634511232376
233.0,342.0,2.1577,-0.1693,9.0066,-0.0431,-0.0057,-0.0935,-1.7104994259276332,-0.09588567912578583,2.448838472366333,-1.6875007152557373,0.01950673572719097,2.182598829269409,4.640360994929932,4.561163950711489e-05,0.3222580552101135,-1.6249049345599573,0.0,-0.03677330166101456,0.9820824861526489,0.00026859299396164715,0.054658614099025726,0.7246036529541016,0.029749922454357147,-0.013251086696982384
233.0,342.0,2.1577,-0.1693,9.0066,-0.0431,-0.0057,-0.0935,-1.7110949955382289,-0.09519986063241959,2.4300920963287354,-1.6873323917388916,0.021870523691177368,2.152824878692627,4.640336676234863,0.00011846170673379675,0.3070089817047119,-1.6248772780047815,0.0,-0.043708913028240204,0.9821509718894958,0.0002674628922250122,0.05469246581196785,0.7247955799102783,0.030995698645710945,-0.027337750419974327
233.0,342.0,2.1577,-0.1693,9.0066,-0.0431,-0.0057,-0.0935,-1.711442609826559,-0.09563488513231277,2.469435691833496,-1.6872520446777344,0.023106975480914116,2.221073627471924,4.640401049251221,0.00014231816749088466,0.30541497468948364,-1.6249130407916468,0.0,-0.02789422497153282,0.9821223020553589,0.00025091544375754893,0.06621281802654266,0.7249478101730347,0.03123575635254383,0.030600469559431076
233.0,342.0,2.1577,-0.1693,9.0066,-0.0431,-0.0057,-0.0935,-1.711881776849264,-0.09689383208751678,2.4469523429870605,-1.687152624130249,0.023486021906137466,2.169907808303833,4.640348597163818,0.00013809798110742122,0.31052452325820923,-1.6248329321490687,0.0,-0.032672349363565445,0.9821589589118958,0.000232419217354618,0.05730806663632393,0.7250595092773438,0.03154979646205902,-0.013204758986830711
233.0,342.0,2.1577,-0.1693,9.0066,-0.0431,-0.0057,-0.0935,-1.7122780285277308,-0.09933891892433167,2.4092745780944824,-1.6870557069778442,0.023607101291418076,2.205672025680542,4.6403843599506835,0.00013139059592504054,0.3049587905406952,-1.6248729864703577,0.0,-0.02553320676088333,0.9821788668632507,0.00021644642401952296,0.07456332445144653,0.7251510620117188,0.03199039027094841,0.020206838846206665
233.0,342.0,2.1577,-0.1693,9.0066,-0.0431,-0.0057,-0.0935,-1.7127391300597132,-0.10096900910139084,2.4360175132751465,-1.6869728565216064,0.02133166417479515,2.170804023742676,4.640373392696045,0.00012529297964647412,0.3055190443992615,-1.6248849073993128,0.0,-0.04187062382698059,0.9821023941040039,0.00020252837566658854,0.05851244181394577,0.7252913117408752,0.03169611096382141,-0.0015801595291122794
232.0,358.0,1.8066,0.2309,9.3302,-0.0325,-0.0252,-0.0899,-1.7131115398802699,-0.10180628299713135,2.4010372161865234,-1.6869168281555176,0.019805019721388817,2.191986322402954,4.640316649074219,0.00011973654909525067,0.30931949615478516,-1.6248810927020472,0.0,-0.039055004715919495,0.9821985363960266,0.00019029254326596856,0.06551605463027954,0.7254554033279419,0.03082682192325592,0.008248605765402317
232.0,358.0,1.8066,0.2309,9.3302,-0.0325,-0.0252,-0.0899,-1.7135683498778285,-0.10325213521718979,2.4090840816497803,-1.686828851699829,0.01743873953819275,2.1638758182525635,4.640332861537598,0.00011465200805105269,0.3069145083427429,-1.624897305165426,0.0,-0.023576881736516953,0.9821587204933167,0.0001794506679289043,0.07260838150978088,0.7255229949951172,0.029763704165816307,-0.04429774731397629
232.0,358.0,1.8066,0.2309,9.3302,-0.0325,-0.0252,-0.0899,-1.7139598331847132,-0.10474666953086853,2.427941083908081,-1.6867562532424927,0.014760246500372887,2.165672779083252,4.640404863948486,0.00010998178913723677,0.31237852573394775,-1.6248930136310022,0.0,-0.032786834985017776,0.9821183085441589,0.00016977811174001545,0.08532565832138062,0.7256511449813843,0.02863769419491291,-0.005013292655348778
232.0,358.0,1.8066,0.2309,9.3302,-0.0325,-0.0252,-0.0899,-1.7145892582335414,-0.11029014736413956,2.4212920665740967,-1.6867127418518066,0.011485612019896507,2.159205436706543,4.640364809627197,0.00012088426592526957,0.3164936900138855,-1.6248248259173792,0.0,-0.02283540368080139,0.9821389317512512,0.00015707811689935625,0.06889008730649948,0.7258149981498718,0.026678886264562607,-0.006617913022637367
232.0,358.0,1.8066,0.2309,9.3302,-0.0325,-0.0252,-0.0899,-1.7150780163206996,-0.11573738604784012,2.451394557952881,-1.6865967512130737,0.009583595208823681,2.138317823410034,4.640365286464355,0.00011645259655779228,0.3171258568763733,-1.6248491446124476,0.0,-0.03718116134405136,0.9821024537086487,0.0001496168115409091,0.06417504698038101,0.7259188890457153,0.025968587026000023,0.011005724780261517
232.0,358.0,1.8066,0.2309,9.3302,-0.0325,-0.0252,-0.0899,-1.7154699764647425,-0.12064554542303085,2.409620761871338,-1.6865806579589844,0.009106128476560116,2.1473450660705566,4.640448732967041,0.00011230117524974048,0.31225574016571045,-1.6248686949359339,0.0,-0.02103373035788536,0.9821023941040039,0.00014283237396739423,0.0553058460354805,0.7260390520095825,0.024266615509986877,-0.11622531712055206
232.0,358.0,1.8066,0.2309,9.3302,-0.0325,-0.0252,-0.0899,-1.7159749470152796,-0.12688122689723969,2.395442247390747,-1.686556339263916,0.009213126264512539,2.1407899856567383,4.640389128322266,0.00015618480392731726,0.30751094222068787,-1.6248610655414026,0.0,-0.03356672450900078,0.9821344614028931,0.00013663663412444293,0.05613524466753006,0.7261190414428711,0.021824881434440613,-0.04486903175711632
232.0,358.0,1.8066,0.2309,9.3302,-0.0325,-0.0252,-0.0899,-1.7164999447264613,-0.13185881078243256,2.396418571472168,-1.6864724159240723,0.010685921646654606,2.1509411334991455,4.640389128322266,0.00023630551004316658,0.3190574049949646,-1.6248486677752894,0.0,-0.045593831688165665,0.9821749329566956,0.00013095598842483014,0.06094086170196533,0.7261708974838257,0.020996909588575363,-0.042306870222091675
232.0,358.0,1.8066,0.2309,9.3302,-0.0325,-0.0252,-0.0899,-1.717053075829977,-0.13151662051677704,2.4202494621276855,-1.6864407062530518,0.013635746203362942,2.1678316593170166,4.640428705806396,0.001342926872894168,0.3112676441669464,-1.6249011198626917,0.0,-0.024637363851070404,0.9821828007698059,0.00012572889681905508,0.05334252119064331,0.7262830138206482,0.019850539043545723,-0.0302407406270504
232.0,358.0,1.8066,0.2309,9.3302,-0.0325,-0.0252,-0.0899,-1.7176095447936,-0.13094176352024078,2.3897337913513184,-1.6863725185394287,0.017014628276228905,2.1780872344970703,4.640424891109131,0.0019411771791055799,0.3186052441596985,-1.624897305165426,0.0,-0.04088382050395012,0.982118546962738,0.00012090301606804132,0.06649553030729294,0.7264073491096497,0.019565748050808907,-0.049400944262742996
232.0,358.0,1.8066,0.2309,9.3302,-0.0325,-0.0252,-0.0899,-1.7180611095824183,-0.12472301721572876,2.401388645172119,-1.6862478256225586,0.0206669420003891,2.17602801322937,4.640449209804199,0.0020393962040543556,0.3175843358039856,-1.6248686949359339,0.0,-0.04601995646953583,0.9820905327796936,0.00011643399193417281,0.06555482000112534,0.7264264225959778,0.02007375657558441,-0.047490574419498444
232.0,358.0,1.8066,0.2309,9.3302,-0.0325,-0.0252,-0.0899,-1.718882223168844,-0.1180044487118721,2.4465043544769287,-1.6861600875854492,0.02431587129831314,2.182835340499878,4.64045683919873,0.0015301014063879848,0.3207142651081085,-1.6249411741839808,0.0,-0.04937310516834259,0.982058584690094,0.00011031737085431814,0.03975697606801987,0.7266308665275574,0.0201872605830431,-0.039785388857126236
232.0,358.0,1.8066,0.2309,9.3302,-0.0325,-0.0252,-0.0899,-1.7194153271117152,-0.1189662516117096,2.4702391624450684,-1.6861449480056763,0.023626727983355522,2.219087839126587,4.640412970180176,0.0010377566795796156,0.3213447630405426,-1.6248329321490687,0.0,-0.03946187347173691,0.9821430444717407,0.00010658458631951362,0.06043068692088127,0.726671040058136,0.02140134386718273,-0.03490561991930008
232.0,358.0,1.8066,0.2309,9.3302,-0.0325,-0.0252,-0.0899,-1.7199517689146937,-0.12682217359542847,2.4352660179138184,-1.6860201358795166,0.02142024226486683,2.1716232299804688,4.640396757716797,0.0007799820741638541,0.3169479966163635,-1.6249249617206019,0.0,-0.04130091518163681,0.9820986986160278,0.00010309617209713906,0.0510641410946846,0.7267788648605347,0.02313542366027832,0.04569892957806587
232.0,358.0,1.8066,0.2309,9.3302,-0.0325,-0.0252,-0.0899,-1.7204767666258753,-0.13775509595870972,2.414330244064331,-1.6859853267669678,0.01837337575852871,2.137627363204956,4.640420599574707,0.000624942360445857,0.32574325799942017,-1.6249130407916468,0.0,-0.045666277408599854,0.9821470379829407,9.982881601899862e-05,0.06493984907865524,0.7268670201301575,0.023598888888955116,-0.028783541172742844
232.0,358.0,1.8066,0.2309,9.3302,-0.0325,-0.0252,-0.0899,-1.7210732899107875,-0.1482234001159668,2.4272470474243164,-1.685868501663208,0.015777524560689926,2.186044216156006,4.640448732967041,0.0005213795811869204,0.3166182339191437,-1.6248729864703577,0.0,-0.053434133529663086,0.982102632522583,9.676229819888249e-05,0.05246356129646301,0.7269667983055115,0.02412363886833191,0.007201502099633217
232.0,358.0,1.8066,0.2309,9.3302,-0.0325,-0.0252,-0.0899,-1.7216502628722132,-0.1567600518465042,2.427079677581787,-1.6857845783233643,0.015206999145448208,2.1656084060668945,4.640444441432617,0.0004942523082718253,0.3333752453327179,-1.6248772780047815,0.0,-0.04476437717676163,0.9821430444717407,9.387851605424657e-05,0.05176537111401558,0.7270023822784424,0.023562422022223473,-0.012643493711948395
232.0,358.0,1.8066,0.2309,9.3302,-0.0325,-0.0252,-0.0899,-1.722194334069723,-0.15919563174247742,2.4486262798309326,-1.6857047080993652,0.017412057146430016,2.166231155395508,4.640461130733154,0.00043180238571949303,0.33398523926734924,-1.6248768011676233,0.0,-0.0436505526304245,0.9821144342422485,9.11615788936615e-05,0.05247330293059349,0.7271148562431335,0.021755032241344452,0.026354718953371048
232.0,358.0,1.8066,0.2309,9.3302,-0.0325,-0.0252,-0.0899,-1.7227994404234828,-0.15932904183864594,2.430638074874878,-1.6855887174606323,0.021926086395978928,2.2113137245178223,4.640476866359375,0.003885453101247549,0.3253912329673767,-1.624892536793844,0.0,-0.049734361469745636,0.9821023941040039,8.859758236212656e-05,0.05024369806051254,0.7271826863288879,0.020024733617901802,-0.0368657186627388
232.0,358.0,1.8066,0.2309,9.3302,-0.0325,-0.0252,-0.0899,-1.7237450085081996,-0.14538198709487915,2.4699440002441406,-1.6854002475738525,0.03207772225141525,2.209683418273926,4.640548868770264,0.016263559460639954,0.33022934198379517,-1.6248849073993128,-1.3401790965872351e-06,-0.05785325914621353,0.9820905327796936,8.501101547153667e-05,0.04411165416240692,0.7272865772247314,0.017496522516012192,-0.029554268345236778
232.0,358.0,1.8066,0.2309,9.3302,-0.0325,-0.0252,-0.0899,-1.7243577442564906,-0.13332542777061462,2.512998342514038,-1.6852599382400513,0.037591464817523956,2.1890110969543457,4.640597029323242,0.02745632454752922,0.3475847840309143,-1.6249092260943812,-5.713393314010773e-09,-0.05997879058122635,0.9821144938468933,8.277712913695723e-05,0.04061495512723923,0.7274433374404907,0.01815529353916645,-0.024273045361042023
238.0,453.0,3.2207,-0.789,7.4046,-0.1045,-0.1822,-0.0959,-1.7249542675414027,-0.12687329947948456,2.5293359756469727,-1.685152530670166,0.04248359054327011,2.228300094604492,4.640700502986572,0.027990233153104782,0.33909380435943604,-1.6248725096331995,-2.4357094466354035e-11,-0.050059784203767776,0.9820986390113831,8.065756992436945e-05,0.044154755771160126,0.7275149822235107,0.020131325349211693,0.051103800535202026
238.0,453.0,3.2207,-0.789,7.4046,-0.1045,-0.1822,-0.0959,-1.7254663906493128,-0.12627916038036346,2.5501978397369385,-1.6850405931472778,0.04190991818904877,2.2330358028411865,4.640828772182129,0.022553635761141777,0.3491409420967102,-1.6249130407916468,-1.0383810781708358e-13,-0.05023378133773804,0.9821470379829407,7.864385406719521e-05,0.03531293943524361,0.7276188731193542,0.02383420802652836,-0.02281976491212845
238.0,453.0,3.2207,-0.789,7.4046,-0.1045,-0.1822,-0.0959,-1.7260357342162074,-0.13307781517505646,2.5575175285339355,-1.6848562955856323,0.04160091280937195,2.254089593887329,4.640861197108887,0.015491091646254063,0.3557426929473877,-1.6249168554889124,-4.4267810589949616e-16,-0.06669268012046814,0.9820985198020935,7.672821084270254e-05,0.03800304979085922,0.7277226448059082,0.026956161484122276,-0.012132855132222176
238.0,453.0,3.2207,-0.789,7.4046,-0.1045,-0.1822,-0.0959,-1.726596017877096,-0.14787036180496216,2.5062546730041504,-1.6846801042556763,0.040662311017513275,2.1983649730682373,4.640908403987549,0.007025124970823526,0.3494301438331604,-1.6249044577227991,-1.8872059500948322e-18,-0.058704011142253876,0.9820946455001831,7.490376447094604e-05,0.04881298542022705,0.7278106808662415,0.02923714555799961,0.021998822689056396
238.0,453.0,3.2207,-0.789,7.4046,-0.1045,-0.1822,-0.0959,-1.7271601162352503,-0.16380944848060608,2.530182123184204,-1.684443712234497,0.03966452181339264,2.231900453567505,4.640900297755859,0.0018872297368943691,0.3583725690841675,-1.6248968283282679,-8.045455905723383e-21,-0.0693381056189537,0.9821470379829407,7.316400296986103e-05,0.03380506485700607,0.7279065847396851,0.0300245750695467,-0.03025081381201744
238.0,453.0,3.2207,-0.789,7.4046,-0.1045,-0.1822,-0.0959,-1.72776522258901,-0.16987857222557068,2.5272252559661865,-1.6842836141586304,0.0416598841547966,2.235196113586426,4.6409241396137695,-0.0006464123725891113,0.346558153629303,-1.624897305165426,-3.4299037914841796e-23,-0.056876230984926224,0.9821304678916931,7.150322926463559e-05,0.043066009879112244,0.7279662489891052,0.030229857191443443,0.016034338623285294
238.0,453.0,3.2207,-0.789,7.4046,-0.1045,-0.1822,-0.0959,-1.728694578210348,-0.16554909944534302,2.494863271713257,-1.6839959621429443,0.05039306730031967,2.257791519165039,4.640956564540527,-9.684150427347049e-06,0.34250813722610474,-1.6248768011676233,-9.547262290775182e-27,-0.07236127555370331,0.9821302890777588,1.7766722521628253e-05,0.045104049146175385,0.7281386256217957,0.023581869900226593,-0.009064117446541786
238.0,453.0,3.2207,-0.789,7.4046,-0.1045,-0.1822,-0.0959,-1.729279180566305,-0.15283046662807465,2.5208683013916016,-1.6837561130523682,0.06271365284919739,2.288365364074707,4.640952749843262,0.004152311477810144,0.36126261949539185,-1.6248686949359339,-4.070147797936859e-29,-0.0671364814043045,0.9821183681488037,7.574232085971744e-08,0.0467713326215744,0.728222668170929,0.020220758393406868,-0.03937993943691254
238.0,453.0,3.2207,-0.789,7.4046,-0.1045,-0.1822,-0.0959,-1.7299038372435511,-0.14050987362861633,2.5638017654418945,-1.683467984199524,0.07282726466655731,2.235711097717285,4.641012831325195,0.007842053659260273,0.3499724566936493,-1.624908749257223,-1.735167664850483e-31,-0.0726652517914772,0.9821105599403381,3.2290137230717164e-10,0.039360493421554565,0.7282943725585938,0.01714322157204151,-0.05833803862333298
238.0,453.0,3.2207,-0.789,7.4046,-0.1045,-0.1822,-0.0959,-1.7304521999754847,-0.1282176375389099,2.600118398666382,-1.683164119720459,0.08417510986328125,2.3062634468078613,4.641016169185303,0.011056246235966682,0.3665001392364502,-1.624908749257223,-7.397292277518574e-34,-0.0742349922657013,0.9820867776870728,1.3765790807598877e-12,0.040355950593948364,0.7284308075904846,0.017307564616203308,0.00044713541865348816
238.0,453.0,3.2207,-0.789,7.4046,-0.1045,-0.1822,-0.0959,-1.7310377560057582,-0.12423190474510193,2.6525065898895264,-1.682843565940857,0.09320437908172607,2.2970921993255615,4.641068621272705,0.010835012421011925,0.3684123158454895,-1.624908749257223,-0.00016997252532746643,-0.07399662584066391,0.9821063876152039,5.868573330877801e-15,0.04892083257436752,0.7285305857658386,0.020121701061725616,0.04655972868204117
238.0,453.0,3.2207,-0.789,7.4046,-0.1045,-0.1822,-0.0959,-1.7316142521300257,-0.1308755725622177,2.624481201171875,-1.6824239492416382,0.09759621322154999,2.285212516784668,4.641064329738281,0.006848435383290052,0.3632892668247223,-1.624936882649557,-0.00020110186596866697,-0.080809585750103,0.9821749329566956,2.5018648381288984e-17,0.04297591745853424,0.728618323802948,0.022435467690229416,0.049165330827236176
238.0,453.0,3.2207,-0.789,7.4046,-0.1045,-0.1822,-0.0959,-1.732227464715475,-0.14057204127311707,2.600339889526367,-1.682047724723816,0.09860042482614517,2.3302345275878906,4.6410767275043945,0.0031949097756296396,0.36635905504226685,-1.624892536793844,-0.0002184258628403768,-0.08857043087482452,0.9821547269821167,1.0665842594138906e-19,0.05399393290281296,0.7286782264709473,0.026150057092308998,-0.01037419494241476
238.0,453.0,3.2207,-0.789,7.4046,-0.1045,-0.1822,-0.0959,-1.7330757580199183,-0.15846054255962372,2.549333333969116,-1.6814111471176147,0.09951447695493698,2.296415090560913,4.64111249029126,0.00047604148858226836,0.36501532793045044,-1.6249044577227991,-0.0001980761589948088,-0.08399970829486847,0.9821304678916931,2.9688767546218296e-23,0.03370781987905502,0.728842556476593,0.02987353689968586,0.08026380091905594
238.0,453.0,3.2207,-0.789,7.4046,-0.1045,-0.1822,-0.0959,-1.7336927853026332,-0.16438378393650055,2.613992214202881,-1.68098783493042,0.10356114059686661,2.336198329925537,4.64112822591748,0.0005657253786921501,0.3725629448890686,-1.624908749257223,-0.00018635697779245675,-0.09557534754276276,0.982106626033783,1.2656786349181193e-25,0.044686127454042435,0.7289828062057495,0.030068038031458855,0.05760974436998367
238.0,453.0,3.2207,-0.789,7.4046,-0.1045,-0.1822,-0.0959,-1.7342292271056117,-0.16060985624790192,2.6460766792297363,-1.6805514097213745,0.11054068058729172,2.362074851989746,4.641168757075928,0.0015805017901584506,0.3650042414665222,-1.6249168554889124,-0.00017594698874745518,-0.07966144382953644,0.9820986986160278,5.39578644351736e-28,0.03918083757162094,0.7290465235710144,0.028450174257159233,0.04542868211865425
238.0,453.0,3.2207,-0.789,7.4046,-0.1045,-0.1822,-0.0959,-1.7348219356932582,-0.15477004647254944,2.61586856842041,-1.6801000833511353,0.11895812302827835,2.3448634147644043,4.641184492702148,0.0047786906361579895,0.37708866596221924,-1.6248887220965784,-0.0001666385360294953,-0.07864466309547424,0.9821707010269165,2.300308532242771e-30,0.05947892740368843,0.7291302680969238,0.0256794486194849,0.02249119058251381
238.0,453.0,3.2207,-0.789,7.4046,-0.1045,-0.1822,-0.0959,-1.7354070148863734,-0.14415104687213898,2.62347412109375,-1.6795027256011963,0.13113436102867126,2.3637125492095947,4.641180678004883,0.008222815580666065,0.3841537833213806,-1.6249330679522913,-0.00015826564049348235,-0.09107723832130432,0.9820905327796936,9.806576315414319e-33,0.05127266049385071,0.7292463779449463,0.022358233109116554,0.042140405625104904
238.0,453.0,3.2207,-0.789,7.4046,-0.1045,-0.1822,-0.0959,-1.7359868488707484,-0.13655173778533936,2.6668248176574707,-1.6790194511413574,0.13866744935512543,2.4262335300445557,4.64124505102124,0.014826451428234577,0.38264942169189453,-1.6249011198626917,-0.00015069397340994328,-0.09584936499595642,0.9820985198020935,4.180697029180129e-35,0.041187867522239685,0.7293828129768372,0.02095135673880577,-0.015479166992008686
238.0,453.0,3.2207,-0.789,7.4046,-0.1045,-0.1822,-0.0959,-1.7365080318846644,-0.13166193664073944,2.6105852127075195,-1.678418755531311,0.14483655989170074,2.364377021789551,4.641321344966553,0.018648406490683556,0.3797983229160309,-1.6249249617206019,-0.0001636604283703491,-0.09833306819200516,0.9820986986160278,1.7822967190629516e-37,0.05817178636789322,0.7294501662254333,0.020333794876933098,0.026001524180173874
238.0,453.0,3.2207,-0.789,7.4046,-0.1045,-0.1822,-0.0959,-1.7370931110777796,-0.13229520618915558,2.6538476943969727,-1.677855134010315,0.1526993066072464,2.4153084754943848,4.641364737147949,0.018054766580462456,0.3835470974445343,-1.6248768011676233,-0.00015717909263912588,-0.09849922358989716,0.9822143912315369,7.598204611169883e-40,0.052348293364048004,0.7296106815338135,0.02274453081190586,0.03898344188928604
231.0,519.0,3.3679,-0.9888,9.6305,-0.0608,0.0539,-0.0747,-1.737946172753805,-0.13673172891139984,2.635317087173462,-1.6768876314163208,0.16222786903381348,2.415541648864746,4.641444368953369,0.012661796994507313,0.3860176205635071,-1.6249449888812464,-0.0001713279780233279,-0.10658495128154755,0.982158899307251,2.1159606811304738e-43,0.02939995378255844,0.7297021746635437,0.02746047079563141,-0.012975821271538734
231.0,519.0,3.3679,-0.9888,9.6305,-0.0608,0.0539,-0.0747,-1.738518854180807,-0.1412595808506012,2.659874200820923,-1.676218867301941,0.16499589383602142,2.4285788536071777,4.641484900111816,0.00855089072138071,0.37629666924476624,-1.6249044577227991,-0.00016674591461196542,-0.10510969161987305,0.9821264743804932,1.401298464324817e-45,0.05691869929432869,0.7298184633255005,0.03062298335134983,0.020560171455144882
231.0,519.0,3.3679,-0.9888,9.6305,-0.0608,0.0539,-0.0747,-1.7390710316100062,-0.14307273924350739,2.648524761199951,-1.6755346059799194,0.16875186562538147,2.4016997814178467,4.641512556666992,0.004612916614860296,0.3734287619590759,-1.6248768011676233,-0.00015527222421951592,-0.09117324650287628,0.9821348786354065,0.0,0.06150497496128082,0.7299222350120544,0.03291279077529907,0.022372066974639893
231.0,519.0,3.3679,-0.9888,9.6305,-0.0608,0.0539,-0.0747,-1.7396046123900355,-0.14158211648464203,2.6421895027160645,-1.674903154373169,0.1783861666917801,2.430637836456299,4.641520662898682,0.0019206780707463622,0.3823819160461426,-1.6248768011676233,-0.00014524708967655897,-0.10192058980464935,0.9820946455001831,0.0,0.046142593026161194,0.7300381660461426,0.03274642676115036,0.06720567494630814
