ramyac6/ROB537/final_project/csv/bad/bad_169.csv
tof_0,tof_1,accelx,accely,accelz,gyrox,gyroy,gyroz,shoulder_lift_joint_position,shoulder_lift_joint_velocity,shoulder_lift_joint_effort,elbow_joint_position,elbow_joint_velocity,elbow_joint_effort,wrist_1_joint_position,wrist_1_joint_velocity,wrist_1_joint_effort,wrist_2_joint_position,wrist_2_joint_velocity,wrist_2_joint_effort,wrist_3_joint_position,wrist_3_joint_velocity,wrist_3_joint_effort,shoulder_pan_joint_position,shoulder_pan_joint_velocity,shoulder_pan_joint_effort
342.0,335.0,3.9075,0.1184,8.5466,-0.0389,0.0247,-0.1185,-1.4978794616511841,0.0,1.865232229232788,-1.6720118522644043,-0.0,2.2390213012695312,4.254246874446533,-0.0,0.2963716983795166,-1.607821289693014,0.0,-0.014711502008140087,0.8365309834480286,-0.0,-0.012845678254961967,0.7590230107307434,0.0,0.011550874449312687
342.0,335.0,3.9075,0.1184,8.5466,-0.0389,0.0247,-0.1185,-1.4978434604457398,0.0,1.8500126600265503,-1.67206871509552,-0.0,2.2480647563934326,4.254183455104492,-0.0,0.29504841566085815,-1.607821289693014,0.0,0.005460317712277174,0.8365110754966736,-0.0,-0.006916413549333811,0.7590795159339905,0.0,-0.014360161498188972
342.0,335.0,3.9075,0.1184,8.5466,-0.0389,0.0247,-0.1185,-1.4978514102152367,0.0,1.8988358974456787,-1.6720366477966309,-0.0,2.1718955039978027,4.254183455104492,-0.0,0.2906404137611389,-1.6078417936908167,0.0,-0.001289292355068028,0.8365310430526733,-0.0,0.0008695046417415142,0.7589990496635437,0.0,0.031229250133037567
342.0,335.0,3.9075,0.1184,8.5466,-0.0389,0.0247,-0.1185,-1.4978514102152367,0.0,1.8963611125946045,-1.6720398664474487,-0.0,2.1872100830078125,4.254171057338379,-0.0,0.2957931458950043,-1.60785419145693,0.0,0.0005901043768972158,0.8365470170974731,-0.0,-0.00844947062432766,0.7590674161911011,0.0,0.039301250129938126
342.0,335.0,3.9075,0.1184,8.5466,-0.0389,0.0247,-0.1185,-1.4978555005839844,0.0,1.853358268737793,-1.6720930337905884,-0.0,2.2430880069732666,4.254187746638916,-0.0,0.28755539655685425,-1.6078375021563929,0.0,-0.0010574441403150558,0.8364909291267395,-0.0,0.0018473296659067273,0.7590555548667908,0.0,0.01290446612983942
342.0,335.0,3.9075,0.1184,8.5466,-0.0389,0.0247,-0.1185,-1.4978876796415825,0.0,1.888655185699463,-1.6720242500305176,-0.0,2.1910407543182373,4.254167242641113,-0.0,0.28912895917892456,-1.607833210621969,0.0,-0.017884885892271996,0.8364870548248291,-0.0,-0.0029658572748303413,0.7590391635894775,0.0,0.016037236899137497
342.0,335.0,3.9075,0.1184,8.5466,-0.0389,0.0247,-0.1185,-1.4978192311576386,0.0,1.909675121307373,-1.6720439195632935,-0.0,2.1917762756347656,4.254258795375488,-0.0,0.2904615104198456,-1.6078537146197718,0.0,-0.00778358057141304,0.8365349769592285,-0.0,-0.00429510697722435,0.759067177772522,0.0,-0.020276512950658798
342.0,335.0,3.9075,0.1184,8.5466,-0.0389,0.0247,-0.1185,-1.4978715044311066,0.0,1.8710887432098389,-1.6720035076141357,-0.0,2.197016716003418,4.254175348872803,-0.0,0.2959708869457245,-1.6078699270831507,0.0,0.0025401911698281765,0.8365071415901184,-0.0,-0.00662628561258316,0.7590028643608093,0.0,-0.022905925288796425
342.0,335.0,3.9075,0.1184,8.5466,-0.0389,0.0247,-0.1185,-1.4978434604457398,0.0,1.9161126613616943,-1.6720118522644043,-0.0,2.2511229515075684,4.254203482265137,-0.0,0.3065564036369324,-1.6078575293170374,0.0,-0.011091564781963825,0.8365111351013184,-0.0,0.005708668380975723,0.7590633034706116,0.0,-0.020724676549434662
333.0,344.0,3.9003,0.0927,8.3689,-0.0296,0.0254,-0.1177,-1.497895472948887,0.0,1.8979520797729492,-1.6720082759857178,-0.0,2.174072027206421,4.254211111659668,-0.0,0.2986220121383667,-1.6078375021563929,0.0,-0.018303876742720604,0.8364909291267395,-0.0,-0.013950995169579983,0.7590188980102539,0.0,-0.03161456435918808
333.0,344.0,3.9003,0.0927,8.3689,-0.0296,0.0254,-0.1177,-1.4978555005839844,0.0,1.913907766342163,-1.6720480918884277,-0.0,2.1861629486083984,4.254199190730713,-0.0,0.2939577102661133,-1.6078417936908167,0.0,0.012281415984034538,0.8365071415901184,-0.0,-0.005308675579726696,0.7590230107307434,0.0,0.009977244772017002
333.0,344.0,3.9003,0.0927,8.3689,-0.0296,0.0254,-0.1177,-1.4978352424553414,0.0,1.889500617980957,-1.6720242500305176,-0.0,2.2054548263549805,4.254234953517578,-0.0,0.2992459535598755,-1.6078375021563929,0.0,-0.01218540407717228,0.8364830613136292,-0.0,-0.0001554391346871853,0.7590229511260986,0.0,-0.004188238643109798
333.0,344.0,3.9003,0.0927,8.3689,-0.0296,0.0254,-0.1177,-1.4978674215129395,0.0,1.9204498529434204,-1.6720439195632935,-0.0,2.256640911102295,4.254239245052002,-0.0,0.29234686493873596,-1.6078375021563929,0.0,-0.004987428896129131,0.8365311026573181,-0.0,-0.01259541604667902,0.7590352296829224,0.0,0.041461825370788574
333.0,344.0,3.9003,0.0927,8.3689,-0.0296,0.0254,-0.1177,-1.4978918072632332,0.0,1.900752067565918,-1.672060489654541,-0.0,2.2011849880218506,4.254203482265137,-0.0,0.3042188584804535,-1.6078456083880823,0.0,-0.0014406421687453985,0.8365311026573181,-0.0,-0.016962068155407906,0.7591036558151245,0.0,0.004483490251004696
333.0,344.0,3.9003,0.0927,8.3689,-0.0296,0.0254,-0.1177,-1.4978514102152367,0.0,1.9327189922332764,-1.67206871509552,-0.0,2.1801137924194336,4.254230661983154,-0.0,0.28465765714645386,-1.6078456083880823,0.0,-0.00575070409104228,0.8364710807800293,-0.0,-0.0004824192728847265,0.7590591907501221,0.0,0.056043293327093124
333.0,344.0,3.9003,0.0927,8.3689,-0.0296,0.0254,-0.1177,-1.4978633013418694,0.0,1.9443458318710327,-1.6720646619796753,-0.0,2.179337978363037,4.2541515070148925,-0.0,0.2955153286457062,-1.6078088919269007,0.0,-0.005966636352241039,0.8364989757537842,-0.0,-0.0020269183441996574,0.7590188980102539,0.0,-0.013757657259702682
333.0,344.0,3.9003,0.0927,8.3689,-0.0296,0.0254,-0.1177,-1.497895472948887,0.0,1.8993499279022217,-1.672060489654541,-0.0,2.243262767791748,4.25423447668042,-0.0,0.289955735206604,-1.6078575293170374,0.0,-0.006204110104590654,0.8364909291267395,-0.0,-0.009745140559971333,0.7590352892875671,0.0,0.016617460176348686
333.0,344.0,3.9003,0.0927,8.3689,-0.0296,0.0254,-0.1177,-1.4978674215129395,0.0,1.9573097229003906,-1.6720603704452515,-0.0,2.1463794708251953,4.254215403194092,-0.0,0.2951466143131256,-1.6078293959247034,0.0,-0.014730156399309635,0.8365671038627625,-0.0,-0.012482896447181702,0.7590110301971436,0.0,0.03544558584690094
333.0,344.0,3.9003,0.0927,8.3689,-0.0296,0.0254,-0.1177,-1.4978550386479874,0.0,1.8746730089187622,-1.6720646619796753,-0.0,2.188044309616089,4.254175348872803,-0.0,0.29539990425109863,-1.6078780333148401,0.0,-0.011256808415055275,0.8365190625190735,-0.0,-0.0025855633430182934,0.7590151429176331,0.0,-0.007833651266992092
333.0,344.0,3.9003,0.0927,8.3689,-0.0296,0.0254,-0.1177,-1.4978835892728348,0.0,1.8902894258499146,-1.6720439195632935,-0.0,2.198237895965576,4.254191561336182,-0.0,0.28794094920158386,-1.6078375021563929,0.0,0.0071890042163431644,0.8365469574928284,-0.0,-0.016979917883872986,0.7590795159339905,0.0,0.01540954690426588
333.0,344.0,3.9003,0.0927,8.3689,-0.0296,0.0254,-0.1177,-1.497895823126175,0.0,1.834831953048706,-1.6720119714736938,-0.0,2.195788621902466,4.254155321712158,-0.0,0.30384862422943115,-1.6078575293170374,0.0,-0.009121526964008808,0.8364989757537842,-0.0,-0.0029562264680862427,0.7590349912643433,0.0,0.04075318202376366
333.0,344.0,3.9003,0.0927,8.3689,-0.0296,0.0254,-0.1177,-1.4978351903012772,0.0,1.8619544506072998,-1.6720242500305176,-0.0,2.16341495513916,4.254207296962402,-0.0,0.28926894068717957,-1.6078375021563929,0.0,-0.015612604096531868,0.836519181728363,-0.0,-0.008076019585132599,0.7590591907501221,0.0,-0.003764479188248515
333.0,344.0,3.9003,0.0927,8.3689,-0.0296,0.0254,-0.1177,-1.4979036536863823,0.0,1.9198479652404785,-1.6721131801605225,-0.0,2.2240023612976074,4.254203482265137,-0.0,0.30020672082901,-1.6078375021563929,0.0,-0.0037846097256988287,0.8365309834480286,-0.0,-0.009548213332891464,0.7590028047561646,0.0,-0.005686752963811159
333.0,344.0,3.9003,0.0927,8.3689,-0.0296,0.0254,-0.1177,-1.4978555005839844,0.0,1.8980120420455933,-1.672080636024475,-0.0,2.215269088745117,4.254215403194092,-0.0,0.30443131923675537,-1.6078699270831507,0.0,-0.0011615757830440998,0.8365508913993835,-0.0,-0.00178113195579499,0.759067177772522,0.0,0.000734278466552496
333.0,344.0,3.9003,0.0927,8.3689,-0.0296,0.0254,-0.1177,-1.4977989357760926,0.0,1.8794581890106201,-1.672052264213562,-0.0,2.1853842735290527,4.254250689143799,-0.0,0.30240142345428467,-1.6078575293170374,0.0,-0.0015832495409995317,0.8364909291267395,-0.0,-0.007005291059613228,0.7590432167053223,0.0,-0.028418511152267456
333.0,344.0,3.9003,0.0927,8.3689,-0.0296,0.0254,-0.1177,-1.4978715118816872,0.0,1.8968113660812378,-1.672060489654541,-0.0,2.2170891761779785,4.254254980678223,-0.0,0.2937522828578949,-1.6078456083880823,0.0,-0.003265662817284465,0.8364710807800293,-0.0,-0.009988282807171345,0.7590633034706116,0.0,0.006898235995322466
333.0,344.0,3.9003,0.0927,8.3689,-0.0296,0.0254,-0.1177,-1.4978550535491486,0.0,1.8467317819595337,-1.67206871509552,-0.0,2.1872644424438477,4.254195376033447,-0.0,0.28699779510498047,-1.6078417936908167,0.0,-0.015808334574103355,0.8365509510040283,-0.0,-0.0064458539709448814,0.7590152025222778,0.0,0.03783657029271126
329.0,351.0,3.8004,0.0712,8.6154,-0.0304,0.0205,-0.1107,-1.497798891072609,0.0,1.8440525531768799,-1.6720325946807861,-0.0,2.2186672687530518,4.254175348872803,-0.0,0.290046751499176,-1.6078251043902796,0.0,-0.0029866169206798077,0.8364830613136292,-0.0,-0.00223790155723691,0.7590192556381226,0.0,-0.049863845109939575
329.0,351.0,3.8004,0.0712,8.6154,-0.0304,0.0205,-0.1107,-1.4978390646031876,0.0,1.92551851272583,-1.6719918251037598,-0.0,2.1982603073120117,4.254207296962402,-0.0,0.29387325048446655,-1.6078861395465296,0.0,0.0017227290663868189,0.8365389704704285,-0.0,-0.008607462979853153,0.759075403213501,0.0,0.002297462895512581
329.0,351.0,3.8004,0.0712,8.6154,-0.0304,0.0205,-0.1107,-1.497895472948887,0.0,1.8782316446304321,-1.6720480918884277,-0.0,2.2267277240753174,4.254207296962402,-0.0,0.30398526787757874,-1.6078699270831507,0.0,-0.012462910264730453,0.8365151882171631,-0.0,-0.00458704587072134,0.7590795159339905,0.0,-0.038146134465932846
329.0,351.0,3.8004,0.0712,8.6154,-0.0304,0.0205,-0.1107,-1.4978756618550797,0.0,1.9005587100982666,-1.6720315217971802,-0.0,2.2211687564849854,4.254211111659668,-0.0,0.30637162923812866,-1.6078456083880823,0.0,-0.0027104904875159264,0.8365191221237183,-0.0,-0.00976300984621048,0.7590674161911011,0.0,-0.01590787246823311
329.0,351.0,3.8004,0.0712,8.6154,-0.0304,0.0205,-0.1107,-1.4978554484299202,0.0,1.9113030433654785,-1.6720356941223145,-0.0,2.1593146324157715,4.2541796404072265,-0.0,0.29836463928222656,-1.6078737417804163,0.0,0.0003761011175811291,0.8365470170974731,-0.0,-0.005398446694016457,0.7590835094451904,0.0,0.023945504799485207
329.0,351.0,3.8004,0.0712,8.6154,-0.0304,0.0205,-0.1107,-1.497871273463108,0.0,1.883275032043457,-1.6720646619796753,-0.0,2.1604082584381104,4.254191561336182,-0.0,0.29946720600128174,-1.6078618208514612,0.0,0.008384043350815773,0.8365029096603394,-0.0,0.003026135265827179,0.759099543094635,0.0,-0.014161265455186367
329.0,351.0,3.8004,0.0712,8.6154,-0.0304,0.0205,-0.1107,-1.4978835892728348,0.0,1.8955202102661133,-1.6720284223556519,-0.0,2.232511520385742,4.254199190730713,-0.0,0.27987486124038696,-1.6078537146197718,0.0,0.009231717325747013,0.8364830613136292,-0.0,-0.007468769792467356,0.7590069770812988,0.0,-0.01805857941508293
329.0,351.0,3.8004,0.0712,8.6154,-0.0304,0.0205,-0.1107,-1.4978632938912888,0.0,1.8833732604980469,-1.6720439195632935,-0.0,2.2050766944885254,4.254195376033447,-0.0,0.29302915930747986,-1.6078537146197718,0.0,-0.008889900520443916,0.8365548253059387,-0.0,-0.006930074654519558,0.7590551376342773,0.0,-0.020468024536967278
329.0,351.0,3.8004,0.0712,8.6154,-0.0304,0.0205,-0.1107,-1.497899555867054,0.0,1.9017391204833984,-1.6720563173294067,-0.0,2.202775001525879,4.254211111659668,-0.0,0.2889365255832672,-1.6078618208514612,0.0,-0.003485341789200902,0.8365230560302734,-0.0,-0.003353906562551856,0.7590954899787903,0.0,0.004334474913775921
329.0,351.0,3.8004,0.0712,8.6154,-0.0304,0.0205,-0.1107,-1.4978715118816872,0.0,1.8810992240905762,-1.6720284223556519,-0.0,2.200505256652832,4.254199190730713,-0.0,0.2962910234928131,-1.6078498999225062,0.0,-0.008757294155657291,0.8365310430526733,-0.0,-0.0011981730349361897,0.7590795159339905,0.0,0.005709781311452389
329.0,351.0,3.8004,0.0712,8.6154,-0.0304,0.0205,-0.1107,-1.4978794616511841,0.0,1.8913757801055908,-1.672060489654541,-0.0,2.184816360473633,4.254191561336182,-0.0,0.29687029123306274,-1.6078375021563929,0.0,0.00043983105570077896,0.8365151882171631,-0.0,-0.013260887935757637,0.7589948773384094,0.0,-0.007938447408378124
329.0,351.0,3.8004,0.0712,8.6154,-0.0304,0.0205,-0.1107,-1.497879446750023,0.0,1.8905171155929565,-1.6720200777053833,-0.0,2.2123312950134277,4.254211111659668,-0.0,0.29016584157943726,-1.6078780333148401,0.0,-0.008271181024610996,0.8364949226379395,-0.0,-0.004082541912794113,0.7590352296829224,0.0,-0.03162302076816559
329.0,351.0,3.8004,0.0712,8.6154,-0.0304,0.0205,-0.1107,-1.4978431698730965,0.0,1.9160306453704834,-1.6720118522644043,-0.0,2.2058024406433105,4.25423447668042,-0.0,0.29425978660583496,-1.6078498999225062,0.0,-0.004125111736357212,0.8365191221237183,-0.0,-0.0034045216161757708,0.7590188384056091,0.0,0.023652616888284683
329.0,351.0,3.8004,0.0712,8.6154,-0.0304,0.0205,-0.1107,-1.4978555005839844,0.0,1.8700369596481323,-1.672052264213562,-0.0,2.187713146209717,4.254211111659668,-0.0,0.29891955852508545,-1.607833210621969,0.0,-0.022030450403690338,0.8365230560302734,-0.0,0.0007637609960511327,0.7590712904930115,0.0,0.01900210604071617
329.0,351.0,3.8004,0.0712,8.6154,-0.0304,0.0205,-0.1107,-1.4978311297348519,0.0,1.8747293949127197,-1.6719958782196045,-0.0,2.1669507026672363,4.254187746638916,-0.0,0.2840934991836548,-1.6079023520099085,0.0,0.0101876026019454,0.8365469574928284,-0.0,2.7150847017765045e-05,0.7590152025222778,0.0,-0.03697499260306358
329.0,351.0,3.8004,0.0712,8.6154,-0.0304,0.0205,-0.1107,-1.497875639503338,0.0,1.8599148988723755,-1.67206871509552,-0.0,2.2029380798339844,4.254195376033447,-0.0,0.29212886095046997,-1.60785419145693,0.0,-0.010313388891518116,0.8365389108657837,-0.0,-0.006994410417973995,0.759035050868988,0.0,0.03702588006854057
329.0,351.0,3.8004,0.0712,8.6154,-0.0304,0.0205,-0.1107,-1.4978311148336907,0.0,1.9297891855239868,-1.6720398664474487,-0.0,2.168844223022461,4.254207296962402,-0.0,0.3011046350002289,-1.6078293959247034,0.0,-0.0010569191072136164,0.8365269899368286,-0.0,-0.00614509591832757,0.7590432167053223,0.0,-0.0026588253676891327
330.0,352.0,3.9015,0.1286,8.4814,-0.0308,0.0243,-0.115,-1.4978918147138138,0.0,1.911975383758545,-1.6720118522644043,-0.0,2.1681251525878906,4.254195376033447,-0.0,0.2848399579524994,-1.6078375021563929,0.0,-0.006500844843685627,0.8365749716758728,-0.0,0.001175639103166759,0.7590352296829224,0.0,-0.009029196575284004
330.0,352.0,3.9015,0.1286,8.4814,-0.0308,0.0243,-0.115,-1.4978876498392601,0.0,1.9060438871383667,-1.6720398664474487,-0.0,2.255911350250244,4.254191561336182,-0.0,0.29940634965896606,-1.6078699270831507,0.0,0.0014949098695069551,0.8365069031715393,-0.0,-0.006027732975780964,0.7590311765670776,0.0,-0.017446136102080345
330.0,352.0,3.9015,0.1286,8.4814,-0.0308,0.0243,-0.115,-1.4978473123959084,0.0,1.8701772689819336,-1.6720243692398071,-0.0,2.2094061374664307,4.25423447668042,-0.0,0.3058720529079437,-1.6078618208514612,0.0,0.001072462648153305,0.8364790678024292,-0.0,-0.0023599956184625626,0.7590633034706116,0.0,-0.06613022089004517
330.0,352.0,3.9015,0.1286,8.4814,-0.0308,0.0243,-0.115,-1.4978996005705376,0.0,1.9021084308624268,-1.6720243692398071,-0.0,2.2497305870056152,4.254191561336182,-0.0,0.28318721055984497,-1.6078937689410608,0.0,-0.01408117264509201,0.8365032076835632,-0.0,-0.00318015250377357,0.7590230107307434,0.0,-0.01191417034715414
330.0,352.0,3.9015,0.1286,8.4814,-0.0308,0.0243,-0.115,-1.4978995633176346,0.0,1.8726556301116943,-1.6720284223556519,-0.0,2.168673276901245,4.254207296962402,-0.0,0.3014191687107086,-1.6078456083880823,0.0,-0.007078272756189108,0.8364989757537842,-0.0,-0.009202373214066029,0.7590230107307434,0.0,0.0025004628114402294
330.0,352.0,3.9015,0.1286,8.4814,-0.0308,0.0243,-0.115,-1.4978835818222542,0.0,1.860644817352295,-1.6720480918884277,-0.0,2.222076892852783,4.254199190730713,-0.0,0.2952614426612854,-1.607866112385885,0.0,-0.005482090637087822,0.8364750742912292,-0.0,-0.017482759431004524,0.7590192556381226,0.0,0.008162830024957657
330.0,352.0,3.9015,0.1286,8.4814,-0.0308,0.0243,-0.115,-1.4978835892728348,0.0,1.9375169277191162,-1.6720356941223145,-0.0,2.1622657775878906,4.25422637044873,-0.0,0.30292946100234985,-1.6078861395465296,0.0,-0.012902280315756798,0.8364870548248291,-0.0,-0.00010204408317804337,0.7590110898017883,0.0,-0.014582587406039238
330.0,352.0,3.9015,0.1286,8.4814,-0.0308,0.0243,-0.115,-1.4978632789901276,0.0,1.8976247310638428,-1.6720284223556519,-0.0,2.2256901264190674,4.254207296962402,-0.0,0.291959673166275,-1.6078537146197718,0.0,-0.009823139756917953,0.8364394307136536,-0.0,-0.013039679266512394,0.7590391635894775,0.0,-0.0050427536480128765
330.0,352.0,3.9015,0.1286,8.4814,-0.0308,0.0243,-0.115,-1.4978712064078827,0.0,1.8723580837249756,-1.6720325946807861,-0.0,2.192183256149292,4.2542149263569335,-0.0,0.28630608320236206,-1.6078537146197718,0.0,-0.014544440433382988,0.8365151882171631,-0.0,-0.00021526473574340343,0.7590551376342773,0.0,-0.02636866085231304
330.0,352.0,3.9015,0.1286,8.4814,-0.0308,0.0243,-0.115,-1.4978637185743828,0.0,1.8788073062896729,-1.6719958782196045,-0.0,2.236886978149414,4.254246874446533,-0.0,0.28771230578422546,-1.6078737417804163,0.0,-0.0006058869184926152,0.8365269899368286,-0.0,-0.0034230249002575874,0.7589787244796753,0.0,-0.015287978574633598
330.0,352.0,3.9015,0.1286,8.4814,-0.0308,0.0243,-0.115,-1.4978514102152367,0.0,1.8589011430740356,-1.6720356941223145,-0.0,2.156527042388916,4.254222555751465,-0.0,0.29793983697891235,-1.6078618208514612,0.0,0.010125281289219856,0.8365668058395386,-0.0,-0.0016780253499746323,0.7590069770812988,0.0,-0.050363004207611084
330.0,352.0,3.9015,0.1286,8.4814,-0.0308,0.0243,-0.115,-1.4978434604457398,0.0,1.9247839450836182,-1.6721049547195435,-0.0,2.189821720123291,4.254175348872803,-0.0,0.2949351668357849,-1.6078537146197718,0.0,-0.008882423862814903,0.8364989757537842,-0.0,-0.009583281353116035,0.7590311765670776,0.0,0.0330834724009037
330.0,352.0,3.9015,0.1286,8.4814,-0.0308,0.0243,-0.115,-1.4978876796415825,0.0,1.8429896831512451,-1.6720041036605835,-0.0,2.1562857627868652,4.254195376033447,-0.0,0.28306931257247925,-1.6078575293170374,0.0,-0.0046831052750349045,0.8365830183029175,-0.0,0.00210150727070868,0.7590069770812988,0.0,-0.01256360113620758
330.0,352.0,3.9015,0.1286,8.4814,-0.0308,0.0243,-0.115,-1.497847319846489,0.0,1.9431818723678589,-1.6720315217971802,-0.0,2.23721981048584,4.254211111659668,-0.0,0.28176695108413696,-1.6078861395465296,0.0,-0.003588523715734482,0.836570680141449,-0.0,-0.012809723615646362,0.7590473294258118,0.0,0.025915825739502907
330.0,352.0,3.9015,0.1286,8.4814,-0.0308,0.0243,-0.115,-1.4978954654983063,0.0,1.856964111328125,-1.6720728874206543,-0.0,2.1895480155944824,4.254222555751465,-0.0,0.2798628807067871,-1.6078861395465296,0.0,0.002647670218721032,0.8364831209182739,-0.0,0.0010947594419121742,0.7590352296829224,0.0,0.02070869505405426
330.0,352.0,3.9015,0.1286,8.4814,-0.0308,0.0243,-0.115,-1.4978674215129395,0.0,1.9009697437286377,-1.6720563173294067,-0.0,2.230329990386963,4.254195376033447,-0.0,0.2942754030227661,-1.60785419145693,0.0,-0.01617806777358055,0.8365029096603394,-0.0,-0.004607054404914379,0.7590592503547668,0.0,0.009885961189866066
330.0,352.0,3.9015,0.1286,8.4814,-0.0308,0.0243,-0.115,-1.4978514102152367,0.0,1.9365876913070679,-1.672097086906433,-0.0,2.2110543251037598,4.254211111659668,-0.0,0.3029673993587494,-1.6078780333148401,0.0,0.0011692139087244868,0.8365111351013184,-0.0,-0.00761887663975358,0.7590229511260986,0.0,-0.0025151779409497976
330.0,352.0,3.9015,0.1286,8.4814,-0.0308,0.0243,-0.115,-1.4978835222176095,0.0,1.857046127319336,-1.6720764636993408,-0.0,2.163987636566162,4.254211111659668,-0.0,0.30064526200294495,-1.6078417936908167,0.0,-0.011398855596780777,0.8365029096603394,-0.0,0.010045807808637619,0.759079098701477,0.0,0.009945950470864773
343.0,367.0,3.81,0.0514,8.6447,-0.0373,0.0192,-0.1188,-1.4978554856828232,0.0,1.8670449256896973,-1.6720439195632935,-0.0,2.223032236099243,4.254203482265137,-0.0,0.300923228263855,-1.6078618208514612,0.0,-0.00014473177725449204,0.8364556431770325,-0.0,0.002393662929534912,0.7590352296829224,0.0,0.04093781113624573
343.0,367.0,3.81,0.0514,8.6447,-0.0373,0.0192,-0.1188,-1.4978431847742577,0.0,1.9129058122634888,-1.672060489654541,-0.0,2.2267496585845947,4.254187269801758,-0.0,0.2898942828178406,-1.6078980604754847,0.0,-0.0004127350985072553,0.8365349769592285,-0.0,-0.0056192222982645035,0.7590633630752563,0.0,-0.031811874359846115
343.0,367.0,3.81,0.0514,8.6447,-0.0373,0.0192,-0.1188,-1.4978591811707993,0.0,1.8574261665344238,-1.6720728874206543,-0.0,2.187513589859009,4.254155321712158,-0.0,0.2937438189983368,-1.607889477406637,0.0,-0.0014873642940074205,0.8364949226379395,-0.0,0.00031880251481197774,0.7590795159339905,0.0,0.030215231701731682
343.0,367.0,3.81,0.0514,8.6447,-0.0373,0.0192,-0.1188,-1.497827098970749,0.0,1.9064085483551025,-1.6720118522644043,-0.0,2.192715644836426,4.254195376033447,-0.0,0.29113736748695374,-1.6078251043902796,0.0,-0.0026059779338538647,0.8364909887313843,-0.0,-0.0040742177516222,0.7590270638465881,0.0,-0.0031895635183900595
343.0,367.0,3.81,0.0514,8.6447,-0.0373,0.0192,-0.1188,-1.4978514102152367,0.0,1.9143357276916504,-1.6720521450042725,-0.0,2.1790847778320312,4.254215403194092,-0.0,0.3076232075691223,-1.6078293959247034,0.0,0.007508103735744953,0.8365710377693176,-0.0,-0.008584167808294296,0.7589949369430542,0.0,-0.00929979607462883
343.0,367.0,3.81,0.0514,8.6447,-0.0373,0.0192,-0.1188,-1.49790362388406,0.0,1.8729301691055298,-1.672080636024475,-0.0,2.1932685375213623,4.2542149263569335,-0.0,0.2973794937133789,-1.6078742186175745,0.0,-0.00037547823740169406,0.8365349769592285,-0.0,-0.01714196428656578,0.7590311765670776,0.0,-0.0067123048938810825
343.0,367.0,3.81,0.0514,8.6447,-0.0373,0.0192,-0.1188,-1.4978432369283219,0.0,1.909210205078125,-1.6720439195632935,-0.0,2.1935815811157227,4.254199190730713,-0.0,0.28989189863204956,-1.6078293959247034,0.0,-0.008740488439798355,0.8365389108657837,-0.0,-0.005466694012284279,0.7590230107307434,0.0,0.04639027267694473
343.0,367.0,3.81,0.0514,8.6447,-0.0373,0.0192,-0.1188,-1.4978632938912888,0.0,1.918548822402954,-1.6720728874206543,-0.0,2.182474374771118,4.254187269801758,-0.0,0.2925487458705902,-1.607833210621969,0.0,-0.006434204988181591,0.8364711999893188,-0.0,0.0005908214952796698,0.7590672373771667,0.0,0.01554271299391985
343.0,367.0,3.81,0.0514,8.6447,-0.0373,0.0192,-0.1188,-1.4978311744383355,0.0,1.8492487668991089,-1.6720521450042725,-0.0,2.202704668045044,4.254218741054199,-0.0,0.29843398928642273,-1.6078498999225062,0.0,0.004242517985403538,0.836463212966919,-0.0,-0.016208071261644363,0.7590591907501221,0.0,0.021587947383522987
343.0,367.0,3.81,0.0514,8.6447,-0.0373,0.0192,-0.1188,-1.4978353095105668,0.0,1.8916380405426025,-1.6720160245895386,-0.0,2.225524425506592,4.254155321712158,-0.0,0.2929147779941559,-1.6078375021563929,0.0,0.0025842292234301567,0.8365310430526733,-0.0,-0.020995348691940308,0.7589988112449646,0.0,-0.012208470143377781
343.0,367.0,3.81,0.0514,8.6447,-0.0373,0.0192,-0.1188,-1.4978352424553414,0.0,1.8956249952316284,-1.6720564365386963,-0.0,2.2096962928771973,4.2541796404072265,-0.0,0.2859380841255188,-1.6078618208514612,0.0,-0.014635897241532803,0.8364909887313843,-0.0,0.008417888544499874,0.7590391635894775,0.0,-0.01648440770804882
343.0,367.0,3.81,0.0514,8.6447,-0.0373,0.0192,-0.1188,-1.4978431922248383,0.0,1.9308812618255615,-1.6721131801605225,-0.0,2.204296350479126,4.254195376033447,-0.0,0.2993454039096832,-1.60779315630068,0.0,-0.007098174653947353,0.8365468978881836,-0.0,0.006947183050215244,0.7590391039848328,0.0,0.0013139452785253525
343.0,367.0,3.81,0.0514,8.6447,-0.0373,0.0192,-0.1188,-1.497839332824089,0.0,1.8687622547149658,-1.6720284223556519,-0.0,2.1602020263671875,4.254195376033447,-0.0,0.28780195116996765,-1.6078780333148401,0.0,0.011257335543632507,0.8365789651870728,-0.0,-0.0024530126247555017,0.7590229511260986,0.0,-0.00585243059322238
343.0,367.0,3.81,0.0514,8.6447,-0.0373,0.0192,-0.1188,-1.4978674364141007,0.0,1.9170401096343994,-1.6720366477966309,-0.0,2.198046922683716,4.254230661983154,-0.0,0.2985825538635254,-1.6078980604754847,0.0,-0.02404598332941532,0.8364909887313843,-0.0,-0.005663177464157343,0.7590427994728088,0.0,0.011010641232132912
343.0,367.0,3.81,0.0514,8.6447,-0.0373,0.0192,-0.1188,-1.4978753861835976,0.0,1.887544870376587,-1.6720398664474487,-0.0,2.185492515563965,4.254183455104492,-0.0,0.29024598002433777,-1.6078618208514612,0.0,-0.0024439990520477295,0.8365072011947632,-0.0,-0.013614064082503319,0.759067177772522,7.80181919068923e-10,0.0031479322351515293
343.0,367.0,3.81,0.0514,8.6447,-0.0373,0.0192,-0.1188,-1.4978876498392601,0.0,1.8831760883331299,-1.6720325946807861,-0.0,2.160891056060791,4.254167242641113,-0.0,0.29881352186203003,-1.6078251043902796,0.0,-0.0002835432533174753,0.8365068435668945,-0.0,0.003296968527138233,0.7590795159339905,1.884047549522978e-15,0.02733532339334488
343.0,367.0,3.81,0.0514,8.6447,-0.0373,0.0192,-0.1188,-1.497847282593586,0.0,1.9218964576721191,-1.6720366477966309,-0.0,2.197118043899536,4.254219217891357,-0.0,0.30694687366485596,-1.6078456083880823,0.0,0.008946582674980164,0.8365269899368286,-0.0,-0.0017998425755649805,0.7590753436088562,3.3912187236656727e-19,0.008480346761643887
355.0,361.0,3.9769,0.1125,8.3964,-0.0388,0.0214,-0.1153,-1.4978514102152367,0.0,1.8662219047546387,-1.6720200777053833,-0.0,2.211686611175537,4.254175348872803,-0.0,0.3064969778060913,-1.6078293959247034,0.0,-0.015178277157247066,0.836554765701294,-0.0,-0.0043401289731264114,0.7590028643608093,8.189395305876035e-25,-0.0060258591547608376
355.0,361.0,3.9769,0.1125,8.3964,-0.0388,0.0214,-0.1153,-1.4978311744383355,0.0,1.8989858627319336,-1.6720118522644043,-0.0,2.2115464210510254,4.254211111659668,-0.0,0.29211342334747314,-1.6078498999225062,0.0,-0.016873415559530258,0.8365151286125183,-0.0,-0.015185282565653324,0.7590510249137878,1.9776426680268022e-30,0.010197289288043976
355.0,361.0,3.9769,0.1125,8.3964,-0.0388,0.0214,-0.1153,-1.4978835743716736,0.0,1.878278136253357,-1.6720160245895386,-0.0,2.2077786922454834,4.254263086909912,-0.0,0.2973617911338806,-1.6078251043902796,0.0,-0.005206753499805927,0.8364949226379395,-0.0,0.004919600673019886,0.7590591907501221,3.559687094457746e-34,-0.004433402791619301
355.0,361.0,3.9769,0.1125,8.3964,-0.0388,0.0214,-0.1153,-1.4978917774609108,0.0,1.9260694980621338,-1.6720325946807861,-0.0,2.233936071395874,4.254211111659668,-0.0,0.3009888529777527,-1.6078498999225062,0.0,-0.013812627643346786,0.8364909887313843,-0.0,0.00847280491143465,0.7590591907501221,8.59622339044666e-40,0.026222500950098038
355.0,361.0,3.9769,0.1125,8.3964,-0.0388,0.0214,-0.1153,-1.497875639503338,0.0,1.8762478828430176,-1.672072410583496,-0.0,2.198129653930664,4.254171057338379,-0.0,0.29352807998657227,-1.607894245778219,0.0,-0.008844454772770405,0.8365269899368286,-0.0,0.0014667577343061566,0.7590674161911011,1.5414283107572988e-43,-0.004237772896885872
355.0,361.0,3.9769,0.1125,8.3964,-0.0388,0.0214,-0.1153,-1.4978794765523453,0.0,1.9291486740112305,-1.6720161437988281,-0.0,2.1980419158935547,4.254171057338379,-0.0,0.2937847077846527,-1.6078780333148401,0.0,-0.00362213677726686,0.8364513516426086,-0.0,-0.012270092964172363,0.7590028643608093,0.0,0.05696992203593254
355.0,361.0,3.9769,0.1125,8.3964,-0.0388,0.0214,-0.1153,-1.49786742896352,0.0,1.9023356437683105,-1.67206871509552,-0.0,2.193176746368408,4.254171534175537,-0.0,0.28403395414352417,-1.6078417936908167,0.0,0.0042491490021348,0.8364989161491394,-0.0,-0.015288308262825012,0.7590352296829224,0.0,-0.016204921528697014
355.0,361.0,3.9769,0.1125,8.3964,-0.0388,0.0214,-0.1153,-1.497891829614975,0.0,1.8881018161773682,-1.6720160245895386,-0.0,2.238774299621582,4.254187269801758,-0.0,0.30403193831443787,-1.6078861395465296,0.0,-0.01152106560766697,0.8365469574928284,-0.0,-0.008126063272356987,0.7590753436088562,0.0,-0.013499613851308823
355.0,361.0,3.9769,0.1125,8.3964,-0.0388,0.0214,-0.1153,-1.4978472676924248,0.0,1.876715898513794,-1.6720356941223145,-0.0,2.166408061981201,4.254258795375488,-0.0,0.2817331850528717,-1.6078575293170374,0.0,-0.010931797325611115,0.8364790678024292,-0.0,0.005147299729287624,0.7590591907501221,0.0,-0.007673589047044516
355.0,361.0,3.9769,0.1125,8.3964,-0.0388,0.0214,-0.1153,-1.4978352648070832,0.0,1.8741577863693237,-1.67206871509552,-0.0,2.1995480060577393,4.254199190730713,-0.0,0.29765555262565613,-1.6078375021563929,0.0,-0.004921127576380968,0.8365428447723389,-0.0,-0.004899409133940935,0.7590270638465881,0.0,-0.0447792187333107
355.0,361.0,3.9769,0.1125,8.3964,-0.0388,0.0214,-0.1153,-1.4978797149709244,0.0,1.8687551021575928,-1.6721007823944092,-0.0,2.1567654609680176,4.254207296962402,-0.0,0.29495730996131897,-1.6078737417804163,0.0,-0.004088134970515966,0.8365111351013184,-0.0,-0.012680262327194214,0.7590513825416565,0.0,0.0009162206551991403
355.0,361.0,3.9769,0.1125,8.3964,-0.0388,0.0214,-0.1153,-1.497895472948887,0.0,1.8891887664794922,-1.6720521450042725,-0.0,2.1841249465942383,4.254222555751465,-0.0,0.29677024483680725,-1.6078456083880823,0.0,0.00022689183242619038,0.8365111351013184,-0.0,0.0019198483787477016,0.7590311765670776,0.0,0.0003304376732558012
355.0,361.0,3.9769,0.1125,8.3964,-0.0388,0.0214,-0.1153,-1.4978472900441666,0.0,1.8754240274429321,-1.6720521450042725,-0.0,2.2144925594329834,4.254239245052002,-0.0,0.29638317227363586,-1.6078417936908167,0.0,0.002137908712029457,0.8364672064781189,-0.0,-0.007855076342821121,0.7590473294258118,0.0,-0.011732904240489006
355.0,361.0,3.9769,0.1125,8.3964,-0.0388,0.0214,-0.1153,-1.4978835892728348,0.0,1.8929942846298218,-1.6720118522644043,-0.0,2.2101564407348633,4.254203482265137,-0.0,0.3003450930118561,-1.6078456083880823,0.0,-0.010362629778683186,0.8364631533622742,-0.0,0.0058788093738257885,0.7590311765670776,0.0,-0.015926292166113853
355.0,361.0,3.9769,0.1125,8.3964,-0.0388,0.0214,-0.1153,-1.4978591960719605,0.0,1.8417892456054688,-1.6720564365386963,-0.0,2.208296298980713,4.254183455104492,-0.0,0.29810643196105957,-1.6078131834613245,0.0,-0.006912435404956341,0.8364989161491394,-0.0,-0.011356385424733162,0.7590152025222778,0.0,-0.020095478743314743
355.0,361.0,3.9769,0.1125,8.3964,-0.0388,0.0214,-0.1153,-1.4978954654983063,0.0,1.878677248954773,-1.6721173524856567,-0.0,2.2208030223846436,4.254215403194092,-0.0,0.2768063247203827,-1.6078980604754847,0.0,-0.008176797069609165,0.8364870548248291,-0.0,-0.000866818823851645,0.7590473294258118,0.0,-0.003238053061068058
355.0,361.0,3.9769,0.1125,8.3964,-0.0388,0.0214,-0.1153,-1.4978712436607857,0.0,1.847341775894165,-1.6720160245895386,-0.0,2.226989269256592,4.254191561336182,-0.0,0.2998512387275696,-1.6078417936908167,0.0,0.004891170654445887,0.836479127407074,-0.0,-0.0030858314130455256,0.7590270638465881,0.0,-0.07880674302577972
355.0,361.0,3.9769,0.1125,8.3964,-0.0388,0.0214,-0.1153,-1.4978555005839844,0.0,1.9069592952728271,-1.67206871509552,-0.0,2.221045732498169,4.254171534175537,-0.0,0.2813447117805481,-1.6078699270831507,0.0,-0.015617165714502335,0.8365269899368286,-0.0,0.0041430434212088585,0.7590152025222778,0.0,-0.007124035153537989
350.0,348.0,3.8668,0.1448,8.5208,-0.029,0.0275,-0.122,-1.4978632640889664,0.0,1.8985626697540283,-1.6720439195632935,-0.0,2.1947364807128906,4.254175348872803,-3.993883126440778e-07,0.2910902202129364,-1.6078818480121058,0.0,-0.008259246125817299,0.8365191221237183,-0.0,-0.006238329224288464,0.7590633630752563,0.0,-0.02123699150979519
350.0,348.0,3.8668,0.1448,8.5208,-0.029,0.0275,-0.122,-1.4978113037398835,0.0,1.9063844680786133,-1.6720284223556519,-0.0,2.2167344093322754,4.2541796404072265,-1.111711972479057e-10,0.290388286113739,-1.607833210621969,0.0,-0.01733246073126793,0.8365389704704285,-0.0,-0.00881407130509615,0.7590435147285461,0.0,-0.0003968784585595131
350.0,348.0,3.8668,0.1448,8.5208,-0.029,0.0275,-0.122,-1.497831591670849,0.0,1.8740475177764893,-1.672060489654541,-0.0,2.1921634674072266,4.25422637044873,-4.739402772145629e-13,0.3027082085609436,-1.6078699270831507,0.0,-0.00270923413336277,0.8364993333816528,-0.0,-0.008037915453314781,0.7590188384056091,0.0,-0.0027866330929100513
350.0,348.0,3.8668,0.1448,8.5208,-0.029,0.0275,-0.122,-1.497819223707058,-1.5612680925869427e-08,1.9121861457824707,-1.6720242500305176,-0.0,2.2016687393188477,4.254199190730713,-1.3192303895936253e-16,0.2926233410835266,-1.607833210621969,0.0,0.004522453993558884,0.8364593386650085,-0.0,-0.0030201610643416643,0.7590233087539673,0.0,0.027783354744315147
350.0,348.0,3.8668,0.1448,8.5208,-0.029,0.0275,-0.122,-1.4978112813881417,-2.810227311272895e-12,1.9092128276824951,-1.6720728874206543,-0.0,2.203522205352783,4.254218741054199,-5.624085253772939e-19,0.3008335828781128,-1.6078699270831507,0.0,-0.007476345170289278,0.8365072011947632,-0.0,-0.013153874315321445,0.7590192556381226,0.0,0.015506247989833355
350.0,348.0,3.8668,0.1448,8.5208,-0.029,0.0275,-0.122,-1.497839332824089,-6.7863684163973505e-18,1.869494915008545,-1.6720041036605835,-0.0,2.1878321170806885,4.254199190730713,-1.5654846214270008e-22,0.2902790307998657,-1.6078055540667933,0.0,-0.006048494949936867,0.8364993333816528,-0.0,-0.0005417875945568085,0.7590352296829224,0.0,0.019715920090675354
350.0,348.0,3.8668,0.1448,8.5208,-0.029,0.0275,-0.122,-1.4978352424553414,-1.6388280805657105e-23,1.8856000900268555,-1.672072410583496,-0.0,2.2055773735046387,4.25421063482251,-4.3575841321184806e-26,0.2872142195701599,-1.6078498999225062,0.0,-0.008759611286222935,0.8364949226379395,-0.0,-0.00933464802801609,0.7590913772583008,0.0,0.02306673862040043
350.0,348.0,3.8668,0.1448,8.5208,-0.029,0.0275,-0.122,-1.4978356671384354,-2.949832302986238e-27,1.9228657484054565,-1.6720521450042725,-0.0,2.2361769676208496,4.2542311388203125,-1.8577065242609916e-28,0.28755703568458557,-1.6078780333148401,0.0,-0.0006922011380083859,0.8365072011947632,-0.0,-0.0015789489261806011,0.7589948773384094,0.0,-0.049090031534433365
350.0,348.0,3.8668,0.1448,8.5208,-0.029,0.0275,-0.122,-1.497795270090439,-7.12349797003497e-33,1.886878490447998,-1.6720848083496094,0.00011116469249827787,2.2067203521728516,4.254191561336182,-5.170994359542664e-32,0.29580920934677124,-1.6078537146197718,0.0,-0.004665486980229616,0.8365349769592285,-0.0,-0.011686512269079685,0.7590309381484985,0.0,0.005451196804642677
350.0,348.0,3.8668,0.1448,8.5208,-0.029,0.0275,-0.122,-1.4978434604457398,-1.2822045068648218e-36,1.8413511514663696,-1.6720242500305176,0.00010018916509579867,2.2437946796417236,4.254215403194092,-2.2044759581952986e-34,0.2919110655784607,-1.6078780333148401,0.0,0.00043221015948802233,0.8365268707275391,-0.0,-0.0065801749005913734,0.7590672373771667,0.0,-0.028636779636144638
350.0,348.0,3.8668,0.1448,8.5208,-0.029,0.0275,-0.122,-1.4978596282056351,-3.096869606157846e-42,1.8876497745513916,-1.6720160245895386,8.585225441493094e-05,2.229053497314453,4.254183455104492,6.87157444190234e-05,0.29996100068092346,-1.6078618208514612,0.0,0.006839425768703222,0.8364949822425842,-0.0,-0.0090589988976717,0.7590270638465881,0.0,-0.008033370599150658
350.0,348.0,3.8668,0.1448,8.5208,-0.029,0.0275,-0.122,-1.4978596282056351,-0.0,1.8920741081237793,-1.6720480918884277,7.837523298803717e-05,2.2057888507843018,4.254234953517578,6.411025242414325e-05,0.29623177647590637,-1.6078417936908167,0.0,-0.0018073467072099447,0.8365270495414734,-0.0,-0.014121956191956997,0.7590712904930115,0.0,0.023450851440429688
350.0,348.0,3.8668,0.1448,8.5208,-0.029,0.0275,-0.122,-1.4978516411832352,0.0,1.894455075263977,-1.6720242500305176,0.00010381343599874526,2.182732582092285,4.254251165980957,5.792164301965386e-05,0.29029035568237305,-1.6078417936908167,0.0,-0.022379063069820404,0.8365151286125183,-0.0,-0.0015464500756934285,0.759067177772522,0.0,-0.02754083275794983
350.0,348.0,3.8668,0.1448,8.5208,-0.029,0.0275,-0.122,-1.4978434529951592,0.0,1.8929826021194458,-1.6720242500305176,9.32105103856884e-05,2.1937334537506104,4.254258795375488,5.282194979372434e-05,0.29444438219070435,-1.6078694502459925,0.0,-0.0075702671892941,0.8365231156349182,-0.0,-0.009397579357028008,0.7590712904930115,0.0,-0.00145142141263932
350.0,348.0,3.8668,0.1448,8.5208,-0.029,0.0275,-0.122,-1.4978153866580506,0.0,1.8990929126739502,-1.6719880104064941,8.71904194355011e-05,2.204957962036133,4.2542311388203125,4.989338049199432e-05,0.30093690752983093,-1.6078618208514612,0.0,0.0060584405437111855,0.836503267288208,-0.0,-0.0014839149080216885,0.7590069770812988,0.0,-0.004667468369007111
350.0,348.0,3.8668,0.1448,8.5208,-0.029,0.0275,-0.122,-1.4978673246553917,0.0,1.84360671043396,-1.6720118522644043,7.948940765345469e-05,2.1819117069244385,4.254222555751465,4.606278525898233e-05,0.3024607300758362,-1.6078937689410608,0.0,0.0013474628794938326,0.8365111351013184,-0.0,0.007930317893624306,0.7590352296829224,0.0,0.006166325882077217
350.0,348.0,3.8668,0.1448,8.5208,-0.029,0.0275,-0.122,-1.497863696222641,0.0,1.8993537425994873,-1.6720160245895386,7.506932888645679e-05,2.171541929244995,4.2542149263569335,4.381989856483415e-05,0.27733373641967773,-1.6078537146197718,0.0,0.0007782933535054326,0.8365111351013184,-0.0,-0.0080193430185318,0.7590591907501221,0.0,-0.009064160287380219
350.0,348.0,3.8668,0.1448,8.5208,-0.029,0.0275,-0.122,-1.4978311371854325,0.0,1.9036630392074585,-1.6719436645507812,6.928978837095201e-05,2.2016797065734863,4.254206820125244,4.083730163984001e-05,0.29141056537628174,-1.6078618208514612,0.0,-0.011395236477255821,0.8364672660827637,-0.0,-0.007484446279704571,0.7590230107307434,0.0,-0.006020922679454088
332.0,347.0,4.0098,0.2782,8.3079,-0.0238,0.0027,-0.1289,-1.4978674215129395,0.0,1.8828277587890625,-1.6721173524856567,6.590705015696585e-05,2.237576723098755,4.254239245052002,3.906467463821173e-05,0.27866330742836,-1.6078818480121058,0.0,0.0020419659558683634,0.8365468382835388,-0.0,-0.00823942944407463,0.7591036558151245,0.0,0.004304131492972374
332.0,347.0,4.0098,0.2782,8.3079,-0.0238,0.0027,-0.1289,-1.4978555154851456,0.0,1.8742334842681885,-1.6720563173294067,6.140991899883375e-05,2.198269844055176,4.254206820125244,3.6676683521363884e-05,0.2929179072380066,-1.6078618208514612,0.0,-0.01018628291785717,0.8365391492843628,-0.0,-8.773744048085064e-05,0.7590230107307434,0.0,-0.003180257510393858
332.0,347.0,4.0098,0.2782,8.3079,-0.0238,0.0027,-0.1289,-1.4978275013021012,0.0,1.8725190162658691,-1.6720200777053833,5.8737943618325517e-05,2.194739580154419,4.254211111659668,3.5240511351730675e-05,0.29147839546203613,-1.6078456083880823,0.0,-0.01731364242732525,0.8365068435668945,-0.0,0.00506966607645154,0.7590551376342773,0.0,0.03914637118577957
332.0,347.0,4.0098,0.2782,8.3079,-0.0238,0.0027,-0.1289,-1.4978472602418442,0.0,1.8914141654968262,-1.6720408201217651,5.5139429605333135e-05,2.20443058013916,4.254239245052002,3.3285479730693623e-05,0.2800583243370056,-1.6078618208514612,0.0,-0.00909353420138359,0.8364829421043396,-0.0,-0.012320964597165585,0.759087324142456,0.0,0.011401070281863213
332.0,347.0,4.0098,0.2782,8.3079,-0.0238,0.0027,-0.1289,-1.4978876423886796,0.0,1.923779845237732,-1.6720118522644043,5.1956285460619256e-05,2.230053424835205,4.254211111659668,3.153597572236322e-05,0.2871410548686981,-1.6078456083880823,0.0,-0.0077575696632266045,0.836475133895874,-0.0,-0.012712830677628517,0.7590550780296326,0.0,-0.008455850183963776
332.0,347.0,4.0098,0.2782,8.3079,-0.0238,0.0027,-0.1289,-1.4978632938912888,0.0,1.850631833076477,-1.6720325946807861,5.003079058951698e-05,2.174252510070801,4.254222555751465,3.046834717679303e-05,0.29971542954444885,-1.6078780333148401,0.0,-0.014989644289016724,0.8365468978881836,-0.0,-0.001722837216220796,0.7590591907501221,0.0,0.001108772587031126
332.0,347.0,4.0098,0.2782,8.3079,-0.0238,0.0027,-0.1289,-1.4978835743716736,0.0,1.8677682876586914,-1.6719797849655151,4.739610449178144e-05,2.18422269821167,4.254211111659668,2.8995902539463714e-05,0.2905556261539459,-1.607849423085348,0.0,-0.009304513223469257,0.8364747166633606,-0.0,-0.006226284895092249,0.759075403213501,0.0,0.03468725085258484
332.0,347.0,4.0098,0.2782,8.3079,-0.0238,0.0027,-0.1289,-1.4978632864407082,0.0,1.8839796781539917,-1.6719921827316284,4.578860171022825e-05,2.2044575214385986,4.254175348872803,2.8090895284549333e-05,0.30055904388427734,-1.607821289693014,0.0,-0.015042591840028763,0.8365234732627869,-0.0,-0.012757993303239346,0.7590795159339905,0.0,0.017602257430553436
332.0,347.0,4.0098,0.2782,8.3079,-0.0238,0.0027,-0.1289,-1.4978872698596497,0.0,1.9330493211746216,-1.6720563173294067,4.3571861169766635e-05,2.2138218879699707,4.2542311388203125,2.6834541131393053e-05,0.28808164596557617,-1.6078818480121058,0.0,-0.004340913146734238,0.8365189433097839,-0.0,0.011140299960970879,0.7590188384056091,0.0,-0.02718222141265869
332.0,347.0,4.0098,0.2782,8.3079,-0.0238,0.0027,-0.1289,-1.4979318913868447,0.0,1.8612041473388672,-1.6720041036605835,4.2209529055980965e-05,2.1772241592407227,4.254254980678223,2.6057594368467107e-05,0.29531121253967285,-1.6078818480121058,0.0,-0.010244755074381828,0.836563229560852,-0.0,0.009154858998954296,0.7589908242225647,0.0,-0.0171003770083189
332.0,347.0,4.0098,0.2782,8.3079,-0.0238,0.0027,-0.1289,-1.4978390497020264,0.0,1.9250738620758057,-1.6720284223556519,4.031864955322817e-05,2.2427639961242676,4.254239245052002,2.4973034669528715e-05,0.28013893961906433,-1.6078899542437952,0.0,-0.004989585839211941,0.8365029692649841,-0.0,-0.005505947396159172,0.7590387463569641,0.0,0.01627412810921669
332.0,347.0,4.0098,0.2782,8.3079,-0.0238,0.0027,-0.1289,-1.4978753563812752,0.0,1.8604893684387207,-1.6720480918884277,3.858990748994984e-05,2.173008441925049,4.254187746638916,2.3975157091626897e-05,0.3006376624107361,-1.6078537146197718,0.0,-0.01781317964196205,0.8365674018859863,-0.0,-0.012067792937159538,0.7590270638465881,0.0,-0.01683702878654003
332.0,347.0,4.0098,0.2782,8.3079,-0.0238,0.0027,-0.1289,-1.497863346045353,0.0,1.9192715883255005,-1.6720325946807861,3.751749682123773e-05,2.183354377746582,4.2542430597492675,2.3353051801677793e-05,0.3008880913257599,-1.6078737417804163,0.0,0.008305265568196774,0.8364870548248291,-0.0,-0.012211227789521217,0.7590311765670776,0.0,0.027468837797641754
332.0,347.0,4.0098,0.2782,8.3079,-0.0238,0.0027,-0.1289,-1.497879446750023,0.0,1.8594712018966675,-1.6720563173294067,3.601613934733905e-05,2.1978816986083984,4.254199667567871,2.247817064926494e-05,0.294281542301178,-1.6079257170306605,0.0,-0.008578118868172169,0.8365153074264526,-0.0,-0.00020954874344170094,0.7590633034706116,0.0,0.005806795321404934
332.0,347.0,4.0098,0.2782,8.3079,-0.0238,0.0027,-0.1289,-1.4978913825801392,0.0,1.8932338953018188,-1.6720408201217651,3.508028021315113e-05,2.2286643981933594,4.254199190730713,2.193044201703742e-05,0.29364728927612305,-1.6078498999225062,0.0,-0.013360945507884026,0.8364948034286499,-0.0,0.002263732487335801,0.7590913772583008,0.0,0.026545068249106407
332.0,347.0,4.0098,0.2782,8.3079,-0.0238,0.0027,-0.1289,-1.497879446750023,0.0,1.9221396446228027,-1.672060489654541,3.37642413796857e-05,2.2264034748077393,4.254183455104492,2.1157140508876182e-05,0.2978019118309021,-1.6078498999225062,0.0,-0.003720855573192239,0.8365312814712524,-0.0,-0.006894334685057402,0.7590551376342773,0.0,-0.027319900691509247
332.0,347.0,4.0098,0.2782,8.3079,-0.0238,0.0027,-0.1289,-1.4978872549584885,0.0,1.8971707820892334,-1.6720284223556519,3.294039925094694e-05,2.1879754066467285,4.254199190730713,2.067120476567652e-05,0.28470808267593384,-1.6078336874591272,0.0,-0.006675624288618565,0.8365153074264526,-0.0,-0.006168529391288757,0.759026825428009,0.0,-0.016602344810962677
325.0,356.0,3.9547,0.1831,8.3073,-0.0319,0.0278,-0.121,-1.497887247507908,0.0,1.9158618450164795,-1.6720284223556519,3.1777366530150175e-05,2.2052078247070312,4.254254980678223,1.9982770027127117e-05,0.28980475664138794,-1.6078293959247034,0.0,-0.0070062195882201195,0.8365111351013184,-0.0,0.007870139554142952,0.7590712904930115,0.0,0.0037849037908017635
325.0,356.0,3.9547,0.1831,8.3073,-0.0319,0.0278,-0.121,-1.4979237106493493,-0.00018933448882307857,1.8690414428710938,-1.67206871509552,3.069366721319966e-05,2.2153022289276123,4.254151030177734,2.164790480208012e-08,0.2877897620201111,-1.6078694502459925,0.0,-0.0018453833181411028,0.8364669680595398,-0.0,0.004112238064408302,0.7590309381484985,0.0,0.03137011080980301
325.0,356.0,3.9547,0.1831,8.3073,-0.0319,0.0278,-0.121,-1.497907580142357,-0.00021031699725426733,1.9067778587341309,-1.6720242500305176,3.001134973601438e-05,2.2111308574676514,4.254226847285889,9.228841302277857e-11,0.3029019236564636,-1.6079180876361292,0.0,0.008525398559868336,0.8364554047584534,-0.0,-0.0034891380928456783,0.7590712904930115,0.0,0.05206138640642166
325.0,356.0,3.9547,0.1831,8.3073,-0.0319,0.0278,-0.121,-1.497935601775982,-0.00055074377451092,1.9052040576934814,-1.6720242500305176,1.823215911578302e-09,2.190736770629883,4.254187746638916,2.568881861246021e-14,0.3022981584072113,-1.6078699270831507,0.0,-0.005501631647348404,0.8365312814712524,-0.0,-0.0036647103261202574,0.7590309381484985,0.0,-0.02528558298945427
325.0,356.0,3.9547,0.1831,8.3073,-0.0319,0.0278,-0.121,-1.4979154628566285,-0.0006522638141177595,1.9107308387756348,-1.6720082759857178,3.28172439310187e-13,2.2147531509399414,4.254234953517578,1.0951545731912986e-16,0.2953711450099945,-1.6078780333148401,0.0,-0.012586858123540878,0.8364830017089844,-0.0,-0.001159785082563758,0.7590391635894775,0.0,-0.01678812876343727
325.0,356.0,3.9547,0.1831,8.3073,-0.0319,0.0278,-0.121,-1.497923695748188,-0.0006297871586866677,1.9171953201293945,-1.6720041036605835,7.924978600468683e-19,2.1541998386383057,4.254222555751465,3.0484032184454177e-20,0.28921061754226685,-1.6078537146197718,0.0,-0.0027104183100163937,0.8364866375923157,-0.0,-0.0028658565133810043,0.759035050868988,0.0,0.01757030189037323
325.0,356.0,3.9547,0.1831,8.3073,-0.0319,0.0278,-0.121,-1.4979314741543313,-0.0006249345024116337,1.9176576137542725,-1.6720728874206543,1.4264682710475883e-22,2.1972408294677734,4.25422637044873,1.2995820770355784e-22,0.2912245988845825,-1.6078174749957483,0.0,-0.007462743204087019,0.8364989757537842,-0.0,0.0047608716413378716,0.7590712904930115,0.0,0.03465845063328743
325.0,356.0,3.9547,0.1831,8.3073,-0.0319,0.0278,-0.121,-1.497919113641121,-0.0006170532433316112,1.8570506572723389,-1.6719683408737183,3.444752724528766e-28,2.184307813644409,4.254239245052002,3.617435079646075e-26,0.30267077684402466,-1.60785419145693,0.0,-0.006990864407271147,0.8364989757537842,-0.0,-0.003121056593954563,0.7590795159339905,5.11989819642622e-05,-0.023368537425994873
325.0,356.0,3.9547,0.1831,8.3073,-0.0319,0.0278,-0.121,-1.4978869718364258,-0.0005915797664783895,1.8665480613708496,-1.6720242500305176,6.200432949528107e-32,2.191403388977051,4.254246874446533,1.5421692640392568e-28,0.29377371072769165,-1.607833210621969,0.0,0.0030624177306890488,0.8364710807800293,-0.0,-0.006930180825293064,0.7590469121932983,6.0401082009775564e-05,0.007011491805315018
325.0,356.0,3.9547,0.1831,8.3073,-0.0319,0.0278,-0.121,-1.4979476121119042,-0.0006099000456742942,1.8936309814453125,-1.6720521450042725,2.9818357916155946e-07,2.1877284049987793,4.254207296962402,4.292684964012215e-32,0.2798806130886078,-1.607866112385885,0.0,-0.01285528764128685,0.8364545702934265,-0.0,8.663907647132874e-05,0.7590712904930115,7.732377707725391e-05,-0.011532457545399666
325.0,356.0,3.9547,0.1831,8.3073,-0.0319,0.0278,-0.121,-1.4979633849910279,-0.0007902702200226486,1.880422830581665,-1.6720123291015625,7.200782938671102e-13,2.218870162963867,4.254187746638916,1.1948846983712336e-35,0.2982994019985199,-1.6078375021563929,0.0,-0.00267159566283226,0.8365193605422974,-0.0,-0.004907025955617428,0.7591152787208557,8.938978862715885e-05,-0.0010903177317231894
325.0,356.0,3.9547,0.1831,8.3073,-0.0319,0.0278,-0.121,-1.4979113650373002,-0.00089372688671574,1.8995184898376465,-1.6720004081726074,1.2961152575097494e-16,2.2010035514831543,4.2541796404072265,5.09398111985446e-38,0.29108726978302,-1.6078737417804163,0.0,-0.004484869539737701,0.8365030288696289,-0.0,-0.019337225705385208,0.7591555118560791,0.0005181878805160522,-0.03828592225909233
325.0,356.0,3.9547,0.1831,8.3073,-0.0319,0.0278,-0.121,-1.4979229879430314,-0.0017756933812052011,1.9075891971588135,-1.6720163822174072,3.1299655593470707e-22,2.1891117095947266,4.254207296962402,1.4179739160502824e-41,0.3033377230167389,-1.607866112385885,0.0,-0.009894064627587795,0.8365591168403625,-0.0,-0.014444956555962563,0.759079098701477,0.0009227386326529086,0.012046115472912788
325.0,356.0,3.9547,0.1831,8.3073,-0.0319,0.0278,-0.121,-1.4979794037393113,-0.0023771619889885187,1.8969395160675049,-1.6720123291015625,5.633828264637113e-26,2.168274402618408,4.254195376033447,6.025583396596713e-44,0.2971940040588379,-1.6078498999225062,0.0,-0.001020053867250681,0.8365591168403625,-0.0,0.0018826210871338844,0.759135365486145,0.0010775587288662791,-0.003172357566654682
325.0,356.0,3.9547,0.1831,8.3073,-0.0319,0.0278,-0.121,-1.498043679898121,-0.00410663615912199,1.8665730953216553,-1.6720082759857178,0.0003188493719790131,2.206015110015869,4.2541796404072265,0.0,0.29205381870269775,-1.6078136602984827,0.0,-0.0032714041881263256,0.8365111351013184,-0.0,-0.022816553711891174,0.7591432929039001,0.002392922295257449,-0.026036232709884644
325.0,356.0,3.9547,0.1831,8.3073,-0.0319,0.0278,-0.121,-1.4980840992978592,-0.005027848295867443,1.868801236152649,-1.6720004081726074,0.0003350445767864585,2.2316980361938477,4.254218741054199,0.0,0.3010455369949341,-1.6078255812274378,0.0,-0.00964626669883728,0.8365956544876099,-0.0,-0.0149085633456707,0.7591791152954102,0.003534917254000902,0.005140590015798807
325.0,356.0,3.9547,0.1831,8.3073,-0.0319,0.0278,-0.121,-1.498051368897297,-0.00675996346399188,1.8662919998168945,-1.6719920635223389,0.000329589587636292,2.218724250793457,4.254187269801758,0.0,0.2951680123806,-1.6078375021563929,0.0,0.010159777477383614,0.8365509510040283,-0.0,-0.0006361420964822173,0.7592032551765442,0.006265191826969385,-0.02176477201282978
325.0,356.0,3.9547,0.1831,8.3073,-0.0319,0.0278,-0.121,-1.4981114205769082,-0.008778218179941177,1.8998688459396362,-1.6719602346420288,0.0005184626788832247,2.1969470977783203,4.2542430597492675,0.0,0.28086724877357483,-1.6078656355487269,1.0165372987813726e-09,-0.01087057776749134,0.8365312814712524,-0.0,-0.016862498596310616,0.759235143661499,0.008359621278941631,0.0056440639309585094
344.0,356.0,3.7328,0.1292,8.5579,-0.0246,0.0231,-0.1083,-1.4981713977507134,-0.01007833331823349,1.9017033576965332,-1.671947717666626,0.0005929542239755392,2.2249515056610107,4.254239245052002,0.0,0.30844107270240784,-1.6078456083880823,4.333657998428775e-12,-0.00960550643503666,0.8364906907081604,-0.0,0.00012396229431033134,0.7592508792877197,0.01045707892626524,0.0035127715673297644
344.0,356.0,3.7328,0.1292,8.5579,-0.0246,0.0231,-0.1083,-1.4982551646283646,-0.012932848185300827,1.8953306674957275,-1.6719682216644287,0.001641971291974187,2.178907871246338,4.254270716304443,4.25827465733164e-07,0.2968059182167053,-1.6078618208514612,1.2062896898544766e-15,-0.0033431295305490494,0.8365312814712524,-0.0,-0.01224017608910799,0.7593794465065002,0.010674958117306232,-0.004877043422311544
344.0,356.0,3.7328,0.1292,8.5579,-0.0246,0.0231,-0.1083,-1.4983396616629143,-0.014433137141168118,1.849076747894287,-1.6719160079956055,0.0023050373420119286,2.2581112384796143,4.254310770625732,1.8153692993294612e-09,0.30284473299980164,-1.6078174749957483,5.1426021341671806e-18,0.0008247335208579898,0.8365226984024048,-0.0,-0.015968667343258858,0.7594190835952759,0.011741961352527142,-0.002429603599011898
344.0,356.0,3.7328,0.1292,8.5579,-0.0246,0.0231,-0.1083,-1.4984432098320504,-0.018598109483718872,1.893864393234253,-1.6719201803207397,0.0031764947343617678,2.1881871223449707,4.254275007838867,0.0010238279355689883,0.2951671779155731,-1.6078498999225062,1.4314622023397443e-21,0.0023085905704647303,0.8365312814712524,-0.0,-0.01488978136330843,0.7594751119613647,0.012643972411751747,-0.02835642546415329
344.0,356.0,3.7328,0.1292,8.5579,-0.0246,0.0231,-0.1083,-1.498498798613884,-0.0210436824709177,1.8595869541168213,-1.671932578086853,0.003631721017882228,2.213134288787842,4.254275007838867,0.0008889880846254528,0.2933877110481262,-1.6078818480121058,6.102547498977415e-24,0.0019015835132449865,0.8364669680595398,-0.0,-0.0011897864751517773,0.7595189213752747,0.012625138275325298,0.023953456431627274
344.0,356.0,3.7328,0.1292,8.5579,-0.0246,0.0231,-0.1083,-1.4986710485867043,-0.024400725960731506,1.8143446445465088,-1.6719609498977661,0.003270374611020088,2.1846888065338135,4.254279299373291,0.0006496486603282392,0.282531201839447,-1.6078417936908167,1.6986665516826477e-27,-0.00878167524933815,0.8365271091461182,-0.0,-0.011429764330387115,0.7596312761306763,0.01117700431495905,0.0026832628063857555
344.0,356.0,3.7328,0.1292,8.5579,-0.0246,0.0231,-0.1083,-1.498774879877903,-0.02648947574198246,1.8179991245269775,-1.671928882598877,0.0026807549875229597,2.2529966831207275,4.254274531001709,0.0005502501153387129,0.29978686571121216,-1.6078375021563929,7.2416816607266e-30,-0.012657441198825836,0.8365231156349182,-0.0,-0.002927671419456601,0.7596796154975891,0.010563522577285767,-0.009853821247816086
344.0,356.0,3.7328,0.1292,8.5579,-0.0246,0.0231,-0.1083,-1.49892661840234,-0.028023041784763336,1.9159883260726929,-1.6718559265136719,0.0020669752266258,2.239546775817871,4.2542993265339355,0.00037539631011895835,0.3053094446659088,-1.6078093687640589,2.0157487330495976e-33,-0.004259399138391018,0.8365309238433838,-0.0,-0.01449921540915966,0.7596790790557861,0.009985360316932201,-0.0080974530428648
344.0,356.0,3.7328,0.1292,8.5579,-0.0246,0.0231,-0.1083,-1.4991789174130936,-0.028780434280633926,1.9103941917419434,-1.6719008684158325,0.0024312003515660763,2.1631600856781006,4.254358931178711,0.0003507084329612553,0.29820072650909424,-1.6078375021563929,5.610910706618205e-37,-0.0014893156476318836,0.8364907503128052,-0.0,0.007772518787533045,0.7597348093986511,0.008937878534197807,0.014894542284309864
344.0,356.0,3.7328,0.1292,8.5579,-0.0246,0.0231,-0.1083,-1.4992500332048913,-0.03002777136862278,1.9198763370513916,-1.6718440055847168,0.002497866516932845,2.239037275314331,4.254302664394043,0.0004077023477293551,0.3006172776222229,-1.60785419145693,2.3920192811993914e-39,-0.01159465778619051,0.8365513682365417,-0.0,-0.003498074598610401,0.7597911953926086,0.008455991744995117,0.034000225365161896
344.0,356.0,3.7328,0.1292,8.5579,-0.0246,0.0231,-0.1083,-1.4994827595404168,-0.030234970152378082,1.8599495887756348,-1.6718285083770752,0.002066652290523052,2.234788417816162,4.254278822536133,0.0006177459144964814,0.3039236068725586,-1.60785419145693,6.656167705542881e-43,-0.0043532466515898705,0.8365349769592285,-0.0,0.007043616846203804,0.7598713040351868,0.00806347094476223,0.029560714960098267
344.0,356.0,3.7328,0.1292,8.5579,-0.0246,0.0231,-0.1083,-1.4996223387173195,-0.031393442302942276,1.8552809953689575,-1.671824336051941,0.0016214747447520494,2.268186330795288,4.2543064790913085,0.0006282964022830129,0.3050476312637329,-1.6078417936908167,2.802596928649634e-45,-0.008445055224001408,0.8365153074264526,-0.0,0.007278525736182928,0.7598952651023865,0.008690958842635155,-0.012935099191963673
344.0,356.0,3.7328,0.1292,8.5579,-0.0246,0.0231,-0.1083,-1.4998219844749947,-0.03220946341753006,1.8585536479949951,-1.6718605756759644,0.0012461647856980562,2.208496332168579,4.254251165980957,0.0005971300415694714,0.295523464679718,-1.6077893416034144,0.0,-0.0066248392686247826,0.8365509510040283,-0.0,-0.00244502117857337,0.7599070072174072,0.00831499882042408,-0.016191283240914345
344.0,356.0,3.7328,0.1292,8.5579,-0.0246,0.0231,-0.1083,-1.500006453399994,-0.032276999205350876,1.8775838613510132,-1.671779990196228,0.0009720350499264896,2.207733154296875,4.25434319555249,0.0005758106126450002,0.3085009455680847,-1.6078136602984827,0.0,0.004023847635835409,0.8365111351013184,-0.0,0.0021595265716314316,0.7599710822105408,0.00819519441574812,-0.037598494440317154
344.0,356.0,3.7328,0.1292,8.5579,-0.0246,0.0231,-0.1083,-1.5001978811672707,-0.0319666713476181,1.8705729246139526,-1.6717958450317383,0.0007462085341103375,2.1979970932006836,4.254286451930664,0.0005453511257655919,0.304631769657135,-1.6078179518329065,0.0,0.00307474541477859,0.8365153074264526,-0.0,0.004567742347717285,0.7599669694900513,0.007310960441827774,-0.007672140374779701
344.0,356.0,3.7328,0.1292,8.5579,-0.0246,0.0231,-0.1083,-1.500345141892769,-0.031703170388936996,1.840495228767395,-1.67183256149292,0.0006291497265920043,2.244290351867676,4.254279299373291,0.0004689849156420678,0.3039664924144745,-1.6078093687640589,9.641482756705955e-05,0.0026434047613292933,0.8365152478218079,-0.0,-0.007882361300289631,0.7600187659263611,0.006962373852729797,-0.02757267653942108
344.0,356.0,3.7328,0.1292,8.5579,-0.0246,0.0231,-0.1083,-1.5005335000208397,-0.03099421225488186,1.8517308235168457,-1.6718930006027222,0.00048673152923583984,2.25775408744812,4.254326506251953,0.0004149142769165337,0.3176399767398834,-1.6077936331378382,9.863486047834158e-05,-0.003879339899867773,0.8365509510040283,-0.0,-0.0024273355957120657,0.76003098487854,0.006325011607259512,-0.038923610001802444
330.0,364.0,3.9428,-0.0078,8.4754,-0.0525,-0.0237,-0.1014,-1.500721239750721,-0.029914362356066704,1.8823542594909668,-1.6718440055847168,0.0003641661605797708,2.280470848083496,4.254290743465088,0.0003285585844423622,0.31155452132225037,-1.6078055540667933,0.00011106798046967015,0.0034981488715857267,0.8364710807800293,-0.0,-0.009760258719325066,0.7601273655891418,0.005358966067433357,-0.007017176598310471
330.0,364.0,3.9428,-0.0078,8.4754,-0.0525,-0.0237,-0.1014,-1.5008612808636208,-0.02948491834104061,1.8502233028411865,-1.6718480587005615,0.0003134255239274353,2.2770748138427734,4.254314585322998,0.0002862181863747537,0.3022966980934143,-1.6078017393695276,0.00012388041068334132,0.004368737805634737,0.8365468978881836,-0.0,-0.01572762243449688,0.7600666880607605,0.005078689195215702,-0.03408617153763771
330.0,364.0,3.9428,-0.0078,8.4754,-0.0525,-0.0237,-0.1014,-1.5010210287621994,-0.02942604385316372,1.7970564365386963,-1.6718366146087646,0.0003110925026703626,2.2622835636138916,4.254326506251953,0.00024033611407503486,0.29906079173088074,-1.607769791279928,0.0001321046584052965,0.005255428142845631,0.8365349769592285,-0.0,-0.01544798444956541,0.7601069211959839,0.00373841798864305,-0.021062683314085007
330.0,364.0,3.9428,-0.0078,8.4754,-0.0525,-0.0237,-0.1014,-1.5010965925506135,-0.030420182272791862,1.7970898151397705,-1.6718449592590332,0.0003558942407835275,2.2941203117370605,4.254291220302246,0.00021713496244046837,0.29775679111480713,-1.6078179518329065,0.00032060121884569526,0.016229644417762756,0.836547315120697,-0.0,0.003120088716968894,0.7601390480995178,0.0033411781769245863,-0.06080116704106331
330.0,364.0,3.9428,-0.0078,8.4754,-0.0525,-0.0237,-0.1014,-1.5013367694667359,-0.03165740892291069,1.8376988172531128,-1.6717880964279175,0.00039949617348611355,2.1983413696289062,4.254266901607178,0.0001896717876661569,0.3029400110244751,-1.607781712208883,0.0003696670464705676,0.01651759073138237,0.8364826440811157,-0.0,-0.0066657904535532,0.7601708769798279,0.002424294129014015,-0.0063207317143678665
330.0,364.0,3.9428,-0.0078,8.4754,-0.0525,-0.0237,-0.1014,-1.501504809861519,-0.033880025148391724,1.8402173519134521,-1.6718000173568726,0.0013140517985448241,2.2649083137512207,4.254298372859619,0.0002017481456277892,0.30410200357437134,-1.6077778975116175,0.0003767346206586808,0.017066877335309982,0.836547315120697,-0.0,0.003669656813144684,0.7601385712623596,0.0016275342786684632,-0.029723556712269783
330.0,364.0,3.9428,-0.0078,8.4754,-0.0525,-0.0237,-0.1014,-1.501664751475193,-0.03353865444660187,1.804856538772583,-1.6717684268951416,0.0022975292522460222,2.2789652347564697,4.254286451930664,0.00018798110249917954,0.3078126609325409,-1.6078022162066858,0.0003462856402620673,0.024398058652877808,0.8364869952201843,-0.0,-0.018130160868167877,0.7602112889289856,0.0012055184924975038,-0.04696037992835045
330.0,364.0,3.9428,-0.0078,8.4754,-0.0525,-0.0237,-0.1014,-1.501848266725876,-0.03628759831190109,1.7828714847564697,-1.6717844009399414,0.004443202167749405,2.2610573768615723,4.254347010249756,0.0001983190595638007,0.2917376160621643,-1.607769791279928,0.00039053973159752786,0.019079256802797318,0.8364865779876709,-0.0,0.0022710079792886972,0.7601990103721619,0.0007954298635013402,-0.04988840967416763
330.0,364.0,3.9428,-0.0078,8.4754,-0.0525,-0.0237,-0.1014,-1.5020243611982842,-0.03756238520145416,1.7794625759124756,-1.6717885732650757,0.006715760566294193,2.223316192626953,4.254370852107666,0.0002130140201188624,0.2951469421386719,-1.6077373663531702,0.00039694015868008137,0.022272545844316483,0.836539089679718,-0.0,-0.013611754402518272,0.7601866722106934,0.0007165504503063858,-0.022764751687645912
330.0,364.0,3.9428,-0.0078,8.4754,-0.0525,-0.0237,-0.1014,-1.502212056224682,-0.04105589538812637,1.7396223545074463,-1.671716570854187,0.00878208689391613,2.2583658695220947,4.254342241878174,0.00021814617502968758,0.2913171350955963,-1.6077778975116175,0.0003268074069637805,0.017304299399256706,0.836547315120697,-0.0,-0.003492227755486965,0.760199248790741,0.0006130213150754571,-0.033698491752147675
330.0,364.0,3.9428,-0.0078,8.4754,-0.0525,-0.0237,-0.1014,-1.502387822871544,-0.044908370822668076,1.7544502019882202,-1.6715872287750244,0.010066693648695946,2.314352035522461,4.2543064790913085,0.0002565947361290455,0.299011766910553,-1.607753101979391,0.00029150862246751785,0.018209578469395638,0.8365148901939392,-0.0,-0.003263491438701749,0.7601585984230042,0.000492245308123529,-0.017041897401213646
330.0,364.0,3.9428,-0.0078,8.4754,-0.0525,-0.0237,-0.1014,-1.502675936823227,-0.050352297723293304,1.709798812866211,-1.6716241836547852,0.012525184080004692,2.253666400909424,4.254394693965576,0.0006940055172890425,0.30381157994270325,-1.607753101979391,0.000292295531835407,0.015055990777909756,0.8364948034286499,-0.0,-0.012546621263027191,0.7601464986801147,0.0004723622987512499,-0.03279846906661987
330.0,364.0,3.9428,-0.0078,8.4754,-0.0525,-0.0237,-0.1014,-1.50289989382539,-0.053898800164461136,1.787111520767212,-1.671512484550476,0.014212382957339287,2.2827870845794678,4.254342241878174,0.00073932547820732,0.29569292068481445,-1.6077778975116175,0.0002677895245142281,0.014505449682474136,0.8365153074264526,-0.0,0.002392077585682273,0.760191023349762,0.0006241265218704939,-0.028190521523356438
330.0,364.0,3.9428,-0.0078,8.4754,-0.0525,-0.0237,-0.1014,-1.5032392677715798,-0.060222078114748,1.7822072505950928,-1.6713963747024536,0.016397172585129738,2.2698309421539307,4.254386587733887,0.0009507304057478905,0.3059524893760681,-1.6077736059771937,0.0002691264380700886,0.015226786956191063,0.836547315120697,-0.0,0.0019105540122836828,0.7601869106292725,0.0005432615871541202,-0.049778781831264496
330.0,364.0,3.9428,-0.0078,8.4754,-0.0525,-0.0237,-0.1014,-1.5036073711565514,-0.0654798299074173,1.7513055801391602,-1.6712960004806519,0.019846724346280098,2.3066749572753906,4.2543980318256835,0.0014487587613984942,0.29820168018341064,-1.607769791279928,0.00024384577409364283,0.028284160420298576,0.8365554213523865,-0.0,-0.0006257244385778904,0.7601948976516724,0.0005597737617790699,-0.08132363855838776
330.0,364.0,3.9428,-0.0078,8.4754,-0.0525,-0.0237,-0.1014,-1.5038061153939744,-0.06719095259904861,1.7893903255462646,-1.671200156211853,0.02032613568007946,2.29770565032959,4.254401846522949,0.001528805703856051,0.30267563462257385,-1.6077492872821253,0.00019854761194437742,0.0279595535248518,0.8364705443382263,-0.0,-0.0024174624122679234,0.7601908445358276,0.0007329649524763227,-0.09989088773727417
330.0,364.0,3.9428,-0.0078,8.4754,-0.0525,-0.0237,-0.1014,-1.5042704579285164,-0.07080701738595963,1.726150631904602,-1.6710960865020752,0.01984979771077633,2.325186252593994,4.2544142442890625,0.0012326048454269767,0.3087955117225647,-1.6077778975116175,0.0002078084071399644,0.037204254418611526,0.836482584476471,-0.0,-0.008803978562355042,0.7602753639221191,0.0011949476320296526,-0.10809405148029327
330.0,364.0,3.9428,-0.0078,8.4754,-0.0525,-0.0237,-0.1014,-1.5045784202269097,-0.07323062419891357,1.7516324520111084,-1.6710047721862793,0.02093714475631714,2.2994518280029297,4.254378481502197,0.0010645239381119609,0.3077170252799988,-1.6077373663531702,0.00021091756934765726,0.021880052983760834,0.8365554213523865,-0.0,-0.008125321008265018,0.7602267861366272,0.0014171174261718988,-0.09470799565315247
321.0,352.0,3.4116,0.0293,8.5059,-0.0405,0.0078,-0.1067,-1.5050179076245804,-0.07609549909830093,1.7557071447372437,-1.6708639860153198,0.020968280732631683,2.334584951400757,4.254426642055176,0.0009023206075653434,0.2996523082256317,-1.6077492872821253,0.00020526100706774741,0.02093452960252762,0.8365632891654968,-0.0,2.3293192498385906e-05,0.7603113651275635,0.0016861966578289866,-0.10638566315174103
321.0,352.0,3.4116,0.0293,8.5059,-0.0405,0.0078,-0.1067,-1.505345770423748,-0.0756099745631218,1.7603856325149536,-1.6708199977874756,0.020740346983075142,2.3312461376190186,4.254430456752441,0.0008108227630145848,0.3059493899345398,-1.607769791279928,0.00019270680786576122,0.01941603422164917,0.8365030288696289,-0.0,-0.010750792920589447,0.7602308988571167,0.0021391320042312145,-0.029503846541047096
321.0,352.0,3.4116,0.0293,8.5059,-0.0405,0.0078,-0.1067,-1.5058174070766945,-0.07423350214958191,1.7826862335205078,-1.6707561016082764,0.019389837980270386,2.334573745727539,4.2543980318256835,0.0005887690931558609,0.309910386800766,-1.6077654997455042,0.00020128428877796978,0.021243372932076454,0.8365353941917419,-0.0,-0.014008192345499992,0.7602507472038269,0.0026974226348102093,-0.03294883668422699
321.0,352.0,3.4116,0.0293,8.5059,-0.0405,0.0078,-0.1067,-1.5062325161746521,-0.07367285341024399,1.776360273361206,-1.6705677509307861,0.017640212550759315,2.3693199157714844,4.2544142442890625,0.0004227746685501188,0.319510817527771,-1.6077454725848597,0.00018608181562740356,0.01281128078699112,0.8364989757537842,-0.0,-0.0025882550980895758,0.7602546215057373,0.002622192492708564,-0.038566216826438904
321.0,352.0,3.4116,0.0293,8.5059,-0.0405,0.0078,-0.1067,-1.5065442484668274,-0.07465360313653946,1.7954421043395996,-1.6706130504608154,0.016827750951051712,2.3570878505706787,4.254422350520752,0.0003558394673746079,0.30452805757522583,-1.6077778975116175,0.0001769358350429684,0.01797730103135109,0.8364866375923157,-0.0,0.0017431052401661873,0.76031094789505,0.0024170815013349056,-0.07987315207719803
321.0,352.0,3.4116,0.0293,8.5059,-0.0405,0.0078,-0.1067,-1.5069637087038537,-0.07733442634344101,1.7520687580108643,-1.6704604625701904,0.015383215621113777,2.357062816619873,4.254402323360107,0.00034302339190617204,0.31671395897865295,-1.6077492872821253,0.00019729137420654297,0.024184323847293854,0.8364747166633606,-0.0,-0.0021836156956851482,0.7602627873420715,0.0019633902702480555,-0.05983034521341324
321.0,352.0,3.4116,0.0293,8.5059,-0.0405,0.0078,-0.1067,-1.5073196750930329,-0.07826442271471024,1.729323148727417,-1.670399785041809,0.015206792391836643,2.327277421951294,4.254442377681396,0.00030595369753427804,0.3108445107936859,-1.607797924672262,0.00018360487592872232,0.034851111471652985,0.8365550637245178,-0.0,-0.013816798105835915,0.7602828741073608,0.001455505844205618,-0.0662936121225357
321.0,352.0,3.4116,0.0293,8.5059,-0.0405,0.0078,-0.1067,-1.5077712324312706,-0.08509467542171478,1.7398896217346191,-1.6702879667282104,0.015905484557151794,2.3722023963928223,4.254410429591797,0.00026149736368097365,0.313865065574646,-1.607757870350973,0.00019615516066551208,0.039336998015642166,0.8364866375923157,-0.0,-0.0011204296024516225,0.760278582572937,0.0009491128148511052,-0.013477545231580734
321.0,352.0,3.4116,0.0293,8.5059,-0.0405,0.0078,-0.1067,-1.5081273776343842,-0.08820974826812744,1.746777057647705,-1.6701958179473877,0.016574401408433914,2.3880116939544678,4.2544542986103515,0.00023840182984713465,0.3204810321331024,-1.6077535788165491,0.0002129613858414814,0.03154299408197403,0.836543083190918,-0.0,0.006648790091276169,0.7602826952934265,0.0007296389667317271,-0.0315081812441349
321.0,352.0,3.4116,0.0293,8.5059,-0.0405,0.0078,-0.1067,-1.5086547967842598,-0.09512367099523544,1.7271183729171753,-1.6700804233551025,0.020082702860236168,2.321226119995117,4.254426642055176,0.00021051429212093353,0.3127739131450653,-1.6077535788165491,0.00036328090936876833,0.02285350114107132,0.8365153074264526,-0.0,-0.011445037089288235,0.760286808013916,0.0003161091881338507,-0.036376237869262695
321.0,352.0,3.4116,0.0293,8.5059,-0.0405,0.0078,-0.1067,-1.5090546880713482,-0.1002507135272026,1.7549169063568115,-1.6699638366699219,0.02305080182850361,2.3629541397094727,4.254434271449707,0.00022562807134818286,0.31991955637931824,-1.607741657887594,0.0004210088518448174,0.02552863024175167,0.8365029692649841,-0.0,-0.006465555168688297,0.760266900062561,0.0001613191416254267,-0.04128685221076012
321.0,352.0,3.4116,0.0293,8.5059,-0.0405,0.0078,-0.1067,-1.5096220199814816,-0.10691729933023453,1.7317249774932861,-1.6698074340820312,0.028615472838282585,2.3295748233795166,4.254442377681396,0.00019576135673560202,0.30633142590522766,-1.6077254454242151,0.0006265275878831744,0.03783553093671799,0.8364870548248291,-0.0,0.005689641460776329,0.7602710127830505,7.11883621988818e-05,-0.07288213074207306
321.0,352.0,3.4116,0.0293,8.5059,-0.0405,0.0078,-0.1067,-1.5102696542492886,-0.11005761474370956,1.728477954864502,-1.6696395874023438,0.03654005005955696,2.398007869720459,4.254418535823486,0.001006196835078299,0.32692670822143555,-1.6077535788165491,0.000721020856872201,0.03838958591222763,0.8365713953971863,-0.0,-0.013920783065259457,0.7602425217628479,5.2444600441958755e-05,-0.047433946281671524
321.0,352.0,3.4116,0.0293,8.5059,-0.0405,0.0078,-0.1067,-1.5107292544892807,-0.11191494762897491,1.7183481454849243,-1.6694514751434326,0.04128503426909447,2.4374725818634033,4.254418535823486,0.002013246761634946,0.3109586238861084,-1.607729736958639,0.0006860917201265693,0.043281637132167816,0.8365353941917419,-0.0,-0.0033779277000576258,0.7602627873420715,4.6969758841441944e-05,-0.03325079753994942
321.0,352.0,3.4116,0.0293,8.5059,-0.0405,0.0078,-0.1067,-1.5113921997002144,-0.11169930547475815,1.791583776473999,-1.6691879034042358,0.049631524831056595,2.463656425476074,4.254482908839844,0.004783990327268839,0.3080238401889801,-1.6076930204974573,0.0007511088624596596,0.03686874359846115,0.8364349007606506,-0.0,-0.002770140999928117,0.7602908611297607,4.118138167541474e-05,-0.07564670592546463
321.0,352.0,3.4116,0.0293,8.5059,-0.0405,0.0078,-0.1067,-1.5118437458625813,-0.1125851646065712,1.7471165657043457,-1.6690276861190796,0.05418870970606804,2.4382123947143555,4.254526777858398,0.009303679689764977,0.3260893225669861,-1.6077340284930628,0.0014545938465744257,0.021440520882606506,0.8365190029144287,-0.0,-0.010482488200068474,0.7602747678756714,7.43187774787657e-05,-0.04651269316673279
321.0,352.0,3.4116,0.0293,8.5059,-0.0405,0.0078,-0.1067,-1.5125753369978447,-0.11853468418121338,1.7619526386260986,-1.668671727180481,0.05903779715299606,2.449284791946411,4.254585428828857,0.020867707207798958,0.33764761686325073,-1.6076939741717737,0.003794690826907754,0.034861452877521515,0.8365071415901184,-0.0,-0.004018953535705805,0.7602908611297607,6.626958202105016e-05,-0.08399471640586853
322.0,364.0,3.189,0.0024,8.6495,-0.0455,-0.0099,-0.1103,-1.5130991463414212,-0.12308340519666672,1.7086520195007324,-1.6684118509292603,0.06367484480142593,2.4091689586639404,4.25466172277417,0.018467573449015617,0.3461880087852478,-1.6076534430133265,0.009649854153394699,0.0410376638174057,0.8365554213523865,-0.0,-0.001424847636371851,0.7603031396865845,6.172426219563931e-05,-0.04311126470565796
322.0,364.0,3.189,0.0024,8.6495,-0.0455,-0.0099,-0.1103,-1.513794371192791,-0.1312832087278366,1.75013267993927,-1.668052315711975,0.06969340145587921,2.4533870220184326,4.254772825832031,0.012424474582076073,0.33258187770843506,-1.6075533072101038,0.021064527332782745,0.05160024017095566,0.836458683013916,-0.0,-0.012801047414541245,0.7602987289428711,5.5966611398616806e-05,-0.047665417194366455
322.0,364.0,3.189,0.0024,8.6495,-0.0455,-0.0099,-0.1103,-1.514537615036108,-0.1389305293560028,1.720772385597229,-1.667575716972351,0.07800663262605667,2.457005023956299,4.25482098638501,0.0059465221129357815,0.32294708490371704,-1.607485596333639,0.015416336245834827,0.04082867130637169,0.8365153074264526,-0.0,-0.006849336437880993,0.7602867484092712,5.119150227983482e-05,-0.055631328374147415
322.0,364.0,3.189,0.0024,8.6495,-0.0455,-0.0099,-0.1103,-1.5150769476643582,-0.1408408284187317,1.7429304122924805,-1.667203426361084,0.08360660821199417,2.4547669887542725,4.254800959224365,0.002486499259248376,0.3278387188911438,-1.6074417273150843,0.010168296284973621,0.04890712350606918,0.8364666700363159,-0.0,-0.008806563913822174,0.7602668404579163,2.8480276341724675e-06,-0.02759460359811783
322.0,364.0,3.189,0.0024,8.6495,-0.0455,-0.0099,-0.1103,-1.5158522588065644,-0.13680501282215118,1.7066318988800049,-1.6666393280029297,0.09206689894199371,2.5147171020507812,4.2548486429401855,0.0010417696321383119,0.3343328833580017,-1.6073978582965296,0.0039016243536025286,0.0346260666847229,0.8365111351013184,-0.0,-0.01168450154364109,0.7602750658988953,6.877651226311343e-12,-0.07272327691316605
322.0,364.0,3.189,0.0024,8.6495,-0.0455,-0.0099,-0.1103,-1.5163799126497288,-0.13448216021060944,1.7187881469726562,-1.6662756204605103,0.09645844250917435,2.5240447521209717,4.254852457637451,0.0008708290406502783,0.31242096424102783,-1.6074298063861292,0.0019202724797651172,0.052793730050325394,0.8364666104316711,-0.0,0.0011483896523714066,0.7602628469467163,1.2379529460931449e-15,-0.0634717270731926
322.0,364.0,3.189,0.0024,8.6495,-0.0455,-0.0099,-0.1103,-1.5172311154058953,-0.1358547806739807,1.719969630241394,-1.6656272411346436,0.10199349373579025,2.4843695163726807,4.254856272334717,0.0007524070097133517,0.3123960494995117,-1.6073735396014612,0.0009609527187421918,0.042482852935791016,0.8365234136581421,-0.0,-0.00725542102009058,0.7602828741073608,2.9895109072781614e-21,-0.09305867552757263
322.0,364.0,3.189,0.0024,8.6495,-0.0455,-0.0099,-0.1103,-1.5177667376450081,-0.13926054537296295,1.7850205898284912,-1.66524338722229,0.1061800941824913,2.4896254539489746,4.254840536708496,0.0024066255427896976,0.33179619908332825,-1.6073935667621058,0.0007357972208410501,0.03755238279700279,0.8364230990409851,-0.0,-0.009993501007556915,0.7603150010108948,5.381013505434301e-25,-0.08477829396724701
322.0,364.0,3.189,0.0024,8.6495,-0.0455,-0.0099,-0.1103,-1.5186262999526043,-0.14093293249607086,1.7672791481018066,-1.6645911931991577,0.11600912362337112,2.5127673149108887,4.254860563869141,0.00228722020983696,0.33332961797714233,-1.6073854605304163,0.0005446674185805023,0.04316959157586098,0.8364669680595398,-0.0,-0.02506731078028679,0.7602949738502502,1.2994515466701706e-30,-0.10430587083101273
322.0,364.0,3.189,0.0024,8.6495,-0.0455,-0.0099,-0.1103,-1.5194815222970028,-0.1423913538455963,1.7455990314483643,-1.663891315460205,0.12239738553762436,2.5642666816711426,4.2548486429401855,0.0013024993240833282,0.33898550271987915,-1.6074016729937952,0.00043241828097961843,0.047330811619758606,0.8365153074264526,-0.0,-0.002460809424519539,0.76031094789505,3.1380224910426284e-36,-0.06307029724121094
322.0,364.0,3.189,0.0024,8.6495,-0.0455,-0.0099,-0.1103,-1.5200044338456173,-0.14839057624340057,1.7586727142333984,-1.6633548736572266,0.129400372505188,2.566181182861328,4.254852457637451,0.0009223059751093388,0.3261439800262451,-1.6073854605304163,0.0003801967832259834,0.04340521991252899,0.8364826440811157,-0.0,-0.006533689796924591,0.760286808013916,5.648325824031186e-40,-0.07615913450717926
322.0,364.0,3.189,0.0024,8.6495,-0.0455,-0.0099,-0.1103,-1.520944171851017,-0.15226490795612335,1.769683837890625,-1.6625545024871826,0.1424422711133957,2.5827207565307617,4.254832430476807,0.00022479615290649235,0.3291299641132355,-1.6073616186725062,0.00032189502962864935,0.04096997156739235,0.8365029692649841,-0.0,-0.011836094781756401,0.7602747082710266,1.401298464324817e-45,-0.058667898178100586
322.0,364.0,3.189,0.0024,8.6495,-0.0455,-0.0099,-0.1103,-1.52153533816848,-0.1529259830713272,1.7557199001312256,-1.6619670391082764,0.1527089625597,2.5680179595947266,4.254864378566406,0.00017707093502394855,0.3362196385860443,-1.6073735396014612,0.000292042939690873,0.029990598559379578,0.8365111351013184,-0.0,-0.006636019796133041,0.7602546215057373,0.0,-0.09218362718820572
322.0,364.0,3.189,0.0024,8.6495,-0.0455,-0.0099,-0.1103,-1.5224945296398182,-0.1560717076063156,1.8020226955413818,-1.661018967628479,0.16167190670967102,2.619333505630493,4.2548486429401855,0.0001366768847219646,0.33013299107551575,-1.607405964528219,0.0002563804155215621,0.051736027002334595,0.8364907503128052,-0.0,-0.01344117522239685,0.7603071928024292,0.0,-0.05473342165350914
322.0,364.0,3.189,0.0024,8.6495,-0.0455,-0.0099,-0.1103,-1.5231503148427983,-0.16195473074913025,1.756066083908081,-1.660346508026123,0.1610068827867508,2.5959784984588623,4.2548486429401855,0.00011864601401612163,0.33907270431518555,-1.6073935667621058,0.00023708079243078828,0.030541442334651947,0.8364867568016052,-0.0,-0.011110031045973301,0.7602627873420715,0.0,-0.11040772497653961
322.0,364.0,3.189,0.0024,8.6495,-0.0455,-0.0099,-0.1103,-1.5241050024381657,-0.17433324456214905,1.7188043594360352,-1.6593551635742188,0.16882315278053284,2.5599184036254883,4.254856272334717,9.905007755151019e-05,0.330250084400177,-1.6073773542987269,0.00024292516172863543,0.04993072897195816,0.8365030288696289,-0.0,-0.012633774429559708,0.7602710127830505,0.0,-0.06245654076337814
322.0,364.0,3.189,0.0024,8.6495,-0.0455,-0.0099,-0.1103,-1.5248445396176358,-0.17775097489356995,1.749683141708374,-1.6585825681686401,0.1764666885137558,2.574655532836914,4.254872961635254,8.922677079681307e-05,0.3331564664840698,-1.607405964528219,0.00022803433239459991,0.0416036881506443,0.8364870548248291,-0.0,-0.003235845360904932,0.760258674621582,0.0,-0.07247721403837204
322.0,364.0,3.189,0.0024,8.6495,-0.0455,-0.0099,-0.1103,-1.5259161566248913,-0.17547225952148438,1.7368446588516235,-1.6574827432632446,0.19025835394859314,2.6197891235351562,4.254884882564209,0.00011646166967693716,0.32669347524642944,-1.6073616186725062,0.0002082476858049631,0.05667485296726227,0.8364907503128052,-0.0,-0.01940404251217842,0.7603031992912292,0.0,-0.09251593053340912
350.0,354.0,4.73,0.4475,8.7452,0.0002,-0.042,-0.1315,-1.5270066273263474,-0.17004337906837463,1.7536883354187012,-1.6562986373901367,0.20334094762802124,2.655094861984253,4.254829092616699,-4.5355558540904894e-05,0.32135269045829773,-1.6073978582965296,0.00014032736362423748,0.05099842697381973,0.8365472555160522,-0.0,-0.006805914454162121,0.7602828741073608,0.0,-0.09982486069202423
350.0,354.0,4.73,0.4475,8.7452,0.0002,-0.042,-0.1315,-1.5277620044401665,-0.17248541116714478,1.7833608388900757,-1.65546715259552,0.20688548684120178,2.612837314605713,4.254817171687744,-4.149260712438263e-05,0.32532158493995667,-1.6074298063861292,0.00011604506289586425,0.05252578482031822,0.8365071415901184,-0.0,0.004226845223456621,0.7602869868278503,0.0,-0.10495379567146301
350.0,354.0,4.73,0.4475,8.7452,0.0002,-0.042,-0.1315,-1.5288810406676312,-0.18873095512390137,1.7386246919631958,-1.6541388034820557,0.21009056270122528,2.6565399169921875,4.254864378566406,-3.6451234336709604e-05,0.32464170455932617,-1.607405964528219,0.00010764545004349202,0.05076418071985245,0.8364670276641846,-0.0,-0.00941151101142168,0.7602986693382263,0.0,-0.08314147591590881
350.0,354.0,4.73,0.4475,8.7452,0.0002,-0.042,-0.1315,-1.5296964545599003,-0.20258210599422455,1.685752511024475,-1.6532832384109497,0.21536071598529816,2.6586110591888428,4.25483672201123,-3.371939237695187e-05,0.31932324171066284,-1.6073454062091272,0.00010273019142914563,0.04002806916832924,0.8365153074264526,-0.0,-0.003105152864009142,0.7602706551551819,0.0,-0.10870343446731567
350.0,354.0,4.73,0.4475,8.7452,0.0002,-0.042,-0.1315,-1.5309279088727017,-0.21521832048892975,1.6849256753921509,-1.6519237756729126,0.2274961769580841,2.6362524032592773,4.254844351405762,-3.031187407032121e-05,0.3308698832988739,-1.6073535124408167,0.000115042959805578,0.04579807072877884,0.8364866375923157,-0.0,-0.011138292029500008,0.7602546811103821,0.0,-0.10857479274272919
350.0,354.0,4.73,0.4475,8.7452,0.0002,-0.042,-0.1315,-1.5318152916482468,-0.2101142853498459,1.6850910186767578,-1.6509792804718018,0.23660291731357574,2.6421046257019043,4.2548486429401855,-2.8398717404343188e-05,0.3188443183898926,-1.6073697249041956,0.00011064471618738025,0.042947567999362946,0.8365193605422974,-0.0,-0.008649410679936409,0.7603068351745605,0.0002636066637933254,-0.10192492604255676
350.0,354.0,4.73,0.4475,8.7452,0.0002,-0.042,-0.1315,-1.5330817711404343,-0.20175141096115112,1.7358882427215576,-1.649527668952942,0.24280625581741333,2.65437650680542,4.2548486429401855,-5.014123962610029e-05,0.32387083768844604,-1.6073816458331507,0.00012159161269664764,0.0622466579079628,0.8365110754966736,-0.0,0.0005795194301754236,0.7602425217628479,7.776263188929988e-09,-0.10628320276737213
350.0,354.0,4.73,0.4475,8.7452,0.0002,-0.042,-0.1315,-1.534360808586218,-0.20889225602149963,1.661973476409912,-1.6480523347854614,0.2517828941345215,2.6291542053222656,4.254884882564209,-4.775496563524939e-05,0.3199682831764221,-1.6073454062091272,0.00013133950415067375,0.040300153195858,0.8365070819854736,-0.0,-0.003977576270699501,0.7603229880332947,1.8778759404143412e-14,-0.08377083390951157
350.0,354.0,4.73,0.4475,8.7452,0.0002,-0.042,-0.1315,-1.5352478374591847,-0.22098208963871002,1.6690609455108643,-1.646984338760376,0.259286493062973,2.6591365337371826,4.254872484798096,-4.534898835117929e-05,0.319368839263916,-1.6073654333697718,0.00012675070320256054,0.052951522171497345,0.8364866971969604,-0.0,-0.005873872432857752,0.760286808013916,3.3801104118221215e-18,-0.09443363547325134
350.0,354.0,4.73,0.4475,8.7452,0.0002,-0.042,-0.1315,-1.5366390471211453,-0.2346273958683014,1.6584272384643555,-1.6453443765640259,0.2677174508571625,2.6921157836914062,4.2549049097248535,-5.2524006605381146e-05,0.31595557928085327,-1.6073654333697718,0.00019209992024116218,0.06091248244047165,0.8364389538764954,-0.0,-0.007906337268650532,0.760310709476471,8.162567822818892e-24,-0.07853366434574127
350.0,354.0,4.73,0.4475,8.7452,0.0002,-0.042,-0.1315,-1.5375463601997872,-0.23561987280845642,1.6717376708984375,-1.6443532705307007,0.2706008851528168,2.660907745361328,4.2548205095478515,-6.036721242708154e-05,0.3212432861328125,-1.607349697743551,0.00020785917877219617,0.05302208662033081,0.836563229560852,-0.0,0.006597449071705341,0.7602945566177368,1.4692334063027129e-27,-0.14269864559173584
350.0,354.0,4.73,0.4475,8.7452,0.0002,-0.042,-0.1315,-1.538940542643406,-0.23699761927127838,1.6957614421844482,-1.642709732055664,0.28108108043670654,2.6813173294067383,4.254808588618896,-7.515839388361201e-05,0.31735730171203613,-1.6073697249041956,0.00021760068193543702,0.04165865480899811,0.8364948034286499,-0.0,-0.002784847281873226,0.7602945566177368,0.0002509512996766716,-0.13132336735725403
350.0,354.0,4.73,0.4475,8.7452,0.0002,-0.042,-0.1315,-1.5398918122849246,-0.24137277901172638,1.6657164096832275,-1.6415855884552002,0.2873820960521698,2.7236478328704834,4.254837198848389,-0.00018778565572574735,0.30591481924057007,-1.607394043599264,0.00020719504391308874,0.054069455713033676,0.8365070819854736,-0.0,0.013193810358643532,0.7603027820587158,0.0001961914385901764,-0.12471412122249603
350.0,354.0,4.73,0.4475,8.7452,0.0002,-0.042,-0.1315,-1.5413868457875033,-0.253699392080307,1.6658663749694824,-1.6398295164108276,0.29321637749671936,2.6806352138519287,4.254841013545654,-0.001334938919171691,0.3080800771713257,-1.607377831135885,0.00021548215590883046,0.06574903428554535,0.8364870548248291,-0.0,0.0013389067025855184,0.7603673934936523,0.00014783086953684688,-0.14773349463939667
350.0,354.0,4.73,0.4475,8.7452,0.0002,-0.042,-0.1315,-1.5423977182111521,-0.2594353258609772,1.6477007865905762,-1.6386574506759644,0.2943263351917267,2.5910189151763916,4.254780932063721,-0.0009536121506243944,0.291828453540802,-1.6073535124408167,0.0003151182609144598,0.06606116890907288,0.8364669680595398,-0.0,0.0026716378051787615,0.7603148221969604,0.00012696946214418858,-0.13908973336219788
350.0,354.0,4.73,0.4475,8.7452,0.0002,-0.042,-0.1315,-1.5439443115941067,-0.2601778507232666,1.6612440347671509,-1.6368374824523926,0.30551716685295105,2.68473482131958,4.254837198848389,-0.0006553611601702869,0.3028731942176819,-1.6074264685260218,0.0003023535537067801,0.05805111676454544,0.8365029692649841,-0.0,-0.008198754861950874,0.76031893491745,0.0001047899349941872,-0.21114900708198547
350.0,354.0,4.73,0.4475,8.7452,0.0002,-0.042,-0.1315,-1.5455114927938958,-0.2647854685783386,1.6008203029632568,-1.6349656581878662,0.30955514311790466,2.676577568054199,4.254772825832031,-0.000534891034476459,0.2959102988243103,-1.6073859373675745,0.0002689555985853076,0.07559438049793243,0.8364546895027161,-0.0,0.0009668976999819279,0.7603632807731628,8.920810068957508e-05,-0.2184092104434967
324.0,346.0,3.9464,0.3129,8.8403,-0.0289,0.0451,-0.1174,-1.5465705667487164,-0.2719922363758087,1.6386157274246216,-1.633758544921875,0.31077319383621216,2.6756186485290527,4.2547852235981445,-0.0005962442373856902,0.29035815596580505,-1.6073740164386194,0.00024458795087412,0.04630348086357117,0.8365554809570312,-0.0,-0.01831645891070366,0.7603512406349182,8.116265235003084e-05,-0.11318773031234741
324.0,346.0,3.9464,0.3129,8.8403,-0.0289,0.0451,-0.1174,-1.5482132130167265,-0.27728593349456787,1.6802434921264648,-1.6318429708480835,0.31936562061309814,2.665635108947754,4.254777117366455,-0.00047954541514627635,0.3010898232460022,-1.6073458830462855,0.0002510439953766763,0.06753052771091461,0.8364867568016052,-0.0,-0.006377486512064934,0.7603509426116943,0.00010717764962464571,-0.14328372478485107
324.0,346.0,3.9464,0.3129,8.8403,-0.0289,0.0451,-0.1174,-1.5492919751307745,-0.2822928726673126,1.6504724025726318,-1.6306307315826416,0.3294213116168976,2.6827266216278076,4.254808588618896,-0.0004231497587170452,0.2908136546611786,-1.6073697249041956,0.00023265219351742417,0.05402412638068199,0.8364829421043396,-0.0,0.0043664611876010895,0.7603227496147156,0.0001324535405728966,-0.12360268831253052
324.0,346.0,3.9464,0.3129,8.8403,-0.0289,0.0451,-0.1174,-1.5509823907962819,-0.2896118462085724,1.611364722251892,-1.6286550760269165,0.32378658652305603,2.6367287635803223,4.254748983974121,-0.0014939038082957268,0.2913413941860199,-1.6073697249041956,0.00020944589050486684,0.055323272943496704,0.8364784121513367,-0.0,-0.013476843945682049,0.7603471279144287,7.096592162270099e-05,-0.1620616763830185
324.0,346.0,3.9464,0.3129,8.8403,-0.0289,0.0451,-0.1174,-1.5521815375289698,-0.29310503602027893,1.653292179107666,-1.6273397207260132,0.32119566202163696,2.657402753829956,4.254725142116211,-0.002379742916673422,0.2767808139324188,-1.607377831135885,0.00021014886442571878,0.05730036273598671,0.8365350365638733,-0.0,-0.003978881984949112,0.7603389024734497,6.577868043677881e-05,-0.15070298314094543
324.0,346.0,3.9464,0.3129,8.8403,-0.0289,0.0451,-0.1174,-1.5539524306407948,-0.2976044714450836,1.65768301486969,-1.6252870559692383,0.3241238594055176,2.6593122482299805,4.254772825832031,-0.0008874593186192214,0.2866137623786926,-1.607349697743551,0.00020524204592220485,0.05588466674089432,0.8365312814712524,-0.0,-0.00404669065028429,0.7602986693382263,8.772138971835375e-05,-0.16833247244358063
324.0,346.0,3.9464,0.3129,8.8403,-0.0289,0.0451,-0.1174,-1.555791370836534,-0.3069068193435669,1.633489966392517,-1.6233361959457397,0.3277297914028168,2.6562347412109375,4.254772825832031,-0.0006531336694024503,0.27949732542037964,-1.6073859373675745,0.00018907515914179385,0.07856360822916031,0.8364830017089844,-0.0,0.0014697005972266197,0.760286808013916,8.092389180092141e-05,-0.20901283621788025
324.0,346.0,3.9464,0.3129,8.8403,-0.0289,0.0451,-0.1174,-1.557069864389934,-0.3108597695827484,1.6259156465530396,-1.621993064880371,0.3286530077457428,2.6205878257751465,4.25478903829541,-0.00044338818406686187,0.28131863474845886,-1.6073740164386194,0.0001796399155864492,0.0549311563372612,0.8365070819854736,-0.0,-0.003807267639786005,0.7603471279144287,7.634733628947288e-05,-0.1390114575624466
324.0,346.0,3.9464,0.3129,8.8403,-0.0289,0.0451,-0.1174,-1.5589003165117283,-0.3077547252178192,1.582786202430725,-1.6199686527252197,0.3336617350578308,2.6122632026672363,4.254752798671387,-0.0003416259423829615,0.28619763255119324,-1.6073253790484827,0.0001671297213761136,0.04993962496519089,0.8365431427955627,-0.0,0.01171744242310524,0.7603065967559814,7.037704199319705e-05,-0.1831974983215332
324.0,346.0,3.9464,0.3129,8.8403,-0.0289,0.0451,-0.1174,-1.5601997396773477,-0.3138613998889923,1.6783037185668945,-1.6186974048614502,0.33437392115592957,2.65708065032959,4.254780932063721,-0.00034020523889921606,0.27493542432785034,-1.6073458830462855,0.0001406557857990265,0.06263246387243271,0.8365190029144287,-0.0,0.019212860614061356,0.7603024840354919,6.689003930659965e-05,-0.16076606512069702
324.0,346.0,3.9464,0.3129,8.8403,-0.0289,0.0451,-0.1174,-1.5621337818777938,-0.32380735874176025,1.6235072612762451,-1.616653561592102,0.33239397406578064,2.6317451000213623,4.254737063045166,-0.0003484921180643141,0.27541524171829224,-1.6073897520648401,0.00012808098108507693,0.057034682482481,0.8364989757537842,-0.0,0.003006314393132925,0.7603065371513367,8.300515037262812e-05,-0.1734718233346939
324.0,346.0,3.9464,0.3129,8.8403,-0.0289,0.0451,-0.1174,-1.5635047660074015,-0.32441526651382446,1.6121172904968262,-1.6153374910354614,0.3349468410015106,2.6407618522644043,4.254764719600342,-9.667272388469428e-05,0.2862550616264343,-1.6073210875140589,0.00012118189624743536,0.06385216861963272,0.8365153074264526,-0.0,-0.004213651176542044,0.7603065967559814,9.910273365676403e-05,-0.1760021150112152
324.0,346.0,3.9464,0.3129,8.8403,-0.0289,0.0451,-0.1174,-1.5654829123853524,-0.3296738564968109,1.6535980701446533,-1.6133179664611816,0.3366801142692566,2.63073992729187,4.254756613368652,-8.249000529758632e-05,0.27797603607177734,-1.6073620955096644,0.00011212313984287903,0.07503657042980194,0.8365312814712524,-0.0,-0.010281136259436607,0.7603347897529602,0.00017510425823275,-0.1634499430656433
324.0,346.0,3.9464,0.3129,8.8403,-0.0289,0.0451,-0.1174,-1.5668178985691448,-0.33923760056495667,1.5634560585021973,-1.6120336055755615,0.3390345871448517,2.6577272415161133,4.254705591792725,-7.556250784546137e-05,0.28894510865211487,-1.6073535124408167,0.00010680068226065487,0.06726086884737015,0.8365190029144287,-0.0,-0.007273517083376646,0.7603508830070496,0.00019491637067403644,-0.1683928370475769
324.0,346.0,3.9464,0.3129,8.8403,-0.0289,0.0451,-0.1174,-1.568855782305338,-0.3430664837360382,1.652055263519287,-1.6100666522979736,0.33985888957977295,2.627110242843628,4.2547289568134765,-0.0001545079576317221,0.27299365401268005,-1.6073458830462855,0.00011955306399613619,0.07376927137374878,0.8365353941917419,-0.0,-0.004159634001553059,0.7603710293769836,0.0002052320196526125,-0.1696450412273407
324.0,346.0,3.9464,0.3129,8.8403,-0.0289,0.0451,-0.1174,-1.5708896122374476,-0.3454722762107849,1.5986394882202148,-1.608022689819336,0.33373787999153137,2.6141321659088135,4.2547570902058105,-0.00020821622456423938,0.27311572432518005,-1.6073616186725062,0.00011218495637876913,0.07305780053138733,0.8365553617477417,-0.0,0.006430773995816708,0.7603186368942261,0.0001869616098701954,-0.16034194827079773
324.0,346.0,3.9464,0.3129,8.8403,-0.0289,0.0451,-0.1174,-1.57228483776235,-0.35251787304878235,1.6491591930389404,-1.6067196130752563,0.33483970165252686,2.5753517150878906,4.254753275508545,-0.00018045181059278548,0.27160361409187317,-1.6073501745807093,0.00010770952212624252,0.06853356212377548,0.8364709615707397,-0.0,-0.0007439700420945883,0.7603104114532471,0.00017648664652369916,-0.16010719537734985
324.0,346.0,3.9464,0.3129,8.8403,-0.0289,0.0451,-0.1174,-1.5743786297240199,-0.35950911045074463,1.6445765495300293,-1.604731798171997,0.338730126619339,2.6187779903411865,4.254721327418945,-0.00019364805484656245,0.2693667411804199,-1.607337776814596,0.00010162808030145243,0.06771060824394226,0.8364948034286499,-0.0,0.003132599638774991,0.7603065967559814,0.00016280381532851607,-0.1654810905456543
295.0,295.0,2.6447,0.0861,8.1392,-0.0425,0.0623,-0.1095,-1.575789590875143,-0.35723617672920227,1.6394909620285034,-1.6033765077590942,0.3337317705154419,2.6200766563415527,4.254744692439697,-0.00022513621661346406,0.26918238401412964,-1.6073978582965296,9.794157813303173e-05,0.06321663409471512,0.8365148901939392,-0.0,0.002540112007409334,0.7603268623352051,0.00015480296860914677,-0.17272648215293884
295.0,295.0,2.6447,0.0861,8.1392,-0.0425,0.0623,-0.1095,-1.5779038868346156,-0.3625032305717468,1.6407082080841064,-1.6013836860656738,0.3331965506076813,2.558027505874634,4.254725142116211,-0.0002922515559475869,0.2790457606315613,-1.6073291937457483,0.0001083639363059774,0.071039117872715,0.836539089679718,-0.0,-0.0028540596831589937,0.7603632807731628,0.0001441752101527527,-0.19087004661560059
295.0,295.0,2.6447,0.0861,8.1392,-0.0425,0.0623,-0.1095,-1.579294343987936,-0.3609361946582794,1.6295628547668457,-1.6000968217849731,0.33845946192741394,2.5927062034606934,4.254708929652832,-0.0002081230777548626,0.25805744528770447,-1.6073821226703089,0.00010476427269168198,0.0628129094839096,0.8364788293838501,-0.0,-0.004805350676178932,0.7603591680526733,0.00013786516501568258,-0.1368938386440277
295.0,295.0,2.6447,0.0861,8.1392,-0.0425,0.0623,-0.1095,-1.581461092034811,-0.3651888370513916,1.6276477575302124,-1.5981289148330688,0.33442234992980957,2.58982515335083,4.254736586208008,-0.0002096852258546278,0.27354729175567627,-1.6073415915118616,9.978616435546428e-05,0.06825169920921326,0.8364906907081604,-0.0,-0.009686022996902466,0.7603065371513367,0.00012937176506966352,-0.1987503468990326
295.0,295.0,2.6447,0.0861,8.1392,-0.0425,0.0623,-0.1095,-1.5836826763548792,-0.37122613191604614,1.6549896001815796,-1.5961122512817383,0.32792961597442627,2.6038942337036133,4.254697008723877,-0.0002457266382407397,0.2670273184776306,-1.6073578039752405,0.00010875028237933293,0.07295426726341248,0.8364907503128052,-0.0,0.01340318564325571,0.7603024244308472,0.00012186433013994247,-0.21944080293178558
295.0,295.0,2.6447,0.0861,8.1392,-0.0425,0.0623,-0.1095,-1.5851365528502406,-0.373637318611145,1.6598575115203857,-1.5947151184082031,0.3291601836681366,2.5620298385620117,4.2547008234211425,-0.00020801501523237675,0.2619357705116272,-1.6073535124408167,0.00010567206481937319,0.06963856518268585,0.8365472555160522,-0.0,-0.021061360836029053,0.7603391408920288,0.0001173252530861646,-0.19117271900177002
295.0,295.0,2.6447,0.0861,8.1392,-0.0425,0.0623,-0.1095,-1.5874401531615199,-0.3832644820213318,1.6149969100952148,-1.5927586555480957,0.32721298933029175,2.5594077110290527,4.254761381740234,-0.0001689429918769747,0.2698161005973816,-1.6073291937457483,0.00010121599916601554,0.06943316757678986,0.8364787697792053,-0.0,0.003998744301497936,0.7603471279144287,0.00011111742060165852,-0.13813245296478271
295.0,295.0,2.6447,0.0861,8.1392,-0.0425,0.0623,-0.1095,-1.5889703236021937,-0.3819076716899872,1.680100440979004,-1.5913852453231812,0.3255236744880676,2.564133644104004,4.25468556463208,-0.0001501446677139029,0.2716636061668396,-1.6073897520648401,0.00010260549606755376,0.06352120637893677,0.8365030288696289,-0.0,-0.009350350126624107,0.7603309750556946,5.2108072850387543e-05,-0.20982623100280762
295.0,295.0,2.6447,0.0861,8.1392,-0.0425,0.0623,-0.1095,-1.5913416347899378,-0.3821967840194702,1.6732996702194214,-1.5893683433532715,0.33156701922416687,2.5890743732452393,4.254748507136963,-0.00011096100934082642,0.2604745626449585,-1.6073740164386194,9.989092359319329e-05,0.06571805477142334,0.8365234732627869,-0.0,0.012309417128562927,0.7603350877761841,2.3977572709554806e-05,-0.2388872504234314
295.0,295.0,2.6447,0.0861,8.1392,-0.0425,0.0623,-0.1095,-1.5929604969420375,-0.38892504572868347,1.6408555507659912,-1.588050365447998,0.335111141204834,2.578864574432373,4.254737063045166,-4.96219472552184e-05,0.2801794409751892,-1.6073415915118616,9.564561332808807e-05,0.0726035088300705,0.8365229964256287,-0.0,0.006766735576093197,0.7603389024734497,2.247070733574219e-05,-0.18888702988624573
295.0,295.0,2.6447,0.0861,8.1392,-0.0425,0.0623,-0.1095,-1.5953337154784144,-0.38357317447662354,1.7529873847961426,-1.586058259010315,0.33285605907440186,2.552229881286621,4.25474135457959,-8.470322791254148e-05,0.26459676027297974,-1.6073501745807093,0.0001078741843230091,0.07189176231622696,0.8364424109458923,-0.0,-0.011409047991037369,0.7603793144226074,2.8713475330732763e-07,-0.19891716539859772
295.0,295.0,2.6447,0.0861,8.1392,-0.0425,0.0623,-0.1095,-1.5977393589415492,-0.39537617564201355,1.6777154207229614,-1.5840622186660767,0.3323429226875305,2.638453960418701,4.254745169276855,-7.430104597005993e-05,0.2628626525402069,-1.607321564351217,0.00010179311357205734,0.06946710497140884,0.8365877270698547,-0.0,-0.0006924811750650406,0.7603309750556946,6.933966747134368e-13,-0.1884232759475708
295.0,295.0,2.6447,0.0861,8.1392,-0.0425,0.0623,-0.1095,-1.5993792019286097,-0.4023766815662384,1.6854462623596191,-1.5827566385269165,0.3321719765663147,2.561162233352661,4.254784746760986,-6.86338753439486e-05,0.27428120374679565,-1.607353989277975,9.809482435230166e-05,0.06802397221326828,0.8364906907081604,-0.0,-0.0016317167319357395,0.7603427767753601,1.2480895481916147e-16,-0.16835111379623413
295.0,295.0,2.6447,0.0861,8.1392,-0.0425,0.0623,-0.1095,-1.6017762623228968,-0.403677374124527,1.7483090162277222,-1.5807514190673828,0.3346554636955261,2.6130406856536865,4.25470940648999,-3.1070107070263475e-05,0.2859828472137451,-1.60736591020693,9.302511170972139e-05,0.057969316840171814,0.8364707231521606,-0.0,-0.010351237840950489,0.7603065967559814,3.013989879634119e-22,-0.20736846327781677
295.0,295.0,2.6447,0.0861,8.1392,-0.0425,0.0623,-0.1095,-1.6033550701537074,-0.4111083149909973,1.7259150743484497,-1.5794938802719116,0.3368205428123474,2.5944106578826904,4.254745169276855,-5.7386459957342595e-05,0.2743149995803833,-1.6073091665851038,8.99267106433399e-05,0.0868491679430008,0.8364670276641846,-0.0,-0.0014093514764681458,0.7602943181991577,5.425074714997838e-26,-0.18205426633358002
295.0,295.0,2.6447,0.0861,8.1392,-0.0425,0.0623,-0.1095,-1.605849405328268,-0.4157857298851013,1.74716317653656,-1.5774974822998047,0.3318854868412018,2.5991954803466797,4.254736586208008,-7.887673564255238e-05,0.27799609303474426,-1.6073702017413538,8.564782910980284e-05,0.061361659318208694,0.8364989757537842,-0.0,-0.014318295754492283,0.7603148221969604,1.3100917453756217e-31,-0.17741212248802185
