ramyac6/ROB537/final_project/csv/bad/bad_17.csv
tof_0,tof_1,accelx,accely,accelz,gyrox,gyroy,gyroz,shoulder_lift_joint_position,shoulder_lift_joint_velocity,shoulder_lift_joint_effort,elbow_joint_position,elbow_joint_velocity,elbow_joint_effort,wrist_1_joint_position,wrist_1_joint_velocity,wrist_1_joint_effort,wrist_2_joint_position,wrist_2_joint_velocity,wrist_2_joint_effort,wrist_3_joint_position,wrist_3_joint_velocity,wrist_3_joint_effort,shoulder_pan_joint_position,shoulder_pan_joint_velocity,shoulder_pan_joint_effort
754.0,435.0,-5.4197,-3.8847,7.3161,-0.0392,0.0354,-0.1168,-2.2212144337096156,0.0,4.16563606262207,-1.691993236541748,-0.0,1.5415775775909424,-0.29414506376300054,0.0,0.19266913831233978,-1.182284180318014,0.0,-0.044600412249565125,0.5558987259864807,0.0,-0.008701376616954803,1.2409111261367798,-0.0010072451550513506,0.006318260449916124
754.0,435.0,-5.4197,-3.8847,7.3161,-0.0392,0.0354,-0.1168,-2.2212468586363734,0.0,4.197901725769043,-1.6919766664505005,-0.0,1.591951847076416,-0.29421670854602056,0.0,0.1973201334476471,-1.1823042074786585,0.0,-0.038254573941230774,0.5559471249580383,0.0,0.004457693547010422,1.240923285484314,-0.0013061942299827933,0.019808508455753326
754.0,435.0,-5.4197,-3.8847,7.3161,-0.0392,0.0354,-0.1168,-2.2211982212462367,0.0,4.197519779205322,-1.6919724941253662,-0.0,1.5919456481933594,-0.29421718538317876,0.0,0.1793229579925537,-1.1822999159442347,0.0,-0.037142347544431686,0.5558987259864807,0.0,0.004307757131755352,1.240951657295227,-0.0012961429310962558,-0.04211023449897766
754.0,435.0,-5.4197,-3.8847,7.3161,-0.0392,0.0354,-0.1168,-2.2211858234801234,0.0,4.104012489318848,-1.6920009851455688,-0.0,1.5613787174224854,-0.2942090791514893,0.0,0.1902373880147934,-1.182244602833883,0.0,-0.05465162545442581,0.5559388399124146,0.0,-0.0014272901462391019,1.2409274578094482,-0.0010520550422370434,-0.002913278993219137
754.0,435.0,-5.4197,-3.8847,7.3161,-0.0392,0.0354,-0.1168,-2.221251150170797,0.0,4.191887855529785,-1.6919363737106323,-0.0,1.5609526634216309,-0.29421313226733403,0.0,0.17498339712619781,-1.1822765509234827,0.0,-0.05163133144378662,0.555934727191925,0.0,0.011551190167665482,1.240919589996338,-0.0008594986866228282,0.001348031684756279
754.0,435.0,-5.4197,-3.8847,7.3161,-0.0392,0.0354,-0.1168,-2.221165796319479,0.0,4.125131607055664,-1.6919724941253662,-0.0,1.5466946363449097,-0.29418523729357915,0.0,0.19575059413909912,-1.1822760740863245,0.0,-0.04202335327863693,0.5559712052345276,0.0,0.009098516777157784,1.240939736366272,-0.0008829652215354145,0.02211134135723114
777.0,456.0,-5.4317,-3.8471,7.276,-0.0396,0.0399,-0.1132,-2.221182485620016,0.0,4.173047065734863,-1.6918836832046509,-0.0,1.5491524934768677,-0.29417701185260015,0.0,0.18199333548545837,-1.182296101246969,0.0,-0.06524191796779633,0.5558905005455017,0.0,0.01009828969836235,1.2409237623214722,-0.001207073568366468,-0.0037616954650729895
777.0,456.0,-5.4317,-3.8471,7.276,-0.0396,0.0399,-0.1132,-2.221178194085592,0.0,4.141120910644531,-1.691985011100769,-0.0,1.5851383209228516,-0.29424508035693364,0.0,0.19290675222873688,-1.1822364966021937,0.0,-0.05453134700655937,0.5559430122375488,0.0,0.006861337926238775,1.2409032583236694,-0.0013093824964016676,0.00873846746981144
777.0,456.0,-5.4317,-3.8471,7.276,-0.0396,0.0399,-0.1132,-2.2212025127806605,0.0,4.158661842346191,-1.6919684410095215,-0.0,1.5592327117919922,-0.2942050260356446,0.0,0.1897280514240265,-1.1822603384601038,0.0,-0.04712733253836632,0.555918276309967,0.0,-0.0014867580030113459,1.2408472299575806,-0.0019236053340137005,0.01023218221962452
777.0,456.0,-5.4317,-3.8471,7.276,-0.0396,0.0399,-0.1132,-2.221154352227682,0.0,4.206576347351074,-1.6919162273406982,-0.0,1.5399625301361084,-0.29422541082415776,0.0,0.18500833213329315,-1.1822922865497034,0.0,-0.04687710851430893,0.555934727191925,0.0,0.0018400151748210192,1.2408595085144043,-0.00243242341093719,0.03551838919520378
777.0,456.0,-5.4317,-3.8471,7.276,-0.0396,0.0399,-0.1132,-2.221154352227682,0.0,4.193563461303711,-1.6919528245925903,-0.0,1.6086777448654175,-0.2942090791514893,0.0,0.19372954964637756,-1.1823080221759241,0.0,-0.04325917363166809,0.5559510588645935,0.0,0.0058975014835596085,1.240767240524292,-0.0024904534220695496,-0.01502943690866232
777.0,456.0,-5.4317,-3.8471,7.276,-0.0396,0.0399,-0.1132,-2.221138139764303,0.0,4.161381244659424,-1.6919445991516113,-0.0,1.5540480613708496,-0.2942410272410889,0.0,0.1839415729045868,-1.1822722593890589,0.0,-0.036499910056591034,0.5559794306755066,0.0,0.006809576414525509,1.2408075332641602,-0.0024103785399347544,0.011217168532311916
777.0,456.0,-5.4317,-3.8471,7.276,-0.0396,0.0399,-0.1132,-2.2212025127806605,0.0,4.17994499206543,-1.6919363737106323,-0.0,1.5858790874481201,-0.29419298589739995,0.0,0.19023634493350983,-1.1822484175311487,7.553414560490523e-10,-0.05450037121772766,0.5559711456298828,0.0,-0.0007281980942934752,1.2408037185668945,-0.0020508465822786093,0.023369038477540016
777.0,456.0,-5.4317,-3.8471,7.276,-0.0396,0.0399,-0.1132,-2.221158643762106,0.0,4.194393157958984,-1.6918846368789673,-0.0,1.5315206050872803,-0.2942050260356446,0.0,0.20629876852035522,-1.182296101246969,8.963374645645523e-16,-0.043497152626514435,0.5559670925140381,0.0,0.012892143800854683,1.2407673597335815,-0.0023655237164348364,-0.030102185904979706
777.0,456.0,-5.4317,-3.8471,7.276,-0.0396,0.0399,-0.1132,-2.221154352227682,0.0,4.2044525146484375,-1.6919043064117432,-0.0,1.5829546451568604,-0.2942090791514893,0.0,0.18738141655921936,-1.1822722593890589,1.6290490136857925e-20,-0.04379791021347046,0.5559991002082825,0.0,-0.001189633971080184,1.2407636642456055,-0.0017451723106205463,-0.0006787339225411415
777.0,456.0,-5.4317,-3.8471,7.276,-0.0396,0.0399,-0.1132,-2.2212025127806605,0.0,4.178194046020508,-1.6919286251068115,0.00020112047786824405,1.550504207611084,-0.29427369058642583,0.0,0.1875694990158081,-1.1823166052447718,1.9331363120159462e-26,-0.05750664323568344,0.5559666752815247,0.0,0.003134655300527811,1.2407796382904053,-0.001323721488006413,0.009235827252268791
763.0,439.0,-5.3809,-3.865,7.398,-0.0308,0.025,-0.1151,-2.2211462459959925,0.0,4.168648719787598,-1.6918836832046509,0.000201384027604945,1.6042057275772095,-0.2942369741252442,0.0,0.20087984204292297,-1.1822760740863245,3.513380287135987e-31,-0.04451242834329605,0.555986762046814,0.0,0.018214765936136246,1.2407152652740479,-0.0010392531985417008,0.02600230649113655
763.0,439.0,-5.3809,-3.865,7.398,-0.0308,0.025,-0.1151,-2.2211667499937953,0.0,4.140695571899414,-1.6919652223587036,0.0002297298051416874,1.5699100494384766,-0.2942654651454468,0.0,0.20947259664535522,-1.1823204199420374,4.169206417645906e-37,-0.05261417478322983,0.5560633540153503,0.0,0.010095825418829918,1.2407315969467163,-0.0006249105208553374,-0.010464955121278763
763.0,439.0,-5.3809,-3.865,7.398,-0.0308,0.025,-0.1151,-2.221158643762106,0.00011681236355798319,4.202481746673584,-1.6919043064117432,0.00036016033845953643,1.6237400770187378,-0.29426176965747075,0.0,0.19997107982635498,-1.1823042074786585,7.576820796604286e-42,-0.05594087019562721,0.5559909343719482,0.0,0.007677802816033363,1.2407275438308716,-0.0004735839902423322,-0.0024548599030822515
763.0,439.0,-5.3809,-3.865,7.398,-0.0308,0.025,-0.1151,-2.221142431298727,0.00012421085557434708,4.168918609619141,-1.6919372081756592,0.00037639931542798877,1.5915597677230835,-0.2942210000804444,0.0,0.1976681649684906,-1.1822283903705042,0.0,-0.05435040593147278,0.5559909343719482,0.0,0.0243074893951416,1.2407197952270508,-0.0003570602275431156,-0.011451385915279388
763.0,439.0,-5.3809,-3.865,7.398,-0.0308,0.025,-0.1151,-2.2211061916747035,0.00013267305621411651,4.189425468444824,-1.6918483972549438,0.000493535480927676,1.5876994132995605,-0.29423709333453374,0.0,0.20190566778182983,-1.1822803656207483,0.0,-0.05612185597419739,0.5560473203659058,0.0,0.02691420167684555,1.2407357692718506,-0.00029106694273650646,-0.0019114366732537746
763.0,439.0,-5.3809,-3.865,7.398,-0.0308,0.025,-0.1151,-2.221142431298727,0.0001372101396555081,4.226741790771484,-1.6918927431106567,0.0004516271874308586,1.6592636108398438,-0.29426129282031255,0.0,0.21041318774223328,-1.1822641531573694,0.0,-0.08323389291763306,0.5559785962104797,0.0,0.024093160405755043,1.2407197952270508,-0.0002364438259974122,0.09931075572967529
763.0,439.0,-5.3809,-3.865,7.398,-0.0308,0.025,-0.1151,-2.2211061916747035,0.00012749183224514127,4.255881309509277,-1.6918447017669678,0.00042174337431788445,1.6483702659606934,-0.2942245763591309,-1.191393739219393e-08,0.19646604359149933,-1.1822999159442347,0.0,-0.07054850459098816,0.5560314655303955,0.0,0.0158581230789423,1.2407234907150269,-0.00023494893684983253,0.09103758633136749
763.0,439.0,-5.3809,-3.865,7.398,-0.0308,0.025,-0.1151,-2.221130510369772,0.00018436787649989128,4.3040361404418945,-1.6918039321899414,0.0003985963703598827,1.6844284534454346,-0.2942567628673096,-1.4137858262840575e-14,0.2034737467765808,-1.1823166052447718,0.0,-0.07210022211074829,0.5560067892074585,0.0,0.03332926332950592,1.2407234907150269,-0.00020199170103296638,0.085284523665905
763.0,439.0,-5.3809,-3.865,7.398,-0.0308,0.025,-0.1151,-2.2211348019041957,0.00015840650303289294,4.243154525756836,-1.6918607950210571,0.00033035725937224925,1.6730854511260986,-0.2942732137492676,-2.569485870928131e-19,0.1927686184644699,-1.182296101246969,0.0,-0.0724831148982048,0.5560150146484375,0.0,0.014340436086058617,1.2407276630401611,-0.00012885747128166258,0.08209019899368286
787.0,438.0,-5.3396,-3.7819,7.2323,-0.0269,0.0313,-0.1229,-2.2210904560484828,0.0001616378576727584,4.260773658752441,-1.6918327808380127,0.0003086411743424833,1.7007197141647339,-0.2942933601192017,-3.0491202085212606e-25,0.18648120760917664,-1.1822403112994593,0.0,-0.09504404664039612,0.556059718132019,0.0,0.01610679365694523,1.2407557964324951,-0.0001499952340964228,0.11068031191825867
787.0,438.0,-5.3396,-3.7819,7.2323,-0.0269,0.0313,-0.1229,-2.221130510369772,0.00014435364573728293,4.272075176239014,-1.6918528079986572,0.000334995798766613,1.6677645444869995,-0.294297532444336,-0.00022325119061861187,0.20973432064056396,-1.1822641531573694,0.0,-0.07654614001512527,0.5560351014137268,0.0,0.017848560586571693,1.2407234907150269,-0.0001638388348510489,0.047240354120731354
787.0,438.0,-5.3396,-3.7819,7.2323,-0.0269,0.0313,-0.1229,-2.2211185894408167,0.00014852243475615978,4.2561492919921875,-1.6918967962265015,0.000560562068130821,1.7410211563110352,-0.2943170827678223,-0.0002176300185965374,0.20842713117599487,-1.1823118368731897,0.0,-0.07219435274600983,0.5560072660446167,0.0,0.013448085635900497,1.240703821182251,-0.0003497903817333281,0.13414886593818665
787.0,438.0,-5.3396,-3.7819,7.2323,-0.0269,0.0313,-0.1229,-2.22109379390859,0.00013575211050920188,4.26209020614624,-1.6918487548828125,0.0012141834013164043,1.7286736965179443,-0.29430540025744634,-0.00024884784943424165,0.20010367035865784,-1.1822999159442347,0.0,-0.08596488833427429,0.5560309886932373,0.0,0.024643773213028908,1.240715742111206,-0.0002778639900498092,0.1284756362438202
787.0,438.0,-5.3396,-3.7819,7.2323,-0.0269,0.0313,-0.1229,-2.2211228809752406,0.00012254885223228484,4.23632287979126,-1.6918367147445679,0.003059208393096924,1.7547402381896973,-0.2943170827678223,-0.00035081570968031883,0.19461892545223236,-1.1823356787311,0.0,-0.08091246336698532,0.5560269355773926,0.0,0.03175801411271095,1.2406960725784302,-0.0002210007223766297,0.17763547599315643
787.0,438.0,-5.3396,-3.7819,7.2323,-0.0269,0.0313,-0.1229,-2.221126218835348,0.00011370189895387739,4.295997619628906,-1.6917767524719238,0.007857014425098896,1.7440354824066162,-0.2943170827678223,-0.0003705127164721489,0.16760261356830597,-1.182312313710348,0.0,-0.08684459328651428,0.5560673475265503,0.0,0.027107516303658485,1.2406997680664062,-0.00022156164050102234,0.16556815803050995
787.0,438.0,-5.3396,-3.7819,7.2323,-0.0269,0.0313,-0.1229,-2.2211061916747035,0.00010604633280308917,4.307971000671387,-1.6916680335998535,0.00896812230348587,1.749572515487671,-0.2943735879710694,-0.00053213513456285,0.19268301129341125,-1.182232681904928,0.0,-0.08334894478321075,0.5560674667358398,0.0,0.024556227028369904,1.2407276630401611,-0.0001942368980962783,0.18224093317985535
787.0,438.0,-5.3396,-3.7819,7.2323,-0.0269,0.0313,-0.1229,-2.221114297906393,9.781405242392793e-05,4.322301387786865,-1.6915966272354126,0.006841412279754877,1.770395040512085,-0.29432566583666997,-0.0007638646056875587,0.1713159680366516,-1.1823127905475062,0.0,-0.09849721193313599,0.556043267250061,0.0,0.017943434417247772,1.240715742111206,-6.821560964453965e-05,0.2119186818599701
787.0,438.0,-5.3396,-3.7819,7.2323,-0.0269,0.0313,-0.1229,-2.2211019001402796,0.00010371560347266495,4.292154312133789,-1.6915322542190552,0.0059873126447200775,1.7609931230545044,-0.29436953485522466,-0.0008047323208302259,0.16735321283340454,-1.1822565237628382,0.0,-0.09101994335651398,0.5560351014137268,0.0,0.030256420373916626,1.2407116889953613,-5.9233989304630086e-05,0.15129756927490234
787.0,438.0,-5.3396,-3.7819,7.2323,-0.0269,0.0313,-0.1229,-2.221126695672506,8.496251393808052e-05,4.29801607131958,-1.6914525032043457,0.007645861711353064,1.7770706415176392,-0.2944052976420899,-0.0006054677069187164,0.1630200445652008,-1.1822722593890589,0.0,-0.09089735150337219,0.5559622645378113,0.0,0.03714773431420326,1.2407234907150269,-2.5434012059122324e-05,0.16188156604766846
762.0,437.0,-5.4419,-3.9745,7.4291,-0.048,0.0308,-0.1136,-2.221098562280172,7.899081538198516e-05,4.317732810974121,-1.6913436651229858,0.009874405339360237,1.8017277717590332,-0.29438550890002446,-0.0009778683306649327,0.16015934944152832,-1.1823204199420374,0.0,-0.09109693765640259,0.555986762046814,0.0,0.02463391050696373,1.2407599687576294,-2.284959191456437e-05,0.20658904314041138
762.0,437.0,-5.4419,-3.9745,7.4291,-0.048,0.0308,-0.1136,-2.221086164514059,7.261740393005311e-05,4.3719377517700195,-1.691312551498413,0.012634065933525562,1.832688570022583,-0.29439671457324224,-0.0038486465346068144,0.16540727019309998,-1.1823042074786585,0.0,-0.0998012125492096,0.5560392737388611,0.0,0.010345980525016785,1.2407480478286743,-7.219670824717972e-13,0.24277454614639282
762.0,437.0,-5.4419,-3.9745,7.4291,-0.048,0.0308,-0.1136,-2.2211667499937953,6.821433635195717e-05,4.385790824890137,-1.6911686658859253,0.015022678300738335,1.8521443605422974,-0.29448922098193364,-0.020034244284033775,0.14216063916683197,-1.1822999159442347,0.0,-0.09252767264842987,0.5560227632522583,0.0,0.014192099682986736,1.240752100944519,-2.339081949131845e-20,0.2158786505460739
762.0,437.0,-5.4419,-3.9745,7.4291,-0.048,0.0308,-0.1136,-2.221098085443014,6.340848631225526e-05,4.382113933563232,-1.691024661064148,0.018897486850619316,1.869941234588623,-0.2947346729091187,-0.014489015564322472,0.14362673461437225,-1.1822760740863245,0.0,-0.09365680813789368,0.5560715794563293,0.0,0.025376901030540466,1.2406878471374512,-1.0167293378454258e-29,0.21327193081378937
762.0,437.0,-5.4419,-3.9745,7.4291,-0.048,0.0308,-0.1136,-2.2211181126036585,6.002527879900299e-05,4.346316814422607,-1.690820574760437,0.022713778540492058,1.894546627998352,-0.29478128374133306,-0.0038969297893345356,0.1516464203596115,-1.1822722593890589,0.0,-0.08435673266649246,0.5560190677642822,0.0,0.01459481567144394,1.240703821182251,-3.294074002730646e-37,0.20573830604553223
762.0,437.0,-5.4419,-3.9745,7.4291,-0.048,0.0308,-0.1136,-2.2211386166014613,5.627230348181911e-05,4.345203876495361,-1.690576195716858,0.02907734550535679,1.9239232540130615,-0.2947973769954224,-0.0010759922442957759,0.17706423997879028,-1.1822760740863245,0.0,-0.10243208706378937,0.5560269355773926,0.0,0.01819775253534317,1.2407357692718506,-0.0,0.2614435851573944
762.0,437.0,-5.4419,-3.9745,7.4291,-0.048,0.0308,-0.1136,-2.221081872979635,5.359169517760165e-05,4.353348255157471,-1.690324306488037,0.034525781869888306,1.9165959358215332,-0.2947560113719483,-0.0005444847629405558,0.14361076056957245,-1.1822522322284144,0.0,-0.0795803889632225,0.5559784173965454,0.0,0.019559722393751144,1.2407276630401611,0.0,0.26281142234802246
762.0,437.0,-5.4419,-3.9745,7.4291,-0.048,0.0308,-0.1136,-2.2211624584593714,5.057991074863821e-05,4.341992378234863,-1.689948320388794,0.04419013112783432,1.9452946186065674,-0.29482539117846684,-0.0019198361551389098,0.13206663727760315,-1.182284180318014,0.0,-0.10241599380970001,0.5560109615325928,0.0,0.029854051768779755,1.240695595741272,0.0,0.2882446348667145
762.0,437.0,-5.4419,-3.9745,7.4291,-0.048,0.0308,-0.1136,-2.2211019001402796,3.038702178770336e-09,4.418675422668457,-1.6894605159759521,0.05265854299068451,1.9696567058563232,-0.2948407691768189,-0.003573552705347538,0.14903049170970917,-1.182244602833883,0.0,-0.08088453114032745,0.5560592412948608,0.0,0.030667737126350403,1.2407557964324951,0.0,0.3091004490852356
762.0,437.0,-5.4419,-3.9745,7.4291,-0.048,0.0308,-0.1136,-2.221098085443014,1.320833730318549e-18,4.396064281463623,-1.6888597011566162,0.06594699621200562,1.9983503818511963,-0.29492540777239995,-0.006640699692070484,0.13503649830818176,-1.1822803656207483,0.0,-0.09877946227788925,0.555998682975769,0.0,0.036520231515169144,1.2407276630401611,8.404010441154242e-05,0.3282643258571625
790.0,453.0,-5.1817,-4.0062,7.2556,-0.0544,0.0411,-0.1035,-2.221154352227682,4.279334676998796e-26,4.431166172027588,-1.6883485317230225,0.078038789331913,2.045063018798828,-0.2949860853007813,-0.010766725987195969,0.13163664937019348,-1.1823166052447718,0.0,-0.08506089448928833,0.5560228228569031,0.0,0.02654825896024704,1.2407276630401611,0.0002215700806118548,0.284529447555542
790.0,453.0,-5.1817,-4.0062,7.2556,-0.0544,0.0411,-0.1035,-2.2211224041380824,1.8600998500594136e-35,4.415640354156494,-1.687488317489624,0.09327656030654907,2.036238670349121,-0.29511673868212895,-0.01408997643738985,0.14379042387008667,-1.1822641531573694,0.0,-0.090069979429245,0.556002676486969,0.0,0.025822527706623077,1.2407153844833374,0.00017779573681764305,0.36188843846321106
790.0,453.0,-5.1817,-4.0062,7.2556,-0.0544,0.0411,-0.1035,-2.2211624584593714,6.0255833965967134e-43,4.432688236236572,-1.6866157054901123,0.10044367611408234,2.0993552207946777,-0.2952330869487305,-0.016809439286589622,0.11346103250980377,-1.1822879950152796,0.0,-0.0963943749666214,0.5560186505317688,1.4470255216281203e-08,0.03716130927205086,1.2407398223876953,0.00012283059186302125,0.2747833728790283
790.0,453.0,-5.1817,-4.0062,7.2556,-0.0544,0.0411,-0.1035,-2.2211505375304164,0.0,4.4238739013671875,-1.6855722665786743,0.1104140505194664,2.1041269302368164,-0.2954089206508179,-0.019694268703460693,0.13724705576896667,-1.1822803656207483,0.0,-0.08023658394813538,0.5560067296028137,1.717135006233661e-14,0.04116225987672806,1.2407517433166504,4.981841630069539e-05,0.3132619261741638
790.0,453.0,-5.1817,-4.0062,7.2556,-0.0544,0.0411,-0.1035,-2.221159120599264,0.0,4.491900444030762,-1.684631586074829,0.12094539403915405,2.080077648162842,-0.29558594644580083,-0.02015822008252144,0.13429726660251617,-1.182324234639303,0.0,-0.08655190467834473,0.556019127368927,3.1208082115432595e-19,0.04360322654247284,1.2407358884811401,4.078674828633666e-05,0.29170387983322144
790.0,453.0,-5.1817,-4.0062,7.2556,-0.0544,0.0411,-0.1035,-2.2211185894408167,0.0,4.432706832885742,-1.6832830905914307,0.13743846118450165,2.173098564147949,-0.2958105367473145,-0.028416763991117477,0.12271728366613388,-1.182284180318014,0.0,-0.08436314016580582,0.5559744834899902,3.703355590771452e-25,0.037974294275045395,1.2407480478286743,9.583089558873326e-05,0.2931995391845703
790.0,453.0,-5.1817,-4.0062,7.2556,-0.0544,0.0411,-0.1035,-2.221114297906393,0.0,4.43599796295166,-1.6822197437286377,0.1459898054599762,2.1478500366210938,-0.29609497011218266,-0.04301472380757332,0.11755716055631638,-1.1822922865497034,0.0,-0.08166652917861938,0.5560715794563293,6.730665490322444e-30,0.028657402843236923,1.2407557964324951,9.600080375093967e-05,0.27281540632247925
790.0,453.0,-5.1817,-4.0062,7.2556,-0.0544,0.0411,-0.1035,-2.221166273156637,0.0,4.395096302032471,-1.6805741786956787,0.15264354646205902,2.1148509979248047,-0.2966666978648682,-0.07324045151472092,0.1095823347568512,-1.1822684446917933,0.0,-0.07743871957063675,0.5560473203659058,7.987047895230693e-36,0.02801377885043621,1.2407152652740479,7.890981942182407e-05,0.25709474086761475
790.0,453.0,-5.1817,-4.0062,7.2556,-0.0544,0.0411,-0.1035,-2.2211863003172816,0.0,4.418545722961426,-1.6793628931045532,0.16352038085460663,2.130260467529297,-0.2973995965770264,-0.09531790018081665,0.10122100263834,-1.1822522322284144,0.0,-0.08607158064842224,0.5559990406036377,1.451605079194078e-40,0.024889951571822166,1.2407398223876953,3.403604569029994e-05,0.2388206124305725
790.0,453.0,-5.1817,-4.0062,7.2556,-0.0544,0.0411,-0.1035,-2.221138139764303,0.0,4.398105144500732,-1.6775747537612915,0.17466942965984344,2.166942834854126,-0.29841192186389165,-0.09602094441652298,0.11004878580570221,-1.1822999159442347,0.0,-0.07229535281658173,0.5560309886932373,0.0,0.030823662877082825,1.2407398223876953,4.687944601755589e-05,0.29239627718925476
782.0,422.0,-5.9504,-3.9182,7.6881,-0.0489,0.159,-0.0826,-2.2211467228331507,0.0,4.406708240509033,-1.6761428117752075,0.18390795588493347,2.1512060165405273,-0.2992256444743653,-0.08912460505962372,0.09388460218906403,-1.1822403112994593,0.0,-0.08685992658138275,0.5560592412948608,0.0,0.04791891202330589,1.2407029867172241,5.026339567848481e-05,0.24482829868793488
782.0,422.0,-5.9504,-3.9182,7.6881,-0.0489,0.159,-0.0826,-2.2211061916747035,0.0,4.413235187530518,-1.6742627620697021,0.19846203923225403,2.101369619369507,-0.30030138910327153,-0.13994933664798737,0.08341386914253235,-1.182296101246969,0.0,-0.0884372666478157,0.5560269355773926,0.0,0.028049565851688385,1.2407517433166504,6.615810707444325e-05,0.2720474600791931
782.0,422.0,-5.9504,-3.9182,7.6881,-0.0489,0.159,-0.0826,-2.2211348019041957,0.0,4.4428277015686035,-1.672594428062439,0.21443267166614532,2.1759727001190186,-0.30162616193804936,-0.16697828471660614,0.0717022716999054,-1.182232681904928,0.0,-0.09801042824983597,0.5560190677642822,0.0,0.012822325341403484,1.2407480478286743,6.025260518072173e-05,0.2638115882873535
782.0,422.0,-5.9504,-3.9182,7.6881,-0.0489,0.159,-0.0826,-2.221154352227682,0.0,4.4044623374938965,-1.670409917831421,0.2214934080839157,2.1576740741729736,-0.3033749622157593,-0.1831527203321457,0.06525903940200806,-1.182244602833883,0.0,-0.08223484456539154,0.5560269355773926,0.0,0.022950585931539536,1.2407194375991821,-2.802464587148279e-05,0.2537977695465088
782.0,422.0,-5.9504,-3.9182,7.6881,-0.0489,0.159,-0.0826,-2.22121061901235,1.966845797340966e-09,4.409519195556641,-1.6686184406280518,0.235737144947052,2.2085344791412354,-0.3049881023219605,-0.21193400025367737,0.059332408010959625,-1.1822684446917933,0.0,-0.08965468406677246,0.5560109615325928,0.0,0.020372910425066948,1.2406796216964722,-4.984120459994301e-05,0.2686622738838196
782.0,422.0,-5.9504,-3.9182,7.6881,-0.0489,0.159,-0.0826,-2.2212025127806605,6.372329447356588e-17,4.345442771911621,-1.6666414737701416,0.24611791968345642,2.2159314155578613,-0.30658121526751714,-0.21926873922348022,0.0667257085442543,-1.1823118368731897,0.0,-0.08381584286689758,0.5560150146484375,0.0,0.026115717366337776,1.2407398223876953,-8.970640919869766e-05,0.1908690333366394
782.0,422.0,-5.9504,-3.9182,7.6881,-0.0489,0.159,-0.0826,-2.221166273156637,-0.00015798838285263628,4.439545154571533,-1.6641530990600586,0.2562715411186218,2.182161569595337,-0.3090060514262696,-0.24217642843723297,0.05851246789097786,-1.1822922865497034,0.0,-0.09079328179359436,0.555986762046814,0.0,0.03043358586728573,1.2407557964324951,-5.984788731439039e-05,0.20702388882637024
782.0,422.0,-5.9504,-3.9182,7.6881,-0.0489,0.159,-0.0826,-2.221178194085592,-0.00012027593766106293,4.38484001159668,-1.6621506214141846,0.27086806297302246,2.1970744132995605,-0.3108862203410645,-0.26083892583847046,0.05016762390732765,-1.1822522322284144,0.0,-0.0869552493095398,0.5560514330863953,0.0,0.024548206478357315,1.2406672239303589,-7.329782238230109e-05,0.21500124037265778
782.0,422.0,-5.9504,-3.9182,7.6881,-0.0489,0.159,-0.0826,-2.2211252651610316,-0.00013522627705242485,4.401888847351074,-1.6593056917190552,0.2754862308502197,2.1764798164367676,-0.3137226861766358,-0.28950875997543335,0.047455914318561554,-1.1822722593890589,0.0,-0.08456017076969147,0.5560555458068848,0.0,0.03160897269845009,1.2407317161560059,-6.652546289842576e-05,0.21885526180267334
782.0,422.0,-5.9504,-3.9182,7.6881,-0.0489,0.159,-0.0826,-2.2211581669249476,-0.00015020868158899248,4.36184024810791,-1.6570981740951538,0.2841842472553253,2.185054302215576,-0.3162568372539063,-0.31552883982658386,0.027858436107635498,-1.1822641531573694,0.0,-0.08467952162027359,0.5559990406036377,0.0,0.02108614332973957,1.2407480478286743,-6.206242687767372e-05,0.15586252510547638
638.0,375.0,-6.2267,-4.2497,6.4834,-0.0583,0.0582,-0.1043,-2.2211858234801234,-0.0001242799189640209,4.3765411376953125,-1.654173731803894,0.2900243401527405,2.2167460918426514,-0.31953056276354985,-0.33608773350715637,0.01567298173904419,-1.1822760740863245,0.0,-0.07163526117801666,0.5560195446014404,0.0,0.006695619784295559,1.2407517433166504,-0.0001521732920082286,0.13193318247795105
638.0,375.0,-6.2267,-4.2497,6.4834,-0.0583,0.0582,-0.1043,-2.221153875390524,-7.890585402492434e-05,4.370607376098633,-1.6517667770385742,0.29441913962364197,2.19980525970459,-0.3223140996745606,-0.3735423982143402,-0.002316255820915103,-1.1822283903705042,0.00011601437290664762,-0.06985481083393097,0.55605149269104,0.0,0.011159311980009079,1.2407199144363403,-0.00013675770605914295,0.10810258984565735
638.0,375.0,-6.2267,-4.2497,6.4834,-0.0583,0.0582,-0.1043,-2.2212187252440394,-0.00010059897613245994,4.392595291137695,-1.6486988067626953,0.29719266295433044,2.214939832687378,-0.32628388822589116,-0.4029417932033539,-0.016521230340003967,-1.1822565237628382,7.057460607029498e-05,-0.0637669637799263,0.5560150146484375,0.0,0.018318558111786842,1.2407152652740479,-0.0001213867508340627,0.08125142008066177
638.0,375.0,-6.2267,-4.2497,6.4834,-0.0583,0.0582,-0.1043,-2.2211739025511683,-7.404977804981172e-05,4.364368915557861,-1.6462799310684204,0.3044930398464203,2.1739180088043213,-0.32966776311907964,-0.42861780524253845,-0.03198724985122681,-1.1822641531573694,5.737615720136091e-05,-0.07424841821193695,0.5560715794563293,0.0,0.007177508436143398,1.2407398223876953,-0.00011137266119476408,0.0939478725194931
638.0,375.0,-6.2267,-4.2497,6.4834,-0.0583,0.0582,-0.1043,-2.221178194085592,-1.5354718885252083e-10,4.342513084411621,-1.6432409286499023,0.30872464179992676,2.1971511840820312,-0.3340570491603394,-0.4552631974220276,-0.022265378385782242,-1.182296101246969,8.273237472167239e-05,-0.08077119290828705,0.5560154318809509,0.0,0.020749472081661224,1.2407517433166504,-0.00013458810281008482,0.1074424684047699
638.0,375.0,-6.2267,-4.2497,6.4834,-0.0583,0.0582,-0.1043,-2.2211700878539027,-4.974733687065363e-18,4.364455699920654,-1.6407577991485596,0.31508222222328186,2.2093863487243652,-0.3378700774959107,-0.47876933217048645,-0.03762715309858322,-1.1822603384601038,6.98818257660605e-05,-0.06698116660118103,0.5560274124145508,0.0,0.013619817793369293,1.2407112121582031,-0.00016471772687509656,0.0893835499882698
638.0,375.0,-6.2267,-4.2497,6.4834,-0.0583,0.0582,-0.1043,-2.221190115014547,-2.1623682747538904e-27,4.337613105773926,-1.6376014947891235,0.31197860836982727,2.2206482887268066,-0.3426841062358399,-0.5050258636474609,-0.04655974358320236,-1.1822240988360804,7.286849722731858e-05,-0.0674571618437767,0.555942952632904,0.0,0.014756355434656143,1.2406914234161377,-0.00022542702208738774,0.038745149970054626
638.0,375.0,-6.2267,-4.2497,6.4834,-0.0583,0.0582,-0.1043,-2.22123446087026,-7.00579882013513e-35,4.339468479156494,-1.6351014375686646,0.31623250246047974,2.115368366241455,-0.34684069574389653,-0.5194455981254578,-0.051756225526332855,-1.1822522322284144,7.767784700263292e-05,-0.06632386893033981,0.5560031533241272,0.0,0.007068725768476725,1.240667462348938,-0.0006994399009272456,0.07563027739524841
638.0,375.0,-6.2267,-4.2497,6.4834,-0.0583,0.0582,-0.1043,-2.221238752404684,-0.0002529900230001658,4.369234085083008,-1.6320029497146606,0.3137854337692261,2.14058780670166,-0.35196395338092046,-0.5242758393287659,-0.037068575620651245,-1.182244602833883,9.034536924446002e-05,-0.06870104372501373,0.5560153722763062,0.0,0.003208086360245943,1.2406394481658936,-0.0007983848336152732,0.021292781457304955
638.0,375.0,-6.2267,-4.2497,6.4834,-0.0583,0.0582,-0.1043,-2.2211858234801234,-0.00016523213707841933,4.346552848815918,-1.62955904006958,0.3181908428668976,2.1664862632751465,-0.35614974916491704,-0.5362390875816345,-0.01768380030989647,-1.182204548512594,8.226805948652327e-05,-0.053163476288318634,0.5559909343719482,0.0,0.012838735245168209,1.240732192993164,-0.0017471234314143658,-0.0161889735609293
570.0,378.0,-5.9031,-3.9805,7.4608,0.0057,-0.1373,-0.1975,-2.2212187252440394,-0.0001451838033972308,4.352610111236572,-1.6263318061828613,0.3133019208908081,2.078768014907837,-0.3614918750575562,-0.5208803415298462,-0.009384793229401112,-1.1822522322284144,0.00010354488767916337,-0.061312608420848846,0.555994987487793,0.0,0.007071701809763908,1.240663766860962,-0.002022449392825365,-0.018121257424354553
570.0,378.0,-5.9031,-3.9805,7.4608,0.0057,-0.1373,-0.1975,-2.221222539941305,-0.00010997398203471676,4.341063499450684,-1.623840093612671,0.3093099296092987,2.0998806953430176,-0.36568088949237065,-0.5160911083221436,-0.016498610377311707,-1.182232681904928,9.487508214078844e-05,-0.0586477592587471,0.5559790134429932,0.0,0.0020721182227134705,1.240647792816162,-0.002296287566423416,-0.025894640013575554
570.0,378.0,-5.9031,-3.9805,7.4608,0.0057,-0.1373,-0.1975,-2.221144815484518,-0.00012635570601560175,4.323448657989502,-1.620749592781067,0.3039190471172333,2.1433887481689453,-0.3707176011851807,-0.4990246593952179,-0.020015865564346313,-1.1822522322284144,0.00010295392712578177,-0.05851942300796509,0.5560030937194824,0.0,-0.001505641033872962,1.2405998706817627,-0.0035388371907174587,-0.008295529522001743
570.0,378.0,-5.9031,-3.9805,7.4608,0.0057,-0.1373,-0.1975,-2.2212230167784632,-0.00010643184941727668,4.306095600128174,-1.618325114250183,0.2985379695892334,2.0868232250213623,-0.37459321439776616,-0.47559696435928345,0.00317576015368104,-1.182220760975973,9.56920484895818e-05,-0.06595871597528458,0.5559346079826355,0.0,-0.0034046617802232504,1.2405681610107422,-0.0039976066909730434,-0.0353495329618454
570.0,378.0,-5.9031,-3.9805,7.4608,0.0057,-0.1373,-0.1975,-2.221194406548971,-0.00011854359036078677,4.314198970794678,-1.6153544187545776,0.2926639914512634,2.0836520195007324,-0.3791427177241822,-0.44359785318374634,0.019778119400143623,-1.1822603384601038,0.00010255182860419154,-0.06077716127038002,0.5560634136199951,0.0,0.013741419650614262,1.2405920028686523,-0.0035705952905118465,-0.08843900263309479
570.0,378.0,-5.9031,-3.9805,7.4608,0.0057,-0.1373,-0.1975,-2.221177717248434,-0.00010474670853000134,4.281581401824951,-1.6130789518356323,0.28654608130455017,2.0316410064697266,-0.382476882343628,-0.41180697083473206,0.04452211409807205,-1.182232681904928,0.00010992020543199033,-0.04931765794754028,0.5559306144714355,0.0,0.012418232858181,1.2405686378479004,-0.0031233285553753376,-0.0010906290262937546
570.0,378.0,-5.9031,-3.9805,7.4608,0.0057,-0.1373,-0.1975,-2.2212425671019496,-0.00014173534873407334,4.315131187438965,-1.6102426052093506,0.2861642837524414,2.107461452484131,-0.38640137136492925,-0.38065850734710693,0.0375075489282608,-1.182192627583639,0.00010222758282907307,-0.05673284828662872,0.5559991002082825,0.0,-0.0034957057796418667,1.2405283451080322,-0.0026145896408706903,-0.08752704411745071
570.0,378.0,-5.9031,-3.9805,7.4608,0.0057,-0.1373,-0.1975,-2.2211982212462367,-0.00017697086150292307,4.342447280883789,-1.6081000566482544,0.27835988998413086,2.066694736480713,-0.38926561296496587,-0.3442752957344055,0.057665206491947174,-1.1822283903705042,0.00013575900811702013,-0.05906827375292778,0.5560030937194824,0.0,0.014106112532317638,1.240496039390564,-0.0021302485838532448,-0.06414402276277542
570.0,378.0,-5.9031,-3.9805,7.4608,0.0057,-0.1373,-0.1975,-2.221290727654928,-0.000534797552973032,4.333600044250488,-1.6053122282028198,0.27686041593551636,2.084641695022583,-0.3925144237330933,-0.2956039011478424,0.08471795171499252,-1.182192627583639,0.0001416016457369551,-0.0703546553850174,0.5559106469154358,0.0,0.004445905797183514,1.2405084371566772,-0.0022340959403663874,-0.08848941326141357
570.0,378.0,-5.9031,-3.9805,7.4608,0.0057,-0.1373,-0.1975,-2.2212702236571253,-0.0011908739106729627,4.359947204589844,-1.6031084060668945,0.26905691623687744,2.037017345428467,-0.39466925085101323,-0.2673512399196625,0.09249898791313171,-1.182232681904928,0.00014949426986277103,-0.06209658831357956,0.555934727191925,0.0,-0.009725495241582394,1.2404121160507202,-0.002486596815288067,-0.09513802826404572
657.0,331.0,-4.2437,-3.5306,7.4524,-0.0148,-0.0725,-0.1747,-2.221274515191549,-0.0010470272973179817,4.309263229370117,-1.6005297899246216,0.2687946856021881,2.0849499702453613,-0.3971429628184815,-0.23058560490608215,0.11634330451488495,-1.1822007338153284,0.00015266655827872455,-0.051226258277893066,0.5559511184692383,0.0,7.523549720644951e-05,1.2404040098190308,-0.002262840745970607,-0.11766700446605682
657.0,331.0,-4.2437,-3.5306,7.4524,-0.0148,-0.0725,-0.1747,-2.2213107548155726,-0.0005256375879980624,4.350184440612793,-1.5984421968460083,0.26291796565055847,2.06890869140625,-0.3987932962230225,-0.17509983479976654,0.13532660901546478,-1.182192627583639,0.00014084012946113944,-0.05577030032873154,0.5559430122375488,0.0,0.007808102294802666,1.2403883934020996,-0.0023215359542518854,-0.048036932945251465
657.0,331.0,-4.2437,-3.5306,7.4524,-0.0148,-0.0725,-0.1747,-2.2213145695128382,-0.0012304149568080902,4.283360004425049,-1.5958619117736816,0.2534213960170746,2.057392120361328,-0.40011949956927495,-0.11588088423013687,0.16771230101585388,-1.1821802298175257,0.00017792628204915673,-0.06047141179442406,0.5559470057487488,0.0,0.0013949151616543531,1.2404043674468994,-0.0014365802053362131,-0.027182769030332565
657.0,331.0,-4.2437,-3.5306,7.4524,-0.0148,-0.0725,-0.1747,-2.2213269672789515,-0.0009050967637449503,4.3341498374938965,-1.593845248222351,0.24940837919712067,1.9925227165222168,-0.4009038966945191,-0.0736495777964592,0.17932185530662537,-1.1821802298175257,0.0001843141217250377,-0.07766280323266983,0.5559589266777039,0.0,0.009975755587220192,1.2404162883758545,-0.0011305115185678005,-0.07899880409240723
657.0,331.0,-4.2437,-3.5306,7.4524,-0.0148,-0.0725,-0.1747,-2.221346517602438,-0.0006318436353467405,4.354167461395264,-1.591896653175354,0.23626887798309326,1.9919922351837158,-0.40125925958666997,-0.019652212038636208,0.19838279485702515,-1.182192627583639,0.00016219895042013377,-0.05824115872383118,0.5559794306755066,0.0,0.005853489972651005,1.2403966188430786,-0.0013603903353214264,-0.07740496098995209
657.0,331.0,-4.2437,-3.5306,7.4524,-0.0148,-0.0725,-0.1747,-2.221278329888815,-0.0003599576884880662,4.326848983764648,-1.589424967765808,0.2335166186094284,2.038126230239868,-0.40116293848071294,0.020716845989227295,0.2420225441455841,-1.1821964422809046,0.00016294590022880584,-0.0552961602807045,0.555994987487793,0.0,0.014505885541439056,1.2404203414916992,-0.0008097704267129302,-0.1032082661986351
657.0,331.0,-4.2437,-3.5306,7.4524,-0.0148,-0.0725,-0.1747,-2.221302648583883,-0.00027268726262263954,4.360586643218994,-1.5876362323760986,0.22432202100753784,1.9861114025115967,-0.4010470670512696,0.015714341774582863,0.23248904943466187,-1.1822088400470179,0.00014896068023517728,-0.0664878562092781,0.5560031533241272,0.0,-0.004557736683636904,1.240360140800476,-0.0005288954707793891,-0.07896848022937775
657.0,331.0,-4.2437,-3.5306,7.4524,-0.0148,-0.0725,-0.1747,-2.2212702236571253,-0.00020927315927110612,4.35593843460083,-1.5854129791259766,0.21456678211688995,1.9631354808807373,-0.40104301393542485,0.0015526481438428164,0.2217513620853424,-1.1821802298175257,0.00013321141886990517,-0.05890960991382599,0.5560073256492615,0.0,0.01760431006550789,1.240424394607544,-0.00041417009197175503,-0.1274881362915039
657.0,331.0,-4.2437,-3.5306,7.4524,-0.0148,-0.0725,-0.1747,-2.2213145695128382,-0.00017644817125983536,4.309385776519775,-1.5837148427963257,0.21118596196174622,2.008044958114624,-0.40102656305346684,-0.0005286826053634286,0.22584012150764465,-1.1821520964251917,0.00012282298121135682,-0.056354232132434845,0.5559589266777039,0.0,-0.00014288118109107018,1.2403805255889893,-0.00037410823279060423,-0.13593527674674988
657.0,331.0,-4.2437,-3.5306,7.4524,-0.0148,-0.0725,-0.1747,-2.2213384113707484,-0.0001770293602021411,4.361876964569092,-1.5816874504089355,0.20370203256607056,2.0203990936279297,-0.40099413812670903,-0.000266772840404883,0.20427227020263672,-1.1821883360492151,0.00012789876200258732,-0.052601952105760574,0.5559347867965698,0.0,0.005170835182070732,1.2403559684753418,-0.0002578136627562344,-0.06387177109718323
614.0,313.0,-5.9952,-4.1533,7.6211,-0.075,0.2888,-0.0165,-2.2213341198363246,-0.00017364729137625545,4.288045883178711,-1.5800940990447998,0.20044440031051636,1.988734245300293,-0.4010184568217774,-0.00025038831518031657,0.20403626561164856,-1.1821921507464808,0.00011941582488361746,-0.04741298779845238,0.5559470057487488,0.0,0.006519901566207409,1.2404125928878784,-0.00029304876807145774,-0.08116216957569122
614.0,313.0,-5.9952,-4.1533,7.6211,-0.075,0.2888,-0.0165,-2.221346517602438,-0.0011793915182352066,4.301584720611572,-1.5781022310256958,0.19539818167686462,2.017073154449463,-0.4010384839824219,-0.0002985837054438889,0.20488619804382324,-1.1821892897235315,0.00011927763262065127,-0.04895912855863571,0.5560433268547058,0.0,0.009424516931176186,1.2403846979141235,-0.00045401949319057167,-0.12908890843391418
614.0,313.0,-5.9952,-4.1533,7.6211,-0.075,0.2888,-0.0165,-2.2213221989073695,-0.001736349891871214,4.323606491088867,-1.5765844583511353,0.18376004695892334,1.9374266862869263,-0.40101011217150884,-0.0003397215041331947,0.20333124697208405,-1.1821602026568812,0.0001428494870197028,-0.04539937525987625,0.5559106469154358,0.0,-0.0035799883771687746,1.2403404712677002,-0.0016154255717992783,-0.11562485247850418
614.0,313.0,-5.9952,-4.1533,7.6211,-0.075,0.2888,-0.0165,-2.2213665447630824,-0.0008572974475100636,4.294989585876465,-1.5747997760772705,0.18287000060081482,1.9647445678710938,-0.40102608621630864,-0.0008716867887414992,0.2017839550971985,-1.1821406523333948,0.0004084817774128169,-0.04335615783929825,0.5559266209602356,0.0,0.009611675515770912,1.2403485774993896,-0.002580502303317189,-0.15275505185127258
614.0,313.0,-5.9952,-4.1533,7.6211,-0.075,0.2888,-0.0165,-2.221358438531393,-0.0007593954796902835,4.338388442993164,-1.573293924331665,0.1781509816646576,1.9814069271087646,-0.40107043207202153,-0.0009537024889141321,0.1953532099723816,-1.1821602026568812,0.0004202287527732551,-0.03493201732635498,0.5559266209602356,0.0,0.007479936350136995,1.240384817123413,-0.00323488749563694,-0.18653471767902374
614.0,313.0,-5.9952,-4.1533,7.6211,-0.075,0.2888,-0.0165,-2.2213503322997035,-0.0017828014679253101,4.300899982452393,-1.5715774297714233,0.16750384867191315,1.9700181484222412,-0.40110643327746587,-0.0008078379323706031,0.18769964575767517,-1.18215257326235,0.0005492727505043149,-0.03473258763551712,0.5559470653533936,0.0,0.008198412135243416,1.2402924299240112,-0.0030609669629484415,-0.10617570579051971
614.0,313.0,-5.9952,-4.1533,7.6211,-0.075,0.2888,-0.0165,-2.2213903866209925,-0.000836123013868928,4.302067756652832,-1.5703163146972656,0.16564564406871796,1.9666712284088135,-0.4011224073222657,-0.0007436026353389025,0.18655934929847717,-1.182136360798971,0.0005081460112705827,-0.0334489643573761,0.5559830665588379,0.0,0.007181528024375439,1.240248680114746,-0.004784406628459692,-0.18010357022285461
614.0,313.0,-5.9952,-4.1533,7.6211,-0.075,0.2888,-0.0165,-2.221415182153219,-0.000627867819275707,4.284451484680176,-1.5686306953430176,0.16696859896183014,1.9292762279510498,-0.40109391630206304,-0.0006871694349683821,0.19059652090072632,-1.1821487585650843,0.0005028291488997638,-0.03311125189065933,0.5559306740760803,0.0,0.009872706606984138,1.2402245998382568,-0.005420878529548645,-0.22690695524215698
614.0,313.0,-5.9952,-4.1533,7.6211,-0.075,0.2888,-0.0165,-2.221394201318258,-0.0025990218855440617,4.322331428527832,-1.5673576593399048,0.16028942167758942,2.016805648803711,-0.4010823530009766,-0.0008913690689951181,0.1884596049785614,-1.1821568647967737,0.0004808272060472518,-0.03629382699728012,0.5559347867965698,0.0,0.004996859468519688,1.2401809692382812,-0.005175183527171612,-0.180961012840271
614.0,313.0,-5.9952,-4.1533,7.6211,-0.075,0.2888,-0.0165,-2.2214347324767054,-0.0029180129058659077,4.282781600952148,-1.5658090114593506,0.14961490035057068,1.983003854751587,-0.401123122578003,-0.001301949261687696,0.16413742303848267,-1.1821287314044397,0.0004575554630719125,-0.02822246216237545,0.5559753179550171,1.451593600876322e-08,-0.005519051570445299,1.2401130199432373,-0.006495889276266098,-0.20859351754188538
398.0,301.0,-5.4443,-3.932,7.1856,-0.0777,0.1675,-0.0634,-2.2214585743346156,-0.0015140660107135773,4.264500141143799,-1.5646225214004517,0.14300468564033508,1.8979942798614502,-0.40115924299273686,-0.0012127382215112448,0.17963171005249023,-1.1820967833148401,0.0004716840048786253,-0.03911755606532097,0.5559593439102173,2.6381997172801597e-13,0.01796550117433071,1.2400089502334595,-0.009320971556007862,-0.17823860049247742
398.0,301.0,-5.4443,-3.932,7.1856,-0.0777,0.1675,-0.0634,-2.221434255639547,-0.0007843053317628801,4.314116954803467,-1.563185453414917,0.1415262669324875,1.947972059249878,-0.4011867803386231,-0.0027902238070964813,0.17356130480766296,-1.1821048895465296,0.0004376372089609504,-0.03589203953742981,0.556027352809906,3.1306601911327075e-19,0.0099648367613554,1.2399250268936157,-0.008977149613201618,-0.2021801471710205
398.0,301.0,-5.4443,-3.932,7.1856,-0.0777,0.1675,-0.0634,-2.2214747867979945,-0.0018195011653006077,4.273144721984863,-1.5620386600494385,0.13171087205410004,1.9134703874588013,-0.4012597364238282,-0.00700306287035346,0.16552215814590454,-1.1821568647967737,0.00041902257362380624,-0.018648143857717514,0.5559991002082825,5.689820995392118e-24,0.016959767788648605,1.2398812770843506,-0.00786932185292244,-0.14801499247550964
398.0,301.0,-5.4443,-3.932,7.1856,-0.0777,0.1675,-0.0634,-2.221461912194723,-0.0012042031157761812,4.281262397766113,-1.560753583908081,0.11979863047599792,1.9250578880310059,-0.40133901060137944,-0.008647317998111248,0.17357489466667175,-1.1820924917804163,0.00039256346644833684,-0.025522572919726372,0.5560237169265747,6.751913914287004e-30,0.007683982141315937,1.2398254871368408,-0.007620480842888355,-0.2843645513057709
398.0,301.0,-5.4443,-3.932,7.1856,-0.0777,0.1675,-0.0634,-2.2214585743346156,-0.0007213595090433955,4.231958866119385,-1.5598427057266235,0.11167903244495392,1.9012080430984497,-0.4014067214778443,-0.005049917381256819,0.1678118258714676,-1.182101074849264,0.00036164335324428976,-0.021765492856502533,0.5559753775596619,1.2271269070328247e-34,0.004897900857031345,1.2397537231445312,-0.008354676887392998,-0.23404324054718018
398.0,301.0,-5.4443,-3.932,7.1856,-0.0777,0.1675,-0.0634,-2.2214418850340785,-0.00035384867805987597,4.271567344665527,-1.558761477470398,0.10776141285896301,1.9149683713912964,-0.4014151853374024,-0.002249817829579115,0.16719646751880646,-1.18207294145693,0.0003614040615502745,-0.024796294048428535,0.5560433268547058,1.4561873251724202e-40,0.003482313361018896,1.239641547203064,-0.00665400642901659,-0.2033354789018631
398.0,301.0,-5.4443,-3.932,7.1856,-0.0777,0.1675,-0.0634,-2.221494813958639,-0.0003229808353353292,4.274749279022217,-1.5579828023910522,0.1021626740694046,1.9136106967926025,-0.4014032644084473,-0.0012178905308246613,0.16326023638248444,-1.1820886770831507,0.00042196502909064293,-0.014516394585371017,0.5559306740760803,2.802596928649634e-45,0.004189163912087679,1.2396419048309326,-0.004840482026338577,-0.20752909779548645
398.0,301.0,-5.4443,-3.932,7.1856,-0.0777,0.1675,-0.0634,-2.221490045587057,-0.0005659008165821433,4.2604522705078125,-1.556980848312378,0.09356226027011871,1.8869969844818115,-0.40143902719531255,-0.0010758651187643409,0.15738162398338318,-1.1821768919574183,0.00044673739466816187,-0.02490687370300293,0.5560073256492615,0.0,0.02387992851436138,1.2396100759506226,-0.005733207333832979,-0.23306894302368164
398.0,301.0,-5.4443,-3.932,7.1856,-0.0777,0.1675,-0.0634,-2.2215105495848597,-0.0009734759223647416,4.286072731018066,-1.5562541484832764,0.08398805558681488,1.9249147176742554,-0.40147920072589116,-0.0011982808355242014,0.15702207386493683,-1.1820929686175745,0.0006940711755305529,-0.018707215785980225,0.5559991002082825,0.0,-0.00012384733418002725,1.2395497560501099,-0.00664080586284399,-0.21402771770954132
398.0,301.0,-5.4443,-3.932,7.1856,-0.0777,0.1675,-0.0634,-2.221506734887594,-0.0007297467673197389,4.290506362915039,-1.555431604385376,0.07832948118448257,1.8967853784561157,-0.4014914792827149,-0.0019099476048722863,0.15440332889556885,-1.182061020527975,0.0027822963893413544,-0.029333963990211487,0.555994987487793,0.0,0.005205545108765364,1.2394498586654663,-0.006422588136047125,-0.25786811113357544
338.0,291.0,-5.4885,-3.7591,7.0702,-0.0446,0.1179,-0.0961,-2.2215305767455042,-0.0008396850316785276,4.282900333404541,-1.5548007488250732,0.06972959637641907,1.859932780265808,-0.4015156787684937,-0.003290380584076047,0.1486901342868805,-1.1820371786700647,0.013888314366340637,-0.0037886975333094597,0.5560113787651062,0.0,0.003791202325373888,1.2394661903381348,-0.00561191001906991,-0.2500511109828949
338.0,291.0,-5.4885,-3.7591,7.0702,-0.0446,0.1179,-0.0961,-2.2215339146056117,-0.001032560714520514,4.2526750564575195,-1.554121971130371,0.060211554169654846,1.8485221862792969,-0.4015994828990479,-0.0076086935587227345,0.1501152217388153,-1.181896988545553,0.008518368005752563,-0.010251844301819801,0.5560354590415955,0.0,0.010182955302298069,1.2393865585327148,-0.003719798754900694,-0.2137216329574585
338.0,291.0,-5.4885,-3.7591,7.0702,-0.0446,0.1179,-0.0961,-2.2215219936766566,-0.0007917899638414383,4.262282371520996,-1.5536868572235107,0.05469134449958801,1.9374884366989136,-0.4016953271678467,-0.010541566647589207,0.14797690510749817,-1.181817356740133,0.0001237096730619669,-0.014452863484621048,0.5559909343719482,0.0,0.0035582927521318197,1.2393264770507812,-0.0035152537748217583,-0.2314382791519165
338.0,291.0,-5.4885,-3.7591,7.0702,-0.0446,0.1179,-0.0961,-2.2215458355345667,-0.0008463904378004372,4.2683820724487305,-1.5533074140548706,0.048153363168239594,1.8596439361572266,-0.40179534376177983,-0.011608622036874294,0.13739192485809326,-1.1818855444537562,-0.0002534182567615062,-0.011109232902526855,0.5560190677642822,0.0,0.006471852771937847,1.239286184310913,-0.0037154953461140394,-0.2485715001821518
338.0,291.0,-5.4885,-3.7591,7.0702,-0.0446,0.1179,-0.0961,-2.2215177021422328,-0.0017756903544068336,4.26096248626709,-1.5528887510299683,0.03816184774041176,1.890739917755127,-0.40183837831530766,-0.009640423581004143,0.137100949883461,-1.1818612257586878,-8.454122871626168e-05,-0.008775332942605019,0.5560072660446167,0.0,0.011182042770087719,1.2393429279327393,-0.0031572943553328514,-0.25336575508117676
338.0,291.0,-5.4885,-3.7591,7.0702,-0.0446,0.1179,-0.0961,-2.2215916119017542,-0.001323286211118102,4.310311317443848,-1.5525686740875244,0.03109033592045307,1.82438325881958,-0.4019513887218018,-0.00652825552970171,0.14106492698192596,-1.1818574110614222,-6.894071702845395e-05,-0.018793633207678795,0.5559790730476379,0.0,0.011126469820737839,1.239274501800537,-0.002697247313335538,-0.31381529569625854
338.0,291.0,-5.4885,-3.7591,7.0702,-0.0446,0.1179,-0.0961,-2.221570154229635,-0.0006278919754549861,4.272072792053223,-1.5523498058319092,0.02087937295436859,1.7729313373565674,-0.40198762834582524,-0.002984618302434683,0.12767714262008667,-1.1819217840777796,-3.08348430122507e-10,-0.0040185460820794106,0.5559950470924377,0.0,0.005972469691187143,1.2392101287841797,-0.0025036169681698084,-0.28153371810913086
338.0,291.0,-5.4885,-3.7591,7.0702,-0.0446,0.1179,-0.0961,-2.2215711079039515,-0.0005359773058444262,4.209819793701172,-1.5521975755691528,0.011879903264343739,1.8365089893341064,-0.40200360239062505,-0.00232320255599916,0.14219272136688232,-1.1818650404559534,-5.604080093317594e-15,-0.009030681103467941,0.5559830665588379,0.0,0.007129100617021322,1.2392795085906982,-0.002565195318311453,-0.309463769197464
338.0,291.0,-5.4885,-3.7591,7.0702,-0.0446,0.1179,-0.0961,-2.22155823330068,-0.0004283824819140136,4.301121711730957,-1.552117943763733,0.0028363012243062258,1.8158338069915771,-0.4020150464824219,-0.004140657838433981,0.14119939506053925,-1.1818855444537562,-6.650168213924433e-21,-0.016210336238145828,0.5560756325721741,0.0,0.012434424832463264,1.2392104864120483,-0.002199173904955387,-0.2577657401561737
338.0,291.0,-5.4885,-3.7591,7.0702,-0.0446,0.1179,-0.0961,-2.2215501270689906,-0.0006948024965822697,4.235535144805908,-1.5521416664123535,2.779089136595303e-08,1.7969459295272827,-0.4020669025233765,-0.005812733434140682,0.1278178095817566,-1.1818655172931116,-1.2086351167854564e-25,-0.006740352138876915,0.5559666752815247,0.0,0.012207926250994205,1.2392269372940063,-0.001708019757643342,-0.3188682198524475
338.0,291.0,-5.4885,-3.7591,7.0702,-0.0446,0.1179,-0.0961,-2.221610208550924,-0.0027060566935688257,4.261551856994629,-1.552194356918335,-0.001183582586236298,1.7892131805419922,-0.40219517171893315,-0.011776779778301716,0.13001739978790283,-1.1819060484515589,-1.43424510772077e-31,-0.002735199872404337,0.5559909343719482,0.0,0.022542446851730347,1.239219069480896,-0.0020040119998157024,-0.3189561665058136
319.0,297.0,-5.4568,-3.6323,6.9117,-0.0284,0.0411,-0.1129,-2.2216302357115687,-0.005268658511340618,4.263049602508545,-1.5521495342254639,-0.0004476926405914128,1.841618299484253,-0.4023154538920899,-0.018690353259444237,0.12970907986164093,-1.1818416754352015,-2.6066698436530354e-36,-0.001974214566871524,0.5559666752815247,0.0,0.003733964404091239,1.2391667366027832,-0.002595874946564436,-0.3161923289299011
319.0,297.0,-5.4568,-3.6323,6.9117,-0.0284,0.0411,-0.1129,-2.2216984234251917,-0.006399258505553007,4.241873264312744,-1.5521738529205322,-0.0002757682232186198,1.7760396003723145,-0.40260858953509526,-0.03420490771532059,0.10565394163131714,-1.181845490132467,-3.092665710764871e-42,0.0062875584699213505,0.5559143424034119,0.0,0.01286266464740038,1.2391024827957153,-0.0026755789294838905,-0.3304271697998047
319.0,297.0,-5.4568,-3.6323,6.9117,-0.0284,0.0411,-0.1129,-2.2217422924437464,-0.005562117788940668,4.2489776611328125,-1.5521416664123535,-0.00015856861136853695,1.831507921218872,-0.4029560846141358,-0.06610404700040817,0.10722124576568604,-1.1818531195269983,-0.0,-0.0018816427327692509,0.5559909343719482,0.0,0.008602416142821312,1.239122986793518,-0.003610186045989394,-0.24944287538528442
319.0,297.0,-5.4568,-3.6323,6.9117,-0.0284,0.0411,-0.1129,-2.221774240533346,-0.002834311919286847,4.237260818481445,-1.552150011062622,-0.00012241645890753716,1.762221336364746,-0.4039812845042725,-0.13670001924037933,0.07378498464822769,-1.1818817297564905,-0.0,-0.009394016116857529,0.555986762046814,0.0,0.015076421201229095,1.2390868663787842,-0.004410030785948038,-0.29152458906173706
319.0,297.0,-5.4568,-3.6323,6.9117,-0.0284,0.0411,-0.1129,-2.22177853206777,-0.0016140654915943742,4.251393795013428,-1.5521659851074219,-0.0001036228786688298,1.7825348377227783,-0.40530164659533696,-0.17326109111309052,0.058576274663209915,-1.1819375197040003,-0.0,-0.010632453486323357,0.5559589266777039,0.0,0.00421151053160429,1.2390151023864746,-0.00376525497995317,-0.3334694802761078
319.0,297.0,-5.4568,-3.6323,6.9117,-0.0284,0.0411,-0.1129,-2.2218100033202113,-0.0014147672336548567,4.253891944885254,-1.5521738529205322,-8.712868293514475e-05,1.8247358798980713,-0.4072793287089844,-0.20733733475208282,0.05877592787146568,-1.1818574110614222,-0.0,-0.012901103124022484,0.5559949278831482,0.0,0.0040021552704274654,1.2389949560165405,-0.002809508005157113,-0.31491151452064514
319.0,297.0,-5.4568,-3.6323,6.9117,-0.0284,0.0411,-0.1129,-2.2217937908568324,-0.0019553741440176964,4.241665840148926,-1.5521820783615112,5.9355479606892914e-05,1.8020110130310059,-0.4091194433024903,-0.24201007187366486,0.03271457180380821,-1.1818774382220667,-0.0,-0.01645651087164879,0.5560112595558167,0.0,0.019195599481463432,1.239039659500122,-0.002838000888004899,-0.2644178867340088
319.0,297.0,-5.4568,-3.6323,6.9117,-0.0284,0.0411,-0.1129,-2.2218219242491664,-0.0015534108970314264,4.25074577331543,-1.552194356918335,7.638984970981255e-05,1.8045718669891357,-0.41176147878680425,-0.292805552482605,0.012216239236295223,-1.1818855444537562,-0.0,-0.013016769662499428,0.5560150146484375,0.0,0.010841760784387589,1.2389552593231201,-0.0030733603052794933,-0.3204098045825958
319.0,297.0,-5.4568,-3.6323,6.9117,-0.0284,0.0411,-0.1129,-2.221886774102682,-0.0014003796968609095,4.231101989746094,-1.5521577596664429,6.865702744107693e-05,1.8014832735061646,-0.41425903261218266,-0.32409563660621643,-0.013493411242961884,-1.181845490132467,-0.0,-0.01537066139280796,0.5559827089309692,0.0,0.005544088315218687,1.2389717102050781,-0.0027011283673346043,-0.28979581594467163
319.0,297.0,-5.4568,-3.6323,6.9117,-0.0284,0.0411,-0.1129,-2.2218381367125453,-0.001060004811733961,4.324744701385498,-1.552138090133667,8.121661812765524e-05,1.7512147426605225,-0.41781754911456304,-0.3835486173629761,-0.013739122077822685,-1.1818535963641565,-0.0,-0.009467363357543945,0.5559548139572144,0.0,0.0034717638045549393,1.238903284072876,-0.002170936670154333,-0.2836238145828247
309.0,280.0,-6.189,-3.8417,7.3789,0.0145,-0.1894,-0.2011,-2.221922536889547,-0.0005941725103184581,4.249090671539307,-1.552177906036377,9.311784378951415e-05,1.7777200937271118,-0.4211643499187012,-0.42440879344940186,-0.03960639610886574,-1.1818612257586878,-0.0,-0.021218206733465195,0.556010901927948,0.0,0.006940795108675957,1.2388629913330078,-0.002042264910414815,-0.26952165365219116
309.0,280.0,-6.189,-3.8417,7.3789,0.0145,-0.1894,-0.2011,-2.221870084802145,-0.0004923061933368444,4.264332294464111,-1.5521340370178223,0.0001668319309828803,1.8098280429840088,-0.42562659204516606,-0.48341965675354004,-0.06716567277908325,-1.1818493048297327,-0.0,-0.0253833569586277,0.5559585094451904,0.0,0.010792218148708344,1.2388873100280762,-0.0018998945597559214,-0.26557594537734985
309.0,280.0,-6.189,-3.8417,7.3789,0.0145,-0.1894,-0.2011,-2.2218462429442347,-0.00043432769598439336,4.297466278076172,-1.552194356918335,0.00014528592873830348,1.8104751110076904,-0.42969949663195806,-0.5211344957351685,-0.08126429468393326,-1.1818292776690882,-0.0,-0.019635558128356934,0.556002676486969,0.0,0.0034948638640344143,1.2388393878936768,-0.0016501684440299869,-0.23714058101177216
309.0,280.0,-6.189,-3.8417,7.3789,0.0145,-0.1894,-0.2011,-2.2218905887999476,-0.000368134758900851,4.2761030197143555,-1.5521221160888672,0.0001250920322490856,1.818154215812683,-0.4349392217448731,-0.5522524118423462,-0.05981837213039398,-1.1818493048297327,-0.0,-0.02811877615749836,0.5559506416320801,0.0,0.006648666225373745,1.2388713359832764,-0.0011431239545345306,-0.24815185368061066
309.0,280.0,-6.189,-3.8417,7.3789,0.0145,-0.1894,-0.2011,-2.221886297265524,-0.0003426441689953208,4.257339000701904,-1.5521339178085327,0.00015669994172640145,1.8186215162277222,-0.4395570319942017,-0.5895797610282898,-0.06532242894172668,-1.181833569203512,-0.0,-0.021611496806144714,0.5560432076454163,0.0,0.0033447635360062122,1.238779067993164,-0.0007395840366370976,-0.2506455183029175
309.0,280.0,-6.189,-3.8417,7.3789,0.0145,-0.1894,-0.2011,-2.221898218194479,-0.00037486135261133313,4.292972087860107,-1.552093267440796,0.0001592921034898609,1.786758542060852,-0.44555242479357915,-0.6094397306442261,-0.08584554493427277,-1.1819055716144007,-0.0,-0.031211376190185547,0.5560030937194824,0.0,0.010262224823236465,1.238863468170166,-0.00056742801098153,-0.21999171376228333
309.0,280.0,-6.189,-3.8417,7.3789,0.0145,-0.1894,-0.2011,-2.2219025097289027,-0.0004075965262018144,4.2984089851379395,-1.552138090133667,0.00014701843610964715,1.7751448154449463,-0.4505271476558228,-0.6251806020736694,-0.05119992792606354,-1.1818373839007776,-0.0,-0.04070218279957771,0.5560314059257507,0.0,0.029072623699903488,1.2388230562210083,-0.0004173356282990426,-0.22317636013031006
309.0,280.0,-6.189,-3.8417,7.3789,0.0145,-0.1894,-0.2011,-2.2219182453551234,-0.0004182509146630764,4.307758808135986,-1.5521621704101562,0.00014599708083551377,1.7947523593902588,-0.4568295043757935,-0.6325667500495911,-0.04179844260215759,-1.1818655172931116,-0.0,-0.038776226341724396,0.5559670925140381,0.0,-0.007778399623930454,1.2388474941253662,-0.00031348798074759543,-0.23709461092948914
309.0,280.0,-6.189,-3.8417,7.3789,0.0145,-0.1894,-0.2011,-2.2219025097289027,-0.0003726047871168703,4.331233978271484,-1.552186131477356,0.00015556826838292181,1.8133974075317383,-0.4619167608073731,-0.6285487413406372,-0.026960233226418495,-1.1818373839007776,-0.0,-0.021575063467025757,0.5559629797935486,0.0,8.562055882066488e-06,1.2388713359832764,-0.00026144622825086117,-0.2464722841978073
309.0,280.0,-6.189,-3.8417,7.3789,0.0145,-0.1894,-0.2011,-2.2218781910338343,-0.00028755931998603046,4.3032636642456055,-1.5521221160888672,0.0005361287039704621,1.7899845838546753,-0.467894510631897,-0.6103264689445496,-0.0351814329624176,-1.1818855444537562,-0.0,-0.04270920529961586,0.5559830665588379,0.0,-0.0014481698162853718,1.2388110160827637,-0.00021651711722370237,-0.19805490970611572
357.0,286.0,-5.5854,-4.1228,7.5745,0.0884,-0.5429,-0.3616,-2.2219025097289027,-0.0002737947797868401,4.29125452041626,-1.5520774126052856,0.0005254675634205341,1.7716407775878906,-0.47264523923907475,-0.5838554501533508,-0.03169292211532593,-1.1818693319903772,-0.0,-0.04503262788057327,0.5559871196746826,0.0,0.002987717278301716,1.2388474941253662,-0.00019034910656046122,-0.1409544050693512
357.0,286.0,-5.5854,-4.1228,7.5745,0.0884,-0.5429,-0.3616,-2.22190584758901,-0.0002329425187781453,4.287949085235596,-1.5521302223205566,0.0008067773887887597,1.7604854106903076,-0.4782859844020386,-0.5511102080345154,-0.028795059770345688,-1.181873623524801,-0.0,-0.05241469666361809,0.5559711456298828,0.0,0.007891030982136726,1.2388192415237427,-5.4590735089732334e-05,-0.16391387581825256
357.0,286.0,-5.5854,-4.1228,7.5745,0.0884,-0.5429,-0.3616,-2.2219144306578578,-0.0002086653548758477,4.321734428405762,-1.5521259307861328,0.000786170014180243,1.8072350025177002,-0.4826503557017823,-0.5220509767532349,-0.013255300000309944,-1.1818974653827112,-1.3728275916946586e-05,-0.035999394953250885,0.5559593439102173,0.0,0.0006973675917834044,1.2388594150543213,-2.434695306874346e-05,-0.1119690090417862
357.0,286.0,-5.5854,-4.1228,7.5745,0.0884,-0.5429,-0.3616,-2.221922536889547,-0.0002144928148481995,4.3393659591674805,-1.5520744323730469,0.000765114207752049,1.7993698120117188,-0.48670978963885503,-0.4899004101753235,-0.023135075345635414,-1.1818655172931116,-0.00016015928122214973,-0.054411664605140686,0.5560031533241272,0.0,0.014149422757327557,1.2388553619384766,-3.0207206691557076e-07,-0.11290022730827332
357.0,286.0,-5.5854,-4.1228,7.5745,0.0884,-0.5429,-0.3616,-2.221931119958395,-0.0005536458338610828,4.329195499420166,-1.5520981550216675,0.0006411634967662394,1.796417474746704,-0.4913712304881592,-0.4501892626285553,0.016977360472083092,-1.1818531195269983,-0.00013596363714896142,-0.0654585063457489,0.5559470057487488,0.0,0.001201033592224121,1.2389036417007446,-1.313017535274413e-16,-0.12002818286418915
357.0,286.0,-5.5854,-4.1228,7.5745,0.0884,-0.5429,-0.3616,-2.2219182453551234,-0.0010207454906776547,4.345877170562744,-1.5521385669708252,0.0006474750116467476,1.7683249711990356,-0.4946630758098145,-0.4081094563007355,0.019056282937526703,-1.1818855444537562,-0.00014556221140082926,-0.06129033491015434,0.5559752583503723,0.0,-0.00944461952894926,1.2388837337493896,-4.254009345342565e-24,-0.1500815451145172
357.0,286.0,-5.5854,-4.1228,7.5745,0.0884,-0.5429,-0.3616,-2.2219702206053675,-0.0015198534820228815,4.347251892089844,-1.552061915397644,0.0008881569374352694,1.8419544696807861,-0.49830134332690434,-0.3447329103946686,0.055067673325538635,-1.1818974653827112,-0.00012827302271034569,-0.05588190630078316,0.5559912919998169,0.0,-0.00859068799763918,1.2388553619384766,-1.8490917357648216e-33,-0.11570289731025696
357.0,286.0,-5.5854,-4.1228,7.5745,0.0884,-0.5429,-0.3616,-2.221990247766012,-0.0019485073862597346,4.363975524902344,-1.5520867109298706,0.0009622513898648322,1.8267488479614258,-0.5008068841746827,-0.30227795243263245,0.07625716924667358,-1.1818936506854456,-0.00013662141282111406,-0.06027694791555405,0.5559793710708618,0.0,0.001993958605453372,1.2389274835586548,0.0002954220399260521,-0.15223531424999237
357.0,286.0,-5.5854,-4.1228,7.5745,0.0884,-0.5429,-0.3616,-2.2219988308348597,-0.0027559101581573486,4.324013710021973,-1.5520741939544678,0.0009894204558804631,1.8279733657836914,-0.503387526874878,-0.22692863643169403,0.10903958976268768,-1.181885067616598,-0.00012329229502938688,-0.06685931980609894,0.5559511184692383,0.0,0.007352979388087988,1.2388508319854736,0.0003113202110398561,-0.14715932309627533
357.0,286.0,-5.5854,-4.1228,7.5745,0.0884,-0.5429,-0.3616,-2.2219935856261195,-0.003622892079874873,4.351208686828613,-1.5520298480987549,0.0016302906442433596,1.8529208898544312,-0.5049938720515748,-0.17503046989440918,0.1516396850347519,-1.1819012800799769,-0.00012238115596119314,-0.06174791231751442,0.555994987487793,0.0,0.008346972987055779,1.2389113903045654,0.00040518707828596234,-0.113352470099926
719.0,361.0,-3.1759,-3.4977,7.2227,0.0252,-0.3338,-0.2622,-2.2220498524107875,-0.004323082510381937,4.34306526184082,-1.5520018339157104,0.0020998013205826283,1.7889373302459717,-0.506182388668396,-0.08206517994403839,0.18132257461547852,-1.1819136778460901,-0.00011980401177424937,-0.050478480756282806,0.5559430122375488,0.0,-0.0012057970743626356,1.2389717102050781,0.0003381994611117989,-0.10199830681085587
719.0,361.0,-3.1759,-3.4977,7.2227,0.0252,-0.3338,-0.2622,-2.2221261463561,-0.005749638192355633,4.386700630187988,-1.552026391029358,0.0030664473306387663,1.79116690158844,-0.5065834087184449,-0.0408182293176651,0.21046221256256104,-1.1819012800799769,-0.00011232760880375281,-0.0714244544506073,0.5559589862823486,0.0,0.009664017707109451,1.2388992309570312,0.00027044283342547715,-0.12884870171546936
719.0,361.0,-3.1759,-3.4977,7.2227,0.0252,-0.3338,-0.2622,-2.222175260583395,-0.006671048700809479,4.363114356994629,-1.5519583225250244,0.004456950817257166,1.8303226232528687,-0.5068256419948121,-0.013834301382303238,0.2204696238040924,-1.1818531195269983,-0.00010419943282613531,-0.06980542093515396,0.5559266805648804,0.0,0.019892916083335876,1.2388750314712524,0.00021628021204378456,-0.11483436822891235
719.0,361.0,-3.1759,-3.4977,7.2227,0.0252,-0.3338,-0.2622,-2.2222148380675257,-0.007154316175729036,4.324400901794434,-1.5519464015960693,0.006761965341866016,1.81441330909729,-0.5069168371013184,-0.0020257560536265373,0.22983688116073608,-1.1818411985980433,-9.849758498603478e-05,-0.04793393611907959,0.5559267401695251,0.0,-0.005821092985570431,1.238883137702942,0.00018641386122908443,-0.12022826820611954
719.0,361.0,-3.1759,-3.4977,7.2227,0.0252,-0.3338,-0.2622,-2.2223030529417933,-0.006843628361821175,4.330896377563477,-1.5518101453781128,0.009233489632606506,1.8414115905761719,-0.5068695110133667,0.0006787956226617098,0.23356586694717407,-1.1818936506854456,-9.219155617756769e-05,-0.05518876761198044,0.5559909343719482,0.0,0.003407243639230728,1.238919734954834,0.0001589736493770033,-0.13098867237567902
719.0,361.0,-3.1759,-3.4977,7.2227,0.0252,-0.3338,-0.2622,-2.222379346887106,-0.0066849528811872005,4.3524675369262695,-1.5517185926437378,0.011393402703106403,1.8333876132965088,-0.5069329303554078,0.00033846046426333487,0.23245716094970703,-1.1818936506854456,-8.769984560785815e-05,-0.05950813740491867,0.5559915900230408,0.0,-0.0010171568719670177,1.2389357089996338,0.00011852263560285792,-0.1281123012304306
719.0,361.0,-3.1759,-3.4977,7.2227,0.0252,-0.3338,-0.2622,-2.222421785394186,-0.007482632994651794,4.354691028594971,-1.5516794919967651,0.012110816314816475,1.791930079460144,-0.5068969291499634,0.00014095896040089428,0.228289395570755,-1.1819255987750452,-8.26653340482153e-05,-0.06112465262413025,0.5559708476066589,0.0,0.0033055972307920456,1.2389394044876099,0.00010472925350768492,-0.11437395215034485
719.0,361.0,-3.1759,-3.4977,7.2227,0.0252,-0.3338,-0.2622,-2.2224937878050746,-0.00784433726221323,4.335058212280273,-1.5515789985656738,0.013589889742434025,1.8354008197784424,-0.5069335264018555,3.7768033962493064e-06,0.2361154556274414,-1.181941334401266,-2.0307015802245587e-05,-0.045355796813964844,0.5559909343719482,0.0,-0.0008918668609112501,1.238858938217163,7.691068458370864e-05,-0.14244399964809418
719.0,361.0,-3.1759,-3.4977,7.2227,0.0252,-0.3338,-0.2622,-2.222574373284811,-0.007265515625476837,4.325729846954346,-1.5513789653778076,0.015938650816679,1.859872579574585,-0.5069411557963868,4.481802082234587e-12,0.23337550461292267,-1.181941334401266,-2.409762840660523e-11,-0.05116110295057297,0.5559989809989929,0.0,0.012550882995128632,1.2388832569122314,6.927354115759954e-05,-0.13445185124874115
719.0,361.0,-3.1759,-3.4977,7.2227,0.0252,-0.3338,-0.2622,-2.2226387463011683,-0.007569512352347374,4.321624279022217,-1.5512151718139648,0.01841546595096588,1.7883051633834839,-0.506976918583252,-0.003931415732949972,0.23262649774551392,-1.181845490132467,-4.3796248819367425e-16,-0.06309518218040466,0.55605548620224,0.0,0.003683213610202074,1.2388310432434082,4.824233110412024e-05,-0.1403740495443344
807.0,418.0,-4.5302,-3.5575,7.6522,-0.0472,0.0211,-0.1188,-2.222694536248678,-0.008115842007100582,4.352055549621582,-1.5510315895080566,0.023658709600567818,1.8876986503601074,-0.5070282977870484,-0.009167000651359558,0.2184104174375534,-1.1819174925433558,-5.197149434405551e-22,-0.060564976185560226,0.555994987487793,0.0,-0.006730382330715656,1.2389076948165894,-2.6078547307406552e-05,-0.16306042671203613
807.0,418.0,-4.5302,-3.5575,7.6522,-0.0472,0.0211,-0.1188,-2.222746034661764,-0.008035138249397278,4.353770732879639,-1.5508443117141724,0.030283430591225624,1.8505797386169434,-0.5071355861476441,-0.013034889474511147,0.21298442780971527,-1.1818373839007776,-9.445562404503847e-27,-0.0378832146525383,0.5559592843055725,0.0,0.0035799683537334204,1.2388790845870972,-3.281898534623906e-05,-0.20363503694534302
807.0,418.0,-4.5302,-3.5575,7.6522,-0.0472,0.0211,-0.1188,-2.2228790722289027,-0.009881542064249516,4.318390369415283,-1.550516963005066,0.03841615840792656,1.8519686460494995,-0.5073871177485962,-0.01797761581838131,0.2212020754814148,-1.1818893591510218,-1.1208722874806436e-32,-0.05012638121843338,0.5559752583503723,0.0,0.018192987889051437,1.2389113903045654,-4.511559382081032e-05,-0.15934371948242188
807.0,418.0,-4.5302,-3.5575,7.6522,-0.0472,0.0211,-0.1188,-2.2229377231993617,-0.011243706569075584,4.337034225463867,-1.5501532554626465,0.04720913618803024,1.8591794967651367,-0.5074982208064576,-0.019475948065519333,0.21604634821414948,-1.1819375197040003,-2.0371299073446797e-37,-0.058974407613277435,0.5559871792793274,0.0,-0.002293740166351199,1.2388873100280762,-4.228912803228013e-05,-0.13113057613372803
807.0,418.0,-4.5302,-3.5575,7.6522,-0.0472,0.0211,-0.1188,-2.2230740986266078,-0.014026060700416565,4.29919958114624,-1.5496383905410767,0.05855046212673187,1.8733067512512207,-0.5076770347407837,-0.015195022337138653,0.2171289324760437,-1.1818855444537562,-2.4242463432819335e-43,-0.048185937106609344,0.5559871196746826,0.0,0.006058820988982916,1.2388995885849,-3.9217873563757166e-05,-0.1932489424943924
807.0,418.0,-4.5302,-3.5575,7.6522,-0.0472,0.0211,-0.1188,-2.223259588281149,-0.01589706353843212,4.288609981536865,-1.5491595268249512,0.06761161237955093,1.8746840953826904,-0.5077846807292481,-0.007507784757763147,0.19290131330490112,-1.1818612257586878,-0.0,-0.04711739346385002,0.5559787154197693,0.0,-0.0019488281104713678,1.2388995885849,-3.7064462958369404e-05,-0.11570978164672852
807.0,418.0,-4.5302,-3.5575,7.6522,-0.0472,0.0211,-0.1188,-2.223386903802389,-0.01866517961025238,4.309454917907715,-1.5483721494674683,0.07749785482883453,1.9280767440795898,-0.5077168506434937,-0.0006287891883403063,0.2232680469751358,-1.1818731466876429,-0.0,-0.04650681093335152,0.5559868216514587,0.0,0.008642291650176048,1.2388873100280762,-3.468388968030922e-05,-0.1792689561843872
807.0,418.0,-4.5302,-3.5575,7.6522,-0.0472,0.0211,-0.1188,-2.223607679406637,-0.020470481365919113,4.2700090408325195,-1.547661304473877,0.08819936960935593,1.9321832656860352,-0.50780804575,-0.00023327676171902567,0.222018301486969,-1.1818731466876429,-0.0,-0.04881303012371063,0.5559630393981934,0.0,0.003446275368332863,1.238891363143921,-4.354764678282663e-05,-0.17127761244773865
807.0,418.0,-4.5302,-3.5575,7.6522,-0.0472,0.0211,-0.1188,-2.223741670648092,-0.024692855775356293,4.251737117767334,-1.5467827320098877,0.0944681242108345,1.93915855884552,-0.507796124821045,-0.00014146504690870643,0.2127012014389038,-1.1818731466876429,-0.0,-0.04663439840078354,0.5559630393981934,0.0,-0.0035743589978665113,1.2388553619384766,-4.145280399825424e-05,-0.1901031732559204
807.0,418.0,-4.5302,-3.5575,7.6522,-0.0472,0.0211,-0.1188,-2.223971029321188,-0.027563944458961487,4.246433258056641,-1.5459200143814087,0.09654317051172256,1.9462990760803223,-0.507796124821045,-0.00015413657820317894,0.21651092171669006,-1.1818774382220667,-0.0,-0.05098110809922218,0.5559787154197693,0.0,0.012172132730484009,1.2388594150543213,-1.3523432244255673e-05,-0.18076476454734802
806.0,391.0,-4.5135,-3.9314,7.3519,-0.0418,0.0843,-0.0977,-2.224250932733053,-0.0317968986928463,4.2366838455200195,-1.5449138879776,0.11135154962539673,1.9433259963989258,-0.5078199666789551,-0.00016493936709593982,0.2099422812461853,-1.181913201008932,-0.0,-0.05294919013977051,0.5560231804847717,0.0,0.010252866894006729,1.2389036417007446,-5.878233741641236e-15,-0.1366928666830063
806.0,391.0,-4.5135,-3.9314,7.3519,-0.0418,0.0843,-0.0977,-2.2245551548399867,-0.03950608894228935,4.190890789031982,-1.5440318584442139,0.12650130689144135,1.950440764427185,-0.5077839654735108,-0.00010948759154416621,0.21216514706611633,-1.1819093863116663,-0.0,-0.04213405400514603,0.5559548735618591,0.0,0.004059490282088518,1.2388794422149658,-1.90447304609436e-22,-0.17565971612930298
806.0,391.0,-4.5135,-3.9314,7.3519,-0.0418,0.0843,-0.0977,-2.224927087823385,-0.04773809015750885,4.198501110076904,-1.542909026145935,0.14254780113697052,1.9604370594024658,-0.5078161519816895,-0.0005885310820303857,0.21536928415298462,-1.1818936506854456,-0.0,-0.05713967606425285,0.5559909343719482,0.0,-0.009103760123252869,1.238891363143921,-6.1702503453193314e-30,-0.1785838007926941
806.0,391.0,-4.5135,-3.9314,7.3519,-0.0418,0.0843,-0.0977,-2.225455423394674,-0.058857426047325134,4.249564170837402,-1.5414035320281982,0.15339677035808563,1.9913133382797241,-0.5078202050975342,-0.0012995970901101828,0.21055634319782257,-1.1818817297564905,-0.0,-0.04130038619041443,0.5559711456298828,0.0,0.012193894013762474,1.2389036417007446,-2.682025004883734e-39,-0.14933276176452637
806.0,391.0,-4.5135,-3.9314,7.3519,-0.0418,0.0843,-0.0977,-2.225943227807516,-0.061743803322315216,4.180184364318848,-1.5401744842529297,0.1618376076221466,1.9967682361602783,-0.5078755182078858,-0.001375554478727281,0.19858692586421967,-1.1818812529193323,-0.0,-0.03706326335668564,0.5559388995170593,0.0,0.008505411446094513,1.2388836145401,-7.195991929620504e-05,-0.18215280771255493
806.0,391.0,-4.5135,-3.9314,7.3519,-0.0418,0.0843,-0.0977,-2.22656311611318,-0.06087743118405342,4.178040027618408,-1.5385171175003052,0.17904315888881683,2.005488634109497,-0.5078481000712891,-0.0017776041058823466,0.21120744943618774,-1.1818893591510218,-0.0,-0.04259196296334267,0.5560430884361267,0.0,0.005897730588912964,1.238835334777832,-7.996194472070783e-05,-0.1415751874446869
806.0,391.0,-4.5135,-3.9314,7.3519,-0.0418,0.0843,-0.0977,-2.227102895776266,-0.06186246499419212,4.187624454498291,-1.5370794534683228,0.19250155985355377,2.086778163909912,-0.5079355996898194,-0.003682115813717246,0.2120409905910492,-1.1818774382220667,-0.0,-0.053156524896621704,0.555994987487793,0.0,0.0030338242650032043,1.2388594150543213,-7.54905995563604e-05,-0.1578550934791565
806.0,391.0,-4.5135,-3.9314,7.3519,-0.0418,0.0843,-0.0977,-2.2277637920775355,-0.06251931190490723,4.217810153961182,-1.5351428985595703,0.191587433218956,2.0399131774902344,-0.5080154699138184,-0.00790112093091011,0.2203707993030548,-1.1818893591510218,-0.0,-0.04175877943634987,0.5560030341148376,0.0,-0.002899366430938244,1.2388516664505005,-8.185035403585061e-05,-0.13023295998573303
806.0,391.0,-4.5135,-3.9314,7.3519,-0.0418,0.0843,-0.0977,-2.2282191715636195,-0.05807634815573692,4.222429275512695,-1.5335628986358643,0.19949306547641754,2.0864267349243164,-0.5080780547908326,-0.009651277214288712,0.21225684881210327,-1.181833569203512,-0.0,-0.04833129793405533,0.5560072064399719,0.0,0.0038749792147427797,1.2388516664505005,-0.0002171911037294194,-0.14473646879196167
806.0,391.0,-4.5135,-3.9314,7.3519,-0.0418,0.0843,-0.0977,-2.2287947140135707,-0.05525657534599304,4.206559181213379,-1.5315196514129639,0.2098631113767624,2.0907652378082275,-0.5081699651530762,-0.010950759053230286,0.201086163520813,-1.1818774382220667,-0.0,-0.044298913329839706,0.5559630393981934,0.0,0.008549993857741356,1.238891839981079,-0.0002856864593923092,-0.1632779836654663
797.0,348.0,-5.0201,-3.8602,8.0913,-0.0594,0.1512,-0.0809,-2.2292148075499476,-0.05851365625858307,4.208832740783691,-1.5297774076461792,0.2110300213098526,2.0685250759124756,-0.5082901281169434,-0.01159946620464325,0.21236690878868103,-1.1819136778460901,-0.0,-0.051952462643384933,0.5560153126716614,0.0,0.0031429994851350784,1.2388393878936768,-0.00021573613048531115,-0.15263107419013977
797.0,348.0,-5.0201,-3.8602,8.0913,-0.0594,0.1512,-0.0809,-2.2297712765135707,-0.05697629973292351,4.242629051208496,-1.527658462524414,0.2207901030778885,2.104093313217163,-0.5084127944758912,-0.009597143158316612,0.21233808994293213,-1.1819093863116663,-0.0,-0.0497235506772995,0.5559990406036377,0.0,0.00024013845541048795,1.2388516664505005,-0.0001223770232172683,-0.14847111701965332
797.0,348.0,-5.0201,-3.8602,8.0913,-0.0594,0.1512,-0.0809,-2.2301656208434046,-0.05684968829154968,4.235976696014404,-1.5257142782211304,0.22977986931800842,2.067628860473633,-0.508452371960022,-0.006741277873516083,0.2068759799003601,-1.1818936506854456,-0.0,-0.046567175537347794,0.5559952259063721,0.0,0.028659988194704056,1.2388794422149658,-9.620289347367361e-05,-0.15325677394866943
797.0,348.0,-5.0201,-3.8602,8.0913,-0.0594,0.1512,-0.0809,-2.23079838375234,-0.060459721833467484,4.232335090637207,-1.5234161615371704,0.23812469840049744,2.081556797027588,-0.50840778768573,-0.004286804236471653,0.20233267545700073,-1.1818574110614222,-0.0,-0.037639182060956955,0.555994987487793,0.0,-0.0019948824774473906,1.2388111352920532,-7.591460598632693e-05,-0.1197451576590538
797.0,348.0,-5.0201,-3.8602,8.0913,-0.0594,0.1512,-0.0809,-2.2312780819334925,-0.06404462456703186,4.2120561599731445,-1.5215378999710083,0.24600666761398315,2.1698379516601562,-0.5085399907878418,-0.003976753447204828,0.19676591455936432,-1.1818612257586878,-0.0,-0.05033879354596138,0.5559670925140381,0.0,-0.01019708625972271,1.238875389099121,-6.49560970487073e-05,-0.15667571127414703
797.0,348.0,-5.0201,-3.8602,8.0913,-0.0594,0.1512,-0.0809,-2.2319184742369593,-0.06292963773012161,4.238597869873047,-1.519058108329773,0.25087523460388184,2.1305489540100098,-0.5085396331599732,-0.004595465026795864,0.21682754158973694,-1.1818731466876429,-0.0,-0.05606011301279068,0.5559590458869934,0.0,0.007802008185535669,1.238823413848877,-0.00011005220585502684,-0.15457269549369812
797.0,348.0,-5.0201,-3.8602,8.0913,-0.0594,0.1512,-0.0809,-2.2324706516661585,-0.06188322603702545,4.242929935455322,-1.5170398950576782,0.25913137197494507,2.1612067222595215,-0.5086026948741456,-0.007072737906128168,0.2010004073381424,-1.1818731466876429,-0.0,-0.050455473363399506,0.5560152530670166,0.0,-0.003223483683541417,1.23885977268219,-7.603747508255765e-05,-0.1332203596830368
797.0,348.0,-5.0201,-3.8602,8.0913,-0.0594,0.1512,-0.0809,-2.233062883416647,-0.06640668213367462,4.277875900268555,-1.5144532918930054,0.25810810923576355,2.095054864883423,-0.5087466996959229,-0.010952550917863846,0.20869581401348114,-1.1818578878985804,-0.0,-0.026339508593082428,0.5559471249580383,0.0,-0.003966020420193672,1.238863468170166,-9.325532300863415e-05,-0.11752000451087952
797.0,348.0,-5.0201,-3.8602,8.0913,-0.0594,0.1512,-0.0809,-2.233626504937643,-0.06681932508945465,4.184155464172363,-1.5124417543411255,0.26819607615470886,2.109272003173828,-0.5088260930827637,-0.013174982741475105,0.18086455762386322,-1.1819055716144007,-0.0,-0.04085785895586014,0.5559830069541931,0.0,0.00019081123173236847,1.2388311624526978,-0.00010923173249466345,-0.1255941092967987
797.0,348.0,-5.0201,-3.8602,8.0913,-0.0594,0.1512,-0.0809,-2.2343436680235804,-0.06831033527851105,4.237290382385254,-1.509703516960144,0.2674097418785095,2.1439127922058105,-0.5090100330165406,-0.013661010190844536,0.17925143241882324,-1.1818411985980433,-0.0,-0.042073436081409454,0.5560268759727478,0.0,0.015762431547045708,1.2388074398040771,-0.0003684767580125481,-0.1636555939912796
772.0,313.0,-5.0082,-4.2431,7.6959,-0.0698,0.2053,-0.0469,-2.234830518762106,-0.06781661510467529,4.236942291259766,-1.5075773000717163,0.2786197364330292,2.1321768760681152,-0.5090485376170655,-0.011087575927376747,0.18472608923912048,-1.1818731466876429,-0.0,-0.046411145478487015,0.5560151934623718,0.0,0.01083048339933157,1.238835334777832,-0.0003363571595400572,-0.14707404375076294
772.0,313.0,-5.0082,-4.2431,7.6959,-0.0698,0.2053,-0.0469,-2.2355152569212855,-0.06339876353740692,4.222898006439209,-1.5047863721847534,0.28437185287475586,2.144773006439209,-0.5091526073268433,-0.008570491336286068,0.17313270270824432,-1.1818774382220667,-0.0,-0.03572586178779602,0.556023120880127,0.0,0.0015870658680796623,1.2388274669647217,-0.0003933915286324918,-0.1818707436323166
772.0,313.0,-5.0082,-4.2431,7.6959,-0.0698,0.2053,-0.0469,-2.2360879383482875,-0.06562108546495438,4.254440784454346,-1.5025001764297485,0.2870471179485321,2.1769258975982666,-0.5092799228480835,-0.007078683003783226,0.18443629145622253,-1.1818092505084437,-0.0,-0.03581511229276657,0.5559593439102173,0.0,0.0016475622542202473,1.2388032674789429,-0.00029148836620151997,-0.15649482607841492
772.0,313.0,-5.0082,-4.2431,7.6959,-0.0698,0.2053,-0.0469,-2.2366863689818324,-0.06959174573421478,4.248184680938721,-1.4995936155319214,0.28528130054473877,2.1414403915405273,-0.5093391698649903,-0.0092817023396492,0.18605265021324158,-1.1818373839007776,-0.0,-0.046948112547397614,0.5559670925140381,0.0,0.00798271968960762,1.238831639289856,-0.0003504623891785741,-0.20647260546684265
772.0,313.0,-5.0082,-4.2431,7.6959,-0.0698,0.2053,-0.0469,-2.2372218571104945,-0.06769398599863052,4.261754512786865,-1.497239112854004,0.2848798930644989,2.1333389282226562,-0.5094674390605469,-0.013317994773387909,0.1832064688205719,-1.1818411985980433,-0.0,-0.039967529475688934,0.5559787154197693,0.0,0.007537361700087786,1.238795518875122,-0.0003069594968110323,-0.17313939332962036
772.0,313.0,-5.0082,-4.2431,7.6959,-0.0698,0.2053,-0.0469,-2.237894197503561,-0.0585918091237545,4.217868328094482,-1.4943362474441528,0.2904728353023529,2.1933884620666504,-0.5096133512309571,-0.020786229521036148,0.18027165532112122,-1.1819294134723108,-0.0,-0.03857419639825821,0.5559590458869934,0.0,0.0011394280008971691,1.2388439178466797,-0.0003655621549114585,-0.15259552001953125
772.0,313.0,-5.0082,-4.2431,7.6959,-0.0698,0.2053,-0.0469,-2.2383786640562953,-0.05868956446647644,4.2391157150268555,-1.492013931274414,0.28878942131996155,2.2087364196777344,-0.5098127883723755,-0.03017602488398552,0.18267425894737244,-1.1818612257586878,-0.0,-0.03648492321372032,0.5559911727905273,0.0,0.005505052395164967,1.2388558387756348,-0.0003042980970349163,-0.1683196723461151
772.0,313.0,-5.0082,-4.2431,7.6959,-0.0698,0.2053,-0.0469,-2.238962312737936,-0.06251554191112518,4.239926338195801,-1.4890953302383423,0.2897241711616516,2.226581573486328,-0.5102150005153199,-0.04972107708454132,0.16603736579418182,-1.1818936506854456,-5.42365319322613e-11,-0.03282462805509567,0.5559749603271484,0.0,0.010799866169691086,1.238839864730835,-0.0002646599605213851,-0.15375274419784546
772.0,313.0,-5.0082,-4.2431,7.6959,-0.0698,0.2053,-0.0469,-2.2394381962218226,-0.06543567031621933,4.256894588470459,-1.486764669418335,0.29545193910598755,2.1851325035095215,-0.5106997054866333,-0.07528834789991379,0.14897897839546204,-1.1818292776690882,-9.857222045103384e-16,-0.03749728947877884,0.5559750199317932,0.0,0.0005610703956335783,1.2387630939483643,-0.0003422357840463519,-0.18284130096435547
772.0,313.0,-5.0082,-4.2431,7.6959,-0.0698,0.2053,-0.0469,-2.2400704822936,-0.06274527311325073,4.249515533447266,-1.4837576150894165,0.29672521352767944,2.2244482040405273,-0.511683539753296,-0.10833334177732468,0.12444397807121277,-1.1818855444537562,-1.169722445390737e-21,-0.033393494784832,0.5559349060058594,0.0,0.0028386095073074102,1.2387676239013672,-0.0013128945138305426,-0.18240466713905334
690.0,264.0,-5.4443,-3.8788,7.3424,-0.0762,0.2169,-0.0557,-2.240570207635397,-0.06236407905817032,4.2325439453125,-1.4814356565475464,0.3050052523612976,2.196986198425293,-0.5126421016505738,-0.1156511977314949,0.1361643224954605,-1.1818531195269983,-2.1259126549853755e-26,-0.036141641438007355,0.5559870600700378,0.0,0.0030135386623442173,1.2387475967407227,-0.0009449449134990573,-0.17990317940711975
690.0,264.0,-5.4443,-3.8788,7.3424,-0.0762,0.2169,-0.0557,-2.2411099872984828,-0.06405682861804962,4.258164405822754,-1.4790092706680298,0.30250266194343567,2.2327914237976074,-0.5135041040233155,-0.11652278155088425,0.14369414746761322,-1.181845490132467,-3.8637408452771027e-31,-0.03736776113510132,0.5559870600700378,0.0,0.008762451820075512,1.2387595176696777,-0.0005557497497648001,-0.21781833469867706
690.0,264.0,-5.4443,-3.8788,7.3424,-0.0762,0.2169,-0.0557,-2.241786619225973,-0.06637334078550339,4.260414123535156,-1.4759299755096436,0.3064391016960144,2.238396167755127,-0.5150126975825806,-0.16265591979026794,0.10726417601108551,-1.181885067616598,-4.584967412063748e-37,-0.03965364396572113,0.5559830069541931,0.0,0.016663389280438423,1.2387111186981201,-0.0004933832096867263,-0.14666174352169037
690.0,264.0,-5.4443,-3.8788,7.3424,-0.0762,0.2169,-0.0557,-2.242286821404928,-0.05884917452931404,4.290657043457031,-1.4735362529754639,0.30210381746292114,2.218122959136963,-0.5164478582194825,-0.17492222785949707,0.10068881511688232,-1.181849781666891,-8.333521967339687e-42,-0.04016141593456268,0.5559108853340149,0.0,0.00773651571944356,1.2387193441390991,-0.0016818013973534107,-0.1259428709745407
690.0,264.0,-5.4443,-3.8788,7.3424,-0.0762,0.2169,-0.0557,-2.24279322246694,-0.05597095191478729,4.2342352867126465,-1.4705617427825928,0.2988949418067932,2.237060546875,-0.5183972877315064,-0.20763663947582245,0.11047950387001038,-1.1818578878985804,-0.0,-0.04232476279139519,0.5559590458869934,0.0,0.007144002243876457,1.238743543624878,-0.0012090024538338184,-0.18074586987495422
690.0,264.0,-5.4443,-3.8788,7.3424,-0.0762,0.2169,-0.0557,-2.243298193017477,-0.06040772423148155,4.276809215545654,-1.4681587219238281,0.29207077622413635,2.1966023445129395,-0.5202234548381348,-0.23478230834007263,0.08124840259552002,-1.1818535963641565,2.287688766955398e-05,-0.030129706487059593,0.5559349060058594,0.0,0.00344133866019547,1.2387357950210571,-0.0016596069326624274,-0.14766952395439148
690.0,264.0,-5.4443,-3.8788,7.3424,-0.0762,0.2169,-0.0557,-2.2438179455199183,-0.0635409951210022,4.2732462882995605,-1.4652079343795776,0.28607264161109924,2.2201037406921387,-0.5228840869716187,-0.28636014461517334,0.052680157124996185,-1.1818936506854456,2.0300401956774294e-05,-0.041212379932403564,0.5559030175209045,0.0,0.00981126818805933,1.238687515258789,-0.001920050010085106,-0.16896626353263855
690.0,264.0,-5.4443,-3.8788,7.3424,-0.0762,0.2169,-0.0557,-2.2442733250060023,-0.0625147745013237,4.241583824157715,-1.4628643989562988,0.2884041666984558,2.2213613986968994,-0.5251588386348267,-0.30500707030296326,0.04495562985539436,-1.1818535963641565,1.8620334230945446e-05,-0.04942725598812103,0.5559430718421936,0.0,-0.0014023298863321543,1.2387157678604126,-0.002082390710711479,-0.10446597635746002
690.0,264.0,-5.4443,-3.8788,7.3424,-0.0762,0.2169,-0.0557,-2.2449175320067347,-0.06454546004533768,4.263169288635254,-1.4599463939666748,0.2884739339351654,2.1803910732269287,-0.528268889789917,-0.3245883285999298,0.05368557199835777,-1.1818698088275355,1.6874686480150558e-05,-0.03905631601810455,0.5559511780738831,0.0,0.003959352616220713,1.2386796474456787,-0.0011035489151254296,-0.12767213582992554
690.0,264.0,-5.4443,-3.8788,7.3424,-0.0762,0.2169,-0.0557,-2.2455183468260707,-0.07129082828760147,4.345203876495361,-1.457659125328064,0.28631791472435,2.1956686973571777,-0.5310062927058716,-0.3454946279525757,0.04914707690477371,-1.1818936506854456,1.5697387425461784e-05,-0.04248852655291557,0.5559349060058594,0.0,0.0025071476120501757,1.2386431694030762,-0.0007967246929183602,-0.155890554189682
490.0,251.0,-5.3976,-3.597,6.7005,-0.0069,-0.027,-0.1405,-2.246269842187399,-0.0755053162574768,4.286081314086914,-1.4547362327575684,0.2923145592212677,2.236541748046875,-0.5346668523601075,-0.36948975920677185,0.045598775148391724,-1.181861702595846,1.443824567104457e-05,-0.04762766510248184,0.5559672713279724,0.0,-0.0014084111899137497,1.2386398315429688,-0.0009979751193895936,-0.14193353056907654
490.0,251.0,-5.3976,-3.597,6.7005,-0.0069,-0.027,-0.1405,-2.246906896630758,-0.07919938862323761,4.334406852722168,-1.45244562625885,0.2850406765937805,2.1313514709472656,-0.537647084598877,-0.39001405239105225,0.030024558305740356,-1.1818574110614222,1.5358585514491097e-08,-0.038277655839920044,0.5559830069541931,0.0,-0.0038956233765929937,1.238623857498169,-0.0026156327221542597,-0.129970982670784
490.0,251.0,-5.3976,-3.597,6.7005,-0.0069,-0.027,-0.1405,-2.2476655445494593,-0.07899601757526398,4.326954364776611,-1.4495989084243774,0.2872891426086426,2.1970102787017822,-0.5417135518840333,-0.42196813225746155,0.012547015212476254,-1.1818774382220667,1.8225497811787637e-14,-0.030414104461669922,0.5559471249580383,0.0,0.0074067506939172745,1.2386078834533691,-0.003917618189007044,-0.12916439771652222
490.0,251.0,-5.3976,-3.597,6.7005,-0.0069,-0.027,-0.1405,-2.248345514337057,-0.07802461832761765,4.314797401428223,-1.4473599195480347,0.2752176523208618,2.1922976970672607,-0.5453058046153565,-0.4459499716758728,-0.005713204853236675,-1.1818574110614222,3.312394356650022e-19,-0.05135637894272804,0.5559349060058594,0.0,0.004548841156065464,1.2384992837905884,-0.004476917441934347,-0.140167236328125
490.0,251.0,-5.3976,-3.597,6.7005,-0.0069,-0.027,-0.1405,-2.249129911462301,-0.08241631835699081,4.332846641540527,-1.4446336030960083,0.27785930037498474,2.2068228721618652,-0.5498377841762085,-0.4702664315700531,-0.017440222203731537,-1.1818774382220667,3.93070382454195e-25,-0.060516901314258575,0.5559751391410828,0.0,0.006804695352911949,1.2385079860687256,-0.004769396968185902,-0.17553222179412842
490.0,251.0,-5.3976,-3.597,6.7005,-0.0069,-0.027,-0.1405,-2.249777933160299,-0.08570482581853867,4.320107460021973,-1.4424387216567993,0.27419814467430115,2.2049522399902344,-0.5536204141429444,-0.47832420468330383,-0.010900512337684631,-1.1818698088275355,7.143859465879419e-30,-0.06156399846076965,0.5559673309326172,0.0,0.010986872017383575,1.2384800910949707,-0.006039418280124664,-0.12417758256196976
490.0,251.0,-5.3976,-3.597,6.7005,-0.0069,-0.027,-0.1405,-2.2506905994811,-0.09170406311750412,4.343678951263428,-1.4396721124649048,0.2779812812805176,2.2067532539367676,-0.5582084220698853,-0.4611682593822479,0.017244352027773857,-1.1818731466876429,8.477369806120042e-36,-0.04855692759156227,0.5559231638908386,0.0,0.004171296488493681,1.2384486198425293,-0.0057216547429561615,-0.055185042321681976
490.0,251.0,-5.3976,-3.597,6.7005,-0.0069,-0.027,-0.1405,-2.251397272149557,-0.098729707300663,4.329331874847412,-1.437391757965088,0.27592599391937256,2.207169532775879,-0.5618752998164673,-0.4478611648082733,0.007448537740856409,-1.1818731466876429,1.5407136485404931e-40,-0.06032278761267662,0.5559870004653931,0.0,0.009494009427726269,1.2384248971939087,-0.00517785781994462,-0.1082206517457962
490.0,251.0,-5.3976,-3.597,6.7005,-0.0069,-0.027,-0.1405,-2.2525302372374476,-0.10323477536439896,4.344758987426758,-1.4346091747283936,0.27547699213027954,2.201284408569336,-0.5663042825511475,-0.43048933148384094,0.02601628005504608,-1.1819136778460901,0.0,-0.0663372203707695,0.555927038192749,0.0,0.013280786573886871,1.2382961511611938,-0.0035844044759869576,-0.06964772939682007
490.0,251.0,-5.3976,-3.597,6.7005,-0.0069,-0.027,-0.1405,-2.2533379993834437,-0.09192279726266861,4.358572483062744,-1.4324501752853394,0.2724914252758026,2.189962863922119,-0.5696668189815064,-0.4099416732788086,0.04699620604515076,-1.1818612257586878,0.0,-0.06651168316602707,0.5559389591217041,0.0,-0.004211197607219219,1.2382802963256836,-0.0040549710392951965,-0.07428105175495148
458.0,244.0,-4.3944,-3.6658,7.0229,0.0403,-0.2483,-0.2381,-2.2543546162047328,-0.09818655252456665,4.423736572265625,-1.4297884702682495,0.25978267192840576,2.1825413703918457,-0.5736609858325501,-0.39066752791404724,0.04820314049720764,-1.181833569203512,0.0,-0.06724265962839127,0.5558870434761047,0.0,-0.007618608884513378,1.2382045984268188,-0.002870021155104041,-0.08644916117191315
458.0,244.0,-4.3944,-3.6658,7.0229,0.0403,-0.2483,-0.2381,-2.255129476586813,-0.10859789699316025,4.364029884338379,-1.427753210067749,0.2535332143306732,2.180459976196289,-0.5766009849360962,-0.3675251603126526,0.05352318659424782,-1.181833569203512,0.0,-0.08370885252952576,0.5559031367301941,0.0,0.02059919945895672,1.238236665725708,-0.003813331015408039,-0.09943559020757675
458.0,244.0,-4.3944,-3.6658,7.0229,0.0403,-0.2483,-0.2381,-2.256214757958883,-0.11254385113716125,4.372568130493164,-1.4252986907958984,0.2477920800447464,2.1678192615509033,-0.5799354475787659,-0.3249141275882721,0.06276709586381912,-1.181845490132467,0.0,-0.08263754844665527,0.5559511780738831,0.0,-0.0017100539989769459,1.2382047176361084,-0.004624870605766773,-0.09016692638397217
458.0,244.0,-4.3944,-3.6658,7.0229,0.0403,-0.2483,-0.2381,-2.2570983372130335,-0.10917473584413528,4.42423152923584,-1.4232832193374634,0.25537118315696716,2.1826229095458984,-0.5824218553355713,-0.2832089364528656,0.10273569822311401,-1.1818817297564905,0.0,-0.06811618059873581,0.5559673309326172,0.0,0.01282627321779728,1.2381243705749512,-0.003444303059950471,4.448555409908295e-05
458.0,244.0,-4.3944,-3.6658,7.0229,0.0403,-0.2483,-0.2381,-2.258144517938131,-0.10140865296125412,4.401700973510742,-1.4208203554153442,0.24660895764827728,2.185772180557251,-0.5850709837726136,-0.2424570769071579,0.1132340133190155,-1.181885067616598,0.0,-0.074307382106781,0.5559313297271729,0.0,-0.001950155827216804,1.2381445169448853,-0.0012490496737882495,-0.04467247799038887
458.0,244.0,-4.3944,-3.6658,7.0229,0.0403,-0.2483,-0.2381,-2.2589932880797328,-0.09643106162548065,4.480218410491943,-1.4188895225524902,0.24725915491580963,2.2215070724487305,-0.5866898459247132,-0.1920742392539978,0.13883893191814423,-1.1819332281695765,0.0,-0.08047531545162201,0.5559430122375488,0.0,-0.0036877947859466076,1.2381527423858643,-0.000785857904702425,-0.0185809675604105
458.0,244.0,-4.3944,-3.6658,7.0229,0.0403,-0.2483,-0.2381,-2.260045667687887,-0.09937672317028046,4.404842853546143,-1.4164705276489258,0.2288634032011032,2.1346793174743652,-0.5882138770869751,-0.12788353860378265,0.1663593351840973,-1.1818292776690882,0.0,-0.0787651389837265,0.5559510588645935,0.0,-0.002761855721473694,1.2380924224853516,-0.0021281675435602665,-0.02677363157272339
458.0,244.0,-4.3944,-3.6658,7.0229,0.0403,-0.2483,-0.2381,-2.2607885799803675,-0.10410904884338379,4.375840187072754,-1.4147108793258667,0.2214568704366684,2.158737897872925,-0.5888792437366028,-0.051898565143346786,0.2112765610218048,-1.1818531195269983,0.0,-0.07454006373882294,0.5559831261634827,0.0,0.005507607012987137,1.2380928993225098,-0.0037898432929068804,-0.09582284092903137
458.0,244.0,-4.3944,-3.6658,7.0229,0.0403,-0.2483,-0.2381,-2.2617608509459437,-0.10376372933387756,4.398859024047852,-1.4125481843948364,0.22171247005462646,2.129103183746338,-0.5889703792384644,0.010752826929092407,0.23272207379341125,-1.181873623524801,0.0,-0.08757302165031433,0.5558670163154602,0.0,0.0035819667391479015,1.2381212711334229,-0.0032315158750861883,-0.02780209667980671
458.0,244.0,-4.3944,-3.6658,7.0229,0.0403,-0.2483,-0.2381,-2.2625566921629847,-0.09920068085193634,4.409339427947998,-1.4107812643051147,0.21510951220989227,2.1253323554992676,-0.5888066452792664,0.02958599478006363,0.24250365793704987,-1.181885067616598,0.0,-0.07276079058647156,0.5559389591217041,0.0,0.0007398516172543168,1.238036870956421,-0.0012688500573858619,-0.03902009502053261
642.0,253.0,-3.0855,-4.0995,7.3777,-0.0683,0.0496,-0.087,-2.2633053265013636,-0.08410374820232391,4.418811798095703,-1.4090476036071777,0.2149970978498459,2.135319232940674,-0.5886514943889161,0.03840489313006401,0.2597036361694336,-1.1819012800799769,0.0,-0.07657396793365479,0.5559831857681274,0.0,0.0033432221971452236,1.238040566444397,-0.000549351389054209,0.01518993079662323
642.0,253.0,-3.0855,-4.0995,7.3777,-0.0683,0.0496,-0.087,-2.2641245327391566,-0.07999984174966812,4.454102516174316,-1.4070411920547485,0.21088746190071106,2.1873974800109863,-0.5883320730975647,0.032904770225286484,0.25953301787376404,-1.1819255987750452,0.0,-0.08561381697654724,0.5559189915657043,0.0,0.0070281121879816055,1.2380446195602417,-0.0004070948052685708,-0.025343680754303932
642.0,253.0,-3.0855,-4.0995,7.3777,-0.0683,0.0496,-0.087,-2.26486935238027,-0.08730891346931458,4.396866798400879,-1.4053586721420288,0.19488830864429474,2.100687265396118,-0.5882126253894349,0.013123460114002228,0.23972788453102112,-1.1819093863116663,0.0,-0.07305741310119629,0.5559870004653931,0.0,0.0023239089641720057,1.2380605936050415,-0.0004162722616456449,-0.02746385708451271
642.0,253.0,-3.0855,-4.0995,7.3777,-0.0683,0.0496,-0.087,-2.265628000298971,-0.08472764492034912,4.448207855224609,-1.4033702611923218,0.18824782967567444,2.123647451400757,-0.5881805580905457,-0.0034097167663276196,0.23199525475502014,-1.181896988545553,0.0,-0.07853128015995026,0.5559670925140381,0.0,-0.0014627170749008656,1.2380409240722656,-0.0026790276169776917,-0.005663594231009483
642.0,253.0,-3.0855,-4.0995,7.3777,-0.0683,0.0496,-0.087,-2.266292711297506,-0.07641639560461044,4.4530487060546875,-1.401843786239624,0.18407398462295532,2.0580520629882812,-0.5882085126689454,-0.001401706482283771,0.24297013878822327,-1.1818254629718226,0.0,-0.08723697066307068,0.5559111833572388,0.0,0.004766614641994238,1.2379605770111084,-0.0030760366935282946,-0.09059299528598785
642.0,253.0,-3.0855,-4.0995,7.3777,-0.0683,0.0496,-0.087,-2.2669836483397425,-0.06641437858343124,4.488962173461914,-1.4001120328903198,0.176876500248909,2.0882551670074463,-0.5882079762271424,-0.0007021958008408546,0.23155495524406433,-1.181873623524801,0.0,-0.08084852993488312,0.555955171585083,0.0,0.008563152514398098,1.2379765510559082,-0.0008733749273233116,-0.06091490387916565
642.0,253.0,-3.0855,-4.0995,7.3777,-0.0683,0.0496,-0.087,-2.2675725422301234,-0.06696316599845886,4.458772659301758,-1.3986726999282837,0.16903342306613922,2.1175146102905273,-0.5882609051517029,-0.0014639731962233782,0.24027596414089203,-1.1818812529193323,0.0,-0.07563662528991699,0.5559470057487488,0.0,0.005640135612338781,1.238017201423645,-0.00012195842282380909,-0.012138440273702145
642.0,253.0,-3.0855,-4.0995,7.3777,-0.0683,0.0496,-0.087,-2.268241067925924,-0.06768550723791122,4.427639961242676,-1.3970391750335693,0.1580580323934555,2.067538022994995,-0.5882644814303895,-0.0008401506347581744,0.22711792588233948,-1.1819136778460901,0.0,-0.08270052075386047,0.5559070706367493,0.0,0.021287107840180397,1.2379889488220215,-0.0002600420266389847,-0.037818919867277145
642.0,253.0,-3.0855,-4.0995,7.3777,-0.0683,0.0496,-0.087,-2.268752714196676,-0.061636198312044144,4.449596405029297,-1.395884394645691,0.1470182090997696,2.0897295475006104,-0.5883166354945679,-0.000668659049551934,0.2338337004184723,-1.181845490132467,0.0,-0.07078929990530014,0.5559790730476379,0.0,0.006365515291690826,1.2379528284072876,-0.0021423231810331345,-0.045004233717918396
642.0,253.0,-3.0855,-4.0995,7.3777,-0.0683,0.0496,-0.087,-2.2692514858641566,-0.05230967327952385,4.476109504699707,-1.3943893909454346,0.1446988731622696,2.0703158378601074,-0.588328556423523,-0.0005948576726950705,0.22474853694438934,-1.181885067616598,0.0,-0.06185996159911156,0.5559790134429932,0.0,-0.008551147766411304,1.2379287481307983,-0.0031682238914072514,-0.05509769916534424
678.0,236.0,-5.1111,-3.9541,7.7839,-0.0522,0.1371,-0.095,-2.2696758709349574,-0.047700826078653336,4.451622009277344,-1.3932535648345947,0.13886655867099762,2.0157480239868164,-0.5883125227740784,-0.0005005556740798056,0.22233182191848755,-1.1819012800799769,0.0,-0.06887611001729965,0.5559031367301941,0.0,0.0059621939435601234,1.237932801246643,-0.0037460364401340485,-0.0864565521478653
678.0,236.0,-5.1111,-3.9541,7.7839,-0.0522,0.1371,-0.095,-2.2701031170287074,-0.04795429855585098,4.5093865394592285,-1.3919227123260498,0.132392019033432,2.1028006076812744,-0.5882883828929444,-0.00042997041600756347,0.2201772928237915,-1.1818531195269983,0.0,-0.0659903734922409,0.5559592247009277,0.0,-0.007237963378429413,1.237901210784912,-0.002466225763782859,-0.061255887150764465
678.0,236.0,-5.1111,-3.9541,7.7839,-0.0522,0.1371,-0.095,-2.270487447778219,-0.047901540994644165,4.489941596984863,-1.3909999132156372,0.12228786200284958,2.0200226306915283,-0.5882964891246338,-0.0003804247244261205,0.2243858277797699,-1.1818936506854456,0.0,-0.06404070556163788,0.5560271143913269,0.0,0.009723255410790443,1.2379175424575806,-0.00263019185513258,-0.07278181612491608
678.0,236.0,-5.1111,-3.9541,7.7839,-0.0522,0.1371,-0.095,-2.2709232769408167,-0.043603189289569855,4.474642753601074,-1.3897957801818848,0.11554994434118271,1.988066554069519,-0.588320330982544,-0.0003312802582513541,0.22454778850078583,-1.1819093863116663,0.0,-0.056531742215156555,0.5559950470924377,0.0,-0.008650826290249825,1.2378613948822021,-0.0039551882073283195,-0.07102692127227783
678.0,236.0,-5.1111,-3.9541,7.7839,-0.0522,0.1371,-0.095,-2.2712794742979945,-0.042051542550325394,4.451607704162598,-1.388914942741394,0.11423153430223465,2.0376007556915283,-0.5883198541453858,-0.0008539604605175555,0.2244740128517151,-1.1818812529193323,0.0,-0.06519894301891327,0.5559592843055725,0.0,0.004989755805581808,1.237781047821045,-0.004326922353357077,-0.08712774515151978
678.0,236.0,-5.1111,-3.9541,7.7839,-0.0522,0.1371,-0.095,-2.271691461602682,-0.0417787991464138,4.484328269958496,-1.387731671333313,0.1123431846499443,2.027268409729004,-0.5883484047702332,-0.002211666898801923,0.21346592903137207,-1.1819136778460901,0.0,-0.060730576515197754,0.5559191107749939,0.0,0.00020140386186540127,1.2377855777740479,-0.004573563113808632,-0.06949122250080109
