ramyac6/ROB537/final_project/csv/bad/bad_54.csv
tof_0,tof_1,accelx,accely,accelz,gyrox,gyroy,gyroz,shoulder_lift_joint_position,shoulder_lift_joint_velocity,shoulder_lift_joint_effort,elbow_joint_position,elbow_joint_velocity,elbow_joint_effort,wrist_1_joint_position,wrist_1_joint_velocity,wrist_1_joint_effort,wrist_2_joint_position,wrist_2_joint_velocity,wrist_2_joint_effort,wrist_3_joint_position,wrist_3_joint_velocity,wrist_3_joint_effort,shoulder_pan_joint_position,shoulder_pan_joint_velocity,shoulder_pan_joint_effort
203.0,231.0,1.7976,-2.1523,8.9031,-0.0348,0.0264,-0.1185,-1.8037950001158656,0.0,3.1019110679626465,-1.6300898790359497,-0.0,2.094302177429199,4.669436140651367,-0.0,0.314469575881958,-1.5456541220294397,0.0,0.0005211207317188382,1.468185305595398,0.0,0.0019944512750953436,0.8144062757492065,0.0,-0.022587543353438377
203.0,231.0,1.7976,-2.1523,8.9031,-0.0348,0.0264,-0.1185,-1.8037673435606898,0.0,3.0897998809814453,-1.6300939321517944,-0.0,2.122619152069092,4.669464750880859,-0.0,0.29903313517570496,-1.545678440724508,0.0,-0.017071247100830078,1.4681812524795532,0.0,0.00403308542445302,0.8144304752349854,0.0,-0.004475711844861507
203.0,231.0,1.7976,-2.1523,8.9031,-0.0348,0.0264,-0.1185,-1.8037306270995082,0.0,3.1639223098754883,-1.6301181316375732,-0.0,2.101710796356201,4.669472380275391,-0.0,0.2984726130962372,-1.5456541220294397,0.0,0.00030871713533997536,1.4682890176773071,0.0,-0.002127945190295577,0.8144104480743408,0.0,-0.020898617804050446
203.0,231.0,1.7976,-2.1523,8.9031,-0.0348,0.0264,-0.1185,-1.8038155041136683,0.0,3.1433324813842773,-1.6300981044769287,-0.0,2.1096889972686768,4.6694604593464355,-0.0,0.30124419927597046,-1.5456708113299769,0.0,-0.011281175538897514,1.4682011604309082,0.0,-0.004237174056470394,0.8143983483314514,0.0,-0.02860483154654503
203.0,231.0,1.7976,-2.1523,8.9031,-0.0348,0.0264,-0.1185,-1.8038436375060023,0.0,3.1277785301208496,-1.630174160003662,-0.0,2.1900510787963867,4.66944853841748,-0.0,0.3093133568763733,-1.5456340948687952,0.0,-0.01701817847788334,1.4681812524795532,0.0,-0.007959804497659206,0.8143578171730042,0.0,0.011370008811354637
203.0,231.0,1.7976,-2.1523,8.9031,-0.0348,0.0264,-0.1185,-1.8038517437376917,0.0,3.123593330383301,-1.630086064338684,-0.0,2.105955123901367,4.6695167261311035,-0.0,0.2961276173591614,-1.5457070509540003,0.0,0.0030694480519741774,1.46812105178833,0.0,-0.008579504676163197,0.8144145011901855,0.0,0.028147133067250252
203.0,231.0,1.7976,-2.1523,8.9031,-0.0348,0.0264,-0.1185,-1.8037668667235316,0.0,3.1634082794189453,-1.6301501989364624,-0.0,2.1292808055877686,4.669496698970459,-0.0,0.3017691671848297,-1.5456660429583948,0.0,-0.001281311851926148,1.468228816986084,0.0,0.004596813581883907,0.8144104480743408,0.0,-0.01646300032734871
203.0,231.0,1.7976,-2.1523,8.9031,-0.0348,0.0264,-0.1185,-1.8038236103453578,0.0,3.13387393951416,-1.6301223039627075,-0.0,2.1279687881469727,4.669464750880859,-0.0,0.29040777683258057,-1.5456140677081507,0.0,0.00411777151748538,1.4681495428085327,0.0,0.00726368697360158,0.8143823742866516,0.0,-0.054116085171699524
203.0,231.0,1.7976,-2.1523,8.9031,-0.0348,0.0264,-0.1185,-1.803763052026266,0.0,3.126546859741211,-1.6301181316375732,-0.0,2.1279196739196777,4.669492407436035,-0.0,0.2982417047023773,-1.5456388632403772,0.0,-0.0100876335054636,1.4682090282440186,0.0,-0.014073566533625126,0.8144024610519409,0.0,-0.008599311113357544
192.0,231.0,1.6965,-2.2134,9.1232,-0.042,0.0244,-0.1147,-1.8037911854186,0.0,3.058448314666748,-1.6301501989364624,-0.0,2.1646456718444824,4.66948048650708,-0.0,0.30169305205345154,-1.545682732258932,0.0,-0.01762547716498375,1.468220829963684,0.0,0.006318695843219757,0.8144145011901855,0.0,0.006233851425349712
192.0,231.0,1.6965,-2.2134,9.1232,-0.042,0.0244,-0.1147,-1.8037549457945765,0.0,3.1158628463745117,-1.6301182508468628,-0.0,2.0872976779937744,4.669423742885254,-0.0,0.29444998502731323,-1.545626465474264,0.0,-0.003532170783728361,1.4681330919265747,0.0,0.0063857934437692165,0.8144104480743408,0.0,-0.02969197742640972
192.0,231.0,1.6965,-2.2134,9.1232,-0.042,0.0244,-0.1147,-1.803803106347555,0.0,3.093101978302002,-1.6301223039627075,-0.0,2.1125855445861816,4.669440432185791,-0.0,0.30739322304725647,-1.545626465474264,0.0,-0.006510105449706316,1.468208909034729,0.0,0.0010998583165928721,0.8144145011901855,0.0,-0.014847565442323685
192.0,231.0,1.6965,-2.2134,9.1232,-0.042,0.0244,-0.1147,-1.8038155041136683,0.0,3.1218926906585693,-1.6301259994506836,-0.0,2.1317763328552246,4.66948048650708,-0.0,0.30752265453338623,-1.5456703344928187,0.0,-0.01724429242312908,1.4681456089019775,0.0,-0.005075986497104168,0.8144264221191406,0.0,-0.025979265570640564
192.0,231.0,1.6965,-2.2134,9.1232,-0.042,0.0244,-0.1147,-1.8038355312743128,0.0,3.1144466400146484,-1.6301419734954834,-0.0,2.1345114707946777,4.66942469655957,-0.0,0.30376309156417847,-1.5456464926349085,0.0,0.0017719161696732044,1.4682090282440186,0.0,-0.00023052352480590343,0.8144264221191406,0.0,0.012724102474749088
192.0,231.0,1.6965,-2.2134,9.1232,-0.042,0.0244,-0.1147,-1.803774972955221,0.0,3.143026351928711,-1.6300902366638184,-0.0,2.1211912631988525,4.669492407436035,-0.0,0.30051252245903015,-1.5456541220294397,0.0,-0.009805642999708652,1.4682010412216187,0.0,-0.014917763881385326,0.8144065141677856,0.0,0.019428666681051254
192.0,231.0,1.6965,-2.2134,9.1232,-0.042,0.0244,-0.1147,-1.803774972955221,0.0,3.1023030281066895,-1.6300902366638184,-0.0,2.116316556930542,4.669484778041504,-0.0,0.3112775385379791,-1.5456541220294397,0.0,-0.004281282424926758,1.468153476715088,0.0,-0.01557067595422268,0.8144145011901855,0.0,-0.012082735076546669
192.0,231.0,1.6965,-2.2134,9.1232,-0.042,0.0244,-0.1147,-1.8038398228087367,0.0,3.097311019897461,-1.6300500631332397,-0.0,2.0893468856811523,4.669416590327881,-0.0,0.3080320954322815,-1.545666519795553,0.0,-0.013950591906905174,1.4681851863861084,0.0,-0.005187733098864555,0.8144752979278564,0.0,0.03972414880990982
192.0,231.0,1.6965,-2.2134,9.1232,-0.042,0.0244,-0.1147,-1.8038112125792445,0.0,3.165296792984009,-1.6301063299179077,-0.0,2.11053466796875,4.66944853841748,-0.0,0.3049739599227905,-1.5456746260272425,0.0,-0.002916281810030341,1.468216896057129,0.0,0.008425731211900711,0.8144062757492065,0.0,0.00357027817517519
192.0,231.0,1.6965,-2.2134,9.1232,-0.042,0.0244,-0.1147,-1.803774972955221,0.0,3.1180670261383057,-1.6301542520523071,-0.0,2.14206862449646,4.669423742885254,-0.0,0.2980555593967438,-1.5456422011004847,0.0,0.0034828975331038237,1.4681252241134644,0.0,0.00045816367492079735,0.8144629597663879,0.0,-0.016770698130130768
192.0,231.0,1.6965,-2.2134,9.1232,-0.042,0.0244,-0.1147,-1.8037830791869105,0.0,3.1143946647644043,-1.6301219463348389,-0.0,2.1597867012023926,4.669423742885254,-0.0,0.29065221548080444,-1.5456422011004847,0.0,-0.008683674968779087,1.4682129621505737,0.0,0.0006209644488990307,0.8143864870071411,0.0,-0.025317810475826263
192.0,231.0,1.6965,-2.2134,9.1232,-0.042,0.0244,-0.1147,-1.8037911854186,0.0,3.1324589252471924,-1.630061388015747,-0.0,2.112656831741333,4.669484778041504,-0.0,0.3004618287086487,-1.5456584135638636,0.0,-0.01443009078502655,1.4682010412216187,0.0,-0.009890923276543617,0.8144145011901855,0.0,0.008206791244447231
192.0,231.0,1.6965,-2.2134,9.1232,-0.042,0.0244,-0.1147,-1.8037988148131312,0.0,3.148688554763794,-1.6301063299179077,-0.0,2.133585214614868,4.669468088740967,-0.0,0.2932640314102173,-1.5456422011004847,0.0,-0.011599326506257057,1.4682605266571045,0.0,-0.017138922587037086,0.8144062757492065,0.0,0.0003154654987156391
192.0,231.0,1.6965,-2.2134,9.1232,-0.042,0.0244,-0.1147,-1.8038112125792445,0.0,3.1051578521728516,-1.6301501989364624,-0.0,2.124844551086426,4.66948048650708,-0.0,0.2929362952709198,-1.5456584135638636,0.0,-0.0239592082798481,1.4681812524795532,0.0,0.0011103980941697955,0.814474880695343,0.0,-0.011375564150512218
192.0,231.0,1.6965,-2.2134,9.1232,-0.042,0.0244,-0.1147,-1.8037711582579554,0.0,3.113219976425171,-1.630094289779663,-0.0,2.1696672439575195,4.66948048650708,-0.0,0.30044108629226685,-1.545666519795553,0.0,-0.008303061127662659,1.468197226524353,0.0,-0.0036878776736557484,0.8144345879554749,0.0,-0.026837822049856186
192.0,231.0,1.6965,-2.2134,9.1232,-0.042,0.0244,-0.1147,-1.8037911854186,0.0,3.1338248252868652,-1.6300612688064575,-0.0,2.1042368412017822,4.669500513667725,-0.0,0.28709957003593445,-1.545678440724508,0.0,0.004075788427144289,1.4681930541992188,0.0,-0.0012999498285353184,0.814454972743988,0.0,0.03315162658691406
192.0,231.0,1.6965,-2.2134,9.1232,-0.042,0.0244,-0.1147,-1.8038073978819789,0.0,3.111541986465454,-1.630122423171997,-0.0,2.11275315284729,4.669496698970459,-0.0,0.2996051013469696,-1.545678440724508,0.0,-0.011686256155371666,1.468165397644043,0.0,-0.013358503580093384,0.8144104480743408,0.0,-0.027277257293462753
187.0,215.0,1.7282,-2.2044,9.0826,-0.0392,0.0209,-0.1139,-1.8037668667235316,0.0,3.09806227684021,-1.6301223039627075,-0.0,2.16343092918396,4.669472380275391,-0.0,0.3000100255012512,-1.545666519795553,0.0,-0.023365896195173264,1.468165397644043,0.0,-0.008483467623591423,0.8144264221191406,0.0,-0.015046191401779652
187.0,215.0,1.7282,-2.2044,9.0826,-0.0392,0.0209,-0.1139,-1.8037673435606898,0.0,3.1359004974365234,-1.6301181316375732,-0.0,2.0976061820983887,4.6694885927387695,-0.0,0.29383957386016846,-1.5456422011004847,0.0,0.007765565067529678,1.4682209491729736,0.0,0.0006129278335720301,0.8143901228904724,0.0,-0.036562591791152954
187.0,215.0,1.7282,-2.2044,9.0826,-0.0392,0.0209,-0.1139,-1.8038197956480921,0.0,3.10361385345459,-1.6301223039627075,-0.0,2.1426329612731934,4.669472857112549,-0.0,0.2961062788963318,-1.5456464926349085,0.0,-0.011974109336733818,1.4682049751281738,0.0,0.009565901942551136,0.8144024610519409,0.0,-0.028409630060195923
187.0,215.0,1.7282,-2.2044,9.0826,-0.0392,0.0209,-0.1139,-1.8037911854186,0.0,3.095670700073242,-1.6300981044769287,-0.0,2.1200990676879883,4.669472380275391,-0.0,0.30539095401763916,-1.5456746260272425,0.0,-0.003341070841997862,1.4682010412216187,0.0,-0.0037906719371676445,0.814402163028717,0.0,0.020971421152353287
187.0,215.0,1.7282,-2.2044,9.0826,-0.0392,0.0209,-0.1139,-1.8037988148131312,0.0,3.137105941772461,-1.630134105682373,-0.0,2.0991644859313965,4.669484778041504,-0.0,0.29469630122184753,-1.5456021467791956,0.0,-0.005851248279213905,1.4681732654571533,0.0,-0.0005363027448765934,0.814402163028717,0.0,0.00017764302901923656
187.0,215.0,1.7282,-2.2044,9.0826,-0.0392,0.0209,-0.1139,-1.803774972955221,0.0,3.142690658569336,-1.630061388015747,-0.0,2.1305997371673584,4.669484301204346,-0.0,0.2954555153846741,-1.545638386403219,0.0,-0.016959551721811295,1.4681693315505981,0.0,0.002073397859930992,0.8144629597663879,0.0,-0.03034917078912258
187.0,215.0,1.7282,-2.2044,9.0826,-0.0392,0.0209,-0.1139,-1.8038236103453578,0.0,3.1363513469696045,-1.6301259994506836,-0.0,2.1304352283477783,4.669440432185791,-0.0,0.2914734482765198,-1.5456302801715296,0.0,-0.010462388396263123,1.4681851863861084,0.0,0.0019199971575289965,0.8144345879554749,0.0,0.03816290572285652
187.0,215.0,1.7282,-2.2044,9.0826,-0.0392,0.0209,-0.1139,-1.8037787876524867,0.0,3.1563525199890137,-1.6301424503326416,-0.0,2.1360127925872803,4.669492407436035,-0.0,0.3074989914894104,-1.5456703344928187,0.0,0.006346568465232849,1.4681891202926636,0.0,0.010462714359164238,0.814418613910675,0.0,0.0025628404691815376
187.0,215.0,1.7282,-2.2044,9.0826,-0.0392,0.0209,-0.1139,-1.8038436375060023,0.0,3.104856491088867,-1.630069613456726,-0.0,2.1067745685577393,4.6694885927387695,-0.0,0.30020105838775635,-1.5456541220294397,0.0,-0.002707016421481967,1.4681456089019775,0.0,-0.0002551343641243875,0.814418613910675,0.0,0.003909230697900057
187.0,215.0,1.7282,-2.2044,9.0826,-0.0392,0.0209,-0.1139,-1.8038112125792445,0.0,3.102518320083618,-1.6301383972167969,-0.0,2.1470913887023926,4.669448061580322,-0.0,0.30054593086242676,-1.545666519795553,0.0,-0.006134522147476673,1.4681892395019531,0.0,0.00634791050106287,0.8143983483314514,0.0,0.014792362228035927
187.0,215.0,1.7282,-2.2044,9.0826,-0.0392,0.0209,-0.1139,-1.8038112125792445,0.0,3.1252193450927734,-1.6301181316375732,-0.0,2.1068930625915527,4.669444246883057,-0.0,0.29513102769851685,-1.5456584135638636,0.0,-0.009643555618822575,1.4682090282440186,0.0,0.000884425186086446,0.8144304156303406,0.0,0.040802326053380966
187.0,215.0,1.7282,-2.2044,9.0826,-0.0392,0.0209,-0.1139,-1.80385222057485,0.0,3.110757350921631,-1.6301021575927734,-0.0,2.168393850326538,4.669476671809814,-0.0,0.30808892846107483,-1.5456708113299769,0.0,-0.007578346878290176,1.468177080154419,0.0,-0.000810758676379919,0.8143823742866516,0.0,0.021714365109801292
187.0,215.0,1.7282,-2.2044,9.0826,-0.0392,0.0209,-0.1139,-1.8037835560240687,0.0,3.141916275024414,-1.6300902366638184,-0.0,2.1571035385131836,4.66944853841748,-0.0,0.3191070854663849,-1.545678440724508,0.0,-0.007064983248710632,1.4681812524795532,0.0,-0.0032634532544761896,0.8144264221191406,0.0,0.021909739822149277
187.0,215.0,1.7282,-2.2044,9.0826,-0.0392,0.0209,-0.1139,-1.8037988148131312,0.0,3.0902509689331055,-1.6301181316375732,-0.0,2.135552167892456,4.6694604593464355,-0.0,0.31196117401123047,-1.5456221739398401,0.0,-0.002364607760682702,1.4681971073150635,0.0,-0.01018990483134985,0.8144427537918091,0.0,-0.008395085111260414
187.0,215.0,1.7282,-2.2044,9.0826,-0.0392,0.0209,-0.1139,-1.8038155041136683,0.0,3.1049447059631348,-1.6301465034484863,-0.0,2.138740062713623,4.669428034419678,-0.0,0.31076255440711975,-1.5456503073321741,0.0,0.006102299317717552,1.4681365489959717,0.0,-0.00888216495513916,0.8143864870071411,0.0,-0.009072124026715755
187.0,215.0,1.7282,-2.2044,9.0826,-0.0392,0.0209,-0.1139,-1.8037911854186,0.0,3.1573948860168457,-1.630094051361084,-0.0,2.0867443084716797,4.669452353114746,-0.0,0.2969586253166199,-1.545610253010885,0.0,0.0017070481553673744,1.4681811332702637,0.0,-0.0019022750202566385,0.8144065737724304,0.0,0.04353301227092743
187.0,215.0,1.7282,-2.2044,9.0826,-0.0392,0.0209,-0.1139,-1.8038112125792445,0.0,3.1519525051116943,-1.6301259994506836,-0.0,2.104778528213501,4.66944853841748,-0.0,0.2976177930831909,-1.545666519795553,0.0,-0.0018149311654269695,1.4681971073150635,0.0,-0.006684287451207638,0.814418613910675,0.0,0.07173597812652588
187.0,215.0,1.7282,-2.2044,9.0826,-0.0392,0.0209,-0.1139,-1.8038236103453578,0.0,3.1133816242218018,-1.6301100254058838,-0.0,2.167713165283203,4.669436140651367,-0.0,0.3077707290649414,-1.5456746260272425,0.0,-0.004103451035916805,1.4682295322418213,0.0,-0.0006808541947975755,0.814418613910675,0.0,-0.009141357615590096
198.0,231.0,1.7264,-2.2116,9.0879,-0.0325,0.0254,-0.1177,-1.8038073978819789,0.0,3.144526958465576,-1.6300417184829712,-0.0,2.1256027221679688,4.669484301204346,-0.0,0.3059310019016266,-1.5456746260272425,0.0,0.0014715571887791157,1.4681572914123535,0.0,-0.0011851070448756218,0.8144547343254089,0.0,0.05505383759737015
198.0,231.0,1.7264,-2.2116,9.0879,-0.0325,0.0254,-0.1177,-1.803803106347555,0.0,3.131866931915283,-1.6300981044769287,-0.0,2.108928680419922,4.6694604593464355,-0.0,0.2972474694252014,-1.5456021467791956,0.0,-0.00014998367987573147,1.4681851863861084,0.0,-0.005897647701203823,0.8143823146820068,0.0,0.0040958113968372345
198.0,231.0,1.7264,-2.2116,9.0879,-0.0325,0.0254,-0.1177,-1.8038436375060023,0.0,3.100529193878174,-1.6301223039627075,-0.0,2.086550712585449,4.669423742885254,-0.0,0.30269432067871094,-1.5456703344928187,0.0,-0.0014703640481457114,1.468177080154419,0.0,0.009036310017108917,0.8144629597663879,0.0,3.6063720472157e-06
198.0,231.0,1.7264,-2.2116,9.0879,-0.0325,0.0254,-0.1177,-1.8037711582579554,0.0,3.1134848594665527,-1.6301140785217285,-0.0,2.133375644683838,4.669456167812012,-0.0,0.29373353719711304,-1.5456422011004847,0.0,-0.020769231021404266,1.4682213068008423,0.0,-0.006716985255479813,0.8144711852073669,0.0,-0.032010313123464584
198.0,231.0,1.7264,-2.2116,9.0879,-0.0325,0.0254,-0.1177,-1.8037711582579554,0.0,3.1465835571289062,-1.6301223039627075,-0.0,2.115269184112549,4.669436140651367,-0.0,0.30180472135543823,-1.5456183592425745,0.0,-0.004542381037026644,1.4681650400161743,0.0,0.00021062232553958893,0.8143823742866516,0.0,-0.04961138963699341
198.0,231.0,1.7264,-2.2116,9.0879,-0.0325,0.0254,-0.1177,-1.8037992916502894,0.0,3.141695261001587,-1.6301259994506836,-0.0,2.1486430168151855,4.669476671809814,-0.0,0.3092845678329468,-1.545638386403219,0.0,0.009580974467098713,1.4681243896484375,0.0,-0.001546796876937151,0.8144468069076538,0.0,-0.03796419873833656
198.0,231.0,1.7264,-2.2116,9.0879,-0.0325,0.0254,-0.1177,-1.803774972955221,0.0,3.1398191452026367,-1.6301263570785522,-0.0,2.1013479232788086,4.669456167812012,-0.0,0.29873162508010864,-1.5456340948687952,0.0,0.0058556790463626385,1.4681811332702637,0.0,-0.00852290727198124,0.8143942952156067,0.0,0.027209775522351265
198.0,231.0,1.7264,-2.2116,9.0879,-0.0325,0.0254,-0.1177,-1.8038073978819789,0.0,3.146481990814209,-1.6301379203796387,-0.0,2.1583261489868164,4.669456167812012,-0.0,0.2888503968715668,-1.5456627050982874,0.0,-0.007981481961905956,1.4682090282440186,0.0,-6.804883014410734e-05,0.814418613910675,0.0,-0.02849281206727028
198.0,231.0,1.7264,-2.2116,9.0879,-0.0325,0.0254,-0.1177,-1.8038555584349574,0.0,3.1043648719787598,-1.6300697326660156,-0.0,2.1263668537139893,4.66945664464917,-0.0,0.2964214086532593,-1.545694653187887,0.0,-7.335538975894451e-05,1.468177080154419,0.0,0.0002488169993739575,0.8144468069076538,0.0,0.00863664597272873
198.0,231.0,1.7264,-2.2116,9.0879,-0.0325,0.0254,-0.1177,-1.803803106347555,0.0,3.10353422164917,-1.6301542520523071,-0.0,2.1405320167541504,4.669464750880859,-0.0,0.3046244978904724,-1.545654598866598,0.0,-0.005619285628199577,1.4682213068008423,0.0,-0.00021504471078515053,0.8143942952156067,0.0,-0.02638024464249611
198.0,231.0,1.7264,-2.2116,9.0879,-0.0325,0.0254,-0.1177,-1.8038197956480921,0.0,3.1305174827575684,-1.630094051361084,-0.0,2.180269241333008,4.669460936183594,-0.0,0.3033607602119446,-1.5455978552447718,0.0,0.0032717890571802855,1.4682011604309082,0.0,-0.0015076398849487305,0.814418613910675,0.0,-0.005247917957603931
198.0,231.0,1.7264,-2.2116,9.0879,-0.0325,0.0254,-0.1177,-1.8037988148131312,0.0,3.0967838764190674,-1.630134105682373,-0.0,2.0783016681671143,4.669408484096191,-0.0,0.29719018936157227,-1.5456865469561976,0.0,-0.0008513900684192777,1.468185305595398,0.0,-0.008425824344158173,0.814402163028717,0.0,0.0022846367210149765
198.0,231.0,1.7264,-2.2116,9.0879,-0.0325,0.0254,-0.1177,-1.8038155041136683,0.0,3.1540849208831787,-1.630057454109192,-0.0,2.1237006187438965,4.669472380275391,-0.0,0.3014290928840637,-1.5456584135638636,0.0,-0.004793775267899036,1.4681930541992188,0.0,-0.0076504237949848175,0.8144104480743408,0.0,0.027041787281632423
198.0,231.0,1.7264,-2.2116,9.0879,-0.0325,0.0254,-0.1177,-1.8038236103453578,0.0,3.0644617080688477,-1.6301103830337524,-0.0,2.106718063354492,4.669504805202148,-0.0,0.29443857073783875,-1.5456460157977503,0.0,-0.0005964338779449463,1.4681611061096191,0.0,0.008566824719309807,0.8144065141677856,0.0,0.0528097078204155
198.0,231.0,1.7264,-2.2116,9.0879,-0.0325,0.0254,-0.1177,-1.8038073978819789,0.0,3.155808925628662,-1.6300981044769287,-0.0,2.132963180541992,4.6695167261311035,-0.0,0.3022277355194092,-1.5456541220294397,0.0,0.011111096478998661,1.4681692123413086,0.0,-0.0015477879205718637,0.8143900632858276,0.0,0.02572011575102806
198.0,231.0,1.7264,-2.2116,9.0879,-0.0325,0.0254,-0.1177,-1.8037988148131312,0.0,3.153191566467285,-1.6300899982452393,-0.0,2.176563262939453,4.669423742885254,-0.0,0.29351645708084106,-1.5456588904010218,0.0,-0.002979661338031292,1.4681930541992188,0.0,0.010718376375734806,0.8144305348396301,0.0,-0.017526283860206604
198.0,231.0,1.7264,-2.2116,9.0879,-0.0325,0.0254,-0.1177,-1.8037392101683558,0.0,3.0644326210021973,-1.630086064338684,-0.0,2.1095082759857178,4.669420405025146,-0.0,0.28516364097595215,-1.545666519795553,0.0,-0.008166886866092682,1.4681811332702637,0.0,-0.005401520989835262,0.8144147992134094,0.0,0.030421581119298935
193.0,219.0,1.6875,-2.2469,9.1687,-0.0325,0.0284,-0.1211,-1.8037988148131312,0.0,3.090864419937134,-1.6300779581069946,-0.0,2.132941961288452,4.66945664464917,-0.0,0.30245348811149597,-1.5456584135638636,0.0,-0.012019766494631767,1.468189001083374,0.0,0.0022340340074151754,0.8143578171730042,0.0,0.017618397250771523
193.0,219.0,1.6875,-2.2469,9.1687,-0.0325,0.0284,-0.1211,-1.8037668667235316,0.0,3.1258320808410645,-1.6301259994506836,-0.0,2.130117893218994,4.6694604593464355,-0.0,0.30178773403167725,-1.545678440724508,0.0,-0.004894970916211605,1.4682132005691528,0.0,-0.004327667411416769,0.814410388469696,0.0,0.024494169279932976
193.0,219.0,1.6875,-2.2469,9.1687,-0.0325,0.0284,-0.1211,-1.8038155041136683,0.0,3.067490577697754,-1.6300655603408813,-0.0,2.1257078647613525,4.669472857112549,-0.0,0.3153883218765259,-1.545678440724508,0.0,-0.00526812020689249,1.4681971073150635,0.0,-0.00037049991078674793,0.8144711852073669,0.0,0.0032660732977092266
193.0,219.0,1.6875,-2.2469,9.1687,-0.0325,0.0284,-0.1211,-1.8038155041136683,0.0,3.129538059234619,-1.6300615072250366,-0.0,2.164398193359375,4.669476671809814,-0.0,0.2975796163082123,-1.5456183592425745,0.0,-0.0039025521837174892,1.4681569337844849,0.0,0.006723710335791111,0.8143823742866516,0.0,0.02590973675251007
193.0,219.0,1.6875,-2.2469,9.1687,-0.0325,0.0284,-0.1211,-1.8038073978819789,0.0,3.113720417022705,-1.6301100254058838,-0.0,2.1240906715393066,4.66944853841748,-0.0,0.31002578139305115,-1.545678440724508,0.0,-0.0028932318091392517,1.468237280845642,0.0,-0.0016558477655053139,0.8144226670265198,0.0,-0.0039347014389932156
193.0,219.0,1.6875,-2.2469,9.1687,-0.0325,0.0284,-0.1211,-1.8038274250426234,0.0,3.1731998920440674,-1.6301301717758179,-0.0,2.140078067779541,4.669464750880859,-0.0,0.2905716598033905,-1.545666519795553,0.0,-0.00542362779378891,1.468177080154419,0.0,0.008355574682354927,0.8143942952156067,0.0,0.0233404953032732
193.0,219.0,1.6875,-2.2469,9.1687,-0.0325,0.0284,-0.1211,-1.803803106347555,0.0,3.110496759414673,-1.6300979852676392,-0.0,2.087557792663574,4.669436140651367,-0.0,0.29814451932907104,-1.5456302801715296,0.0,-0.0012130370596423745,1.4681572914123535,0.0,0.005652910098433495,0.8144550323486328,0.0,0.006724909879267216
193.0,219.0,1.6875,-2.2469,9.1687,-0.0325,0.0284,-0.1211,-1.8037950001158656,0.0,3.146507501602173,-1.6300979852676392,-0.0,2.132763385772705,4.669472857112549,-0.0,0.29613831639289856,-1.5456345717059534,0.0,-0.0023558884859085083,1.4682090282440186,0.0,0.0032253339886665344,0.8143942952156067,0.0,-0.021569877862930298
193.0,219.0,1.6875,-2.2469,9.1687,-0.0325,0.0284,-0.1211,-1.8037868938841761,0.0,3.119772434234619,-1.6301259994506836,-0.0,2.1464242935180664,4.669423742885254,-0.0,0.29708707332611084,-1.5456584135638636,0.0,-0.0039936876855790615,1.4681532382965088,0.0,-0.0022490888368338346,0.8144065141677856,0.0,-0.016996804624795914
193.0,219.0,1.6875,-2.2469,9.1687,-0.0325,0.0284,-0.1211,-1.8038236103453578,0.0,3.1419637203216553,-1.6301021575927734,-0.0,2.16398024559021,4.669476671809814,-0.0,0.29497382044792175,-1.5456627050982874,0.0,-0.011677934788167477,1.468132495880127,0.0,-0.015419135801494122,0.8144062161445618,0.0,-0.0016793496906757355
193.0,219.0,1.6875,-2.2469,9.1687,-0.0325,0.0284,-0.1211,-1.8038073978819789,0.0,3.114579200744629,-1.6301424503326416,-0.0,2.118284225463867,4.66951243459668,-0.0,0.3084603548049927,-1.5456507841693323,0.0,-0.007324605714529753,1.4681732654571533,0.0,-0.0026713907718658447,0.8144021034240723,0.0,-0.01698707416653633
193.0,219.0,1.6875,-2.2469,9.1687,-0.0325,0.0284,-0.1211,-1.8038073978819789,0.0,3.1292853355407715,-1.6301419734954834,-0.0,2.105071544647217,4.66948048650708,-0.0,0.29316452145576477,-1.5456746260272425,0.0,-0.009749559685587883,1.468177080154419,0.0,-0.007486926391720772,0.8143660426139832,0.0,0.0010510217398405075
193.0,219.0,1.6875,-2.2469,9.1687,-0.0325,0.0284,-0.1211,-1.8038155041136683,0.0,3.1381635665893555,-1.6300981044769287,-0.0,2.127756118774414,4.669468565578125,-0.0,0.2917384207248688,-1.5456627050982874,0.0,-0.007070556748658419,1.468205213546753,0.0,-0.0010412400588393211,0.8144145011901855,0.0,0.0014880048111081123
193.0,219.0,1.6875,-2.2469,9.1687,-0.0325,0.0284,-0.1211,-1.8037988148131312,0.0,3.120851516723633,-1.6300820112228394,-0.0,2.1474733352661133,4.669464750880859,-0.0,0.2974224090576172,-1.5456584135638636,0.0,-0.007223653141409159,1.4681650400161743,0.0,-0.006194849498569965,0.8144468069076538,0.0,0.03425801545381546
193.0,219.0,1.6875,-2.2469,9.1687,-0.0325,0.0284,-0.1211,-1.8037954769530238,0.0,3.1299378871917725,-1.6301501989364624,-0.0,2.0868048667907715,4.669436140651367,-0.0,0.2937124967575073,-1.5456627050982874,0.0,-0.013230166397988796,1.468177080154419,0.0,0.005325352773070335,0.8144104480743408,0.0,0.03314170241355896
193.0,219.0,1.6875,-2.2469,9.1687,-0.0325,0.0284,-0.1211,-1.8037668667235316,0.0,3.148855686187744,-1.6301219463348389,-0.0,2.121058464050293,4.669468565578125,-0.0,0.30405089259147644,-1.5456865469561976,0.0,-0.0074212756007909775,1.4681450128555298,0.0,0.00502097699791193,0.814418613910675,0.0,-0.03020547702908516
193.0,219.0,1.6875,-2.2469,9.1687,-0.0325,0.0284,-0.1211,-1.8037673435606898,0.0,3.109628915786743,-1.6301264762878418,-0.0,2.173417806625366,4.669452829951904,-0.0,0.3095560669898987,-1.5456464926349085,0.0,0.0024040837306529284,1.4681971073150635,0.0,-0.012253884226083755,0.8143905997276306,0.0,0.006191111169755459
198.0,228.0,1.6786,-2.2445,9.1196,-0.0417,0.033,-0.1127,-1.8037592373290003,0.0,3.0851564407348633,-1.6300902366638184,-0.0,2.063443422317505,4.669468565578125,-0.0,0.3001631200313568,-1.5456345717059534,0.0,-0.004868220072239637,1.4682211875915527,0.0,-0.0051062749698758125,0.8144145011901855,0.0,0.004311323165893555
198.0,228.0,1.6786,-2.2445,9.1196,-0.0417,0.033,-0.1127,-1.8038112125792445,0.0,3.137328624725342,-1.6301063299179077,-0.0,2.1349101066589355,4.669464750880859,-0.0,0.29425883293151855,-1.5456064383136194,0.0,-0.00621037045493722,1.4681971073150635,0.0,-0.007648833096027374,0.8143983483314514,0.0,0.0321638360619545
198.0,228.0,1.6786,-2.2445,9.1196,-0.0417,0.033,-0.1127,-1.8038398228087367,0.0,3.06581711769104,-1.6300655603408813,-0.0,2.1016345024108887,4.669464750880859,-0.0,0.2989206314086914,-1.5456584135638636,0.0,-0.0022037941962480545,1.468177080154419,0.0,-0.0014625121839344501,0.814418613910675,0.0,-0.0023393318988382816
198.0,228.0,1.6786,-2.2445,9.1196,-0.0417,0.033,-0.1127,-1.8038236103453578,0.0,3.061816930770874,-1.6301460266113281,-0.0,2.1114609241485596,4.669496698970459,-0.0,0.28696098923683167,-1.5456464926349085,0.0,0.002457675524055958,1.4681851863861084,0.0,-0.002158157993108034,0.8143783211708069,0.0,0.05580093339085579
198.0,228.0,1.6786,-2.2445,9.1196,-0.0417,0.033,-0.1127,-1.8037668667235316,0.0,3.1550421714782715,-1.6301219463348389,-0.0,2.156607151031494,4.669468088740967,-0.0,0.30822789669036865,-1.5456627050982874,0.0,-0.024666596204042435,1.468217134475708,0.0,-0.007828166708350182,0.8144263625144958,0.0,-0.009468680247664452
198.0,228.0,1.6786,-2.2445,9.1196,-0.0417,0.033,-0.1127,-1.8038112125792445,0.0,3.135772466659546,-1.6300779581069946,-0.0,2.0940136909484863,4.669431849116943,-0.0,0.3071396052837372,-1.545666519795553,0.0,-0.006697824224829674,1.4681490659713745,0.0,-0.010622499510645866,0.8144145011901855,0.0,-0.04267623648047447
198.0,228.0,1.6786,-2.2445,9.1196,-0.0417,0.033,-0.1127,-1.803803106347555,0.0,3.111496925354004,-1.6301342248916626,-0.0,2.157982349395752,4.669423742885254,-0.0,0.3057093322277069,-1.5456627050982874,0.0,-0.011090896092355251,1.4682012796401978,0.0,-0.0030770667362958193,0.8143823146820068,0.0,0.027237581089138985
198.0,228.0,1.6786,-2.2445,9.1196,-0.0417,0.033,-0.1127,-1.8037711582579554,0.0,3.096048355102539,-1.6301021575927734,-0.0,2.086848258972168,4.669452353114746,-0.0,0.2840012013912201,-1.5456221739398401,0.0,-0.00893494114279747,1.4681971073150635,0.0,0.0116224130615592,0.8144145011901855,0.0,0.06687064468860626
198.0,228.0,1.6786,-2.2445,9.1196,-0.0417,0.033,-0.1127,-1.8037592373290003,0.0,3.10986065864563,-1.6300779581069946,-0.0,2.0996289253234863,4.669448061580322,-0.0,0.30444908142089844,-1.5456302801715296,0.0,0.00046383682638406754,1.4681851863861084,0.0,-0.0051430994644761086,0.8144345879554749,0.0,0.011904396116733551
198.0,228.0,1.6786,-2.2445,9.1196,-0.0417,0.033,-0.1127,-1.803774972955221,0.0,3.1251938343048096,-1.6300981044769287,-0.0,2.11559796333313,4.669452353114746,-0.0,0.2800711989402771,-1.5456541220294397,0.0,-0.01713012531399727,1.468177080154419,0.0,-0.0031466165091842413,0.8143983483314514,0.0,0.013184319250285625
198.0,228.0,1.6786,-2.2445,9.1196,-0.0417,0.033,-0.1127,-1.8037744961180628,0.0,3.1323294639587402,-1.6301100254058838,-0.0,2.1075222492218018,4.6694604593464355,-0.0,0.29597875475883484,-1.5456388632403772,0.0,-0.0013046404346823692,1.4682130813598633,0.0,-0.00020151399075984955,0.8144226670265198,0.0,0.026137957349419594
198.0,228.0,1.6786,-2.2445,9.1196,-0.0417,0.033,-0.1127,-1.8037830791869105,0.0,3.0913615226745605,-1.6301219463348389,-0.0,2.1451802253723145,4.66948048650708,-0.0,0.30214011669158936,-1.5457027594195765,0.0,-0.0010557032655924559,1.4682053327560425,0.0,-0.0027144174091517925,0.8143983483314514,0.0,-0.03617651015520096
198.0,228.0,1.6786,-2.2445,9.1196,-0.0417,0.033,-0.1127,-1.803831239739889,0.0,3.1046481132507324,-1.630069613456726,-0.0,2.092740297317505,4.669484778041504,-0.0,0.3069058358669281,-1.5456345717059534,0.0,-0.006867057178169489,1.4682130813598633,0.0,0.009510070085525513,0.814446747303009,0.0,-0.02726212702691555
198.0,228.0,1.6786,-2.2445,9.1196,-0.0417,0.033,-0.1127,-1.8037835560240687,0.0,3.111720323562622,-1.630085825920105,-0.0,2.099165916442871,4.669444246883057,-0.0,0.2970421612262726,-1.545694653187887,0.0,-0.003591816173866391,1.4681930541992188,0.0,-0.002981344237923622,0.8144263625144958,0.0,0.013007734902203083
198.0,228.0,1.6786,-2.2445,9.1196,-0.0417,0.033,-0.1127,-1.8038197956480921,0.0,3.130336284637451,-1.630134105682373,-0.0,2.1612939834594727,4.669468088740967,-0.0,0.2965817451477051,-1.5456903616534632,0.0,0.00240603880956769,1.4681284427642822,0.0,0.007734920829534531,0.8144062161445618,0.0,0.011149603873491287
198.0,228.0,1.6786,-2.2445,9.1196,-0.0417,0.033,-0.1127,-1.8038073978819789,0.0,3.152285099029541,-1.6301300525665283,-0.0,2.1235787868499756,4.669452353114746,-0.0,0.29995548725128174,-1.5456708113299769,0.0,0.0027232374995946884,1.4682295322418213,0.0,-0.004377919249236584,0.8144062757492065,0.0,0.022611793130636215
198.0,228.0,1.6786,-2.2445,9.1196,-0.0417,0.033,-0.1127,-1.8038436375060023,0.0,3.1224818229675293,-1.63007390499115,-0.0,2.11405611038208,4.669416590327881,-0.0,0.289584219455719,-1.545678440724508,0.0,0.006646302528679371,1.4681892395019531,0.0,0.010646110400557518,0.8144062161445618,0.0,-0.014638412743806839
192.0,224.0,1.7312,-2.1577,9.2094,-0.0246,0.0247,-0.1124,-1.8038112125792445,0.0,3.1131138801574707,-1.6301419734954834,-0.0,2.083618402481079,4.669456167812012,-0.0,0.3024752736091614,-1.5456345717059534,0.0,-0.009805403649806976,1.4681932926177979,0.0,-0.006178963463753462,0.8144589066505432,0.0,0.03044549934566021
192.0,224.0,1.7312,-2.1577,9.2094,-0.0246,0.0247,-0.1124,-1.8038155041136683,0.0,3.1347341537475586,-1.6301140785217285,-0.0,2.1644644737243652,4.669436140651367,-0.0,0.3112034797668457,-1.5456422011004847,0.0,-0.003492440562695265,1.4681930541992188,0.0,-0.010798613540828228,0.8144588470458984,0.0,-0.055350929498672485
192.0,224.0,1.7312,-2.1577,9.2094,-0.0246,0.0247,-0.1124,-1.8038073978819789,0.0,3.1009063720703125,-1.6301709413528442,-0.0,2.140845775604248,4.6694604593464355,-0.0,0.3020249009132385,-1.5456984678851526,0.0,-0.001309428596869111,1.4681732654571533,0.0,-0.011200953274965286,0.8144145011901855,0.0,0.008641013875603676
192.0,224.0,1.7312,-2.1577,9.2094,-0.0246,0.0247,-0.1124,-1.8038112125792445,0.0,3.1466832160949707,-1.6300655603408813,-0.0,2.1463186740875244,4.66948048650708,-0.0,0.299295574426651,-1.5456703344928187,0.0,-0.026790183037519455,1.468148946762085,0.0,-0.0076695638708770275,0.8144589066505432,0.0,-0.017906200140714645
192.0,224.0,1.7312,-2.1577,9.2094,-0.0246,0.0247,-0.1124,-1.8037988148131312,0.0,3.117489814758301,-1.6301259994506836,-0.0,2.1650278568267822,4.669428034419678,-0.0,0.2925298810005188,-1.545610253010885,0.0,-0.002687544096261263,1.4681892395019531,0.0,0.0029319478198885918,0.8143859505653381,0.0,0.024961819872260094
192.0,224.0,1.7312,-2.1577,9.2094,-0.0246,0.0247,-0.1124,-1.8038197956480921,0.0,3.1014161109924316,-1.6301424503326416,-0.0,2.103076457977295,4.6694885927387695,-0.0,0.29176488518714905,-1.5456622282611292,0.0,-0.0004040081985294819,1.4681692123413086,0.0,0.008852476254105568,0.8144145011901855,0.0,0.03708730638027191
192.0,224.0,1.7312,-2.1577,9.2094,-0.0246,0.0247,-0.1124,-1.8037988148131312,0.0,3.1583218574523926,-1.6301379203796387,-0.0,2.1029655933380127,4.669423742885254,-0.0,0.31643369793891907,-1.545638386403219,0.0,0.0013750472571700811,1.4682213068008423,0.0,0.0003357707755640149,0.8144062757492065,0.0,0.017091821879148483
192.0,224.0,1.7312,-2.1577,9.2094,-0.0246,0.0247,-0.1124,-1.8038112125792445,0.0,3.1121511459350586,-1.6301342248916626,-0.0,2.1121299266815186,4.669444246883057,-0.0,0.29618656635284424,-1.5456345717059534,0.0,0.0009250537259504199,1.4682130813598633,0.0,0.0033024349249899387,0.8144104480743408,0.0,-0.04104743152856827
192.0,224.0,1.7312,-2.1577,9.2094,-0.0246,0.0247,-0.1124,-1.8037792644896449,0.0,3.1553845405578613,-1.6301300525665283,-0.0,2.108036994934082,4.6694604593464355,-0.0,0.3016759157180786,-1.545710865651266,0.0,-0.010579987429082394,1.4682011604309082,0.0,0.000872813630849123,0.8144099712371826,0.0,-0.019433418288826942
192.0,224.0,1.7312,-2.1577,9.2094,-0.0246,0.0247,-0.1124,-1.8037549457945765,0.0,3.1227359771728516,-1.630086064338684,-0.0,2.151529550552368,4.669452353114746,-0.0,0.30057764053344727,-1.5456865469561976,0.0,-0.006212692707777023,1.4681613445281982,0.0,0.00424134312197566,0.8144468069076538,0.0,-0.034366048872470856
192.0,224.0,1.7312,-2.1577,9.2094,-0.0246,0.0247,-0.1124,-1.8037954769530238,0.0,3.098848819732666,-1.630077838897705,-0.0,2.081892251968384,4.669476671809814,-0.0,0.29173868894577026,-1.545682732258932,0.0,-0.004702409729361534,1.4681892395019531,0.0,0.005317443981766701,0.8144104480743408,0.0,0.0020862864330410957
192.0,224.0,1.7312,-2.1577,9.2094,-0.0246,0.0247,-0.1124,-1.8037792644896449,0.0,3.1351165771484375,-1.6301259994506836,-0.0,2.157700538635254,4.669428034419678,-0.0,0.3047006130218506,-1.545694653187887,0.0,-0.00811845064163208,1.4681692123413086,0.0,0.010800762102007866,0.8144345879554749,0.0,0.05129413679242134
192.0,224.0,1.7312,-2.1577,9.2094,-0.0246,0.0247,-0.1124,-1.8038155041136683,0.0,3.1461966037750244,-1.6301259994506836,-0.0,2.147813081741333,4.66948048650708,-0.0,0.3025358319282532,-1.5456140677081507,0.0,-0.007812653668224812,1.4681450128555298,0.0,0.0011438245419412851,0.8144305348396301,0.0,0.00597883528098464
192.0,224.0,1.7312,-2.1577,9.2094,-0.0246,0.0247,-0.1124,-1.8038398228087367,0.0,3.1138036251068115,-1.6301342248916626,-0.0,2.1160836219787598,4.669456167812012,-0.0,0.3015068769454956,-1.5456822554217737,0.0,0.0018232815200462937,1.4682130813598633,0.0,0.010508392937481403,0.814418613910675,0.0,-0.02369917370378971
192.0,224.0,1.7312,-2.1577,9.2094,-0.0246,0.0247,-0.1124,-1.8037711582579554,0.0,3.1218557357788086,-1.6301100254058838,-0.0,2.127445936203003,4.6695167261311035,-0.0,0.300557017326355,-1.5456822554217737,0.0,0.002375541254878044,1.468177318572998,0.0,0.010518135502934456,0.8144222497940063,0.0,-0.01648341305553913
192.0,224.0,1.7312,-2.1577,9.2094,-0.0246,0.0247,-0.1124,-1.8037988148131312,0.0,3.172560214996338,-1.6300939321517944,-0.0,2.1304895877838135,4.669508619899414,-0.0,0.2952386140823364,-1.5456422011004847,0.0,-0.0058762808330357075,1.468177080154419,0.0,-0.008165067993104458,0.8144145011901855,0.0,-0.03775062784552574
192.0,224.0,1.7312,-2.1577,9.2094,-0.0246,0.0247,-0.1124,-1.8037792644896449,0.0,3.1100611686706543,-1.6301264762878418,-0.0,2.1371500492095947,4.669448061580322,-0.0,0.2972176671028137,-1.5456507841693323,0.0,-0.007352529093623161,1.4682090282440186,0.0,0.006881948560476303,0.8144506216049194,0.0,-0.005180776119232178
192.0,224.0,1.7312,-2.1577,9.2094,-0.0246,0.0247,-0.1124,-1.8037988148131312,0.0,3.149557113647461,-1.630158543586731,-0.0,2.1271297931671143,4.669496698970459,-0.0,0.29260867834091187,-1.545694653187887,0.0,0.004024307709187269,1.4681769609451294,0.0,0.00038756593130528927,0.8144222497940063,0.0,-3.695866325870156e-05
191.0,223.0,1.724,-2.1888,9.0485,-0.0312,0.024,-0.1112,-1.8038236103453578,0.0,3.1521496772766113,-1.6301342248916626,-0.0,2.1331276893615723,4.669476671809814,-0.0,0.2967241406440735,-1.5456541220294397,0.0,-0.022960033267736435,1.468172311782837,0.0,0.011297445744276047,0.8144264221191406,0.0,-0.01548994705080986
191.0,223.0,1.724,-2.1888,9.0485,-0.0312,0.024,-0.1112,-1.803803106347555,0.0,3.1081466674804688,-1.6301063299179077,-0.0,2.0667505264282227,4.669508619899414,-0.0,0.3065849244594574,-1.5456746260272425,0.0,-0.015922458842396736,1.4681851863861084,0.0,0.006678939331322908,0.8144711852073669,0.0,-0.018465610221028328
191.0,223.0,1.724,-2.1888,9.0485,-0.0312,0.024,-0.1112,-1.803803106347555,0.0,3.062243938446045,-1.6301419734954834,-0.0,2.0841543674468994,4.669476671809814,-0.0,0.3033468425273895,-1.545638386403219,0.0,0.0007784928311593831,1.468229055404663,0.0,-0.023658037185668945,0.8144345879554749,0.0,-0.01811106875538826
191.0,223.0,1.724,-2.1888,9.0485,-0.0312,0.024,-0.1112,-1.803763052026266,0.0,3.09759521484375,-1.6301219463348389,-0.0,2.1137619018554688,4.669472380275391,-0.0,0.29289981722831726,-1.545638386403219,0.0,-0.002212268067523837,1.468177080154419,0.0,-0.0017025534762069583,0.8144024610519409,0.0,0.04517855867743492
191.0,223.0,1.724,-2.1888,9.0485,-0.0312,0.024,-0.1112,-1.8038073978819789,0.0,3.1504039764404297,-1.6301345825195312,-0.0,2.154451370239258,4.669468565578125,-0.0,0.3009387254714966,-1.545694653187887,0.0,-0.013688275590538979,1.468225359916687,0.0,-0.002582797547802329,0.8144264221191406,0.0,-0.0296818558126688
191.0,223.0,1.724,-2.1888,9.0485,-0.0312,0.024,-0.1112,-1.8037830791869105,0.0,3.1081900596618652,-1.6300458908081055,-0.0,2.083310604095459,4.6694885927387695,-0.0,0.296137273311615,-1.5456507841693323,0.0,0.01182684488594532,1.4682135581970215,0.0,-0.007272960618138313,0.8144181370735168,0.0,-0.016135962679982185
191.0,223.0,1.724,-2.1888,9.0485,-0.0312,0.024,-0.1112,-1.8038112125792445,0.0,3.1245017051696777,-1.6300939321517944,-0.0,2.1439781188964844,4.669492407436035,-0.0,0.2930837571620941,-1.545626465474264,0.0,0.002813624683767557,1.4681450128555298,0.0,-0.008301150985062122,0.8144062757492065,0.0,-0.021208137273788452
191.0,223.0,1.724,-2.1888,9.0485,-0.0312,0.024,-0.1112,-1.8038317165770472,0.0,3.1533119678497314,-1.6301300525665283,-0.0,2.1573987007141113,4.669448061580322,-0.0,0.3029513359069824,-1.5456865469561976,0.0,-0.0007837838493287563,1.4681851863861084,0.0,-0.002879236824810505,0.814418613910675,0.0,-0.027419282123446465
191.0,223.0,1.724,-2.1888,9.0485,-0.0312,0.024,-0.1112,-1.8038279018797816,0.0,3.0622172355651855,-1.6300939321517944,-0.0,2.079876184463501,4.669468565578125,-0.0,0.3047972023487091,-1.5456584135638636,0.0,-0.003484670538455248,1.4681528806686401,0.0,-0.005484475288540125,0.8144304752349854,0.0,0.05567804351449013
191.0,223.0,1.724,-2.1888,9.0485,-0.0312,0.024,-0.1112,-1.8038197956480921,0.0,3.1370298862457275,-1.630061388015747,-0.0,2.1000547409057617,4.669472857112549,-0.0,0.30194997787475586,-1.5457070509540003,0.0,0.005907201673835516,1.4682135581970215,0.0,0.002507850993424654,0.814418613910675,0.0,-0.013528498820960522
191.0,223.0,1.724,-2.1888,9.0485,-0.0312,0.024,-0.1112,-1.8037911854186,0.0,3.123551368713379,-1.6301501989364624,-0.0,2.1254072189331055,4.669452353114746,-0.0,0.3026641607284546,-1.5456703344928187,0.0,-0.010535737499594688,1.4681892395019531,0.0,-0.0002800270449370146,0.8144222497940063,0.0,-0.021898958832025528
191.0,223.0,1.724,-2.1888,9.0485,-0.0312,0.024,-0.1112,-1.8037792644896449,0.0,3.080334186553955,-1.6300663948059082,-0.0,2.106741428375244,4.669476671809814,-0.0,0.3015906512737274,-1.5456507841693323,0.0,-0.0089434664696455,1.4681611061096191,0.0,0.010307468473911285,0.8144629597663879,0.0,-0.022166935727000237
191.0,223.0,1.724,-2.1888,9.0485,-0.0312,0.024,-0.1112,-1.8038436375060023,0.0,3.095273017883301,-1.6301218271255493,-0.0,2.1487109661102295,4.669452829951904,-0.0,0.29845255613327026,-1.545682732258932,0.0,-0.0013052400900050998,1.468149185180664,0.0,0.012025061994791031,0.8144345879554749,0.0,0.03391752392053604
191.0,223.0,1.724,-2.1888,9.0485,-0.0312,0.024,-0.1112,-1.8037988148131312,0.0,3.1274185180664062,-1.6301063299179077,-0.0,2.092205762863159,4.6694604593464355,-0.0,0.31051045656204224,-1.5456302801715296,0.0,-0.012586720287799835,1.468177080154419,0.0,-0.00131701841019094,0.8144385814666748,0.0,-0.006935775745660067
191.0,223.0,1.724,-2.1888,9.0485,-0.0312,0.024,-0.1112,-1.803803106347555,0.0,3.1107141971588135,-1.6301100254058838,-0.0,2.1030421257019043,4.669440432185791,-0.0,0.305494487285614,-1.5456302801715296,0.0,0.008987613022327423,1.4681930541992188,0.0,0.0008591965306550264,0.8144104480743408,0.0,-0.008074617013335228
191.0,223.0,1.724,-2.1888,9.0485,-0.0312,0.024,-0.1112,-1.8038197956480921,0.0,3.0558090209960938,-1.6301140785217285,-0.0,2.113269567489624,4.669508619899414,-0.0,0.2999466359615326,-1.545626465474264,0.0,0.009270809590816498,1.468237280845642,0.0,-0.0023977358359843493,0.814402163028717,0.0,-0.015583658590912819
191.0,223.0,1.724,-2.1888,9.0485,-0.0312,0.024,-0.1112,-1.8038073978819789,0.0,3.120864152908325,-1.6301543712615967,-0.0,2.13602876663208,4.6694604593464355,-0.0,0.30181723833084106,-1.5456183592425745,0.0,-0.01774873398244381,1.468189001083374,0.0,0.014236467890441418,0.8144062757492065,0.0,0.006336320657283068
200.0,220.0,1.7043,-2.1661,8.994,-0.0392,0.0182,-0.1225,-1.803803106347555,0.0,3.1395151615142822,-1.6301259994506836,-0.0,2.16098690032959,4.669440432185791,-0.0,0.30361810326576233,-1.5456541220294397,0.0,-0.012671666219830513,1.468177080154419,0.0,-0.009102577343583107,0.8144145011901855,0.0,0.008529866114258766
200.0,220.0,1.7043,-2.1661,8.994,-0.0392,0.0182,-0.1225,-1.803803106347555,0.0,3.0832648277282715,-1.630094289779663,-0.0,2.150702476501465,4.669440432185791,-0.0,0.30858972668647766,-1.5456302801715296,0.0,-0.009220346808433533,1.4681932926177979,0.0,-0.004926496185362339,0.8144547343254089,0.0,-0.002289055846631527
200.0,220.0,1.7043,-2.1661,8.994,-0.0392,0.0182,-0.1225,-1.8037954769530238,0.0,3.1104350090026855,-1.6300779581069946,-0.0,2.1041018962860107,4.669448061580322,-0.0,0.3086863160133362,-1.5456064383136194,0.0,-0.0017069957684725523,1.4681082963943481,0.0,0.0004209504695609212,0.8144304752349854,0.0,0.05121683329343796
200.0,220.0,1.7043,-2.1661,8.994,-0.0392,0.0182,-0.1225,-1.8037673435606898,0.0,3.106058120727539,-1.6300981044769287,-0.0,2.1280782222747803,4.6694885927387695,-0.0,0.2946925163269043,-1.5456302801715296,0.0,-0.009147068485617638,1.468229055404663,0.0,-0.015688402578234673,0.8144181370735168,0.0,-0.012316504493355751
200.0,220.0,1.7043,-2.1661,8.994,-0.0392,0.0182,-0.1225,-1.8037506542601527,0.0,3.1392464637756348,-1.630086064338684,-0.0,2.1245203018188477,4.6694885927387695,-0.0,0.296222448348999,-1.545666519795553,0.0,-0.009416723623871803,1.468177080154419,0.0,-0.0071625178679823875,0.8144345879554749,0.0,0.024380121380090714
200.0,220.0,1.7043,-2.1661,8.994,-0.0392,0.0182,-0.1225,-1.8037868938841761,0.0,3.1403374671936035,-1.6301100254058838,-0.0,2.120793342590332,4.6694604593464355,-0.0,0.30450722575187683,-1.5456464926349085,0.0,-0.009743614122271538,1.4681971073150635,0.0,-0.005545098800212145,0.8144024610519409,0.0,0.04704764112830162
200.0,220.0,1.7043,-2.1661,8.994,-0.0392,0.0182,-0.1225,-1.803763052026266,0.0,3.1239113807678223,-1.6300615072250366,-0.0,2.1418018341064453,4.669472380275391,-0.0,0.29273319244384766,-1.5456464926349085,0.0,-0.0025601338129490614,1.468217134475708,0.0,0.0008701689075678587,0.8144065141677856,0.0,0.03826393187046051
200.0,220.0,1.7043,-2.1661,8.994,-0.0392,0.0182,-0.1225,-1.8037988148131312,0.0,3.1064724922180176,-1.6301259994506836,-0.0,2.1308956146240234,4.669472380275391,-0.0,0.2985519766807556,-1.5456388632403772,0.0,0.00257886853069067,1.4682092666625977,0.0,0.013769258745014668,0.8144145011901855,0.0,0.02268289029598236
200.0,220.0,1.7043,-2.1661,8.994,-0.0392,0.0182,-0.1225,-1.80387606243276,0.0,3.14448881149292,-1.6301382780075073,-0.0,2.1691200733184814,4.66944853841748,-0.0,0.2912149429321289,-1.5456865469561976,0.0,-0.007465020753443241,1.4681692123413086,0.0,-0.005910253152251244,0.814426839351654,0.0,0.02139187417924404
200.0,220.0,1.7043,-2.1661,8.994,-0.0392,0.0182,-0.1225,-1.8037792644896449,0.0,3.1143455505371094,-1.6301460266113281,-0.0,2.148364782333374,4.669472380275391,-0.0,0.30091944336891174,-1.5456584135638636,0.0,-0.005500288680195808,1.4681651592254639,0.0,-0.011278048157691956,0.814418613910675,0.0,-0.013509685173630714
200.0,220.0,1.7043,-2.1661,8.994,-0.0392,0.0182,-0.1225,-1.803819318810934,0.0,3.0880167484283447,-1.630142331123352,-0.0,2.140956401824951,4.6694885927387695,-0.0,0.297959566116333,-1.545638386403219,0.0,-0.004113293252885342,1.468217134475708,0.0,0.004195937886834145,0.8143860101699829,0.0,-0.01930062100291252
200.0,220.0,1.7043,-2.1661,8.994,-0.0392,0.0182,-0.1225,-1.8038279018797816,0.0,3.1243433952331543,-1.6301063299179077,-0.0,2.138155460357666,4.669484301204346,-0.0,0.300800621509552,-1.5456903616534632,0.0,-0.014444947242736816,1.4681609869003296,0.0,-0.0007540881633758545,0.8144104480743408,0.0,0.030805066227912903
200.0,220.0,1.7043,-2.1661,8.994,-0.0392,0.0182,-0.1225,-1.8038279018797816,0.0,3.1138601303100586,-1.6300737857818604,-0.0,2.1078944206237793,4.669436140651367,-0.0,0.3178793787956238,-1.545638386403219,0.0,-0.018612850457429886,1.4682053327560425,0.0,-0.004105661064386368,0.8144385814666748,0.0,-0.011655742302536964
200.0,220.0,1.7043,-2.1661,8.994,-0.0392,0.0182,-0.1225,-1.8037911854186,0.0,3.115839719772339,-1.6300458908081055,-0.0,2.093228816986084,4.669448061580322,-0.0,0.3069661557674408,-1.5456627050982874,0.0,0.003977843560278416,1.4681572914123535,0.0,-0.014854390174150467,0.8144385814666748,0.0,-0.022151270881295204
200.0,220.0,1.7043,-2.1661,8.994,-0.0392,0.0182,-0.1225,-1.8038279018797816,0.0,3.1095786094665527,-1.630069613456726,-0.0,2.117950916290283,4.6694604593464355,-0.0,0.30592620372772217,-1.5456422011004847,0.0,-0.0006983233615756035,1.4681365489959717,0.0,-0.014377687126398087,0.8144509196281433,0.0,-0.047010235488414764
200.0,220.0,1.7043,-2.1661,8.994,-0.0392,0.0182,-0.1225,-1.8037835560240687,0.0,3.0928163528442383,-1.6301100254058838,-0.0,2.0929079055786133,4.669452353114746,-0.0,0.29243507981300354,-1.545678440724508,0.0,-0.011811617761850357,1.4681326150894165,0.0,-0.011656668968498707,0.8143823742866516,0.0,0.007069346494972706
200.0,220.0,1.7043,-2.1661,8.994,-0.0392,0.0182,-0.1225,-1.8037992916502894,0.0,3.1156346797943115,-1.630158543586731,-0.0,2.1520466804504395,4.669464750880859,-0.0,0.2962285876274109,-1.5456741491900843,0.0,-0.0160902738571167,1.4682492017745972,0.0,0.004222069401293993,0.8144145011901855,0.0,0.003251698799431324
200.0,202.0,1.6935,-2.2265,9.1448,-0.036,0.0162,-0.1202,-1.803763052026266,0.0,3.145510196685791,-1.6301223039627075,-0.0,2.1266965866088867,4.66948048650708,-0.0,0.2908555567264557,-1.5456703344928187,0.0,-0.0035664632450789213,1.4681692123413086,0.0,-0.010347041301429272,0.8143983483314514,0.0,-0.003980640321969986
200.0,202.0,1.6935,-2.2265,9.1448,-0.036,0.0162,-0.1202,-1.803751131097311,0.0,3.1312098503112793,-1.6301140785217285,-0.0,2.1464340686798096,4.669448061580322,-0.0,0.2976134717464447,-1.5456703344928187,0.0,-0.021704550832509995,1.4681528806686401,0.0,-0.0031726332381367683,0.8144104480743408,0.0,0.017109094187617302
200.0,202.0,1.6935,-2.2265,9.1448,-0.036,0.0162,-0.1202,-1.8037911854186,0.0,3.138495445251465,-1.6301140785217285,-0.0,2.108710289001465,4.669464750880859,-0.0,0.29023632407188416,-1.5456464926349085,0.0,-0.00449084909632802,1.4682090282440186,0.0,-0.0051950328052043915,0.8144145011901855,0.0,-0.015061858110129833
200.0,202.0,1.6935,-2.2265,9.1448,-0.036,0.0162,-0.1202,-1.8037711582579554,0.0,3.1505064964294434,-1.6301382780075073,-0.0,2.0969479084014893,4.669472380275391,-0.0,0.2964574992656708,-1.5456541220294397,0.0,-0.007708637975156307,1.4681651592254639,0.0,0.011254197917878628,0.8144387006759644,0.0,0.023606887087225914
200.0,202.0,1.6935,-2.2265,9.1448,-0.036,0.0162,-0.1202,-1.8038112125792445,0.0,3.0664045810699463,-1.6301021575927734,-0.0,2.1411540508270264,4.6694323259541015,-0.0,0.29909515380859375,-1.5456541220294397,0.0,-0.0008773209992796183,1.4681851863861084,0.0,-0.0050370097160339355,0.8143983483314514,0.0,0.07702083885669708
200.0,202.0,1.6935,-2.2265,9.1448,-0.036,0.0162,-0.1202,-1.8037787876524867,0.0,3.096623182296753,-1.630086064338684,-0.0,2.1099917888641357,4.669472380275391,-0.0,0.30775362253189087,-1.545666519795553,0.0,0.006458884105086327,1.4681851863861084,0.0,0.0018443989101797342,0.8144304752349854,0.0,-0.00434053223580122
200.0,202.0,1.6935,-2.2265,9.1448,-0.036,0.0162,-0.1202,-1.8038398228087367,0.0,3.166515350341797,-1.6301063299179077,-0.0,2.1591925621032715,4.669423742885254,-0.0,0.29902011156082153,-1.5456345717059534,0.0,-0.01067453995347023,1.4681892395019531,0.0,0.005088637582957745,0.8143823742866516,0.0,-0.052829813212156296
200.0,202.0,1.6935,-2.2265,9.1448,-0.036,0.0162,-0.1202,-1.8037992916502894,0.0,3.0843300819396973,-1.630134105682373,-0.0,2.1369335651397705,4.66948048650708,-0.0,0.3069106638431549,-1.5456741491900843,0.0,-0.00041297473944723606,1.4682011604309082,0.0,-0.006948669441044331,0.8144828081130981,0.0,0.027649912983179092
200.0,202.0,1.6935,-2.2265,9.1448,-0.036,0.0162,-0.1202,-1.8038321934142054,0.0,3.130493640899658,-1.6301383972167969,-0.0,2.1104679107666016,4.669436140651367,-0.0,0.2996043562889099,-1.5456464926349085,0.0,-0.0013558981008827686,1.4681851863861084,0.0,0.009649185463786125,0.8144304752349854,0.0,-0.037190549075603485
200.0,202.0,1.6935,-2.2265,9.1448,-0.036,0.0162,-0.1202,-1.8037954769530238,0.0,3.099926471710205,-1.6301100254058838,-0.0,2.130396842956543,4.669416590327881,-0.0,0.30214279890060425,-1.5456507841693323,0.0,-0.013026818633079529,1.4682011604309082,0.0,-0.014286549761891365,0.8143983483314514,0.0,-0.03158083185553551
200.0,202.0,1.6935,-2.2265,9.1448,-0.036,0.0162,-0.1202,-1.8037787876524867,0.0,3.1706814765930176,-1.6301342248916626,-0.0,2.0909125804901123,4.6694604593464355,-0.0,0.3084355890750885,-1.545626465474264,0.0,0.009933537803590298,1.4681692123413086,0.0,-0.004757764749228954,0.8144304752349854,0.0,0.02889680489897728
200.0,202.0,1.6935,-2.2265,9.1448,-0.036,0.0162,-0.1202,-1.8037911854186,0.0,3.1163368225097656,-1.6301145553588867,-0.0,2.147965431213379,4.669468088740967,-0.0,0.2997852563858032,-1.545626465474264,0.0,-0.008065947331488132,1.4681569337844849,0.0,0.008530481718480587,0.8144670128822327,0.0,0.038311559706926346
200.0,202.0,1.6935,-2.2265,9.1448,-0.036,0.0162,-0.1202,-1.8038236103453578,0.0,3.1298627853393555,-1.6300981044769287,-0.0,2.0696280002593994,4.669444246883057,-0.0,0.3062420189380646,-1.5457027594195765,0.0,-0.008701898157596588,1.4681851863861084,0.0,0.0016190365422517061,0.8144468665122986,0.0,0.01856425777077675
200.0,202.0,1.6935,-2.2265,9.1448,-0.036,0.0162,-0.1202,-1.8038398228087367,0.0,3.104091167449951,-1.6301063299179077,-0.0,2.146014451980591,4.669440432185791,-0.0,0.30534523725509644,-1.5456660429583948,0.0,-0.010993827134370804,1.4681528806686401,0.0,-0.003188508562743664,0.8144227266311646,0.0,-0.02233980782330036
200.0,202.0,1.6935,-2.2265,9.1448,-0.036,0.0162,-0.1202,-1.8037950001158656,0.0,3.121553421020508,-1.630077838897705,-0.0,2.1697797775268555,4.669484301204346,-0.0,0.30110085010528564,-1.5456627050982874,0.0,-0.009475811384618282,1.468205213546753,0.0,-0.005998557433485985,0.8143901228904724,0.0,0.009731443598866463
200.0,202.0,1.6935,-2.2265,9.1448,-0.036,0.0162,-0.1202,-1.8038073978819789,0.0,3.130415201187134,-1.630061388015747,-0.0,2.0923266410827637,4.669444246883057,-0.0,0.3037690222263336,-1.5456741491900843,0.0,-0.00801145751029253,1.468237280845642,0.0,-0.0017453545005992055,0.8144062757492065,0.0,-0.003068828722462058
200.0,202.0,1.6935,-2.2265,9.1448,-0.036,0.0162,-0.1202,-1.8037992916502894,0.0,3.1076931953430176,-1.6301063299179077,-0.0,2.1725473403930664,4.669456167812012,-0.0,0.30552658438682556,-1.5456584135638636,0.0,-0.007423375733196735,1.4681851863861084,0.0,0.002139460761100054,0.8144589066505432,0.0,0.04529167711734772
196.0,238.0,1.7192,-2.2253,8.9856,-0.0399,0.0232,-0.1167,-1.8037868938841761,0.0,3.139763116836548,-1.6301100254058838,-0.0,2.1129345893859863,4.6694885927387695,-0.0,0.3040347695350647,-1.5456422011004847,0.0,0.0019963302183896303,1.4682413339614868,0.0,-0.004057943355292082,0.8144550323486328,0.0,-0.03065403737127781
196.0,238.0,1.7192,-2.2253,8.9856,-0.0399,0.0232,-0.1167,-1.803803106347555,0.0,3.125194787979126,-1.630077838897705,-0.0,2.150630474090576,4.669464750880859,-0.0,0.30073052644729614,-1.5456584135638636,0.0,-0.00734103936702013,1.468229055404663,0.0,0.002440852113068104,0.8144385814666748,0.0,-0.041897859424352646
196.0,238.0,1.7192,-2.2253,8.9856,-0.0399,0.0232,-0.1167,-1.8037673435606898,0.0,3.087820053100586,-1.630077838897705,-0.0,2.1650400161743164,4.6694604593464355,-0.0,0.2972017228603363,-1.5456340948687952,0.0,0.007508741691708565,1.4681732654571533,0.0,0.007292767986655235,0.8144145011901855,0.0,0.018693046644330025
196.0,238.0,1.7192,-2.2253,8.9856,-0.0399,0.0232,-0.1167,-1.8037954769530238,0.0,3.0852437019348145,-1.6301424503326416,-0.0,2.103933334350586,4.669476194972656,-0.0,0.30894672870635986,-1.5456422011004847,0.0,-0.006146347150206566,1.468225359916687,0.0,-0.0031112576834857464,0.8144345879554749,0.0,-0.010746987536549568
196.0,238.0,1.7192,-2.2253,8.9856,-0.0399,0.0232,-0.1167,-1.8038073978819789,0.0,3.0956006050109863,-1.6300334930419922,-0.0,2.157217264175415,4.669452353114746,-0.0,0.30980852246284485,-1.5456746260272425,0.0,-0.011891665868461132,1.4681851863861084,0.0,0.00770159624516964,0.8144468069076538,0.0,-0.04268752783536911
196.0,238.0,1.7192,-2.2253,8.9856,-0.0399,0.0232,-0.1167,-1.8037549457945765,0.0,3.0840673446655273,-1.6300820112228394,-0.0,2.087467908859253,4.669500513667725,-0.0,0.2907571792602539,-1.545682732258932,0.0,-0.0011319697368890047,1.468132495880127,0.0,-0.00306136766448617,0.814418613910675,0.0,0.01752077415585518
196.0,238.0,1.7192,-2.2253,8.9856,-0.0399,0.0232,-0.1167,-1.8038073978819789,0.0,3.111071825027466,-1.6301263570785522,-0.0,2.1170096397399902,4.669456167812012,-0.0,0.2992439270019531,-1.5456746260272425,0.0,-0.007390875834971666,1.468205213546753,0.0,-0.0032659221906214952,0.8144671320915222,0.0,-0.014409355819225311
196.0,238.0,1.7192,-2.2253,8.9856,-0.0399,0.0232,-0.1167,-1.8038197956480921,0.0,3.085042953491211,-1.6301140785217285,-0.0,2.1075384616851807,4.6694885927387695,-0.0,0.29748594760894775,-1.5456302801715296,0.0,-0.006108301226049662,1.468245506286621,0.0,-0.00756262568756938,0.8144346475601196,0.0,0.05418110638856888
196.0,238.0,1.7192,-2.2253,8.9856,-0.0399,0.0232,-0.1167,-1.803763052026266,0.0,3.11702823638916,-1.630150556564331,-0.0,2.1515307426452637,4.6694885927387695,-0.0,0.304578959941864,-1.5456584135638636,0.0,-0.015712635591626167,1.468149185180664,0.0,-0.0014655077829957008,0.8143901228904724,0.0,-0.0034046201035380363
196.0,238.0,1.7192,-2.2253,8.9856,-0.0399,0.0232,-0.1167,-1.8037992916502894,0.0,3.0976483821868896,-1.6301300525665283,-0.0,2.12774395942688,4.669443770045898,-0.0,0.3015103340148926,-1.5456584135638636,0.0,0.006945412140339613,1.468132495880127,0.0,0.0013973991153761744,0.8143741488456726,0.0,-0.021619537845253944
196.0,238.0,1.7192,-2.2253,8.9856,-0.0399,0.0232,-0.1167,-1.8038197956480921,0.0,3.1242384910583496,-1.630094051361084,-0.0,2.1290271282196045,4.669496222133301,-0.0,0.29760706424713135,-1.5456584135638636,0.0,-0.0011365646496415138,1.468177080154419,0.0,0.009199964813888073,0.8144387006759644,0.0,-0.009323940612375736
196.0,238.0,1.7192,-2.2253,8.9856,-0.0399,0.0232,-0.1167,-1.8037306270995082,0.0,3.099714994430542,-1.6300820112228394,-0.0,2.121248960494995,4.669468088740967,-0.0,0.2928506135940552,-1.5456340948687952,0.0,-0.008527683094143867,1.4681732654571533,0.0,0.006083445157855749,0.8144264221191406,0.0,-0.026019064709544182
196.0,238.0,1.7192,-2.2253,8.9856,-0.0399,0.0232,-0.1167,-1.8038112125792445,0.0,3.115039825439453,-1.6301140785217285,-0.0,2.083556890487671,4.669428034419678,-0.0,0.30488961935043335,-1.5456464926349085,0.0,-0.013273606076836586,1.4682012796401978,0.0,0.004398048389703035,0.8144226670265198,0.0,-0.004978506825864315
196.0,238.0,1.7192,-2.2253,8.9856,-0.0399,0.0232,-0.1167,-1.8038112125792445,0.0,3.1527979373931885,-1.6300820112228394,-0.0,2.131866931915283,4.669472380275391,-0.0,0.3007899224758148,-1.5456703344928187,0.0,-0.009589709341526031,1.4681651592254639,0.0,0.0015211765421554446,0.8143942952156067,0.0,0.022271234542131424
196.0,238.0,1.7192,-2.2253,8.9856,-0.0399,0.0232,-0.1167,-1.8037430248656214,0.0,3.0983686447143555,-1.6301300525665283,-0.0,2.1437320709228516,4.669448061580322,-0.0,0.29199254512786865,-1.5456388632403772,0.0,-0.005010139662772417,1.4682053327560425,0.0,-0.007612244691699743,0.8144222497940063,0.0,-0.004250910133123398
196.0,238.0,1.7192,-2.2253,8.9856,-0.0399,0.0232,-0.1167,-1.8037868938841761,0.0,3.116482734680176,-1.6301140785217285,-0.0,2.0979323387145996,4.669480009669922,-0.0,0.3114914000034332,-1.5456584135638636,0.0,-0.0029835584573447704,1.468132495880127,0.0,0.008221734315156937,0.8144062757492065,0.0,0.013246866874396801
196.0,238.0,1.7192,-2.2253,8.9856,-0.0399,0.0232,-0.1167,-1.8037673435606898,0.0,3.1309292316436768,-1.6301223039627075,-0.0,2.1484007835388184,4.6695167261311035,-0.0,0.306392639875412,-1.545638386403219,0.0,-0.004115435294806957,1.4681651592254639,0.0,-0.006544601637870073,0.8144468069076538,0.0,0.010472557507455349
196.0,238.0,1.7192,-2.2253,8.9856,-0.0399,0.0232,-0.1167,-1.803803106347555,0.0,3.133518695831299,-1.6301021575927734,-0.0,2.09251070022583,4.669468088740967,-0.0,0.30126357078552246,-1.5456145445453089,0.0,-0.020050428807735443,1.468217134475708,0.0,-0.008441575802862644,0.8144145011901855,0.0,0.05687664449214935
194.0,228.0,1.6086,-2.2756,9.3051,-0.0354,0.0305,-0.1194,-1.8037992916502894,0.0,3.1260361671447754,-1.6300984621047974,-0.0,2.1320853233337402,4.669480009669922,-0.0,0.30593135952949524,-1.545626465474264,0.0,-0.0036944136954844,1.4682011604309082,0.0,0.001921798218972981,0.8143983483314514,0.0,0.01325423177331686
194.0,228.0,1.6086,-2.2756,9.3051,-0.0354,0.0305,-0.1194,-1.8038279018797816,0.0,3.1068549156188965,-1.6301021575927734,-0.0,2.126525402069092,4.669480009669922,-0.0,0.28803032636642456,-1.5456340948687952,0.0,-0.005836197640746832,1.4682092666625977,0.0,-0.00034699065145105124,0.814418613910675,0.0,0.044664204120635986
194.0,228.0,1.6086,-2.2756,9.3051,-0.0354,0.0305,-0.1194,-1.8037868938841761,0.0,3.1044716835021973,-1.6301017999649048,-0.0,2.134308338165283,4.669491930598877,-0.0,0.29684439301490784,-1.5456422011004847,0.0,-0.0033155279234051704,1.468205213546753,0.0,-0.006282474845647812,0.8144264817237854,0.0,0.0032789381220936775
194.0,228.0,1.6086,-2.2756,9.3051,-0.0354,0.0305,-0.1194,-1.803774972955221,0.0,3.133504629135132,-1.6301182508468628,-0.0,2.1132397651672363,4.669491930598877,-0.0,0.30117303133010864,-1.5456507841693323,0.0,-0.013968847692012787,1.4682172536849976,0.0,0.007378147449344397,0.8144264221191406,0.0,-0.0015500308945775032
194.0,228.0,1.6086,-2.2756,9.3051,-0.0354,0.0305,-0.1194,-1.8037992916502894,0.0,3.168447494506836,-1.630069613456726,-0.0,2.1173672676086426,4.669468088740967,2.4316554103620547e-08,0.2936115264892578,-1.5456145445453089,0.0,-0.009297245182096958,1.468205213546753,0.0,-0.0024620029143989086,0.8144592046737671,0.0,0.025038931518793106
194.0,228.0,1.6086,-2.2756,9.3051,-0.0354,0.0305,-0.1194,-1.803774972955221,0.0,3.1008975505828857,-1.6301500797271729,-0.0,2.134993553161621,4.669491930598877,6.76860260548362e-12,0.2977490723133087,-1.545666519795553,0.0,-0.012320924550294876,1.4682213068008423,0.0,-9.502959437668324e-05,0.8143824338912964,0.0,-0.007341616787016392
194.0,228.0,1.6086,-2.2756,9.3051,-0.0354,0.0305,-0.1194,-1.8037473164000453,0.0,3.1090197563171387,-1.630069613456726,-0.0,2.1062326431274414,4.669512911433838,2.8855613916096284e-14,0.30288445949554443,-1.545610253010885,0.0,-0.01566430553793907,1.4682213068008423,0.0,-0.008407223969697952,0.8144104480743408,0.0,-0.014635637402534485
194.0,228.0,1.6086,-2.2756,9.3051,-0.0354,0.0305,-0.1194,-1.803763052026266,1.4066653397648565e-09,3.1396005153656006,-1.630053162574768,-0.0,2.119356155395508,4.669464274043701,8.03206685013587e-18,0.29601091146469116,-1.5456507841693323,0.0,-0.009746911004185677,1.4681531190872192,0.0,-0.002621510997414589,0.8144264221191406,0.0,0.0292959064245224
194.0,228.0,1.6086,-2.2756,9.3051,-0.0354,0.0305,-0.1194,-1.8037549457945765,-0.00019380103913135827,3.130794048309326,-1.6301301717758179,-0.0,2.1509881019592285,4.6694885927387695,2.2357550948895026e-21,0.2928856909275055,-1.5456627050982874,0.0,-0.0053033954463899136,1.4681531190872192,0.0,0.0038299807347357273,0.8143983483314514,0.0,-0.033757083117961884
194.0,228.0,1.6086,-2.2756,9.3051,-0.0354,0.0305,-0.1194,-1.803763052026266,-0.0001401833724230528,3.116621971130371,-1.6301383972167969,-0.0,2.136929512023926,4.6695448595234375,9.531374022009425e-24,0.29943642020225525,-1.545610253010885,0.0,-0.009900733828544617,1.4682213068008423,0.0,-0.00532576534897089,0.814410388469696,0.0,-0.00495210662484169
194.0,228.0,1.6086,-2.2756,9.3051,-0.0354,0.0305,-0.1194,-1.8038112125792445,-9.55131690716371e-05,3.123067855834961,-1.6300984621047974,-0.0,2.13209867477417,4.66950432836499,2.6530932986538137e-27,0.2999541759490967,-1.5456903616534632,0.0,0.001424122485332191,1.4681651592254639,0.0,-0.00317918392829597,0.8144304752349854,0.0,-0.011385926976799965
194.0,228.0,1.6086,-2.2756,9.3051,-0.0354,0.0305,-0.1194,-1.8037792644896449,-7.878361793700606e-05,3.1537508964538574,-1.6301181316375732,-0.0,2.1143882274627686,4.669496222133301,1.131055172451598e-29,0.2806948721408844,-1.5456422011004847,0.0,-0.009956736117601395,1.468225359916687,0.0,-0.003520768601447344,0.8144547343254089,0.0,0.024862807244062424
194.0,228.0,1.6086,-2.2756,9.3051,-0.0354,0.0305,-0.1194,-1.8037792644896449,-6.239338108571246e-05,3.1229429244995117,-1.6300902366638184,-0.0,2.1389598846435547,4.669440432185791,3.148333866647025e-33,0.2953897714614868,-1.5456422011004847,0.0,0.0033392375335097313,1.4681613445281982,0.0,-0.009850911796092987,0.8144021034240723,0.0,-0.050918739289045334
194.0,228.0,1.6086,-2.2756,9.3051,-0.0354,0.0305,-0.1194,-1.8037673435606898,-3.632449230295265e-09,3.1517295837402344,-1.6300541162490845,-0.0,2.086561918258667,4.669448061580322,8.763501769119217e-37,0.30541813373565674,-1.5456903616534632,0.0,-0.0145482262596488,1.468177080154419,0.0,0.005230219103395939,0.8144385814666748,0.0,-0.008212643675506115
194.0,228.0,1.6086,-2.2756,9.3051,-0.0354,0.0305,-0.1194,-1.8037835560240687,-6.538280659072748e-13,3.109053611755371,-1.6301264762878418,-0.0,2.1551504135131836,4.669476194972656,3.736018651317967e-39,0.2982247769832611,-1.5456464926349085,0.0,-0.0013697989052161574,1.4682049751281738,0.0,0.0013520680367946625,0.8144426941871643,0.0,-0.02940787747502327
194.0,228.0,1.6086,-2.2756,9.3051,-0.0354,0.0305,-0.1194,-1.8037549457945765,-1.5789174935551205e-18,3.1470730304718018,-1.6301100254058838,-0.0,2.1187257766723633,4.669484301204346,1.0397634605290143e-42,0.3122078776359558,-1.5456903616534632,0.0,-0.0043257297948002815,1.4682130813598633,0.0,-0.0028065815567970276,0.8144707679748535,0.0,-0.0402737632393837
194.0,228.0,1.6086,-2.2756,9.3051,-0.0354,0.0305,-0.1194,-1.8037992916502894,-2.841995735537358e-22,3.086646556854248,-1.6301063299179077,-0.0,2.1579301357269287,4.669500513667725,4.203895392974451e-45,0.30770426988601685,-1.545694653187887,0.0,-0.008453474380075932,1.4681692123413086,0.0,-0.00557307805866003,0.8145150542259216,0.0003212770097889006,0.026048604398965836
195.0,221.0,1.7527,-2.117,8.802,-0.0272,0.031,-0.1193,-1.8037835560240687,-6.863085542080428e-28,3.1054892539978027,-1.6300818920135498,-0.0,2.104710340499878,4.6695167261311035,0.0,0.31246131658554077,-1.545610253010885,0.0,-0.0026183398440480232,1.4682252407073975,0.0,0.012824870645999908,0.814466655254364,0.00035132496850565076,0.03484509512782097
195.0,221.0,1.7527,-2.117,8.802,-0.0272,0.031,-0.1193,-1.8037592373290003,-1.657354464479298e-33,3.115382671356201,-1.630150556564331,-0.0,2.1013588905334473,4.669476194972656,0.0,0.2937328517436981,-1.5456822554217737,0.0,0.002385636093094945,1.4681648015975952,0.0,0.00401417538523674,0.8144423961639404,0.000342943356372416,0.020026415586471558
195.0,221.0,1.7527,-2.117,8.802,-0.0272,0.031,-0.1193,-1.8037954769530238,-2.983179683357999e-37,3.0862886905670166,-1.6301181316375732,-0.0,2.124969720840454,4.669436140651367,0.0,0.29472771286964417,-1.5456503073321741,0.0,-0.011572862975299358,1.4681730270385742,0.0,0.0038273301906883717,0.8144424557685852,0.000352828559698537,0.010521689429879189
195.0,221.0,1.7527,-2.117,8.802,-0.0272,0.031,-0.1193,-1.8038236103453578,-7.20267410662956e-43,3.139472484588623,-1.6300655603408813,4.447247570205093e-10,2.155214548110962,4.669484301204346,0.0,0.27882176637649536,-1.5457027594195765,0.0,-0.00368102197535336,1.4681851863861084,0.0,-0.013975420966744423,0.814458429813385,0.00030807749135419726,-0.025761855766177177
195.0,221.0,1.7527,-2.117,8.802,-0.0272,0.031,-0.1193,-1.8037835560240687,0.0,3.111581325531006,-1.6301259994506836,1.073958156021411e-15,2.140087366104126,4.669448061580322,0.0,0.2985374331474304,-1.545678440724508,0.0,-0.01484789326786995,1.4682213068008423,0.0,-0.004313587676733732,0.8144625425338745,0.0003101334732491523,-0.011506322771310806
195.0,221.0,1.7527,-2.117,8.802,-0.0272,0.031,-0.1193,-1.8038073978819789,0.0,3.1032204627990723,-1.6301259994506836,1.9330867118422164e-19,2.097581386566162,4.669484778041504,0.0,0.3025391697883606,-1.5456822554217737,0.0,-0.018076084554195404,1.4682011604309082,0.0,-0.0002919263788498938,0.8145028948783875,0.0002730678243096918,0.03266618400812149
195.0,221.0,1.7527,-2.117,8.802,-0.0272,0.031,-0.1193,-1.8038073978819789,0.0,3.1413044929504395,-1.6301100254058838,4.668176604763635e-25,2.1132843494415283,4.66951243459668,0.0,0.29510095715522766,-1.5456865469561976,0.0,-0.0043857707642018795,1.4681851863861084,0.0,-0.007782822474837303,0.8144663572311401,0.00023100861290004104,-0.027858015149831772
195.0,221.0,1.7527,-2.117,8.802,-0.0272,0.031,-0.1193,-1.8038073978819789,0.0,3.15038800239563,-1.6301382780075073,8.402553689372681e-29,2.1553173065185547,4.669444246883057,0.0,0.2953023314476013,-1.5456903616534632,0.0,-0.014173556119203568,1.4682176113128662,0.0,0.00896880216896534,0.8144906163215637,0.00025137196644209325,0.04461830109357834
195.0,221.0,1.7527,-2.117,8.802,-0.0272,0.031,-0.1193,-1.8037835560240687,0.0,3.1076271533966064,-1.630105972290039,2.0291179149915375e-34,2.1236517429351807,4.669480009669922,0.0,0.2966296076774597,-1.5456460157977503,0.0,-0.011712088249623775,1.4682172536849976,0.0,0.005418531596660614,0.814458429813385,0.00022058605100028217,0.02637188881635666
195.0,221.0,1.7527,-2.117,8.802,-0.0272,0.031,-0.1193,-1.803746839562887,0.0,3.097393035888672,-1.630069613456726,4.9000744830356636e-40,2.0993895530700684,4.6694604593464355,0.0,0.3060948848724365,-1.5456903616534632,0.0,-0.00907883420586586,1.4681971073150635,0.0,-0.0022759896237403154,0.8145027756690979,0.00022925477242097259,0.018346229568123817
195.0,221.0,1.7527,-2.117,8.802,-0.0272,0.031,-0.1193,-1.8037950001158656,0.0,3.089494228363037,-1.630142331123352,8.828180325246348e-44,2.1009645462036133,4.669476671809814,0.0,0.29265427589416504,-1.545678440724508,0.0,0.007593924179673195,1.4681651592254639,0.0,-0.001659757224842906,0.8145188689231873,0.00024380616378039122,-0.04484282433986664
195.0,221.0,1.7527,-2.117,8.802,-0.0272,0.031,-0.1193,-1.8037506542601527,0.0,3.1087446212768555,-1.6301259994506836,-0.0,2.1080918312072754,4.66950432836499,0.0,0.3029940128326416,-1.5457389990436,0.0,-0.009108531288802624,1.4681613445281982,0.0,0.0005149934440851212,0.8144383430480957,0.00022266419546213,0.004646855406463146
195.0,221.0,1.7527,-2.117,8.802,-0.0272,0.031,-0.1193,-1.803803106347555,0.0,3.124173641204834,-1.630061388015747,-0.0,2.169363021850586,4.669496698970459,0.0,0.30604514479637146,-1.5456584135638636,0.0,0.005162373185157776,1.4681004285812378,0.0,0.00930606760084629,0.8144543170928955,0.00024252325238194317,0.02814595028758049
195.0,221.0,1.7527,-2.117,8.802,-0.0272,0.031,-0.1193,-1.8037954769530238,0.0,3.1388540267944336,-1.6301063299179077,-0.0,2.149033546447754,4.669480009669922,0.0,0.3041556477546692,-1.5457027594195765,0.0,-0.015467551536858082,1.4681532382965088,0.0,0.006249467842280865,0.814498782157898,0.0002251148980576545,0.006044648587703705
195.0,221.0,1.7527,-2.117,8.802,-0.0272,0.031,-0.1193,-1.8037911854186,0.0,3.106086254119873,-1.6301140785217285,-0.0,2.09438419342041,4.6695167261311035,0.0,0.3103751242160797,-1.5456984678851526,0.0,-0.01042703166604042,1.4681893587112427,0.0,0.005429673939943314,0.814514696598053,0.00020009018771816045,0.0015057157725095749
195.0,221.0,1.7527,-2.117,8.802,-0.0272,0.031,-0.1193,-1.8037587604918421,0.0,3.1329329013824463,-1.630069613456726,-0.0,2.146667957305908,4.6694604593464355,0.0,0.29989707469940186,-1.5456422011004847,0.0,-0.015736417844891548,1.4682132005691528,0.0,0.014947734773159027,0.814458429813385,0.00018628453835844994,-0.016157982870936394
195.0,221.0,1.7527,-2.117,8.802,-0.0272,0.031,-0.1193,-1.8037830791869105,0.0,3.079653739929199,-1.6300655603408813,-0.0,2.111321210861206,4.6694604593464355,0.0,0.2959233522415161,-1.5456622282611292,0.0,-0.01028861291706562,1.4681531190872192,0.0,0.0011676430003717542,0.8144986629486084,0.00016881345072761178,0.021090662106871605
197.0,230.0,1.7623,-2.3085,9.1125,-0.0388,0.0157,-0.1208,-1.8038317165770472,0.0,3.150676727294922,-1.6301100254058838,-0.0,2.1202099323272705,4.669484778041504,0.0,0.29716864228248596,-1.5456388632403772,0.0,-0.001169117633253336,1.4681975841522217,0.0,-0.010676849633455276,0.8144705295562744,0.0001588795566931367,-2.954155206680298e-05
197.0,230.0,1.7623,-2.3085,9.1125,-0.0388,0.0157,-0.1208,-1.8037668667235316,0.0,3.17673397064209,-1.6300655603408813,-0.0,2.113455295562744,4.669472380275391,0.0,0.29951950907707214,-1.5456703344928187,0.0,-0.015076226554811,1.468140959739685,0.0,-0.011227251961827278,0.8144823312759399,0.00014599322457797825,-0.01700589247047901
197.0,230.0,1.7623,-2.3085,9.1125,-0.0388,0.0157,-0.1208,-1.8037792644896449,0.0,3.0847206115722656,-1.6301379203796387,-0.0,2.0869557857513428,4.669444246883057,0.0,0.2982926368713379,-1.545654598866598,0.0,-0.002187030389904976,1.4681490659713745,0.0,0.0016743065789341927,0.8145069479942322,0.00013504031812772155,0.006852808874100447
197.0,230.0,1.7623,-2.3085,9.1125,-0.0388,0.0157,-0.1208,-1.803803106347555,0.0,3.13063383102417,-1.6300898790359497,-0.0,2.154883861541748,4.66950432836499,0.0,0.31053367257118225,-1.5456064383136194,0.0,0.0012286509154364467,1.4681851863861084,0.0,0.010725199244916439,0.8144865036010742,0.00012860812421422452,0.04857226461172104
197.0,230.0,1.7623,-2.3085,9.1125,-0.0388,0.0157,-0.1208,-1.8038279018797816,0.0,3.1147994995117188,-1.630077838897705,-0.0,2.1043944358825684,4.669412298793457,0.0,0.30060699582099915,-1.545678440724508,0.0,0.0009036888368427753,1.4682130813598633,0.0,0.001048287027515471,0.8145151138305664,0.00012003188021481037,0.02965504676103592
197.0,230.0,1.7623,-2.3085,9.1125,-0.0388,0.0157,-0.1208,-1.8037830791869105,0.0,3.1113264560699463,-1.6300458908081055,-0.0,2.11651611328125,4.669428034419678,0.0,0.3011978268623352,-1.5456984678851526,0.0,0.006594524718821049,1.4681932926177979,0.0,-0.011882897466421127,0.8144543170928955,0.00011492289922898635,-0.0223447997123003
197.0,230.0,1.7623,-2.3085,9.1125,-0.0388,0.0157,-0.1208,-1.8037988148131312,0.0,3.1322386264801025,-1.6300898790359497,-0.0,2.0878114700317383,4.669484778041504,0.0,0.30702462792396545,-1.5457027594195765,0.0,-0.0002713354188017547,1.468200922012329,0.0,0.0037758385296911,0.8145028352737427,0.00010802582983160391,-0.032933950424194336
197.0,230.0,1.7623,-2.3085,9.1125,-0.0388,0.0157,-0.1208,-1.8037911854186,0.0,3.079580545425415,-1.6300983428955078,-0.0,2.0715746879577637,4.669484778041504,0.0,0.30185234546661377,-1.5456302801715296,0.0,-0.003837967524304986,1.4681930541992188,0.0,0.0017822388326749206,0.8144946098327637,0.00011821576481452212,-0.011552806943655014
197.0,230.0,1.7623,-2.3085,9.1125,-0.0388,0.0157,-0.1208,-1.8038155041136683,0.0,3.1395912170410156,-1.6300737857818604,-0.0,2.119668483734131,4.669408484096191,0.0,0.3022146224975586,-1.5456584135638636,0.0,-0.008474968373775482,1.4681572914123535,0.0,0.0042213862761855125,0.814522922039032,0.0001253417576663196,-0.0012001823633909225
197.0,230.0,1.7623,-2.3085,9.1125,-0.0388,0.0157,-0.1208,-1.8038197956480921,0.0,3.128654956817627,-1.630102515220642,4.275336323189549e-05,2.1531240940093994,4.669396086330078,0.0,0.3072963356971741,-1.5456302801715296,0.0,0.002565617673099041,1.468217134475708,0.0,-0.00419826153665781,0.8145226240158081,0.00018113043915946037,-0.020396118983626366
197.0,230.0,1.7623,-2.3085,9.1125,-0.0388,0.0157,-0.1208,-1.803807874719137,-2.5556864784448408e-05,3.124739170074463,-1.6300623416900635,6.955288699828088e-05,2.1485092639923096,4.669484778041504,0.0,0.3031436800956726,-1.5456584135638636,0.0,-0.008754801005125046,1.4681930541992188,0.0,-0.005965178366750479,0.8145830631256104,0.0025583840906620026,0.05098498985171318
197.0,230.0,1.7623,-2.3085,9.1125,-0.0388,0.0157,-0.1208,-1.8037549457945765,-2.7646492526400834e-05,3.0877904891967773,-1.630037546157837,6.698859215248376e-05,2.0998358726501465,4.669472380275391,0.0,0.31430700421333313,-1.5456507841693323,0.0,-0.010044808499515057,1.4682250022888184,0.0,-0.0043236310593783855,0.8145548105239868,0.0029747725930064917,0.010876284912228584
197.0,230.0,1.7623,-2.3085,9.1125,-0.0388,0.0157,-0.1208,-1.8037835560240687,-2.642874460434541e-05,3.1389365196228027,-1.6300257444381714,6.412483344320208e-05,2.0829012393951416,4.669496698970459,9.096734174818266e-07,0.3199257254600525,-1.545610253010885,0.0,-0.01690838113427162,1.468237280845642,0.0,0.004957574885338545,0.814538300037384,0.0028035619761794806,-0.03174615278840065
197.0,230.0,1.7623,-2.3085,9.1125,-0.0388,0.0157,-0.1208,-1.8037954769530238,-2.5674818971310742e-05,3.138343572616577,-1.630094289779663,6.234794273041189e-05,2.1353261470794678,4.669456167812012,3.878080523378458e-09,0.2973840534687042,-1.5456708113299769,0.0,-0.011394022032618523,1.4681975841522217,0.0,-0.005329062230885029,0.8145866394042969,0.002351539907976985,-0.034799475222826004
197.0,230.0,1.7623,-2.3085,9.1125,-0.0388,0.0157,-0.1208,-1.8038112125792445,-2.4621262127766386e-05,3.155996799468994,-1.6300623416900635,5.985995085211471e-05,2.1122853755950928,4.6694885927387695,1.0794779783593333e-12,0.30207517743110657,-1.5456503073321741,0.0,-0.01257295347750187,1.4682128429412842,0.0,0.005929737351834774,0.8145946264266968,0.001330703147687018,0.023448754101991653
197.0,230.0,1.7623,-2.3085,9.1125,-0.0388,0.0157,-0.1208,-1.8038155041136683,-3.592944995034486e-05,3.131010055541992,-1.630069613456726,5.830867667100392e-05,2.1228718757629395,4.669440432185791,4.601984212541238e-15,0.30992773175239563,-1.545666519795553,0.0,-0.0031199357472360134,1.4682049751281738,0.0,-0.012643910944461823,0.8145627379417419,0.0004153197805862874,0.01013120822608471
197.0,230.0,1.7623,-2.3085,9.1125,-0.0388,0.0157,-0.1208,-1.8037988148131312,-4.608823292073794e-05,3.1451966762542725,-1.6300859451293945,4.4903645175509155e-05,2.1145548820495605,4.6694885927387695,1.2809793412251316e-18,0.31110596656799316,-1.5456507841693323,0.0,-0.004485876765102148,1.4682209491729736,0.0,-0.0010172262554988265,0.8145706653594971,0.00023637106642127037,0.006019452586770058
196.0,232.0,1.6445,-2.3569,9.1125,-0.0476,0.0188,-0.113,-1.803803106347555,-0.00014021901006344706,3.1456806659698486,-1.6301345825195312,4.504481694311835e-05,2.14370059967041,4.669500513667725,3.565653058647401e-22,0.3008873462677002,-1.5456422011004847,0.0,-0.008240597322583199,1.4682130813598633,0.0,0.001674876781180501,0.8145545125007629,8.477547817165032e-05,-0.006091607268899679
196.0,232.0,1.6445,-2.3569,9.1125,-0.0476,0.0188,-0.113,-1.8038393459715785,-0.00020754752040375024,3.127990245819092,-1.630057454109192,3.696603744174354e-05,2.1163952350616455,4.669444246883057,1.5200936477709788e-24,0.31547820568084717,-1.5456746260272425,0.0,-0.017944205552339554,1.468177080154419,0.0,-0.0071745701134204865,0.8145427703857422,2.4759599909884855e-05,0.04450249299407005
196.0,232.0,1.6445,-2.3569,9.1125,-0.0476,0.0188,-0.113,-1.803831239739889,-0.0006070570670999587,3.112884521484375,-1.6301342248916626,3.2909931178437546e-05,2.0701191425323486,4.669468565578125,4.231236309974675e-28,0.31539058685302734,-1.5456627050982874,0.0,-0.015457171946763992,1.4681971073150635,0.0,0.0009014008101075888,0.8145304322242737,5.979151895818546e-11,0.014737975783646107
196.0,232.0,1.6445,-2.3569,9.1125,-0.0476,0.0188,-0.113,-1.8038112125792445,-0.00043331197230145335,3.147979259490967,-1.630061388015747,5.811425216961652e-05,2.114531993865967,4.66948048650708,1.1777802171368965e-31,0.31496956944465637,-1.5456422011004847,0.0,-0.027113430202007294,1.4681488275527954,0.0,-0.01245234813541174,0.8144822716712952,1.443895110583737e-16,0.05593736842274666
196.0,232.0,1.6445,-2.3569,9.1125,-0.0476,0.0188,-0.113,-1.8038274250426234,-0.0002937022363767028,3.1233785152435303,-1.630094289779663,5.564555976889096e-05,2.097212791442871,4.6694323259541015,5.021061671400014e-34,0.2967975437641144,-1.545638386403219,0.0,-0.010008285753428936,1.4682209491729736,0.0,0.0017443783581256866,0.8144823312759399,2.5989601256109853e-20,0.03524533659219742
196.0,232.0,1.6445,-2.3569,9.1125,-0.0476,0.0188,-0.113,-1.8038441143431605,-0.0002339694619877264,3.116549491882324,-1.6301223039627075,5.09228884766344e-05,2.1577253341674805,4.669524832362793,1.3976309859839862e-37,0.3118368685245514,-1.5456627050982874,0.0,-0.01308762189000845,1.4682369232177734,0.0,0.0030831797048449516,0.814498782157898,-0.0013190183090046048,0.009362210519611835
196.0,232.0,1.6445,-2.3569,9.1125,-0.0476,0.0188,-0.113,-1.8037954769530238,-0.00015537715808022767,3.1172027587890625,-1.6300417184829712,7.132441533030942e-05,2.1546823978424072,4.669472380275391,5.958321070309122e-40,0.3189006447792053,-1.5456464926349085,0.0,-0.010537547990679741,1.4682409763336182,0.0,0.0045740846544504166,0.8144341707229614,-0.0016641595866531134,0.0066277640871703625
196.0,232.0,1.6445,-2.3569,9.1125,-0.0476,0.0188,-0.113,-1.8037549457945765,-0.00013243542343843728,3.133918285369873,-1.630086064338684,6.691851740470156e-05,2.1327266693115234,4.669500513667725,1.6535321879032841e-43,0.31253674626350403,-1.5456188360797327,0.0,-0.006380496546626091,1.4681849479675293,0.0,-0.0016609809827059507,0.8144910335540771,-0.0013985808473080397,-0.009752042591571808
196.0,232.0,1.6445,-2.3569,9.1125,-0.0476,0.0188,-0.113,-1.8037711582579554,-0.00011544608423719183,3.1247811317443848,-1.630069613456726,6.22872103122063e-05,2.141186237335205,4.6695167261311035,0.00011637389252427965,0.3262248933315277,-1.545638386403219,0.0,-0.013034692034125328,1.468245029449463,0.0,0.0054879747331142426,0.8144625425338745,-0.0010908468393608928,0.0020854640752077103
196.0,232.0,1.6445,-2.3569,9.1125,-0.0476,0.0188,-0.113,-1.8038317165770472,-0.00010635085345711559,3.1568448543548584,-1.6301223039627075,5.954015432507731e-05,2.127675771713257,4.6695448595234375,0.00012483926548156887,0.31784912943840027,-1.5456302801715296,0.0,-0.016082439571619034,1.468245029449463,4.366337336136894e-08,0.0035506323911249638,0.8144468069076538,-0.0010607900330796838,0.022273920476436615
196.0,232.0,1.6445,-2.3569,9.1125,-0.0476,0.0188,-0.113,-1.8038636646666468,-0.00012676336336880922,3.1158413887023926,-1.6300581693649292,5.584570317296311e-05,2.113344192504883,4.669524355525635,0.0001153049452113919,0.3128771483898163,-1.545638386403219,0.0,-0.014809316024184227,1.468172550201416,1.2153859516028653e-11,0.01867983490228653,0.8144629597663879,-0.00099378009326756,-0.018101055175065994
196.0,232.0,1.6445,-2.3569,9.1125,-0.0476,0.0188,-0.113,-1.803859373132223,-4.66300843982026e-05,3.1624257564544678,-1.630086064338684,-2.6002342565334402e-05,2.114248275756836,4.669476194972656,0.00010968362767016515,0.31392139196395874,-1.545654598866598,0.0,-0.019893217831850052,1.4681925773620605,5.181381514704313e-14,-0.0008671500254422426,0.8144589066505432,-0.0007826181245036423,0.008374573662877083
196.0,232.0,1.6445,-2.3569,9.1125,-0.0476,0.0188,-0.113,-1.803819318810934,-6.581429624930024e-05,3.161318063735962,-1.6301543712615967,-2.6723844712250866e-05,2.1501235961914062,4.669468088740967,0.00010220956028206274,0.3176998496055603,-1.5456302801715296,0.0,-0.030352424830198288,1.4682008028030396,1.442256895924188e-17,0.01504812203347683,0.8144427537918091,-0.0005219867452979088,-0.020899958908557892
196.0,232.0,1.6445,-2.3569,9.1125,-0.0476,0.0188,-0.113,-1.8038636646666468,-0.00011829218419734389,3.1319990158081055,-1.630077838897705,-2.4537994249840267e-05,2.1552257537841797,4.669468088740967,9.568911627866328e-05,0.3096415400505066,-1.5456464926349085,0.0,-0.03027176484465599,1.4682655334472656,4.014574488493719e-21,0.011682342737913132,0.8144385814666748,-0.0003871827502734959,-0.026498202234506607
196.0,232.0,1.6445,-2.3569,9.1125,-0.0476,0.0188,-0.113,-1.8038679562010707,-0.0005195971461944282,3.154877185821533,-1.6300984621047974,-2.7305322873871773e-06,2.1592319011688232,4.669540567989014,9.178543405141681e-05,0.3231019079685211,-1.5456221739398401,0.0,-0.03681076690554619,1.4682369232177734,1.711475859049324e-23,0.014369872398674488,0.8144629597663879,-0.0003303221601527184,0.01099267229437828
196.0,232.0,1.6445,-2.3569,9.1125,-0.0476,0.0188,-0.113,-1.8038512669005335,-0.00046728597953915596,3.100843906402588,-1.6300222873687744,-6.593914650410149e-12,2.118058919906616,4.669476194972656,8.649288065498695e-05,0.3198571503162384,-1.545666519795553,0.0,-0.03001345507800579,1.468261480331421,4.763956043718967e-27,0.008176866918802261,0.8144304752349854,-0.0003248351567890495,-0.018809761852025986
196.0,232.0,1.6445,-2.3569,9.1125,-0.0476,0.0188,-0.113,-1.803831239739889,-0.0004417035379447043,3.0893964767456055,-1.6299816370010376,0.0040139262564480305,2.132643222808838,4.66953627645459,9.56527583184652e-05,0.3127646744251251,-1.5456741491900843,0.0,-0.02726682275533676,1.4682773351669312,2.0309487977687952e-29,0.006436999887228012,0.8144468069076538,-0.00028995066531933844,-0.011640707962214947
196.0,232.0,1.6445,-2.3569,9.1125,-0.0476,0.0188,-0.113,-1.8038274250426234,-0.00038050138391554356,3.1202731132507324,-1.6299898624420166,0.007725720293819904,2.1522576808929443,4.669476194972656,9.469006181461737e-05,0.3154739439487457,-1.545678440724508,0.0,-0.020694654434919357,1.468228816986084,0.00020518932433333248,0.003445487003773451,0.8144181370735168,-0.00024971988750621676,0.003545813262462616
193.0,207.0,1.5236,-1.8197,8.7464,-0.0156,0.0819,-0.1359,-1.80381502727651,-0.00032212617225013673,3.1694295406341553,-1.6299948692321777,0.00642402283847332,2.1778430938720703,4.669476194972656,8.995876123663038e-05,0.31624650955200195,-1.5456741491900843,0.0,-0.01729079894721508,1.4682488441467285,0.0002145865437341854,0.017384681850671768,0.8144221901893616,-0.0002192945685237646,-0.05292297527194023
193.0,207.0,1.5236,-1.8197,8.7464,-0.0156,0.0819,-0.1359,-1.8038350544371546,-0.0002922384883277118,3.069972515106201,-1.6299865245819092,0.004250239580869675,2.1394460201263428,4.669484301204346,8.705814980203286e-05,0.3289980888366699,-1.5456660429583948,0.0,-0.02684779465198517,1.4682813882827759,0.00020088464953005314,0.008782611228525639,0.8144465684890747,-0.00017038789519574493,-0.013778497464954853
193.0,207.0,1.5236,-1.8197,8.7464,-0.0156,0.0819,-0.1359,-1.803847452203268,-0.00011219002772122622,3.1431572437286377,-1.6299704313278198,0.0017611549701541662,2.121678352355957,4.669472380275391,8.304177026730031e-05,0.31166499853134155,-1.5456660429583948,0.0,-0.008733892813324928,1.4682528972625732,0.00021080681472085416,0.01551052089780569,0.8144385814666748,-0.00012157043238403276,0.022065643221139908
193.0,207.0,1.5236,-1.8197,8.7464,-0.0156,0.0819,-0.1359,-1.8038512669005335,-9.489872172707692e-05,3.144237518310547,-1.6299058198928833,0.0011285736691206694,2.1387014389038086,4.669415636653564,8.056395745370537e-05,0.32339203357696533,-1.5456340948687952,0.0,-0.03527079150080681,1.4682245254516602,0.00021146134531591088,0.019728630781173706,0.8144344687461853,-0.00011383521632524207,0.016246289014816284
193.0,207.0,1.5236,-1.8197,8.7464,-0.0156,0.0819,-0.1359,-1.803847452203268,-4.0969473047880456e-05,3.1614437103271484,-1.6299140453338623,0.0007337724091485143,2.169966220855713,4.669491930598877,7.711254875175655e-05,0.3270004093647003,-1.5456703344928187,0.0,-0.04614394158124924,1.4682815074920654,0.0002734522277023643,0.019961075857281685,0.8144665956497192,1.413938298355788e-05,0.05317922681570053
193.0,207.0,1.5236,-1.8197,8.7464,-0.0156,0.0819,-0.1359,-1.8038197956480921,-3.604579978855327e-05,3.1603851318359375,-1.6299223899841309,0.0005437003565020859,2.1636571884155273,4.669480009669922,7.394481508526951e-05,0.3301998972892761,-1.5456984678851526,0.0,-0.03312761336565018,1.468257188796997,0.00029553595231845975,0.023378422483801842,0.8145028352737427,0.000112527770397719,0.0558682344853878
193.0,207.0,1.5236,-1.8197,8.7464,-0.0156,0.0819,-0.1359,-1.8038679562010707,-3.3372478355886415e-05,3.0974745750427246,-1.6299265623092651,0.0004636484372895211,2.1099092960357666,4.669464274043701,7.197367085609585e-05,0.3255144953727722,-1.5456660429583948,0.0,-0.043044041842222214,1.4682081937789917,0.0003022595483344048,0.03328104317188263,0.8144705295562744,0.0007667329045943916,0.006178541108965874
193.0,207.0,1.5236,-1.8197,8.7464,-0.0156,0.0819,-0.1359,-1.8038512669005335,-5.652558320434764e-05,3.1410207748413086,-1.6298940181732178,0.00037978176260367036,2.148482322692871,4.669480009669922,6.92064204486087e-05,0.33272793889045715,-1.5456579367267054,0.0,-0.04434339702129364,1.4682408571243286,0.0003108302189502865,0.026376044377684593,0.8145110011100769,0.0006563089555129409,0.06121974438428879
193.0,207.0,1.5236,-1.8197,8.7464,-0.0156,0.0819,-0.1359,-1.8038350544371546,-5.630485975416377e-05,3.1236765384674072,-1.6299017667770386,0.00038664485327899456,2.145845890045166,4.669484301204346,6.747686711605638e-05,0.33583706617355347,-1.5456741491900843,0.0,-0.04120412468910217,1.4682815074920654,0.0002878197410609573,0.04148944839835167,0.8144543766975403,0.0005279083270579576,0.04089587554335594
193.0,207.0,1.5236,-1.8197,8.7464,-0.0156,0.0819,-0.1359,-1.8037988148131312,-7.721211295574903e-05,3.1364240646362305,-1.6299461126327515,0.00022036264999769628,2.1555871963500977,4.669448061580322,6.503877375507727e-05,0.33589088916778564,-1.5457308928119105,0.0,-0.038016531616449356,1.4682282209396362,0.00040120314224623144,0.03747357428073883,0.8145070672035217,0.0003483191831037402,0.03412309288978577
193.0,207.0,1.5236,-1.8197,8.7464,-0.0156,0.0819,-0.1359,-1.8038836918272914,-8.307790267281234e-05,3.1416068077087402,-1.6299338340759277,0.00019170806626789272,2.2226152420043945,4.6694604593464355,6.277072679949924e-05,0.340448796749115,-1.5457466284381312,0.0,-0.03124607540667057,1.4683053493499756,0.0003843853482976556,0.036945462226867676,0.8144264221191406,0.00022189586888998747,0.07607325911521912
193.0,207.0,1.5236,-1.8197,8.7464,-0.0156,0.0819,-0.1359,-1.8039113483824671,-0.00014980042760726064,3.1393747329711914,-1.62995445728302,0.00017665560881141573,2.131897211074829,4.6694885927387695,6.134458817541599e-05,0.3360651135444641,-1.5456660429583948,0.0,-0.044788748025894165,1.4682649374008179,0.00039150979137048125,0.041628215461969376,0.8144707679748535,0.00015397770039271563,0.039790451526641846
193.0,207.0,1.5236,-1.8197,8.7464,-0.0156,0.0819,-0.1359,-1.803871294061178,-0.0012328156735748053,3.1918692588806152,-1.6299223899841309,0.00015804247232154012,2.1424007415771484,4.669496222133301,1.5242186236719135e-05,0.3267904818058014,-1.5456865469561976,0.0,-0.048676952719688416,1.4683094024658203,0.000492463237605989,0.048057522624731064,0.8144264221191406,-0.00010805708734551445,0.04089327156543732
193.0,207.0,1.5236,-1.8197,8.7464,-0.0156,0.0819,-0.1359,-1.803875585595602,-0.001819321420043707,3.187771797180176,-1.6299183368682861,0.00012161371705587953,2.166806221008301,4.669456167812012,6.497982951714221e-08,0.33044397830963135,-1.545706574116842,0.0,-0.057539161294698715,1.4683619737625122,0.0004858981992583722,0.0430593267083168,0.8144506216049194,-0.00017685686179902405,0.03143741190433502
193.0,207.0,1.5236,-1.8197,8.7464,-0.0156,0.0819,-0.1359,-1.8038708172240199,-0.00228119851090014,3.1228585243225098,-1.6299099922180176,0.00010754791583167389,2.123560667037964,4.669484301204346,1.8087375347475287e-11,0.33032044768333435,-1.5457027594195765,0.0,-0.04820232838392258,1.4682568311691284,0.000556710350792855,0.046526387333869934,0.8144428730010986,-0.0006423874292522669,0.06619460880756378
193.0,207.0,1.5236,-1.8197,8.7464,-0.0156,0.0819,-0.1359,-1.8039480648436488,-0.002810130128636956,3.1750340461730957,-1.6299420595169067,7.404001371469349e-05,2.153803825378418,4.669472380275391,5.034686758481361e-15,0.33583587408065796,-1.545678440724508,0.0,-0.055246155709028244,1.468313455581665,0.0005881990073248744,0.06786958128213882,0.8144387006759644,-0.0006707140128128231,0.042895957827568054
193.0,207.0,1.5236,-1.8197,8.7464,-0.0156,0.0819,-0.1359,-1.8039761982359828,-0.0033860625699162483,3.1504154205322266,-1.6299865245819092,7.017813913989812e-05,2.135380744934082,4.669492407436035,2.146365937346881e-17,0.32620659470558167,-1.54567796388735,0.0,-0.052554063498973846,1.468285322189331,0.0005735071608796716,0.04440229758620262,0.8144506216049194,-0.0006234513130038977,0.06667814403772354
199.0,211.0,1.9831,-2.0028,9.0891,-0.0046,0.0082,-0.1101,-1.8039394817748011,-0.003163791261613369,3.1280078887939453,-1.6299183368682861,8.680220344103873e-05,2.146700859069824,4.669459982509277,5.974488880955404e-21,0.3427378833293915,-1.5456503073321741,0.0,-0.0463530495762825,1.468369483947754,0.0006392734358087182,0.055084772408008575,0.8143823146820068,-0.0005326681421138346,0.05797423794865608
199.0,211.0,1.9831,-2.0028,9.0891,-0.0046,0.0082,-0.1101,-1.8040124378600062,-0.0028241754043847322,3.1719822883605957,-1.62995445728302,8.094715303741395e-05,2.151949167251587,4.6694604593464355,1.663020945693119e-24,0.34724193811416626,-1.5456903616534632,0.0,-0.06207587942481041,1.4683291912078857,0.000792522681877017,0.06408076733350754,0.8143905401229858,-0.0005229825037531555,0.0680333822965622
199.0,211.0,1.9831,-2.0028,9.0891,-0.0046,0.0082,-0.1101,-1.8039795360960902,-0.0024817143566906452,3.1337246894836426,-1.6299223899841309,7.746359187876806e-05,2.1750779151916504,4.6695167261311035,7.089718674210715e-27,0.3369755744934082,-1.5456503073321741,0.0,-0.062462739646434784,1.4682972431182861,0.0009579782490618527,0.06437526643276215,0.8144145011901855,-0.0005273330025374889,0.005480806343257427
199.0,211.0,1.9831,-2.0028,9.0891,-0.0046,0.0082,-0.1101,-1.8040076694884242,-0.0020510072354227304,3.1707582473754883,-1.6299099922180176,2.964489976875484e-05,2.143677234649658,4.6694885927387695,1.9734492564994528e-30,0.3436067998409271,-1.5457308928119105,0.0,-0.05215299874544144,1.4683332443237305,0.002194928703829646,0.061828915029764175,0.8144264221191406,-0.00046390650095418096,0.06139443814754486
199.0,211.0,1.9831,-2.0028,9.0891,-0.0046,0.0082,-0.1101,-1.8040515385069789,-0.002591593423858285,3.1656975746154785,-1.6298738718032837,2.7811813197331503e-05,2.186643362045288,4.669472380275391,8.413123271430501e-33,0.33706676959991455,-1.545710865651266,0.0,-0.060843415558338165,1.468409776687622,0.0047247945331037045,0.06269479542970657,0.8144226670265198,-0.0003958366869483143,0.09145981818437576
199.0,211.0,1.9831,-2.0028,9.0891,-0.0046,0.0082,-0.1101,-1.8040434322752894,-0.003063634969294071,3.1549673080444336,-1.6299017667770386,2.5452198315178975e-05,2.156014919281006,4.669464750880859,2.341823806113933e-36,0.3353240489959717,-1.5456984678851526,0.0,-0.05742552503943443,1.4683451652526855,0.014599490910768509,0.07199966907501221,0.8144024610519409,-0.00031317194225266576,0.0569177083671093
199.0,211.0,1.9831,-2.0028,9.0891,-0.0046,0.0082,-0.1101,-1.8041087589659632,-0.0035002860240638256,3.1523561477661133,-1.6299183368682861,8.569832425564528e-05,2.1327922344207764,4.669452353114746,6.518546183361541e-40,0.346783846616745,-1.5456660429583948,0.0,-0.05781138688325882,1.4684810638427734,0.01230066642165184,0.06716728955507278,0.8144304752349854,-0.00020726189541164786,0.03422641381621361
199.0,211.0,1.9831,-2.0028,9.0891,-0.0046,0.0082,-0.1101,-1.804063459435934,-0.0037040526513010263,3.1589279174804688,-1.6298898458480835,0.00042179087176918983,2.14080548286438,4.669492407436035,2.7787748547561123e-42,0.35052555799484253,-1.545654598866598,0.0,-0.06921587139368057,1.468504786491394,0.005985761992633343,0.06691551953554153,0.8144264221191406,-0.00018585572252050042,0.07692849636077881
199.0,211.0,1.9831,-2.0028,9.0891,-0.0046,0.0082,-0.1101,-1.8040920696654261,-0.003829315770417452,3.1739673614501953,-1.6298861503601074,0.0016617890214547515,2.1696338653564453,4.66945664464917,1.401298464324817e-45,0.34418320655822754,-1.5457027594195765,0.0,-0.07324203103780746,1.468445062637329,0.00014926557196304202,0.06476238369941711,0.8144181370735168,-0.00012070458615198731,0.11563916504383087
199.0,211.0,1.9831,-2.0028,9.0891,-0.0046,0.0082,-0.1101,-1.8041521511473597,-0.0038774528075009584,3.157841444015503,-1.6298701763153076,0.002454533241689205,2.195046901702881,4.669459982509277,0.0,0.35465919971466064,-1.5457146803485315,0.0,-0.06913358718156815,1.468489170074463,-0.000421559379901737,0.07775655388832092,0.8144589066505432,0.0001187282323371619,0.032810185104608536
199.0,211.0,1.9831,-2.0028,9.0891,-0.0046,0.0082,-0.1101,-1.804119726220602,-0.003846950363367796,3.1077160835266113,-1.629874587059021,0.004399701487272978,2.2329468727111816,4.669484301204346,0.0,0.3436781167984009,-1.5456660429583948,0.0,-0.0633416399359703,1.4685213565826416,-0.00023196641996037215,0.07364414632320404,0.8144547343254089,0.00019637172226794064,0.05111701786518097
199.0,211.0,1.9831,-2.0028,9.0891,-0.0046,0.0082,-0.1101,-1.8041874370970667,-0.0038497853092849255,3.163731813430786,-1.6298099756240845,0.005901829805225134,2.151773452758789,4.669480009669922,0.0,0.3517671227455139,-1.545694653187887,0.0,-0.07358386367559433,1.4684810638427734,-0.0001671979989623651,0.06547950953245163,0.8144344687461853,0.00021261567599140108,0.04251490533351898
199.0,211.0,1.9831,-2.0028,9.0891,-0.0046,0.0082,-0.1101,-1.8042527637877406,-0.0036482156720012426,3.166616439819336,-1.6297903060913086,0.006253253202885389,2.158592700958252,4.669468088740967,0.0,0.34798699617385864,-1.5456703344928187,0.0,-0.07792697846889496,1.4685170650482178,-0.00014097946404945105,0.060032568871974945,0.8144625425338745,0.0001944301329785958,-0.009576518088579178
199.0,211.0,1.9831,-2.0028,9.0891,-0.0046,0.0082,-0.1101,-1.804244180718893,-0.003615851514041424,3.103848695755005,-1.6297297477722168,0.005901385564357042,2.188899040222168,4.669484301204346,0.0,0.33982545137405396,-1.5456822554217737,0.0,-0.08602525293827057,1.4684845209121704,-0.00011414111213525757,0.05576275289058685,0.8144140839576721,0.00017211903468705714,0.02007382921874523
199.0,211.0,1.9831,-2.0028,9.0891,-0.0046,0.0082,-0.1101,-1.804256101647848,-0.004250283818691969,3.145596981048584,-1.6297099590301514,0.006030735559761524,2.1865570545196533,4.669491930598877,8.467006864520954e-07,0.3573111891746521,-1.5457428137408655,0.0,-0.07679839432239532,1.4685338735580444,-0.000101289595477283,0.05967174470424652,0.8144547343254089,0.00015988761151675135,0.046382009983062744
199.0,211.0,1.9831,-2.0028,9.0891,-0.0046,0.0082,-0.1101,-1.8042432270445765,-0.0046193706803023815,3.1628503799438477,-1.629698634147644,0.005027696490287781,2.2205023765563965,4.669536753291748,2.3568225149261934e-10,0.3417673110961914,-1.5456822554217737,0.0,-0.06855754554271698,1.4684810638427734,-8.665529458085075e-05,0.052233338356018066,0.8144344687461853,0.00025512909633107483,0.05017712712287903
199.0,211.0,1.9831,-2.0028,9.0891,-0.0046,0.0082,-0.1101,-1.804312368432516,-0.0053552016615867615,3.1706390380859375,-1.6296782493591309,0.003863904159516096,2.1258230209350586,4.669536753291748,6.560302702549731e-14,0.3312724232673645,-1.5456422011004847,0.0,-0.09683612734079361,1.468445062637329,-7.571699825348333e-05,0.060391686856746674,0.8144264221191406,0.00017454841872677207,0.057239796966314316
186.0,210.0,1.2832,-2.3928,9.1843,-0.0446,0.0067,-0.0987,-1.80434050182485,-0.005610355641692877,3.124260425567627,-1.6296138763427734,0.0027913739904761314,2.1891567707061768,4.669515772456787,2.7967595903260545e-16,0.33813226222991943,-1.5456984678851526,0.0,-0.08834622800350189,1.4684489965438843,-6.984003994148225e-05,0.05886804684996605,0.8144181370735168,0.0001591166655998677,0.04896395280957222
186.0,210.0,1.2832,-2.3928,9.1843,-0.0446,0.0067,-0.0987,-1.8043800793089808,-0.006057504564523697,3.1285388469696045,-1.629594087600708,0.0020928638987243176,2.1756153106689453,4.669568701381348,7.784884319246376e-20,0.338832825422287,-1.5456984678851526,0.0,-0.06870848685503006,1.4685051441192627,-9.376275556860492e-05,0.06310398876667023,0.8144910335540771,0.00014048720186110586,0.0616939440369606
186.0,210.0,1.2832,-2.3928,9.1843,-0.0446,0.0067,-0.0987,-1.804387708703512,-0.005863167345523834,3.1510443687438965,-1.629621982574463,0.0017411254812031984,2.1577744483947754,4.66950432836499,3.3188183551860016e-22,0.3345471918582916,-1.545694653187887,0.0,-0.0831618681550026,1.468501091003418,-8.773630543146282e-05,0.06379948556423187,0.8144506216049194,0.00013031584967393428,0.05395020171999931
186.0,210.0,1.2832,-2.3928,9.1843,-0.0446,0.0067,-0.0987,-1.8044082127013148,-0.00569747481495142,3.1486973762512207,-1.6296095848083496,0.00167567515745759,2.1702969074249268,4.669508619899414,9.238054238203811e-26,0.34704458713531494,-1.5456822554217737,0.0,-0.07852955162525177,1.4684972763061523,-7.994258339749649e-05,0.05869028717279434,0.8144099712371826,0.00011755008017644286,0.024173429235816002
186.0,210.0,1.2832,-2.3928,9.1843,-0.0446,0.0067,-0.0987,-1.8044725857176722,-0.005736117716878653,3.1524009704589844,-1.6295900344848633,0.0021920432336628437,2.1290299892425537,4.669524355525635,2.571446291259936e-29,0.3481658101081848,-1.5456865469561976,0.0,-0.08482557535171509,1.468489170074463,-9.786527516553178e-05,0.048851072788238525,0.8144506216049194,0.0001070622238330543,0.049040406942367554
186.0,210.0,1.2832,-2.3928,9.1843,-0.0446,0.0067,-0.0987,-1.804484029809469,-0.0054629179649055,3.1759328842163086,-1.6295982599258423,0.003014616435393691,2.1512303352355957,4.66950432836499,1.0962479289638627e-31,0.33770376443862915,-1.5456660429583948,0.0,-0.0943610817193985,1.468489170074463,-9.284404222853482e-05,0.059798531234264374,0.8144304752349854,0.00010105168621521443,0.03560288995504379
