ramyac6/ROB537/final_project/csv/bad/bad_12.csv
tof_0,tof_1,accelx,accely,accelz,gyrox,gyroy,gyroz,shoulder_lift_joint_position,shoulder_lift_joint_velocity,shoulder_lift_joint_effort,elbow_joint_position,elbow_joint_velocity,elbow_joint_effort,wrist_1_joint_position,wrist_1_joint_velocity,wrist_1_joint_effort,wrist_2_joint_position,wrist_2_joint_velocity,wrist_2_joint_effort,wrist_3_joint_position,wrist_3_joint_velocity,wrist_3_joint_effort,shoulder_pan_joint_position,shoulder_pan_joint_velocity,shoulder_pan_joint_effort
700.0,873.0,-3.5629,0.6018,9.2064,-0.0428,0.0246,-0.1075,-2.1261044941344203,0.0,3.8727312088012695,-1.7780447006225586,-0.0,1.6483935117721558,-0.5812507432750245,0.0,0.23558081686496735,-1.6450098196612757,0.0,-0.0002575927646830678,0.6703695058822632,0.0,0.00703398184850812,1.0782322883605957,0.0,0.014565255492925644
700.0,873.0,-3.5629,0.6018,9.2064,-0.0428,0.0246,-0.1075,-2.1260720692076625,0.0,3.8946681022644043,-1.778100848197937,-0.0,1.6293048858642578,-0.5812262457660218,0.0,0.24941883981227875,-1.645022217427389,0.0,0.0032245973125100136,0.6703851222991943,0.0,0.004621601663529873,1.0782201290130615,0.0,0.0035052793100476265
700.0,873.0,-3.5629,0.6018,9.2064,-0.0428,0.0246,-0.1075,-2.126120706597799,0.0,3.8740735054016113,-1.7780650854110718,-0.0,1.6187125444412231,-0.5812510412982483,0.0,0.23515070974826813,-1.6449855009662073,0.0,0.0018692270386964083,0.6703933477401733,0.0,0.0068353526294231415,1.078188180923462,0.0,-0.011292727664113045
700.0,873.0,-3.5629,0.6018,9.2064,-0.0428,0.0246,-0.1075,-2.126120706597799,0.0,3.930191993713379,-1.7781126499176025,-0.0,1.648122787475586,-0.5811860722354432,0.0,0.24639292061328888,-1.6449578444110315,0.0,0.009717116132378578,0.6703972816467285,0.0,-0.017939098179340363,1.0781922340393066,0.0,0.033146437257528305
700.0,873.0,-3.5629,0.6018,9.2064,-0.0428,0.0246,-0.1075,-2.12613644222402,0.0,3.894108295440674,-1.778128743171692,-0.0,1.6122117042541504,-0.5812302988818665,0.0,0.23690465092658997,-1.644977871571676,0.0,0.004222316667437553,0.6703324913978577,0.0,-0.0011866377899423242,1.0782241821289062,0.0,-0.020006554201245308
700.0,873.0,-3.5629,0.6018,9.2064,-0.0428,0.0246,-0.1075,-2.126108785668844,0.0,3.8654115200042725,-1.7780447006225586,6.802318153198428e-10,1.6336045265197754,-0.5811860722354432,0.0,0.2364288866519928,-1.6449897925006312,0.0,-0.002745767356827855,0.6703649759292603,0.0,0.004030533134937286,1.0782322883605957,0.0,-0.037922874093055725
700.0,873.0,-3.5629,0.6018,9.2064,-0.0428,0.0246,-0.1075,-2.1261164150633753,0.0,3.8749234676361084,-1.778069019317627,1.6426798996095897e-15,1.5746204853057861,-0.5812021058848877,0.0,0.23987486958503723,-1.6449855009662073,0.0,-0.0035629419144243,0.6703850030899048,0.0,0.0067757731303572655,1.0782241821289062,0.0,-0.04411769658327103
700.0,873.0,-3.5629,0.6018,9.2064,-0.0428,0.0246,-0.1075,-2.1261164150633753,0.0,3.9117183685302734,-1.7780373096466064,3.966879125126941e-21,1.6154248714447021,-0.5812262457660218,0.0,0.2362067550420761,-1.6450098196612757,0.0,-0.003206622553989291,0.6704292893409729,0.0,-0.0013244436122477055,1.0781599283218384,0.0,-0.026470966637134552
700.0,873.0,-3.5629,0.6018,9.2064,-0.0428,0.0246,-0.1075,-2.1260844669737757,0.0,3.931950569152832,-1.778037190437317,0.000618304475210607,1.6353254318237305,-0.5812180799296875,0.0,0.24443066120147705,-1.6449654738055628,0.0,-0.0031637027859687805,0.6703932285308838,0.0,0.006044612266123295,1.0782122611999512,0.0,0.04343442618846893
691.0,840.0,-3.4798,0.6006,9.1286,-0.0368,0.0247,-0.1086,-2.1260763607420863,0.0,3.8933210372924805,-1.7780526876449585,0.00097976578399539,1.5725630521774292,-0.5812021058848877,0.0,0.23446950316429138,-1.6449978987323206,0.0,-0.012138583697378635,0.6703972816467285,0.0,0.013571525923907757,1.0781759023666382,0.0,0.007376671303063631
691.0,840.0,-3.4798,0.6006,9.1286,-0.0368,0.0247,-0.1086,-2.1260844669737757,0.0,3.9266929626464844,-1.7780492305755615,0.000709443527739495,1.6435215473175049,-0.5811860722354432,0.0,0.25506526231765747,-1.6449735800372522,0.0,-0.003601201344281435,0.6703453063964844,0.0,-0.001769048161804676,1.0782241821289062,0.0,-0.0028072772547602654
691.0,840.0,-3.4798,0.6006,9.1286,-0.0368,0.0247,-0.1086,-2.126092096368307,0.0,3.9008665084838867,-1.7779731750488281,0.0005097247776575387,1.5755114555358887,-0.5812180203250428,0.0,0.2396322637796402,-1.6449936071978968,0.0,-0.008647390641272068,0.6704092025756836,0.0,-0.0010571131715551019,1.0782241821289062,0.0,-0.0424676388502121
691.0,840.0,-3.4798,0.6006,9.1286,-0.0368,0.0247,-0.1086,-2.126092096368307,0.0,3.856250762939453,-1.7780605554580688,0.00042875119834207,1.67551589012146,-0.581209735279419,0.0,0.2446805238723755,-1.6449897925006312,0.0,0.0018789615714922547,0.6703686714172363,0.0,0.009144943207502365,1.078216314315796,0.0,-0.029855677857995033
691.0,840.0,-3.4798,0.6006,9.1286,-0.0368,0.0247,-0.1086,-2.1261002025999964,0.0,3.918459415435791,-1.778017282485962,0.0003462556342128664,1.5943132638931274,-0.5812221330455323,0.0,0.24343456327915192,-1.6449735800372522,0.0,0.010686738416552544,0.6704092025756836,0.0,-0.0031213113106787205,1.0781759023666382,0.0,0.03646363317966461
691.0,840.0,-3.4798,0.6006,9.1286,-0.0368,0.0247,-0.1086,-2.12613644222402,0.0,3.911980152130127,-1.778037190437317,0.00029038701904937625,1.663178563117981,-0.5812507432750245,0.0,0.24301089346408844,-1.6449454466449183,0.0,-0.004044495988637209,0.670376718044281,0.0,0.008407162502408028,1.078179955482483,0.0,-0.015585670247673988
691.0,840.0,-3.4798,0.6006,9.1286,-0.0368,0.0247,-0.1086,-2.126120706597799,0.0,3.9008607864379883,-1.778049111366272,0.00026218625134788454,1.620916485786438,-0.5812138479999085,0.0,0.23581118881702423,-1.6449421087848108,0.0,-0.004758867435157299,0.6703768968582153,0.0,0.0200326107442379,1.078256607055664,0.0,0.03062811680138111
691.0,840.0,-3.4798,0.6006,9.1286,-0.0368,0.0247,-0.1086,-2.1261283359923304,0.0,3.8798599243164062,-1.778037190437317,0.00022884954523760825,1.6345112323760986,-0.5812382859042664,0.0,0.24050477147102356,-1.6449578444110315,0.0,0.0030310354195535183,0.6704334616661072,0.0,0.005317889153957367,1.0782328844070435,0.0,0.00449402816593647
691.0,840.0,-3.4798,0.6006,9.1286,-0.0368,0.0247,-0.1086,-2.126104017297262,0.0,3.944795608520508,-1.778049111366272,0.0002030345203820616,1.6437263488769531,-0.5812061590007325,0.0,0.23338575661182404,-1.6449978987323206,0.0,-0.009613404050469398,0.6704214811325073,0.0,-0.003546494757756591,1.078200340270996,0.0,-0.030675124377012253
691.0,840.0,-3.4798,0.6006,9.1286,-0.0368,0.0247,-0.1086,-2.1261126003661097,0.0,3.8973193168640137,-1.7780770063400269,0.00018245360115543008,1.6240639686584473,-0.5812221330455323,0.0,0.25019943714141846,-1.6449821631061,0.0,0.00381853012368083,0.6704092025756836,0.0,0.002148102968931198,1.0781680345535278,0.0,-0.005902951117604971
691.0,840.0,-3.4798,0.6006,9.1286,-0.0368,0.0247,-0.1086,-2.1261407337584437,0.0,3.893548011779785,-1.7780451774597168,0.00017090426990762353,1.6425466537475586,-0.581209735279419,0.0,0.2537630796432495,-1.645022217427389,0.0,0.0090563939884305,0.6703851222991943,0.0,0.0028694309294223785,1.078179955482483,0.0,-0.030809078365564346
691.0,840.0,-3.4798,0.6006,9.1286,-0.0368,0.0247,-0.1086,-2.126052042047018,0.0,3.883394479751587,-1.7780770063400269,0.000156084424816072,1.6233717203140259,-0.5812667173198243,0.0,0.25529494881629944,-1.6450265089618128,0.0,0.0003784259606618434,0.6704092025756836,0.0,-0.0007266465108841658,1.0781922340393066,0.0,-0.009582758881151676
691.0,840.0,-3.4798,0.6006,9.1286,-0.0368,0.0247,-0.1086,-2.126092096368307,0.0,3.907273530960083,-1.7780606746673584,0.00014362952788360417,1.5813989639282227,-0.5812304776958008,0.0,0.23274198174476624,-1.6449416319476526,0.0,-0.002041122643277049,0.6703809499740601,0.0,0.018460307270288467,1.0781762599945068,0.0,0.040417518466711044
691.0,840.0,-3.4798,0.6006,9.1286,-0.0368,0.0247,-0.1086,-2.1260725460448207,2.7236691124699064e-08,3.896824359893799,-1.7780566215515137,0.0001542947138659656,1.6196635961532593,-0.5812262457660218,0.0,0.24641633033752441,-1.6449735800372522,0.0,0.0032020502258092165,0.6704136729240417,0.0,0.000745010853279382,1.0781680345535278,0.0,-0.021855749189853668
691.0,840.0,-3.4798,0.6006,9.1286,-0.0368,0.0247,-0.1086,-2.1260606251158656,4.9025085206710894e-12,3.8876242637634277,-1.7780526876449585,0.00014789846318308264,1.6019479036331177,-0.5812347096255799,0.0,0.23972396552562714,-1.644937817250387,0.0,-0.0018445500172674656,0.6704252362251282,0.0,-0.005201136693358421,1.0781439542770386,0.0,-0.03501366451382637
691.0,840.0,-3.4798,0.6006,9.1286,-0.0368,0.0247,-0.1086,-2.1260844669737757,1.1838982812495806e-17,3.9168877601623535,-1.778080940246582,0.00013816772843711078,1.6106665134429932,-0.5812062186053772,0.0,0.23972129821777344,-1.6449855009662073,0.0,-0.007615244947373867,0.670344889163971,0.0,0.0026263277977705,1.0781439542770386,0.0,0.01103660836815834
691.0,840.0,-3.4798,0.6006,9.1286,-0.0368,0.0247,-0.1086,-2.126108308831686,2.858975177661335e-23,3.901323080062866,-1.7780407667160034,0.00014812842709943652,1.6106538772583008,-0.5811978143504639,0.0,0.24296265840530396,-1.6450179258929651,0.0,0.004393871873617172,0.6704334616661072,0.0,0.004629003349691629,1.0781840085983276,-0.00017110325279645622,-0.04526505619287491
703.0,838.0,-3.5653,0.591,9.0281,-0.031,0.0275,-0.1129,-2.126092096368307,5.1460551520815506e-27,3.887446880340576,-1.7780451774597168,0.00014230185479391366,1.643988847732544,-0.5812143844417115,0.0,0.23815840482711792,-1.6449974218951624,0.0,-0.002804757561534643,0.6703727841377258,0.0,-0.0034424387849867344,1.078160285949707,-0.00015901133883744478,0.04115337133407593
703.0,838.0,-3.5653,0.591,9.0281,-0.031,0.0275,-0.1129,-2.1261326275267542,1.2427116157278014e-32,3.9018564224243164,-1.778017282485962,8.93046599230729e-05,1.6158335208892822,-0.5812388223460694,0.0,0.23478467762470245,-1.6449897925006312,0.0,-0.006552357692271471,0.6704211235046387,0.0,0.007424482144415379,1.0782525539398193,-0.00014377028855960816,-0.004537570755928755
703.0,838.0,-3.5653,0.591,9.0281,-0.031,0.0275,-0.1129,-2.126092096368307,3.001002294058299e-38,3.836794376373291,-1.7780252695083618,0.00011773989535868168,1.5949360132217407,-0.5811700981906434,0.0,0.2422705441713333,-1.6450141111956995,0.0,-0.00485012074932456,0.6704211235046387,0.0,0.0024292985908687115,1.0781762599945068,-0.00013119526556693017,-0.04873168468475342
703.0,838.0,-3.5653,0.591,9.0281,-0.031,0.0275,-0.1129,-2.126120706597799,7.286752014489049e-44,3.851322650909424,-1.7779731750488281,0.0006840451969765127,1.642993688583374,-0.5812303584865113,0.0,0.23964744806289673,-1.6449978987323206,0.0,0.001355593092739582,0.670401394367218,0.0,-0.00268277688883245,1.0782322883605957,-9.652804146753624e-05,-0.007500329986214638
703.0,838.0,-3.5653,0.591,9.0281,-0.031,0.0275,-0.1129,-2.126096387902731,0.0,3.9203591346740723,-1.7779650688171387,0.001228552544489503,1.6338626146316528,-0.5811901849559327,0.0,0.24435384571552277,-1.6449535528766077,0.0,0.006115052383393049,0.6704251766204834,0.0,0.008428337052464485,1.0782285928726196,-9.160298941424116e-05,0.0012358073145151138
703.0,838.0,-3.5653,0.591,9.0281,-0.031,0.0275,-0.1129,-2.126052518884176,0.0,3.9451913833618164,-1.7780128717422485,0.0015878693666309118,1.6004688739776611,-0.5812428754619141,0.0,0.2404199242591858,-1.6449897925006312,0.0,0.010365044698119164,0.6704051494598389,0.0,-0.00426836684346199,1.078163981437683,-8.510633779224008e-05,-0.026053212583065033
703.0,838.0,-3.5653,0.591,9.0281,-0.031,0.0275,-0.1129,-2.1260606251158656,0.0,3.891096591949463,-1.7780205011367798,0.002921291859820485,1.5769217014312744,-0.5812015694430848,0.0,0.25710156559944153,-1.6450141111956995,0.0,0.0002663281629793346,0.6704132556915283,0.0,0.013321055099368095,1.078200340270996,-6.192942964844406e-05,0.04900069162249565
703.0,838.0,-3.5653,0.591,9.0281,-0.031,0.0275,-0.1129,-2.1261121235289515,0.0,3.898723602294922,-1.7779572010040283,0.0076493024826049805,1.636383056640625,-0.5812502664378663,0.0,0.2318505048751831,-1.64500600496401,0.0,0.0052736676298081875,0.6703727841377258,0.0,0.0013690569903701544,1.0782324075698853,-5.59006366529502e-05,-0.03677241504192352
703.0,838.0,-3.5653,0.591,9.0281,-0.031,0.0275,-0.1129,-2.1260844669737757,0.0,3.9111649990081787,-1.7779289484024048,0.010959014296531677,1.6458748579025269,-0.5812061590007325,0.0,0.24176397919654846,-1.6450017134295862,0.0,0.01020738109946251,0.6704169511795044,0.0,0.004128407686948776,1.078200340270996,-5.3677937103202567e-05,-0.0006597135215997696
703.0,838.0,-3.5653,0.591,9.0281,-0.031,0.0275,-0.1129,-2.126064439813131,0.0,3.899394989013672,-1.7778291702270508,0.011740910820662975,1.6268506050109863,-0.5812138479999085,0.0,0.24848812818527222,-1.64500600496401,0.0,0.0015896422555670142,0.6704497337341309,0.0,0.009204826317727566,1.078188180923462,-5.065668301540427e-05,0.06267651915550232
703.0,838.0,-3.5653,0.591,9.0281,-0.031,0.0275,-0.1129,-2.1261283359923304,0.0,3.8656511306762695,-1.7777297496795654,0.013318424113094807,1.6481910943984985,-0.5812667173198243,0.0,0.23620235919952393,-1.6450017134295862,0.0,-0.010667571797966957,0.6704014539718628,0.0,0.0045961905270814896,1.0782122611999512,5.490495459525846e-05,0.05275993049144745
703.0,838.0,-3.5653,0.591,9.0281,-0.031,0.0275,-0.1129,-2.1261121235289515,0.0,3.932159423828125,-1.7776927947998047,0.01482369378209114,1.6224703788757324,-0.5812056821635743,0.0,0.23580920696258545,-1.6450141111956995,0.0,-0.0009906392078846693,0.6704169511795044,0.0,-0.006827812176197767,1.0782322883605957,7.545081462012604e-05,0.040636077523231506
703.0,838.0,-3.5653,0.591,9.0281,-0.031,0.0275,-0.1129,-2.126120706597799,0.0,3.855597496032715,-1.7776265144348145,0.01595442369580269,1.6308989524841309,-0.5812097948840638,0.0,0.2455546259880066,-1.6450017134295862,0.0,-0.007973960600793362,0.6703891158103943,0.0,0.007995148189365864,1.0781880617141724,7.14613197487779e-05,0.046017542481422424
703.0,838.0,-3.5653,0.591,9.0281,-0.031,0.0275,-0.1129,-2.1261002025999964,0.0,3.895120620727539,-1.777478575706482,0.01797182857990265,1.7125740051269531,-0.5812139076045533,0.0,0.23917248845100403,-1.6450098196612757,0.0,-0.004118872806429863,0.6704332828521729,0.0,0.002750715473666787,1.0782204866409302,8.823720418149605e-05,0.05601412057876587
703.0,838.0,-3.5653,0.591,9.0281,-0.031,0.0275,-0.1129,-2.126104017297262,0.0,3.9061198234558105,-1.777338981628418,0.02100570686161518,1.6574642658233643,-0.5812666577151795,0.0,0.23143543303012848,-1.645022217427389,0.0,-0.007360212039202452,0.6703768968582153,0.0,-0.001846405677497387,1.078231930732727,0.00010309488425264135,0.08749398589134216
703.0,838.0,-3.5653,0.591,9.0281,-0.031,0.0275,-0.1129,-2.126120706597799,0.0,3.883681297302246,-1.7773032188415527,0.02310519851744175,1.6702604293823242,-0.5812223118594666,0.0,0.23905867338180542,-1.6449773947345179,0.0,0.0002453762572258711,0.6704009771347046,0.0,-0.0056990571320056915,1.078216314315796,0.0003471162053756416,0.08990664780139923
683.0,861.0,-3.5252,0.472,9.1113,-0.0504,0.0634,-0.1148,-2.126108308831686,0.0,3.8774490356445312,-1.7771390676498413,0.025828847661614418,1.649199366569519,-0.5812223714641114,0.0,0.23363500833511353,-1.6449897925006312,0.0,-0.012403842061758041,0.670417845249176,0.0,0.004163040779531002,1.0782361030578613,0.00038856995524838567,0.06680838763713837
683.0,861.0,-3.5252,0.472,9.1113,-0.0504,0.0634,-0.1148,-2.126104017297262,0.0,3.8661627769470215,-1.7769386768341064,0.028656719252467155,1.7412548065185547,-0.5812264245799561,-1.659222874650368e-07,0.2129555195569992,-1.645022217427389,0.0,-0.01749574951827526,0.6703732013702393,0.0,0.008794646710157394,1.078163504600525,0.0006641303189098835,0.10423637926578522
683.0,861.0,-3.5252,0.472,9.1113,-0.0504,0.0634,-0.1148,-2.1261002025999964,0.0,3.8769099712371826,-1.7767678499221802,0.0311044380068779,1.734081506729126,-0.5812624257854004,-4.61850765964833e-11,0.21842947602272034,-1.6449697653399866,0.0,-0.013590863905847073,0.6704660058021545,0.0,-0.008422929793596268,1.0782361030578613,0.00048764265375211835,0.13741227984428406
683.0,861.0,-3.5252,0.472,9.1113,-0.0504,0.0634,-0.1148,-2.1260844669737757,0.0,3.8771233558654785,-1.7767002582550049,0.034231942147016525,1.699728012084961,-0.581254319553711,-1.968942044995592e-13,0.22332176566123962,-1.6450017134295862,0.0,-0.01862802729010582,0.6704173684120178,0.0,0.0008919538231566548,1.0782524347305298,0.000413022527936846,0.1413695365190506
683.0,861.0,-3.5252,0.472,9.1113,-0.0504,0.0634,-0.1148,-2.1260844669737757,0.0,3.8815741539001465,-1.7764415740966797,0.03509882092475891,1.6715152263641357,-0.5812301200679322,-0.000246786221396178,0.2406553477048874,-1.64500600496401,0.0,-0.019318902865052223,0.6704577803611755,0.0,0.011129558086395264,1.0782725811004639,0.00039191244286485016,0.11916449666023254
683.0,861.0,-3.5252,0.472,9.1113,-0.0504,0.0634,-0.1148,-2.1261126003661097,0.0,3.9091124534606934,-1.7762131690979004,0.03915311396121979,1.7125356197357178,-0.5812304776958008,-0.0004448737308848649,0.21863746643066406,-1.6450308004962366,0.0,-0.027822773903608322,0.6703609228134155,0.0,0.0046652378514409065,1.078231930732727,0.00033026718301698565,0.09509919583797455
683.0,861.0,-3.5252,0.472,9.1113,-0.0504,0.0634,-0.1148,-2.126092096368307,0.0,3.844755172729492,-1.7759816646575928,0.04068613424897194,1.7504280805587769,-0.5812744063190003,-0.0004171364998910576,0.23729437589645386,-1.6449773947345179,0.0,-0.024429483339190483,0.6704332828521729,0.0,0.002473022323101759,1.0782241821289062,0.0002853817422874272,0.11705566942691803
683.0,861.0,-3.5252,0.472,9.1113,-0.0504,0.0634,-0.1148,-2.126068254510397,0.0,3.8662712574005127,-1.77577805519104,0.04287628084421158,1.737932801246643,-0.5812904399684449,-0.00041737104766070843,0.2338886708021164,-1.6449735800372522,0.0,-0.025123953819274902,0.6703768968582153,0.0,0.002839602530002594,1.0782159566879272,0.0002616726269479841,0.17827828228473663
683.0,861.0,-3.5252,0.472,9.1113,-0.0504,0.0634,-0.1148,-2.126080175439352,0.0,3.9020471572875977,-1.7755271196365356,0.045563068240880966,1.8299098014831543,-0.5812822741321106,-0.0004017184837721288,0.2216368019580841,-1.6449855009662073,0.0,-0.020154252648353577,0.67038494348526,0.0,0.003219647565856576,1.078231930732727,0.00026457002968527377,0.1535627394914627
683.0,861.0,-3.5252,0.472,9.1113,-0.0504,0.0634,-0.1148,-2.126080175439352,0.0,3.9264750480651855,-1.775220274925232,0.047484640032052994,1.7511026859283447,-0.5812621277621766,-0.0003748192102648318,0.21665528416633606,-1.6449816862689417,0.0,-0.024801336228847504,0.6704051494598389,0.0,0.00963528174906969,1.0781962871551514,0.00023939282982610166,0.1680469512939453
683.0,861.0,-3.5252,0.472,9.1113,-0.0504,0.0634,-0.1148,-2.1261002025999964,1.0720161299104802e-05,3.9159698486328125,-1.7750121355056763,0.04834258183836937,1.7657277584075928,-0.5812662404826661,-0.00033577228896319866,0.2304377555847168,-1.645022217427389,0.0,-0.035823892802000046,0.6704374551773071,0.0,-0.010368850082159042,1.0782766342163086,0.0002244657662231475,0.16766920685768127
683.0,861.0,-3.5252,0.472,9.1113,-0.0504,0.0634,-0.1148,-2.126096387902731,1.669613602928166e-08,3.8885974884033203,-1.7747406959533691,0.049156736582517624,1.7641282081604004,-0.5812817376903077,-0.0003740571264643222,0.22768531739711761,-1.645022217427389,0.0,-0.014591965824365616,0.6704497337341309,0.0,0.0035722791217267513,1.078192114830017,0.0001526673586340621,0.1801319718360901
683.0,861.0,-3.5252,0.472,9.1113,-0.0504,0.0634,-0.1148,-2.1261326275267542,4.03191985820419e-14,3.919025421142578,-1.7744381427764893,0.0495719350874424,1.8075731992721558,-0.5812420409968873,-0.000493580533657223,0.22759494185447693,-1.6449855009662073,0.0,-0.028697995468974113,0.6704537868499756,0.0,0.010218705981969833,1.0783003568649292,0.00016625181888230145,0.2329896092414856
683.0,861.0,-3.5252,0.472,9.1113,-0.0504,0.0634,-0.1148,-2.1261002025999964,9.736611158451563e-20,3.848970890045166,-1.774126648902893,0.052029311656951904,1.771355152130127,-0.5812615913203736,-0.0009195397142320871,0.23526626825332642,-1.645022217427389,0.0,-0.02867085114121437,0.6704092025756836,0.0,0.011014958843588829,1.0782729387283325,0.00017757042951416224,0.25136256217956543
683.0,861.0,-3.5252,0.472,9.1113,-0.0504,0.0634,-0.1148,-2.126104017297262,1.752555475144346e-23,3.897707939147949,-1.7739038467407227,0.05409257858991623,1.8182421922683716,-0.5813547533801575,-0.000984766986221075,0.22365745902061462,-1.6449897925006312,0.0,-0.03442174941301346,0.6704857349395752,0.0,-0.00018645694945007563,1.0782564878463745,0.0001920995127875358,0.22504106163978577
683.0,861.0,-3.5252,0.472,9.1113,-0.0504,0.0634,-0.1148,-2.1261126003661097,4.232215103683599e-29,3.883384943008423,-1.7736042737960815,0.058772776275873184,1.7818455696105957,-0.5812654060176392,-0.001196810626424849,0.21330642700195312,-1.6450017134295862,-0.0001227641332661733,-0.030266888439655304,0.6704496145248413,0.0,0.0025018544401973486,1.0782642364501953,0.0004119239456485957,0.25721344351768494
683.0,861.0,-3.5252,0.472,9.1113,-0.0504,0.0634,-0.1148,-2.1260720692076625,1.0220302342857021e-34,3.8935513496398926,-1.7732174396514893,0.06365504115819931,1.805983543395996,-0.5813422960093995,-0.0009517233702354133,0.22428922355175018,-1.6449773947345179,-0.00013618536468129605,-0.03705133497714996,0.6704415082931519,0.0,0.015184890478849411,1.0782761573791504,0.00044867669930681586,0.25811561942100525
632.0,815.0,-3.7759,0.5133,9.2154,-0.0432,0.1119,-0.1182,-2.1261407337584437,2.468078959246014e-40,3.873934745788574,-1.7727967500686646,0.06654705852270126,1.8395084142684937,-0.5813300770572205,-0.0007272554794326425,0.21574297547340393,-1.6450098196612757,-0.00014771132555324584,-0.04031290113925934,0.6704127788543701,0.0,0.005317406263202429,1.0782442092895508,0.0007407655939459801,0.23656907677650452
632.0,815.0,-3.7759,0.5133,9.2154,-0.0432,0.1119,-0.1182,-2.126124521295065,4.484155085839415e-44,3.887083053588867,-1.772523045539856,0.06822051852941513,1.8326672315597534,-0.5813743633082886,-0.000674720446113497,0.2237253487110138,-1.6449855009662073,-0.00015865237219259143,-0.046417854726314545,0.67038494348526,0.0,0.0069276136346161366,1.0782361030578613,0.001118752988986671,0.3087944984436035
632.0,815.0,-3.7759,0.5133,9.2154,-0.0432,0.1119,-0.1182,-2.1261326275267542,0.0,3.88594388961792,-1.7720764875411987,0.07243740558624268,1.8490936756134033,-0.581325964336731,-0.0004328980576246977,0.2098100185394287,-1.6449573675738733,-0.00030384972342289984,-0.048185549676418304,0.6704496145248413,0.0,0.0077818697318434715,1.0782442092895508,0.001341905677691102,0.2893184423446655
632.0,815.0,-3.7759,0.5133,9.2154,-0.0432,0.1119,-0.1182,-2.126124521295065,0.0,3.8780689239501953,-1.7716256380081177,0.07844850420951843,1.8667240142822266,-0.5813743633082886,-0.0003357592795509845,0.2265213131904602,-1.6450336615191858,-0.00030946487095206976,-0.062073566019535065,0.6704415678977966,0.0,0.03570733591914177,1.0782840251922607,0.0016831500688567758,0.3563360273838043
632.0,815.0,-3.7759,0.5133,9.2154,-0.0432,0.1119,-0.1182,-2.1260763607420863,0.0,3.89846134185791,-1.7712745666503906,0.08410618454217911,1.9105241298675537,-0.5813186329654236,-0.00029213615925982594,0.20881789922714233,-1.6450379530536097,-0.0002889606694225222,-0.05551868677139282,0.6704413890838623,0.0,0.015561092644929886,1.0782721042633057,0.0019160378724336624,0.29368463158607483
632.0,815.0,-3.7759,0.5133,9.2154,-0.0432,0.1119,-0.1182,-2.12613644222402,0.0,3.9043383598327637,-1.7707793712615967,0.0914401262998581,1.9106862545013428,-0.5813423556140442,-0.00029001885559409857,0.21148644387722015,-1.6450303236590784,-0.0002904761058744043,-0.049773186445236206,0.6704614162445068,0.0,0.020398691296577454,1.078296422958374,0.0024698982015252113,0.3029562532901764
632.0,815.0,-3.7759,0.5133,9.2154,-0.0432,0.1119,-0.1182,-2.126120706597799,0.0,3.9123549461364746,-1.7702009677886963,0.0972411260008812,1.8866444826126099,-0.5813702505877991,-0.00028867836226709187,0.2122032344341278,-1.645034138356344,-0.0002915835939347744,-0.057383812963962555,0.670380711555481,0.0,0.00018550828099250793,1.078288197517395,0.0035052692983299494,0.3383983075618744
632.0,815.0,-3.7759,0.5133,9.2154,-0.0432,0.1119,-0.1182,-2.126108785668844,0.0,3.8982255458831787,-1.769638180732727,0.10181092470884323,1.9327352046966553,-0.5813661378673096,-0.000258122367085889,0.2084864228963852,-1.6450379530536097,-0.00026020535733550787,-0.06649255007505417,0.6704051494598389,0.0,0.011193206533789635,1.0783404111862183,0.004173883702605963,0.34075218439102173
632.0,815.0,-3.7759,0.5133,9.2154,-0.0432,0.1119,-0.1182,-2.1261164150633753,0.0,3.9071388244628906,-1.7692036628723145,0.1046905517578125,1.9206628799438477,-0.5813542169383545,-0.00027234494336880744,0.21313592791557312,-1.6450303236590784,-0.0002695383154787123,-0.05009177327156067,0.6704092025756836,0.0,0.01091296412050724,1.0783120393753052,0.0039506834000349045,0.33560991287231445
632.0,815.0,-3.7759,0.5133,9.2154,-0.0432,0.1119,-0.1182,-2.1261283359923304,0.0,3.872636556625366,-1.7685242891311646,0.11164157092571259,1.978606939315796,-0.5813661974719544,-0.0002448338200338185,0.21710866689682007,-1.6449812094317835,-0.00022860962781123817,-0.04980353266000748,0.6704537868499756,0.0,0.020004115998744965,1.0783156156539917,0.0030687591060996056,0.3563728332519531
632.0,815.0,-3.7759,0.5133,9.2154,-0.0432,0.1119,-0.1182,-2.1261445484557093,0.0,3.8692660331726074,-1.7678394317626953,0.12005434185266495,1.9004546403884888,-0.5813780587962647,-0.0001866430538939312,0.23573163151741028,-1.6449974218951624,-0.00023665618209633976,-0.0671612098813057,0.6704495549201965,0.0,0.019542250782251358,1.0783278942108154,0.002246730960905552,0.3530539870262146
632.0,815.0,-3.7759,0.5133,9.2154,-0.0432,0.1119,-0.1182,-2.1261521778502406,0.0,3.8521337509155273,-1.7670495510101318,0.12990355491638184,1.9316041469573975,-0.5813702505877991,-0.00016552685701753944,0.22075024247169495,-1.6449974218951624,-0.0002102335711242631,-0.06262558698654175,0.6704374551773071,0.0,0.018945056945085526,1.078359842300415,0.0017021222738549113,0.34158462285995483
632.0,815.0,-3.7759,0.5133,9.2154,-0.0432,0.1119,-0.1182,-2.1261326275267542,0.0,3.8878259658813477,-1.7665112018585205,0.1367112398147583,1.9528923034667969,-0.58133418977771,-0.00015418225666508079,0.22079753875732422,-1.6449735800372522,-0.00019504458759911358,-0.062097471207380295,0.6704856753349304,0.0,0.01500664558261633,1.0783803462982178,0.001583899138495326,0.3636664152145386
632.0,815.0,-3.7759,0.5133,9.2154,-0.0432,0.1119,-0.1182,-2.1261445484557093,0.0,3.8832640647888184,-1.7657150030136108,0.14620432257652283,2.0059993267059326,-0.5813821715167542,-0.00016773876268416643,0.2338455617427826,-1.645034138356344,-0.00017597348778508604,-0.05189841240644455,0.6704939007759094,0.0,0.010005461983382702,1.078368067741394,0.0013950655702501535,0.35492897033691406
632.0,815.0,-3.7759,0.5133,9.2154,-0.0432,0.1119,-0.1182,-2.126080175439352,0.0,3.867091417312622,-1.7647886276245117,0.15213695168495178,1.9684137105941772,-0.5813819927028199,-0.0001534663897473365,0.2251705378293991,-1.6449974218951624,-0.00016030071128625423,-0.06690872460603714,0.6704211235046387,0.0,0.012624336406588554,1.0784122943878174,0.0010861266637220979,0.3280576765537262
632.0,815.0,-3.7759,0.5133,9.2154,-0.0432,0.1119,-0.1182,-2.1261326275267542,0.0,3.9298226833343506,-1.763885736465454,0.15729622542858124,2.0165011882781982,-0.5813699525645752,-0.00014140928396955132,0.21659430861473083,-1.6449936071978968,-0.0001471913419663906,-0.049483440816402435,0.6704251170158386,0.0,0.009275306947529316,1.078404188156128,0.0008175436523742974,0.37473905086517334
632.0,815.0,-3.7759,0.5133,9.2154,-0.0432,0.1119,-0.1182,-2.1261521778502406,0.0,3.932224750518799,-1.7632447481155396,0.16051597893238068,2.014299154281616,-0.581385926609375,-0.00013437116285786033,0.22008812427520752,-1.64500600496401,-0.0001395814324496314,-0.05974547937512398,0.6705222129821777,0.0,0.01630716398358345,1.0783963203430176,0.0006672039744444191,0.31591689586639404
563.0,733.0,-3.8016,0.8028,9.2459,-0.0412,0.2268,-0.1295,-2.126124521295065,0.0,3.889165163040161,-1.7622355222702026,0.17170877754688263,1.999591588973999,-0.58137400568042,-0.00012503679317887872,0.23593255877494812,-1.645034138356344,-0.0001482856459915638,-0.0641835406422615,0.6703891754150391,0.0,0.013261533342301846,1.0784001350402832,0.0004108537978027016,0.3725875914096832
563.0,733.0,-3.8016,0.8028,9.2459,-0.0412,0.2268,-0.1295,-2.1261402569212855,0.0,3.9315857887268066,-1.7611618041992188,0.1830156296491623,2.0232722759246826,-0.5813378852656861,-0.00011691488180076703,0.23687060177326202,-1.645022217427389,-0.00014097844541538507,-0.07152173668146133,0.6703768968582153,0.0,0.020105907693505287,1.0784001350402832,0.00038592738565057516,0.33457130193710327
563.0,733.0,-3.8016,0.8028,9.2459,-0.0412,0.2268,-0.1295,-2.1261807880797328,0.0,3.9465253353118896,-1.7604478597640991,0.19122527539730072,2.0300354957580566,-0.5813940924457093,-0.00011206234921701252,0.23166079819202423,-1.6449974218951624,-0.00013493973528966308,-0.05488646402955055,0.670445442199707,0.0,0.017391160130500793,1.0784324407577515,0.00039242880302481353,0.33809366822242737
563.0,733.0,-3.8016,0.8028,9.2459,-0.0412,0.2268,-0.1295,-2.1261326275267542,0.0,3.8697681427001953,-1.7592849731445312,0.19928160309791565,2.0426268577575684,-0.5813539189151307,-0.00011414544860599563,0.23086398839950562,-1.6449974218951624,-0.00012679219071287662,-0.0580696202814579,0.6704128384590149,0.0,0.017771301791071892,1.0784201622009277,0.000554992351680994,0.36075931787490845
563.0,733.0,-3.8016,0.8028,9.2459,-0.0412,0.2268,-0.1295,-2.126188417474264,0.0,3.856412410736084,-1.7581119537353516,0.20041623711585999,2.037827253341675,-0.5814179343036194,-0.00011626016930676997,0.2262415885925293,-1.6449855009662073,-0.00011957254173466936,-0.06360774487257004,0.6703891158103943,0.0,0.0047579496167600155,1.0783799886703491,0.0005739329499192536,0.35548365116119385
563.0,733.0,-3.8016,0.8028,9.2459,-0.0412,0.2268,-0.1295,-2.1261683903136195,0.0,3.8958277702331543,-1.7568252086639404,0.21277916431427002,2.084148406982422,-0.5813777607730408,-0.00011016367352567613,0.2197541445493698,-1.6450141111956995,-0.00011313082359265536,-0.05432960391044617,0.6704133152961731,0.0,0.01600142940878868,1.0783799886703491,0.0004638321988750249,0.35250943899154663
563.0,733.0,-3.8016,0.8028,9.2459,-0.0412,0.2268,-0.1295,-2.1261683903136195,0.0,3.9059648513793945,-1.7559902667999268,0.2225942313671112,2.035395860671997,-0.5814179343036194,-0.00010644109715940431,0.22420325875282288,-1.645022217427389,-0.0001092086749849841,-0.06103600189089775,0.6704456210136414,0.0,0.007214037235826254,1.078452467918396,0.00041088476427830756,0.3940058648586273
563.0,733.0,-3.8016,0.8028,9.2459,-0.0412,0.2268,-0.1295,-2.126172205010885,0.0,3.8757987022399902,-1.754564881324768,0.23508615791797638,2.1175427436828613,-0.5814056557467957,-0.0001257305993931368,0.22310450673103333,-1.6450384298907679,-0.00010381003085058182,-0.04697273671627045,0.6704453825950623,0.0,0.013704599812626839,1.0784282684326172,0.0003656950721051544,0.31238338351249695
563.0,733.0,-3.8016,0.8028,9.2459,-0.0412,0.2268,-0.1295,-2.126120229760641,0.0,3.943667411804199,-1.7531648874282837,0.2361951619386673,2.0846476554870605,-0.5814417761615296,-0.001198544749058783,0.22812344133853912,-1.645034138356344,-9.892004891298711e-05,-0.05317012965679169,0.6704292893409729,0.0,0.019384510815143585,1.0784282684326172,0.0003541477781254798,0.37902185320854187
563.0,733.0,-3.8016,0.8028,9.2459,-0.0412,0.2268,-0.1295,-2.1261564693846644,0.0,3.90440034866333,-1.7516626119613647,0.2445482760667801,2.0741655826568604,-0.5814097684672852,-0.0018352119950577617,0.2266692817211151,-1.645034138356344,-9.447008778806776e-05,-0.05736275017261505,0.6703645586967468,0.0,0.004568884149193764,1.0783718824386597,0.0003951032704208046,0.3905971646308899
563.0,733.0,-3.8016,0.8028,9.2459,-0.0412,0.2268,-0.1295,-2.1261283359923304,0.0,3.9001235961914062,-1.7506357431411743,0.2505468726158142,2.1400017738342285,-0.5814254444888611,-0.0021979352459311485,0.22697561979293823,-1.644989315663473,-0.00010311098594684154,-0.06780217587947845,0.6704414486885071,0.0,0.022858107462525368,1.0784645080566406,0.0006306671421043575,0.3970687985420227
563.0,733.0,-3.8016,0.8028,9.2459,-0.0412,0.2268,-0.1295,-2.1261445484557093,0.0,3.8836169242858887,-1.7491393089294434,0.26116445660591125,2.1808083057403564,-0.5814734262279053,-0.0027916107792407274,0.22673353552818298,-1.6450384298907679,-0.00010043505608337,-0.06539245694875717,0.6704128384590149,0.0,0.019220134243369102,1.0784037113189697,0.0005257991724647582,0.4234733581542969
563.0,733.0,-3.8016,0.8028,9.2459,-0.0412,0.2268,-0.1295,-2.1261521778502406,-8.736853487789631e-05,3.9458742141723633,-1.7475321292877197,0.26369890570640564,2.1531286239624023,-0.5815096658519288,-0.00376510969363153,0.21551232039928436,-1.645022217427389,-9.640130156185478e-05,-0.05676327645778656,0.6704249978065491,0.0,-0.001995052443817258,1.0784685611724854,0.0005013804184272885,0.4358372688293457
563.0,733.0,-3.8016,0.8028,9.2459,-0.0412,0.2268,-0.1295,-2.126148363152975,-8.484706631861627e-05,3.9431512355804443,-1.7464431524276733,0.26932135224342346,2.21382212638855,-0.5815299910357972,-0.004649023991078138,0.21780940890312195,-1.6449974218951624,-9.388721809955314e-05,-0.09187236428260803,0.6704132556915283,0.0,0.010920843109488487,1.0784521102905273,0.0007064460660330951,0.412935733795166
563.0,733.0,-3.8016,0.8028,9.2459,-0.0412,0.2268,-0.1295,-2.1261807880797328,-8.030481694731861e-05,3.926996946334839,-1.7447504997253418,0.2820911109447479,2.2616450786590576,-0.5815696877292176,-0.004197622649371624,0.21126610040664673,-1.6450098196612757,-9.035263065015897e-05,-0.0670725479722023,0.6703808307647705,0.0,0.009166558273136616,1.0784803628921509,0.001651392551138997,0.43698781728744507
563.0,733.0,-3.8016,0.8028,9.2459,-0.0412,0.2268,-0.1295,-2.1261521778502406,-7.622408884344622e-05,3.9010488986968994,-1.742979884147644,0.28784218430519104,2.200709819793701,-0.5815733832171937,-0.0027271308936178684,0.20224489271640778,-1.645034138356344,-8.70745861902833e-05,-0.06412029266357422,0.6704578399658203,0.0,0.0031443051993846893,1.0784242153167725,0.0013720033457502723,0.3975679278373718
447.0,519.0,-4.0696,0.3535,9.3446,-0.0855,0.3531,-0.1439,-2.12613644222402,-7.253805961227044e-05,3.9494423866271973,-1.7412400245666504,0.2952204644680023,2.195880651473999,-0.5815611642650147,-0.001521354541182518,0.21886679530143738,-1.644989315663473,-8.402603270951658e-05,-0.07050582021474838,0.6704009771347046,0.0,0.00331944040954113,1.0784844160079956,0.001654363702982664,0.4530492424964905
447.0,519.0,-4.0696,0.3535,9.3446,-0.0855,0.3531,-0.1439,-2.12616028408193,-7.027253013802692e-05,3.9305291175842285,-1.7399946451187134,0.30337992310523987,2.266575574874878,-0.5815978807261963,-0.001070133177563548,0.22851970791816711,-1.6450579802142542,-6.316931830951944e-05,-0.07769834250211716,0.6704009771347046,0.0,0.008230060338973999,1.0784761905670166,0.0023690713569521904,0.46260756254196167
447.0,519.0,-4.0696,0.3535,9.3446,-0.0855,0.3531,-0.1439,-2.126192709008688,-6.712775939377025e-05,3.88730525970459,-1.7382075786590576,0.3131958544254303,2.26084566116333,-0.5815854829600831,-0.0007395704742521048,0.206020325422287,-1.6449974218951624,-5.938700996921398e-05,-0.0650242269039154,0.6704127788543701,0.0,0.005646145902574062,1.0784963369369507,0.002550151664763689,0.4738186001777649
447.0,519.0,-4.0696,0.3535,9.3446,-0.0855,0.3531,-0.1439,-2.126176496545309,-6.425240280805156e-05,3.9308927059173584,-1.736280918121338,0.32129207253456116,2.28176212310791,-0.5815853041461487,-0.0005651964456774294,0.20822912454605103,-1.6449897925006312,-5.712500205845572e-05,-0.06468186527490616,0.6703932285308838,0.0,0.0038420925848186016,1.0784721374511719,0.0021171579137444496,0.44571271538734436
447.0,519.0,-4.0696,0.3535,9.3446,-0.0855,0.3531,-0.1439,-2.126164575616354,-8.204942423617467e-05,3.987980842590332,-1.734373927116394,0.33264023065567017,2.3009860515594482,-0.5816098016551514,-0.00045740214409306645,0.20360949635505676,-1.6450303236590784,-5.502929343492724e-05,-0.07204211503267288,0.6704055070877075,0.0,0.0030843368731439114,1.07852041721344,0.0018219113117083907,0.46970903873443604
447.0,519.0,-4.0696,0.3535,9.3446,-0.0855,0.3531,-0.1439,-2.126204629937643,-9.578986646374688e-05,3.9379124641418457,-1.733056664466858,0.3347957730293274,2.294625759124756,-0.5815492433360596,-0.0002808203571476042,0.20987339317798615,-1.645034138356344,-5.371563747758046e-05,-0.07165733724832535,0.6704009771347046,0.0,5.887317820452154e-05,1.0784839391708374,0.002108554122969508,0.49573975801467896
447.0,519.0,-4.0696,0.3535,9.3446,-0.0855,0.3531,-0.1439,-2.1261846027769984,-0.0002463571145199239,3.9835195541381836,-1.7310103178024292,0.3403353691101074,2.3517749309539795,-0.5815528196147461,-0.00027902756119146943,0.20455211400985718,-1.6449855009662073,-5.185854388400912e-05,-0.07519696652889252,0.6704051494598389,0.0,-0.006751091219484806,1.0785444974899292,0.0023101249244064093,0.3978891670703888
447.0,519.0,-4.0696,0.3535,9.3446,-0.0855,0.3531,-0.1439,-2.126273294488424,-0.0012343362905085087,3.953716278076172,-1.7289437055587769,0.35193079710006714,2.38270902633667,-0.5815937680057068,-0.0005971500067971647,0.21211457252502441,-1.6450184027301233,-5.012560359318741e-05,-0.06251536309719086,0.6704092025756836,0.0,0.0014857309870421886,1.0785322189331055,0.002308150287717581,0.48142027854919434
447.0,519.0,-4.0696,0.3535,9.3446,-0.0855,0.3531,-0.1439,-2.126216550866598,-0.001411683508194983,3.963149070739746,-1.7275233268737793,0.3535083830356598,2.3551390171051025,-0.5816174310496827,-0.0013820307794958353,0.22576934099197388,-1.6450541655169886,-1.6406614804509445e-06,-0.07520613819360733,0.6703727841377258,0.0,-0.0010250904597342014,1.0785080194473267,0.002392000751569867,0.4722447991371155
447.0,519.0,-4.0696,0.3535,9.3446,-0.0855,0.3531,-0.1439,-2.126273294488424,-0.00146219483576715,3.9286201000213623,-1.72541344165802,0.3599620759487152,2.3110666275024414,-0.5816171330264588,-0.0020951139740645885,0.196431964635849,-1.6449936071978968,-4.566841349529227e-10,-0.0681053027510643,0.670474112033844,0.0,0.005216524004936218,1.0785685777664185,0.0032733180560171604,0.4647402763366699
447.0,519.0,-4.0696,0.3535,9.3446,-0.0855,0.3531,-0.1439,-2.126212259332174,-0.001247143722139299,3.9200172424316406,-1.723197102546692,0.3707241415977478,2.432915210723877,-0.5816812080195923,-0.0026016838382929564,0.20909085869789124,-1.645034138356344,-1.271197096154239e-13,-0.08016154170036316,0.6704413890838623,0.0,0.008798078633844852,1.0785841941833496,0.004151733126491308,0.4499773681163788
447.0,519.0,-4.0696,0.3535,9.3446,-0.0855,0.3531,-0.1439,-2.126256605187887,-0.0012581476476043463,3.983135223388672,-1.7209246158599854,0.3697570860385895,2.373431921005249,-0.5817493361285706,-0.003401256399229169,0.200042724609375,-1.6449855009662073,-3.538423888873186e-17,-0.07709569483995438,0.6703850626945496,0.0,0.003165801055729389,1.0786563158035278,0.005020949058234692,0.5355826616287231
447.0,519.0,-4.0696,0.3535,9.3446,-0.0855,0.3531,-0.1439,-2.1262642345824183,-0.002140013501048088,3.9524543285369873,-1.7194358110427856,0.3736955225467682,2.3982458114624023,-0.5817375344089051,-0.003844160819426179,0.19112561643123627,-1.64500600496401,-1.5084857268838268e-19,-0.07904016226530075,0.6703968644142151,0.0,0.004573154263198376,1.078688621520996,0.006162900943309069,0.47367382049560547
447.0,519.0,-4.0696,0.3535,9.3446,-0.0855,0.3531,-0.1439,-2.126296659509176,-0.004512295126914978,3.9784083366394043,-1.7171887159347534,0.3824763894081116,2.4214231967926025,-0.5817211431315918,-0.0030836507212370634,0.20149889588356018,-1.6450384298907679,-4.198924844938883e-23,-0.06674844771623611,0.6704618334770203,0.0,-0.008678654208779335,1.0787208080291748,0.007028043270111084,0.5482709407806396
447.0,519.0,-4.0696,0.3535,9.3446,-0.0855,0.3531,-0.1439,-2.1262923679747523,-0.004987465683370829,3.979334592819214,-1.7149043083190918,0.3846147656440735,2.3873486518859863,-0.5817408722690125,-0.0026829896960407495,0.20767240226268768,-1.6450141111956995,-1.1687864090483597e-26,-0.07386445254087448,0.6704132556915283,0.0,0.0007982800016179681,1.0787043571472168,0.0063398233614861965,0.5012682676315308
447.0,519.0,-4.0696,0.3535,9.3446,-0.0855,0.3531,-0.1439,-2.1263567409911097,-0.0044896891340613365,3.9047927856445312,-1.712480902671814,0.39252936840057373,2.413010597229004,-0.5817609590343018,-0.0022201656829565763,0.19897893071174622,-1.6449974218951624,-3.253359855279294e-30,-0.07555845379829407,0.6704373955726624,0.0,-0.008251726627349854,1.0787522792816162,0.006926859263330698,0.5214876532554626
447.0,519.0,-4.0696,0.3535,9.3446,-0.0855,0.3531,-0.1439,-2.126352449456686,-0.004342912696301937,3.956695079803467,-1.7109841108322144,0.3946671485900879,2.4843690395355225,-0.5817490381053467,-0.0019758897833526134,0.1894799768924713,-1.6450265089618128,-1.3869581438219367e-32,-0.06436675786972046,0.6704577803611755,0.0,0.013032454997301102,1.078739881515503,0.0062861936166882515,0.5017353296279907
349.0,351.0,-4.6187,0.5216,9.1508,-0.0817,0.423,-0.1458,-2.126360078851217,-0.004358786158263683,3.9437203407287598,-1.7086200714111328,0.4006871283054352,2.476977825164795,-0.5817812842181702,-0.003060224000364542,0.20051982998847961,-1.644994084035055,-3.860649105379346e-36,-0.0658380538225174,0.6704697012901306,0.0,0.015874605625867844,1.078808069229126,0.005982580594718456,0.5180872678756714
349.0,351.0,-4.6187,0.5216,9.1508,-0.0817,0.423,-0.1458,-2.1264411411681117,-0.004266522359102964,3.957101345062256,-1.7062088251113892,0.40539082884788513,2.4187560081481934,-0.5818732541850586,-0.004738489631563425,0.19794496893882751,-1.6449855009662073,-1.0746263650229514e-39,-0.06179707497358322,0.6704132556915283,0.0,0.008209791034460068,1.07883620262146,0.00677013024687767,0.5306609869003296
349.0,351.0,-4.6187,0.5216,9.1508,-0.0817,0.423,-0.1458,-2.1264568767943324,-0.004012175835669041,3.9368515014648438,-1.70383620262146,0.41404303908348083,2.4800963401794434,-0.5819167655757447,-0.006591470446437597,0.1814221441745758,-1.6449897925006312,-2.9847657290118604e-43,-0.06922145187854767,0.6704009771347046,0.0,-0.0003953890409320593,1.0788559913635254,0.006321445573121309,0.5318061113357544
349.0,351.0,-4.6187,0.5216,9.1508,-0.0817,0.423,-0.1458,-2.126464983026022,-0.0041468082927167416,3.9719362258911133,-1.7021069526672363,0.4168856143951416,2.4600746631622314,-0.5819205206683655,-0.009022624231874943,0.17804016172885895,-1.6449502150165003,-1.401298464324817e-45,-0.07117190957069397,0.6704170107841492,0.0,-0.004239675123244524,1.0789164304733276,0.006416711490601301,0.5560259819030762
349.0,351.0,-4.6187,0.5216,9.1508,-0.0817,0.423,-0.1458,-2.1265045605101527,-0.005500837229192257,3.9531681537628174,-1.6996486186981201,0.4193887710571289,2.4836597442626953,-0.5820044440082093,-0.014194222167134285,0.17270228266716003,-1.6449735800372522,-0.0,-0.060511767864227295,0.670401394367218,0.0,0.004377088509500027,1.078944206237793,0.005663593299686909,0.5427753925323486
349.0,351.0,-4.6187,0.5216,9.1508,-0.0817,0.423,-0.1458,-2.126552721063131,-0.007563347462564707,3.9591851234436035,-1.6971324682235718,0.4242880046367645,2.5437822341918945,-0.5821367067149659,-0.020194457843899727,0.17202109098434448,-1.6449697653399866,-0.0,-0.06805107742547989,0.6704373955726624,0.0,-0.0013948113191872835,1.078944206237793,0.004898822400718927,0.48573583364486694
349.0,351.0,-4.6187,0.5216,9.1508,-0.0817,0.423,-0.1458,-2.1265889606871546,-0.007866892032325268,3.976898670196533,-1.6953712701797485,0.42487862706184387,2.4509828090667725,-0.5822757643512269,-0.02590269222855568,0.1783018708229065,-1.6449740568744105,-0.0,-0.06580101698637009,0.6703728437423706,0.0,0.00037064775824546814,1.078984260559082,0.004638686776161194,0.5176531076431274
349.0,351.0,-4.6187,0.5216,9.1508,-0.0817,0.423,-0.1458,-2.126681467095846,-0.006693646311759949,3.9614524841308594,-1.6927845478057861,0.4353727698326111,2.5412144660949707,-0.5824634593776246,-0.03733347728848457,0.15752430260181427,-1.6449855009662073,-0.0,-0.06857949495315552,0.6704496741294861,0.0,0.0026349183171987534,1.0790040493011475,0.004735680762678385,0.5688647031784058
349.0,351.0,-4.6187,0.5216,9.1508,-0.0817,0.423,-0.1458,-2.1266571484007777,-0.00588424364104867,3.96315860748291,-1.6902086734771729,0.433708518743515,2.5541319847106934,-0.5827545088580628,-0.06362397968769073,0.13624021410942078,-1.645022217427389,-0.0,-0.07344087958335876,0.6703729629516602,0.0,-0.000836432445794344,1.0790642499923706,0.004921916872262955,0.5259884595870972
349.0,351.0,-4.6187,0.5216,9.1508,-0.0817,0.423,-0.1458,-2.126709123651022,-0.006913448218256235,3.98624324798584,-1.6875672340393066,0.4372200667858124,2.560275077819824,-0.5833019775203248,-0.10579369217157364,0.1222861036658287,-1.644994084035055,-0.0,-0.06113146245479584,0.6704091429710388,0.0,0.004485759884119034,1.0790400505065918,0.005645559635013342,0.5741131901741028
349.0,351.0,-4.6187,0.5216,9.1508,-0.0817,0.423,-0.1458,-2.126756807366842,-0.007522549480199814,4.02509880065918,-1.685750961303711,0.43966779112815857,2.585118293762207,-0.5838214916041871,-0.1366676539182663,0.12173183262348175,-1.645022217427389,-0.0,-0.06753513962030411,0.6704170107841492,0.0,0.004529178608208895,1.079015851020813,0.005993406288325787,0.5608584880828857
349.0,351.0,-4.6187,0.5216,9.1508,-0.0817,0.423,-0.1458,-2.1267525158324183,-0.006385590881109238,3.976959705352783,-1.6830905675888062,0.4433481991291046,2.602160930633545,-0.5848070544055481,-0.17006200551986694,0.07983476668596268,-1.6449855009662073,-0.0,-0.06257535517215729,0.6704453825950623,0.0,0.0014341967180371284,1.0791325569152832,0.00509338453412056,0.6005458831787109
349.0,351.0,-4.6187,0.5216,9.1508,-0.0817,0.423,-0.1458,-2.1268211803831996,-0.0038095207419246435,4.027036666870117,-1.6804322004318237,0.44692352414131165,2.5505638122558594,-0.5858439368060608,-0.18454957008361816,0.0730525553226471,-1.64500600496401,-0.0,-0.06791417300701141,0.6704333424568176,0.0,0.006556152366101742,1.0791325569152832,0.003905927762389183,0.5710951089859009
349.0,351.0,-4.6187,0.5216,9.1508,-0.0817,0.423,-0.1458,-2.1268450222411097,-0.002404002472758293,4.020903587341309,-1.6777266263961792,0.4506504237651825,2.6098337173461914,-0.5870328110507508,-0.20892660319805145,0.06227126717567444,-1.6450265089618128,-0.0,-0.05351267009973526,0.6704132556915283,0.0,0.0005166176706552505,1.0791840553283691,0.003889567218720913,0.5762848854064941
349.0,351.0,-4.6187,0.5216,9.1508,-0.0817,0.423,-0.1458,-2.126792093316549,-0.0024566082283854485,4.006470680236816,-1.6759161949157715,0.4538204073905945,2.625749349594116,-0.5878590506366272,-0.22955560684204102,0.05597234144806862,-1.6449855009662073,-0.0,-0.06130880117416382,0.6704051494598389,0.0,-0.004248750861734152,1.0791561603546143,0.0045044030994176865,0.6458282470703125
349.0,351.0,-4.6187,0.5216,9.1508,-0.0817,0.423,-0.1458,-2.126820226708883,-0.0027117705903947353,3.992920398712158,-1.6731700897216797,0.4621279835700989,2.6476879119873047,-0.5893241924098511,-0.2432829588651657,0.044118016958236694,-1.6449740568744105,-0.0,-0.06696054339408875,0.6703606843948364,0.0,-0.006472511682659388,1.0792484283447266,0.004939449951052666,0.620716392993927
310.0,320.0,-6.4409,0.5791,8.9372,-0.0272,0.0651,-0.1237,-2.1269008121886195,-0.0025492175482213497,4.030186653137207,-1.670362114906311,0.46437498927116394,2.6737570762634277,-0.5909131330302735,-0.28916963934898376,-0.0009859204292297363,-1.644994084035055,-0.0,-0.06374600529670715,0.6704414486885071,0.0,-0.00563585851341486,1.0792121887207031,0.004148478154093027,0.5994095802307129
310.0,320.0,-6.4409,0.5791,8.9372,-0.0272,0.0651,-0.1237,-2.126856943170065,-0.0029851861763745546,4.029733657836914,-1.6684921979904175,0.4664395749568939,2.640185832977295,-0.592181996708252,-0.3113917112350464,0.017106764018535614,-1.6449897925006312,-0.0,-0.06032638996839523,0.6704333424568176,0.0,-0.0014924979768693447,1.0792360305786133,0.004078196827322245,0.6262516379356384
310.0,320.0,-6.4409,0.5791,8.9372,-0.0272,0.0651,-0.1237,-2.1268726787962855,-0.004220165312290192,4.01873779296875,-1.6657021045684814,0.4732695519924164,2.6785435676574707,-0.5941375654986878,-0.3468846380710602,-0.006386894267052412,-1.6449974218951624,-0.0,-0.05365726351737976,0.6703928709030151,0.0,0.013675112277269363,1.0792720317840576,0.003918676637113094,0.6356656551361084
310.0,320.0,-6.4409,0.5791,8.9372,-0.0272,0.0651,-0.1237,-2.1269289455809535,-0.005604352802038193,4.054779529571533,-1.6628458499908447,0.4760732054710388,2.6248984336853027,-0.5964710873416443,-0.37607407569885254,-0.011624032631516457,-1.64500600496401,-0.0,-0.0627816691994667,0.670453667640686,0.0,0.005484181456267834,1.0792560577392578,0.00381658598780632,0.6129352450370789
310.0,320.0,-6.4409,0.5791,8.9372,-0.0272,0.0651,-0.1237,-2.126976629296774,-0.005529109854251146,4.035965919494629,-1.6599451303482056,0.48068955540657043,2.6943399906158447,-0.598902778034546,-0.42723286151885986,-0.0339980274438858,-1.6449897925006312,-0.0,-0.06031884253025055,0.6704211831092834,0.0,0.00536974985152483,1.0793324708938599,0.0031516593880951405,0.5661780834197998
310.0,320.0,-6.4409,0.5791,8.9372,-0.0272,0.0651,-0.1237,-2.127005239526266,-0.0058808885514736176,4.039409160614014,-1.6580754518508911,0.4796910881996155,2.6741561889648438,-0.6007322830012818,-0.44348084926605225,-0.046446748077869415,-1.6449978987323206,-0.0,-0.06290045380592346,0.6703932285308838,0.0,0.006432247348129749,1.0793200731277466,0.002516915323212743,0.5690904855728149
310.0,320.0,-6.4409,0.5791,8.9372,-0.0272,0.0651,-0.1237,-2.127044817010397,-0.005814311560243368,3.983384847640991,-1.6550966501235962,0.4832132160663605,2.657745599746704,-0.6035431188395997,-0.4901813566684723,-0.05232158303260803,-1.6449416319476526,-0.0,-0.06167824938893318,0.6704174280166626,0.0,0.00467731524258852,1.079299807548523,0.0022742822766304016,0.6266442537307739
310.0,320.0,-6.4409,0.5791,8.9372,-0.0272,0.0651,-0.1237,-2.127084871331686,-0.006908042822033167,4.007669448852539,-1.6521927118301392,0.48273980617523193,2.7426342964172363,-0.6066995424083252,-0.5392859578132629,-0.07371586561203003,-1.6449821631061,-0.0,-0.05055014789104462,0.6703932285308838,0.0,0.0038327849470078945,1.0793319940567017,0.0022799954749643803,0.5854790210723877
310.0,320.0,-6.4409,0.5791,8.9372,-0.0272,0.0651,-0.1237,-2.127113481561178,-0.005908016115427017,4.048753261566162,-1.6491978168487549,0.48696810007095337,2.6855387687683105,-0.6101491016200562,-0.5777401328086853,-0.08441898226737976,-1.6449616591082972,-0.0,-0.054640546441078186,0.670401394367218,0.0,0.00883279088884592,1.0793402194976807,0.0018415844533592463,0.6015547513961792
310.0,320.0,-6.4409,0.5791,8.9372,-0.0272,0.0651,-0.1237,-2.1271330318846644,-0.00419690040871501,4.05228853225708,-1.647281527519226,0.48800379037857056,2.686274528503418,-0.6124738615802308,-0.6110885143280029,-0.07552070170640945,-1.644925896321432,-0.0,-0.05082538723945618,0.6703892350196838,0.0,0.005454655736684799,1.0793442726135254,0.0012558418093249202,0.573963463306427
310.0,320.0,-6.4409,0.5791,8.9372,-0.0272,0.0651,-0.1237,-2.1271168194212855,-0.0025502133648842573,4.054612159729004,-1.644315242767334,0.4900759756565094,2.6813488006591797,-0.6164049071124573,-0.6454758644104004,-0.07495690137147903,-1.6449859778033655,-0.0,-0.05413053184747696,0.6703932285308838,0.0,0.010256750509142876,1.0793319940567017,0.0008241290925070643,0.6123408079147339
310.0,320.0,-6.4409,0.5791,8.9372,-0.0272,0.0651,-0.1237,-2.1271568737425746,-0.001481247367337346,4.092809677124023,-1.641409993171692,0.4976660907268524,2.7321271896362305,-0.6202095311931153,-0.6771923303604126,-0.08228933066129684,-1.6449616591082972,-0.0,-0.04367317259311676,0.6703972816467285,0.0,0.007901065982878208,1.079327940940857,0.0004491952422540635,0.5428716540336609
310.0,320.0,-6.4409,0.5791,8.9372,-0.0272,0.0651,-0.1237,-2.1271449528136195,-0.00154121033847332,4.017017364501953,-1.63838791847229,0.49508923292160034,2.708555221557617,-0.624335305099823,-0.6994615197181702,-0.09041358530521393,-1.6449821631061,-0.0,-0.060449130833148956,0.6703851222991943,0.0,0.008352973498404026,1.0793640613555908,0.00041475522448308766,0.4923626184463501
310.0,320.0,-6.4409,0.5791,8.9372,-0.0272,0.0651,-0.1237,-2.1272336445250453,-0.0028976337052881718,4.0490875244140625,-1.6363859176635742,0.49806180596351624,2.6996870040893555,-0.6271980565837403,-0.7235912680625916,-0.07083016633987427,-1.644954029713766,-0.0,-0.054145753383636475,0.6704092025756836,0.0,0.0031818500719964504,1.079327940940857,0.0003595262242015451,0.49444055557250977
310.0,320.0,-6.4409,0.5791,8.9372,-0.0272,0.0651,-0.1237,-2.1272698841490687,-0.006630103103816509,4.064312934875488,-1.633414626121521,0.4972969889640808,2.722862482070923,-0.6314954322627564,-0.7377853989601135,-0.07229877263307571,-1.6449578444110315,-8.70170140387927e-07,-0.042315494269132614,0.6703732013702393,0.0,0.005289691034704447,1.0792957544326782,0.0002996620605699718,0.4809693992137909
310.0,320.0,-6.4409,0.5791,8.9372,-0.0272,0.0651,-0.1237,-2.127260824243063,-0.009019282646477222,4.024877071380615,-1.6304696798324585,0.5036146640777588,2.7196898460388184,-0.6360603731921692,-0.7615135908126831,-0.0684441402554512,-1.6449502150165003,-2.422150535696943e-10,-0.04666516184806824,0.670377254486084,0.0,0.005820781923830509,1.079336166381836,0.00025689159519970417,0.4705846309661865
310.0,320.0,-6.4409,0.5791,8.9372,-0.0272,0.0651,-0.1237,-2.1273089847960414,-0.008519535884261131,4.008369445800781,-1.6284818649291992,0.5004960894584656,2.6894495487213135,-0.6391024154475708,-0.7701303362846375,-0.08799684792757034,-1.6449340025531214,-1.0326007627084466e-12,-0.040195103734731674,0.670401394367218,0.0,-0.00833919271826744,1.0793402194976807,0.0002345718676224351,0.4708572030067444
307.0,296.0,-3.7208,0.3972,8.8953,-0.0011,-0.2943,-0.0953,-2.1273728809752406,-0.008121618069708347,4.034563064575195,-1.6254314184188843,0.4958975911140442,2.7373523712158203,-0.643916205768921,-0.7814853191375732,-0.055452920496463776,-1.6449177900897425,-2.87428189854334e-16,-0.03350334241986275,0.6703851222991943,0.0,0.0020600443240255117,1.0793521404266357,0.00017294455028604716,0.4417015016078949
307.0,296.0,-3.7208,0.3972,8.8953,-0.0011,-0.2943,-0.0953,-2.127432962457174,-0.01037398912012577,4.07409143447876,-1.6223872900009155,0.4931260645389557,2.6421561241149902,-0.6486314696124573,-0.7917211651802063,-0.04525332897901535,-1.644954029713766,-8.000670537902173e-20,-0.03745115548372269,0.6703410148620605,0.0,0.0009760374668985605,1.0793722867965698,0.0001550600863993168,0.4362649917602539
307.0,296.0,-3.7208,0.3972,8.8953,-0.0011,-0.2943,-0.0953,-2.1274692020811976,-0.011242399923503399,4.056229114532471,-1.6195183992385864,0.4921097755432129,2.718322277069092,-0.6533065003207703,-0.7944527864456177,-0.06746790558099747,-1.644954029713766,-2.2270158665895236e-23,-0.03821788355708122,0.6703894734382629,0.0,-0.0007953042513690889,1.079336166381836,0.0001405324146617204,0.4301418662071228
307.0,296.0,-3.7208,0.3972,8.8953,-0.0011,-0.2943,-0.0953,-2.1275536022581996,-0.010558105073869228,3.9847240447998047,-1.6175105571746826,0.4886848032474518,2.704252243041992,-0.6564058226398011,-0.7921434044837952,-0.06356657296419144,-1.6449301878558558,0.00023678247816860676,-0.029072146862745285,0.6703493595123291,0.0,-0.016597677022218704,1.0793160200119019,0.0001148851661127992,0.43268316984176636
307.0,296.0,-3.7208,0.3972,8.8953,-0.0011,-0.2943,-0.0953,-2.1275936565794886,-0.007191915530711412,4.119198799133301,-1.614640712738037,0.48564615845680237,2.617583751678467,-0.6610852044871827,-0.792868971824646,-0.04961806535720825,-1.6449220816241663,0.0002756132744252682,-0.025554191321134567,0.6703330874443054,0.0,-0.018868524581193924,1.0793484449386597,9.724172559799626e-05,0.3761010766029358
307.0,296.0,-3.7208,0.3972,8.8953,-0.0011,-0.2943,-0.0953,-2.1275931797423304,-0.005523880012333393,4.052294731140137,-1.6117255687713623,0.48512864112854004,2.6579577922821045,-0.6657775205424805,-0.7830511331558228,-0.04012765362858772,-1.6449664274798792,0.00030846192385070026,-0.008594468235969543,0.6703612804412842,0.0,0.002637773286551237,1.0793442726135254,6.746855069650337e-05,0.39186805486679077
307.0,296.0,-3.7208,0.3972,8.8953,-0.0011,-0.2943,-0.0953,-2.127620836297506,-0.0038179419934749603,4.075388431549072,-1.608993411064148,0.4839101731777191,2.6596591472625732,-0.670469657783844,-0.7780433297157288,-0.0445140115916729,-1.6449177900897425,0.00041783915366977453,-0.00883684866130352,0.670377254486084,0.0,-0.010439826175570488,1.0793521404266357,6.282402318902314e-05,0.2992643415927887
307.0,296.0,-3.7208,0.3972,8.8953,-0.0011,-0.2943,-0.0953,-2.1276613674559535,-0.0031940992921590805,4.081497669219971,-1.6070001125335693,0.4766924977302551,2.6410768032073975,-0.6735438269427796,-0.7674720883369446,-0.0449913889169693,-1.6449182669269007,0.0004270635254215449,-0.0199030302464962,0.6704013347625732,0.0,-0.018081773072481155,1.079348087310791,-6.406019383575767e-05,0.28650522232055664
307.0,296.0,-3.7208,0.3972,8.8953,-0.0011,-0.2943,-0.0953,-2.127721448937887,-0.003991555422544479,4.099077224731445,-1.6041468381881714,0.47578489780426025,2.6595089435577393,-0.6781491798213501,-0.7590331435203552,-0.019395962357521057,-1.6449063459979456,0.00042858233791776,0.0007084407843649387,0.6703372001647949,-0.00016198023513425142,-0.014881054870784283,1.079348087310791,-8.666231587994844e-05,0.25522899627685547
307.0,296.0,-3.7208,0.3972,8.8953,-0.0011,-0.2943,-0.0953,-2.1277171574034632,-0.006343493238091469,4.064453125,-1.6014034748077393,0.4695315957069397,2.582852840423584,-0.6825404924205323,-0.7344008088111877,-0.00142461690120399,-1.6449139753924769,0.0004092351591680199,-0.0002520708949305117,0.6703093647956848,-0.00017745733202900738,-0.014321926981210709,1.0793561935424805,-9.676103218225762e-05,0.30048590898513794
307.0,296.0,-3.7208,0.3972,8.8953,-0.0011,-0.2943,-0.0953,-2.1277572117247523,-0.0068739550188183784,4.05499792098999,-1.599547028541565,0.4703518748283386,2.6341311931610107,-0.6853867930224915,-0.7198379039764404,-0.015147581696510315,-1.6449583212481897,0.0003982539055868983,-0.0061925677582621574,0.6703212261199951,-0.0001669689518166706,-0.01086677797138691,1.0792834758758545,-0.00032892494346015155,0.271207720041275
307.0,296.0,-3.7208,0.3972,8.8953,-0.0011,-0.2943,-0.0953,-2.1277648411192835,-0.006540055852383375,4.086840629577637,-1.5967501401901245,0.45991331338882446,2.6037843227386475,-0.6895952981761475,-0.6930494904518127,0.0022600749507546425,-1.6449182669269007,0.0003358734247740358,-0.004813735373318195,0.6703534722328186,-0.0001780363090801984,-0.028267990797758102,1.0793079137802124,-0.0004860139742959291,0.21800127625465393
307.0,296.0,-3.7208,0.3972,8.8953,-0.0011,-0.2943,-0.0953,-2.1278416119017542,-0.006308679934591055,4.133248329162598,-1.5939728021621704,0.45334452390670776,2.602288246154785,-0.693665162926056,-0.6606650948524475,-0.006456633098423481,-1.6448858420001429,0.00032876155455596745,-0.003892450127750635,0.6703894734382629,-0.0001876810274552554,-0.034726083278656006,1.0793402194976807,-0.0006228346028365195,0.18199993669986725
307.0,296.0,-3.7208,0.3972,8.8953,-0.0011,-0.2943,-0.0953,-2.127833505670065,-0.007405994925647974,4.071831226348877,-1.5912954807281494,0.4414394497871399,2.584284782409668,-0.6974219244769593,-0.631819486618042,-0.0038846253883093596,-1.6449020544635218,0.00032153792562894523,0.02311135269701481,0.6703694462776184,-0.0002744191442616284,-0.03542974591255188,1.0793321132659912,-0.00039067407487891614,0.16881413757801056
307.0,296.0,-3.7208,0.3972,8.8953,-0.0011,-0.2943,-0.0953,-2.1279174290099085,-0.007408627308905125,4.055719375610352,-1.589518666267395,0.43629440665245056,2.486063003540039,-0.699914352302887,-0.6106730699539185,0.010453548282384872,-1.6448739210711878,0.0003307859296910465,0.014997510239481926,0.6703052520751953,-0.0002575875259935856,-0.02358812838792801,1.079348087310791,-0.0003199856146238744,0.17368990182876587
307.0,296.0,-3.7208,0.3972,8.8953,-0.0011,-0.2943,-0.0953,-2.1279694042601527,-0.007068525534123182,4.0657124519348145,-1.5869144201278687,0.42581307888031006,2.4861702919006348,-0.7034704846194764,-0.571373462677002,0.018898777663707733,-1.6449063459979456,0.00031584236421622336,0.006117701530456543,0.6703453063964844,-0.0002638227306306362,-0.025285005569458008,1.0793522596359253,-0.0002526071039028466,0.1605863869190216
307.0,296.0,-3.7208,0.3972,8.8953,-0.0011,-0.2943,-0.0953,-2.1279975376524867,-0.006718555465340614,4.070384502410889,-1.584452509880066,0.41421109437942505,2.4968559741973877,-0.7067524355700989,-0.5408287048339844,0.019004497677087784,-1.6449263731585901,0.00026168738259002566,0.018292400985956192,0.6703171133995056,-0.0002633457479532808,-0.03492263704538345,1.079336166381836,-0.0002086721215164289,0.18761923909187317
269.0,267.0,-2.3342,0.6634,8.5549,-0.0313,-0.06,-0.1051,-2.128005167047018,-0.006160111632198095,4.11567497253418,-1.5819035768508911,0.40429291129112244,2.475867509841919,-0.709942952995636,-0.5085651874542236,0.035362109541893005,-1.6448982397662562,0.000267153256572783,0.02753588929772377,0.6703372597694397,-0.0002380266523687169,-0.042500946670770645,1.0793598890304565,-0.00017775766900740564,0.16131755709648132
269.0,267.0,-2.3342,0.6634,8.5549,-0.0313,-0.06,-0.1051,-2.128118177453512,-0.005635513924062252,4.091714859008789,-1.5803552865982056,0.40052372217178345,2.460437774658203,-0.7118958395770569,-0.48298946022987366,0.02284076251089573,-1.644930664693014,0.00027321165543980896,0.02617916464805603,0.6702930331230164,-0.0002523607690818608,-0.04538794234395027,1.0793884992599487,-0.0001617799571249634,0.12341916561126709
269.0,267.0,-2.3342,0.6634,8.5549,-0.0313,-0.06,-0.1051,-2.1280814609923304,-0.0039672828279435635,4.086847305297852,-1.5780391693115234,0.390826016664505,2.424013137817383,-0.7146220368197937,-0.44073158502578735,0.03966062143445015,-1.6448896566974085,0.0002500126720406115,0.023615801706910133,0.6703252792358398,-0.00022880286269355565,-0.056691594421863556,1.0794086456298828,-0.00014255936548579484,0.12601974606513977
269.0,267.0,-2.3342,0.6634,8.5549,-0.0313,-0.06,-0.1051,-2.1281339130797328,-0.005149024538695812,4.078113555908203,-1.575646162033081,0.37747618556022644,2.4599759578704834,-0.7171054643443604,-0.4019094407558441,0.06571505963802338,-1.6448896566974085,0.0002531687496230006,0.01754840463399887,0.6703331470489502,-0.00020888668950647116,-0.04057461768388748,1.079376220703125,-9.932184912031516e-05,0.0776316300034523
269.0,267.0,-2.3342,0.6634,8.5549,-0.0313,-0.06,-0.1051,-2.128125330010885,-0.0062348684296011925,4.090250492095947,-1.5743143558502197,0.37473970651626587,2.499793767929077,-0.718650297527649,-0.37764185667037964,0.06067323312163353,-1.644881550465719,0.00023840824724175036,0.036278627812862396,0.6703494191169739,-0.00020796334138140082,-0.051861897110939026,1.0793721675872803,-0.00010878924513235688,0.07540221512317657
269.0,267.0,-2.3342,0.6634,8.5549,-0.0313,-0.06,-0.1051,-2.1282178364195765,-0.008746403269469738,4.0875115394592285,-1.5721259117126465,0.35897403955459595,2.400632858276367,-0.7207464736751099,-0.3259742558002472,0.09192945063114166,-1.6449263731585901,0.00021998860756866634,0.020115569233894348,0.6702733039855957,-0.00018341501709073782,-0.044088419526815414,1.0794004201889038,-9.047567436937243e-05,0.12204740941524506
269.0,267.0,-2.3342,0.6634,8.5549,-0.0313,-0.06,-0.1051,-2.128233095208639,-0.010996430180966854,4.064399242401123,-1.5699536800384521,0.3478755056858063,2.377333164215088,-0.7225321692279358,-0.28852397203445435,0.11621475219726562,-1.6448982397662562,0.00019473947759252042,0.02238040789961815,0.6702970862388611,-0.00019498368783388287,-0.03789482265710831,1.0794200897216797,-7.447678945027292e-05,0.0835825726389885
269.0,267.0,-2.3342,0.6634,8.5549,-0.0313,-0.06,-0.1051,-2.128285070458883,-0.01052890531718731,4.0531134605407715,-1.5678935050964355,0.34462782740592957,2.39253830909729,-0.724100188618042,-0.22245419025421143,0.1456601619720459,-1.6448538939105433,0.00020622082229238003,0.023714380338788033,0.6703452467918396,-0.0001768434449331835,-0.04518425837159157,1.0793921947479248,-6.878463318571448e-05,0.09470853209495544
269.0,267.0,-2.3342,0.6634,8.5549,-0.0313,-0.06,-0.1051,-2.128386159936422,-0.011119010858237743,4.009250640869141,-1.5665524005889893,0.33248162269592285,2.309086799621582,-0.724799708729126,-0.19257284700870514,0.1686442792415619,-1.6448376814471644,0.00019210978643968701,0.030120208859443665,0.670321524143219,-0.00016597186913713813,-0.051671333611011505,1.079376220703125,-6.544982898049057e-05,0.04590202867984772
269.0,267.0,-2.3342,0.6634,8.5549,-0.0313,-0.06,-0.1051,-2.1284495792784632,-0.01379836443811655,4.036124229431152,-1.5645753145217896,0.3146103322505951,2.423140525817871,-0.7258683008006592,-0.14698569476604462,0.18041333556175232,-1.6448896566974085,0.00017358321929350495,0.03593607619404793,0.6703174710273743,-0.000177270412677899,-0.052634790539741516,1.0794041156768799,4.642822750611231e-05,0.10496891289949417
269.0,267.0,-2.3342,0.6634,8.5549,-0.0313,-0.06,-0.1051,-2.1285740337767542,-0.018763136118650436,4.036463737487793,-1.562762975692749,0.3039214015007019,2.3213534355163574,-0.7264917653850098,-0.09475117176771164,0.2179555892944336,-1.6449344793902796,0.0001846846571424976,0.03195993974804878,0.670281171798706,-0.00016348306962754577,-0.06959938257932663,1.0794525146484375,8.695964788785204e-05,0.06300129741430283
269.0,267.0,-2.3342,0.6634,8.5549,-0.0313,-0.06,-0.1051,-2.1287018261351527,-0.021609339863061905,3.976544141769409,-1.56093430519104,0.2825581431388855,2.2747280597686768,-0.7268592280200501,-0.030966874212026596,0.20433127880096436,-1.6448858420001429,0.00016976769256871194,0.04256060719490051,0.6702970266342163,-0.00015167448145803064,-0.04930315911769867,1.0794037580490112,0.0006052298122085631,0.08622544258832932
269.0,267.0,-2.3342,0.6634,8.5549,-0.0313,-0.06,-0.1051,-2.1287580929198207,-0.023610593751072884,3.9471511840820312,-1.5598558187484741,0.26888957619667053,2.2999589443206787,-0.7268992227366944,0.0037986712995916605,0.25225749611854553,-1.644874397908346,0.0001610858307685703,0.03821716457605362,0.6703011989593506,-0.00014470658788923174,-0.049352701753377914,1.0793800354003906,0.0005776188336312771,0.12909656763076782
269.0,267.0,-2.3342,0.6634,8.5549,-0.0313,-0.06,-0.1051,-2.1289388142027796,-0.026156684383749962,3.946119546890259,-1.5582479238510132,0.25685250759124756,2.2992427349090576,-0.7267425817302247,0.04459301754832268,0.2599444091320038,-1.6448901335345667,0.0001709751522867009,0.03309771046042442,0.6703252792358398,-0.00013537770428229123,-0.046269405633211136,1.0794241428375244,0.0005180002772249281,0.059522949159145355
269.0,267.0,-2.3342,0.6634,8.5549,-0.0313,-0.06,-0.1051,-2.1290060482420863,-0.02661813609302044,3.9498767852783203,-1.5567386150360107,0.24375349283218384,2.280414342880249,-0.7264745396426697,0.058035142719745636,0.25916966795921326,-1.6448701063739222,0.00015961001918185502,0.03812497854232788,0.6703174710273743,-0.00012717876234091818,-0.04648697376251221,1.0794360637664795,0.0004749365907628089,0.038319461047649384
269.0,267.0,-2.3342,0.6634,8.5549,-0.0313,-0.06,-0.1051,-2.1292506657042445,-0.02638966776430607,3.963846445083618,-1.5553481578826904,0.22510762512683868,2.270662307739258,-0.726250485782959,0.04515038803219795,0.2725856900215149,-1.6448662916766565,0.00014965693117119372,0.03219956159591675,0.6703130602836609,-0.00011991627252427861,-0.05773604288697243,1.0794401168823242,0.0004548172582872212,0.09133706986904144
302.0,284.0,-4.0756,0.7615,7.9502,-0.04,0.091,-0.1225,-2.129362245599264,-0.0265161395072937,4.003259181976318,-1.5544378757476807,0.21489928662776947,2.3096835613250732,-0.7261347335628052,0.030209088698029518,0.26211369037628174,-1.6449020544635218,0.00014832147280685604,0.034485816955566406,0.6702930331230164,-0.00011551857460290194,-0.04568498209118843,1.079464316368103,0.0005252272239886224,0.05632280558347702
302.0,284.0,-4.0756,0.7615,7.9502,-0.04,0.091,-0.1225,-2.1294905147948207,-0.028027484193444252,3.985036849975586,-1.5532156229019165,0.2038118690252304,2.283705711364746,-0.7260546845248719,0.006877364590764046,0.2572224736213684,-1.6448538939105433,0.00013572655734606087,0.04397988319396973,0.6703252792358398,-0.00010949531861115247,-0.04801385849714279,1.0794439315795898,0.0010185756254941225,0.07869519293308258
302.0,284.0,-4.0756,0.7615,7.9502,-0.04,0.091,-0.1225,-2.1297189197936,-0.028253456577658653,3.948577880859375,-1.5520398616790771,0.18454274535179138,2.221322536468506,-0.7261191171458741,-0.011982829309999943,0.2436738908290863,-1.6448777357684534,0.0001244638697244227,0.029718473553657532,0.6703413128852844,-0.00010406901128590107,-0.04110009968280792,1.0794357061386108,0.0007792783435434103,0.05839298292994499
302.0,284.0,-4.0756,0.7615,7.9502,-0.04,0.091,-0.1225,-2.129827161828512,-0.02833750657737255,3.9767374992370605,-1.5513391494750977,0.17223744094371796,2.1705052852630615,-0.7261954706958313,-0.013517365790903568,0.23934099078178406,-1.6448701063739222,0.00011793933663284406,0.04722172021865845,0.6702730655670166,-0.00010074072633869946,-0.0430651530623436,1.0794843435287476,0.000578627921640873,0.08243124932050705
302.0,284.0,-4.0756,0.7615,7.9502,-0.04,0.091,-0.1225,-2.1299945316710414,-0.031193124130368233,3.9885802268981934,-1.5503290891647339,0.16248850524425507,2.250457286834717,-0.7262188357165833,-0.011351283639669418,0.23337292671203613,-1.6449187437640589,0.0001093416431103833,0.027903951704502106,0.6703653335571289,-9.612919529899955e-05,-0.03979624807834625,1.0794721841812134,0.00041748274816200137,0.055562201887369156
302.0,284.0,-4.0756,0.7615,7.9502,-0.04,0.091,-0.1225,-2.130214830438131,-0.03323758766055107,3.9930403232574463,-1.549454689025879,0.14943332970142365,2.2415294647216797,-0.7262910169414063,-0.0063432264141738415,0.24823921918869019,-1.6448982397662562,0.0001019124683807604,0.049905311316251755,0.6703011989593506,-3.763350105145946e-05,-0.038562264293432236,1.0794119834899902,0.0003265633131377399,0.030660312622785568
302.0,284.0,-4.0756,0.7615,7.9502,-0.04,0.091,-0.1225,-2.1304313145079554,-0.03826095163822174,3.9470694065093994,-1.5486602783203125,0.13361306488513947,2.2081146240234375,-0.7263192695430298,-0.0027666199021041393,0.23543348908424377,-1.6448896566974085,0.00011324117076583207,0.038044385612010956,0.6703334450721741,-3.530575122567825e-05,-0.045576874166727066,1.0794599056243896,0.0002681680489331484,0.029553737491369247
302.0,284.0,-4.0756,0.7615,7.9502,-0.04,0.091,-0.1225,-2.1305629215636195,-0.041993990540504456,3.924924612045288,-1.548091173171997,0.1236729770898819,2.146075963973999,-0.7263152164271851,-0.001632789266295731,0.23708680272102356,-1.6448777357684534,0.00010984959226334468,0.06383715569972992,0.6703734397888184,-3.3972959499806166e-05,-0.030890727415680885,1.079476237297058,0.00023960658290889114,0.023177064955234528
302.0,284.0,-4.0756,0.7615,7.9502,-0.04,0.091,-0.1225,-2.1308795414366664,-0.050778042525053024,3.9001402854919434,-1.547413945198059,0.11168120801448822,2.166001319885254,-0.7263193291476746,-0.0009367371676489711,0.23895514011383057,-1.6448257605182093,0.0001035359819070436,0.056581199169158936,0.6702971458435059,-3.215240940335207e-05,-0.04408347234129906,1.0794721841812134,0.0002066015003947541,0.055440425872802734
302.0,284.0,-4.0756,0.7615,7.9502,-0.04,0.091,-0.1225,-2.131167551080221,-0.057083044201135635,3.9562771320343018,-1.5468193292617798,0.09189973026514053,2.1122729778289795,-0.7263311904719849,-0.0005078513640910387,0.22581890225410461,-1.6448662916766565,9.790443436941132e-05,0.04194161295890808,0.6703734993934631,-3.051707062695641e-05,-0.03165734186768532,1.07942795753479,0.00018158899911213666,0.04825720563530922
302.0,284.0,-4.0756,0.7615,7.9502,-0.04,0.091,-0.1225,-2.131475111047262,-0.06139624863862991,3.904883861541748,-1.5463206768035889,0.07518383860588074,2.15242600440979,-0.7263152164271851,-0.0010211738990619779,0.23421335220336914,-1.6449063459979456,9.285389387514442e-05,0.047275710850954056,0.6703694462776184,-2.9040029403404333e-05,-0.030282583087682724,1.0794360637664795,0.00016197907098103315,0.09175315499305725
302.0,284.0,-4.0756,0.7615,7.9502,-0.04,0.091,-0.1225,-2.1317554912962855,-0.06337521225214005,3.918081283569336,-1.5460437536239624,0.06353621184825897,2.1243340969085693,-0.7263430517962952,-0.0012735753552988172,0.22980180382728577,-1.6448658148394983,8.97667559911497e-05,0.031973108649253845,0.6702849864959717,-2.813227183651179e-05,-0.028314463794231415,1.0794320106506348,0.00015110096137505025,0.06113817170262337
302.0,284.0,-4.0756,0.7615,7.9502,-0.04,0.091,-0.1225,-2.1321479282774867,-0.06697896122932434,3.9050164222717285,-1.5457252264022827,0.04982203245162964,2.110814094543457,-0.7263509196094056,-0.0022877994924783707,0.22962787747383118,-1.6448858420001429,8.55026810313575e-05,0.03714298456907272,0.6703853607177734,-2.6872317903325893e-05,-0.029915690422058105,1.079407811164856,0.00013727248006034642,0.11055714637041092
302.0,284.0,-4.0756,0.7615,7.9502,-0.04,0.091,-0.1225,-2.1325766048827113,-0.07012484222650528,3.9412708282470703,-1.5454692840576172,0.035254694521427155,2.1597583293914795,-0.7263786357692261,-0.005327085964381695,0.24024078249931335,-1.6448901335345667,8.162538142642006e-05,0.035376012325286865,0.6703774929046631,-1.3292356925376225e-05,-0.02196616306900978,1.079468011856079,0.0001257632247870788,0.015551311895251274
302.0,284.0,-4.0756,0.7615,7.9502,-0.04,0.091,-0.1225,-2.1329008541502894,-0.07079967856407166,3.9631643295288086,-1.5454583168029785,0.02621692791581154,2.095738172531128,-0.7264030140689393,-0.007095314562320709,0.22247648239135742,-1.6448338667498987,7.923006342025474e-05,0.04105542227625847,0.6703453063964844,-1.2504722690209746e-05,-0.02763514220714569,1.079468011856079,0.00011910555622307584,0.0783819928765297
302.0,284.0,-4.0756,0.7615,7.9502,-0.04,0.091,-0.1225,-2.1333166561522425,-0.07237008213996887,3.9028918743133545,-1.5453184843063354,0.013556784018874168,2.103442430496216,-0.7265194219401856,-0.009247408248484135,0.21045301854610443,-1.6448662916766565,7.588964217575267e-05,0.03593509644269943,0.6703252196311951,-6.0875449889863376e-06,-0.005379321053624153,1.0794360637664795,0.00011034403723897412,0.06692148745059967
302.0,284.0,-4.0756,0.7615,7.9502,-0.04,0.091,-0.1225,-2.1337973080077113,-0.07075730711221695,3.9844980239868164,-1.5452700853347778,0.003211554605513811,2.0658955574035645,-0.7265676420978089,-0.011086699552834034,0.21961510181427002,-1.6448858420001429,7.281949365278706e-05,0.041719481348991394,0.6703051328659058,-1.694490547876626e-09,-0.019405771046876907,1.0794401168823242,8.222654287237674e-05,0.0853646844625473
349.0,278.0,-4.3878,0.5707,8.8798,-0.0267,-0.0527,-0.1193,-2.134221216241354,-0.06976906955242157,3.929731845855713,-1.5453463792800903,-0.007911376655101776,2.0253307819366455,-0.7265990537456055,-0.011551463045179844,0.22941291332244873,-1.6448538939105433,6.998812750680372e-05,0.04366077482700348,0.6703812479972839,-4.71667681040816e-13,-0.013703832402825356,1.0793956518173218,5.77154423808679e-05,0.0399189293384552
349.0,278.0,-4.3878,0.5707,8.8798,-0.0267,-0.0527,-0.1193,-2.1345254383482875,-0.06910942494869232,3.951702117919922,-1.5453938245773315,-0.00973344873636961,2.0482702255249023,-0.7266591352275391,-0.01173535455018282,0.21932703256607056,-1.6448939482318323,6.821976421633735e-05,0.052042096853256226,0.6703331470489502,-2.010793536343612e-15,-0.018907979130744934,1.079416036605835,-5.191435047890991e-05,0.07225365936756134
349.0,278.0,-4.3878,0.5707,8.8798,-0.0267,-0.0527,-0.1193,-2.134921213189596,-0.07478974759578705,3.9297478199005127,-1.5454142093658447,-0.010851206257939339,2.039897918701172,-0.7267590922168274,-0.011229383759200573,0.2105628252029419,-1.6448138395892542,6.572868005605415e-05,0.04644468426704407,0.6704133749008179,-5.597118131827945e-19,-0.003490930423140526,1.0794037580490112,-7.347014616243541e-05,0.061938948929309845
349.0,278.0,-4.3878,0.5707,8.8798,-0.0267,-0.0527,-0.1193,-2.1354390583434046,-0.08192510157823563,3.87078857421875,-1.545470118522644,-0.009924180805683136,2.0650744438171387,-0.7267548006824036,-0.007066995836794376,0.21780744194984436,-1.644830052052633,6.341311382129788e-05,0.03242840617895126,0.670441210269928,-1.5579781997061521e-22,-0.002027597278356552,1.0794200897216797,-8.663460175739601e-05,0.08552351593971252
349.0,278.0,-4.3878,0.5707,8.8798,-0.0267,-0.0527,-0.1193,-2.1358701191344203,-0.08614780008792877,3.92937970161438,-1.5455784797668457,-0.005789367947727442,2.0826640129089355,-0.7267347735217591,-0.0022322230506688356,0.23017990589141846,-1.6448782126056116,6.125515210442245e-05,0.02680187299847603,0.6703771948814392,-4.336688870742648e-26,-0.017212290316820145,1.0793840885162354,-0.0004265114839654416,0.07526089996099472
349.0,278.0,-4.3878,0.5707,8.8798,-0.0267,-0.0527,-0.1193,-2.136198183099264,-0.08648283779621124,3.935844898223877,-1.5455740690231323,-0.0023440071381628513,2.0800981521606445,-0.7267466944507142,-3.501311948639341e-05,0.21599574387073517,-1.6448419729815882,5.989630153635517e-05,0.040633440017700195,0.6704133749008179,-1.848798737156336e-28,-0.012021106667816639,1.0794323682785034,-0.0004215873486828059,0.07340040057897568
349.0,278.0,-4.3878,0.5707,8.8798,-0.0267,-0.0527,-0.1193,-2.1366740665831507,-0.08791986107826233,3.936816692352295,-1.5455621480941772,0.0011669795494526625,2.0183639526367188,-0.7267471116832276,-9.746031537360977e-09,0.21823535859584808,-1.6449020544635218,3.2890348222736066e-08,0.04170357435941696,0.6703732013702393,-5.14619965720077e-32,-0.0183742456138134,1.0793840885162354,-0.00044291396625339985,0.0366063266992569
349.0,278.0,-4.3878,0.5707,8.8798,-0.0267,-0.0527,-0.1193,-2.13723148922109,-0.08654757589101791,3.9371461868286133,-1.545554280281067,0.0034070725087076426,2.0434255599975586,-0.7267512244037171,-2.7128436216189433e-12,0.21850614249706268,-1.6448820273028772,9.15514972860132e-12,0.03104613721370697,0.6703732013702393,-1.432463557410845e-35,-0.005323344375938177,1.0793758630752563,-0.00042605455382727087,0.052785128355026245
349.0,278.0,-4.3878,0.5707,8.8798,-0.0267,-0.0527,-0.1193,-2.137730737725729,-0.08795968443155289,3.93658709526062,-1.5454860925674438,0.0015790031757205725,2.062441825866699,-0.7267390054515381,0.0005328643601387739,0.22713522613048553,-1.644914452229635,2.5483693490656583e-15,0.030314579606056213,0.6703732013702393,-3.9873149062238005e-39,-0.004357010591775179,1.0793918371200562,-0.00033196512958966196,0.041254833340644836
349.0,278.0,-4.3878,0.5707,8.8798,-0.0267,-0.0527,-0.1193,-2.1380955181517542,-0.08626006543636322,3.9121856689453125,-1.545470118522644,0.0004228126199450344,2.0586938858032227,-0.7267270845225831,0.00047311271191574633,0.22979646921157837,-1.6448777357684534,1.0864096693862247e-17,0.03263023495674133,0.6703810095787048,-1.6999151670724356e-41,0.00285275187343359,1.0793558359146118,-0.00028927624225616455,0.04467249661684036
349.0,278.0,-4.3878,0.5707,8.8798,-0.0267,-0.0527,-0.1193,-2.1385675869383753,-0.08083630353212357,3.979322910308838,-1.5454741716384888,0.00011864511179737747,2.077360153198242,-0.7267471712878724,0.0004020261694677174,0.23837068676948547,-1.6448777357684534,3.024061247878414e-21,0.037623852491378784,0.6704094409942627,-4.203895392974451e-45,-0.00901926402002573,1.0794000625610352,-0.00024250226852018386,0.11623864620923996
349.0,278.0,-4.3878,0.5707,8.8798,-0.0267,-0.0527,-0.1193,-2.139060159722799,-0.07851811498403549,4.010006904602051,-1.5454981327056885,8.499945397488773e-05,2.0867130756378174,-0.7267028254321595,0.00032859822385944426,0.23862257599830627,-1.6448820273028772,8.417585648662857e-25,0.02875063195824623,0.67034912109375,-0.0,0.005993248429149389,1.0793516635894775,-0.000277874554740265,0.10640816390514374
349.0,278.0,-4.3878,0.5707,8.8798,-0.0267,-0.0527,-0.1193,-2.139372011224264,-0.07875707745552063,3.971297264099121,-1.545546293258667,2.4822918931022286e-05,2.072445869445801,-0.7267671388438721,0.00029293171246536076,0.239554762840271,-1.6448777357684534,3.588548672707793e-27,0.030824463814496994,0.6704175472259521,-0.0,-0.007401116658002138,1.0794041156768799,-0.00026743378839455545,0.060332756489515305
349.0,278.0,-4.3878,0.5707,8.8798,-0.0267,-0.0527,-0.1193,-2.1398846111693324,-0.08230555802583694,3.9428470134735107,-1.545546293258667,5.994443136314587e-11,2.0805819034576416,-0.7268237632564087,0.00021555341663770378,0.23573681712150574,-1.6448662916766565,9.988857285660454e-31,0.03198108822107315,0.6703611612319946,-0.0,0.0024767103604972363,1.0793439149856567,-0.00023722441983409226,0.06556253135204315
349.0,278.0,-4.3878,0.5707,8.8798,-0.0267,-0.0527,-0.1193,-2.1403686008849085,-0.08407115191221237,4.039066314697266,-1.545498013496399,1.4475873801403778e-16,2.0942234992980957,-0.7267549794963379,0.00018415618978906423,0.2380792498588562,-1.6448982397662562,2.780434899730862e-34,0.018425850197672844,0.6703732013702393,-0.0,-0.0065469201654195786,1.07938814163208,-0.00024359500093851238,0.10895734280347824
349.0,278.0,-4.3878,0.5707,8.8798,-0.0267,-0.0527,-0.1193,-2.140808244744772,-0.08458809554576874,3.979923725128174,-1.5455259084701538,3.495753419122088e-22,2.0282092094421387,-0.7267348331264039,0.0001640150003368035,0.2408020943403244,-1.6448538939105433,7.739442604427952e-38,0.015751179307699203,0.6704334616661072,-0.0,-0.006277149077504873,1.0793721675872803,-0.00019462006457615644,0.0446392260491848
349.0,278.0,-4.3878,0.5707,8.8798,-0.0267,-0.0527,-0.1193,-2.1411687336363734,-0.08053800463676453,4.025248050689697,-1.5455020666122437,6.292232530252364e-26,2.108698606491089,-0.7267467540553589,0.0001528699358459562,0.2230304777622223,-1.6448820273028772,3.2994413121606413e-40,0.02291887253522873,0.6703892350196838,-0.0,-0.003228317480534315,1.0793598890304565,-0.0001823059283196926,0.13272058963775635
290.0,258.0,-4.1348,0.8148,9.1202,-0.0376,-0.0429,-0.1093,-2.1416293583311976,-0.07578475028276443,4.019711494445801,-1.545438289642334,0.0012734936317428946,2.0918736457824707,-0.7267754238894959,0.0001387300289934501,0.2377680540084839,-1.6448701063739222,9.248569864543793e-44,0.013357503339648247,0.6703652739524841,-0.0,0.004108873661607504,1.0793639421463013,-0.00016819349548313767,0.1081819236278534
290.0,258.0,-4.1348,0.8148,9.1202,-0.0376,-0.0429,-0.1093,-2.142089983026022,-0.07182534039020538,4.000885963439941,-1.5454614162445068,0.0016036712331697345,2.091709613800049,-0.7267831724933167,0.0001269846106879413,0.23900187015533447,-1.6448376814471644,0.0,0.017944365739822388,0.6703771948814392,-0.0,0.005863336846232414,1.0794283151626587,-5.761011198046617e-05,0.06730642169713974
290.0,258.0,-4.1348,0.8148,9.1202,-0.0376,-0.0429,-0.1093,-2.142550130883688,-0.0683986097574234,4.039068222045898,-1.5454655885696411,0.001598564675077796,2.117337465286255,-0.7267508071712037,0.00011707293015206233,0.23452770709991455,-1.6448901335345667,0.0,0.031374022364616394,0.6703535318374634,-0.0,0.01112170796841383,1.079376220703125,-2.6296102078049444e-05,0.10441210865974426
290.0,258.0,-4.1348,0.8148,9.1202,-0.0376,-0.0429,-0.1093,-2.1427532635130824,-0.07001706957817078,3.9953465461730957,-1.5454703569412231,0.001380617031827569,2.096383571624756,-0.7267508071712037,0.00011128232290502638,0.24219872057437897,-1.6448777357684534,0.0,0.020848926156759262,0.6703931093215942,-0.0,-0.0052668810822069645,1.0794119834899902,-2.4831198970787227e-05,0.15652349591255188
290.0,258.0,-4.1348,0.8148,9.1202,-0.0376,-0.0429,-0.1093,-2.143177648583883,-0.06658229976892471,4.030681133270264,-1.5454258918762207,0.001023804652504623,2.1299338340759277,-0.7267471712878724,0.00012159238394815475,0.23111221194267273,-1.644858185444967,0.0,0.007895882241427898,0.6703851222991943,-0.0,0.0024673216976225376,1.079416036605835,-2.293301440658979e-05,0.19250096380710602
290.0,258.0,-4.1348,0.8148,9.1202,-0.0376,-0.0429,-0.1093,-2.1435862980284632,-0.06066052243113518,3.992483139038086,-1.5454579591751099,0.0009826943278312683,2.1565003395080566,-0.7267430585673829,0.0001331198145635426,0.24193182587623596,-1.6448777357684534,0.0,0.009358324110507965,0.670393168926239,-0.0,0.0024024751037359238,1.0794442892074585,-2.130441862391308e-05,0.08151549845933914
290.0,258.0,-4.1348,0.8148,9.1202,-0.0376,-0.0429,-0.1093,-2.1438142261900843,-0.05627213418483734,4.024470329284668,-1.5454663038253784,0.0013110025320202112,2.117499828338623,-0.7267192167094727,0.00014383543748408556,0.23301208019256592,-1.6449187437640589,0.0,0.016190242022275925,0.6703652739524841,-0.0,-0.014679552987217903,1.0793681144714355,-2.034141289186664e-05,0.10189712792634964
290.0,258.0,-4.1348,0.8148,9.1202,-0.0376,-0.0429,-0.1093,-2.1441341839232386,-0.05042533949017525,4.088990211486816,-1.545422077178955,0.0017832790035754442,2.1249570846557617,-0.7267311376384278,0.00011070397886214778,0.240432471036911,-1.644914452229635,0.0,0.021644901484251022,0.670393168926239,-0.0,0.007575928699225187,1.0793997049331665,-2.611032243748923e-07,0.1169353723526001
290.0,258.0,-4.1348,0.8148,9.1202,-0.0376,-0.0429,-0.1093,-2.144374033013815,-0.04600457474589348,4.077106475830078,-1.5454258918762207,0.0012417996767908335,2.1444952487945557,-0.7267471116832276,0.0001130064410972409,0.2514660954475403,-1.6448620001422327,0.0,0.01945960521697998,0.6703572869300842,-0.0,-0.0013325130566954613,1.0793921947479248,-6.305334943404461e-13,0.09007580578327179
290.0,258.0,-4.1348,0.8148,9.1202,-0.0376,-0.0429,-0.1093,-2.1446620426573695,-0.046436604112386703,4.092959403991699,-1.54544198513031,0.0006843089940957725,2.143967628479004,-0.7267307800105591,0.00010633302736096084,0.2366565465927124,-1.644881550465719,0.0,0.017146913334727287,0.6703611016273499,-0.0,0.003353385254740715,1.0793639421463013,-1.5226641454202627e-18,0.13322633504867554
290.0,258.0,-4.1348,0.8148,9.1202,-0.0376,-0.0429,-0.1093,-2.144806047479147,-0.046016935259103775,4.094733238220215,-1.5454261302947998,0.0005245998036116362,2.1104233264923096,-0.7267069977572937,0.00010230412590317428,0.25127288699150085,-1.6448896566974085,0.0,0.018771883100271225,0.670373260974884,-0.0,-0.0077911121770739555,1.0794484615325928,-2.740741841146513e-22,0.16388733685016632
290.0,258.0,-4.1348,0.8148,9.1202,-0.0376,-0.0429,-0.1093,-2.1450659237303675,-0.04691654443740845,4.072251319885254,-1.5453778505325317,0.0006119676982052624,2.0914032459259033,-0.7267430585673829,9.680212679086253e-05,0.2525585889816284,-1.6449020544635218,0.0,0.020724685862660408,0.6703771948814392,-0.0,-0.0021118635777384043,1.0794041156768799,-6.618568031893566e-28,0.1338018923997879
290.0,258.0,-4.1348,0.8148,9.1202,-0.0376,-0.0429,-0.1093,-2.1453587017455042,-0.0450202040374279,3.985053539276123,-1.5454024076461792,0.002730520674958825,2.1252946853637695,-0.7267192167094727,9.186187526211143e-05,0.251025915145874,-1.6448777357684534,0.0,-0.0069331638514995575,0.6703492403030396,-0.0,0.002137180883437395,1.0793840885162354,-1.5983062608306253e-33,0.16443730890750885
290.0,258.0,-4.1348,0.8148,9.1202,-0.0376,-0.0429,-0.1093,-2.145590444604391,-0.044031936675310135,4.104828834533691,-1.545325756072998,0.005254784598946571,2.1224656105041504,-0.7267917555621644,7.473899313481525e-05,0.25079962611198425,-1.6448982397662562,0.0,0.009117321111261845,0.6703611016273499,-0.0,0.014478941448032856,1.0794119834899902,-3.8597210758531686e-39,0.18610498309135437
290.0,258.0,-4.1348,0.8148,9.1202,-0.0376,-0.0429,-0.1093,-2.1457706890501917,-0.043814778327941895,4.000054836273193,-1.5453540086746216,0.00644909730181098,2.1761364936828613,-0.7267590326121827,7.055873720673844e-05,0.23904862999916077,-1.6448739210711878,0.0,0.019396193325519562,0.6703529953956604,-0.0,0.005793981719762087,1.0794200897216797,-6.950440383051093e-43,0.23100078105926514
290.0,258.0,-4.1348,0.8148,9.1202,-0.0376,-0.0429,-0.1093,-2.1460868320860804,-0.04434432089328766,4.099806785583496,-1.5453226566314697,0.007266408763825893,2.187293529510498,-0.7267466944507142,5.4798434575786814e-05,0.24946929514408112,-1.6449106375323694,0.0,0.004802335985004902,0.6704736351966858,-0.0,0.007030936889350414,1.07942795753479,0.0,0.23248785734176636
272.0,252.0,-3.9715,0.4762,8.9169,-0.033,-0.0122,-0.1193,-2.146327158013815,-0.04533480480313301,4.039217472076416,-1.5452264547348022,0.007464401889592409,2.1926426887512207,-0.7267831128886719,4.037500548292883e-05,0.23525342345237732,-1.6449063459979456,0.0,0.004909194074571133,0.670401394367218,5.319998672348447e-05,0.005116494372487068,1.0793918371200562,0.0005283072241581976,0.23055589199066162
272.0,252.0,-3.9715,0.4762,8.9169,-0.033,-0.0122,-0.1193,-2.1464792690672816,-0.044817376881837845,4.092167854309082,-1.545238733291626,0.008073315024375916,2.1586201190948486,-0.7268114250949402,3.7620062357746065e-05,0.23353353142738342,-1.6448658148394983,0.0,0.00782360602170229,0.6703891158103943,5.207528738537803e-05,-0.01035363133996725,1.0794200897216797,0.0005164199392311275,0.22564256191253662
272.0,252.0,-3.9715,0.4762,8.9169,-0.033,-0.0122,-0.1193,-2.146783491174215,-0.046915050595998764,4.062469005584717,-1.5451661348342896,0.007816602475941181,2.1461844444274902,-0.7267430585673829,-5.078073081676848e-05,0.23742932081222534,-1.6448982397662562,0.0,-0.009474302642047405,0.670421302318573,5.032853368902579e-05,0.0016212249174714088,1.0793877840042114,0.0004737768031191081,0.2443261742591858
272.0,252.0,-3.9715,0.4762,8.9169,-0.033,-0.0122,-0.1193,-2.1470519504942835,-0.04505955055356026,4.069840431213379,-1.5451265573501587,0.008759965188801289,2.156940460205078,-0.7267909807017823,-5.2066454372834414e-05,0.23166528344154358,-1.6448739210711878,0.0,-0.0092939967289567,0.6704013347625732,2.1218529866473546e-07,0.004362953826785088,1.0793960094451904,0.00043719905079342425,0.2648161053657532
272.0,252.0,-3.9715,0.4762,8.9169,-0.033,-0.0122,-0.1193,-2.1473399601378382,-0.043724559247493744,4.049299240112305,-1.545082688331604,0.009796963073313236,2.179133892059326,-0.7267110508731385,-4.791018727701157e-05,0.23514986038208008,-1.6448939482318323,0.0,-0.0008145617321133614,0.6704093217849731,5.906255345911049e-11,-0.004679317120462656,1.0794041156768799,0.00040620012441650033,0.28916823863983154
272.0,252.0,-3.9715,0.4762,8.9169,-0.033,-0.0122,-0.1193,-2.1474715671935023,-0.04323963448405266,4.054596424102783,-1.5449990034103394,0.011361162178218365,2.194260835647583,-0.7267467540553589,-2.2944939701119438e-05,0.23515208065509796,-1.6448896566974085,0.0,-0.012486211955547333,0.6704131960868835,2.5179288992357995e-13,0.009256492368876934,1.0794041156768799,0.00035307201324030757,0.27920037508010864
272.0,252.0,-3.9715,0.4762,8.9169,-0.033,-0.0122,-0.1193,-2.1477281055846156,-0.04250283166766167,4.134164810180664,-1.5449825525283813,0.011410091072320938,2.2153007984161377,-0.7267146867564698,-5.466401489684358e-06,0.24138250946998596,-1.6449063459979456,0.0,-0.004276585765182972,0.6703972220420837,7.008746990531616e-17,-0.002887407783418894,1.0794283151626587,0.0003443594614509493,0.31873565912246704
272.0,252.0,-3.9715,0.4762,8.9169,-0.033,-0.0122,-0.1193,-2.1479960880675257,-0.041762858629226685,4.104177474975586,-1.544862985610962,0.012087283656001091,2.243149757385254,-0.7267311376384278,-1.5215928517164912e-09,0.24105551838874817,-1.6449182669269007,7.912042576663225e-09,-0.007473628968000412,0.6703972816467285,1.9509106445851442e-20,0.0019392012618482113,1.0794442892074585,0.0002958423865493387,0.3021330237388611
272.0,252.0,-3.9715,0.4762,8.9169,-0.033,-0.0122,-0.1193,-2.148235937158102,-0.03927726671099663,4.082472801208496,-1.5447951555252075,0.012491360306739807,2.177371025085449,-0.7267110508731385,-4.235408681760311e-13,0.22785931825637817,-1.6449063459979456,2.20234637818284e-12,-0.010707897134125233,0.6703611016273499,5.4304320912723236e-24,0.0016343106981366873,1.0794360637664795,0.0002963534207083285,0.3100220561027527
272.0,252.0,-3.9715,0.4762,8.9169,-0.033,-0.0122,-0.1193,-2.1484037838377894,-0.03740167245268822,4.101837635040283,-1.5447829961776733,0.012327811680734158,2.166320323944092,-0.7267954510501404,-1.805621404211413e-15,0.23369888961315155,-1.6449139753924769,9.388946868235659e-15,-0.011591050773859024,0.6703891158103943,2.315078418569463e-26,-0.0054933601059019566,1.0794401168823242,0.00024190037220250815,0.3382180631160736
272.0,252.0,-3.9715,0.4762,8.9169,-0.033,-0.0122,-0.1193,-2.148595472375387,-0.03374052047729492,4.098594665527344,-1.544735312461853,0.01194769237190485,2.212834358215332,-0.7267430585673829,-5.026012991381786e-19,0.23813900351524353,-1.6448982397662562,2.613447573654392e-18,-0.016936637461185455,0.6704172492027283,6.444105922507236e-30,0.007181074470281601,1.0794037580490112,0.00028950179694220424,0.3419778347015381
272.0,252.0,-3.9715,0.4762,8.9169,-0.033,-0.0122,-0.1193,-2.1488081417479457,-0.033028461039066315,4.1070756912231445,-1.5445996522903442,0.011260504834353924,2.186223268508911,-0.7267713111690064,-1.3990092220054209e-22,0.23272088170051575,-1.6449464003192347,7.274627376297314e-22,-0.01654188148677349,0.6703851222991943,1.793740645520477e-33,-0.0020155753009021282,1.07942795753479,0.0007504552486352623,0.3653338849544525
272.0,252.0,-3.9715,0.4762,8.9169,-0.033,-0.0122,-0.1193,-2.1489912472166957,-0.029755355790257454,4.126757621765137,-1.5445753335952759,0.010414876975119114,2.171877861022949,-0.7267750066569825,-3.8941933696960587e-26,0.23512491583824158,-1.6449464003192347,2.0249190457432466e-25,-0.013945655897259712,0.6704052090644836,4.992943016421555e-37,0.004399373196065426,1.0794479846954346,0.0017271334072574973,0.3999730944633484
272.0,252.0,-3.9715,0.4762,8.9169,-0.033,-0.0122,-0.1193,-2.1490751705565394,-0.02833527885377407,4.123980522155762,-1.5445760488510132,0.009605059400200844,2.1672539710998535,-0.7268195313266297,-0.000904359738342464,0.22914570569992065,-1.644942585621969,8.632547641478298e-28,-0.03275182098150253,0.6704052090644836,2.1285695647124685e-39,-0.0010215786751359701,1.0794639587402344,0.002838351996615529,0.3838096261024475
272.0,252.0,-3.9715,0.4762,8.9169,-0.033,-0.0122,-0.1193,-2.1492959461607875,-0.02702152356505394,4.072463035583496,-1.544455647468567,0.00895917322486639,2.2132883071899414,-0.7268473666957398,-0.0018242350779473782,0.23092862963676453,-1.6448939482318323,2.402901118264459e-31,-0.022966282442212105,0.6704494953155518,5.927492504093976e-43,0.007144232280552387,1.0795003175735474,0.0036122514866292477,0.36611756682395935
272.0,252.0,-3.9715,0.4762,8.9169,-0.033,-0.0122,-0.1193,-2.1493712864317835,-0.023304065689444542,4.14879846572876,-1.5443828105926514,0.009694601409137249,2.1903929710388184,-0.7268510621837159,-0.0023031083401292562,0.22351452708244324,-1.6449139753924769,6.68856515206622e-35,-0.017681751400232315,0.6704331636428833,0.0,0.008798498660326004,1.0795161724090576,0.004869991447776556,0.412969172000885
272.0,252.0,-3.9715,0.4762,8.9169,-0.033,-0.0122,-0.1193,-2.1494790516295375,-0.021974163129925728,4.132992744445801,-1.5444046258926392,0.010289723053574562,2.1980648040771484,-0.7268874806216736,-0.002402571262791753,0.22297866642475128,-1.6449182669269007,2.8514401395066314e-37,-0.028855113312602043,0.6704576015472412,0.0,0.012102527543902397,1.0795398950576782,0.005421726033091545,0.36833229660987854
252.0,245.0,-4.0397,0.4648,9.0317,-0.0461,0.0254,-0.111,-2.1496030292906703,-0.019568949937820435,4.151160717010498,-1.5443081855773926,0.012484940700232983,2.1768648624420166,-0.7268591684154053,-0.002538850298151374,0.2184263914823532,-1.6449182669269007,7.937094631782196e-41,-0.019721105694770813,0.6704092025756836,0.0,0.018549371510744095,1.0795681476593018,0.005954707972705364,0.4254808723926544
252.0,245.0,-4.0397,0.4648,9.0317,-0.0461,0.0254,-0.111,-2.1496788463988246,-0.017795035615563393,4.171576499938965,-1.544203519821167,0.015516551211476326,2.2037580013275146,-0.7268550556949158,-0.0028182382229715586,0.22349222004413605,-1.6449664274798792,2.2420775429197073e-44,-0.028865737840533257,0.6704092025756836,0.0,0.002846227493137121,1.0795718431472778,0.006293965969234705,0.4151645302772522
252.0,245.0,-4.0397,0.4648,9.0317,-0.0461,0.0254,-0.111,-2.1497990093626917,-0.016795936971902847,4.116039752960205,-1.5441200733184814,0.01863754168152809,2.2222485542297363,-0.7268467110446473,-0.002157278824597597,0.20995508134365082,-1.644925896321432,0.0,-0.03361134231090546,0.6703932881355286,0.0,0.0064280349761247635,1.079635739326477,0.006766337435692549,0.414361834526062
252.0,245.0,-4.0397,0.4648,9.0317,-0.0461,0.0254,-0.111,-2.149863382379049,-0.016025520861148834,4.152472496032715,-1.5440361499786377,0.020383624359965324,2.2388150691986084,-0.7268669170192261,-0.0015989637468010187,0.21651780605316162,-1.6449344793902796,0.0,-0.01993747614324093,0.6704331636428833,0.0,0.001361034344881773,1.0796639919281006,0.006587856449186802,0.43773919343948364
252.0,245.0,-4.0397,0.4648,9.0317,-0.0461,0.0254,-0.111,-2.149947305718893,-0.016317659988999367,4.105842590332031,-1.5439049005508423,0.025061219930648804,2.188754081726074,-0.7268828910640259,-0.001049349782988429,0.21431568264961243,-1.6449545065509241,0.0,-0.024000007659196854,0.6704251170158386,0.0,-0.006337418220937252,1.07968008518219,0.006687363144010305,0.4409814476966858
252.0,245.0,-4.0397,0.4648,9.0317,-0.0461,0.0254,-0.111,-2.1500026188292445,-0.01669195108115673,4.170665264129639,-1.5437564849853516,0.0274062417447567,2.237992525100708,-0.7268751424602051,-0.0007297100382857025,0.20503681898117065,-1.6449621359454554,0.0,-0.02775915525853634,0.6703811883926392,0.0,-0.00262921629473567,1.0797322988510132,0.006692442111670971,0.3930090069770813
252.0,245.0,-4.0397,0.4648,9.0317,-0.0461,0.0254,-0.111,-2.150175233880514,-0.018382268026471138,4.188831329345703,-1.5435696840286255,0.03136138245463371,2.2309179306030273,-0.7268829506686707,-0.0004895924939773977,0.22132331132888794,-1.6449301878558558,0.0,-0.02846508100628853,0.6704092025756836,0.0,-0.008297974243760109,1.0797923803329468,0.007650765590369701,0.43697476387023926
252.0,245.0,-4.0397,0.4648,9.0317,-0.0461,0.0254,-0.111,-2.150182386437887,-0.018910735845565796,4.189177989959717,-1.5434491634368896,0.03396705165505409,2.2487924098968506,-0.7268186372569581,-0.00042361964005976915,0.21720635890960693,-1.6449344793902796,-5.1366263505769894e-05,-0.020840022712945938,0.6704211235046387,0.0,-0.005235008429735899,1.079780101776123,0.008123984560370445,0.3893424868583679
252.0,245.0,-4.0397,0.4648,9.0317,-0.0461,0.0254,-0.111,-2.1503507099547328,-0.021250436082482338,4.168079376220703,-1.5431891679763794,0.03694721311330795,2.2934465408325195,-0.7268952292254944,-0.0003524803323671222,0.2207156866788864,-1.6449821631061,-8.766753308009356e-05,-0.022478174418210983,0.6704172492027283,0.0,-0.00765015184879303,1.0798641443252563,0.008656712248921394,0.3916855454444885
252.0,245.0,-4.0397,0.4648,9.0317,-0.0461,0.0254,-0.111,-2.15049471477651,-0.022957490757107735,4.14864444732666,-1.5429942607879639,0.03936728090047836,2.2038607597351074,-0.726915256386139,-0.0003018053248524666,0.21870368719100952,-1.6449301878558558,-9.830237104324624e-05,-0.03710929676890373,0.6704453825950623,0.0,-0.0025274213403463364,1.079907774925232,0.010876378044486046,0.4098384976387024
