ramyac6/ROB537/final_project/csv/bad/bad_178.csv
tof_0,tof_1,accelx,accely,accelz,gyrox,gyroy,gyroz,shoulder_lift_joint_position,shoulder_lift_joint_velocity,shoulder_lift_joint_effort,elbow_joint_position,elbow_joint_velocity,elbow_joint_effort,wrist_1_joint_position,wrist_1_joint_velocity,wrist_1_joint_effort,wrist_2_joint_position,wrist_2_joint_velocity,wrist_2_joint_effort,wrist_3_joint_position,wrist_3_joint_velocity,wrist_3_joint_effort,shoulder_pan_joint_position,shoulder_pan_joint_velocity,shoulder_pan_joint_effort
347.0,214.0,1.1282,-3.2028,8.8702,-0.0363,0.0211,-0.1101,-1.8579656086363734,0.0,3.2888991832733154,-1.6371806859970093,-0.0,2.092353343963623,4.966892051487722,0.0,0.26948606967926025,-1.196108643208639,-0.0,-0.042504142969846725,0.3136669099330902,-0.0,-0.008679562248289585,0.9628660082817078,0.0,-0.007920784875750542
347.0,214.0,1.1282,-3.2028,8.8702,-0.0363,0.0211,-0.1101,-1.8579498730101527,0.0,3.280966281890869,-1.6372647285461426,-0.0,2.047858715057373,4.966887968569555,0.0,0.2710229158401489,-1.1961281935321253,-0.0,-0.044204242527484894,0.31363043189048767,-0.0,0.002139969263225794,0.9628980159759521,0.0,-0.008823590353131294
347.0,214.0,1.1282,-3.2028,8.8702,-0.0363,0.0211,-0.1101,-1.857962270776266,0.0,3.2984838485717773,-1.6372449398040771,-0.0,2.0622072219848633,4.9668719349201105,0.0,0.28219670057296753,-1.196108643208639,-0.0,-0.03756881505250931,0.31369099020957947,-0.0,-0.003718436462804675,0.9628537893295288,0.0,-0.06199021637439728
347.0,214.0,1.1282,-3.2028,8.8702,-0.0363,0.0211,-0.1101,-1.8579579792418421,0.0,3.291029930114746,-1.6372727155685425,-0.0,2.015831470489502,4.96688790896491,0.0,0.28295841813087463,-1.196120564137594,-0.0,-0.04747246578335762,0.31360292434692383,-0.0,0.004209309350699186,0.9628697633743286,0.0,-0.020255479961633682
347.0,214.0,1.1282,-3.2028,8.8702,-0.0363,0.0211,-0.1101,-1.8580147228636683,0.0,3.2438595294952393,-1.6372368335723877,-0.0,2.0519886016845703,4.966903614788809,0.0,0.27053898572921753,-1.196064297352926,-0.0,-0.05177845433354378,0.3136790692806244,-0.0,0.008581537753343582,0.9628943204879761,0.0,0.007044213358312845
347.0,214.0,1.1282,-3.2028,8.8702,-0.0363,0.0211,-0.1101,-1.8579536877074183,0.0,3.2784934043884277,-1.6372244358062744,-0.0,2.067891836166382,4.9668719349201105,0.0,0.27501818537712097,-1.1961162726031702,-0.0,-0.0567154698073864,0.3136669397354126,-0.0,0.0010209530591964722,0.9628820419311523,0.0,-0.0022420277819037437
347.0,214.0,1.1282,-3.2028,8.8702,-0.0363,0.0211,-0.1101,-1.857946058312887,0.0,3.277240753173828,-1.6372408866882324,-0.0,2.0995633602142334,4.9668920216854,0.0,0.2681191563606262,-1.1960919539081019,-0.0,-0.04492323845624924,0.3136066198348999,-0.0,0.0005517132813110948,0.9628697633743286,0.0,0.04311944171786308
347.0,214.0,1.1282,-3.2028,8.8702,-0.0363,0.0211,-0.1101,-1.8579865894713343,0.0,3.289424419403076,-1.6372170448303223,-0.0,2.055936336517334,4.966843682318487,0.0,0.2722615599632263,-1.1961043516742151,-0.0,-0.055712614208459854,0.3136627674102783,-0.0,0.012203576974570751,0.9628943204879761,0.0,-0.01704554073512554
347.0,214.0,1.1282,-3.2028,8.8702,-0.0363,0.0211,-0.1101,-1.857974191705221,0.0,3.2958879470825195,-1.6371846199035645,-0.0,2.1242690086364746,4.966915952950277,0.0,0.28479450941085815,-1.1960762182818812,-0.0,-0.04732842370867729,0.3136310875415802,-0.0,-0.017845407128334045,0.9629061222076416,0.0,-0.026838254183530807
347.0,214.0,1.1282,-3.2028,8.8702,-0.0363,0.0211,-0.1101,-1.8579417667784632,0.0,3.3051037788391113,-1.6372528076171875,-0.0,2.069490909576416,4.966884273081579,0.0,0.2777189314365387,-1.1960962454425257,-0.0,-0.04827730357646942,0.3136749863624573,-0.0,0.003392778802663088,0.9628537893295288,0.0,-0.000968671403825283
339.0,204.0,1.1318,-3.1908,8.9575,-0.0338,0.0151,-0.118,-1.857974191705221,0.0,3.291377067565918,-1.6372284889221191,-0.0,2.073424816131592,4.966951983958044,0.0,0.27712270617485046,-1.1961000601397913,-0.0,-0.0447276309132576,0.3136627674102783,-0.0,0.02050919458270073,0.9628943204879761,0.0,0.013318299315869808
339.0,204.0,1.1318,-3.1908,8.9575,-0.0338,0.0151,-0.118,-1.8579656086363734,0.0,3.265613079071045,-1.6372328996658325,-0.0,2.045663833618164,4.9668920216854,0.0,0.27310898900032043,-1.1961243788348597,-0.0,-0.05079050362110138,0.3136749863624573,-0.0,0.0039008138701319695,0.9628657102584839,0.0,0.029397713020443916
339.0,204.0,1.1318,-3.1908,8.9575,-0.0338,0.0151,-0.118,-1.857974191705221,0.0,3.3044302463531494,-1.6372129917144775,-0.0,2.0666403770446777,4.9668719349201105,0.0,0.27580052614212036,-1.1960838476764124,-0.0,-0.055364929139614105,0.31360700726509094,-0.0,-0.008922345004975796,0.962853729724884,0.0,-0.009897077456116676
339.0,204.0,1.1318,-3.1908,8.9575,-0.0338,0.0151,-0.118,-1.8579379520811976,0.0,3.273362636566162,-1.6372528076171875,-0.0,2.042783260345459,4.966880070954122,0.0,0.2797408699989319,-1.1961682478534144,-0.0,-0.0484156608581543,0.313618928194046,-0.0,0.00012883718591183424,0.9628419280052185,0.0,0.023555813357234
339.0,204.0,1.1318,-3.1908,8.9575,-0.0338,0.0151,-0.118,-1.8579217396178187,0.0,3.314753770828247,-1.6372129917144775,-0.0,2.0930733680725098,4.966843682318487,0.0,0.2781229019165039,-1.1961081663714808,-0.0,-0.04138734191656113,0.31365060806274414,-0.0,0.021340826526284218,0.9629020094871521,0.0,0.038738563656806946
339.0,204.0,1.1318,-3.1908,8.9575,-0.0338,0.0151,-0.118,-1.8580147228636683,0.0,3.2703347206115723,-1.6373170614242554,-0.0,2.103501319885254,4.966891366034307,0.0,0.2775390148162842,-1.1961043516742151,-0.0,-0.067779541015625,0.31360700726509094,-0.0,0.0015074058901518583,0.9628983736038208,0.0,0.010137633420526981
339.0,204.0,1.1318,-3.1908,8.9575,-0.0338,0.0151,-0.118,-1.8579699001707972,0.0,3.2838330268859863,-1.6372203826904297,-0.0,2.1016337871551514,4.966851907759466,0.0,0.2832413911819458,-1.1961119810687464,-0.0,-0.05305488407611847,0.31363868713378906,-0.0,-0.0025258762761950493,0.9629061222076416,0.0,-0.037411343306303024
339.0,204.0,1.1318,-3.1908,8.9575,-0.0338,0.0151,-0.118,-1.8579946957030238,0.0,3.308161735534668,-1.6372528076171875,-0.0,2.055352210998535,4.966876017838278,0.0,0.2966049015522003,-1.1961281935321253,-0.0,-0.06358000636100769,0.3136709928512573,-0.0,0.008184859529137611,0.9629102945327759,0.0,-0.02250923030078411
339.0,204.0,1.1318,-3.1908,8.9575,-0.0338,0.0151,-0.118,-1.8579379520811976,0.0,3.3013105392456055,-1.6372284889221191,-0.0,2.045462131500244,4.966911780625143,0.0,0.2940850853919983,-1.1961081663714808,-0.0,-0.04770337790250778,0.3136627674102783,-0.0,0.014325849711894989,0.9628697633743286,0.0,-0.0185169018805027
339.0,204.0,1.1318,-3.1908,8.9575,-0.0338,0.0151,-0.118,-1.8579417667784632,0.0,3.2942299842834473,-1.6371965408325195,-0.0,2.1048941612243652,4.966911780625143,0.0,0.2809639871120453,-1.1961000601397913,-0.0,-0.046872373670339584,0.31365469098091125,-0.0,-0.00937926396727562,0.9629262685775757,0.0,-0.0101506058126688
339.0,204.0,1.1318,-3.1908,8.9575,-0.0338,0.0151,-0.118,-1.8579217396178187,0.0,3.30538272857666,-1.6372325420379639,-0.0,2.1119470596313477,4.966887938767233,0.0,0.27598732709884644,-1.1961405912982386,-0.0,-0.04487823694944382,0.31359463930130005,-0.0,-0.0086288433521986,0.9629061222076416,0.0,0.012761956080794334
339.0,204.0,1.1318,-3.1908,8.9575,-0.0338,0.0151,-0.118,-1.8579579792418421,0.0,3.271407127380371,-1.63718843460083,-0.0,2.0449490547180176,4.966860043793478,0.0,0.26253145933151245,-1.196108643208639,-0.0,-0.06352359056472778,0.31365469098091125,-0.0,-0.00400968361645937,0.9628620147705078,0.0,0.011465959250926971
339.0,204.0,1.1318,-3.1908,8.9575,-0.0338,0.0151,-0.118,-1.857934137383932,0.0,3.290982723236084,-1.6372325420379639,-0.0,2.0851755142211914,4.966851907759466,0.0,0.2871055006980896,-1.1961324850665491,-0.0,-0.0481509193778038,0.31363463401794434,-0.0,-0.007284782361239195,0.9629020690917969,0.0,-0.004151549655944109
339.0,204.0,1.1318,-3.1908,8.9575,-0.0338,0.0151,-0.118,-1.8579212627806605,0.0,3.3122665882110596,-1.6372122764587402,-0.0,2.042996883392334,4.9668719349201105,0.0,0.29235661029815674,-1.1961243788348597,-0.0,-0.05099190026521683,0.31365466117858887,-0.0,-0.0019152164459228516,0.9629143476486206,0.0,-0.018116556107997894
339.0,204.0,1.1318,-3.1908,8.9575,-0.0338,0.0151,-0.118,-1.8579656086363734,0.0,3.2525577545166016,-1.6372244358062744,-0.0,2.078446388244629,4.966831403761663,0.0,0.26893410086631775,-1.1961162726031702,-0.0,-0.04213663190603256,0.31367096304893494,-0.0,0.00747852586209774,0.9629143476486206,0.0,0.012813624925911427
339.0,204.0,1.1318,-3.1908,8.9575,-0.0338,0.0151,-0.118,-1.8579217396178187,0.0,3.2660083770751953,-1.637176513671875,-0.0,2.0559773445129395,4.966887938767233,0.0,0.28747573494911194,-1.1961482206927698,-0.0,-0.04676350951194763,0.31362229585647583,-0.0,-0.003430061275139451,0.9628860950469971,0.0,0.021698832511901855
339.0,204.0,1.1318,-3.1908,8.9575,-0.0338,0.0151,-0.118,-1.8579660854735316,0.0,3.297791004180908,-1.6372008323669434,-0.0,2.0858397483825684,4.966876017838278,0.0,0.2662116587162018,-1.1961405912982386,-0.0,-0.04747103154659271,0.31369471549987793,-0.0,0.015162219293415546,0.9628943204879761,0.0,-0.0049548521637916565
339.0,204.0,1.1318,-3.1908,8.9575,-0.0338,0.0151,-0.118,-1.8579703770079554,0.0,3.2890191078186035,-1.6372568607330322,-0.0,2.0536909103393555,4.966860013991155,0.0,0.2899337112903595,-1.1961324850665491,-0.0,-0.05397465080022812,0.3136270046234131,-0.0,-0.0030563082545995712,0.9629184007644653,0.0,-0.062428515404462814
350.0,204.0,1.1061,-3.1651,8.8493,-0.0396,0.0319,-0.115,-1.8579417667784632,0.0,3.2995033264160156,-1.6371923685073853,-0.0,2.0918350219726562,4.9668436525161646,0.0,0.28063666820526123,-1.1961162726031702,-0.0,-0.037561945617198944,0.31364676356315613,-0.0,-0.0038251392543315887,0.9628657102584839,0.0,-0.0033225752413272858
350.0,204.0,1.1061,-3.1651,8.8493,-0.0396,0.0319,-0.115,-1.857974191705221,0.0,3.258038282394409,-1.6372325420379639,-0.0,2.0805587768554688,4.966899621277609,0.0,0.2698790729045868,-1.1961000601397913,-0.0,-0.05874108523130417,0.31363460421562195,-0.0,0.011353990063071251,0.9628943204879761,0.0,-0.009983289986848831
350.0,204.0,1.1061,-3.1651,8.8493,-0.0396,0.0319,-0.115,-1.8579379520811976,0.0,3.271843433380127,-1.6372612714767456,-0.0,2.050351858139038,4.9668719349201105,0.0,0.2893017530441284,-1.1961000601397913,-0.0,-0.04735974594950676,0.3136869966983795,-0.0,-0.013254852965474129,0.9629020690917969,0.0,-0.013537980616092682
350.0,204.0,1.1061,-3.1651,8.8493,-0.0396,0.0319,-0.115,-1.8580266437926234,0.0,3.2824249267578125,-1.6372649669647217,-0.0,2.0563149452209473,4.966887938767233,0.0,0.28896650671958923,-1.1961000601397913,-0.0,-0.04209670424461365,0.313642680644989,-0.0,0.01030257623642683,0.9628538489341736,0.0,-0.02636105567216873
350.0,204.0,1.1061,-3.1651,8.8493,-0.0396,0.0319,-0.115,-1.8579780064024867,0.0,3.2515382766723633,-1.6372129917144775,-0.0,2.0370802879333496,4.96688391545371,0.0,0.27904030680656433,-1.1961043516742151,-0.0,-0.04381678253412247,0.313618928194046,-0.0,-0.006449433043599129,0.9628660678863525,0.0,0.013023831881582737
350.0,204.0,1.1061,-3.1651,8.8493,-0.0396,0.0319,-0.115,-1.8579703770079554,0.0,3.2769107818603516,-1.6372687816619873,-0.0,2.0541462898254395,4.966887938767233,0.0,0.2705455720424652,-1.1961243788348597,-0.0,-0.04832082986831665,0.31365060806274414,-0.0,0.005207786336541176,0.9628860950469971,0.0,-0.014990351162850857
350.0,204.0,1.1061,-3.1651,8.8493,-0.0396,0.0319,-0.115,-1.8579536877074183,0.0,3.3158023357391357,-1.637260913848877,-0.0,2.042490005493164,4.966887938767233,0.0,0.27203112840652466,-1.1961162726031702,-0.0,-0.03493127599358559,0.31364238262176514,-0.0,-0.0037900505121797323,0.9628980159759521,0.0,-0.01828092336654663
350.0,204.0,1.1061,-3.1651,8.8493,-0.0396,0.0319,-0.115,-1.857974191705221,0.0,3.289308786392212,-1.6371965408325195,-0.0,2.040029764175415,4.9668719349201105,0.0,0.28379353880882263,-1.1961043516742151,-0.0,-0.053603023290634155,0.31362301111221313,-0.0,0.0009377064416185021,0.9628779888153076,0.0,-0.052547380328178406
350.0,204.0,1.1061,-3.1651,8.8493,-0.0396,0.0319,-0.115,-1.8579417667784632,0.0,3.315788984298706,-1.6371924877166748,-0.0,2.119851589202881,4.966863739281454,0.0,0.28808876872062683,-1.1960919539081019,-0.0,-0.0530766136944294,0.3136669397354126,-0.0,0.0019585266709327698,0.9628942608833313,0.0,0.020430218428373337
350.0,204.0,1.1061,-3.1651,8.8493,-0.0396,0.0319,-0.115,-1.8579298458495082,0.0,3.275052547454834,-1.6372768878936768,-0.0,2.0416133403778076,4.966884273081579,0.0,0.2941940426826477,-1.1961362997638147,-0.0,-0.04758647084236145,0.313642680644989,-0.0,0.004091001581400633,0.9629102945327759,0.0,-0.02580263651907444
350.0,204.0,1.1061,-3.1651,8.8493,-0.0396,0.0319,-0.115,-1.8579656086363734,0.0,3.281864643096924,-1.6372325420379639,-0.0,2.077367067337036,4.9668920216854,0.0,0.28752318024635315,-1.196087662373678,-0.0,-0.05058525502681732,0.3136749863624573,-0.0,0.006246575620025396,0.9628943204879761,0.0,0.023956844583153725
350.0,204.0,1.1061,-3.1651,8.8493,-0.0396,0.0319,-0.115,-1.857934137383932,0.0,3.2511019706726074,-1.63718843460083,-0.0,2.0225110054016113,4.966887938767233,0.0,0.27869725227355957,-1.196087662373678,-0.0,-0.0541941374540329,0.31365060806274414,-0.0,-0.0011907860171049833,0.9628660678863525,0.0,0.011303633451461792
350.0,204.0,1.1061,-3.1651,8.8493,-0.0396,0.0319,-0.115,-1.857962270776266,0.0,3.280607223510742,-1.6371924877166748,-0.0,2.0334296226501465,4.966899621277609,0.0,0.27662086486816406,-1.1961844603167933,-0.0,-0.04335799068212509,0.3136627674102783,-0.0,0.0009502594475634396,0.9628698229789734,0.0,-0.01033588033169508
350.0,204.0,1.1061,-3.1651,8.8493,-0.0396,0.0319,-0.115,-1.8579579792418421,0.0,3.3006181716918945,-1.637204885482788,-0.0,2.06240177154541,4.966903614788809,0.0,0.2749873399734497,-1.1961000601397913,-0.0,-0.05008307844400406,0.31368324160575867,-0.0,0.009099749848246574,0.9628779888153076,0.0,0.055635966360569
350.0,204.0,1.1061,-3.1651,8.8493,-0.0396,0.0319,-0.115,-1.8579417667784632,0.0,3.2437095642089844,-1.6372406482696533,-0.0,2.0848991870880127,4.966915952950277,0.0,0.288953959941864,-1.1961405912982386,-0.0,-0.05061924085021019,0.3136669397354126,-0.0,0.0012169916881248355,0.9629143476486206,0.0,0.018319817259907722
350.0,204.0,1.1061,-3.1651,8.8493,-0.0396,0.0319,-0.115,-1.8579379520811976,0.0,3.2975106239318848,-1.6371805667877197,-0.0,2.1031908988952637,4.966887938767233,0.0,0.27490511536598206,-1.196120564137594,-0.0,-0.04710736125707626,0.31363460421562195,-0.0,-0.0013946999097242951,0.9628660678863525,0.0,-0.043887946754693985
350.0,204.0,1.1061,-3.1651,8.8493,-0.0396,0.0319,-0.115,-1.8579861126341761,0.0,3.2978787422180176,-1.637272834777832,-0.0,2.0656898021698,4.966843682318487,0.0,0.27620407938957214,-1.1960838476764124,-0.0,-0.06552131474018097,0.3136110007762909,-0.0,0.008330199867486954,0.9628418684005737,0.0,-0.013101732358336449
350.0,204.0,1.1061,-3.1651,8.8493,-0.0396,0.0319,-0.115,-1.85792936901235,0.0,3.3121719360351562,-1.6372203826904297,-0.0,2.0846474170684814,4.966900276928701,0.0,0.28000742197036743,-1.1961043516742151,-0.0,-0.045544423162937164,0.313618928194046,-0.0,-0.0022172718308866024,0.9628660678863525,0.0,-0.003545356448739767
350.0,204.0,1.1061,-3.1651,8.8493,-0.0396,0.0319,-0.115,-1.8579865894713343,0.0,3.256138324737549,-1.6373090744018555,-0.0,2.032858371734619,4.966891336231985,0.0,0.2734994888305664,-1.1961281935321253,-0.0,-0.05479051172733307,0.3136989176273346,-0.0,0.009553098119795322,0.9628901481628418,0.0,0.004977730102837086
329.0,205.0,1.1109,-3.1878,8.7841,-0.0377,0.0234,-0.121,-1.8579417667784632,0.0,3.2554750442504883,-1.6372487545013428,-0.0,2.029581308364868,4.966899621277609,0.0,0.28113892674446106,-1.196160618458883,-0.0,-0.04116608202457428,0.3136586844921112,-0.0,0.0012646098621189594,0.962898313999176,0.0,-0.006283881608396769
329.0,205.0,1.1109,-3.1878,8.7841,-0.0377,0.0234,-0.121,-1.8579379520811976,0.0,3.2386221885681152,-1.6372365951538086,-0.0,2.0754690170288086,4.966855931072988,0.0,0.28889000415802,-1.1961324850665491,-0.0,-0.05205259472131729,0.3136869966983795,-0.0,0.004666681867092848,0.9629262089729309,0.0,-0.00968950055539608
329.0,205.0,1.1109,-3.1878,8.7841,-0.0377,0.0234,-0.121,-1.8579536877074183,0.0,3.2631990909576416,-1.637229323387146,-0.0,2.119440793991089,4.966855931072988,0.0,0.2750803828239441,-1.196120564137594,-0.0,-0.05421988666057587,0.31363463401794434,-0.0,-0.018429363146424294,0.962898313999176,0.0,0.014795470982789993
329.0,205.0,1.1109,-3.1878,8.7841,-0.0377,0.0234,-0.121,-1.857962270776266,0.0,3.279313087463379,-1.6372528076171875,-0.0,2.0754072666168213,4.9668760476406,0.0,0.27838951349258423,-1.1961162726031702,-0.0,-0.049066998064517975,0.3136669099330902,-0.0,0.0010790703818202019,0.9629102349281311,0.0,0.03479280322790146
329.0,205.0,1.1109,-3.1878,8.7841,-0.0377,0.0234,-0.121,-1.8579498730101527,0.0,3.3388195037841797,-1.637204647064209,-0.0,2.0601766109466553,4.9668920216854,0.0,0.2706593871116638,-1.1961281935321253,-0.0,-0.051699407398700714,0.3136151134967804,-0.0,0.010230268351733685,0.9629020690917969,0.0,-0.05386601388454437
329.0,205.0,1.1109,-3.1878,8.7841,-0.0377,0.0234,-0.121,-1.8579699001707972,0.0,3.2907016277313232,-1.6372368335723877,-0.0,2.0853970050811768,4.966943877726354,0.0,0.2719886004924774,-1.1960881392108362,-0.0,-0.0476849228143692,0.31366270780563354,-0.0,0.010134939104318619,0.9628779888153076,0.0,0.011715657077729702
329.0,205.0,1.1109,-3.1878,8.7841,-0.0377,0.0234,-0.121,-1.857974191705221,0.0,3.2868728637695312,-1.6372325420379639,-0.0,2.0754926204681396,4.966876017838278,0.0,0.2732641398906708,-1.1961563269244593,-0.0,-0.05648825317621231,0.3136029839515686,-0.0,0.015370942652225494,0.9629102349281311,0.0,-0.0339311920106411
329.0,205.0,1.1109,-3.1878,8.7841,-0.0377,0.0234,-0.121,-1.8579536877074183,0.0,3.3114099502563477,-1.6372528076171875,-0.0,2.0797030925750732,4.966880100756445,0.0,0.2565422058105469,-1.1961119810687464,-0.0,-0.048421721905469894,0.3136386573314667,-0.0,-0.00922841764986515,0.9628658294677734,0.0,0.00033129844814538956
329.0,205.0,1.1109,-3.1878,8.7841,-0.0377,0.0234,-0.121,-1.8579260311522425,0.0,3.3286335468292236,-1.6372767686843872,-0.0,2.0542125701904297,4.966860013991155,0.0,0.2654510736465454,-1.1961043516742151,-0.0,-0.05290888249874115,0.31363046169281006,-0.0,0.006005068309605122,0.9628537893295288,0.0,-0.039189860224723816
329.0,205.0,1.1109,-3.1878,8.7841,-0.0377,0.0234,-0.121,-1.8579579792418421,0.0,3.299748420715332,-1.6372531652450562,-0.0,2.0689616203308105,4.966951924353399,0.0,0.2788357734680176,-1.1961119810687464,-0.0,-0.05468388646841049,0.3136709928512573,-0.0,-0.020665045827627182,0.9629023671150208,0.0,-0.04775397479534149
329.0,205.0,1.1109,-3.1878,8.7841,-0.0377,0.0234,-0.121,-1.857962270776266,0.0,3.2664108276367188,-1.6372244358062744,-0.0,2.0731911659240723,4.966887938767233,0.0,0.2891751229763031,-1.1961162726031702,-0.0,-0.04156321659684181,0.3136352300643921,-0.0,-0.021244820207357407,0.9628779888153076,0.0,-0.0028970418497920036
329.0,205.0,1.1109,-3.1878,8.7841,-0.0377,0.0234,-0.121,-1.8579498730101527,0.0,3.2984180450439453,-1.6372368335723877,-0.0,2.0421459674835205,4.966923999577322,0.0,0.2748657166957855,-1.1961281935321253,-0.0,-0.05015052109956741,0.3136669099330902,-0.0,0.013653493486344814,0.9628901481628418,0.0,0.016058053821325302
329.0,205.0,1.1109,-3.1878,8.7841,-0.0377,0.0234,-0.121,-1.8579417667784632,0.0,3.267009973526001,-1.6373087167739868,-0.0,2.085968255996704,4.966900276928701,0.0,0.2637411057949066,-1.1961043516742151,-0.0,-0.052448246628046036,0.3136669099330902,-0.0,-0.002527629490941763,0.9628779888153076,0.0,0.022190682590007782
329.0,205.0,1.1109,-3.1878,8.7841,-0.0377,0.0234,-0.121,-1.8579822979369105,0.0,3.2698514461517334,-1.6372727155685425,-0.0,2.048689365386963,4.966855960875311,0.0,0.27228841185569763,-1.1960838476764124,-0.0,-0.06607802212238312,0.31364238262176514,-0.0,-0.010526305064558983,0.9628779888153076,0.0,0.014925443567335606
329.0,205.0,1.1109,-3.1878,8.7841,-0.0377,0.0234,-0.121,-1.8579303226866664,0.0,3.2957189083099365,-1.637272834777832,-0.0,2.075868606567383,4.966871905117788,0.0,0.2713516652584076,-1.1961286703692835,-0.0,-0.057108499109745026,0.3136831820011139,-0.0,0.004589172080159187,0.9629183411598206,0.0,0.015270845033228397
329.0,205.0,1.1109,-3.1878,8.7841,-0.0377,0.0234,-0.121,-1.857962270776266,0.0,3.300494909286499,-1.6371883153915405,-0.0,2.032242774963379,4.966887968569555,0.0,0.2786504030227661,-1.196120564137594,-0.0,-0.06263703107833862,0.3136310577392578,-0.0,-0.0044150627218186855,0.9629183411598206,0.0,0.010382565669715405
329.0,205.0,1.1109,-3.1878,8.7841,-0.0377,0.0234,-0.121,-1.8579865894713343,0.0,3.3337793350219727,-1.6372089385986328,-0.0,2.0504627227783203,4.966903584986486,0.0,0.27129271626472473,-1.1961525122271937,-0.0,-0.05018409341573715,0.31363463401794434,-0.0,0.011837871745228767,0.9629102349281311,0.0,0.026940464973449707
329.0,205.0,1.1109,-3.1878,8.7841,-0.0377,0.0234,-0.121,-1.8579780064024867,0.0,3.2628860473632812,-1.6372005939483643,-0.0,2.041224718093872,4.966899621277609,0.0,0.2744120657444,-1.1961482206927698,-0.0,-0.03579959645867348,0.31365466117858887,-0.0,-0.00015036948025226593,0.9628820419311523,0.0,-0.0029580951668322086
337.0,210.0,1.142,-3.2088,8.9378,-0.0405,0.0243,-0.1135,-1.8579822979369105,0.0,3.294823169708252,-1.6372244358062744,-0.0,2.08158278465271,4.9668719349201105,0.0,0.28282076120376587,-1.1960557142840784,-0.0,-0.05095403641462326,0.3136831820011139,-0.0,-0.00698575796559453,0.9628415703773499,0.0,-0.014474107883870602
337.0,210.0,1.142,-3.2088,8.9378,-0.0405,0.0243,-0.1135,-1.8579136333861292,0.0,3.3396873474121094,-1.6372768878936768,-0.0,2.042999505996704,4.966868299036779,0.0,0.27314645051956177,-1.1961000601397913,-0.0,-0.04738924652338028,0.31364673376083374,-0.0,0.010972604155540466,0.9628902077674866,0.0,-0.022634580731391907
337.0,210.0,1.142,-3.2088,8.9378,-0.0405,0.0243,-0.1135,-1.8579379520811976,0.0,3.2528505325317383,-1.6372408866882324,-0.0,2.070591449737549,4.966907697706976,0.0,0.271129846572876,-1.1961119810687464,-0.0,-0.05097443610429764,0.31365087628364563,-0.0,0.007760984823107719,0.962833821773529,0.0,0.008541159331798553
337.0,210.0,1.142,-3.2088,8.9378,-0.0405,0.0243,-0.1135,-1.8579822979369105,0.0,3.260873556137085,-1.637280821800232,-0.0,2.0905306339263916,4.96683149316863,0.0,0.27236083149909973,-1.1961362997638147,-0.0,-0.05156071484088898,0.31363463401794434,-0.0,0.0010716428514569998,0.9628701210021973,0.0,0.005249944049865007
337.0,210.0,1.142,-3.2088,8.9378,-0.0405,0.0243,-0.1135,-1.8579336605467738,0.0,3.2791624069213867,-1.6372243165969849,-0.0,2.076819896697998,4.966860043793478,0.0,0.27966779470443726,-1.1960838476764124,-0.0,-0.04618008807301521,0.3136831820011139,-0.0,0.0012492567766457796,0.9628820419311523,0.0,-0.030535994097590446
337.0,210.0,1.142,-3.2088,8.9378,-0.0405,0.0243,-0.1135,-1.8579298458495082,0.0,3.2827415466308594,-1.6372284889221191,-0.0,2.0405337810516357,4.9668920216854,0.0,0.2921406328678131,-1.1961525122271937,-0.0,-0.0511179193854332,0.3136270046234131,-0.0,-0.0070023504085838795,0.9629023671150208,0.0,-0.02515263482928276
337.0,210.0,1.142,-3.2088,8.9378,-0.0405,0.0243,-0.1135,-1.8579780064024867,0.0,3.284778594970703,-1.637216329574585,-0.0,2.0418806076049805,4.966867911606588,0.0,0.279018759727478,-1.1961243788348597,-0.0,-0.05208669230341911,0.3136709928512573,-0.0,0.002940795850008726,0.9628942608833313,0.0,-0.0010579489171504974
337.0,210.0,1.142,-3.2088,8.9378,-0.0405,0.0243,-0.1135,-1.8579780064024867,0.0,3.2871651649475098,-1.6372489929199219,-0.0,2.1354124546051025,4.966863739281454,0.0,0.27269747853279114,-1.1961000601397913,-0.0,-0.043796613812446594,0.31358665227890015,-0.0,-0.01272625382989645,0.9628860950469971,0.0,-0.006379544734954834
337.0,210.0,1.142,-3.2088,8.9378,-0.0405,0.0243,-0.1135,-1.8579865894713343,0.0,3.304975986480713,-1.6372284889221191,-0.0,2.044598340988159,4.966883945256033,0.0,0.2789829969406128,-1.1961281935321253,-0.0,-0.050925858318805695,0.3135906457901001,-0.0,-0.006649654358625412,0.9628860950469971,0.0,0.03144419938325882
337.0,210.0,1.142,-3.2088,8.9378,-0.0405,0.0243,-0.1135,-1.8579703770079554,0.0,3.2683815956115723,-1.6372528076171875,-0.0,2.06391978263855,4.966887938767233,0.0,0.27206599712371826,-1.1961362997638147,-0.0,-0.05842684209346771,0.3136192262172699,-0.0,-0.008002039045095444,0.9628901481628418,0.0,0.0023284100461751223
337.0,210.0,1.142,-3.2088,8.9378,-0.0405,0.0243,-0.1135,-1.857974191705221,0.0,3.31423020362854,-1.6372284889221191,-0.0,2.0396618843078613,4.966899591475286,0.0,0.26419755816459656,-1.1961162726031702,-0.0,-0.062452152371406555,0.3136627674102783,-0.0,0.004104297608137131,0.9628539085388184,0.0,-0.0073614479042589664
337.0,210.0,1.142,-3.2088,8.9378,-0.0405,0.0243,-0.1135,-1.8579822979369105,0.0,3.2514753341674805,-1.6372244358062744,-0.0,2.0711822509765625,4.966903644591131,0.0,0.2806565761566162,-1.1961324850665491,-0.0,-0.057347699999809265,0.31363049149513245,-0.0,0.003763245651498437,0.9628942608833313,0.0,0.01057378388941288
337.0,210.0,1.142,-3.2088,8.9378,-0.0405,0.0243,-0.1135,-1.8579579792418421,0.0,3.2540950775146484,-1.637260913848877,-0.0,2.0548152923583984,4.966896104603567,0.0,0.27543145418167114,-1.196108643208639,-0.0,-0.056703533977270126,0.31363049149513245,-0.0,-0.006285548210144043,0.9628779888153076,0.0,0.02284237928688526
337.0,210.0,1.142,-3.2088,8.9378,-0.0405,0.0243,-0.1135,-1.8579379520811976,0.0,3.2968478202819824,-1.6372244358062744,-0.0,2.0691237449645996,4.966860013991155,0.0,0.27483969926834106,-1.1961000601397913,-0.0,-0.04594546929001808,0.3136746883392334,-0.0,-0.0030218935571610928,0.9628738760948181,0.0,0.0024575022980570793
337.0,210.0,1.142,-3.2088,8.9378,-0.0405,0.0243,-0.1135,-1.8579861126341761,0.0,3.2612056732177734,-1.6372008323669434,-0.0,2.092622756958008,4.966911780625143,0.0,0.2759326696395874,-1.1960962454425257,-0.0,-0.0444747656583786,0.3136386573314667,-0.0,-0.0022915364243090153,0.9628779888153076,0.0,-0.07220581918954849
337.0,210.0,1.142,-3.2088,8.9378,-0.0405,0.0243,-0.1135,-1.8579904041686,0.0,3.313098430633545,-1.6372170448303223,-0.0,2.093441963195801,4.966907727509298,0.0,0.2741055488586426,-1.1961119810687464,-0.0,-0.04553303122520447,0.3136386573314667,-0.0,0.006797241047024727,0.9628497362136841,0.0,-0.02855665609240532
337.0,210.0,1.142,-3.2088,8.9378,-0.0405,0.0243,-0.1135,-1.8579660854735316,0.0,3.3367815017700195,-1.637204885482788,-0.0,2.1142044067382812,4.966831403761663,0.0,0.28437885642051697,-1.1961525122271937,-0.0,-0.05644030123949051,0.3136230409145355,-0.0,-0.008013213984668255,0.9628538489341736,0.0,-0.01485565397888422
337.0,210.0,1.142,-3.2088,8.9378,-0.0405,0.0243,-0.1135,-1.8579579792418421,0.0,3.267172336578369,-1.6372570991516113,-0.0,2.0484964847564697,4.9668920216854,0.0,0.2679504156112671,-1.1961482206927698,-0.0,-0.04928084462881088,0.31365466117858887,-0.0,-0.0031337128020823,0.9628698229789734,0.0,0.014898110181093216
337.0,210.0,1.142,-3.2088,8.9378,-0.0405,0.0243,-0.1135,-1.8579017124571742,0.0,3.2769558429718018,-1.6371965408325195,-0.0,2.025412082672119,4.966883945256033,0.0,0.2639079988002777,-1.196120564137594,-0.0,-0.04356420040130615,0.3136189877986908,-0.0,0.006935225799679756,0.962898313999176,0.0,-0.028164291754364967
342.0,209.0,1.1635,-3.2166,8.8977,-0.0409,0.0287,-0.1197,-1.857962270776266,0.0,3.318243980407715,-1.637216329574585,-0.0,2.071143627166748,4.966883945256033,0.0,0.26914483308792114,-1.1960881392108362,-0.0,-0.056839581578969955,0.3136787414550781,-0.0,0.006178807932883501,0.9628779888153076,0.0,0.08859119564294815
342.0,209.0,1.1635,-3.2166,8.8977,-0.0409,0.0287,-0.1197,-1.8579141102232875,0.0,3.326137065887451,-1.6372805833816528,-0.0,2.0918962955474854,4.966831403761663,0.0,0.2774936854839325,-1.1960838476764124,-0.0,-0.04291405901312828,0.3136230409145355,-0.0,-0.003942238632589579,0.9629179835319519,0.0,-0.0014877216890454292
342.0,209.0,1.1635,-3.2166,8.8977,-0.0409,0.0287,-0.1197,-1.8579579792418421,0.0,3.293407440185547,-1.6372491121292114,-0.0,2.103977680206299,4.966867911606588,0.0,0.2827990651130676,-1.196108643208639,-0.0,-0.05387791991233826,0.313622385263443,-0.0,-0.00787352304905653,0.9628860950469971,0.0,-0.03729913383722305
342.0,209.0,1.1635,-3.2166,8.8977,-0.0409,0.0287,-0.1197,-1.8579255543150843,0.0,3.309601306915283,-1.6372325420379639,-0.0,2.058648109436035,4.966919946461477,0.0,0.27809053659439087,-1.1961043516742151,-0.0,-0.06440060585737228,0.3136789798736572,-0.0,-0.008849367499351501,0.9628860950469971,0.0,-0.03367478400468826
342.0,209.0,1.1635,-3.2166,8.8977,-0.0409,0.0287,-0.1197,-1.857946058312887,0.0,3.271512031555176,-1.6372368335723877,-0.0,2.0980610847473145,4.966903614788809,0.0,0.28529810905456543,-1.1961000601397913,-0.0,-0.047149159014225006,0.3136070668697357,-0.0,-0.0013548712013289332,0.9629020690917969,0.0,-0.013323092833161354
342.0,209.0,1.1635,-3.2166,8.8977,-0.0409,0.0287,-0.1197,-1.8579656086363734,0.0,3.2966761589050293,-1.6372203826904297,-0.0,2.0833606719970703,4.966880100756445,0.0,0.27039265632629395,-1.1961000601397913,-0.0,-0.059500668197870255,0.3137228488922119,-0.0,0.007823633961379528,0.9628820419311523,0.0,0.007064748555421829
342.0,209.0,1.1635,-3.2166,8.8977,-0.0409,0.0287,-0.1197,-1.8579822979369105,0.0,3.2932686805725098,-1.6371923685073853,-0.0,2.059652328491211,4.966907727509298,0.0,0.2835070490837097,-1.1961243788348597,-0.0,-0.053963180631399155,0.31365862488746643,-0.0,0.007319740019738674,0.9628901481628418,0.0,-0.036384064704179764
342.0,209.0,1.1635,-3.2166,8.8977,-0.0409,0.0287,-0.1197,-1.857962270776266,0.0,3.304685592651367,-1.6372487545013428,-0.0,2.1045820713043213,4.9668719349201105,0.0,0.2605849504470825,-1.1961482206927698,-0.0,-0.04071042686700821,0.31363868713378906,-0.0,0.0010173427872359753,0.9629340171813965,0.0,-0.017011109739542007
342.0,209.0,1.1635,-3.2166,8.8977,-0.0409,0.0287,-0.1197,-1.8579699001707972,0.0,3.2703018188476562,-1.6372487545013428,-0.0,2.054553747177124,4.966887938767233,0.0,0.2693869471549988,-1.1961000601397913,-0.0,-0.057789355516433716,0.31365466117858887,-0.0,-0.007938629016280174,0.9629340171813965,0.0,0.030144337564706802
342.0,209.0,1.1635,-3.2166,8.8977,-0.0409,0.0287,-0.1197,-1.8579699001707972,0.0,3.3164448738098145,-1.6372203826904297,-0.0,2.085256338119507,4.966879772930898,0.0,0.2753940522670746,-1.1961324850665491,-0.0,-0.050749074667692184,0.3136070668697357,-0.0,-0.003972114063799381,0.962898313999176,0.0,-0.006605356931686401
342.0,209.0,1.1635,-3.2166,8.8977,-0.0409,0.0287,-0.1197,-1.8579946957030238,0.0,3.2925620079040527,-1.637221097946167,-0.0,2.069873571395874,4.966883945256033,0.0,0.29150182008743286,-1.1961444059955042,-0.0,-0.05778156965970993,0.31363049149513245,-0.0,-0.0036980060394853354,0.9628657698631287,0.0,0.013057142496109009
342.0,209.0,1.1635,-3.2166,8.8977,-0.0409,0.0287,-0.1197,-1.8579579792418421,0.0,3.336592674255371,-1.6371724605560303,-0.0,2.0663552284240723,4.966879772930898,0.0,0.28945040702819824,-1.1961444059955042,-0.0,-0.04385591298341751,0.31365862488746643,-0.0,-0.0006119721801951528,0.9628860950469971,0.0,0.002064009429886937
342.0,209.0,1.1635,-3.2166,8.8977,-0.0409,0.0287,-0.1197,-1.8579617939391078,0.0,3.288036346435547,-1.6372170448303223,-0.0,2.0588326454162598,4.966863739281454,0.0,0.26519113779067993,-1.1961243788348597,-0.0,-0.04574628919363022,0.3136669099330902,-0.0,-0.0032184564042836428,0.9628942608833313,0.0,0.05175585299730301
342.0,209.0,1.1635,-3.2166,8.8977,-0.0409,0.0287,-0.1197,-1.8580028019347132,0.0,3.2515902519226074,-1.637216329574585,-0.0,2.090440273284912,4.966887938767233,0.0,0.26573625206947327,-1.1961281935321253,-0.0,-0.03992998227477074,0.3136230409145355,-0.0,-0.012429460883140564,0.9628657102584839,0.0,0.0037747921887785196
342.0,209.0,1.1635,-3.2166,8.8977,-0.0409,0.0287,-0.1197,-1.8580104313292445,0.0,3.2748892307281494,-1.6371883153915405,-0.0,2.0569465160369873,4.966867911606588,0.0,0.2703486680984497,-1.196075741444723,-0.0,-0.051015280187129974,0.3136148452758789,-0.0,-0.0038863751105964184,0.9628620147705078,0.0,0.004198714625090361
342.0,209.0,1.1635,-3.2166,8.8977,-0.0409,0.0287,-0.1197,-1.8579536877074183,0.0,3.2912631034851074,-1.6373010873794556,-0.0,2.094986915588379,4.9668719349201105,0.0,0.27300378680229187,-1.1960919539081019,-0.0,-0.05501729995012283,0.3137310743331909,-0.0,0.006431181449443102,0.9628698229789734,0.0,-0.0177774541079998
342.0,209.0,1.1635,-3.2166,8.8977,-0.0409,0.0287,-0.1197,-1.8579417667784632,0.0,3.283804416656494,-1.6372886896133423,-0.0,2.0643346309661865,4.966867911606588,0.0,0.26846539974212646,-1.1961162726031702,-0.0,-0.04745522886514664,0.3136426508426666,-0.0,0.0021650614216923714,0.9628498554229736,0.0,-0.007420898415148258
342.0,209.0,1.1635,-3.2166,8.8977,-0.0409,0.0287,-0.1197,-1.8579536877074183,0.0,3.2800276279449463,-1.637232780456543,-0.0,2.096994161605835,4.966843682318487,0.0,0.2939103841781616,-1.1960838476764124,-0.0,-0.058866873383522034,0.3137226998806,-0.0,-0.009744818322360516,0.9628698229789734,0.0,0.017293263226747513
356.0,204.0,1.0648,-3.2524,8.8331,-0.0354,0.0249,-0.1171,-1.857917924920553,0.0,3.278810501098633,-1.6371883153915405,-0.0,2.0336599349975586,4.966887938767233,0.0,0.28457581996917725,-1.1960795561419886,-0.0,-0.05841992422938347,0.3136627972126007,-0.0,-0.0046093701384961605,0.9628942608833313,0.0,-0.0006549818208441138
356.0,204.0,1.0648,-3.2524,8.8331,-0.0354,0.0249,-0.1171,-1.8579298458495082,0.0,3.286768913269043,-1.6372244358062744,-0.0,2.099156618118286,4.966895448952474,0.0,0.2863397002220154,-1.1961200873004358,-0.0,-0.04125877842307091,0.31366270780563354,-0.0,-0.0032981738913804293,0.9628698825836182,0.0,-0.014665160328149796
356.0,204.0,1.0648,-3.2524,8.8331,-0.0354,0.0249,-0.1171,-1.8579217396178187,0.0,3.296113967895508,-1.6372487545013428,-0.0,2.0948610305786133,4.966883945256033,0.0,0.27358198165893555,-1.1961243788348597,-0.0,-0.0487959086894989,0.31363868713378906,-0.0,-0.0024397894740104675,0.9628698229789734,0.0,0.00274477805942297
356.0,204.0,1.0648,-3.2524,8.8331,-0.0354,0.0249,-0.1171,-1.8579536877074183,0.0,3.293285846710205,-1.637260913848877,-0.0,2.0207128524780273,4.966883945256033,0.0,0.2666548490524292,-1.1961243788348597,-0.0,-0.03925113007426262,0.31367892026901245,-0.0,-0.011408827267587185,0.9628901481628418,0.0,0.025848908349871635
356.0,204.0,1.0648,-3.2524,8.8331,-0.0354,0.0249,-0.1171,-1.8579379520811976,0.0,3.3145198822021484,-1.6372284889221191,-0.0,2.0780189037323,4.966860013991155,0.0,0.2816276550292969,-1.1960962454425257,-0.0,-0.05031023919582367,0.3136230409145355,-0.0,0.013423196971416473,0.9629102349281311,0.0,-0.013523786328732967
356.0,204.0,1.0648,-3.2524,8.8331,-0.0354,0.0249,-0.1171,-1.8579136333861292,0.0,3.280088424682617,-1.6372170448303223,-0.0,2.106560230255127,4.9668920216854,0.0,0.2899453639984131,-1.1961405912982386,-0.0,-0.059618912637233734,0.3136270046234131,-0.0,0.004344558343291283,0.9628698229789734,0.0,-0.007610010914504528
356.0,204.0,1.0648,-3.2524,8.8331,-0.0354,0.0249,-0.1171,-1.857950349847311,0.0,3.2865657806396484,-1.637269139289856,-0.0,2.0536837577819824,4.96683959940032,0.0,0.2877490818500519,-1.1961324850665491,-0.0,-0.0578480027616024,0.31367892026901245,-0.0,-0.004009414464235306,0.9629220962524414,0.0,-0.00873115286231041
356.0,204.0,1.0648,-3.2524,8.8331,-0.0354,0.0249,-0.1171,-1.8579260311522425,0.0,3.231729030609131,-1.637232780456543,-0.0,2.1036462783813477,4.966927784472265,0.0,0.2745421528816223,-1.1961725393878382,-0.0,-0.05296745151281357,0.31363868713378906,-0.0,-0.0009204755770042539,0.9629020094871521,0.0,0.06239909678697586
356.0,204.0,1.0648,-3.2524,8.8331,-0.0354,0.0249,-0.1171,-1.8579579792418421,0.0,3.287385940551758,-1.6372170448303223,-0.0,2.0570101737976074,4.966903614788809,0.0,0.2746719717979431,-1.1961324850665491,-0.0,-0.05795145779848099,0.31363868713378906,-0.0,0.006896089296787977,0.9628943204879761,0.0,0.0065194424241781235
356.0,204.0,1.0648,-3.2524,8.8331,-0.0354,0.0249,-0.1171,-1.857950349847311,0.0,3.3151347637176514,-1.637260913848877,-0.0,2.0810179710388184,4.966843712120809,0.0,0.27161476016044617,-1.1961119810687464,-0.0,-0.0506785586476326,0.31365466117858887,-0.0,0.0017596031539142132,0.9628538489341736,0.0,-0.03491925820708275
356.0,204.0,1.0648,-3.2524,8.8331,-0.0354,0.0249,-0.1171,-1.857974191705221,0.0,3.271512031555176,-1.6372487545013428,-0.0,2.0551280975341797,4.966940063029089,0.0,0.2756315767765045,-1.1960838476764124,-0.0,-0.05090337246656418,0.31363868713378906,-0.0,-0.0033719665370881557,0.9628860950469971,0.0,-0.021555108949542046
356.0,204.0,1.0648,-3.2524,8.8331,-0.0354,0.0249,-0.1171,-1.8579904041686,0.0,3.3193490505218506,-1.6372528076171875,-0.0,2.084887742996216,4.966883945256033,0.0,0.2916620969772339,-1.1961324850665491,-0.0,-0.0506833977997303,0.31365060806274414,-0.0,0.0015776418149471283,0.9629220366477966,0.0,-0.010758746415376663
356.0,204.0,1.0648,-3.2524,8.8331,-0.0354,0.0249,-0.1171,-1.857950349847311,0.0,3.329711437225342,-1.6372528076171875,-0.0,2.0948691368103027,4.966883945256033,0.0,0.27830082178115845,-1.196120564137594,-0.0,-0.05001891404390335,0.3136351704597473,-0.0,-0.004586668685078621,0.9628779888153076,0.0,-0.02341730333864689
356.0,204.0,1.0648,-3.2524,8.8331,-0.0354,0.0249,-0.1171,-1.8579579792418421,0.0,3.240696430206299,-1.6372008323669434,-0.0,2.086998462677002,4.966831403761663,0.0,0.26567715406417847,-1.1961000601397913,-0.0,-0.04857272654771805,0.3136030435562134,-0.0,0.008027508854866028,0.9628980159759521,0.0,0.022550068795681
356.0,204.0,1.0648,-3.2524,8.8331,-0.0354,0.0249,-0.1171,-1.8579904041686,0.0,3.237104892730713,-1.637272834777832,-0.0,2.084475517272949,4.966895448952474,0.0,0.270376980304718,-1.1960919539081019,-0.0,-0.04228810966014862,0.3136148750782013,-0.0,-0.003604820230975747,0.962898313999176,0.0,0.04547707363963127
356.0,204.0,1.0648,-3.2524,8.8331,-0.0354,0.0249,-0.1171,-1.8579379520811976,0.0,3.263216972351074,-1.6372203826904297,-0.0,2.073775291442871,4.966887938767233,0.0,0.2719031572341919,-1.1961043516742151,-0.0,-0.04844095557928085,0.3136424124240875,-0.0,-0.01099653635174036,0.9628942608833313,0.0,-0.009868130087852478
356.0,204.0,1.0648,-3.2524,8.8331,-0.0354,0.0249,-0.1171,-1.8579579792418421,0.0,3.261218786239624,-1.637204647064209,-0.0,2.0379505157470703,4.9668719349201105,0.0,0.2805248498916626,-1.1960962454425257,-0.0,-0.05188508331775665,0.31365859508514404,-0.0,0.006007480435073376,0.9628942608833313,0.0,-0.025260549038648605
356.0,204.0,1.0648,-3.2524,8.8331,-0.0354,0.0249,-0.1171,-1.8579017124571742,0.0,3.3121745586395264,-1.6372568607330322,-0.0,2.127135753631592,4.966915952950277,0.0,0.2732095718383789,-1.1961362997638147,-0.0,-0.05354023352265358,0.3136230409145355,-0.0,-0.001172069925814867,0.9628298282623291,0.0,0.013680854812264442
356.0,204.0,1.0648,-3.2524,8.8331,-0.0354,0.0249,-0.1171,-1.857974191705221,0.0,3.27843976020813,-1.6372687816619873,-0.0,2.0315165519714355,4.9669159827525995,0.0,0.25795936584472656,-1.1961000601397913,-0.0,-0.05037221312522888,0.3136110305786133,-0.0,0.0024050043430179358,0.9628942608833313,0.0,0.028866104781627655
338.0,205.0,1.1079,-3.2219,8.9533,-0.042,0.0211,-0.115,-1.8579656086363734,0.0,3.282815456390381,-1.6372531652450562,-0.0,2.064751625061035,4.966911780625143,0.0,0.2754742205142975,-1.1961324850665491,-0.0,-0.041427209973335266,0.3136627674102783,-0.0,-0.001109098899178207,0.9628698229789734,0.0,0.038564424961805344
338.0,205.0,1.1079,-3.2219,8.9533,-0.042,0.0211,-0.115,-1.858018537560934,0.0,3.2684154510498047,-1.6372089385986328,-0.0,2.0321435928344727,4.966876017838278,0.0,0.28344401717185974,-1.1961243788348597,-0.0,-0.04701592028141022,0.31362244486808777,-0.0,-0.011891811154782772,0.9628617763519287,0.0,-0.006956682540476322
338.0,205.0,1.1079,-3.2219,8.9533,-0.042,0.0211,-0.115,-1.8579536877074183,0.0,3.2877306938171387,-1.6372284889221191,-0.0,2.069955825805664,4.966851907759466,0.0,0.2780013680458069,-1.1961324850665491,-0.0,-0.046568647027015686,0.31365469098091125,-0.0,-0.0018706803675740957,0.9628738760948181,0.0,0.005731618031859398
338.0,205.0,1.1079,-3.2219,8.9533,-0.042,0.0211,-0.115,-1.8579217396178187,0.0,3.2688794136047363,-1.6371923685073853,-0.0,2.0620837211608887,4.966876017838278,0.0,0.2793982923030853,-1.196120564137594,-0.0,-0.04640056937932968,0.31367090344429016,-0.0,0.012288535013794899,0.9628620147705078,0.0,-0.013676974922418594
338.0,205.0,1.1079,-3.2219,8.9533,-0.042,0.0211,-0.115,-1.8579417667784632,0.0,3.2854671478271484,-1.6371967792510986,-0.0,2.10207462310791,4.966859984188833,0.0,0.2651978135108948,-1.1961200873004358,-0.0,-0.05365699157118797,0.3136346638202667,-0.0,0.005111587233841419,0.9628458619117737,0.0,-0.016326026991009712
338.0,205.0,1.1079,-3.2219,8.9533,-0.042,0.0211,-0.115,-1.857962270776266,0.0,3.2799081802368164,-1.6372572183609009,-0.0,2.051912784576416,4.9668355760867975,0.0,0.2800544202327728,-1.1961362997638147,-0.0,-0.05165151506662369,0.31363871693611145,-0.0,-0.006375354249030352,0.9628901481628418,0.0,-0.06056138128042221
338.0,205.0,1.1079,-3.2219,8.9533,-0.042,0.0211,-0.115,-1.8579098186888636,0.0,3.305276870727539,-1.6372489929199219,-0.0,2.072986364364624,4.9669159827525995,0.0,0.28503549098968506,-1.196120564137594,-0.0,-0.05205231532454491,0.3136310279369354,-0.0,0.015311365015804768,0.9629061222076416,0.0,-0.005790133494883776
338.0,205.0,1.1079,-3.2219,8.9533,-0.042,0.0211,-0.115,-1.8579336605467738,0.0,3.330203056335449,-1.637216329574585,-0.0,2.0962600708007812,4.966887938767233,0.0,0.283286452293396,-1.1961124579059046,-0.0,-0.039156723767519,0.3136626183986664,-0.0,-0.00957875419408083,0.9628779888153076,0.0,0.00736209424212575
338.0,205.0,1.1079,-3.2219,8.9533,-0.042,0.0211,-0.115,-1.8579217396178187,0.0,3.3151750564575195,-1.6372886896133423,-0.0,2.0706470012664795,4.966972070723333,0.0,0.2717013359069824,-1.196087662373678,-0.0,-0.05001743882894516,0.31359896063804626,-0.0,-0.003441369626671076,0.9628738760948181,0.0,-0.006905450019985437
338.0,205.0,1.1079,-3.2219,8.9533,-0.042,0.0211,-0.115,-1.8579822979369105,0.0,3.2742490768432617,-1.6372325420379639,-0.0,2.032083034515381,4.966907697706976,0.0,0.2712159752845764,-1.1960838476764124,-0.0,-0.04704413190484047,0.31365060806274414,-0.0,0.00646861782297492,0.9628738760948181,0.0,-0.03492410108447075
338.0,205.0,1.1079,-3.2219,8.9533,-0.042,0.0211,-0.115,-1.857946058312887,0.0,3.280916690826416,-1.6371805667877197,-0.0,2.0559558868408203,4.9668719349201105,0.0,0.2633926570415497,-1.1961682478534144,-0.0,-0.05230054259300232,0.3136230707168579,-0.0,-0.010772986337542534,0.9628982543945312,0.0,0.007065848913043737
338.0,205.0,1.1079,-3.2219,8.9533,-0.042,0.0211,-0.115,-1.8579417667784632,0.0,3.2979583740234375,-1.6372730731964111,-0.0,2.0251259803771973,4.966863739281454,0.0,0.2776431441307068,-1.1961000601397913,-0.0,-0.06510061025619507,0.3136667311191559,-0.0,-0.006028946489095688,0.9628658294677734,0.0,0.04849129915237427
338.0,205.0,1.1079,-3.2219,8.9533,-0.042,0.0211,-0.115,-1.8579699001707972,0.0,3.295003652572632,-1.6372408866882324,-0.0,2.058077812194824,4.9668920216854,0.0,0.2692306637763977,-1.1961362997638147,-0.0,-0.051042340695858,0.3136546313762665,-0.0,0.014035027474164963,0.9628901481628418,0.0,0.02926924079656601
338.0,205.0,1.1079,-3.2219,8.9533,-0.042,0.0211,-0.115,-1.857962270776266,0.0,3.35270357131958,-1.6372129917144775,-0.0,2.0618462562561035,4.9668640969093225,0.0,0.2802806496620178,-1.1961362997638147,-0.0,-0.052851270884275436,0.3136190176010132,-0.0,-0.003617526264861226,0.9628820419311523,0.0,-0.03139485418796539
338.0,205.0,1.1079,-3.2219,8.9533,-0.042,0.0211,-0.115,-1.8579780064024867,0.0,3.286141872406006,-1.6372572183609009,-0.0,2.074366807937622,4.966903614788809,0.0,0.2749122977256775,-1.1961362997638147,-0.0,-0.04628795012831688,0.31367889046669006,-0.0,-0.004798493813723326,0.9628780484199524,0.0,-0.007509345188736916
338.0,205.0,1.1079,-3.2219,8.9533,-0.042,0.0211,-0.115,-1.8579417667784632,0.0,3.1983723640441895,-1.6372568607330322,-0.0,2.0254170894622803,4.966855931072988,0.0,0.2792278528213501,-1.1961119810687464,-0.0,-0.04494258761405945,0.31365859508514404,-0.0,-0.001984203467145562,0.9628738760948181,0.0,-0.0038227925542742014
338.0,205.0,1.1079,-3.2219,8.9533,-0.042,0.0211,-0.115,-1.8579904041686,0.0,3.2842442989349365,-1.6372768878936768,-0.0,2.051664352416992,4.966887968569555,0.0,0.2688927948474884,-1.1961081663714808,-0.0,-0.045353956520557404,0.31369876861572266,-0.0,-0.008969897404313087,0.9629261493682861,0.0,0.008116018027067184
338.0,205.0,1.1079,-3.2219,8.9533,-0.042,0.0211,-0.115,-1.857974191705221,0.0,3.2797141075134277,-1.6372008323669434,-0.0,2.0657286643981934,4.9668920216854,0.0,0.26752734184265137,-1.1961043516742151,-0.0,-0.047459926456213,0.31363868713378906,-0.0,-0.007546097971498966,0.9628419876098633,0.0,0.03648223727941513
344.0,208.0,1.1151,-3.2106,8.9474,-0.0336,0.025,-0.1167,-1.8579417667784632,0.0,3.2742435932159424,-1.6372408866882324,-0.0,2.091921329498291,4.9668637094791315,0.0,0.27154797315597534,-1.1961362997638147,-0.0,-0.04590708762407303,0.313658744096756,-0.0,0.0029702724423259497,0.9628901481628418,0.0,-0.009756210260093212
344.0,208.0,1.1151,-3.2106,8.9474,-0.0336,0.025,-0.1167,-1.8579699001707972,0.0,3.2794950008392334,-1.6372408866882324,-0.0,2.035325288772583,4.9668719349201105,0.0,0.2814026474952698,-1.1960681120501917,-0.0,-0.05959383398294449,0.3136230707168579,-0.0,-0.005015803035348654,0.9628739356994629,0.0,-0.008229037746787071
344.0,208.0,1.1151,-3.2106,8.9474,-0.0336,0.025,-0.1167,-1.857974191705221,0.0,3.27055287361145,-1.6372770071029663,-0.0,2.0647196769714355,4.9668640969093225,0.0,0.2677055299282074,-1.196075741444723,-0.0,-0.05865401029586792,0.3135746419429779,-0.0,0.006832177750766277,0.9628539085388184,0.0,0.04139498248696327
344.0,208.0,1.1151,-3.2106,8.9474,-0.0336,0.025,-0.1167,-1.8579579792418421,0.0,3.2776198387145996,-1.6372244358062744,-0.0,2.070129871368408,4.966924088984289,0.0,0.27887487411499023,-1.1961043516742151,-0.0,-0.050087325274944305,0.31363847851753235,-0.0,0.005043695215135813,0.9628738760948181,0.0,0.005836823023855686
344.0,208.0,1.1151,-3.2106,8.9474,-0.0336,0.025,-0.1167,-1.8579699001707972,0.0,3.2941980361938477,-1.6372408866882324,-0.0,2.045383930206299,4.966863739281454,0.0,0.2757137417793274,-1.1960795561419886,-0.0,-0.047973986715078354,0.31363868713378906,-0.0,-0.001722534652799368,0.9628658294677734,0.0,-0.042885735630989075
344.0,208.0,1.1151,-3.2106,8.9474,-0.0336,0.025,-0.1167,-1.8579904041686,0.0,3.2354869842529297,-1.637272834777832,-0.0,2.0998716354370117,4.966855931072988,0.0,0.28824418783187866,-1.196160141621725,-0.0,-0.052766427397727966,0.31367871165275574,-0.0,0.0026868786662817,0.9629262089729309,0.0,0.01750814914703369
344.0,208.0,1.1151,-3.2106,8.9474,-0.0336,0.025,-0.1167,-1.8579455814757289,0.0,3.2847611904144287,-1.6372408866882324,-0.0,2.076181650161743,4.966863739281454,0.0,0.28390437364578247,-1.1961000601397913,-0.0,-0.04672066867351532,0.31361904740333557,-0.0,-0.0022981304209679365,0.9629421234130859,0.0,-0.01154867559671402
344.0,208.0,1.1151,-3.2106,8.9474,-0.0336,0.025,-0.1167,-1.8580109081664027,0.0,3.2914819717407227,-1.6372649669647217,-0.0,2.0843870639801025,4.966915952950277,0.0,0.2795619070529938,-1.1961081663714808,-0.0,-0.05463484674692154,0.31367090344429016,-0.0,0.0024844836443662643,0.9628821015357971,0.0,-0.02231326512992382
344.0,208.0,1.1151,-3.2106,8.9474,-0.0336,0.025,-0.1167,-1.8579379520811976,0.0,3.264145851135254,-1.6372284889221191,-0.0,2.0526962280273438,4.96688391545371,0.0,0.2703162431716919,-1.1961281935321253,-0.0,-0.04251713305711746,0.31360310316085815,-0.0,-0.008914993144571781,0.9629020690917969,0.0,0.01238243654370308
344.0,208.0,1.1151,-3.2106,8.9474,-0.0336,0.025,-0.1167,-1.8579699001707972,0.0,3.3028550148010254,-1.637244701385498,-0.0,2.0688605308532715,4.9668679414089105,0.0,0.26411980390548706,-1.1960724035846155,-0.0,-0.05470392853021622,0.313662588596344,-0.0,0.010929113253951073,0.9628940224647522,0.0,-0.01321218628436327
344.0,208.0,1.1151,-3.2106,8.9474,-0.0336,0.025,-0.1167,-1.8579822979369105,0.0,3.290651559829712,-1.6372487545013428,-0.0,2.026029348373413,4.966883945256033,0.0,0.2785736918449402,-1.196087662373678,-0.0,-0.06320678442716599,0.3136346638202667,-0.0,-0.01253510545939207,0.9628901481628418,0.0,-0.016432929784059525
344.0,208.0,1.1151,-3.2106,8.9474,-0.0336,0.025,-0.1167,-1.8579336605467738,0.0,3.2986557483673096,-1.637221097946167,-0.0,2.056663990020752,4.966871905117788,0.0,0.26865944266319275,-1.1960919539081019,-0.0,-0.05212659016251564,0.31366685032844543,-0.0,-0.0013915176969021559,0.9629102349281311,0.0,-0.007772250100970268
344.0,208.0,1.1151,-3.2106,8.9474,-0.0336,0.025,-0.1167,-1.8579822979369105,0.0,3.2570388317108154,-1.6372809410095215,-0.0,2.0689847469329834,4.966851848154821,0.0,0.2826147973537445,-1.1960962454425257,-0.0,-0.061350494623184204,0.3136546313762665,-0.0,-0.003906406927853823,0.9628820419311523,0.0,-0.011281805112957954
344.0,208.0,1.1151,-3.2106,8.9474,-0.0336,0.025,-0.1167,-1.857917924920553,0.0,3.274858236312866,-1.6371923685073853,-0.0,2.0486435890197754,4.966904330044546,0.0,0.27156180143356323,-1.1961081663714808,-0.0,-0.05501507967710495,0.3137107193470001,-0.0,-0.001532653346657753,0.9629220366477966,0.0,0.01749953255057335
344.0,208.0,1.1151,-3.2106,8.9474,-0.0336,0.025,-0.1167,-1.8579536877074183,0.0,3.2906293869018555,-1.6372408866882324,-0.0,2.0729384422302246,4.966903644591131,0.0,0.2614458203315735,-1.1961444059955042,-0.0,-0.03830193728208542,0.3137069046497345,-0.0,-0.003917470574378967,0.9628658294677734,0.0,-0.0014396263286471367
344.0,208.0,1.1151,-3.2106,8.9474,-0.0336,0.025,-0.1167,-1.857974191705221,0.0,3.3005709648132324,-1.6372243165969849,-0.0,2.1202101707458496,4.966883885651388,0.0,0.2763170003890991,-1.1961525122271937,-0.0,-0.0446256548166275,0.313646525144577,-0.0,0.005979274399578571,0.9628738760948181,0.0,0.0017374390736222267
344.0,208.0,1.1151,-3.2106,8.9474,-0.0336,0.025,-0.1167,-1.8579093418517054,0.0,3.281902313232422,-1.6371883153915405,-0.0,2.046926498413086,4.9668719349201105,0.0,0.28538209199905396,-1.1961000601397913,-0.0,-0.05963288992643356,0.31361904740333557,-0.0,0.0018939770525321364,0.9628738760948181,0.0,0.018221722915768623
344.0,208.0,1.1151,-3.2106,8.9474,-0.0336,0.025,-0.1167,-1.8579822979369105,0.0,3.2664084434509277,-1.6372008323669434,-0.0,2.0841705799102783,4.9668719349201105,0.0,0.2808040678501129,-1.1961482206927698,-0.0,-0.054442595690488815,0.31367480754852295,-0.0,-0.003285241313278675,0.9628820419311523,0.0,-0.0004898871993646026
344.0,208.0,1.1151,-3.2106,8.9474,-0.0336,0.025,-0.1167,-1.8579579792418421,0.0,3.2756052017211914,-1.6372487545013428,-0.0,2.078500747680664,4.966911810427465,0.0,0.2715761065483093,-1.1961162726031702,-0.0,-0.041535183787345886,0.31371062994003296,-0.0,-0.006270721089094877,0.9629338979721069,0.0,0.023819467052817345
346.0,214.0,1.1139,-3.192,8.8367,-0.036,0.0264,-0.1174,-1.8579780064024867,0.0,3.306805372238159,-1.6372284889221191,-0.0,2.0578653812408447,4.966847735434332,0.0,0.26916345953941345,-1.1960795561419886,-0.0,-0.04776561260223389,0.31361904740333557,-0.0,0.007844524458050728,0.9628779888153076,0.0,-0.024758074432611465
346.0,214.0,1.1139,-3.192,8.8367,-0.036,0.0264,-0.1174,-1.8579298458495082,0.0,3.3393280506134033,-1.6372888088226318,-0.0,2.0494797229766846,4.966883945256033,0.0,0.2930943965911865,-1.1961362997638147,-0.0,-0.06318487226963043,0.3136071264743805,-0.0,-0.004219348542392254,0.9628901481628418,0.0,-0.011929187923669815
346.0,214.0,1.1139,-3.192,8.8367,-0.036,0.0264,-0.1174,-1.8579417667784632,0.0,3.2982687950134277,-1.637232780456543,-0.0,2.033823013305664,4.966919916659155,0.0,0.2790362536907196,-1.1961000601397913,-0.0,-0.05393536388874054,0.3136466443538666,-0.0,-0.0027386737056076527,0.9628658294677734,0.0,-0.016553618013858795
346.0,214.0,1.1139,-3.192,8.8367,-0.036,0.0264,-0.1174,-1.857974191705221,0.0,3.25846529006958,-1.6372650861740112,-0.0,2.095198631286621,4.966892051487722,0.0,0.25906679034233093,-1.1961043516742151,-0.0,-0.043464288115501404,0.31361106038093567,-0.0,-0.008894635364413261,0.962913990020752,0.0,0.07299815863370895
346.0,214.0,1.1139,-3.192,8.8367,-0.036,0.0264,-0.1174,-1.8579660854735316,0.0,3.2830419540405273,-1.637221097946167,-0.0,2.0471434593200684,4.966879743128576,0.0,0.26793521642684937,-1.1961043516742151,-0.0,-0.051776401698589325,0.31365856528282166,-0.0,0.0032998723909258842,0.9629462361335754,0.0,-0.04430186375975609
346.0,214.0,1.1139,-3.192,8.8367,-0.036,0.0264,-0.1174,-1.8579217396178187,0.0,3.260878086090088,-1.6372243165969849,-0.0,2.059597969055176,4.9669159827525995,0.0,0.28481918573379517,-1.1961801687823694,-0.0,-0.03938385099172592,0.31364262104034424,-0.0,0.006624272093176842,0.962914228439331,0.0,-0.012727148830890656
346.0,214.0,1.1139,-3.192,8.8367,-0.036,0.0264,-0.1174,-1.8579298458495082,0.0,3.276094436645508,-1.6372532844543457,-0.0,2.03933048248291,4.9668640969093225,0.0,0.2775145173072815,-1.1961081663714808,-0.0,-0.04227408021688461,0.3136230707168579,-0.0,-0.003881561802700162,0.9629020690917969,0.0,-0.008343379013240337
346.0,214.0,1.1139,-3.192,8.8367,-0.036,0.0264,-0.1174,-1.8579536877074183,0.0,3.2477316856384277,-1.6372122764587402,-0.0,2.0784335136413574,4.966875988035955,0.0,0.28541645407676697,-1.1961239019977015,-0.0,-0.044649846851825714,0.3136708736419678,-0.0,0.009091188199818134,0.9628942608833313,0.0,-0.00279998779296875
346.0,214.0,1.1139,-3.192,8.8367,-0.036,0.0264,-0.1174,-1.857950349847311,0.0,3.306461811065674,-1.6372212171554565,-0.0,2.066218852996826,4.966903614788809,0.0,0.2760547995567322,-1.1961043516742151,-0.0,-0.06174797937273979,0.31360310316085815,-0.0,-0.0017797141335904598,0.9629182815551758,0.0,0.007184792309999466
346.0,214.0,1.1139,-3.192,8.8367,-0.036,0.0264,-0.1174,-1.8579579792418421,0.0,3.3030176162719727,-1.6372368335723877,-0.0,2.0763773918151855,4.966899651079931,0.0,0.26610323786735535,-1.1961000601397913,-0.0,-0.04897725582122803,0.31359097361564636,-0.0,0.0016735733952373266,0.9629058241844177,0.0,-0.009953615255653858
346.0,214.0,1.1139,-3.192,8.8367,-0.036,0.0264,-0.1174,-1.857974191705221,0.0,3.3249731063842773,-1.6372489929199219,-0.0,2.086928606033325,4.966876017838278,0.0,0.2857992351055145,-1.1961644331561487,-0.0,-0.04072235897183418,0.313702791929245,-0.0,-0.0010764794424176216,0.962914228439331,0.0,0.005489654839038849
346.0,214.0,1.1139,-3.192,8.8367,-0.036,0.0264,-0.1174,-1.8579656086363734,0.0,3.2827444076538086,-1.6372243165969849,-0.0,2.0553834438323975,4.966903614788809,0.0,0.277174174785614,-1.196120564137594,-0.0,-0.061828095465898514,0.31366685032844543,-0.0,-0.012705656699836254,0.9629101753234863,0.0,0.022675814107060432
346.0,214.0,1.1139,-3.192,8.8367,-0.036,0.0264,-0.1174,-1.8579498730101527,0.0,3.301905870437622,-1.637260913848877,-0.0,2.0622124671936035,4.966903614788809,0.0,0.2776769697666168,-1.1960962454425257,-0.0,-0.04933662712574005,0.3136546015739441,-0.0,-0.013158607296645641,0.9628501534461975,0.0,0.024363338947296143
346.0,214.0,1.1139,-3.192,8.8367,-0.036,0.0264,-0.1174,-1.8579946957030238,0.0,3.2447867393493652,-1.6372203826904297,-0.0,2.077402114868164,4.9668719349201105,0.0,0.2804325520992279,-1.1961000601397913,-0.0,-0.047047145664691925,0.3136230707168579,-0.0,-0.009905517101287842,0.9628738760948181,0.0,-0.0017934106290340424
346.0,214.0,1.1139,-3.192,8.8367,-0.036,0.0264,-0.1174,-1.857962270776266,0.0,3.310105800628662,-1.6372203826904297,-0.0,2.0725841522216797,4.96688391545371,0.0,0.2784084379673004,-1.1960600058185022,-0.0,-0.05937954783439636,0.31366249918937683,-0.0,-0.014772467315196991,0.9628461003303528,0.0,-0.04331643506884575
346.0,214.0,1.1139,-3.192,8.8367,-0.036,0.0264,-0.1174,-1.8579417667784632,0.0,3.3232574462890625,-1.6372368335723877,-0.0,2.0600602626800537,4.9668719349201105,0.0,0.28162282705307007,-1.196120564137594,-0.0,-0.04645193740725517,0.31366685032844543,-0.0,0.00789284985512495,0.9628539681434631,0.0,-0.03191054239869118
346.0,214.0,1.1139,-3.192,8.8367,-0.036,0.0264,-0.1174,-1.857974191705221,0.0,3.29892897605896,-1.6372203826904297,-0.0,2.0630874633789062,4.966907727509298,0.0,0.2842314541339874,-1.1961362997638147,-0.0,-0.04815244674682617,0.31364262104034424,-0.0,0.0026933015324175358,0.9629020094871521,0.0,-0.03634168207645416
346.0,214.0,1.1139,-3.192,8.8367,-0.036,0.0264,-0.1174,-1.857974191705221,0.0,3.275790214538574,-1.6372129917144775,-0.0,2.0601468086242676,4.966919946461477,0.0,0.2678394615650177,-1.1961281935321253,-0.0,-0.04124855250120163,0.313646525144577,-0.0,-0.004808107856661081,0.9628980755805969,0.0,0.00460274750366807
349.0,209.0,1.4441,-2.8044,8.6895,-0.038,-0.0006,-0.1158,-1.857962270776266,0.0,3.321901798248291,-1.637221097946167,-0.0,2.096137762069702,4.966863798886099,0.0,0.2824600636959076,-1.196087662373678,-0.0,-0.05195341631770134,0.3136305809020996,-0.0,0.0004624258726835251,0.9629061222076416,0.0,-0.015417146496474743
349.0,209.0,1.4441,-2.8044,8.6895,-0.038,-0.0006,-0.1158,-1.8579217396178187,0.0,3.266422748565674,-1.6371965408325195,-0.0,2.0692391395568848,4.966895448952474,0.0,0.27237480878829956,-1.1961243788348597,-0.0,-0.047049928456544876,0.31363847851753235,-0.0,-0.0032239900901913643,0.9629060626029968,0.0,0.0029640262946486473
349.0,209.0,1.4441,-2.8044,8.6895,-0.038,-0.0006,-0.1158,-1.8579946957030238,0.0,3.2943267822265625,-1.637204647064209,-0.0,2.0868327617645264,4.966900276928701,0.0,0.28694307804107666,-1.1961525122271937,-0.0,-0.048857178539037704,0.31364649534225464,-0.0,0.006440135650336742,0.9628980755805969,0.0,-0.00021495064720511436
349.0,209.0,1.4441,-2.8044,8.6895,-0.038,-0.0006,-0.1158,-1.8579985104002894,0.0,3.315518856048584,-1.6371644735336304,-0.0,2.029012680053711,4.966896134405889,0.0,0.2815290689468384,-1.1960838476764124,-0.0,-0.06070155277848244,0.313630610704422,-0.0,-0.0027460826095193624,0.9628461003303528,0.0,0.019667163491249084
349.0,209.0,1.4441,-2.8044,8.6895,-0.038,-0.0006,-0.1158,-1.8579336605467738,0.0,3.285923480987549,-1.6372129917144775,-0.0,2.0604448318481445,4.966875690012731,0.0,0.27600422501564026,-1.1961243788348597,-0.0,-0.06046818196773529,0.3137027621269226,-0.0,-0.008078953251242638,0.9629020690917969,0.0,-0.01945747621357441
349.0,209.0,1.4441,-2.8044,8.6895,-0.038,-0.0006,-0.1158,-1.8579904041686,0.0,3.278865098953247,-1.6372406482696533,-0.0,2.087285280227661,4.966940003424444,0.0,0.27771803736686707,-1.196120564137594,-0.0,-0.047939665615558624,0.31368276476860046,-0.0,0.001366443233564496,0.9628942012786865,0.0,0.008792998269200325
349.0,209.0,1.4441,-2.8044,8.6895,-0.038,-0.0006,-0.1158,-1.857946058312887,0.0,3.316484212875366,-1.6372531652450562,-0.0,2.013953447341919,4.966875660210409,0.0,0.2767655849456787,-1.1961525122271937,-0.0,-0.0521373525261879,0.31366685032844543,-0.0,0.001562519813887775,0.9629060626029968,0.0,0.015706246718764305
349.0,209.0,1.4441,-2.8044,8.6895,-0.038,-0.0006,-0.1158,-1.8579660854735316,0.0,3.27785587310791,-1.637156367301941,-0.0,2.036405563354492,4.9668920216854,0.0,0.2810462713241577,-1.1961444059955042,-0.0,-0.05103514343500137,0.3136868178844452,-0.0,-0.01150303054600954,0.9629140496253967,0.0,-0.03899836540222168
349.0,209.0,1.4441,-2.8044,8.6895,-0.038,-0.0006,-0.1158,-1.8579780064024867,0.0,3.3154397010803223,-1.6372650861740112,-0.0,2.0737686157226562,4.966899621277609,0.0,0.27059370279312134,-1.1960795561419886,-0.0,-0.049512360244989395,0.31367871165275574,-0.0,-0.006405132357031107,0.962909996509552,0.0,-0.00698600010946393
349.0,209.0,1.4441,-2.8044,8.6895,-0.038,-0.0006,-0.1158,-1.8579098186888636,0.0,3.285862445831299,-1.6372408866882324,-0.0,2.0312864780426025,4.966887938767233,0.0,0.27657854557037354,-1.1961043516742151,-0.0,-0.04655483737587929,0.3137146234512329,-0.0,0.010549294762313366,0.9629179835319519,0.0,-0.045419637113809586
349.0,209.0,1.4441,-2.8044,8.6895,-0.038,-0.0006,-0.1158,-1.8579660854735316,0.0,3.2667250633239746,-1.6372170448303223,-0.0,2.0965795516967773,4.966823655157842,0.0,0.27716049551963806,-1.1961362997638147,-0.0,-0.04782361909747124,0.31363868713378906,-0.0,-0.009784761816263199,0.9628901481628418,0.0,-0.043424759060144424
349.0,209.0,1.4441,-2.8044,8.6895,-0.038,-0.0006,-0.1158,-1.857946058312887,0.0,3.3195858001708984,-1.6371965408325195,-0.0,2.061829090118408,4.966871905117788,0.0,0.2889134883880615,-1.1960795561419886,-0.0,-0.05073580890893936,0.31368279457092285,-0.0,0.004691124893724918,0.9628658294677734,0.0,0.015769368037581444
349.0,209.0,1.4441,-2.8044,8.6895,-0.038,-0.0006,-0.1158,-1.8579989872374476,0.0,3.251481533050537,-1.6372450590133667,-0.0,2.0783746242523193,4.966899621277609,0.0,0.27709197998046875,-1.1961324850665491,-0.0,-0.055015578866004944,0.31358686089515686,-0.0,-0.0052533335983753204,0.9628780484199524,0.0,-0.007239311467856169
349.0,209.0,1.4441,-2.8044,8.6895,-0.038,-0.0006,-0.1158,-1.8579498730101527,0.0,3.2851204872131348,-1.6372531652450562,-0.0,2.078218936920166,4.9668719349201105,0.0,0.2798805832862854,-1.1961043516742151,-0.0,-0.059678900986909866,0.313646525144577,-0.0,0.008468233048915863,0.9629220366477966,0.0,0.0002630883827805519
349.0,209.0,1.4441,-2.8044,8.6895,-0.038,-0.0006,-0.1158,-1.8579174480833949,0.0,3.291719913482666,-1.6372531652450562,-0.0,2.0643129348754883,4.96688391545371,0.0,0.2828454375267029,-1.196188751851217,-0.0,-0.05236746370792389,0.31369465589523315,-0.0,-0.007930299267172813,0.9629261493682861,0.0,-0.015478227287530899
349.0,209.0,1.4441,-2.8044,8.6895,-0.038,-0.0006,-0.1158,-1.8579660854735316,0.0,3.2923617362976074,-1.6372406482696533,0.00010702927102101967,2.0861284732818604,4.966900247126379,0.0,0.2863297462463379,-1.1961725393878382,-0.0,-0.04228835552930832,0.3136346936225891,-0.0,0.0017111171036958694,0.962913990020752,0.0,0.03152652829885483
349.0,209.0,1.4441,-2.8044,8.6895,-0.038,-0.0006,-0.1158,-1.8579422436156214,0.0,3.3088245391845703,-1.6371886730194092,0.0001580381504027173,2.0388150215148926,4.966919946461477,0.0,0.28661489486694336,-1.1961043516742151,-0.0,-0.04634225741028786,0.313662588596344,-0.0,0.0034629313740879297,0.9629179835319519,-1.6292169835452341e-09,0.026147859171032906
349.0,209.0,1.4441,-2.8044,8.6895,-0.038,-0.0006,-0.1158,-1.8579703770079554,0.0,3.3123269081115723,-1.6372294425964355,0.0010846566874533892,2.0680394172668457,4.966875719815054,0.0,0.2913161516189575,-1.1961243788348597,-0.0,-0.04052247107028961,0.31365060806274414,-0.0,8.460425306111574e-05,0.9629536867141724,0.000650514499284327,-0.0024938604328781366
349.0,209.0,1.4441,-2.8044,8.6895,-0.038,-0.0006,-0.1158,-1.8579541645445765,0.0,3.3470587730407715,-1.637144684791565,0.0009782746201381087,2.0954926013946533,4.966879743128576,0.0,0.26766785979270935,-1.196087662373678,-0.0,-0.039580088108778,0.3136546015739441,-0.0,0.003227439010515809,0.9629178643226624,0.0010997062781825662,0.022863388061523438
337.0,209.0,0.9176,-2.5645,9.39,-0.0686,0.0612,-0.14,-1.8579579792418421,0.0,3.267634868621826,-1.6371488571166992,0.0015035785036161542,2.069960594177246,4.966899621277609,0.0,0.2758108973503113,-1.196120564137594,-0.0,-0.05461179465055466,0.3136346936225891,-0.0,-0.004433306399732828,0.9629693627357483,0.002237848471850157,-0.032296180725097656
337.0,209.0,0.9176,-2.5645,9.39,-0.0686,0.0612,-0.14,-1.8579379520811976,0.0,3.2972612380981445,-1.6371445655822754,0.0024759143125265837,2.0565590858459473,4.9668840048606775,0.0,0.2812740206718445,-1.1961324850665491,-0.0,-0.050192300230264664,0.3136346936225891,-0.0,0.003920557908713818,0.962993860244751,0.0033420829568058252,-0.015982579439878464
337.0,209.0,0.9176,-2.5645,9.39,-0.0686,0.0612,-0.14,-1.8580147228636683,4.6501470933435485e-05,3.295746326446533,-1.6370927095413208,0.005608927924185991,2.0881690979003906,4.966924029379644,0.0,0.2791319489479065,-1.1961043516742151,-0.0,-0.03714454174041748,0.3136627674102783,-0.0,0.0018162456108257174,0.9630535840988159,0.005084777716547251,-0.0010712901130318642
337.0,209.0,0.9176,-2.5645,9.39,-0.0686,0.0612,-0.14,-1.8579985104002894,2.406241961239175e-08,3.2954611778259277,-1.6370688676834106,0.008776294998824596,2.030242443084717,4.966931926995077,0.0,0.27848246693611145,-1.1960795561419886,-0.0,-0.03985965996980667,0.31365057826042175,-0.0,0.004663233645260334,0.9630864262580872,0.006134626921266317,-0.05349463224411011
337.0,209.0,0.9176,-2.5645,9.39,-0.0686,0.0612,-0.14,-1.8580180607237757,5.81079103020507e-14,3.304943561553955,-1.6370007991790771,0.01165047474205494,2.0734922885894775,4.966883945256033,0.0,0.27957096695899963,-1.1961000601397913,-0.0,-0.045392975211143494,0.3136230707168579,-0.0,-0.012896892614662647,0.9630737900733948,0.00657481187954545,0.012658427469432354
337.0,209.0,0.9176,-2.5645,9.39,-0.0686,0.0612,-0.14,-1.8580299816527308,-0.0011409481521695852,3.258453845977783,-1.6369726657867432,0.012911973521113396,2.09097957611084,4.966860013991155,0.0,0.2851179838180542,-1.196103874837057,-0.0,-0.048380203545093536,0.31365060806274414,-0.0,-0.012141583487391472,0.963133692741394,0.006204330828040838,0.017307311296463013
337.0,209.0,0.9176,-2.5645,9.39,-0.0686,0.0612,-0.14,-1.8580829105772914,-0.0008158130804076791,3.2441771030426025,-1.6368887424468994,0.01322283037006855,2.08355975151062,4.9668277380760095,0.0,0.2797784209251404,-1.1961362997638147,-0.0,-0.07148422300815582,0.3136708438396454,-0.0,0.0008619579020887613,0.9631536602973938,0.004727644380182028,0.01384594477713108
337.0,209.0,0.9176,-2.5645,9.39,-0.0686,0.0612,-0.14,-1.858037611047262,-0.0006478962022811174,3.279085874557495,-1.6368201971054077,0.011788262985646725,2.0819382667541504,4.966876017838278,0.0,0.26814955472946167,-1.1961324850665491,-0.0,-0.04124206304550171,0.3136465847492218,-0.0,0.0032702733296900988,0.9631813764572144,0.0032727904617786407,-0.001837773248553276
337.0,209.0,0.9176,-2.5645,9.39,-0.0686,0.0612,-0.14,-1.8580180607237757,-0.0005373279564082623,3.2758071422576904,-1.6368045806884766,0.010416304692626,2.0808331966400146,4.966860013991155,0.0,0.2865307033061981,-1.1961281935321253,-0.0,-0.06475844979286194,0.31363868713378906,-0.0,0.007704657502472401,0.9631330966949463,0.001604774035513401,0.007187664043158293
337.0,209.0,0.9176,-2.5645,9.39,-0.0686,0.0612,-0.14,-1.857974191705221,-0.00015558538143523037,3.265986919403076,-1.6367524862289429,0.010209396481513977,2.0925331115722656,4.9669240591819666,0.0,0.27497151494026184,-1.1961525122271937,-0.0,-0.05241529643535614,0.3136190176010132,-0.0,0.008693001233041286,0.9631532430648804,0.00046665719128213823,0.06289098411798477
337.0,209.0,0.9176,-2.5645,9.39,-0.0686,0.0612,-0.14,-1.858042379418844,-8.864817209541798e-05,3.3185343742370605,-1.636636734008789,0.011190423741936684,2.070314645767212,4.9668920216854,0.0,0.293803870677948,-1.1961119810687464,-0.0,-0.056226469576358795,0.313662588596344,-0.0,0.0006845388561487198,0.9631217122077942,-0.00045306861284188926,0.04078420624136925
337.0,209.0,0.9176,-2.5645,9.39,-0.0686,0.0612,-0.14,-1.8579861126341761,-5.398307621362619e-05,3.2781684398651123,-1.6366045475006104,0.013813319616019726,2.0438547134399414,4.966879772930898,0.0,0.2616678476333618,-1.1961162726031702,-0.0,-0.05395815521478653,0.31365853548049927,-0.0,0.019005240872502327,0.9630576372146606,-0.0013907287502661347,0.02313373051583767
337.0,209.0,0.9176,-2.5645,9.39,-0.0686,0.0612,-0.14,-1.8580461941161097,-7.97750981291756e-05,3.283346176147461,-1.636556625366211,0.014705857262015343,2.066713809967041,4.966935950308599,0.0,0.2727991044521332,-1.1961525122271937,-0.0,-0.055050142109394073,0.3136867880821228,-0.0,-0.017917431890964508,0.9630696773529053,-0.003227008506655693,-0.03892490640282631
337.0,209.0,0.9176,-2.5645,9.39,-0.0686,0.0612,-0.14,-1.8580662212767542,-0.0001239976118085906,3.319291591644287,-1.6364690065383911,0.014998688362538815,2.089571237564087,4.966851907759466,0.0,0.2881822884082794,-1.1961362997638147,-0.0,-0.033001381903886795,0.31367871165275574,-0.0,-0.011620775796473026,0.963045597076416,-0.0035854876041412354,0.018905311822891235
337.0,209.0,0.9176,-2.5645,9.39,-0.0686,0.0612,-0.14,-1.8580862484373988,-0.00014158936392050236,3.2847931385040283,-1.63638436794281,0.014489223249256611,2.128690004348755,4.966900276928701,0.0,0.27350592613220215,-1.1960838476764124,-0.0,-0.03792706876993179,0.31359511613845825,-0.0,-0.005227724090218544,0.9630581736564636,-0.003081281902268529,-0.03485885262489319
337.0,209.0,0.9176,-2.5645,9.39,-0.0686,0.0612,-0.14,-1.8580943546690882,-0.0009848295012488961,3.270671844482422,-1.63631272315979,0.01397466380149126,2.0698044300079346,4.966839569597997,0.0,0.2842905521392822,-1.196120564137594,-0.0,-0.04652900993824005,0.3136585056781769,-0.0,-0.006423190701752901,0.9630217552185059,-0.0025321501307189465,0.06011218577623367
337.0,209.0,0.9176,-2.5645,9.39,-0.0686,0.0612,-0.14,-1.858081956902975,-0.0013987142592668533,3.3033623695373535,-1.6362805366516113,0.01329680997878313,2.086461305618286,4.966863828688421,0.0,0.2853584885597229,-1.1961043516742151,-0.0,-0.04488096013665199,0.31369471549987793,-0.0,0.008111687377095222,0.9629817605018616,-0.0020916566718369722,-0.03373091295361519
337.0,209.0,0.9176,-2.5645,9.39,-0.0686,0.0612,-0.14,-1.8580976925291957,-0.002271052449941635,3.2762060165405273,-1.636181116104126,0.012364955618977547,2.1190345287323,4.966880070954122,0.0,0.2795732021331787,-1.1961362997638147,-0.0,-0.06336654722690582,0.3136867880821228,-0.0,0.004028105642646551,0.9629777073860168,-0.0017816751496866345,-0.015020768158137798
326.0,208.0,0.585,-3.2255,8.869,-0.0163,0.0945,-0.1272,-1.8581181965269984,-0.0028236431535333395,3.303163528442383,-1.6361571550369263,0.011424957774579525,2.1088180541992188,4.966872381954946,0.0,0.28397223353385925,-1.1961362997638147,-0.0,-0.054730020463466644,0.31360718607902527,-0.0,-0.008881058543920517,0.9629976749420166,-0.0015213432488963008,-0.0011860812082886696
326.0,208.0,0.585,-3.2255,8.869,-0.0163,0.0945,-0.1272,-1.8581258259215296,-0.002245123963803053,3.281853199005127,-1.6360249519348145,0.011415176093578339,2.0522427558898926,4.966819959669866,-0.0003651498118415475,0.28191328048706055,-1.1961324850665491,-0.0,-0.05163441598415375,0.31369462609291077,-0.0,0.006703655701130629,0.9629855155944824,-0.001104043680243194,-0.0014161873841658235
326.0,208.0,0.585,-3.2255,8.869,-0.0163,0.0945,-0.1272,-1.8581177196898402,-0.0016049151308834553,3.3209736347198486,-1.6359964609146118,0.01215043943375349,2.1154794692993164,4.966864067107,-0.00036874139914289117,0.27235281467437744,-1.1961000601397913,-0.0,-0.049197081476449966,0.313615083694458,-0.0,0.002634438220411539,0.9629417061805725,-0.0009239643695764244,-0.005278618074953556
326.0,208.0,0.585,-3.2255,8.869,-0.0163,0.0945,-0.1272,-1.858105798760885,-0.0010402289917692542,3.3208346366882324,-1.6359087228775024,0.01339931320399046,2.1022443771362305,4.966831761389532,-0.0003721286775544286,0.27044910192489624,-1.1961682478534144,-0.0,-0.05691830441355705,0.313646525144577,-0.0,0.00258394842967391,0.9629495739936829,-0.0006745537393726408,-0.02831859327852726
326.0,208.0,0.585,-3.2255,8.869,-0.0163,0.0945,-0.1272,-1.8581458530821742,-0.0007060428615659475,3.3162660598754883,-1.6358686685562134,0.014559850096702576,2.069434642791748,4.9668359635169885,-0.0006158971809782088,0.27444779872894287,-1.1961362997638147,-0.0,-0.04947248846292496,0.31363049149513245,-0.0,-0.003629207843914628,0.9629735946655273,-0.0005056209047324955,-0.04510079696774483
326.0,208.0,0.585,-3.2255,8.869,-0.0163,0.0945,-0.1272,-1.8581582508482875,-0.0005766937974840403,3.3334126472473145,-1.6357566118240356,0.015760131180286407,2.1066858768463135,4.966820347100057,-0.0006255979533307254,0.2834782600402832,-1.196108643208639,-0.0,-0.04174582287669182,0.313615083694458,-0.0,0.0007863813079893589,0.963005781173706,-0.00042930373456329107,-0.04797795042395592
326.0,208.0,0.585,-3.2255,8.869,-0.0163,0.0945,-0.1272,-1.8581258259215296,-0.0004524147370830178,3.3006672859191895,-1.6357169151306152,0.018322300165891647,2.0635263919830322,4.96682437041358,-0.0007720790454186499,0.28202468156814575,-1.1961405912982386,-0.0,-0.04926969110965729,0.3136708438396454,-0.0,-0.001003361539915204,0.9629695415496826,-0.00012010767386527732,-0.0056505994871258736
326.0,208.0,0.585,-3.2255,8.869,-0.0163,0.0945,-0.1272,-1.8581420383849085,-0.0003955862484872341,3.3127832412719727,-1.6355841159820557,0.019009970128536224,2.096080780029297,4.9668642459209345,-0.000751988438423723,0.28242456912994385,-1.1960714499102991,-0.0,-0.05761399865150452,0.31367868185043335,-0.0,0.00026086042635142803,0.962965190410614,-7.107223063940182e-05,-0.024270465597510338
326.0,208.0,0.585,-3.2255,8.869,-0.0163,0.0945,-0.1272,-1.8581420383849085,-0.0003328726743347943,3.263831615447998,-1.635472059249878,0.02014368586242199,2.1410155296325684,4.9668560204799554,-0.000633848540019244,0.26831644773483276,-1.1961358229266565,-0.0,-0.048822708427906036,0.3136867880821228,-0.0,-0.009438075125217438,0.9630136489868164,-4.4916330807609484e-05,-0.026555366814136505
326.0,208.0,0.585,-3.2255,8.869,-0.0163,0.0945,-0.1272,-1.8581582508482875,-0.00030105537734925747,3.278079032897949,-1.6354331970214844,0.02165430225431919,2.0780091285705566,4.966799843102255,-0.0004975478514097631,0.2867580056190491,-1.196132008229391,-0.0,-0.05397748947143555,0.31365078687667847,-0.0,-0.006486640311777592,0.9630216956138611,-4.083952444489114e-05,0.0024735694751143456
326.0,208.0,0.585,-3.2255,8.869,-0.0163,0.0945,-0.1272,-1.8580976925291957,-8.117881225189194e-05,3.297710657119751,-1.6352406740188599,0.02287338674068451,2.1319355964660645,4.966824012785711,-0.00037350563798099756,0.2857050895690918,-1.1961239019977015,-0.0,-0.053804054856300354,0.31364256143569946,-0.0,-0.011612692847847939,0.963005781173706,-3.594582449295558e-05,0.009413042105734348
326.0,208.0,0.585,-3.2255,8.869,-0.0163,0.0945,-0.1272,-1.8580738506712855,-7.445158553309739e-05,3.276731014251709,-1.63516104221344,0.022371064871549606,2.0796990394592285,4.966783869057455,-0.0003673752071335912,0.26557374000549316,-1.1961281935321253,-0.0,-0.04530482739210129,0.3136788010597229,-0.0,0.005393885541707277,0.9629857540130615,-3.3286767575191334e-05,-0.012469463050365448
326.0,208.0,0.585,-3.2255,8.869,-0.0163,0.0945,-0.1272,-1.85809387783193,-6.623262743232772e-05,3.343271255493164,-1.6350854635238647,0.02217704989016056,2.1430718898773193,4.966844457178869,-0.0003166841925121844,0.2843450903892517,-1.196103874837057,-0.0,-0.060861602425575256,0.31365060806274414,-0.0,0.0019729051273316145,0.9629777669906616,-2.9962191547383554e-05,-0.021869279444217682
326.0,208.0,0.585,-3.2255,8.869,-0.0163,0.0945,-0.1272,-1.8581019840636195,-6.169242260511965e-05,3.2998156547546387,-1.63495671749115,0.02161889337003231,2.10880446434021,4.966816174774923,-0.0002834316692315042,0.27323615550994873,-1.1961281935321253,-0.0,-0.06811048090457916,0.31368276476860046,-0.0,-0.007449332159012556,0.9629614949226379,-2.8091701096855104e-05,0.020864829421043396
326.0,208.0,0.585,-3.2255,8.869,-0.0163,0.0945,-0.1272,-1.8581181965269984,-5.5940392485354096e-05,3.2917065620422363,-1.634873628616333,0.01907285861670971,2.06903076171875,4.966832208424368,-0.00027500258875079453,0.2852078676223755,-1.1961239019977015,-0.0,-0.05871753394603729,0.3136585056781769,-0.0,-0.005176766309887171,0.9629775881767273,-2.5686435037641786e-05,-0.043956875801086426
326.0,208.0,0.585,-3.2255,8.869,-0.0163,0.0945,-0.1272,-1.8581181965269984,-5.2666760893771425e-05,3.2964863777160645,-1.6347649097442627,0.01738937571644783,2.1605279445648193,4.966816174774923,-0.00028017250588163733,0.285121887922287,-1.1961081663714808,-0.0,-0.041222475469112396,0.31363850831985474,-0.0,0.0011750166304409504,0.9629976749420166,-2.4299395590787753e-05,-0.04344487562775612
326.0,208.0,0.585,-3.2255,8.869,-0.0163,0.0945,-0.1272,-1.8581420383849085,-4.841679401579313e-05,3.289397716522217,-1.6346572637557983,0.013438847847282887,2.1102592945098877,4.9667957601840875,-0.0002558660926297307,0.2737411856651306,-1.1961324850665491,-0.0,-0.053343515843153,0.3136747479438782,-0.0,-0.006468280218541622,0.9629936814308167,-2.2478650862467475e-05,-0.023435739800333977
326.0,208.0,0.585,-3.2255,8.869,-0.0163,0.0945,-0.1272,-1.85809387783193,-4.59450893686153e-05,3.283529281616211,-1.6346487998962402,0.011293873190879822,2.121314287185669,4.966719466238775,-0.0007380224415101111,0.2859633266925812,-1.1961482206927698,-0.0,-0.04507533833384514,0.31364259123802185,-0.0,0.0029303645715117455,0.9630016684532166,-2.1409214241430163e-05,-0.007336497772485018
326.0,208.0,0.585,-3.2255,8.869,-0.0163,0.0945,-0.1272,-1.8581539593138636,-4.3713498598663136e-05,3.302487850189209,-1.6345841884613037,0.008640208281576633,2.0294077396392822,4.9667519805725,-0.002226546173915267,0.27820274233818054,-1.196160141621725,-0.0,-0.04817014932632446,0.313670814037323,-0.0,-0.008671313524246216,0.9629895687103271,-4.086254193680361e-05,-0.008951769210398197
312.0,201.0,0.8381,-2.942,8.9091,-0.0009,-0.0307,-0.1445,-1.8580895862975062,-4.074500611750409e-05,3.2559731006622314,-1.6346133947372437,0.004663732834160328,2.105543851852417,4.966707783728399,-0.004417835269123316,0.2549881935119629,-1.1960919539081019,-0.0,-0.06250925362110138,0.31361907720565796,-0.0,-0.0031932229176163673,0.9629857540130615,-3.826697502518073e-05,-0.018633253872394562
312.0,201.0,0.8381,-2.942,8.9091,-0.0009,-0.0307,-0.1445,-1.8581096134581507,-3.8980266253929585e-05,3.311065435409546,-1.6345772743225098,0.003171591553837061,2.068887233734131,4.966660100012579,-0.006168967578560114,0.2596765458583832,-1.1961000601397913,-0.0,-0.05452694743871689,0.31366270780563354,-0.0,-0.015753213316202164,0.9630298614501953,-3.670627120300196e-05,-0.04821795970201492
312.0,201.0,0.8381,-2.942,8.9091,-0.0009,-0.0307,-0.1445,-1.8581215343871058,-5.490336116054095e-05,3.280186891555786,-1.6344929933547974,0.0011921465629711747,2.0621230602264404,4.966596531658926,-0.012936132028698921,0.26706016063690186,-1.1961281935321253,-0.0,-0.051509857177734375,0.31364676356315613,-0.0,0.004244253039360046,0.9629614353179932,-3.459013532847166e-05,0.0042931027710437775
312.0,201.0,0.8381,-2.942,8.9091,-0.0009,-0.0307,-0.1445,-1.8581458530821742,-5.2757855883101e-05,3.3166956901550293,-1.6345932483673096,0.00048677276936359704,2.042736530303955,4.96655689457015,-0.01568860374391079,0.25700002908706665,-1.1961081663714808,-0.0,-0.04965509474277496,0.31365060806274414,-0.0,0.0014431076124310493,0.963025689125061,-1.6658073946018703e-05,-0.0014682095497846603
312.0,201.0,0.8381,-2.942,8.9091,-0.0009,-0.0307,-0.1445,-1.8581296406187953,-6.076882709749043e-05,3.2799041271209717,-1.6346251964569092,0.00030734247411601245,2.0434141159057617,4.966440784722128,-0.01483986433595419,0.27402645349502563,-1.1961281935321253,-0.0,-0.05942908674478531,0.3136031925678253,-0.0,0.003187051508575678,0.9629855751991272,-2.5182652407806927e-08,-0.06657450646162033
312.0,201.0,0.8381,-2.942,8.9091,-0.0009,-0.0307,-0.1445,-1.8581458530821742,-5.457208681036718e-05,3.2925853729248047,-1.6345411539077759,0.00025032213306985795,2.061619520187378,4.966405081539907,-0.013484232127666473,0.27428191900253296,-1.1961763540851038,-0.0,-0.04057925194501877,0.31364259123802185,-0.0,-0.0025567554403096437,0.9630218148231506,-4.5327886409596285e-12,-0.023213809356093407
312.0,201.0,0.8381,-2.942,8.9091,-0.0009,-0.0307,-0.1445,-1.8581940136351527,-0.0013854438439011574,3.268536329269409,-1.6346051692962646,-0.0001409330579917878,2.050189971923828,4.966301429062643,-0.01080336794257164,0.2630104124546051,-1.1961162726031702,-0.0,-0.046163927763700485,0.3135870099067688,-0.0,-0.0037181777879595757,0.9630336761474609,-1.094615052908567e-17,0.006742420606315136
312.0,201.0,0.8381,-2.942,8.9091,-0.0009,-0.0307,-0.1445,-1.8581615887083949,-0.002990435343235731,3.276763439178467,-1.634581446647644,-0.00019636840443126857,2.10440731048584,4.966209250479498,-0.009679940529167652,0.27230513095855713,-1.1961482206927698,-0.0,-0.05315571278333664,0.31372639536857605,-0.0,-0.0020711927209049463,0.963029682636261,0.001064405543729663,0.005632428452372551
312.0,201.0,0.8381,-2.942,8.9091,-0.0009,-0.0307,-0.1445,-1.8582459888853968,-0.007031754590570927,3.29317307472229,-1.634556770324707,-0.00021737422503065318,2.101059913635254,4.966206002026357,-0.010064548812806606,0.2588445544242859,-1.1961644331561487,-0.0,-0.04187147319316864,0.313694566488266,-0.0,0.00406868290156126,0.9630535840988159,0.0008930632029660046,0.0019314347300678492
312.0,201.0,0.8381,-2.942,8.9091,-0.0009,-0.0307,-0.1445,-1.858286043206686,-0.009050270542502403,3.2624309062957764,-1.6345813274383545,-0.00019397478899918497,2.044506788253784,4.966121899872579,-0.009461955167353153,0.26605725288391113,-1.196103874837057,-0.0,-0.0556638278067112,0.3136231005191803,-0.0,-0.01109226793050766,0.9630576968193054,0.0006641370127908885,-0.029462195932865143
312.0,201.0,0.8381,-2.942,8.9091,-0.0009,-0.0307,-0.1445,-1.8583737812437953,-0.011839092709124088,3.2393555641174316,-1.6345970630645752,-0.0001669804914854467,2.099121332168579,4.966021942883291,-0.011227780021727085,0.26813048124313354,-1.196103874837057,-0.0,-0.05751799792051315,0.3136546015739441,-0.0,0.004498681984841824,0.963013768196106,0.000642739178147167,0.0421050526201725
312.0,201.0,0.8381,-2.942,8.9091,-0.0009,-0.0307,-0.1445,-1.8584019146361292,-0.011629652231931686,3.2724528312683105,-1.63460111618042,-0.00019094167510047555,2.0793302059173584,4.965974527388372,-0.014061986468732357,0.28321194648742676,-1.1961444059955042,-0.0,-0.05016927421092987,0.313599169254303,-0.0,0.005509589798748493,0.9630777835845947,0.0007483520312234759,-0.04706665128469467
312.0,201.0,0.8381,-2.942,8.9091,-0.0009,-0.0307,-0.1445,-1.8585220775999964,-0.01287720538675785,3.220818042755127,-1.6345525979995728,-0.0004039729246869683,2.085918664932251,4.965866106539526,-0.018026571720838547,0.2744714319705963,-1.1960962454425257,-0.0,-0.05844955891370773,0.3136346936225891,-0.0,-0.0021162359043955803,0.9630534052848816,0.000789909390732646,-0.010846005752682686
312.0,201.0,0.8381,-2.942,8.9091,-0.0009,-0.0307,-0.1445,-1.858565469781393,-0.016618259251117706,3.244964599609375,-1.634613037109375,-0.0010422925697639585,2.052438735961914,4.965738314181127,-0.02479698695242405,0.25525185465812683,-1.196120564137594,-0.0,-0.04300113022327423,0.3136465549468994,-0.0,0.012282581999897957,0.9630416035652161,0.0008070071926340461,0.029825065284967422
312.0,201.0,0.8381,-2.942,8.9091,-0.0009,-0.0307,-0.1445,-1.858701845208639,-0.019994700327515602,3.2651448249816895,-1.6347054243087769,-0.0009180105407722294,2.0805537700653076,4.965578424721517,-0.02862468548119068,0.2796543836593628,-1.1960919539081019,-0.0,-0.041408978402614594,0.31365880370140076,-0.0,-0.00800473801791668,0.9630494117736816,0.000823116977699101,-0.030472371727228165
312.0,201.0,0.8381,-2.942,8.9091,-0.0009,-0.0307,-0.1445,-1.8588220081725062,-0.02382303774356842,3.2780394554138184,-1.6346291303634644,-0.0007302517187781632,2.108029365539551,4.965419459133901,-0.034017615020275116,0.2726050615310669,-1.1961281935321253,-0.0,-0.05119369924068451,0.3136585056781769,-0.0,0.005895496346056461,0.9630737900733948,0.0006842957227490842,0.013658441603183746
312.0,201.0,0.8381,-2.942,8.9091,-0.0009,-0.0307,-0.1445,-1.8589583835997523,-0.027232637628912926,3.2113726139068604,-1.634633183479309,-0.0005313168512657285,2.090630531311035,4.965267675905981,-0.034043651074171066,0.25677311420440674,-1.1961119810687464,-0.0,-0.04988354817032814,0.3136627674102783,-0.0,-0.007408743724226952,0.9630817770957947,0.0005750741111114621,-0.004913637414574623
312.0,201.0,0.8381,-2.942,8.9091,-0.0009,-0.0307,-0.1445,-1.859121938745016,-0.032822806388139725,3.1894798278808594,-1.63462495803833,-0.00042426036088727415,2.07313871383667,4.965059894114294,-0.03126894310116768,0.2712659537792206,-1.1960962454425257,-0.0,-0.0588512048125267,0.3136867582798004,-0.0,-0.005191007629036903,0.9630575180053711,0.00046389075578190386,0.005459860432893038
362.0,204.0,1.2921,-2.7547,9.1376,0.0215,-0.1151,-0.1926,-1.859269758264059,-0.03480307757854462,3.21342134475708,-1.634613037109375,-7.66819721320644e-05,2.088106870651245,4.964956658869543,-0.03067406639456749,0.2671356797218323,-1.1961281935321253,-0.0,-0.059946443885564804,0.31362661719322205,-0.0,-0.0039944895543158054,0.9630374908447266,0.000410930544603616,0.02953363209962845
362.0,204.0,1.2921,-2.7547,9.1376,0.0215,-0.1151,-0.1926,-1.8594333134093226,-0.04061907157301903,3.1608309745788574,-1.634613037109375,-3.983924301564912e-09,2.0732860565185547,4.96477301695899,-0.02552354708313942,0.2641359269618988,-1.1961043516742151,-0.0,-0.044617824256420135,0.3136306703090668,-0.0,-0.0016159784281626344,0.963025689125061,0.0003508502268232405,0.016664085909724236
362.0,204.0,1.2921,-2.7547,9.1376,0.0215,-0.1151,-0.1926,-1.859685560266012,-0.043876372277736664,3.1046831607818604,-1.6345891952514648,-7.170922384537592e-13,1.9872112274169922,4.964713144093313,-0.024152960628271103,0.26649704575538635,-1.1961281935321253,-0.0,-0.05670468509197235,0.31365060806274414,-0.0,0.0016732499934732914,0.9630696773529053,0.0003196914913132787,0.051760636270046234
362.0,204.0,1.2921,-2.7547,9.1376,0.0215,-0.1151,-0.1926,-1.8599378071227015,-0.04922516644001007,3.1604349613189697,-1.6345891952514648,-1.7316933065978722e-18,2.0664749145507812,4.964557784586706,-0.023792149499058723,0.2634713649749756,-1.1961043516742151,-0.0,-0.05343766510486603,0.3137105107307434,-0.0,0.019365785643458366,0.9630534648895264,0.0002821107627823949,0.017241600900888443
362.0,204.0,1.2921,-2.7547,9.1376,0.0215,-0.1151,-0.1926,-1.860117097894186,-0.05001284182071686,3.171217918395996,-1.6345851421356201,0.0005754793528467417,2.105666399002075,4.964482056885519,-0.025587480515241623,0.24943572282791138,-1.1961043516742151,-0.0,-0.05942206084728241,0.31366679072380066,-0.0,0.009341868571937084,0.96307373046875,0.0002616094134282321,0.0517156608402729
362.0,204.0,1.2921,-2.7547,9.1376,0.0215,-0.1151,-0.1926,-1.8604046307005824,-0.05495361238718033,3.1625406742095947,-1.63460111618042,0.000558677886147052,2.0870189666748047,4.964310335903921,-0.03088626079261303,0.2571672201156616,-1.1961405912982386,-0.0,-0.054478537291288376,0.3136627972126007,-0.0,0.0069619896821677685,0.9631134271621704,0.00023589489865116775,0.0082694161683321
362.0,204.0,1.2921,-2.7547,9.1376,0.0215,-0.1151,-0.1926,-1.8606282673277796,-0.05714962258934975,3.138186454772949,-1.6345891952514648,0.00046381770516745746,2.077545404434204,4.964126157551565,-0.03728250786662102,0.25830286741256714,-1.1960795561419886,-0.0,-0.06009010970592499,0.31371453404426575,-0.0,-0.010050952434539795,0.9630855917930603,0.00022138780332170427,0.04114730656147003
362.0,204.0,1.2921,-2.7547,9.1376,0.0215,-0.1151,-0.1926,-1.8608809910216273,-0.0597492977976799,3.163391590118408,-1.634573221206665,0.0003958045272156596,2.0711708068847656,4.96401526310996,-0.04481040686368942,0.2641133666038513,-1.1960766951190394,-0.0,-0.05754958093166351,0.31367069482803345,-0.0,-0.00881108921021223,0.9630897045135498,0.00020856191986240447,0.05962497368454933
362.0,204.0,1.2921,-2.7547,9.1376,0.0215,-0.1151,-0.1926,-1.861248632470602,-0.06378745287656784,3.1397690773010254,-1.6345607042312622,0.00032444685348309577,2.092360734939575,4.9636835036571405,-0.06130046769976616,0.2340073585510254,-1.196120564137594,-0.0,-0.06554816663265228,0.31365880370140076,-0.0,0.007793483790010214,0.963053286075592,0.00017611784278415143,-0.022928772494196892
362.0,204.0,1.2921,-2.7547,9.1376,0.0215,-0.1151,-0.1926,-1.8614841900267542,-0.06708487868309021,3.118931770324707,-1.6346051692962646,0.00028963747899979353,2.02034592628479,4.963395732432165,-0.07527883350849152,0.2187671959400177,-1.196120564137594,-0.0,-0.06572915613651276,0.31371456384658813,-0.0,-0.0018844746518880129,0.9630856513977051,0.00015940549201332033,0.005221259314566851
362.0,204.0,1.2921,-2.7547,9.1376,0.0215,-0.1151,-0.1926,-1.8618999920287074,-0.0695236474275589,3.138171672821045,-1.6346251964569092,0.00024948862846940756,2.1137115955352783,4.962905305414953,-0.09132151305675507,0.216065913438797,-1.1960962454425257,-0.0,-0.05535769462585449,0.31367868185043335,-0.0,-0.010483909398317337,0.963049590587616,2.422255238343496e-05,0.05291658639907837
362.0,204.0,1.2921,-2.7547,9.1376,0.0215,-0.1151,-0.1926,-1.862164159814352,-0.07019631564617157,3.120123863220215,-1.634581446647644,0.00026489797164686024,2.0481925010681152,4.96252195814208,-0.09393393993377686,0.22206424176692963,-1.1960600058185022,-0.0,-0.05102304369211197,0.3137187063694,-0.0,0.004575221333652735,0.9630575180053711,3.1231806474352197e-07,0.024008752778172493
362.0,204.0,1.2921,-2.7547,9.1376,0.0215,-0.1151,-0.1926,-1.8625437221922816,-0.07081364840269089,3.1513524055480957,-1.6346014738082886,0.0002714686270337552,2.0557937622070312,4.961967798858442,-0.08818364143371582,0.21464656293392181,-1.1960600058185022,-0.0,-0.06681495904922485,0.31367072463035583,1.658059467501971e-08,-0.007179425098001957,0.963013768196106,7.542113092916247e-13,0.0566633976995945
362.0,204.0,1.2921,-2.7547,9.1376,0.0215,-0.1151,-0.1926,-1.8627993069090785,-0.07165809720754623,3.1180171966552734,-1.6345607042312622,0.00023011690063867718,2.082698106765747,4.961692812829771,-0.07591066509485245,0.21176740527153015,-1.1960681120501917,-0.0,-0.052151840180158615,0.31365084648132324,7.068567953183447e-11,-0.0002463666023686528,0.9630736112594604,1.357553733547656e-16,0.041415195912122726
362.0,204.0,1.2921,-2.7547,9.1376,0.0215,-0.1151,-0.1926,-1.863262792626852,-0.07393430918455124,3.146522283554077,-1.6346174478530884,0.00021495987311936915,2.0901525020599365,4.961309599667349,-0.057643551379442215,0.23009636998176575,-1.1960962454425257,-0.0,-0.03627561032772064,0.3136906027793884,1.9675618217487e-14,-0.0020728809759020805,0.9630177617073059,3.2783324989171213e-22,-0.06350738555192947
362.0,204.0,1.2921,-2.7547,9.1376,0.0215,-0.1151,-0.1926,-1.8636156521239222,-0.07517679035663605,3.150299549102783,-1.634521484375,0.00019910739501938224,2.1097331047058105,4.96109818199233,-0.04909680783748627,0.23805025219917297,-1.1960848013507288,-0.0,-0.04608019441366196,0.3136385977268219,8.388025001593977e-17,-0.0072936490178108215,0.9630420804023743,-0.00032362560159526765,-0.024378003552556038
362.0,204.0,1.2921,-2.7547,9.1376,0.0215,-0.1151,-0.1926,-1.8640147648253382,-0.07673504948616028,3.0970659255981445,-1.6345534324645996,0.00023551414778921753,2.0612974166870117,4.960790771036901,-0.048871830105781555,0.22982190549373627,-1.1960681120501917,-0.0,-0.051705315709114075,0.3136746883392334,2.3348373170549688e-20,-0.0013087152037769556,0.9630258083343506,-0.0005898056551814079,-0.048763565719127655
362.0,204.0,1.2921,-2.7547,9.1376,0.0215,-0.1151,-0.1926,-1.8643351993956507,-0.07462045550346375,3.1005771160125732,-1.6346133947372437,0.000366706372005865,2.1102235317230225,4.96066332140521,-0.0524432510137558,0.2399984896183014,-1.1960442701922815,-0.0,-0.03731919825077057,0.31373071670532227,9.953776851230343e-23,0.012624474242329597,0.963005542755127,-0.0004868809483014047,-0.00038668885827064514
362.0,204.0,1.2921,-2.7547,9.1376,0.0215,-0.1151,-0.1926,-1.8647781811156214,-0.07824898511171341,3.1056571006774902,-1.634556770324707,0.0009146956726908684,2.0610127449035645,4.960295992880621,-0.065611332654953,0.23002217710018158,-1.1960442701922815,-0.0,-0.04773182421922684,0.3136586844921112,2.7706702432378856e-26,-0.009537030942738056,0.9630575180053711,-0.00043939429451711476,-0.02355208620429039
529.0,223.0,1.136,-3.5294,8.5065,-0.0516,-0.0255,-0.1449,-1.8651186428465785,-0.08074148744344711,3.1133017539978027,-1.634572982788086,0.001215292839333415,2.0384082794189453,4.960060837655821,-0.07291387766599655,0.233215793967247,-1.1960919539081019,-0.0,-0.03977193683385849,0.3137187361717224,1.1811801775006047e-28,0.00032219686545431614,0.9630336761474609,-0.0003914901753887534,0.037962526082992554
529.0,223.0,1.136,-3.5294,8.5065,-0.0516,-0.0255,-0.1449,-1.8655301533141078,-0.08407698571681976,3.1080663204193115,-1.6345255374908447,0.002239083871245384,2.0642576217651367,4.959622087865629,-0.07247446477413177,0.23316693305969238,-1.1961043516742151,-0.0,-0.048376090824604034,0.31370264291763306,1.5149495993682649e-05,-0.0005302154459059238,0.9629817605018616,-0.0003299682284705341,-0.014978371560573578
529.0,223.0,1.136,-3.5294,8.5065,-0.0516,-0.0255,-0.1449,-1.865918298760885,-0.08663181215524673,3.0503017902374268,-1.6345213651657104,0.003578158328309655,2.086164951324463,4.959375056415357,-0.06439785659313202,0.24063915014266968,-1.1961167494403284,-0.0,-0.055891238152980804,0.3136785626411438,0.0001858397590694949,0.011739915236830711,0.9629615545272827,-0.0003413382510188967,-0.0005317967152222991
529.0,223.0,1.136,-3.5294,8.5065,-0.0516,-0.0255,-0.1449,-1.8662220440306605,-0.08729663491249084,3.105449676513672,-1.6345175504684448,0.0047262292355299,2.0487706661224365,4.959142985730924,-0.049119316041469574,0.21768298745155334,-1.1961043516742151,-0.0,-0.053858619183301926,0.3137231767177582,0.00018921609444078058,0.00180206133518368,0.9630338549613953,-0.00026342947967350483,0.030063435435295105
529.0,223.0,1.136,-3.5294,8.5065,-0.0516,-0.0255,-0.1449,-1.866709371606344,-0.08751028031110764,3.125119686126709,-1.634450078010559,0.0068162549287080765,2.0399885177612305,4.9589238343532465,-0.025913981720805168,0.23649896681308746,-1.196120564137594,-0.0,-0.047674067318439484,0.3137025535106659,0.00018549173546489328,-0.008599694818258286,0.9629857540130615,-0.00030816555954515934,-0.020160134881734848
529.0,223.0,1.136,-3.5294,8.5065,-0.0516,-0.0255,-0.1449,-1.867117544213766,-0.08801215887069702,3.095057964324951,-1.6343848705291748,0.00918254628777504,2.0504517555236816,4.958864334016599,-0.00870797410607338,0.26618969440460205,-1.1960557142840784,-0.0,-0.0534127801656723,0.3137226998806,0.0002015040663536638,0.00019307190086692572,0.9630258679389954,-0.00028510892298072577,-0.03986995667219162
529.0,223.0,1.136,-3.5294,8.5065,-0.0516,-0.0255,-0.1449,-1.8675929508604945,-0.08652098476886749,3.1098618507385254,-1.6343125104904175,0.010790868662297726,2.0785465240478516,4.95890428402976,0.009352881461381912,0.28043562173843384,-1.196108643208639,-0.0,-0.06315159052610397,0.31366676092147827,0.000184687422006391,0.006528351455926895,0.9629695415496826,-0.00028688652673736215,0.020236168056726456
529.0,223.0,1.136,-3.5294,8.5065,-0.0516,-0.0255,-0.1449,-1.8680254421629847,-0.08695131540298462,3.1485588550567627,-1.6343410015106201,0.01088632084429264,2.055673599243164,4.958920153766432,0.011478268541395664,0.27760815620422363,-1.1961043516742151,-0.0,-0.06086426228284836,0.3137148320674896,0.0001744581531966105,0.005281241610646248,0.9629615545272827,-0.0003946954384446144,0.051846593618392944
529.0,223.0,1.136,-3.5294,8.5065,-0.0516,-0.0255,-0.1449,-1.8684917889037074,-0.08539615571498871,3.136892080307007,-1.6343098878860474,0.011735895648598671,2.1043434143066406,4.958980428963461,0.006331061478704214,0.27394893765449524,-1.1960681120501917,-0.0,-0.06789977103471756,0.31374654173851013,0.00018403405556455255,0.0020702057518064976,0.9629735946655273,-0.00031627126736566424,0.017223641276359558
529.0,223.0,1.136,-3.5294,8.5065,-0.0516,-0.0255,-0.1449,-1.8689009151854457,-0.08497237414121628,3.124753952026367,-1.6342377662658691,0.012082882225513458,2.0562727451324463,4.959004181414404,0.0027120865415781736,0.26790982484817505,-1.1960962454425257,-0.0,-0.062222715467214584,0.313674658536911,0.0001751307281665504,0.01821555569767952,0.9629817605018616,-0.0002772859006654471,-0.004596291109919548
529.0,223.0,1.136,-3.5294,8.5065,-0.0516,-0.0255,-0.1449,-1.8694282970824183,-0.08678553998470306,3.149081230163574,-1.634185552597046,0.01210671104490757,2.081273317337036,4.958976271539488,8.744048500375357e-06,0.2625759243965149,-1.196120564137594,-0.0,-0.05152510106563568,0.31373462080955505,0.00020260688324924558,0.001609898405149579,0.9630137085914612,-0.0002340198989259079,0.0307772196829319
529.0,223.0,1.136,-3.5294,8.5065,-0.0516,-0.0255,-0.1449,-1.869795938531393,-0.09038157761096954,3.101942300796509,-1.634137511253357,0.011728242039680481,2.1147255897521973,4.958963978081503,3.727724973145996e-08,0.2574424743652344,-1.196108643208639,-0.0,-0.05680936574935913,0.31369855999946594,0.00018851167988032103,-0.00025275396183133125,0.9630258083343506,-0.0002119706477969885,-0.0057000089436769485
529.0,223.0,1.136,-3.5294,8.5065,-0.0516,-0.0255,-0.1449,-1.870303293267721,-0.09564414620399475,3.1729536056518555,-1.6339808702468872,0.013306780718266964,2.025641918182373,4.95894809344367,1.0376259747257865e-11,0.2646442949771881,-1.1961362997638147,-0.0,-0.06984735280275345,0.31367069482803345,0.0002008882147492841,0.007767871487885714,0.9629655480384827,-0.00018572370754554868,0.028536247089505196
529.0,223.0,1.136,-3.5294,8.5065,-0.0516,-0.0255,-0.1449,-1.8706666431822718,-0.097389355301857,3.144454002380371,-1.6339081525802612,0.01617022603750229,2.0687060356140137,4.959004181414404,4.423562143212982e-14,0.28032293915748596,-1.1960919539081019,-0.0,-0.05826059356331825,0.3136945366859436,0.00021408250904642045,0.01572388783097267,0.9629777073860168,-0.00019408302614465356,-0.027005814015865326
529.0,223.0,1.136,-3.5294,8.5065,-0.0516,-0.0255,-0.1449,-1.8712789020934046,-0.1007123813033104,3.151008129119873,-1.6338449716567993,0.021984487771987915,2.112889289855957,4.959016102343359,0.00018552686378825456,0.2711573541164398,-1.1961124579059046,-0.0,-0.060268811881542206,0.31371045112609863,0.00019767229969147593,0.004030059091746807,0.9629817605018616,-0.00018474333046469837,0.03348883241415024
529.0,223.0,1.136,-3.5294,8.5065,-0.0516,-0.0255,-0.1449,-1.8716503582396449,-0.10123350471258163,3.134239912033081,-1.6337733268737793,0.026816150173544884,2.089503288269043,4.959028336196699,0.0002362267841817811,0.2860427498817444,-1.1960681120501917,-0.0,-0.07527105510234833,0.3136864900588989,0.00021233526058495045,0.0032555009238421917,0.9630057215690613,-0.00017291156109422445,0.03241545334458351
529.0,223.0,1.136,-3.5294,8.5065,-0.0516,-0.0255,-0.1449,-1.872066160241598,-0.10332214832305908,3.14986515045166,-1.6335639953613281,0.03263365477323532,2.0827786922454834,4.9589960155780695,0.00020133047655690461,0.2676595449447632,-1.1961043516742151,-0.0,-0.07416488975286484,0.3137432336807251,0.0002008029550779611,0.0025412379764020443,0.9629695415496826,-0.00016250446788035333,0.00790009368211031
529.0,223.0,1.136,-3.5294,8.5065,-0.0516,-0.0255,-0.1449,-1.8727299175658167,-0.10489241033792496,3.1474905014038086,-1.6333973407745361,0.041757430881261826,2.094686985015869,4.958968075900831,0.00016450855764560401,0.2695767283439636,-1.1961124579059046,-0.0,-0.07688768208026886,0.3136826753616333,0.00025234403437934816,0.02198178693652153,0.9629977941513062,-0.000149048151797615,-0.030442513525485992
529.0,223.0,1.136,-3.5294,8.5065,-0.0516,-0.0255,-0.1449,-1.873197694818014,-0.1083601862192154,3.1498138904571533,-1.6331719160079956,0.04714231193065643,2.167509078979492,4.958984094649114,0.00014663211186416447,0.27156686782836914,-1.1960919539081019,-0.0,-0.06918498873710632,0.31369853019714355,0.0002691729459911585,0.009629195556044579,0.9629976749420166,-0.0001412507554050535,0.022097520530223846
753.0,241.0,1.6337,-2.8056,10.0893,0.0043,0.0255,-0.1677,-1.8739177189269007,-0.10944841057062149,3.1437630653381348,-1.6328693628311157,0.054536111652851105,2.181368589401245,4.959004181414404,0.0001437840110156685,0.28217613697052,-1.1961043516742151,-0.0,-0.06173468008637428,0.31371474266052246,0.00023650494404137135,0.0007663945434615016,0.9629417657852173,-0.00013097292685415596,-0.028860392048954964
