ramyac6/ROB537/final_project/csv/bad/bad_38.csv
tof_0,tof_1,accelx,accely,accelz,gyrox,gyroy,gyroz,shoulder_lift_joint_position,shoulder_lift_joint_velocity,shoulder_lift_joint_effort,elbow_joint_position,elbow_joint_velocity,elbow_joint_effort,wrist_1_joint_position,wrist_1_joint_velocity,wrist_1_joint_effort,wrist_2_joint_position,wrist_2_joint_velocity,wrist_2_joint_effort,wrist_3_joint_position,wrist_3_joint_velocity,wrist_3_joint_effort,shoulder_pan_joint_position,shoulder_pan_joint_velocity,shoulder_pan_joint_effort
256.0,379.0,4.8461,3.0592,7.3496,-0.0359,0.0165,-0.1194,-1.5860926113524378,0.0,2.2458267211914062,-1.5680736303329468,-0.0,2.161173105239868,4.081492109889648,0.0,0.26089709997177124,-1.3036592642413538,0.0,-0.026539888232946396,0.007224006578326225,0.0,-0.0004170346655882895,1.319284439086914,0.0,0.012533082626760006
256.0,379.0,4.8461,3.0592,7.3496,-0.0359,0.0165,-0.1194,-1.5861336193480433,0.0,2.2325587272644043,-1.5679816007614136,-0.0,2.1839065551757812,4.081492109889648,0.0,0.24136057496070862,-1.303638760243551,0.0,-0.025373555719852448,0.007240410894155502,0.0,-0.005899107549339533,1.3192765712738037,0.0,-0.06039023399353027
256.0,379.0,4.8461,3.0592,7.3496,-0.0359,0.0165,-0.1194,-1.5861131153502406,0.0,2.2220497131347656,-1.5680252313613892,-0.0,2.130794048309326,4.081488295192383,0.0,0.2586904764175415,-1.3036025206195276,0.0,-0.025684863328933716,0.007184348534792662,0.0,0.0002112363581545651,1.3192843198776245,0.0,-0.015344277955591679
256.0,379.0,4.8461,3.0592,7.3496,-0.0359,0.0165,-0.1194,-1.5860806904234828,0.0,2.262866258621216,-1.5680333375930786,-0.0,2.1627297401428223,4.081527872676514,0.0,0.25342217087745667,-1.303643051777975,0.0,-0.030728913843631744,0.007204294204711914,0.0,-0.003360025817528367,1.319284439086914,0.0,-0.003517807461321354
256.0,379.0,4.8461,3.0592,7.3496,-0.0359,0.0165,-0.1194,-1.5860768757262171,0.0,2.228375196456909,-1.5680415630340576,-0.0,2.1889257431030273,4.081463976497314,0.0,0.26026761531829834,-1.303614918385641,0.0,-0.032952893525362015,0.007200600113719702,0.0,-0.005071076564490795,1.3192483186721802,0.0,-0.033046524971723557
256.0,379.0,4.8461,3.0592,7.3496,-0.0359,0.0165,-0.1194,-1.5861293278136195,0.0,2.2701969146728516,-1.568037509918213,-0.0,2.18666410446167,4.081507845515869,0.0,0.26237753033638,-1.3036068121539515,0.0,-0.027502592653036118,0.007220316678285599,0.0,-0.013416684232652187,1.3192284107208252,0.0,0.019185930490493774
256.0,379.0,4.8461,3.0592,7.3496,-0.0359,0.0165,-0.1194,-1.58612122158193,0.0,2.244992256164551,-1.5680055618286133,-0.0,2.176236867904663,4.0815722185322265,0.0,0.25744324922561646,-1.3036068121539515,0.0,-0.03925076127052307,0.007236298173666,0.0,-0.009584970772266388,1.3193004131317139,0.0,-0.03267093002796173
256.0,379.0,4.8461,3.0592,7.3496,-0.0359,0.0165,-0.1194,-1.5860687694945277,0.0,2.2342112064361572,-1.5680540800094604,-0.0,2.1461715698242188,4.081544561977051,0.0,0.25363144278526306,-1.3036554495440882,0.0,-0.03059973008930683,0.007204294204711914,0.0,-0.019199660047888756,1.319320797920227,0.0,-0.02375957742333412
261.0,405.0,4.858,3.0365,7.2784,-0.0321,0.0279,-0.1177,-1.586104532281393,0.0,2.2384443283081055,-1.568061351776123,-0.0,2.1708786487579346,4.081492109889648,0.0,0.26571348309516907,-1.3036311308490198,0.0,-0.01997516304254532,0.007244500797241926,0.0,-0.010341914370656013,1.3192965984344482,0.0,-0.009144287556409836
261.0,405.0,4.858,3.0365,7.2784,-0.0321,0.0279,-0.1177,-1.5861407719054164,0.0,2.2538139820098877,-1.5680333375930786,-0.0,2.174304723739624,4.081468268031738,0.0,0.266177237033844,-1.303643051777975,0.0,-0.019074833020567894,0.007224368862807751,0.0,0.004486982710659504,1.319312572479248,0.0,-0.022825857624411583
261.0,405.0,4.858,3.0365,7.2784,-0.0321,0.0279,-0.1177,-1.5861007175841273,0.0,2.201568603515625,-1.5679973363876343,-0.0,2.1668624877929688,4.081492109889648,0.0,0.2615256905555725,-1.3036225477801722,0.0,-0.024590175598859787,0.007212537806481123,0.0,-0.0036974591203033924,1.3192925453186035,0.0,0.0035500768572092056
261.0,405.0,4.858,3.0365,7.2784,-0.0321,0.0279,-0.1177,-1.5861255131163539,0.0,2.2286970615386963,-1.568037509918213,-0.0,2.195183753967285,4.081540270442627,0.0,0.246991828083992,-1.3036187330829065,0.0,-0.041083838790655136,0.007180158514529467,0.0,0.0017839891370385885,1.3192884922027588,0.0,-0.016088221222162247
261.0,405.0,4.858,3.0365,7.2784,-0.0321,0.0279,-0.1177,-1.586104532281393,0.0,2.2085907459259033,-1.5680055618286133,-0.0,2.126593589782715,4.081492109889648,0.0,0.25603026151657104,-1.303626839314596,0.0,-0.02871100977063179,0.007167901378124952,0.0,-0.008004778064787388,1.3193126916885376,0.0,0.005534573458135128
261.0,405.0,4.858,3.0365,7.2784,-0.0321,0.0279,-0.1177,-1.5861574612059535,0.0,2.2216296195983887,-1.5680663585662842,-0.0,2.175374984741211,4.081492109889648,0.0,0.2602201998233795,-1.303614918385641,0.0,-0.03488563746213913,0.007228152360767126,0.0,-0.01002458855509758,1.3192802667617798,0.0,-0.008033212274312973
261.0,405.0,4.858,3.0365,7.2784,-0.0321,0.0279,-0.1177,-1.5861131153502406,0.0,2.286369562149048,-1.5680415630340576,-0.0,2.1705191135406494,4.081472082729004,0.0,0.27377456426620483,-1.3036068121539515,0.0,-0.042799197137355804,0.007192397955805063,0.0,-0.023580413311719894,1.319236159324646,0.0,0.003838522359728813
261.0,405.0,4.858,3.0365,7.2784,-0.0321,0.0279,-0.1177,-1.5861169300475062,0.0,2.2685024738311768,-1.5679930448532104,-0.0,2.1775765419006348,4.081524057979248,0.0,0.26126575469970703,-1.3036144415484827,0.0,-0.024575207382440567,0.007175983861088753,0.0,-0.006142625585198402,1.3192884922027588,0.0,0.00037138102925382555
261.0,405.0,4.858,3.0365,7.2784,-0.0321,0.0279,-0.1177,-1.5861336193480433,0.0,2.278536796569824,-1.5679973363876343,-0.0,2.17905592918396,4.081547899837158,0.0,0.24683305621147156,-1.303638760243551,0.0,-0.03513680398464203,0.007200217340141535,0.0,-0.005224752239882946,1.3193004131317139,0.0,0.02461039274930954
261.0,405.0,4.858,3.0365,7.2784,-0.0321,0.0279,-0.1177,-1.5861174068846644,0.0,2.2645254135131836,-1.5680338144302368,-0.0,2.1669552326202393,4.081540270442627,0.0,0.2656291723251343,-1.3036225477801722,0.0,-0.02566104754805565,0.007176055572926998,0.0,-0.00937376357614994,1.3193085193634033,0.0,-0.022819004952907562
261.0,405.0,4.858,3.0365,7.2784,-0.0321,0.0279,-0.1177,-1.5861293278136195,0.0,2.2837886810302734,-1.5680218935012817,-0.0,2.2204246520996094,4.081488295192383,0.0,0.26424041390419006,-1.303582493458883,0.0,-0.041094034910202026,0.007188296411186457,0.0,-0.003872664412483573,1.3193248510360718,0.0,-0.0031261530239135027
261.0,405.0,4.858,3.0365,7.2784,-0.0321,0.0279,-0.1177,-1.5860926113524378,0.0,2.219785690307617,-1.568021535873413,-0.0,2.1859536170959473,4.081520243281982,0.0,0.259823739528656,-1.3036468664752405,0.0,-0.030288612470030785,0.007196155842393637,0.0,0.005562455393373966,1.3192845582962036,0.0,-0.03319453075528145
261.0,405.0,4.858,3.0365,7.2784,-0.0321,0.0279,-0.1177,-1.5861169300475062,0.0,2.2290124893188477,-1.568069577217102,-0.0,2.1760473251342773,4.08149973928418,0.0,0.2602313160896301,-1.3036225477801722,0.0,-0.037606380879879,0.007192373275756836,0.0,-0.006584113463759422,1.319260835647583,0.0,-0.006950635462999344
261.0,405.0,4.858,3.0365,7.2784,-0.0321,0.0279,-0.1177,-1.5860969028868617,0.0,2.238539695739746,-1.5681015253067017,-0.0,2.199130058288574,4.081543608302734,0.0,0.25460878014564514,-1.3036349455462855,0.0,-0.031902898102998734,0.00723261246457696,0.0,-0.0143734160810709,1.319284439086914,0.0,-0.04593314230442047
261.0,405.0,4.858,3.0365,7.2784,-0.0321,0.0279,-0.1177,-1.5860845051207484,0.0,2.2240023612976074,-1.5680540800094604,-0.0,2.1930322647094727,4.081536455745361,0.0,0.25322893261909485,-1.3036754767047327,0.0,-0.032247647643089294,0.007208371069282293,0.0,-0.013646945357322693,1.3192765712738037,0.0,-0.012081928551197052
261.0,405.0,4.858,3.0365,7.2784,-0.0321,0.0279,-0.1177,-1.5861369572081507,0.0,2.257437229156494,-1.568037509918213,-0.0,2.1894078254699707,4.081492109889648,0.0,0.2613278329372406,-1.303626839314596,0.0,-0.03457849845290184,0.00717608816921711,0.0,-0.008210917003452778,1.3193044662475586,0.0,0.02269425056874752
264.0,358.0,4.9884,3.0479,7.1659,-0.0276,0.0218,-0.12,-1.5861131153502406,0.0,2.2158241271972656,-1.5679889917373657,-0.0,2.158205032348633,4.081524057979248,0.0,0.25495126843452454,-1.3036673704730433,0.0,-0.032084934413433075,0.007147826720029116,0.0,0.008158246986567974,1.3192802667617798,0.0,0.015604720450937748
264.0,358.0,4.9884,3.0479,7.1659,-0.0276,0.0218,-0.12,-1.5861169300475062,0.0,2.256403923034668,-1.56808602809906,-0.0,2.2011258602142334,4.081528349513672,0.0,0.26392143964767456,-1.3036635557757776,0.0,-0.03213340789079666,0.0072281197644770145,0.0,-0.0076400223188102245,1.3193044662475586,0.0,-0.06822091341018677
264.0,358.0,4.9884,3.0479,7.1659,-0.0276,0.0218,-0.12,-1.5860969028868617,0.0,2.2260262966156006,-1.5680255889892578,-0.0,2.1647233963012695,4.081492109889648,0.0,0.25189322233200073,-1.3036068121539515,0.0,-0.03864847123622894,0.0071801538579165936,0.0,-0.010486004874110222,1.3193004131317139,0.0,-0.011532092466950417
264.0,358.0,4.9884,3.0479,7.1659,-0.0276,0.0218,-0.12,-1.5860806904234828,0.0,2.2321488857269287,-1.568021535873413,-0.0,2.1681900024414062,4.081488295192383,0.0,0.251556396484375,-1.303626839314596,0.0,-0.029174894094467163,0.007228580303490162,0.0,-0.015809059143066406,1.319284439086914,0.0,0.010580101981759071
264.0,358.0,4.9884,3.0479,7.1659,-0.0276,0.0218,-0.12,-1.58612122158193,0.0,2.233691930770874,-1.568061351776123,-0.0,2.18316650390625,4.081524057979248,0.0,0.24577321112155914,-1.303610626851217,0.0,-0.03959646821022034,0.007212537340819836,0.0,-0.0007582994876429439,1.3193126916885376,0.0,-0.02363605983555317
264.0,358.0,4.9884,3.0479,7.1659,-0.0276,0.0218,-0.12,-1.5861131153502406,0.0,2.2374045848846436,-1.5680055618286133,-0.0,2.187086582183838,4.08144394933667,0.0,0.2625530958175659,-1.3036068121539515,0.0,-0.03332439810037613,0.007232653442770243,0.0,-0.012557749636471272,1.3192884922027588,0.0,0.025617690756917
264.0,358.0,4.9884,3.0479,7.1659,-0.0276,0.0218,-0.12,-1.586149354974264,0.0,2.2210206985473633,-1.568069577217102,-0.0,2.172727108001709,4.081528349513672,0.0,0.26524388790130615,-1.3036792914019983,0.0,-0.04062337428331375,0.007208363153040409,0.0,-2.1911109797656536e-05,1.319320559501648,0.0,-0.010004483163356781
264.0,358.0,4.9884,3.0479,7.1659,-0.0276,0.0218,-0.12,-1.5861088238158167,0.0,2.2625229358673096,-1.5680415630340576,-0.0,2.1666955947875977,4.081507845515869,0.0,0.2599891424179077,-1.303610626851217,0.0,-0.036569785326719284,0.007236314006149769,0.0,-0.011009911075234413,1.319288969039917,0.0,-0.016316141933202744
264.0,358.0,4.9884,3.0479,7.1659,-0.0276,0.0218,-0.12,-1.5861131153502406,0.0,2.23931884765625,-1.5680540800094604,-0.0,2.1584577560424805,4.081484003657959,0.0,0.25657349824905396,-1.3036068121539515,0.0,-0.02581081911921501,0.007180142216384411,0.0,-0.010607171803712845,1.319252848625183,0.0,0.019515039399266243
264.0,358.0,4.9884,3.0479,7.1659,-0.0276,0.0218,-0.12,-1.586104532281393,0.0,2.2589304447174072,-1.5680415630340576,-0.0,2.2177815437316895,4.081520243281982,0.0,0.255928099155426,-1.303626839314596,0.0,-0.03131287172436714,0.007212513126432896,0.0,-0.0057590254582464695,1.319320559501648,0.0,-0.008780638687312603
264.0,358.0,4.9884,3.0479,7.1659,-0.0276,0.0218,-0.12,-1.5860926113524378,0.0,2.268249034881592,-1.568021535873413,-0.0,2.1494102478027344,4.081476374263428,0.0,0.2572294771671295,-1.303626839314596,0.0,-0.02013925090432167,0.007240410894155502,0.0,-0.0007880108896642923,1.3193166255950928,0.0,0.021216634660959244
264.0,358.0,4.9884,3.0479,7.1659,-0.0276,0.0218,-0.12,-1.5860887966551722,0.0,2.23834490776062,-1.56808602809906,-0.0,2.1588423252105713,4.081556006068848,0.0,0.2648780941963196,-1.3036144415484827,0.0,-0.026706501841545105,0.00724035082384944,0.0,0.0016875019064173102,1.319304347038269,0.0,0.02645493671298027
264.0,358.0,4.9884,3.0479,7.1659,-0.0276,0.0218,-0.12,-1.5861531696715296,0.0,2.265334129333496,-1.5680456161499023,-0.0,2.18007230758667,4.0814758974262695,0.0,0.253848671913147,-1.3036029974566858,0.0,-0.03032098151743412,0.007192373275756836,0.0,-0.007949870079755783,1.3192765712738037,0.0,0.013597073964774609
264.0,358.0,4.9884,3.0479,7.1659,-0.0276,0.0218,-0.12,-1.5861011944212855,0.0,2.2951159477233887,-1.5680292844772339,-0.0,2.1570916175842285,4.08149973928418,0.0,0.25095534324645996,-1.3036068121539515,0.0,-0.034903768450021744,0.007208371069282293,0.0,0.0014817984774708748,1.3192726373672485,0.0,0.023255469277501106
264.0,358.0,4.9884,3.0479,7.1659,-0.0276,0.0218,-0.12,-1.5861407719054164,0.0,2.242927312850952,-1.5680092573165894,-0.0,2.196807861328125,4.08157651006665,0.0,0.2620943784713745,-1.3035743872271937,0.0,-0.036832407116889954,0.0072202919982373714,0.0,-0.013775663450360298,1.3192963600158691,0.0,0.00787197146564722
252.0,376.0,5.007,3.0963,7.2879,-0.0292,0.0212,-0.1148,-1.5861369572081507,0.0,2.2442991733551025,-1.5680736303329468,-0.0,2.199495315551758,4.081495924586914,0.0,0.2667057514190674,-1.3036225477801722,0.0,-0.030461693182587624,0.007188288029283285,0.0,-0.0010804049670696259,1.319312572479248,0.0,0.03460967540740967
252.0,376.0,5.007,3.0963,7.2879,-0.0292,0.0212,-0.1148,-1.5860768757262171,0.0,2.2169394493103027,-1.5680458545684814,-0.0,2.186249256134033,4.081524057979248,0.0,0.25751805305480957,-1.3036187330829065,0.0,-0.04097941517829895,0.0072121345438063145,0.0,0.006854200270026922,1.3192687034606934,0.0,-0.00335027277469635
252.0,376.0,5.007,3.0963,7.2879,-0.0292,0.0212,-0.1148,-1.5861088238158167,0.0,2.2592411041259766,-1.5680292844772339,-0.0,2.1954944133758545,4.081507845515869,0.0,0.26765352487564087,-1.303626839314596,0.0,-0.030197687447071075,0.007188292685896158,0.0,-0.008009596727788448,1.3192607164382935,0.0,-0.017624257132411003
252.0,376.0,5.007,3.0963,7.2879,-0.0292,0.0212,-0.1148,-1.586149354974264,0.0,2.1857097148895264,-1.568089246749878,-0.0,2.162863254547119,4.081527872676514,0.0,0.2621298134326935,-1.3036311308490198,0.0,-0.024338610470294952,0.007252607960253954,0.0,-0.014703210443258286,1.3193122148513794,0.0,0.005566450767219067
252.0,376.0,5.007,3.0963,7.2879,-0.0292,0.0212,-0.1148,-1.5861011944212855,0.0,2.2677295207977295,-1.5680415630340576,-0.0,2.204409122467041,4.081543608302734,0.0,0.2569316327571869,-1.303610626851217,0.0,-0.03154606744647026,0.007200217340141535,0.0,-0.0024669584818184376,1.319292426109314,0.0,-0.004124765284359455
252.0,376.0,5.007,3.0963,7.2879,-0.0292,0.0212,-0.1148,-1.5860926113524378,0.0,2.264901638031006,-1.5680499076843262,-0.0,2.206294298171997,4.081492109889648,0.0,0.25810033082962036,-1.3036068121539515,0.0,-0.024082113057374954,0.00724446214735508,0.0,-0.009852543473243713,1.3192687034606934,0.0,-0.010120302438735962
252.0,376.0,5.007,3.0963,7.2879,-0.0292,0.0212,-0.1148,-1.586104532281393,0.0,2.2317259311676025,-1.5680415630340576,-0.0,2.177083969116211,4.081524057979248,0.0,0.2619475722312927,-1.3036311308490198,0.0,-0.032853830605745316,0.007212138269096613,0.0,0.005029751919209957,1.3192687034606934,0.0,-0.00421777181327343
252.0,376.0,5.007,3.0963,7.2879,-0.0292,0.0212,-0.1148,-1.5861007175841273,0.0,2.183898687362671,-1.5680736303329468,-0.0,2.1719207763671875,4.081512137050293,0.0,0.2589974105358124,-1.3036225477801722,0.0,-0.024984631687402725,0.007160025183111429,0.0,-0.009433161467313766,1.319332480430603,0.0,-0.002292861230671406
252.0,376.0,5.007,3.0963,7.2879,-0.0292,0.0212,-0.1148,-1.5861407719054164,0.0,2.220576286315918,-1.5680296421051025,-0.0,2.1866819858551025,4.081527872676514,0.0,0.2578279674053192,-1.303610626851217,0.0,-0.02527940645813942,0.0071116723120212555,0.0,-0.00016339635476469994,1.3192845582962036,0.0,0.04181618615984917
252.0,376.0,5.007,3.0963,7.2879,-0.0292,0.0212,-0.1148,-1.5861736736693324,0.0,2.2875828742980957,-1.5679765939712524,-0.0,2.175630569458008,4.081540270442627,0.0,0.24969029426574707,-1.3036349455462855,0.0,-0.029710061848163605,0.007188296411186457,0.0,-0.007016671355813742,1.3192884922027588,0.0,0.02172733284533024
252.0,376.0,5.007,3.0963,7.2879,-0.0292,0.0212,-0.1148,-1.5861131153502406,0.0,2.219536781311035,-1.5680736303329468,-0.0,2.1639273166656494,4.081551714534424,0.0,0.25391390919685364,-1.303643051777975,0.0,-0.038272589445114136,0.0071961404755711555,0.0,-0.00968498270958662,1.3193166255950928,0.0,0.053276460617780685
252.0,376.0,5.007,3.0963,7.2879,-0.0292,0.0212,-0.1148,-1.58612122158193,0.0,2.221357822418213,-1.568037509918213,-0.0,2.1723387241363525,4.081544561977051,0.0,0.2634367048740387,-1.3036225477801722,0.0,-0.03468024730682373,0.007159666158258915,0.0,-0.0022407779470086098,1.3192449808120728,0.0,-0.05073631554841995
252.0,376.0,5.007,3.0963,7.2879,-0.0292,0.0212,-0.1148,-1.5861336193480433,0.0,2.233837127685547,-1.568009614944458,-0.0,2.1714272499084473,4.081492109889648,0.0,0.25921204686164856,-1.3037031332599085,0.0,-0.02892426960170269,0.00723221292719245,0.0,-0.012978333048522472,1.3192884922027588,0.0,-0.0063840970396995544
252.0,376.0,5.007,3.0963,7.2879,-0.0292,0.0212,-0.1148,-1.5861531696715296,0.0,2.262404680252075,-1.5680456161499023,-0.0,2.164053440093994,4.081520243281982,0.0,0.26009097695350647,-1.303638760243551,0.0,-0.02794662117958069,0.00723221292719245,0.0,-0.01134779304265976,1.3193004131317139,0.0,0.024912012740969658
252.0,376.0,5.007,3.0963,7.2879,-0.0292,0.0212,-0.1148,-1.5861131153502406,0.0,2.2499754428863525,-1.5680458545684814,-0.0,2.188101053237915,4.081524057979248,0.0,0.2616748511791229,-1.3036225477801722,0.0,-0.03112782910466194,0.007232604548335075,0.0,-0.005122045520693064,1.3192963600158691,0.0,0.013462893664836884
265.0,377.0,4.8413,3.0508,7.279,-0.0307,0.029,-0.1156,-1.5861131153502406,0.0,2.2468552589416504,-1.5680296421051025,-0.0,2.1733288764953613,4.081492109889648,0.0,0.2707923948764801,-1.303610626851217,0.0,-0.03129218891263008,0.007208379451185465,0.0,2.7886126190423965e-05,1.3192726373672485,0.0,0.028532927855849266
265.0,377.0,4.8413,3.0508,7.279,-0.0307,0.029,-0.1156,-1.5861169300475062,0.0,2.2515928745269775,-1.5680540800094604,-0.0,2.153538465499878,4.081524057979248,0.0,0.264792263507843,-1.303610626851217,0.0,-0.02991463802754879,0.007196155842393637,0.0,-0.0008694618591107428,1.3192646503448486,0.0,0.009371891617774963
265.0,377.0,4.8413,3.0508,7.279,-0.0307,0.029,-0.1156,-1.586104532281393,0.0,2.236205816268921,-1.568021535873413,-0.0,2.147287368774414,4.081512137050293,0.0,0.25726574659347534,-1.303638760243551,0.0,-0.022821595892310143,0.007204294204711914,0.0,0.0034414909314364195,1.3193122148513794,0.0,0.03634829819202423
265.0,377.0,4.8413,3.0508,7.279,-0.0307,0.029,-0.1156,-1.5861407719054164,0.0,2.2517142295837402,-1.568069577217102,-0.0,2.1768574714660645,4.0814758974262695,0.0,0.26117828488349915,-1.3035905996905726,0.0,-0.03564600273966789,0.007144092582166195,0.0,-0.018661698326468468,1.3193082809448242,0.0,0.018495973199605942
265.0,377.0,4.8413,3.0508,7.279,-0.0307,0.029,-0.1156,-1.5860725841917933,0.0,2.204394578933716,-1.5680654048919678,-0.0,2.1691226959228516,4.081527872676514,0.0,0.2519797086715698,-1.303626839314596,0.0,-0.04446782171726227,0.007167901378124952,0.0,-0.012756066396832466,1.3192845582962036,0.0,0.013233323581516743
265.0,377.0,4.8413,3.0508,7.279,-0.0307,0.029,-0.1156,-1.5860768757262171,0.0,2.2137985229492188,-1.5680499076843262,-0.0,2.1731503009796143,4.081547899837158,0.0,0.2568507492542267,-1.3036029974566858,0.0,-0.02778518572449684,0.007163768634200096,0.0,-0.012338092550635338,1.3192963600158691,0.0,-0.008981850929558277
265.0,377.0,4.8413,3.0508,7.279,-0.0307,0.029,-0.1156,-1.58612122158193,0.0,2.2459769248962402,-1.5679848194122314,-0.0,2.2029507160186768,4.081520243281982,0.0,0.26268091797828674,-1.3036311308490198,0.0,-0.0365193672478199,0.00719238119199872,0.0,-0.006396306678652763,1.3192845582962036,0.0,0.005505803041160107
265.0,377.0,4.8413,3.0508,7.279,-0.0307,0.029,-0.1156,-1.5860926113524378,0.0,2.2308907508850098,-1.5679888725280762,-0.0,2.163684368133545,4.081524057979248,0.0,0.25066789984703064,-1.30365497270693,0.0,-0.03014293685555458,0.007216190453618765,0.0,-0.013532324694097042,1.3193086385726929,0.0,0.021387796849012375
265.0,377.0,4.8413,3.0508,7.279,-0.0307,0.029,-0.1156,-1.5861369572081507,0.0,2.2543654441833496,-1.5680572986602783,-0.0,2.178755760192871,4.081520243281982,0.0,0.26391297578811646,-1.303598705922262,0.0,-0.04124193266034126,0.007200241554528475,0.0,-0.006192714907228947,1.3192805051803589,0.0,0.04185737296938896
265.0,377.0,4.8413,3.0508,7.279,-0.0307,0.029,-0.1156,-1.5861088238158167,0.0,2.276472806930542,-1.5680255889892578,-0.0,2.186042070388794,4.081540747279785,0.0,0.26758795976638794,-1.303610626851217,0.0,-0.03747984766960144,0.007188259623944759,0.0,-0.011102830991148949,1.3193284273147583,0.0,-0.044155996292829514
265.0,377.0,4.8413,3.0508,7.279,-0.0307,0.029,-0.1156,-1.5860887966551722,0.0,2.2873928546905518,-1.568021535873413,-0.0,2.1908247470855713,4.081456347102783,0.0,0.2632204592227936,-1.3036144415484827,0.0,-0.034674156457185745,0.007188304327428341,0.0,-0.009366755373775959,1.3192845582962036,0.0,0.014514374546706676
265.0,377.0,4.8413,3.0508,7.279,-0.0307,0.029,-0.1156,-1.5860768757262171,0.0,2.2443630695343018,-1.5680333375930786,-0.0,2.1856191158294678,4.081463976497314,0.0,0.26351869106292725,-1.3036349455462855,0.0,-0.030146349221467972,0.007184187415987253,0.0,-0.005712957587093115,1.3192726373672485,0.0,-0.0174051895737648
265.0,377.0,4.8413,3.0508,7.279,-0.0307,0.029,-0.1156,-1.5860806904234828,0.0,2.2350175380706787,-1.5680292844772339,-0.0,2.163804054260254,4.081520243281982,0.0,0.2615504860877991,-1.3036144415484827,0.0,-0.021141573786735535,0.007180142216384411,0.0,-0.0014670107048004866,1.319252848625183,0.0,0.007683532312512398
265.0,377.0,4.8413,3.0508,7.279,-0.0307,0.029,-0.1156,-1.5861088238158167,0.0,2.251100540161133,-1.568037509918213,-0.0,2.1608121395111084,4.081536455745361,0.0,0.2558140158653259,-1.3036068121539515,0.0,-0.017711125314235687,0.007171978242695332,0.0,-0.01275076624006033,1.3192448616027832,0.0,-0.021339137107133865
265.0,377.0,4.8413,3.0508,7.279,-0.0307,0.029,-0.1156,-1.5861693821349085,0.0,2.2736477851867676,-1.5680218935012817,-0.0,2.1887402534484863,4.081492109889648,0.0,0.24734002351760864,-1.303610626851217,0.0,-0.02817763201892376,0.007155589293688536,0.0,-0.0014890632592141628,1.3192726373672485,0.0,0.04801223799586296
265.0,377.0,4.8413,3.0508,7.279,-0.0307,0.029,-0.1156,-1.5861407719054164,0.0,2.2784197330474854,-1.5679930448532104,-0.0,2.145700216293335,4.081520243281982,0.0,0.2731861472129822,-1.303586784993307,0.0,-0.032355569303035736,0.007220316678285599,0.0,-0.005677258595824242,1.319292426109314,0.0,-0.018609775230288506
269.0,8190.0,4.8993,3.0281,7.3908,-0.0356,0.0359,-0.1243,-1.5861369572081507,0.0,2.2448980808258057,-1.568021535873413,-0.0,2.1343142986297607,4.0815321642109375,0.0,0.25816482305526733,-1.3036468664752405,0.0,-0.03521786630153656,0.007224417757242918,0.0,-0.009897327050566673,1.319304347038269,0.0,0.015525941736996174
269.0,8190.0,4.8993,3.0281,7.3908,-0.0356,0.0359,-0.1243,-1.5861450634398402,0.0,2.2110774517059326,-1.5680055618286133,-0.0,2.1757709980010986,4.081476374263428,0.0,0.2614379823207855,-1.3036068121539515,0.0,-0.03271545097231865,0.007212505210191011,0.0,-0.0010717191034927964,1.3192963600158691,0.0,0.024076513946056366
269.0,8190.0,4.8993,3.0281,7.3908,-0.0356,0.0359,-0.1243,-1.58612122158193,0.0,2.259061336517334,-1.5680572986602783,-0.0,2.1852564811706543,4.0815321642109375,0.0,0.25544899702072144,-1.3036225477801722,0.0,-0.03415423631668091,0.0071961162611842155,0.0,-0.004791101906448603,1.3192765712738037,0.0,-0.036376215517520905
269.0,8190.0,4.8993,3.0281,7.3908,-0.0356,0.0359,-0.1243,-1.5860845051207484,0.0,2.2315683364868164,-1.5680499076843262,-0.0,2.185225248336792,4.081472082729004,0.0,0.2527315616607666,-1.303598705922262,0.0,-0.03561928868293762,0.007155980449169874,0.0,-0.0001626778393983841,1.319304347038269,0.0,0.019902322441339493
269.0,8190.0,4.8993,3.0281,7.3908,-0.0356,0.0359,-0.1243,-1.5861369572081507,0.0,2.2379844188690186,-1.5680540800094604,-0.0,2.1750171184539795,4.081487818355225,0.0,0.254306823015213,-1.303638760243551,0.0,-0.03752264007925987,0.007200213614851236,0.0,-0.00821004994213581,1.3192805051803589,0.0,-0.0061851427890360355
269.0,8190.0,4.8993,3.0281,7.3908,-0.0356,0.0359,-0.1243,-1.586177488366598,0.0,2.283975839614868,-1.5679888725280762,-0.0,2.150664806365967,4.081507845515869,0.0,0.25974103808403015,-1.3036511580096644,0.0,-0.04099220782518387,0.00723221292719245,0.0,-0.02498498372733593,1.3192567825317383,0.0,0.043872151523828506
269.0,8190.0,4.8993,3.0281,7.3908,-0.0356,0.0359,-0.1243,-1.5861293278136195,0.0,2.2714028358459473,-1.5679775476455688,-0.0,2.178865432739258,4.081536455745361,0.0,0.25590780377388,-1.3036468664752405,0.0,-0.032419219613075256,0.007212138269096613,0.0,-0.0061653293669223785,1.319304347038269,0.0,-0.01003195159137249
269.0,8190.0,4.8993,3.0281,7.3908,-0.0356,0.0359,-0.1243,-1.5861007175841273,0.0,2.2673721313476562,-1.5680136680603027,-0.0,2.184349536895752,4.081484003657959,0.0,0.26640981435775757,-1.3036068121539515,0.0,-0.041592344641685486,0.00721252104267478,0.0,-0.020367268472909927,1.319292426109314,0.0,0.008425155654549599
269.0,8190.0,4.8993,3.0281,7.3908,-0.0356,0.0359,-0.1243,-1.5861007175841273,0.0,2.2818403244018555,-1.5680540800094604,-0.0,2.1241507530212402,4.081536455745361,0.0,0.2636217772960663,-1.3036306540118616,0.0,-0.02841053158044815,0.007175983861088753,0.0,-0.011945873498916626,1.3192765712738037,0.0,0.058210503309965134
269.0,8190.0,4.8993,3.0281,7.3908,-0.0356,0.0359,-0.1243,-1.5861450634398402,0.0,2.2783050537109375,-1.5680572986602783,-0.0,2.1558847427368164,4.081524057979248,0.0,0.26054784655570984,-1.3036225477801722,0.0,-0.03286612778902054,0.007212138269096613,0.0,-0.003369478043168783,1.3193004131317139,0.0,0.0063552409410476685
269.0,8190.0,4.8993,3.0281,7.3908,-0.0356,0.0359,-0.1243,-1.5860969028868617,0.0,2.2372937202453613,-1.5680333375930786,-0.0,2.193443775177002,4.081463976497314,0.0,0.244903102517128,-1.3036192099200647,0.0,-0.0320909209549427,0.007256684824824333,0.0,-0.010418267920613289,1.3193166255950928,0.0,0.0002633295953273773
269.0,8190.0,4.8993,3.0281,7.3908,-0.0356,0.0359,-0.1243,-1.5861088238158167,0.0,2.2368597984313965,-1.5680415630340576,-0.0,2.15382719039917,4.081520243281982,0.0,0.26265180110931396,-1.3036225477801722,0.0,-0.04172424226999283,0.007212138269096613,0.0,0.000611169496551156,1.3192687034606934,0.0,0.01690012402832508
269.0,8190.0,4.8993,3.0281,7.3908,-0.0356,0.0359,-0.1243,-1.5861293278136195,0.0,2.2361745834350586,-1.5680540800094604,-0.0,2.17026424407959,4.081495924586914,0.0,0.26546597480773926,-1.303614918385641,0.0,-0.03902679681777954,0.007219900377094746,0.0,-0.01004729326814413,1.3193244934082031,0.0,0.008098847232758999
269.0,8190.0,4.8993,3.0281,7.3908,-0.0356,0.0359,-0.1243,-1.586132665673727,0.0,2.253605604171753,-1.5680776834487915,-0.0,2.1293511390686035,4.081484003657959,0.0,0.27049699425697327,-1.303610626851217,0.0,-0.022963590919971466,0.007191965356469154,0.0,-0.013211257755756378,1.3193082809448242,0.0,-0.055240873247385025
269.0,8190.0,4.8993,3.0281,7.3908,-0.0356,0.0359,-0.1243,-1.5860725841917933,0.0,2.246082067489624,-1.5680497884750366,-0.0,2.1684327125549316,4.081507845515869,0.0,0.2587839961051941,-1.3036511580096644,0.0,-0.03965587541460991,0.007212529890239239,0.0,-0.00744283851236105,1.319320559501648,0.0,0.014090580865740776
245.0,8190.0,5.0094,3.1023,7.3095,-0.0363,0.0228,-0.1167,-1.5861131153502406,0.0,2.244337320327759,-1.5680415630340576,-0.0,2.1904962062835693,4.081512137050293,0.0,0.25953564047813416,-1.303643051777975,0.0,-0.025244323536753654,0.007212489377707243,0.0,-0.012765448540449142,1.3193283081054688,0.0,-0.04065776616334915
245.0,8190.0,5.0094,3.1023,7.3095,-0.0363,0.0228,-0.1167,-1.5861088238158167,0.0,2.3009095191955566,-1.5680415630340576,-0.0,2.1714327335357666,4.081495924586914,0.0,0.2601974904537201,-1.303610626851217,0.0,-0.03403204679489136,0.007208371069282293,0.0,0.0009791128104552627,1.319312572479248,0.0,0.01400947105139494
245.0,8190.0,5.0094,3.1023,7.3095,-0.0363,0.0228,-0.1167,-1.586132665673727,0.0,2.2557592391967773,-1.568009614944458,-0.0,2.1645073890686035,4.08149163305249,0.0,0.2525556683540344,-1.303638760243551,0.0,-0.02215261571109295,0.007216190453618765,0.0,0.007604045793414116,1.3192687034606934,0.0,-0.023276304826140404
245.0,8190.0,5.0094,3.1023,7.3095,-0.0363,0.0228,-0.1167,-1.5861407719054164,0.0,2.2012128829956055,-1.568017840385437,-0.0,2.196640968322754,4.081524534816406,0.0,0.2709624171257019,-1.303626839314596,0.0,-0.023946452885866165,0.007256684824824333,0.0,-0.0013003918575122952,1.3192646503448486,0.0,-0.02996882237493992
245.0,8190.0,5.0094,3.1023,7.3095,-0.0363,0.0228,-0.1167,-1.5861255131163539,0.0,2.2002785205841064,-1.5680173635482788,-0.0,2.2049570083618164,4.081580324763916,0.0,0.2552303075790405,-1.303638760243551,0.0,-0.037520091980695724,0.007200208958238363,0.0,0.0019163284450769424,1.3193082809448242,0.0,0.029494455084204674
245.0,8190.0,5.0094,3.1023,7.3095,-0.0363,0.0228,-0.1167,-1.5861450634398402,0.0,2.2443556785583496,-1.5680456161499023,-0.0,2.181206226348877,4.0815321642109375,0.0,0.26972365379333496,-1.3036349455462855,0.0,-0.020745348185300827,0.007208404131233692,0.0,-0.005070251878350973,1.3192884922027588,0.0,-0.0070847999304533005
245.0,8190.0,5.0094,3.1023,7.3095,-0.0363,0.0228,-0.1167,-1.5860926113524378,0.0,2.2643914222717285,-1.5680296421051025,-0.0,2.159824848175049,4.0815040308186035,0.0,0.2649954855442047,-1.3036225477801722,0.0,-0.039457257837057114,0.0071924058720469475,0.0,0.007235231343656778,1.3192765712738037,0.0,0.02274448424577713
245.0,8190.0,5.0094,3.1023,7.3095,-0.0363,0.0228,-0.1167,-1.586104532281393,0.0,2.2745842933654785,-1.568061351776123,-0.0,2.164572238922119,4.081520243281982,0.0,0.2542816698551178,-1.303638760243551,0.0,-0.03658606484532356,0.007176096551120281,0.0,-0.010390239767730236,1.3193004131317139,0.0,-0.02097836136817932
245.0,8190.0,5.0094,3.1023,7.3095,-0.0363,0.0228,-0.1167,-1.5861131153502406,0.0,2.239830493927002,-1.5679973363876343,-0.0,2.156130790710449,4.081564589137695,0.0,0.2607380747795105,-1.3036225477801722,0.0,-0.026841934770345688,0.007200176361948252,0.0,0.00039618031587451696,1.3193082809448242,0.0,0.013926167972385883
245.0,8190.0,5.0094,3.1023,7.3095,-0.0363,0.0228,-0.1167,-1.5861255131163539,0.0,2.268890857696533,-1.568077802658081,-0.0,2.169612407684326,4.081524534816406,0.0,0.25974979996681213,-1.303586784993307,0.0,-0.04093141853809357,0.007167937699705362,0.0,-0.002366737462580204,1.3192687034606934,0.0,0.036862608045339584
245.0,8190.0,5.0094,3.1023,7.3095,-0.0363,0.0228,-0.1167,-1.5861169300475062,0.0,2.2546591758728027,-1.5680012702941895,-0.0,2.256223678588867,4.081520243281982,0.0,0.2628048062324524,-1.303626839314596,0.0,-0.039402857422828674,0.007232192903757095,0.0,0.0028582103550434113,1.3193442821502686,0.0,-0.003132742829620838
245.0,8190.0,5.0094,3.1023,7.3095,-0.0363,0.0228,-0.1167,-1.5861007175841273,0.0,2.216712236404419,-1.5680499076843262,-0.0,2.1759033203125,4.08149973928418,0.0,0.26348382234573364,-1.303610626851217,0.0,-0.02518189325928688,0.007183827925473452,0.0,0.0009579345351085067,1.3192687034606934,0.0,-0.017415447160601616
245.0,8190.0,5.0094,3.1023,7.3095,-0.0363,0.0228,-0.1167,-1.5861255131163539,0.0,2.2465083599090576,-1.568069577217102,-0.0,2.147082805633545,4.0815321642109375,0.0,0.26503410935401917,-1.303598705922262,0.0,-0.03384346887469292,0.007167901378124952,0.0,-0.012328427284955978,1.3192484378814697,0.0,-0.013027500361204147
245.0,8190.0,5.0094,3.1023,7.3095,-0.0363,0.0228,-0.1167,-1.586161275903219,0.0,2.2412631511688232,-1.5680900812149048,-0.0,2.191307544708252,4.081544561977051,0.0,0.25460296869277954,-1.303626839314596,0.0,-0.028602464124560356,0.007248531095683575,0.0,-0.004874281585216522,1.3193284273147583,0.0,0.006813729181885719
245.0,8190.0,5.0094,3.1023,7.3095,-0.0363,0.0228,-0.1167,-1.586104532281393,0.0,2.220154047012329,-1.5680333375930786,-0.0,2.210732936859131,4.081552191371582,0.0,0.2644463777542114,-1.303638760243551,0.0,-0.03892863169312477,0.0072243851609528065,0.0,0.0003883517347276211,1.3192963600158691,0.0,0.05712639540433884
245.0,8190.0,5.0094,3.1023,7.3095,-0.0363,0.0228,-0.1167,-1.5860969028868617,0.0,2.2175588607788086,-1.5680292844772339,-0.0,2.1460206508636475,4.081528349513672,0.0,0.25797516107559204,-1.3036592642413538,0.0,-0.022842174395918846,0.00720468582585454,0.0,-0.02602100744843483,1.3193284273147583,0.0,-0.007105476222932339
272.0,8190.0,4.9753,3.0688,7.2317,-0.027,0.0275,-0.119,-1.5861131153502406,0.0,2.2876667976379395,-1.5679889917373657,-0.0,2.2071542739868164,4.081564112300537,0.0,0.26716068387031555,-1.303598705922262,0.0,-0.04147952049970627,0.007272707298398018,0.0,-0.02117665484547615,1.319292426109314,0.0,0.007529892027378082
272.0,8190.0,4.9753,3.0688,7.2317,-0.027,0.0275,-0.119,-1.5861007175841273,0.0,2.247030735015869,-1.5680055618286133,-0.0,2.197317123413086,4.0815159517475585,0.0,0.2643823027610779,-1.303643051777975,0.0,-0.036252476274967194,0.007236289791762829,0.0,-0.009700462222099304,1.3192765712738037,0.0,-0.013259630650281906
272.0,8190.0,4.9753,3.0688,7.2317,-0.027,0.0275,-0.119,-1.5860887966551722,0.0,2.2723350524902344,-1.5680255889892578,-0.0,2.193617582321167,4.08149973928418,0.0,0.2632465362548828,-1.303643051777975,0.0,-0.03814597427845001,0.0071961404755711555,0.0,-0.007051385939121246,1.3193004131317139,0.0,0.005235487129539251
272.0,8190.0,4.9753,3.0688,7.2317,-0.027,0.0275,-0.119,-1.5861169300475062,0.0,2.223714590072632,-1.5680131912231445,-0.0,2.126812696456909,4.081495924586914,0.0,0.26909294724464417,-1.3036311308490198,0.0,-0.028878076002001762,0.007256684824824333,0.0,-0.006646050605922937,1.3192687034606934,0.0,0.029460029676556587
272.0,8190.0,4.9753,3.0688,7.2317,-0.027,0.0275,-0.119,-1.5860845051207484,0.0,2.254699468612671,-1.5680581331253052,-0.0,2.191324234008789,4.081492109889648,0.0,0.26645562052726746,-1.303643051777975,0.0,-0.03985033929347992,0.007248531095683575,0.0,-0.016774574294686317,1.319292426109314,0.0,0.0077565377578139305
272.0,8190.0,4.9753,3.0688,7.2317,-0.027,0.0275,-0.119,-1.5860887966551722,0.0,2.2534985542297363,-1.5680736303329468,-0.0,2.1406302452087402,4.081524057979248,0.0,0.25779691338539124,-1.303614918385641,0.0,-0.02646675705909729,0.007272682618349791,0.0,-0.014764538034796715,1.3192726373672485,0.0,0.040999725461006165
272.0,8190.0,4.9753,3.0688,7.2317,-0.027,0.0275,-0.119,-1.5860926113524378,0.0,2.253450870513916,-1.5680540800094604,-0.0,2.1750621795654297,4.081512137050293,0.0,0.2665136158466339,-1.3036392370807093,0.0,-0.02659860998392105,0.007188296411186457,0.0,-0.0008856725180521607,1.3192963600158691,0.0,-0.011040464043617249
272.0,8190.0,4.9753,3.0688,7.2317,-0.027,0.0275,-0.119,-1.586104532281393,0.0,2.2440285682678223,-1.568001389503479,6.602710982406279e-07,2.179769277572632,4.081492109889648,0.0,0.25790369510650635,-1.303643051777975,0.0,-0.03440985083580017,0.007240367121994495,0.0,-0.005528650246560574,1.3193004131317139,0.0,0.004307725001126528
272.0,8190.0,4.9753,3.0688,7.2317,-0.027,0.0275,-0.119,-1.586076398889059,0.0,2.217125177383423,-1.568009614944458,1.594477046056031e-12,2.1550204753875732,4.08158461629834,0.0,0.26103660464286804,-1.303626839314596,0.0,-0.02377258986234665,0.007184219546616077,0.0,-0.018100200220942497,1.319304347038269,0.0,-0.014124710112810135
272.0,8190.0,4.9753,3.0688,7.2317,-0.027,0.0275,-0.119,-1.5861369572081507,0.0,2.240344524383545,-1.56806218624115,3.850473639055753e-18,2.1428868770599365,4.081536455745361,0.0,0.2662371098995209,-1.303610626851217,0.0,-0.02203242853283882,0.007200217340141535,0.0,0.0062803346663713455,1.3192963600158691,0.0,-0.015148510225117207
272.0,8190.0,4.9753,3.0688,7.2317,-0.027,0.0275,-0.119,-1.5861007175841273,0.0,2.2536697387695312,-1.568021535873413,6.930716333363631e-22,2.1721503734588623,4.081547899837158,0.0,0.2505377531051636,-1.3035948912249964,0.0,-0.028296062722802162,0.007192373275756836,0.0,-0.013616162352263927,1.3192567825317383,0.0,0.03910204768180847
272.0,8190.0,4.9753,3.0688,7.2317,-0.027,0.0275,-0.119,-1.5860887966551722,0.0,2.2587151527404785,-1.5680255889892578,1.6736868551179564e-27,2.1730291843414307,4.08149973928418,0.0,0.25191402435302734,-1.303614918385641,0.0,-0.03267432004213333,0.007180213928222656,0.0,-0.002463460899889469,1.3192845582962036,0.0,0.013924242928624153
272.0,8190.0,4.9753,3.0688,7.2317,-0.027,0.0275,-0.119,-1.58612122158193,0.0,2.269533634185791,-1.5680456161499023,4.041757327729966e-33,2.2096898555755615,4.081488295192383,0.0,0.25967729091644287,-1.303598705922262,0.0,-0.03315599262714386,0.007196531631052494,0.0,-0.010572444647550583,1.3193442821502686,0.0,0.03821933642029762
272.0,8190.0,4.9753,3.0688,7.2317,-0.027,0.0275,-0.119,-1.5861131153502406,0.0,2.259241819381714,-1.5680900812149048,9.760368905266074e-39,2.1698479652404785,4.081552191371582,0.0,0.2587604224681854,-1.3036225477801722,0.0,-0.034323398023843765,0.007192373275756836,0.0,-0.013804350048303604,1.3193004131317139,0.0,0.020657338201999664
272.0,8190.0,4.9753,3.0688,7.2317,-0.027,0.0275,-0.119,-1.5861450634398402,0.0,2.2291102409362793,-1.5680540800094604,2.382207389352189e-44,2.1842288970947266,4.081512137050293,0.0,0.2583904266357422,-1.303626839314596,0.0,-0.03881388157606125,0.007212529890239239,0.0,-0.01006172876805067,1.3192607164382935,0.0,0.026402011513710022
261.0,8190.0,4.9741,3.0885,7.4979,-0.0438,0.0287,-0.1232,-1.5861131153502406,0.0,2.2646448612213135,-1.5679931640625,-0.0,2.1742429733276367,4.081528349513672,0.0,0.27390527725219727,-1.3035743872271937,0.0,-0.030051743611693382,0.007155980449169874,0.0,-0.004551348742097616,1.3192884922027588,0.0,-0.0017378735356032848
261.0,8190.0,4.9741,3.0885,7.4979,-0.0438,0.0287,-0.1232,-1.5861255131163539,0.0,2.2511351108551025,-1.5680218935012817,-0.0,2.1320009231567383,4.081484003657959,0.0,0.2606460154056549,-1.303643051777975,0.0,-0.03924316540360451,0.007180142216384411,0.0,-0.016593415290117264,1.319292426109314,0.0,0.020071234554052353
261.0,8190.0,4.9741,3.0885,7.4979,-0.0438,0.0287,-0.1232,-1.5861255131163539,0.0,2.246868371963501,-1.5680255889892578,-0.0,2.186009645462036,4.081484003657959,0.0,0.2593548595905304,-1.3035786787616175,0.0,-0.031119631603360176,0.007184219546616077,0.0,-0.009192980825901031,1.3193126916885376,0.0,0.03896286338567734
261.0,8190.0,4.9741,3.0885,7.4979,-0.0438,0.0287,-0.1232,-1.586137434045309,0.0,2.26293683052063,-1.5680296421051025,-0.0,2.155717372894287,4.08149973928418,0.0,0.2607113718986511,-1.3036511580096644,0.0,-0.03217131644487381,0.007184219546616077,0.0,0.0004365970380604267,1.3192687034606934,0.0,0.052061501890420914
261.0,8190.0,4.9741,3.0885,7.4979,-0.0438,0.0287,-0.1232,-1.5861088238158167,0.0,2.2374250888824463,-1.5680415630340576,8.823160169413313e-05,2.191993236541748,4.081492109889648,0.0,0.2546914517879486,-1.303638760243551,0.0,-0.030598264187574387,0.007207971066236496,0.0,-0.007549152243882418,1.3192963600158691,0.0,-0.0022688645403832197
261.0,8190.0,4.9741,3.0885,7.4979,-0.0438,0.0287,-0.1232,-1.5861169300475062,0.0,2.220946788787842,-1.5679857730865479,0.0001613605854799971,2.184215784072876,4.081524057979248,0.0,0.26432570815086365,-1.3036468664752405,0.0,-0.02896292135119438,0.007228527683764696,0.0,-0.014688421040773392,1.3193483352661133,0.0,-0.030299482867121696
261.0,8190.0,4.9741,3.0885,7.4979,-0.0438,0.0287,-0.1232,-1.5860849819579066,0.0,2.24299693107605,-1.5679495334625244,0.00017969981126952916,2.1701035499572754,4.0815040308186035,0.0,0.25873813033103943,-1.3036673704730433,0.0,-0.04788839444518089,0.007167901378124952,0.0,-0.00462322635576129,1.3192405700683594,0.0,0.009372411295771599
261.0,8190.0,4.9741,3.0885,7.4979,-0.0438,0.0287,-0.1232,-1.5860887966551722,0.0,2.247302532196045,-1.5680338144302368,0.00048653007252141833,2.165243148803711,4.081564112300537,0.0,0.2631242275238037,-1.303598705922262,0.0,-0.021457098424434662,0.007151428144425154,0.0,-0.006014476530253887,1.3193442821502686,0.0,-0.03598453477025032
261.0,8190.0,4.9741,3.0885,7.4979,-0.0438,0.0287,-0.1232,-1.5860768757262171,0.0,2.230548143386841,-1.568001389503479,0.00044075361802242696,2.192999839782715,4.081524534816406,0.0,0.25993382930755615,-1.303638760243551,0.0,-0.03465661406517029,0.007216215133666992,0.0,-0.010603697039186954,1.3193244934082031,0.0,-0.005636448971927166
261.0,8190.0,4.9741,3.0885,7.4979,-0.0438,0.0287,-0.1232,-1.5860926113524378,0.0,2.2431766986846924,-1.5679816007614136,0.00035407033283263445,2.1978490352630615,4.081540747279785,0.0,0.2694796025753021,-1.3036511580096644,0.0,-0.030634697526693344,0.007200217340141535,0.0,-0.0049924119375646114,1.319304347038269,0.0,-0.006354060024023056
261.0,8190.0,4.9741,3.0885,7.4979,-0.0438,0.0287,-0.1232,-1.5861293278136195,0.0,2.2115426063537598,-1.5679775476455688,0.0002958636323455721,2.2078213691711426,4.081500216121338,0.0,0.25798147916793823,-1.3036025206195276,0.0,-0.026709280908107758,0.0072042858228087425,0.0,-0.01929730921983719,1.3193364143371582,0.0,0.026465533301234245
261.0,8190.0,4.9741,3.0885,7.4979,-0.0438,0.0287,-0.1232,-1.58612122158193,0.0,2.218585252761841,-1.5680255889892578,0.00025409384397789836,2.1647684574127197,4.081480188960693,0.0,0.26070788502693176,-1.303638760243551,0.0,-0.03700997680425644,0.0072445254772901535,0.0,-0.014441498555243015,1.3192805051803589,0.0,-0.00011287489905953407
261.0,8190.0,4.9741,3.0885,7.4979,-0.0438,0.0287,-0.1232,-1.5860969028868617,0.0,2.2133777141571045,-1.5680055618286133,0.00022266045561991632,2.2212352752685547,4.081492109889648,0.0,0.25866982340812683,-1.3036349455462855,0.0,-0.0345105342566967,0.007171978708356619,0.0,-0.025582535192370415,1.3192765712738037,0.0,0.006508284248411655
261.0,8190.0,4.9741,3.0885,7.4979,-0.0438,0.0287,-0.1232,-1.5860606632628382,0.0,2.201202154159546,-1.568009376525879,0.000205696327611804,2.175762176513672,4.08149973928418,0.0,0.25800806283950806,-1.303570572529928,0.0,-0.03447908163070679,0.007228527683764696,0.0,-0.011051783338189125,1.3192687034606934,0.0,0.010336440056562424
261.0,8190.0,4.9741,3.0885,7.4979,-0.0438,0.0287,-0.1232,-1.586128374139303,0.0,2.245163679122925,-1.5680012702941895,0.00018460019782651216,2.2097091674804688,4.081520243281982,0.0,0.27061140537261963,-1.3036349455462855,0.0,-0.03456711024045944,0.00719198165461421,0.0,-0.006070684175938368,1.3193166255950928,0.0,0.03212403506040573
254.0,343.0,4.8371,2.9294,7.325,-0.0426,0.04,-0.1164,-1.5861450634398402,0.0,2.278240919113159,-1.5679816007614136,0.00016742918523959816,2.2191874980926514,4.0814758974262695,0.0,0.25919318199157715,-1.3036635557757776,0.0,-0.037602897733449936,0.007176055572926998,0.0,-0.010779635049402714,1.3192963600158691,0.0,0.015219127759337425
254.0,343.0,4.8371,2.9294,7.325,-0.0426,0.04,-0.1164,-1.5860926113524378,0.0,2.2290520668029785,-1.5679938793182373,0.0001531807502033189,2.1966326236724854,4.081507845515869,0.0,0.25713983178138733,-1.3036029974566858,0.0,-0.029860489070415497,0.007192373275756836,0.0,-0.019603710621595383,1.3193004131317139,0.0,0.018503602594137192
254.0,343.0,4.8371,2.9294,7.325,-0.0426,0.04,-0.1164,-1.5861369572081507,0.0,2.2487220764160156,-1.568017840385437,0.00014116727106738836,2.1546530723571777,4.081528349513672,0.0,0.26497137546539307,-1.3036311308490198,0.0,-0.03750273585319519,0.0072202919982373714,0.0,-0.0042000701650977135,1.319332480430603,0.0,-0.0031598564237356186
254.0,343.0,4.8371,2.9294,7.325,-0.0426,0.04,-0.1164,-1.586132665673727,0.0,2.2840070724487305,-1.5680538415908813,0.00013090124411974102,2.1550447940826416,4.081524057979248,0.0,0.2666465640068054,-1.303598705922262,0.0,-0.03260998800396919,0.007268605753779411,0.0,0.003883781610056758,1.3193403482437134,0.0,0.009304020553827286
254.0,343.0,4.8371,2.9294,7.325,-0.0426,0.04,-0.1164,-1.5861369572081507,0.0,2.263676643371582,-1.5680423974990845,0.000122027013276238,2.1715035438537598,4.081492109889648,0.0,0.2673483192920685,-1.3036068121539515,0.0,-0.030139222741127014,0.007176055572926998,0.0,-0.00912337563931942,1.319312572479248,0.0,0.024502858519554138
254.0,343.0,4.8371,2.9294,7.325,-0.0426,0.04,-0.1164,-1.5861369572081507,0.0,2.2206366062164307,-1.5680012702941895,0.00011427982099121436,2.188685894012451,4.081471605891846,0.0,0.2619927227497101,-1.303610626851217,0.0,-0.0353429950773716,0.0071359057910740376,0.0,-0.014001719653606415,1.3193166255950928,0.0,0.026342162862420082
254.0,343.0,4.8371,2.9294,7.325,-0.0426,0.04,-0.1164,-1.5861007175841273,0.0,2.272310256958008,-1.568009614944458,0.00010745754843810573,2.2155539989471436,4.0815321642109375,0.0,0.2714079022407532,-1.303610626851217,0.0,-0.029451068490743637,0.007132220081984997,0.0,-0.01628103479743004,1.319312572479248,0.0,0.02601838856935501
254.0,343.0,4.8371,2.9294,7.325,-0.0426,0.04,-0.1164,-1.586149354974264,0.0,2.2522592544555664,-1.5680378675460815,0.00010334455146221444,2.1456167697906494,4.08149973928418,0.0,0.27235332131385803,-1.30365497270693,0.0,-0.022268548607826233,0.007180142216384411,0.0,-0.0032010513823479414,1.3193364143371582,0.0,-0.006721884943544865
254.0,343.0,4.8371,2.9294,7.325,-0.0426,0.04,-0.1164,-1.5861088238158167,0.0,2.2400593757629395,-1.5680218935012817,9.773358033271506e-05,2.1588118076324463,4.0815321642109375,0.0,0.26153913140296936,-1.3036311308490198,0.0,-0.022082766517996788,0.007188296411186457,0.0,-0.005449129268527031,1.3192964792251587,0.0,0.014459865167737007
254.0,343.0,4.8371,2.9294,7.325,-0.0426,0.04,-0.1164,-1.58612122158193,0.0,2.2344279289245605,-1.568017840385437,9.27002402022481e-05,2.1621994972229004,4.0815321642109375,0.0,0.2535855770111084,-1.303638760243551,0.0,-0.025460436940193176,0.007196531631052494,0.0,-0.00490910978987813,1.3193284273147583,0.0,0.017259910702705383
254.0,343.0,4.8371,2.9294,7.325,-0.0426,0.04,-0.1164,-1.5861293278136195,0.0,2.234039783477783,-1.5680460929870605,0.00010285315511282533,2.1419808864593506,4.081524057979248,0.0,0.24962863326072693,-1.3036225477801722,0.0,-0.026950392872095108,0.007171978242695332,0.0,-0.010660271160304546,1.319292426109314,0.0,0.01570115238428116
254.0,343.0,4.8371,2.9294,7.325,-0.0426,0.04,-0.1164,-1.586149354974264,0.0,2.260383367538452,-1.567973256111145,0.00011203624308109283,2.228393077850342,4.081511660213135,0.0,0.25249147415161133,-1.3036511580096644,0.0,-0.04200088232755661,0.007196531631052494,0.0,-0.006859746761620045,1.3193166255950928,0.0,0.056406985968351364
254.0,343.0,4.8371,2.9294,7.325,-0.0426,0.04,-0.1164,-1.5861369572081507,0.0,2.2165427207946777,-1.5679970979690552,8.838360372465104e-05,2.165585994720459,4.081492109889648,0.0,0.27080637216567993,-1.3036225477801722,0.0,-0.033729419112205505,0.007184219546616077,0.0,-0.010142745450139046,1.3192646503448486,0.0,-0.01083638146519661
254.0,343.0,4.8371,2.9294,7.325,-0.0426,0.04,-0.1164,-1.5862051449217738,-0.0001608363672858104,2.263737440109253,-1.5679693222045898,0.00011257288133492693,2.2162935733795166,4.08149973928418,0.0,0.2650866210460663,-1.303638760243551,0.0,-0.03361470252275467,0.007171978242695332,0.0,-0.0011051456676796079,1.3193284273147583,0.0,0.0017430316656827927
254.0,343.0,4.8371,2.9294,7.325,-0.0426,0.04,-0.1164,-1.5861731968321742,-0.0023315034341067076,2.2071893215179443,-1.5680053234100342,0.0007747673080302775,2.1815431118011475,4.081528349513672,0.0,0.2536901831626892,-1.3036225477801722,0.0,-0.03498010337352753,0.00723221292719245,0.0,-0.010455276817083359,1.3193364143371582,0.0,-0.04182964563369751
254.0,343.0,4.8371,2.9294,7.325,-0.0426,0.04,-0.1164,-1.5861689052977503,-0.0024582394398748875,2.2267348766326904,-1.5680062770843506,0.0007467690156772733,2.197794198989868,4.0815321642109375,3.406915425330226e-07,0.2650468349456787,-1.3036912123309534,0.0,-0.027084439992904663,0.007183827925473452,0.0,0.0034566051326692104,1.3193086385726929,0.0,0.005362370517104864
252.0,310.0,5.1027,3.2183,7.2341,-0.0365,0.0144,-0.1193,-1.586156507531637,-0.002036552643403411,2.2278945446014404,-1.567941665649414,0.00170258863363415,2.142343044281006,4.081620379085205,0.0015232189325615764,0.2507985830307007,-1.3036912123309534,6.54463905291891e-09,-0.031250759959220886,0.007252607960253954,0.0,0.009400179609656334,1.3193684816360474,0.00013232858327683061,-0.024296212941408157
252.0,310.0,5.1027,3.2183,7.2341,-0.0365,0.0144,-0.1193,-1.5861770115294398,-0.0005554640665650368,2.282747268676758,-1.5678980350494385,0.007345974911004305,2.1678311824798584,4.081563635463379,0.001976440194994211,0.26029977202415466,-1.3036745230304163,1.821724195105734e-12,-0.028278879821300507,0.007208371069282293,0.0,0.00288414373062551,1.3193604946136475,0.004156914073973894,0.052402742207050323
252.0,310.0,5.1027,3.2183,7.2341,-0.0365,0.0144,-0.1193,-1.5862332783141078,-0.00013170017336960882,2.2637343406677246,-1.567805528640747,0.012074305675923824,2.2273850440979004,4.081567926997803,0.0011330252746120095,0.26462146639823914,-1.3036988417254847,5.07083579532957e-16,-0.03178442269563675,0.00724029541015625,0.0,0.0006317045772448182,1.3193843364715576,0.005027194041758776,-0.016730496659874916
252.0,310.0,5.1027,3.2183,7.2341,-0.0365,0.0144,-0.1193,-1.5861407719054164,-3.194211967638694e-05,2.274104595184326,-1.5677578449249268,0.012177566066384315,2.2066197395324707,4.081575556392334,0.0005993691738694906,0.26611092686653137,-1.3037150541888636,1.4114857461179425e-19,-0.03271356597542763,0.00720468582585454,0.0,-0.01522156409919262,1.3194242715835571,0.004499967209994793,0.015499865636229515
252.0,310.0,5.1027,3.2183,7.2341,-0.0365,0.0144,-0.1193,-1.5861245594420375,-7.713645000517744e-11,2.294827938079834,-1.5676945447921753,0.011354652233421803,2.219123125076294,4.081639452571533,0.000876055215485394,0.2656388580799103,-1.303735081349508,3.9289223695419735e-23,-0.027911178767681122,0.007204294204711914,0.0,-0.00241294433362782,1.3195242881774902,0.004152445122599602,0.020007731392979622
252.0,310.0,5.1027,3.2183,7.2341,-0.0365,0.0144,-0.1193,-1.5861646137633265,-1.8627542264899687e-16,2.1993038654327393,-1.5676220655441284,0.012707503512501717,2.2237377166748047,4.081675692195557,0.003830089932307601,0.27346786856651306,-1.303718392048971,-0.00025215442292392254,-0.05167287588119507,0.007212126161903143,0.0,-0.01103778276592493,1.3194843530654907,0.0040354980155825615,0.012992944568395615
252.0,310.0,5.1027,3.2183,7.2341,-0.0365,0.0144,-0.1193,-1.5861526928343714,-4.498332268350087e-22,2.2649059295654297,-1.5675307512283325,0.012473750859498978,2.2042603492736816,4.081679506892822,0.004189029801636934,0.26745685935020447,-1.3037307898150843,-0.000274894991889596,-0.04205339401960373,0.0072125536389648914,0.0,-0.003656548447906971,1.31942880153656,0.003340338123962283,0.07065269351005554
252.0,310.0,5.1027,3.2183,7.2341,-0.0365,0.0144,-0.1193,-1.5862013302245082,-1.0862942072983878e-27,2.238729953765869,-1.5674142837524414,0.009068595245480537,2.2369883060455322,4.08174387990918,0.004501373041421175,0.2675153613090515,-1.3037427107440394,-0.0002784021489787847,-0.051733311265707016,0.007236218545585871,0.0,-0.010595891624689102,1.3195164203643799,0.0019508444238454103,0.08716855943202972
252.0,310.0,5.1027,3.2183,7.2341,-0.0365,0.0144,-0.1193,-1.5861407719054164,-2.6232726825583647e-33,2.2605233192443848,-1.5674142837524414,0.0053143249824643135,2.237866163253784,4.081760569209717,0.0032321822363883257,0.2773236632347107,-1.3037102858172815,-0.0002459530078340322,-0.06236386299133301,0.007220675237476826,0.0,-0.0016748171765357256,1.3195164203643799,0.0013724489836022258,0.08509564399719238
252.0,310.0,5.1027,3.2183,7.2341,-0.0365,0.0144,-0.1193,-1.5861646137633265,-4.721797817184069e-37,2.2625069618225098,-1.5673342943191528,0.003799672471359372,2.2174973487854004,4.081804438228271,0.0028988730628043413,0.27695000171661377,-1.3037427107440394,-0.00026057849754579365,-0.05577026307582855,0.007196531631052494,0.0,-0.0011208122596144676,1.3194727897644043,0.00135432172100991,0.13767032325267792
252.0,310.0,5.1027,3.2183,7.2341,-0.0365,0.0144,-0.1193,-1.5861851177611292,-1.1406569499604011e-42,2.2335424423217773,-1.5674386024475098,0.0021135429851710796,2.1862425804138184,4.081763430232666,0.0031206400599330664,0.2708567678928375,-1.3037670294391077,-0.0002979013661388308,-0.06092657893896103,0.007216215133666992,0.0,-0.007404832635074854,1.3195602893829346,0.0025807477068156004,0.138574481010437
252.0,310.0,5.1027,3.2183,7.2341,-0.0365,0.0144,-0.1193,-1.5861488781371058,0.0,2.2804603576660156,-1.5673989057540894,0.0006547172088176012,2.2251594066619873,4.081799193019531,0.002350797178223729,0.2787562608718872,-1.3037269751178187,-0.00028732503415085375,-0.05793679505586624,0.007200196385383606,0.0,-0.004883135668933392,1.3195563554763794,0.0032956383656710386,0.15495960414409637
252.0,310.0,5.1027,3.2183,7.2341,-0.0365,0.0144,-0.1193,-1.586149354974264,0.0,2.2732021808624268,-1.5674430131912231,0.00012255624460522085,2.2208681106567383,4.081795855159424,0.001424588612280786,0.2724878787994385,-1.3037226835833948,-0.0002574862737674266,-0.05908772349357605,0.0072244019247591496,0.0,-0.006657920777797699,1.319548487663269,0.002664953703060746,0.17064452171325684
252.0,310.0,5.1027,3.2183,7.2341,-0.0365,0.0144,-0.1193,-1.5861808262267054,0.0,2.2771501541137695,-1.567458987236023,8.698720921529457e-05,2.2337541580200195,4.081787272090576,0.0007704783347435296,0.2738463878631592,-1.3037427107440394,-0.00022525912208948284,-0.06876246631145477,0.007228527683764696,0.0,0.006400580517947674,1.3195164203643799,0.0016664476133883,0.18102315068244934
252.0,310.0,5.1027,3.2183,7.2341,-0.0365,0.0144,-0.1193,-1.5861851177611292,0.0,2.250903606414795,-1.5674105882644653,6.742862751707435e-05,2.2348544597625732,4.0817834573933105,0.0006907223141752183,0.28448763489723206,-1.303763214741842,-0.00020020015654154122,-0.07483600080013275,0.007228467147797346,0.0,-0.011857422068715096,1.3195405006408691,0.0010651311604306102,0.12623272836208344
262.0,349.0,3.9464,3.4857,7.1103,-0.0553,0.0435,-0.1133,-1.5862132511534632,0.0,2.2523722648620605,-1.5674468278884888,5.505242006620392e-05,2.2529006004333496,4.0818397241779785,0.0005277395830489695,0.27414464950561523,-1.3037431875811976,-0.00018015979730989784,-0.06575722992420197,0.007180142216384411,0.0,-0.006790263578295708,1.31950843334198,0.0007375448476523161,0.2180197685956955
262.0,349.0,3.9464,3.4857,7.1103,-0.0553,0.0435,-0.1133,-1.586149354974264,0.0,2.2406296730041504,-1.5674105882644653,9.112357656704262e-05,2.2524282932281494,4.081795378322266,0.00042168627260252833,0.27636754512786865,-1.3037307898150843,-0.00016376659914385527,-0.06065262109041214,0.007167901378124952,0.0,-0.007088175974786282,1.3195844888687134,0.0005641148309223354,0.17121011018753052
262.0,349.0,3.9464,3.4857,7.1103,-0.0553,0.0435,-0.1133,-1.5861159763731898,0.0,2.248603105545044,-1.5673987865447998,8.054167847149074e-05,2.200974225997925,4.081747217769287,0.00035114085767418146,0.2794053256511688,-1.3037107626544397,-0.00015010849165264517,-0.0754631906747818,0.0072243609465658665,0.0,-0.01310780644416809,1.3195207118988037,0.00039964812458492815,0.17628973722457886
262.0,349.0,3.9464,3.4857,7.1103,-0.0553,0.0435,-0.1133,-1.5861569843687953,0.00010985467088175938,2.23189377784729,-1.5673668384552002,0.00011487885058159009,2.237335443496704,4.081791563625,0.000300823274301365,0.2768196165561676,-1.3037269751178187,-0.00013855332508683205,-0.06322113424539566,0.007196531631052494,0.0,-0.0002219835587311536,1.3195682764053345,0.00033573980908840895,0.15066403150558472
262.0,349.0,3.9464,3.4857,7.1103,-0.0553,0.0435,-0.1133,-1.5861770115294398,0.00010476623720023781,2.275240421295166,-1.567354679107666,0.0017554934602230787,2.2176828384399414,4.081823034877441,0.00031312002101913095,0.2778363823890686,-1.303735081349508,-0.0001317899877903983,-0.05480556935071945,0.007288680411875248,0.0,-0.010448634624481201,1.319520354270935,0.00030339910881593823,0.20395146310329437
262.0,349.0,3.9464,3.4857,7.1103,-0.0553,0.0435,-0.1133,-1.5861369572081507,8.919171523302794e-05,2.2578344345092773,-1.567354679107666,0.003341270610690117,2.1950085163116455,4.081791086787842,0.0002891623880714178,0.2788744568824768,-1.3037427107440394,-0.0001227984466822818,-0.050113826990127563,0.007192444987595081,0.0,-0.0019692257046699524,1.319528579711914,0.00026509593590162694,0.1150776743888855
262.0,349.0,3.9464,3.4857,7.1103,-0.0553,0.0435,-0.1133,-1.5861770115294398,7.764827023493126e-05,2.24455189704895,-1.5673391819000244,0.004133520182222128,2.212195873260498,4.0818468767353515,0.0013789921067655087,0.2826695442199707,-1.303735081349508,-0.00011495593207655475,-0.03920406103134155,0.007220683619379997,0.0,-0.004156063310801983,1.3195444345474243,4.867381358053535e-05,0.17462173104286194
262.0,349.0,3.9464,3.4857,7.1103,-0.0553,0.0435,-0.1133,-1.5861407719054164,1.1812770026153885e-05,2.3021743297576904,-1.5673229694366455,0.004031012766063213,2.180016040802002,4.0818797784992675,0.0029094514902681112,0.27407559752464294,-1.303735081349508,-9.919434523908421e-05,-0.043397873640060425,0.007208371069282293,0.0,0.0014948394382372499,1.319520354270935,4.4975200808039517e-07,0.13902875781059265
262.0,349.0,3.9464,3.4857,7.1103,-0.0553,0.0435,-0.1133,-1.5861731968321742,2.8526443360266107e-11,2.2744054794311523,-1.5673472881317139,0.003047487000003457,2.2440967559814453,4.081931753749512,0.0044934749603271484,0.2913427948951721,-1.3036945501910608,-8.494882786180824e-05,-0.048883527517318726,0.007151903584599495,0.0,-0.005319768097251654,1.319528579711914,1.0860981168245298e-12,0.11005914956331253
262.0,349.0,3.9464,3.4857,7.1103,-0.0553,0.0435,-0.1133,-1.586144586602682,6.888800507755507e-17,2.2643518447875977,-1.5672470331192017,0.0016663995338603854,2.233253240585327,4.081996126765869,0.005373550578951836,0.2744199335575104,-1.3037594000445765,-8.039340900722891e-05,-0.040132418274879456,0.0072445254772901535,0.0,0.002897797152400017,1.3195044994354248,-0.0008677848381921649,0.13078895211219788
262.0,349.0,3.9464,3.4857,7.1103,-0.0553,0.0435,-0.1133,-1.5862494907774867,-0.0007139857625588775,2.277519941329956,-1.5672584772109985,0.0006375166703946888,2.2086918354034424,4.082011385554932,0.00553432572633028,0.28280723094940186,-1.3037269751178187,-7.630380423506722e-05,-0.036090951412916183,0.0072445254772901535,0.0,-0.017507711425423622,1.3195044994354248,-0.0013437132583931088,0.12794984877109528
262.0,349.0,3.9464,3.4857,7.1103,-0.0553,0.0435,-0.1133,-1.5861884556212367,-0.0014362423680722713,2.277712821960449,-1.5672587156295776,0.00030984458862803876,2.2178874015808105,4.082067175502441,0.00525679113343358,0.2824855446815491,-1.3037150541888636,-5.905189391341992e-05,-0.02827099896967411,0.007268997374922037,0.0,-0.00696776295080781,1.3194526433944702,-0.0017717921873554587,0.13549822568893433
262.0,349.0,3.9464,3.4857,7.1103,-0.0553,0.0435,-0.1133,-1.586228986779684,-0.0016397658037021756,2.2845067977905273,-1.5673152208328247,0.0002304594381712377,2.23583984375,4.082082911128662,0.0030223096255213022,0.28692954778671265,-1.3036912123309534,-5.5406308092642576e-05,-0.03227100521326065,0.007188296411186457,0.0,-0.021780457347631454,1.3194763660430908,-0.002181805670261383,0.060432519763708115
262.0,349.0,3.9464,3.4857,7.1103,-0.0553,0.0435,-0.1133,-1.586240907708639,-0.0015943520702421665,2.249645948410034,-1.5673308372497559,0.00019684596918523312,2.192518949508667,4.082086725825928,0.0020818596240133047,0.2809869050979614,-1.3037107626544397,-5.375159889808856e-05,-0.043230921030044556,0.007212138269096613,0.0,0.0019437005976215005,1.3194245100021362,-0.0027954259421676397,0.13677331805229187
262.0,349.0,3.9464,3.4857,7.1103,-0.0553,0.0435,-0.1133,-1.586212774316305,-0.0015828594332560897,2.233370780944824,-1.567275047302246,0.00016151326417457312,2.1627111434936523,4.082079096431396,0.0009055206901393831,0.27910763025283813,-1.3037188688861292,-5.144709939486347e-05,-0.04297318309545517,0.007204294204711914,0.0,-0.0023915483616292477,1.3193763494491577,-0.003362541552633047,0.022916600108146667
248.0,339.0,4.5314,2.6764,7.2838,-0.0217,0.0286,-0.1235,-1.5862609348692835,-0.001480642706155777,2.2677175998687744,-1.5673229694366455,0.00013693566143047065,2.190150499343872,4.082102461452148,0.0005573906819336116,0.2722070515155792,-1.3037107626544397,-4.933209129376337e-05,-0.04558318108320236,0.007236289791762829,0.0,-0.013732435181736946,1.3194005489349365,-0.004566453862935305,0.05220063030719757
248.0,339.0,4.5314,2.6764,7.2838,-0.0217,0.0286,-0.1235,-1.5862285099425257,-0.001350153237581253,2.243032455444336,-1.567275047302246,0.00011885111598530784,2.184988498687744,4.0820581155964355,0.0005264258361421525,0.2745118737220764,-1.3036745230304163,-4.7384142817463726e-05,-0.03741522133350372,0.007200217340141535,0.0,-0.015296678990125656,1.3193604946136475,-0.005282710772007704,0.1124807745218277
248.0,339.0,4.5314,2.6764,7.2838,-0.0217,0.0286,-0.1235,-1.586280962029928,-0.001320002367720008,2.222541570663452,-1.5672709941864014,0.00013996183406561613,2.1793594360351562,4.0820862489887695,0.00048258344759233296,0.2595500349998474,-1.3036907354937952,-4.5584172767121345e-05,-0.024110153317451477,0.007244573440402746,0.0,-0.0045828609727323055,1.319312572479248,-0.00442726444453001,0.038000062108039856
248.0,339.0,4.5314,2.6764,7.2838,-0.0217,0.0286,-0.1235,-1.586297174493307,-0.00129794015083462,2.260324716567993,-1.5673311948776245,0.00012535809946712106,2.197070598602295,4.082094355220459,0.0005457426304928958,0.28235745429992676,-1.3037431875811976,-4.391599213704467e-05,-0.03414790332317352,0.00719198165461421,0.0,-0.007626572158187628,1.319312572479248,-0.0029106647707521915,0.06517758965492249
248.0,339.0,4.5314,2.6764,7.2838,-0.0217,0.0286,-0.1235,-1.586252351800436,-0.0012690105941146612,2.2794113159179688,-1.5672624111175537,3.05949870380573e-05,2.185682773590088,4.082118673915527,0.002076081233099103,0.28160932660102844,-1.303739372883932,-1.4618594832427334e-05,-0.031424380838871,0.007252216339111328,0.0,-0.00565281230956316,1.3193165063858032,-0.00160099973436445,0.00897480733692646
248.0,339.0,4.5314,2.6764,7.2838,-0.0217,0.0286,-0.1235,-1.586264272729391,-0.001474759541451931,2.30057954788208,-1.5673555135726929,5.550841524382122e-05,2.2309067249298096,4.082102461452148,0.003952237777411938,0.2803906202316284,-1.3037427107440394,-1.214438452734612e-05,-0.053549107164144516,0.007248531095683575,0.0,0.0032570697367191315,1.319320559501648,-0.0009598618489690125,0.03954269737005234
248.0,339.0,4.5314,2.6764,7.2838,-0.0217,0.0286,-0.1235,-1.5863410435118617,-0.0019331855000928044,2.246356725692749,-1.5672789812088013,7.611120963701978e-05,2.2509772777557373,4.08219496786084,0.005501556675881147,0.2922534942626953,-1.303751293812887,-1.1671383617795072e-05,-0.05473354458808899,0.00722813606262207,0.0,-0.00035811116686090827,1.3193244934082031,-0.0006296822102740407,0.07560822367668152
248.0,339.0,4.5314,2.6764,7.2838,-0.0217,0.0286,-0.1235,-1.5863248310484828,-0.002244373317807913,2.265450954437256,-1.5672831535339355,7.215690129669383e-05,2.181347370147705,4.082161589259766,0.006031652446836233,0.3008939325809479,-1.3037670294391077,-1.1376328984624706e-05,-0.04871043190360069,0.00724029541015625,0.0,-0.0008821954252198339,1.3193047046661377,-0.0005038486560806632,0.10228928923606873
248.0,339.0,4.5314,2.6764,7.2838,-0.0217,0.0286,-0.1235,-1.586377283135885,-0.0035277451388537884,2.292762279510498,-1.5673032999038696,6.680117076030001e-05,2.2375504970550537,4.082230253810547,0.0064786761067807674,0.30127668380737305,-1.3037427107440394,-2.182693606300745e-05,-0.05593693256378174,0.0072079794481396675,0.0,0.004026706330478191,1.319312572479248,-0.000406329840188846,0.15416815876960754
248.0,339.0,4.5314,2.6764,7.2838,-0.0217,0.0286,-0.1235,-1.5863524876036585,-0.004678640980273485,2.2665772438049316,-1.5672593116760254,6.218547787284479e-05,2.200021743774414,4.08227459966626,0.006611320190131664,0.3034247159957886,-1.3037670294391077,-2.1148676751181483e-05,-0.07030743360519409,0.00724029541015625,0.0,-0.0062400964088737965,1.3193166255950928,-0.00034044720814563334,0.07892715185880661
248.0,339.0,4.5314,2.6764,7.2838,-0.0217,0.0286,-0.1235,-1.5863925419249476,-0.006088342983275652,2.257662057876587,-1.5672868490219116,5.816654447698966e-05,2.2247579097747803,4.082314653987549,0.005389272700995207,0.3056536614894867,-1.3037102858172815,-2.0428644347703084e-05,-0.06268691271543503,0.007252232637256384,0.0,0.008063928224146366,1.3193165063858032,-0.00029295001877471805,0.10544317960739136
248.0,339.0,4.5314,2.6764,7.2838,-0.0217,0.0286,-0.1235,-1.586473127404684,-0.006840348243713379,2.240567445755005,-1.5672950744628906,5.463552224682644e-05,2.253559112548828,4.08229319631543,0.00458641117438674,0.302757203578949,-1.3037307898150843,-5.076003162685083e-06,-0.06352364271879196,0.007180142216384411,0.0,-0.007798942271620035,1.3193086385726929,-0.00025708411703817546,0.15405084192752838
248.0,339.0,4.5314,2.6764,7.2838,-0.0217,0.0286,-0.1235,-1.586496492425436,-0.007039888296276331,2.298638105392456,-1.5672428607940674,5.150868673808873e-05,2.2596054077148438,4.082402868861816,0.003958576358854771,0.31352877616882324,-1.3037589232074183,-1.4129243330884833e-09,-0.07021830230951309,0.007260500453412533,1.189159917203142e-07,0.004602532833814621,1.3193086385726929,-0.0002290430129505694,0.16296261548995972
248.0,339.0,4.5314,2.6764,7.2838,-0.0217,0.0286,-0.1235,-1.586536546746725,-0.007134190294891596,2.32220458984375,-1.5673032999038696,6.473858957178891e-05,2.2438220977783203,4.082406206721924,0.004492169711738825,0.3152320384979248,-1.3038032690631312,-3.9329276597596663e-13,-0.074925996363163,0.00723222503438592,3.3100702734323306e-11,0.003036179579794407,1.319312572479248,-6.202788063092157e-05,0.16012874245643616
248.0,339.0,4.5314,2.6764,7.2838,-0.0217,0.0286,-0.1235,-1.5866247616209925,-0.006788162514567375,2.232689619064331,-1.5672633647918701,6.162451609270647e-05,2.2456374168395996,4.082438631648682,0.005167205817997456,0.3222379982471466,-1.3037427107440394,-1.0947448871775133e-16,-0.06880553066730499,0.007244020700454712,9.213701680679375e-15,0.0008381808875128627,1.3192884922027588,-3.3087562769651413e-06,0.14390426874160767
248.0,339.0,4.5314,2.6764,7.2838,-0.0217,0.0286,-0.1235,-1.5866805515685023,-0.006862332113087177,2.310307025909424,-1.5673271417617798,0.00013043772196397185,2.269491195678711,4.082446737880371,0.005163558758795261,0.3392524719238281,-1.3037427107440394,-0.00013598710938822478,-0.07426019012928009,0.0072280289605259895,2.564667078570915e-18,-0.007424581795930862,1.319380283355713,-7.990257760992492e-12,0.2074832320213318
257.0,8190.0,4.7539,3.186,7.4183,-0.0425,0.0238,-0.135,-1.5866762600340785,-0.008121340535581112,2.3049306869506836,-1.5673595666885376,0.00012332655023783445,2.270235300064087,4.0824171739765625,0.0046345628798007965,0.3347299098968506,-1.3037908712970179,-0.00012918520951643586,-0.08063487708568573,0.007252216339111328,1.093357801708502e-20,0.005494728684425354,1.319344401359558,-1.4382182163619e-15,0.1852479726076126
257.0,8190.0,4.7539,3.186,7.4183,-0.0425,0.0238,-0.135,-1.5867768726744593,-0.00911207776516676,2.282834529876709,-1.5672831535339355,0.00011395736510166898,2.2818806171417236,4.082453413600586,0.0037820208817720413,0.3300248384475708,-1.3037870565997522,-0.00014270609244704247,-0.06908971071243286,0.0072681778110563755,3.0434015093002806e-24,0.012924714013934135,1.3193483352661133,-3.473127020337726e-21,0.18323558568954468
257.0,8190.0,4.7539,3.186,7.4183,-0.0425,0.0238,-0.135,-1.586832662621969,-0.009467193856835365,2.3126306533813477,-1.5673270225524902,0.00010591111640678719,2.236025094985962,4.08248154699292,0.0031072201672941446,0.35195398330688477,-1.3037546316729944,-0.00014858541544526815,-0.06845220923423767,0.0072805993258953094,8.471419527506e-28,0.00199709041044116,1.3193565607070923,-8.387191485097152e-27,0.18941155076026917
257.0,8190.0,4.7539,3.186,7.4183,-0.0425,0.0238,-0.135,-1.586888929406637,-0.010534062050282955,2.3244495391845703,-1.5673192739486694,9.892618982121348e-05,2.2664873600006104,4.082550211543701,0.002675068797543645,0.34585028886795044,-1.3037708441363733,-0.00014372568693943322,-0.06726532429456711,0.007228201255202293,2.358050836605445e-31,0.002125937957316637,1.3193724155426025,-2.025408210940686e-32,0.19291719794273376
257.0,8190.0,4.7539,3.186,7.4183,-0.0425,0.0238,-0.135,-1.5869485340514125,-0.010687480680644512,2.308669328689575,-1.5672869682312012,9.280571975978091e-05,2.308154344558716,4.082542105312012,0.002980276709422469,0.33926641941070557,-1.3037951628314417,-0.00013452034909278154,-0.07851102203130722,0.007199777755886316,0.0001888265978777781,0.016440697014331818,1.3193403482437134,-4.891121867406785e-38,0.20352275669574738
257.0,8190.0,4.7539,3.186,7.4183,-0.0425,0.0238,-0.135,-1.58703674892568,-0.010585837066173553,2.274608850479126,-1.5673151016235352,8.739837358007208e-05,2.322261095046997,4.082561655635498,0.004204643424600363,0.33821114897727966,-1.3037951628314417,-0.00014444136468227953,-0.06556239724159241,0.0072682262398302555,0.0001678028202150017,0.01885557919740677,1.3193285465240479,-1.1770907100328463e-43,0.15604425966739655
257.0,8190.0,4.7539,3.186,7.4183,-0.0425,0.0238,-0.135,-1.5870849094786585,-0.010176125913858414,2.348275661468506,-1.5672470331192017,8.258650632342324e-05,2.2672502994537354,4.0826098161884765,0.004925766959786415,0.35401439666748047,-1.3037708441363733,-0.00013627775479108095,-0.07309581339359283,0.0071997614577412605,0.0001810915273381397,0.025449320673942566,1.3193364143371582,0.0,0.21238169074058533
257.0,8190.0,4.7539,3.186,7.4183,-0.0425,0.0238,-0.135,-1.5871201954283656,-0.010039834305644035,2.2629354000091553,-1.5672593116760254,9.393219806952402e-05,2.2989258766174316,4.082605524654053,0.006813592277467251,0.3658207058906555,-1.303814713154928,-0.00017578188271727413,-0.07485809922218323,0.007244078908115625,0.00018485181499272585,0.031975675374269485,1.3193684816360474,0.00018737446225713938,0.17268779873847961
257.0,8190.0,4.7539,3.186,7.4183,-0.0425,0.0238,-0.135,-1.5871802769102992,-0.009839429520070553,2.2985310554504395,-1.567282795906067,8.927359158406034e-05,2.293205499649048,4.0826732355305175,0.010164269246160984,0.3663904070854187,-1.3037708441363733,-0.0001633500651223585,-0.0674302726984024,0.007215779274702072,0.00017588614718988538,0.02857143059372902,1.319300651550293,0.00016669955221004784,0.19733694195747375
257.0,8190.0,4.7539,3.186,7.4183,-0.0425,0.0238,-0.135,-1.5872041187682093,-0.010568255558609962,2.3393287658691406,-1.5673192739486694,8.641633030492812e-05,2.277636766433716,4.082716627711914,0.011926764622330666,0.37159162759780884,-1.3037708441363733,-0.0001522936363471672,-0.07782971113920212,0.00729642016813159,0.00018957137945108116,0.032161615788936615,1.3193446397781372,0.00015520048327744007,0.19547787308692932
257.0,8190.0,4.7539,3.186,7.4183,-0.0425,0.0238,-0.135,-1.5873285732665003,-0.00968968030065298,2.331818103790283,-1.5673192739486694,8.245771459769458e-05,2.3180742263793945,4.082837267512939,0.01498507708311081,0.35863202810287476,-1.3037870565997522,-0.00013825503992848098,-0.06930384784936905,0.0071997614577412605,0.00021518154244404286,0.031611036509275436,1.319320559501648,0.00014064789866097271,0.24676159024238586
257.0,8190.0,4.7539,3.186,7.4183,-0.0425,0.0238,-0.135,-1.58738436321401,-0.00944850780069828,2.3615219593048096,-1.5673229694366455,7.884584192652255e-05,2.291797637939453,4.082949324245117,0.01983805187046528,0.3808633089065552,-1.3037951628314417,-0.00012658671766985208,-0.07707736641168594,0.007280118763446808,0.0001991584140341729,0.0338507816195488,1.3193243741989136,0.00012859032722190022,0.21343229711055756
257.0,8190.0,4.7539,3.186,7.4183,-0.0425,0.0238,-0.135,-1.5874082050719203,-0.00917675718665123,2.3150219917297363,-1.5673189163208008,7.553715113317594e-05,2.2548420429229736,4.083077593440674,0.02708503045141697,0.3897556662559509,-1.3037784735309046,-0.0001385165232932195,-0.08461840450763702,0.007292375899851322,0.00021081403247080743,0.02330724522471428,1.3193565607070923,0.00011843704851344228,0.1945468634366989
257.0,8190.0,4.7539,3.186,7.4183,-0.0425,0.0238,-0.135,-1.5874434910216273,-0.008946744725108147,2.3163108825683594,-1.5673270225524902,7.249494956340641e-05,2.2982990741729736,4.083288832301758,0.04033670946955681,0.38814976811408997,-1.3037994543658655,-0.0001406114752171561,-0.0887751504778862,0.007292375899851322,0.00022016819275449961,0.033381011337041855,1.3193684816360474,0.00013171958562452346,0.20780466496944427
257.0,8190.0,4.7539,3.186,7.4183,-0.0425,0.0238,-0.135,-1.5875522098936976,-0.008165222592651844,2.316375255584717,-1.5672991275787354,6.968842353671789e-05,2.314215898513794,4.083535833949707,0.06375467777252197,0.40064144134521484,-1.3037541548358362,-0.00015639487537555397,-0.07445336133241653,0.007284211926162243,0.00022689730394631624,0.027555134147405624,1.3193882703781128,0.00014316548185888678,0.1725984513759613
262.0,349.0,5.0853,3.2291,7.2814,-0.0357,0.0148,-0.1116,-1.5876356563963832,-0.00763348676264286,2.287790060043335,-1.567275047302246,6.709096487611532e-05,2.2912185192108154,4.084091349239014,0.10051793605089188,0.425503134727478,-1.303814713154928,-0.00015141999756451696,-0.08017697930335999,0.0073161362670362,0.0002685791114345193,0.035129476338624954,1.319352626800537,0.00015244078531395644,0.26779213547706604
262.0,349.0,5.0853,3.2291,7.2814,-0.0357,0.0148,-0.1116,-1.587680002252096,-0.007716280408203602,2.329725742340088,-1.5673110485076904,5.395013067754917e-05,2.3171322345733643,4.0848752695271,0.14103376865386963,0.4380914568901062,-1.303847614918844,-0.00016971876902971417,-0.0923931747674942,0.0073042153380811214,0.0002679323952179402,0.04182715713977814,1.319360613822937,0.0001440147025277838,0.2423027753829956
262.0,349.0,5.0853,3.2291,7.2814,-0.0357,0.0148,-0.1116,-1.587703367272848,-0.008198348805308342,2.311577320098877,-1.5673229694366455,5.2030565711902454e-05,2.292198657989502,4.085881395930908,0.16528970003128052,0.45699888467788696,-1.3038433233844202,-0.00018097195425070822,-0.09733514487743378,0.007271899841725826,0.0002519359113648534,0.041868049651384354,1.3193565607070923,0.00014855776680633426,0.26295313239097595
262.0,349.0,5.0853,3.2291,7.2814,-0.0357,0.0148,-0.1116,-1.5877276859679164,-0.007529338821768761,2.347508668899536,-1.567291021347046,6.0338184994179755e-05,2.3053956031799316,4.086962862605713,0.18943548202514648,0.4655672013759613,-1.303774658833639,-0.0001797223958419636,-0.10092240571975708,0.007308374159038067,0.00022100197384133935,0.0455908477306366,1.319392204284668,0.00013517774641513824,0.2050023376941681
262.0,349.0,5.0853,3.2291,7.2814,-0.0357,0.0148,-0.1116,-1.5877677402892054,-0.007744233123958111,2.34919810295105,-1.567302942276001,2.3459272142645204e-06,2.3191957473754883,4.087805433864258,0.22203531861305237,0.47925668954849243,-1.3038108984576624,-0.00018253162852488458,-0.0943378433585167,0.007308374159038067,0.0002042782143689692,0.038244619965553284,1.3193442821502686,0.00012751670146826655,0.2895480990409851
262.0,349.0,5.0853,3.2291,7.2814,-0.0357,0.0148,-0.1116,-1.5878359280028285,-0.006557989399880171,2.3267853260040283,-1.5672826766967773,5.66513762984e-12,2.316147565841675,4.089362784022949,0.26630067825317383,0.5155423879623413,-1.3037994543658655,-0.00016798464639578015,-0.1013982743024826,0.007251824717968702,0.00021396005467977375,0.040499307215213776,1.3193844556808472,0.00011752558930311352,0.24028533697128296
262.0,349.0,5.0853,3.2291,7.2814,-0.0357,0.0148,-0.1116,-1.587924142877096,-0.005595498718321323,2.3248958587646484,-1.56731116771698,1.3680643370882856e-17,2.333812713623047,4.091030760402344,0.2915180027484894,0.5176651477813721,-1.303859059010641,-0.00017774889420252293,-0.09461313486099243,0.007276058197021484,0.0001942328381119296,0.052538953721523285,1.3193724155426025,0.00010898636537604034,0.25689896941185
262.0,349.0,5.0853,3.2291,7.2814,-0.0357,0.0148,-0.1116,-1.5878917179503382,-0.005846311338245869,2.3342742919921875,-1.567302942276001,3.3037138145526815e-23,2.295691728591919,4.093000097865723,0.3380093574523926,0.5362375378608704,-1.3038023153888147,-0.0001984898408409208,-0.10707288980484009,0.007271899841725826,0.000203070740099065,0.03964906558394432,1.3193644285202026,0.00010160416422877461,0.25168055295944214
262.0,349.0,5.0853,3.2291,7.2814,-0.0357,0.0148,-0.1116,-1.5879150829710902,-0.005172699224203825,2.347637891769409,-1.5672708749771118,7.978081137042165e-29,2.3323373794555664,4.095150633449219,0.3818484842777252,0.5613408088684082,-1.3038509527789515,-0.0002024820860242471,-0.09744864702224731,0.007251824717968702,0.00019241457630414516,0.03839937224984169,1.3193244934082031,9.515840793028474e-05,0.26477593183517456
262.0,349.0,5.0853,3.2291,7.2814,-0.0357,0.0148,-0.1116,-1.5879675350584925,-0.00452582910656929,2.3594610691070557,-1.5673350095748901,1.92661251171243e-34,2.340616226196289,4.097658320064209,0.41560661792755127,0.576493501663208,-1.3038352171527308,-0.00021407351596280932,-0.10029155015945435,0.0072800638154149055,0.00017138209659606218,0.05369883030653,1.3193644285202026,0.00010737784032244235,0.3164030909538269
262.0,349.0,5.0853,3.2291,7.2814,-0.0357,0.0148,-0.1116,-1.5879799328246058,-0.004193051252514124,2.32902193069458,-1.5672950744628906,4.652549122297328e-40,2.2413675785064697,4.100331946010254,0.47254127264022827,0.6107206344604492,-1.3037985006915491,-0.00024676643079146743,-0.10927224159240723,0.007292384281754494,0.0001824884384404868,0.048706118017435074,1.3193883895874023,0.00010133323667105287,0.291658490896225
262.0,349.0,5.0853,3.2291,7.2814,-0.0357,0.0148,-0.1116,-1.5880233250060023,-0.0039749364368617535,2.2991371154785156,-1.5673189163208008,1.401298464324817e-45,2.3081612586975098,4.103350802058838,0.5279812812805176,0.6468468904495239,-1.3037870565997522,-0.0002977159165311605,-0.11579140275716782,0.007296036928892136,0.00016740048886276782,0.04242211580276489,1.3193644285202026,9.593280992703512e-05,0.2840052843093872
262.0,349.0,5.0853,3.2291,7.2814,-0.0357,0.0148,-0.1116,-1.588010927239889,-0.003656467655673623,2.3300867080688477,-1.5673147439956665,-0.0,2.296511173248291,4.106642885799072,0.5717241168022156,0.6361085772514343,-1.303859059010641,-0.0003530312969814986,-0.11387764662504196,0.007280030753463507,0.00015315605560317636,0.04233621060848236,1.3193485736846924,9.107865480473265e-05,0.2958940267562866
262.0,349.0,5.0853,3.2291,7.2814,-0.0357,0.0148,-0.1116,-1.5880476437010707,-0.0036572671961039305,2.294252872467041,-1.5672950744628906,-0.0,2.285867929458618,4.108965082759521,0.6037040948867798,0.6420107483863831,-1.303826634083883,-0.00035417580511420965,-0.11393392086029053,0.0072637456469237804,0.00014493416529148817,0.04888497292995453,1.3193323612213135,8.810662984615192e-05,0.28450915217399597
262.0,349.0,5.0853,3.2291,7.2814,-0.0357,0.0148,-0.1116,-1.5880996189513148,-0.004342109430581331,2.300534963607788,-1.5672749280929565,-0.0,2.306325912475586,4.1128455835529785,0.6550669074058533,0.6470639705657959,-1.303842846547262,-0.0003576518502086401,-0.11184481531381607,0.007275986485183239,0.0001563885307405144,0.046339862048625946,1.3193323612213135,8.399529906455427e-05,0.3011970520019531
262.0,349.0,5.0853,3.2291,7.2814,-0.0357,0.0148,-0.1116,-1.588095327416891,-0.004023850429803133,2.3071415424346924,-1.5673308372497559,-0.0,2.3013224601745605,4.1168810564228515,0.696124792098999,0.6475662589073181,-1.3038228193866175,-0.00040059027378447354,-0.11436711251735687,0.0072759948670864105,0.00014563548029400408,0.04225817322731018,1.3193047046661377,8.025051647564396e-05,0.3102438151836395
263.0,338.0,6.1783,4.4542,7.6415,-0.2908,0.2712,-0.0313,-1.5880991421141566,-0.004108746070414782,2.2776477336883545,-1.5673586130142212,-0.0,2.238919258117676,4.121318979854248,0.7284268736839294,0.6140979528427124,-1.3038671652423304,-0.00042590079829096794,-0.11540135741233826,0.007259668782353401,0.0001361904724035412,0.038182616233825684,1.3193565607070923,6.839431443950161e-05,0.32224270701408386
263.0,338.0,6.1783,4.4542,7.6415,-0.2908,0.2712,-0.0313,-1.58813538173818,-0.004346123896539211,2.261834144592285,-1.5673110485076904,-0.0,2.275007963180542,4.125770731563232,0.7567493915557861,0.6325454115867615,-1.303854767476217,-0.0004159468226134777,-0.11974084377288818,0.0073160999454557896,0.00012789579341188073,0.02678186073899269,1.3193364143371582,6.140062760096043e-05,0.2756724953651428
263.0,338.0,6.1783,4.4542,7.6415,-0.2908,0.2712,-0.0313,-1.5881229839720667,-0.004008146934211254,2.2439422607421875,-1.5673189163208008,1.29769098244914e-10,2.2897727489471436,4.130371256465576,0.7875213027000427,0.646580159664154,-1.3038628737079065,-0.00039631029358133674,-0.12748242914676666,0.007352456916123629,0.00012055356637574732,0.05740020424127579,1.3193485736846924,5.8986137446481735e-05,0.31337621808052063
263.0,338.0,6.1783,4.4542,7.6415,-0.2908,0.2712,-0.0313,-1.588151594201559,-0.0036514652892947197,2.228541612625122,-1.5673308372497559,3.133770971330287e-16,2.251075267791748,4.135040922755859,0.8091646432876587,0.6150203943252563,-1.3038352171527308,-0.00037716521183028817,-0.11279374361038208,0.007264137268066406,0.00011400865332689136,0.05088987201452255,1.319344401359558,5.6754342949716374e-05,0.2879948019981384
263.0,338.0,6.1783,4.4542,7.6415,-0.2908,0.2712,-0.0313,-1.5881830654540003,-0.00327267381362617,2.152208089828491,-1.5673308372497559,7.567686299578789e-22,2.2150774002075195,4.139895125026367,0.818783164024353,0.6209055185317993,-1.3038471380816858,-0.0003122099442407489,-0.11858301609754562,0.0072961351834237576,0.00010813779954332858,0.0522155687212944,1.3193485736846924,5.468534436658956e-05,0.31094133853912354
263.0,338.0,6.1783,4.4542,7.6415,-0.2908,0.2712,-0.0313,-1.5881787739195765,-0.0038754320703446865,2.14227294921875,-1.5672868490219116,1.827507413102265e-27,2.233654499053955,4.14476649343457,0.8351849913597107,0.6156418323516846,-1.3038066069232386,-0.0003095892898272723,-0.11474654078483582,0.007271908223628998,4.8388828872703016e-05,0.03662771359086037,1.3193086385726929,5.2761803090106696e-05,0.27827882766723633
263.0,338.0,6.1783,4.4542,7.6415,-0.2908,0.2712,-0.0313,-1.5881954632201136,-0.004092122428119183,2.136108160018921,-1.5672627687454224,3.2894481431066007e-31,2.194321870803833,4.148151083583496,0.8271188139915466,0.5919684171676636,-1.3038066069232386,-0.0002032475604210049,-0.11285795271396637,0.007312410045415163,4.423093923833221e-05,0.04660973697900772,1.3193442821502686,4.125865962123498e-05,0.3231814503669739
263.0,338.0,6.1783,4.4542,7.6415,-0.2908,0.2712,-0.0313,-1.58829989055776,-0.00536342291161418,2.080899953842163,-1.5672625303268433,7.943629615196544e-37,2.193131685256958,4.153148813838623,0.8180381655693054,0.5988256335258484,-1.3038023153888147,0.00019911084382329136,-0.11192838847637177,0.007320229429751635,4.1187104216078296e-05,0.040645256638526917,1.319332480430603,2.9909400836913846e-05,0.24069726467132568
263.0,338.0,6.1783,4.4542,7.6415,-0.2908,0.2712,-0.0313,-1.588299413720602,-0.006807081401348114,2.023374557495117,-1.5672869682312012,1.9183775976606746e-42,2.1843457221984863,4.1579248148151855,0.8074344396591187,0.6082166433334351,-1.3038232962237757,0.00012028816854581237,-0.1106240451335907,0.007271916139870882,3.854133319691755e-05,0.03074771910905838,1.319312572479248,-2.7794105335487984e-05,0.32445746660232544
263.0,338.0,6.1783,4.4542,7.6415,-0.2908,0.2712,-0.0313,-1.5883313618102015,-0.008593829348683357,1.9978525638580322,-1.5673151016235352,-0.0,2.194277286529541,4.162701769466064,0.782060980796814,0.565628170967102,-1.303830925618307,8.581291331211105e-05,-0.10649779438972473,0.007296404335647821,3.621499126893468e-05,0.03167024627327919,1.319332480430603,-4.863286085310392e-05,0.27126041054725647
263.0,338.0,6.1783,4.4542,7.6415,-0.2908,0.2712,-0.0313,-1.5884233913817347,-0.009798779152333736,1.9470641613006592,-1.567291021347046,-0.00036592138349078596,2.115755796432495,4.167099161739014,0.748904824256897,0.5808984041213989,-1.303814713154928,6.671106530120596e-05,-0.10114023089408875,0.007312492001801729,3.415347237023525e-05,0.049700215458869934,1.3192963600158691,-5.0917802582262084e-05,0.2692832946777344
263.0,338.0,6.1783,4.4542,7.6415,-0.2908,0.2712,-0.0313,-1.5884553394713343,-0.010677995160222054,1.8883146047592163,-1.567306637763977,-0.0002941831771750003,2.16048002243042,4.1714207369038085,0.7162071466445923,0.5710756778717041,-1.3038271109210413,0.00010906838724622503,-0.09287133812904358,0.00726007204502821,1.6228461390710436e-05,0.03429274633526802,1.3193284273147583,-5.6886376114562154e-05,0.2693496644496918
263.0,338.0,6.1783,4.4542,7.6415,-0.2908,0.2712,-0.0313,-1.5885116062560023,-0.012470671907067299,1.8875794410705566,-1.567282795906067,-0.0003422961162868887,2.136916399002075,4.175412340755127,0.673251748085022,0.5448818206787109,-1.3037994543658655,0.00013807583309244365,-0.08324308693408966,0.007271908223628998,1.533133035991341e-05,0.039521802216768265,1.319252610206604,-0.00023372920986730605,0.2278541773557663
263.0,338.0,6.1783,4.4542,7.6415,-0.2908,0.2712,-0.0313,-1.588499208489889,-0.013335756957530975,1.8268502950668335,-1.5673350095748901,-0.00033870976767502725,2.0498452186584473,4.179236097926758,0.6185568571090698,0.5243252515792847,-1.3038190046893519,0.00015469042409677058,-0.08703717589378357,0.0073164962232112885,1.4585915778297931e-05,0.014251677319407463,1.3192607164382935,-0.0003220891230739653,0.18037834763526917
263.0,338.0,6.1783,4.4542,7.6415,-0.2908,0.2712,-0.0313,-1.5886508427061976,-0.01576172560453415,1.8378770351409912,-1.5673432350158691,-0.0003837860422208905,2.0331764221191406,4.1827403742023925,0.5603643655776978,0.5275896787643433,-1.3037951628314417,0.00019514033920131624,-0.06934137642383575,0.0072882892563939095,7.0584665081696585e-06,0.014763813465833664,1.3193166255950928,-0.0003642752708401531,0.19550743699073792
248.0,249.0,4.078,1.5823,7.2975,-0.6542,0.5655,0.0838,-1.588715215722555,-0.017672298476099968,1.7891795635223389,-1.567362904548645,-0.0003727495495695621,2.064487934112549,4.184972448939941,0.5250660181045532,0.5389840602874756,-1.3037908712970179,0.0001812260743463412,-0.06612064689397812,0.007292363792657852,3.009134985632045e-08,0.029941890388727188,1.319312334060669,-0.0006416962132789195,0.19703644514083862
248.0,249.0,4.078,1.5823,7.2975,-0.6542,0.5655,0.0838,-1.5888754330077113,-0.02149743214249611,1.8013134002685547,-1.5673587322235107,-0.00033041334245353937,2.003082275390625,4.187797709102295,0.4556957185268402,0.5138413906097412,-1.303774658833639,0.00019388501823414117,-0.07149490714073181,0.0073242997750639915,8.376037710644546e-12,0.016020309180021286,1.3192884922027588,-0.0009194036829285324,0.20639243721961975
248.0,249.0,4.078,1.5823,7.2975,-0.6542,0.5655,0.0838,-1.5889269314207972,-0.02265900932252407,1.735349416732788,-1.567282795906067,-0.00016468226385768503,2.0179853439331055,4.190218134517334,0.3895156681537628,0.48054370284080505,-1.3038190046893519,0.00020430753647815436,-0.05673755332827568,0.007296404801309109,2.3315007507230612e-15,0.020120222121477127,1.3193005323410034,-0.0014408235438168049,0.14184439182281494
248.0,249.0,4.078,1.5823,7.2975,-0.6542,0.5655,0.0838,-1.589107175866598,-0.02561597339808941,1.7378336191177368,-1.567354679107666,-0.0001928767451317981,2.0399169921875,4.192392988795898,0.3313591480255127,0.45376497507095337,-1.3037670294391077,0.00018622030620463192,-0.07322952151298523,0.007255925796926022,6.489817135761883e-19,0.024571891874074936,1.3192204236984253,-0.0017332042334601283,0.18913397192955017
248.0,249.0,4.078,1.5823,7.2975,-0.6542,0.5655,0.0838,-1.5892750225462855,-0.028023231774568558,1.7854893207550049,-1.567354679107666,-0.0001594642089912668,1.9884817600250244,4.19396893560376,0.24595782160758972,0.39850351214408875,-1.3037784735309046,0.00019506194803398103,-0.06639918684959412,0.0072678467258811,1.8064644623587223e-22,0.03097432479262352,1.31922447681427,-0.002446978585794568,0.17661777138710022
248.0,249.0,4.078,1.5823,7.2975,-0.6542,0.5655,0.0838,-1.589442869225973,-0.03185481205582619,1.6958509683609009,-1.5673189163208008,-0.00013546046102419496,2.032459259033203,4.195217772121094,0.18246489763259888,0.3639238476753235,-1.3037870565997522,0.00018076227570418268,-0.06269430369138718,0.007288217544555664,5.0283602635476845e-26,0.009968305006623268,1.3192164897918701,-0.002639340702444315,0.20491242408752441
248.0,249.0,4.078,1.5823,7.2975,-0.6542,0.5655,0.0838,-1.5896183453001917,-0.03676769509911537,1.70162034034729,-1.5673432350158691,-0.000117737909022253,2.053605079650879,4.195991678828857,0.09172007441520691,0.3415069282054901,-1.3038271109210413,0.000168100610608235,-0.0686543881893158,0.007288217544555664,1.399662515309409e-29,0.0018022180302068591,1.31922447681427,-0.0028118237387388945,0.13305681943893433
248.0,249.0,4.078,1.5823,7.2975,-0.6542,0.5655,0.0838,-1.589886327783102,-0.04121382534503937,1.7059125900268555,-1.567302942276001,9.477007552050054e-05,1.989506483078003,4.196238203639648,0.006432259920984507,0.27788054943084717,-1.3038232962237757,0.0001570970198372379,-0.05566815286874771,0.007268190383911133,3.896012558617311e-33,0.016831722110509872,1.3191605806350708,-0.0030672794673591852,0.1917489916086197
248.0,249.0,4.078,1.5823,7.2975,-0.6542,0.5655,0.0838,-1.590114255944723,-0.046706851571798325,1.714725375175476,-1.5673792362213135,0.00012943292676936835,1.9872877597808838,4.19597498952832,-0.06476031988859177,0.24561050534248352,-1.3037827650653284,0.00014744518557563424,-0.04538116231560707,0.007320545148104429,1.0844691414883075e-36,0.013713434338569641,1.3191605806350708,-0.003202213905751705,0.16602669656276703
248.0,249.0,4.078,1.5823,7.2975,-0.6542,0.5655,0.0838,-1.5903259716429652,-0.04967350885272026,1.711272120475769,-1.5673308372497559,0.00025022239424288273,2.0472521781921387,4.195667429561279,-0.09305081516504288,0.23188769817352295,-1.3038066069232386,0.00014164358435664326,-0.057731471955776215,0.007316479925066233,4.623261984392939e-39,0.007606212981045246,1.3191603422164917,-0.003494055476039648,0.13769957423210144
248.0,249.0,4.078,1.5823,7.2975,-0.6542,0.5655,0.0838,-1.590649744073385,-0.055431414395570755,1.7121052742004395,-1.5674155950546265,9.034255344886333e-05,2.006019353866577,4.1949660021015625,-0.11679159104824066,0.22753846645355225,-1.3038108984576624,0.0001337499124929309,-0.07187268137931824,0.007263817824423313,1.286391990250182e-42,0.016657959669828415,1.3191245794296265,-0.004553474951535463,0.14712366461753845
248.0,249.0,4.078,1.5823,7.2975,-0.6542,0.5655,0.0838,-1.5910059414305628,-0.06324775516986847,1.6807653903961182,-1.567354679107666,2.8919109809066867e-06,1.9886319637298584,4.194285078639648,-0.12196327745914459,0.21987596154212952,-1.3037827650653284,0.0001283161691389978,-0.06485946476459503,0.007268190383911133,0.0,0.0008829292492009699,1.3191124200820923,-0.00693255290389061,0.13075169920921326
248.0,249.0,4.078,1.5823,7.2975,-0.6542,0.5655,0.0838,-1.5914293728270472,-0.07406240701675415,1.681375503540039,-1.5672906637191772,6.983624182416159e-12,2.0291459560394287,4.193579836482666,-0.1241564229130745,0.21377795934677124,-1.303807560597555,0.00013874888827558607,-0.0599677711725235,0.007268190383911133,0.0,0.014495084062218666,1.319076418876648,-0.00808219239115715,0.10926161706447601
248.0,249.0,4.078,1.5823,7.2975,-0.6542,0.5655,0.0838,-1.5919209919371546,-0.084241583943367,1.753373384475708,-1.5673834085464478,1.6864632774986258e-17,2.0461971759796143,4.192742510432861,-0.1512485146522522,0.2045949548482895,-1.3037751356707972,0.00013149887672625482,-0.0711364671587944,0.007255933713167906,0.0,0.02467019483447075,1.3189643621444702,-0.0076910583302378654,0.10685223340988159
248.0,249.0,4.078,1.5823,7.2975,-0.6542,0.5655,0.0838,-1.592513223687643,-0.08930759876966476,1.7616342306137085,-1.567274570465088,0.00017871886666398495,2.0041515827178955,4.19180600225415,-0.1730545312166214,0.19598744809627533,-1.3038032690631312,0.00012254655302967876,-0.05653556063771248,0.00726787094026804,0.0,0.008687841705977917,1.3189406394958496,-0.008271265774965286,0.12224885821342468
240.0,228.0,1.9161,-0.7262,8.2499,0.0629,-0.0953,-0.1101,-1.5930324993529261,-0.09354348480701447,1.7365543842315674,-1.5673069953918457,0.0004276487452443689,2.075120449066162,4.190702601070068,-0.16602937877178192,0.19562393426895142,-1.3037827650653284,0.0001338353322353214,-0.06656720489263535,0.007280123420059681,0.0,0.0068326531909406185,1.3189165592193604,-0.009268908761441708,0.13357006013393402
240.0,228.0,1.9161,-0.7262,8.2499,0.0629,-0.0953,-0.1101,-1.5936600170531214,-0.08928172290325165,1.6961860656738281,-1.567379355430603,0.00014743092469871044,1.9906892776489258,4.189747019405029,-0.1657877415418625,0.2020902782678604,-1.303807560597555,0.00012583615898620337,-0.05846107006072998,0.007288168650120497,0.0,-0.002136091236025095,1.3188525438308716,-0.00890266988426447,0.16034898161888123
240.0,228.0,1.9161,-0.7262,8.2499,0.0629,-0.0953,-0.1101,-1.5941993198790492,-0.08520543575286865,1.7290565967559814,-1.5673514604568481,3.5602837344939076e-10,1.9973046779632568,4.188639326686523,-0.18721911311149597,0.18798422813415527,-1.3038032690631312,0.00011872196046169847,-0.05977263301610947,0.00726007204502821,0.0,0.0045140450820326805,1.3187963962554932,-0.008403061889111996,0.1378287672996521
240.0,228.0,1.9161,-0.7262,8.2499,0.0629,-0.0953,-0.1101,-1.5945550403990687,-0.08507134020328522,1.7555463314056396,-1.5673587322235107,6.40838497176742e-14,2.082073926925659,4.187862082118652,-0.19743213057518005,0.17838680744171143,-1.3037427107440394,0.00011440984235377982,-0.06283624470233917,0.007271924056112766,0.0,0.0206376314163208,1.318764567375183,-0.008371626026928425,0.17023345828056335
240.0,228.0,1.9161,-0.7262,8.2499,0.0629,-0.0953,-0.1101,-1.5951997242369593,-0.09368020296096802,1.7293462753295898,-1.5673789978027344,-0.0009881914593279362,1.9841625690460205,4.186650438899658,-0.19989599287509918,0.1797407567501068,-1.3037751356707972,0.000123989608255215,-0.06658895313739777,0.007271928247064352,0.0,-0.004649226553738117,1.3187326192855835,-0.00771347526460886,0.08718320727348328
240.0,228.0,1.9161,-0.7262,8.2499,0.0629,-0.0953,-0.1101,-1.5957142315306605,-0.10539349168539047,1.6960618495941162,-1.5673472881317139,-0.0016090419376268983,2.0099759101867676,4.185346766109131,-0.2331375628709793,0.1808357834815979,-1.3037388960467737,0.00016002586926333606,-0.06697969138622284,0.007260436192154884,0.0,0.006902394816279411,1.3186883926391602,-0.007576413452625275,0.12222351133823395
240.0,228.0,1.9161,-0.7262,8.2499,0.0629,-0.0953,-0.1101,-1.5963293514647425,-0.11493834108114243,1.7252429723739624,-1.567294716835022,-0.00024352685431949794,2.0164761543273926,4.183869047755859,-0.24196934700012207,0.17173296213150024,-1.303763214741842,0.00015951025125104934,-0.06834599375724792,0.007312334608286619,0.0,0.00042522905278019607,1.318644404411316,-0.007711025886237621,0.13816693425178528
240.0,228.0,1.9161,-0.7262,8.2499,0.0629,-0.0953,-0.1101,-1.5970779858031214,-0.11960679292678833,1.7093522548675537,-1.5672987699508667,-5.880887998799267e-10,2.040634870529175,4.182519121760986,-0.23951692879199982,0.1654016673564911,-1.3037307898150843,0.00015891966177150607,-0.055052246898412704,0.007280135527253151,0.0,0.017951540648937225,1.3186005353927612,-0.0077335950918495655,0.10832594335079193
240.0,228.0,1.9161,-0.7262,8.2499,0.0629,-0.0953,-0.1101,-1.5977488956847132,-0.12062728404998779,1.7399232387542725,-1.567302942276001,0.002140202559530735,2.0005602836608887,4.180989904994629,-0.24690771102905273,0.16256365180015564,-1.303751293812887,0.000146029720781371,-0.06229303777217865,0.007284204475581646,0.0,0.004297931678593159,1.3185724020004272,-0.009083050303161144,0.08789458125829697
240.0,228.0,1.9161,-0.7262,8.2499,0.0629,-0.0953,-0.1101,-1.5984398327269496,-0.11552278697490692,1.7474302053451538,-1.5673394203186035,0.0026861706282943487,2.049652576446533,4.179526968593262,-0.2299913913011551,0.14537528157234192,-1.3037269751178187,0.00013507094990927726,-0.0614238865673542,0.007312378846108913,0.0,-0.01023903489112854,1.3185327053070068,-0.007257306482642889,0.11750496923923492
240.0,228.0,1.9161,-0.7262,8.2499,0.0629,-0.0953,-0.1101,-1.5991674862303675,-0.10529758036136627,1.7841979265213013,-1.5673311948776245,0.0012993775308132172,2.099581718444824,4.1781603532978515,-0.24380160868167877,0.15361753106117249,-1.3037627379046839,0.00012564254575408995,-0.06657721847295761,0.007224001456052065,0.0,0.0072234636172652245,1.3184882402420044,-0.005393622908741236,0.07701274752616882
240.0,228.0,1.9161,-0.7262,8.2499,0.0629,-0.0953,-0.1101,-1.5998393497862757,-0.09934252500534058,1.807633638381958,-1.5673234462738037,3.8435551630300324e-08,2.043292760848999,4.176690264339111,-0.23124736547470093,0.184218168258667,-1.3037789503680628,0.00011744420044124126,-0.051820479333400726,0.007252216339111328,0.0,-0.008943271823227406,1.318480372428894,-0.0030569122172892094,0.12397176027297974
240.0,228.0,1.9161,-0.7262,8.2499,0.0629,-0.0953,-0.1101,-1.600523134271139,-0.10455076396465302,1.8489668369293213,-1.5673627853393555,-0.0016085478710010648,2.0685112476348877,4.1753880220600585,-0.2226337343454361,0.171487957239151,-1.3037589232074183,0.00011025075946236029,-0.07528844475746155,0.007244110107421875,0.0,-0.0051377685740590096,1.3184964656829834,-0.0017222848255187273,0.09191904962062836
240.0,228.0,1.9161,-0.7262,8.2499,0.0629,-0.0953,-0.1101,-1.6009546718993128,-0.11119062453508377,1.8711912631988525,-1.5673587322235107,-0.0023877499625086784,2.050050735473633,4.174511118526123,-0.22165079414844513,0.17884331941604614,-1.3037546316729944,0.00010592521721264347,-0.06422394514083862,0.007212162017822266,0.0,-0.012061115354299545,1.318468451499939,-0.0013237782986834645,0.08616894483566284
240.0,228.0,1.9161,-0.7262,8.2499,0.0629,-0.0953,-0.1101,-1.6016222439207972,-0.12194439768791199,1.8234105110168457,-1.5674073696136475,-0.0018152142874896526,2.0291805267333984,4.1732727724262695,-0.19836898148059845,0.20145073533058167,-1.3037951628314417,0.00010003804345615208,-0.07001513242721558,0.007268178276717663,0.0,-0.005069248843938112,1.3184962272644043,-0.0010292083024978638,0.06857752054929733
240.0,228.0,1.9161,-0.7262,8.2499,0.0629,-0.0953,-0.1101,-1.6022936306395472,-0.1307167261838913,1.839212417602539,-1.5673670768737793,-0.0001990366872632876,2.0952978134155273,4.172233267421387,-0.18412204086780548,0.21821996569633484,-1.3037427107440394,9.477105049882084e-05,-0.06424964964389801,0.0073402258567512035,0.0,-0.003584173507988453,1.3183846473693848,-0.001196721219457686,0.06877800822257996
222.0,245.0,4.0995,1.5176,7.6146,0.1958,-0.2056,-0.2207,-1.6030775509276332,-0.13305167853832245,1.8230640888214111,-1.5673270225524902,0.0011491065379232168,2.0856292247772217,4.171229048366211,-0.16872768104076385,0.2066076546907425,-1.3037427107440394,9.003081504488364e-05,-0.04889458417892456,0.007272219751030207,0.0,0.003088069148361683,1.3183764219284058,-0.002086552558466792,0.10318829864263535
222.0,245.0,4.0995,1.5176,7.6146,0.1958,-0.2056,-0.2207,-1.603828569451803,-0.12873640656471252,1.8288519382476807,-1.5672593116760254,0.004807943943887949,2.1201353073120117,4.170388384456299,-0.12699252367019653,0.23508810997009277,-1.3037708441363733,8.574224193580449e-05,-0.0474574938416481,0.007292295806109905,0.0,0.0021300199441611767,1.3184164762496948,-0.0018546897917985916,0.11509045213460922
