ramyac6/ROB537/final_project/csv/bad/bad_87.csv
tof_0,tof_1,accelx,accely,accelz,gyrox,gyroy,gyroz,shoulder_lift_joint_position,shoulder_lift_joint_velocity,shoulder_lift_joint_effort,elbow_joint_position,elbow_joint_velocity,elbow_joint_effort,wrist_1_joint_position,wrist_1_joint_velocity,wrist_1_joint_effort,wrist_2_joint_position,wrist_2_joint_velocity,wrist_2_joint_effort,wrist_3_joint_position,wrist_3_joint_velocity,wrist_3_joint_effort,shoulder_pan_joint_position,shoulder_pan_joint_velocity,shoulder_pan_joint_effort
275.0,270.0,0.8052,-2.0195,9.2842,-0.0385,0.0292,-0.1173,-1.7029863796629847,0.0,2.6924080848693848,-1.7558106184005737,-0.0,2.063162326812744,4.861874821573057,0.0,0.28764840960502625,-1.36194354692568,-0.0,-0.03666599094867706,0.7538275122642517,0.0,-0.0010956882033497095,0.9169021844863892,0.0,0.03305244818329811
275.0,270.0,0.8052,-2.0195,9.2842,-0.0385,0.0292,-0.1173,-1.7029262981810511,0.0,2.6355788707733154,-1.75583016872406,-0.0,2.115781784057617,4.861907097488203,0.0,0.2896175980567932,-1.3619673887835901,-0.0,-0.026164613664150238,0.753847599029541,0.0,-0.002225002972409129,0.9168455600738525,0.0,0.01923912763595581
275.0,270.0,0.8052,-2.0195,9.2842,-0.0385,0.0292,-0.1173,-1.7029301128783167,0.0,2.6819841861724854,-1.7558064460754395,-0.0,2.092791795730591,4.861910584359922,0.0,0.3054618835449219,-1.3619754950152796,-0.0,-0.030158083885908127,0.7538761496543884,0.0,-0.005601076874881983,0.9169182181358337,0.0,-0.006476502865552902
275.0,270.0,0.8052,-2.0195,9.2842,-0.0385,0.0292,-0.1173,-1.703010698358053,0.0,2.6952037811279297,-1.755789875984192,-0.0,2.126272201538086,4.8618347374494455,0.0,0.2861217260360718,-1.3619392553912562,-0.0,-0.0453183576464653,0.7538880705833435,0.0,0.004206824116408825,0.9168698787689209,0.0,-0.005315571092069149
275.0,270.0,0.8052,-2.0195,9.2842,-0.0385,0.0292,-0.1173,-1.7029506168761195,0.0,2.6924381256103516,-1.7557497024536133,-0.0,2.1097025871276855,4.8619151441152475,0.0,0.2986273169517517,-1.3619630972491663,-0.0,-0.040157388895750046,0.7538557052612305,0.0,0.008263247087597847,0.9169021844863892,0.0,-0.01602945849299431
275.0,270.0,0.8052,-2.0195,9.2842,-0.0385,0.0292,-0.1173,-1.7029625378050746,0.0,2.665663719177246,-1.7558106184005737,-0.0,2.1119887828826904,4.861894804030218,0.0,0.29251840710639954,-1.3619592825519007,-0.0,-0.03356578201055527,0.7538639307022095,0.0,0.00036536669358611107,0.9168776273727417,0.0,-0.014816450886428356
275.0,270.0,0.8052,-2.0195,9.2842,-0.0385,0.0292,-0.1173,-1.7029711208739222,0.0,2.695422649383545,-1.755745530128479,-0.0,2.0771334171295166,4.861838775664129,0.0,0.284492164850235,-1.3619917074786585,-0.0,-0.028089292347431183,0.7538597583770752,0.0,-0.003667830489575863,0.9168656468391418,0.0,0.025534557178616524
275.0,270.0,0.8052,-2.0195,9.2842,-0.0385,0.0292,-0.1173,-1.7029744587340296,0.0,2.7039761543273926,-1.7557826042175293,-0.0,2.080396890640259,4.861874806671896,0.0,0.28893566131591797,-1.361971680318014,-0.0,-0.03514096140861511,0.7538720965385437,0.0,0.0003325680736452341,0.9169062972068787,0.0,-0.002578210085630417
276.0,263.0,0.8489,-2.0076,9.1974,-0.0354,0.027,-0.1129,-1.702986856500143,0.0,2.631042957305908,-1.7557785511016846,-0.0,2.089933395385742,4.86190706768588,0.0,0.2883598208427429,-1.3619673887835901,-0.0,-0.023218590766191483,0.7538720965385437,0.0,-0.0030355241615325212,0.9168939590454102,0.0,-0.04679051786661148
276.0,263.0,0.8489,-2.0076,9.1974,-0.0354,0.027,-0.1129,-1.7029863796629847,0.0,2.663255214691162,-1.7558106184005737,-0.0,2.1261518001556396,4.861911120801725,0.0,0.27710849046707153,-1.3619392553912562,-0.0,-0.032879091799259186,0.753871738910675,0.0,-0.008976630866527557,0.9169139862060547,0.0,-0.006706006359308958
276.0,263.0,0.8489,-2.0076,9.1974,-0.0354,0.027,-0.1129,-1.7029830418028773,0.0,2.663008451461792,-1.755846619606018,-0.0,2.0940303802490234,4.8618948487337015,0.0,0.29543718695640564,-1.3619592825519007,-0.0,-0.0354762077331543,0.7538356781005859,0.0,-0.0029505682177841663,0.9169182181358337,0.0,-0.026433199644088745
276.0,263.0,0.8489,-2.0076,9.1974,-0.0354,0.027,-0.1129,-1.702998777429098,0.0,2.6662724018096924,-1.7557826042175293,-0.0,2.146378517150879,4.861898886948385,0.0,0.30409666895866394,-1.3619549910174769,-0.0,-0.029748588800430298,0.7538233995437622,0.0,0.0021150067914277315,0.9169140458106995,0.0,0.017234837636351585
276.0,263.0,0.8489,-2.0076,9.1974,-0.0354,0.027,-0.1129,-1.7029830418028773,0.0,2.667924165725708,-1.7557858228683472,-0.0,2.0684702396392822,4.861911090999403,0.0,0.2931438684463501,-1.3619354406939905,-0.0,-0.030974172055721283,0.7538840174674988,0.0,-0.008868779055774212,0.9168735146522522,0.0,-0.023511946201324463
276.0,263.0,0.8489,-2.0076,9.1974,-0.0354,0.027,-0.1129,-1.7029744587340296,0.0,2.6854772567749023,-1.7558106184005737,-0.0,2.0945563316345215,4.861846911698141,0.0,0.2959940433502197,-1.3619549910174769,-0.0,-0.021207109093666077,0.7538917064666748,0.0,0.00902015995234251,0.9169378876686096,0.0,-0.006350422743707895
276.0,263.0,0.8489,-2.0076,9.1974,-0.0354,0.027,-0.1129,-1.702958723107809,0.0,2.7005221843719482,-1.7558138370513916,-0.0,2.108745574951172,4.861874806671896,0.0,0.2784024775028229,-1.3619874159442347,-0.0,-0.030439969152212143,0.753851592540741,0.0,-0.006181755103170872,0.9169021844863892,0.0,0.006210097577422857
276.0,263.0,0.8489,-2.0076,9.1974,-0.0354,0.027,-0.1129,-1.703014989892477,0.0,2.6635425090789795,-1.755854845046997,-0.0,2.131706714630127,4.861850756197729,0.0,0.29505592584609985,-1.3619673887835901,-0.0,-0.036537058651447296,0.7538639307022095,0.0,0.0010272590443491936,0.9168858528137207,0.0,0.013203914277255535
276.0,263.0,0.8489,-2.0076,9.1974,-0.0354,0.027,-0.1129,-1.7029630146422328,0.0,2.639195680618286,-1.7558187246322632,-0.0,2.106560230255127,4.861890795617857,0.0,0.29398074746131897,-1.361971680318014,-0.0,-0.04308157414197922,0.7538516521453857,0.0,-0.0014363947557285428,0.9168817400932312,0.0,0.0029926938004791737
276.0,263.0,0.8489,-2.0076,9.1974,-0.0354,0.027,-0.1129,-1.7029749355711878,0.0,2.6610894203186035,-1.7557826042175293,-0.0,2.1048476696014404,4.8618629453475855,0.0,0.2742815315723419,-1.3619392553912562,-0.0,-0.035534992814064026,0.753871738910675,0.0,-0.016045626252889633,0.9168899655342102,0.0,0.008294018916785717
276.0,263.0,0.8489,-2.0076,9.1974,-0.0354,0.027,-0.1129,-1.7029625378050746,0.0,2.6601686477661133,-1.7558425664901733,-0.0,2.0890843868255615,4.861886653095045,0.0,0.2772234082221985,-1.3619754950152796,-0.0,-0.029274452477693558,0.7538638710975647,0.0,0.002506895689293742,0.9168735146522522,0.0,-0.04243273660540581
276.0,263.0,0.8489,-2.0076,9.1974,-0.0354,0.027,-0.1129,-1.7029787502684535,0.0,2.6918015480041504,-1.7558144330978394,-0.0,2.0982723236083984,4.8618788597877405,0.0,0.2920268476009369,-1.3619187513934534,-0.0,-0.022181805223226547,0.7538877129554749,0.0,-0.004553813952952623,0.9169139862060547,0.0,0.01575332321226597
276.0,263.0,0.8489,-2.0076,9.1974,-0.0354,0.027,-0.1129,-1.7029830418028773,0.0,2.652277946472168,-1.7558064460754395,-0.0,2.071718692779541,4.86193077543334,0.0,0.292838454246521,-1.3619392553912562,-0.0,-0.03195866197347641,0.7538557648658752,0.0,-0.0012089884839951992,0.9169182181358337,0.0,-0.006929716560989618
276.0,263.0,0.8489,-2.0076,9.1974,-0.0354,0.027,-0.1129,-1.7028900585570277,0.0,2.6628355979919434,-1.755786657333374,-0.0,2.0984272956848145,4.861858832627096,0.0,0.297235369682312,-1.3619425932513636,-0.0,-0.030056826770305634,0.7538516521453857,0.0,-0.006342300213873386,0.9168698787689209,0.0,0.020536750555038452
278.0,260.0,0.7932,-2.0207,9.326,-0.0304,0.0176,-0.1214,-1.7029625378050746,0.0,2.6620945930480957,-1.755854845046997,-0.0,2.110165596008301,4.86190294006423,0.0,0.2860301434993744,-1.3619912306415003,-0.0,-0.024828527122735977,0.7538999915122986,0.0,-0.010864905081689358,0.9168938994407654,0.0,-0.017734656110405922
278.0,260.0,0.7932,-2.0207,9.326,-0.0304,0.0176,-0.1214,-1.7029949627318324,0.0,2.691920518875122,-1.7557703256607056,-0.0,2.107337713241577,4.861874806671896,0.0,0.28474682569503784,-1.36194354692568,-0.0,-0.02652108483016491,0.7537955045700073,0.0,-0.0006969483802095056,0.9169058203697205,0.0,-0.0035150176845490932
278.0,260.0,0.7932,-2.0207,9.326,-0.0304,0.0176,-0.1214,-1.7029262981810511,0.0,2.6925508975982666,-1.75583016872406,-0.0,2.0920236110687256,4.861911120801725,0.0,0.30078861117362976,-1.3619311491595667,-0.0,-0.04147806763648987,0.7538192868232727,0.0,-0.00435591721907258,0.9168816804885864,0.0,0.03321726992726326
278.0,260.0,0.7932,-2.0207,9.326,-0.0304,0.0176,-0.1214,-1.7030068836607875,0.0,2.677579879760742,-1.7557826042175293,-0.0,2.077564239501953,4.861870679050245,0.0,0.2865281403064728,-1.361983601246969,-0.0,-0.03526534512639046,0.7538799047470093,0.0,-0.00609317421913147,0.9168939590454102,0.0,-0.018386846408247948
278.0,260.0,0.7932,-2.0207,9.326,-0.0304,0.0176,-0.1214,-1.7029830418028773,0.0,2.6536941528320312,-1.7557743787765503,-0.0,2.1082308292388916,4.861898886948385,0.0,0.2812224328517914,-1.3619874159442347,-0.0,-0.0240602046251297,0.7538233995437622,0.0,0.006309053860604763,0.9168939590454102,0.0,-0.020411310717463493
278.0,260.0,0.7932,-2.0207,9.326,-0.0304,0.0176,-0.1214,-1.7029711208739222,0.0,2.6796624660491943,-1.7558180093765259,-0.0,2.0624194145202637,4.86190706768588,0.0,0.27977731823921204,-1.3620074431048792,-0.0,-0.02901247888803482,0.7538233995437622,0.0,0.0016881822375580668,0.9168698787689209,0.0,-0.0018938507419079542
278.0,260.0,0.7932,-2.0207,9.326,-0.0304,0.0176,-0.1214,-1.7029911480345667,0.0,2.711000442504883,-1.7557579278945923,-0.0,2.0947444438934326,4.861870679050245,0.0,0.2927340269088745,-1.3619549910174769,-0.0,-0.01912888139486313,0.7538757920265198,0.0,-0.007561335805803537,0.9169542193412781,0.0,-0.012722990475594997
278.0,260.0,0.7932,-2.0207,9.326,-0.0304,0.0176,-0.1214,-1.7029668293394984,0.0,2.664062738418579,-1.7557497024536133,-0.0,2.1230506896972656,4.861959028034963,0.0,0.29323065280914307,-1.3619630972491663,-0.0,-0.025654956698417664,0.753839373588562,0.0,0.0038084653206169605,0.9169419407844543,0.0,0.004351942799985409
278.0,260.0,0.7932,-2.0207,9.326,-0.0304,0.0176,-0.1214,-1.7029668293394984,0.0,2.6924080848693848,-1.7557940483093262,-0.0,2.0858988761901855,4.861874806671896,0.0,0.2845287621021271,-1.3619673887835901,-0.0,-0.031898319721221924,0.7538114786148071,0.0,-0.005105362273752689,0.9168332815170288,0.0,-0.01760721020400524
278.0,260.0,0.7932,-2.0207,9.326,-0.0304,0.0176,-0.1214,-1.7029744587340296,0.0,2.650740146636963,-1.7558187246322632,-0.0,2.1092123985290527,4.861866700440206,0.0,0.29137423634529114,-1.361971680318014,-0.0,-0.026630297303199768,0.7538840770721436,0.0,-0.0028613940812647343,0.9168456792831421,0.0,0.0015077916905283928
278.0,260.0,0.7932,-2.0207,9.326,-0.0304,0.0176,-0.1214,-1.7029949627318324,0.0,2.6267404556274414,-1.7558344602584839,-0.0,2.0625391006469727,4.861890780716696,0.0,0.2985033690929413,-1.361971680318014,-0.0,-0.028062283992767334,0.753875732421875,0.0,0.003454989055171609,0.9168980717658997,0.0,-0.001292646862566471
278.0,260.0,0.7932,-2.0207,9.326,-0.0304,0.0176,-0.1214,-1.7029668293394984,0.0,2.6875076293945312,-1.755786657333374,-0.0,2.098123073577881,4.861911120801725,0.0,0.2804372310638428,-1.3619630972491663,-0.0,-0.03398257866501808,0.7539077401161194,0.0,0.007114963140338659,0.9169058203697205,0.0,-0.00862320326268673
278.0,260.0,0.7932,-2.0207,9.326,-0.0304,0.0176,-0.1214,-1.7029625378050746,0.0,2.6159162521362305,-1.7557858228683472,-0.0,2.1171786785125732,4.861858832627096,0.0,0.2941063940525055,-1.3619754950152796,-0.0,-0.029560063034296036,0.7538757920265198,0.0,0.007202001288533211,0.9168938994407654,0.0,0.007864058949053288
278.0,260.0,0.7932,-2.0207,9.326,-0.0304,0.0176,-0.1214,-1.703014989892477,0.0,2.6618776321411133,-1.7557940483093262,-0.0,2.1171813011169434,4.861870679050245,0.0,0.29377228021621704,-1.3619468847857874,-0.0,-0.02542176842689514,0.7538352608680725,0.0,-0.010516234673559666,0.9169103503227234,0.0,-0.017832400277256966
274.0,274.0,0.8201,-2.0082,9.32,-0.0374,0.0192,-0.1132,-1.7030030689635218,0.0,2.6776528358459473,-1.7558261156082153,-0.0,2.1017589569091797,4.861870679050245,0.0,0.2923940122127533,-1.361971680318014,-0.0,-0.038842588663101196,0.7538597583770752,0.0,0.00240903883241117,0.9168899059295654,0.0,-0.008845610544085503
274.0,274.0,0.8201,-2.0082,9.32,-0.0374,0.0192,-0.1132,-1.7029911480345667,0.0,2.6557235717773438,-1.7557743787765503,-0.0,2.0618364810943604,4.86192678192214,0.0,0.29661959409713745,-1.3619955221759241,-0.0,-0.03034917265176773,0.7538114190101624,0.0,-0.007674984633922577,0.9168938994407654,0.0,-0.0008868733420968056
274.0,274.0,0.8201,-2.0082,9.32,-0.0374,0.0192,-0.1132,-1.7029744587340296,0.0,2.642991065979004,-1.755789875984192,-0.0,2.0462660789489746,4.86190294006423,0.0,0.29391351342201233,-1.3619673887835901,-0.0,-0.04083206132054329,0.7538597583770752,0.0,-0.0062700305134058,0.916918158531189,0.0,-0.004508462734520435
274.0,274.0,0.8201,-2.0082,9.32,-0.0374,0.0192,-0.1132,-1.7030273876585902,0.0,2.701239585876465,-1.755821943283081,-0.0,2.0799496173858643,4.861934575229444,0.0,0.2994270622730255,-1.36194354692568,-0.0,-0.03597922623157501,0.7538114190101624,0.0,0.0020901195239275694,0.9169062376022339,0.0,-0.06835003197193146
274.0,274.0,0.8201,-2.0082,9.32,-0.0374,0.0192,-0.1132,-1.7029625378050746,0.0,2.679206609725952,-1.7558342218399048,-0.0,2.0986855030059814,4.861894908338346,0.0,0.28426820039749146,-1.361971680318014,-0.0,-0.0293617844581604,0.7538597583770752,0.0,-0.00023590167984366417,0.9169058203697205,0.0,0.013790794648230076
274.0,274.0,0.8201,-2.0082,9.32,-0.0374,0.0192,-0.1132,-1.7029344044127406,0.0,2.609442710876465,-1.7557858228683472,-0.0,2.0718586444854736,4.861898901849546,0.0,0.2835133373737335,-1.3619917074786585,-0.0,-0.03676660358905792,0.7538114786148071,0.0,0.0063882977701723576,0.9169419407844543,0.0,-0.045766353607177734
274.0,274.0,0.8201,-2.0082,9.32,-0.0374,0.0192,-0.1132,-1.7029906711974085,0.0,2.661437749862671,-1.7558506727218628,-0.0,2.0987226963043213,4.861874806671896,0.0,0.27468740940093994,-1.3619993368731897,-0.0,-0.04390738904476166,0.7537832856178284,0.0,-8.874456398189068e-05,0.9169263243675232,0.0,-0.013198516331613064
274.0,274.0,0.8201,-2.0082,9.32,-0.0374,0.0192,-0.1132,-1.7028938732542933,0.0,2.658268451690674,-1.7558064460754395,-0.0,2.0765089988708496,4.86192678192214,0.0,0.27652662992477417,-1.3619549910174769,-0.0,-0.03458616882562637,0.7538233399391174,0.0,0.004465276841074228,0.9168698191642761,0.0,0.003968128468841314
274.0,274.0,0.8201,-2.0082,9.32,-0.0374,0.0192,-0.1132,-1.702925821343893,0.0,2.625915288925171,-1.7557940483093262,-0.0,2.0863306522369385,4.861922728806295,0.0,0.29124781489372253,-1.3619354406939905,-0.0,-0.03466043621301651,0.7538638710975647,0.0,0.004245826043188572,0.9168497323989868,0.0,0.06598185002803802
274.0,274.0,0.8201,-2.0082,9.32,-0.0374,0.0192,-0.1132,-1.7029787502684535,0.0,2.6898574829101562,-1.7557940483093262,-0.0,2.084077835083008,4.861886653095045,0.0,0.27395302057266235,-1.361971680318014,-0.0,-0.028130201622843742,0.7538278698921204,0.0,0.0028547525871545076,0.9168575406074524,0.0,0.03012588620185852
274.0,274.0,0.8201,-2.0082,9.32,-0.0374,0.0192,-0.1132,-1.7029549084105433,0.0,2.655611038208008,-1.7557941675186157,-0.0,2.0939416885375977,4.861870679050245,0.0,0.28276360034942627,-1.3619754950152796,-0.0,-0.03353458642959595,0.7538517117500305,0.0,0.0036180466413497925,0.9169501662254333,0.0,-0.05523787438869476
274.0,274.0,0.8201,-2.0082,9.32,-0.0374,0.0192,-0.1132,-1.702982564965719,0.0,2.724635124206543,-1.7557661533355713,-0.0,2.118441104888916,4.8619186011846445,0.0,0.28683388233184814,-1.3619874159442347,-0.0,-0.03230997547507286,0.7538114190101624,0.0,0.01079208217561245,0.9169062376022339,0.0,0.0018950385274365544
274.0,274.0,0.8201,-2.0082,9.32,-0.0374,0.0192,-0.1132,-1.7029625378050746,0.0,2.654533624649048,-1.7558704614639282,-0.0,2.0767502784729004,4.861846673279562,0.0,0.2867726683616638,-1.3619468847857874,-0.0,-0.030736029148101807,0.7538597583770752,0.0,-0.0039750938303768635,0.9168735146522522,0.0,-0.015488166362047195
274.0,274.0,0.8201,-2.0082,9.32,-0.0374,0.0192,-0.1132,-1.7029787502684535,0.0,2.6513373851776123,-1.7558187246322632,-0.0,2.158334255218506,4.8618788597877405,0.0,0.28416991233825684,-1.36194354692568,-0.0,-0.02619349956512451,0.7539321780204773,0.0,0.013993540778756142,0.9169140458106995,0.0,0.05326792225241661
270.0,260.0,0.8961,-2.0261,9.1974,-0.0324,0.0254,-0.1141,-1.702986856500143,0.0,2.645408868789673,-1.7557940483093262,-0.0,2.114943027496338,4.861870679050245,0.0,0.2827227711677551,-1.361950699483053,-0.0,-0.05039806291460991,0.7538557648658752,0.0,0.0032269987277686596,0.9168776273727417,0.0,-0.024360651150345802
270.0,260.0,0.8961,-2.0261,9.1974,-0.0324,0.0254,-0.1141,-1.70294251064443,0.0,2.7220568656921387,-1.7558261156082153,-0.0,2.1254067420959473,4.861890795617857,0.0,0.296051561832428,-1.3619425932513636,-0.0,-0.03468289598822594,0.7538597583770752,0.0,-0.007740553468465805,0.9168615937232971,0.0,-0.005140783730894327
270.0,260.0,0.8961,-2.0261,9.1974,-0.0324,0.0254,-0.1141,-1.7029787502684535,0.0,2.6679835319519043,-1.7557785511016846,-0.0,2.0972466468811035,4.861894818931379,0.0,0.3091440498828888,-1.361950699483053,-0.0,-0.017059486359357834,0.7539036870002747,0.0,-0.013258123770356178,0.9169140458106995,0.0,0.0253998301923275
270.0,260.0,0.8961,-2.0261,9.1974,-0.0324,0.0254,-0.1141,-1.7029506168761195,0.0,2.6516942977905273,-1.7558146715164185,-0.0,2.094572067260742,4.8618507263954065,0.0,0.28977063298225403,-1.361950699483053,-0.0,-0.05350947380065918,0.7538598775863647,0.0,0.005917889066040516,0.9169058203697205,0.0,-0.04451756551861763
270.0,260.0,0.8961,-2.0261,9.1974,-0.0324,0.0254,-0.1141,-1.7029711208739222,0.0,2.610988140106201,-1.7557785511016846,-0.0,2.105930805206299,4.861882674485006,0.0,0.2965101897716522,-1.3619673887835901,-0.0,-0.0395149365067482,0.7538316249847412,0.0,-0.003987959586083889,0.9169259667396545,0.0,-0.05288877338171005
270.0,260.0,0.8961,-2.0261,9.1974,-0.0324,0.0254,-0.1141,-1.702998777429098,0.0,2.665945529937744,-1.755789875984192,-0.0,2.0910470485687256,4.861902910261907,0.0,0.29155558347702026,-1.3619588057147425,-0.0,-0.046078477054834366,0.753875732421875,0.0,0.0008457208750769496,0.9169341325759888,0.0,-0.017567835748195648
270.0,260.0,0.8961,-2.0261,9.1974,-0.0324,0.0254,-0.1141,-1.7029830418028773,0.0,2.682260513305664,-1.7558146715164185,-0.0,2.1136388778686523,4.8618507263954065,0.0,0.29884040355682373,-1.361971680318014,-0.0,-0.03310614451766014,0.7537954449653625,0.0,-0.001294646761380136,0.9169300198554993,0.0,0.07880382984876633
270.0,260.0,0.8961,-2.0261,9.1974,-0.0324,0.0254,-0.1141,-1.7030273876585902,0.0,2.650329113006592,-1.7558138370513916,-0.0,2.1188721656799316,4.861898961454191,0.0,0.28419098258018494,-1.3619187513934534,-0.0,-0.04075446352362633,0.7538114190101624,0.0,-0.0016760920407250524,0.9168898463249207,0.0,0.04234752058982849
270.0,260.0,0.8961,-2.0261,9.1974,-0.0324,0.0254,-0.1141,-1.7029468021788539,0.0,2.672032356262207,-1.7557258605957031,-0.0,2.128403425216675,4.861866700440206,0.0,0.30228233337402344,-1.3619397322284144,-0.0,-0.01954970322549343,0.7538197040557861,0.0,0.009423438459634781,0.9168775677680969,0.0,-0.004295735619962215
270.0,260.0,0.8961,-2.0261,9.1974,-0.0324,0.0254,-0.1141,-1.7029625378050746,0.0,2.6678383350372314,-1.7558146715164185,-0.0,2.0997791290283203,4.86190294006423,0.0,0.28503403067588806,-1.361971680318014,-0.0,-0.03651990741491318,0.7538679838180542,0.0,-0.005481871776282787,0.9168615937232971,0.0,-0.021367771551012993
270.0,260.0,0.8961,-2.0261,9.1974,-0.0324,0.0254,-0.1141,-1.7030230961241664,0.0,2.674940347671509,-1.7557858228683472,-0.0,2.09651780128479,4.86191517391757,0.0,0.28504040837287903,-1.3619754950152796,-0.0,-0.03230220079421997,0.7538434267044067,0.0,0.003726429305970669,0.9169222712516785,0.0,0.018591931089758873
270.0,260.0,0.8961,-2.0261,9.1974,-0.0324,0.0254,-0.1141,-1.702982564965719,0.0,2.6851229667663574,-1.7558138370513916,-0.0,2.1076273918151855,4.861890780716696,0.0,0.28795674443244934,-1.3619354406939905,-0.0,-0.032494477927684784,0.7538876533508301,0.0,-0.001804629573598504,0.9169259667396545,0.0,0.001760062761604786
270.0,260.0,0.8961,-2.0261,9.1974,-0.0324,0.0254,-0.1141,-1.7029830418028773,0.0,2.670194625854492,-1.7558106184005737,-0.0,2.1385207176208496,4.861874806671896,0.0,0.2792409658432007,-1.3619311491595667,-0.0,-0.02329934574663639,0.7538557052612305,0.0,-0.006001693196594715,0.916938304901123,0.0,-0.013408387079834938
270.0,260.0,0.8961,-2.0261,9.1974,-0.0324,0.0254,-0.1141,-1.7029344044127406,0.0,2.658311605453491,-1.7558714151382446,-0.0,2.138711452484131,4.861898961454191,0.0,0.29422593116760254,-1.361950699483053,-0.0,-0.021004118025302887,0.753847599029541,0.0,0.013795480132102966,0.9168534278869629,0.0,-0.007030021399259567
266.0,269.0,0.8004,-2.1051,9.1711,-0.0363,0.0133,-0.1115,-1.702970644036764,0.0,2.7116847038269043,-1.7557785511016846,-0.0,2.089548349380493,4.861894804030218,0.0,0.28099140524864197,-1.3619311491595667,-0.0,-0.03468240797519684,0.753847599029541,0.0,-0.007121207192540169,0.9168538451194763,0.0,0.014526495710015297
266.0,269.0,0.8004,-2.1051,9.1711,-0.0363,0.0133,-0.1115,-1.702970644036764,0.0,2.6542835235595703,-1.7557785511016846,-0.0,2.1122970581054688,4.861934575229444,0.0,0.291690468788147,-1.361971680318014,-0.0,-0.025884944945573807,0.7538876533508301,0.0,0.0031211504247039557,0.91690993309021,0.0,0.012128224596381187
266.0,269.0,0.8004,-2.1051,9.1711,-0.0363,0.0133,-0.1115,-1.7029744587340296,0.0,2.6487808227539062,-1.755821943283081,-0.0,2.1104016304016113,4.861914637475767,0.0,0.2805042266845703,-1.36194354692568,-0.0,-0.03554912656545639,0.7538557648658752,0.0,0.0015851730713620782,0.9169337749481201,0.0,-0.005091461353003979
266.0,269.0,0.8004,-2.1051,9.1711,-0.0363,0.0133,-0.1115,-1.7030068836607875,0.0,2.6511435508728027,-1.75579833984375,-0.0,2.1091763973236084,4.861878621369161,0.0,0.2838582992553711,-1.3619754950152796,-0.0,-0.03719135373830795,0.7538597583770752,0.0,0.008281564339995384,0.9169177412986755,0.0,-0.018356284126639366
266.0,269.0,0.8004,-2.1051,9.1711,-0.0363,0.0133,-0.1115,-1.7030354938902796,0.0,2.643275737762451,-1.7557703256607056,-0.0,2.1072211265563965,4.861934575229444,0.0,0.2866969108581543,-1.3619549910174769,-0.0,-0.03412469103932381,0.753908097743988,0.0,0.00519051868468523,0.91690993309021,0.0,-0.06725122034549713
266.0,269.0,0.8004,-2.1051,9.1711,-0.0363,0.0133,-0.1115,-1.702998777429098,0.0,2.63852596282959,-1.7558064460754395,-0.0,2.1079297065734863,4.86190706768588,0.0,0.2694317102432251,-1.361971680318014,-0.0,-0.024821478873491287,0.7538036704063416,0.0,0.0006088102818466723,0.9169182181358337,0.0,-0.03784848749637604
266.0,269.0,0.8004,-2.1051,9.1711,-0.0363,0.0133,-0.1115,-1.7029100857176722,0.0,2.6580374240875244,-1.7557826042175293,-0.0,2.0942773818969727,4.86190706768588,0.0,0.27066829800605774,-1.3619549910174769,-0.0,-0.01672266237437725,0.7538516521453857,0.0,0.004132569767534733,0.9169021844863892,0.0,0.007264409214258194
266.0,269.0,0.8004,-2.1051,9.1711,-0.0363,0.0133,-0.1115,-1.702998777429098,0.0,2.675136089324951,-1.7557621002197266,-0.0,2.1485462188720703,4.861911135702886,0.0,0.2913720905780792,-1.3619673887835901,-0.0,-0.029194846749305725,0.7538679838180542,0.0,-0.006334304343909025,0.9169259667396545,0.0,-0.0008431573514826596
266.0,269.0,0.8004,-2.1051,9.1711,-0.0363,0.0133,-0.1115,-1.7029344044127406,0.0,2.6545467376708984,-1.7557145357131958,-0.0,2.083418130874634,4.861882644682684,0.0,0.2823873460292816,-1.3619230429278772,-0.0,-0.034883465617895126,0.7538274526596069,0.0,0.0024897134862840176,0.9169182181358337,0.0,0.022295456379652023
266.0,269.0,0.8004,-2.1051,9.1711,-0.0363,0.0133,-0.1115,-1.702958723107809,0.0,2.666396141052246,-1.7558064460754395,-0.0,2.085235595703125,4.861898961454191,0.0,0.27702516317367554,-1.3619592825519007,-0.0,-0.03714612498879433,0.7538999915122986,0.0,0.013204220682382584,0.9169062972068787,0.0,0.061358753591775894
266.0,269.0,0.8004,-2.1051,9.1711,-0.0363,0.0133,-0.1115,-1.7029344044127406,0.0,2.688612699508667,-1.7558106184005737,-0.0,2.1095168590545654,4.861926811724462,0.0,0.29218733310699463,-1.361950699483053,-0.0,-0.01885262504220009,0.753847599029541,0.0,0.0006620350759476423,0.9169140458106995,0.0,-0.023030368611216545
266.0,269.0,0.8004,-2.1051,9.1711,-0.0363,0.0133,-0.1115,-1.7029906711974085,0.0,2.636488676071167,-1.7558064460754395,-0.0,2.10321044921875,4.8618948487337015,0.0,0.2917918562889099,-1.3619673887835901,-0.0,-0.03209938108921051,0.753847599029541,0.0,0.0010654455982148647,0.9169623851776123,0.0,-0.03728910908102989
266.0,269.0,0.8004,-2.1051,9.1711,-0.0363,0.0133,-0.1115,-1.7029625378050746,0.0,2.6664135456085205,-1.755770206451416,-0.0,2.1021485328674316,4.861934605031767,0.0,0.2916610836982727,-1.3619592825519007,-0.0,-0.03756800666451454,0.7538352608680725,0.0,0.00229508220218122,0.91690993309021,0.0,-0.018036391586065292
266.0,269.0,0.8004,-2.1051,9.1711,-0.0363,0.0133,-0.1115,-1.7029668293394984,0.0,2.6721343994140625,-1.7557940483093262,-0.0,2.1218338012695312,4.861898961454191,0.0,0.29139941930770874,-1.36194354692568,-0.0,-0.036038774996995926,0.7538876533508301,0.0,-0.012958141043782234,0.9169222712516785,0.0,-0.01004881039261818
275.0,264.0,0.8632,-2.1015,9.1723,-0.0357,0.025,-0.1086,-1.7029906711974085,0.0,2.675628662109375,-1.7557743787765503,-0.0,2.1166586875915527,4.861882927804746,0.0,0.29188597202301025,-1.3619354406939905,-0.0,-0.030895719304680824,0.7538999915122986,0.0,0.00447146687656641,0.9169140458106995,0.0,0.017201341688632965
275.0,264.0,0.8632,-2.1015,9.1723,-0.0357,0.025,-0.1086,-1.7029749355711878,0.0,2.6681721210479736,-1.7557858228683472,-0.0,2.0946967601776123,4.861866938858785,0.0,0.2847619950771332,-1.361971680318014,-0.0,-0.029412273317575455,0.7538278102874756,0.0,0.016680117696523666,0.9169502258300781,0.0,0.048532478511333466
275.0,264.0,0.8632,-2.1015,9.1723,-0.0357,0.025,-0.1086,-1.7029468021788539,0.0,2.6580381393432617,-1.7557340860366821,-0.0,2.1064136028289795,4.8618788597877405,0.0,0.2960842251777649,-1.3619797865497034,-0.0,-0.030458655208349228,0.7538352608680725,0.0,-0.004633442033082247,0.9168816804885864,0.0,0.02314746007323265
275.0,264.0,0.8632,-2.1015,9.1723,-0.0357,0.025,-0.1086,-1.7029863796629847,0.0,2.713442802429199,-1.7558302879333496,-0.0,2.0732831954956055,4.861858519702711,0.0,0.2975602447986603,-1.3619673887835901,-0.0,-0.03699030727148056,0.7538840174674988,0.0,-0.00031086523085832596,0.9168615341186523,0.0,0.010846354067325592
275.0,264.0,0.8632,-2.1015,9.1723,-0.0357,0.025,-0.1086,-1.702958723107809,0.0,2.677511215209961,-1.755789875984192,-0.0,2.0724449157714844,4.861850949912824,0.0,0.2993626892566681,-1.3619874159442347,-0.0,-0.029338102787733078,0.7538836002349854,0.0,0.00017789249250199646,0.9169140458106995,0.0,0.021245025098323822
275.0,264.0,0.8632,-2.1015,9.1723,-0.0357,0.025,-0.1086,-1.702998777429098,0.0,2.6903343200683594,-1.7557785511016846,-0.0,2.0888049602508545,4.86191143372611,2.2093296081493463e-08,0.2988952696323395,-1.3619478384601038,-0.0,-0.02708498015999794,0.7538720965385437,0.0,-0.01604149118065834,0.9169058203697205,0.0,-0.05966299772262573
275.0,264.0,0.8632,-2.1015,9.1723,-0.0357,0.025,-0.1086,-1.7029506168761195,0.0,2.6725339889526367,-1.7558270692825317,-0.0,2.102381706237793,4.8619063822324655,6.149750847450619e-12,0.2828693687915802,-1.3619311491595667,-0.0,-0.027528200298547745,0.7538434863090515,0.0,-0.0020097505766898394,0.9168980121612549,0.0,-0.010136944241821766
275.0,264.0,0.8632,-2.1015,9.1723,-0.0357,0.025,-0.1086,-1.7030188045897425,0.0,2.662558078765869,-1.7557661533355713,-0.0,2.1284329891204834,4.861870649247923,1.117686840728345e-16,0.28598323464393616,-1.361971680318014,-0.0,-0.025248542428016663,0.7538114190101624,0.0,-0.005667688325047493,0.9169021844863892,0.0,-0.004380987957119942
275.0,264.0,0.8632,-2.1015,9.1723,-0.0357,0.025,-0.1086,-1.7029911480345667,0.0,2.675027847290039,-1.7558468580245972,-0.0,2.108025312423706,4.861930611520567,3.1111222496876903e-20,0.29410484433174133,-1.3619516531573694,-0.0,-0.043736547231674194,0.7538393139839172,0.0,-0.0034576482139527798,0.9169300198554993,0.0,0.0031949079129844904
275.0,264.0,0.8632,-2.1015,9.1723,-0.0357,0.025,-0.1086,-1.7029506168761195,0.0,2.6817996501922607,-1.7557858228683472,-0.0,2.1199727058410645,4.861886638193884,8.659923324316299e-24,0.29148244857788086,-1.3619230429278772,-0.0,-0.03857923671603203,0.753847599029541,0.0,-0.0005256459699012339,0.9168455600738525,0.0,6.859749555587769e-05
275.0,264.0,0.8632,-2.1015,9.1723,-0.0357,0.025,-0.1086,-1.702998777429098,0.0,2.6934239864349365,-1.7557907104492188,-0.0,2.1251792907714844,4.86190294006423,2.410521459193269e-27,0.28467273712158203,-1.36194354692568,-0.0,-0.05353936925530434,0.7539118528366089,0.0,0.01105826161801815,0.9169182181358337,0.0,0.01084372028708458
275.0,264.0,0.8632,-2.1015,9.1723,-0.0357,0.025,-0.1086,-1.702958723107809,0.0,2.6413047313690186,-1.7558261156082153,-0.0,2.088592290878296,4.861886638193884,4.381003968819721e-32,0.27929311990737915,-1.3619955221759241,-0.0,-0.023835234344005585,0.7538720369338989,0.0,0.002235427498817444,0.9168858528137207,0.0,-0.017830580472946167
275.0,264.0,0.8632,-2.1015,9.1723,-0.0357,0.025,-0.1086,-1.7029139004149378,0.0,2.624811887741089,-1.7558096647262573,-0.0,2.069683790206909,4.861959102540769,1.219468486720877e-35,0.284421443939209,-1.361983601246969,-0.0,-0.0399099662899971,0.7538757920265198,0.0,0.004888392984867096,0.9169140458106995,0.0,-0.016496846452355385
275.0,264.0,0.8632,-2.1015,9.1723,-0.0357,0.025,-0.1086,-1.7029549084105433,0.0,2.6667227745056152,-1.7558064460754395,-0.0,2.1232948303222656,4.8619345901306055,6.451980152633041e-05,0.2987387180328369,-1.361983601246969,-0.0,-0.03826781362295151,0.753868043422699,0.0,-0.003555219154804945,0.9168816804885864,0.0,0.022617584094405174
273.0,269.0,1.1725,-1.8951,9.0712,-0.0308,0.0023,-0.109,-1.7029468021788539,0.0,2.671617031097412,-1.755786657333374,-0.0,2.092966079711914,4.861970680743017,8.502867422066629e-05,0.2810889780521393,-1.361971680318014,-0.0,-0.033005159348249435,0.7538917660713196,0.0,0.010567347519099712,0.9169021844863892,-2.8809858144962508e-12,0.020494811236858368
273.0,269.0,1.1725,-1.8951,9.0712,-0.0308,0.0023,-0.109,-1.7029591999449671,0.0,2.683309555053711,-1.7557662725448608,-0.0,2.0916860103607178,4.8619345901306055,0.00010341381857870147,0.2821390628814697,-1.3619754950152796,-0.0,-0.042103685438632965,0.7538196444511414,0.0,-0.009948374703526497,0.9169263243675232,-6.957240769893655e-18,-0.04330819472670555
273.0,269.0,1.1725,-1.8951,9.0712,-0.0308,0.0023,-0.109,-1.7029506168761195,7.800494472576247e-07,2.6968770027160645,-1.7558146715164185,-0.0,2.08539080619812,4.861938717752256,9.559204045217484e-05,0.27910974621772766,-1.3619592825519007,-0.0,-0.027265504002571106,0.7538192272186279,0.0,0.005819200538098812,0.9169382452964783,-1.6800918167960112e-23,0.03593786433339119
273.0,269.0,1.1725,-1.8951,9.0712,-0.0308,0.0023,-0.109,-1.7029549084105433,1.883727548945835e-12,2.666973114013672,-1.7557940483093262,-0.0,2.1188535690307617,4.861898961454191,8.853869803715497e-05,0.280327171087265,-1.361971680318014,-0.0,-0.02890225127339363,0.7538679838180542,0.0,-0.00517692044377327,0.9168980121612549,-4.057224206156913e-29,0.025378558784723282
273.0,269.0,1.1725,-1.8951,9.0712,-0.0308,0.0023,-0.109,-1.7029506168761195,6.103037433348832e-20,2.6743624210357666,-1.755789875984192,-0.0,2.06959867477417,4.861907082587042,8.060832624323666e-05,0.28920304775238037,-1.3619793097125452,-0.0,-0.03167856112122536,0.753875732421875,0.0,-0.004675451200455427,0.9169259071350098,-1.314488719503933e-36,-0.020871661603450775
273.0,269.0,1.1725,-1.8951,9.0712,-0.0308,0.0023,-0.109,-1.7029506168761195,1.473811696151631e-25,2.638359785079956,-1.755789875984192,-0.0,2.098783493041992,4.861946868687429,7.553424075013027e-05,0.29272791743278503,-1.3620231787311,-0.0,-0.02823881059885025,0.7538876533508301,0.0,-0.0008427923312410712,0.9169378280639648,-3.1739410216957107e-42,-0.01601993292570114
273.0,269.0,1.1725,-1.8951,9.0712,-0.0308,0.0023,-0.109,-1.7029906711974085,-0.00011738290049834177,2.688079595565796,-1.755789875984192,-0.0,2.154538154602051,4.86190294006423,7.106120756361634e-05,0.28239765763282776,-1.3620031515704554,-0.0,-0.03108128532767296,0.753851592540741,0.0,0.008253680542111397,0.9169135689735413,-0.0,0.050428807735443115
273.0,269.0,1.1725,-1.8951,9.0712,-0.0308,0.0023,-0.109,-1.7029749355711878,-0.00010978498903568834,2.666973114013672,-1.755859136581421,-0.0,2.1257669925689697,4.861946913390913,6.708836008328944e-05,0.28546011447906494,-1.3620513121234339,-0.0,-0.03387795016169548,0.7537996172904968,0.0,-0.005554927513003349,0.9169459342956543,0.0009261946543119848,-0.03089168295264244
273.0,269.0,1.1725,-1.8951,9.0712,-0.0308,0.0023,-0.109,-1.7029749355711878,-4.412630369188264e-05,2.666909694671631,-1.755798101425171,-0.0,2.1160199642181396,4.861898931651869,6.24342355877161e-05,0.2809355854988098,-1.3619869391070765,-0.0,-0.02957378327846527,0.7538917660713196,0.0,0.00028806179761886597,0.9169779419898987,0.0015139778843149543,-0.06389772891998291
273.0,269.0,1.1725,-1.8951,9.0712,-0.0308,0.0023,-0.109,-1.7029749355711878,-6.38734363178628e-08,2.6646976470947266,-1.7557743787765503,-0.0,2.0610511302948,4.86190294006423,5.934646469540894e-05,0.2936927080154419,-1.3620107809649866,-0.0,-0.033387526869773865,0.753851592540741,0.0,0.009218625724315643,0.9169819355010986,0.0013567061396315694,-0.01170156616717577
273.0,269.0,1.1725,-1.8951,9.0712,-0.0308,0.0023,-0.109,-1.7029344044127406,-1.5424684099429875e-13,2.628373146057129,-1.75583016872406,-0.0,2.1116929054260254,4.861938717752256,6.704607949359342e-05,0.3026875853538513,-1.3620432058917444,-0.0,-0.03336969390511513,0.7537676095962524,0.0,-0.007072322070598602,0.9169414043426514,0.0008759904303587973,-0.01827923208475113
273.0,269.0,1.1725,-1.8951,9.0712,-0.0308,0.0023,-0.109,-1.7029549084105433,-3.724879601326953e-19,2.6565487384796143,-1.7558106184005737,-0.0,2.132887840270996,4.861946913390913,0.00010523368109716102,0.2853213846683502,-1.3620193640338343,-0.0,-0.030782371759414673,0.7538557052612305,0.0,0.0005298957694321871,0.916965663433075,0.0005890477914363146,0.03722085431218147
273.0,269.0,1.1725,-1.8951,9.0712,-0.0308,0.0023,-0.109,-1.7029262981810511,-1.206813433577099e-26,2.665438652038574,-1.7557218074798584,-0.0,2.1268105506896973,4.861906412034788,0.00010105276305694133,0.28590160608291626,-1.3619831244098108,-0.0,-0.028613317757844925,0.7537996172904968,0.0,-0.00567282922565937,0.9169738292694092,0.0004100539954379201,0.06474494934082031
273.0,269.0,1.1725,-1.8951,9.0712,-0.0308,0.0023,-0.109,-1.7029668293394984,-2.914312630928684e-32,2.6337857246398926,-1.7557858228683472,-0.0,2.099238395690918,4.861898916750707,9.467450581723824e-05,0.27583420276641846,-1.3619592825519007,-3.171411663061008e-05,-0.0360783226788044,0.75385981798172,0.0,-0.00258196284994483,0.9169455766677856,0.0002783025265671313,0.003158336039632559
269.0,281.0,0.8949,-2.4006,9.2501,-0.0583,0.0281,-0.1272,-1.70294251064443,0.00012135349243180826,2.642529010772705,-1.7557785511016846,-0.0,2.091886520385742,4.8618826297815225,8.905364666134119e-05,0.2844235897064209,-1.3620036284076136,-3.6340428778203204e-05,-0.03937016800045967,0.7537791132926941,0.0,-0.0023188088089227676,0.9169296026229858,-2.3044231056701392e-05,0.00792735069990158
269.0,281.0,0.8949,-2.4006,9.2501,-0.0583,0.0281,-0.1272,-1.7029468021788539,6.015803137415787e-06,2.690304756164551,-1.7557505369186401,-0.0,2.1227755546569824,4.861942800670423,6.94526606821455e-05,0.2927786111831665,-1.3618949095355433,-2.3604937382515345e-07,-0.03430648148059845,0.7538233399391174,0.0,-0.0034390054643154144,0.9169420003890991,-0.0018070125952363014,0.023619212210178375
269.0,281.0,0.8949,-2.4006,9.2501,-0.0583,0.0281,-0.1272,-1.7029506168761195,1.949043818049237e-13,2.6281003952026367,-1.7558023929595947,-0.0,2.081132173538208,4.8618948487337015,5.096321547171101e-05,0.2751811146736145,-1.3619073073016565,-4.2900808773504995e-12,-0.03226027265191078,0.7538393139839172,0.0,0.005436284001916647,0.9168899655342102,-0.0026977197267115116,0.00686129555106163
269.0,281.0,0.8949,-2.4006,9.2501,-0.0583,0.0281,-0.1272,-1.7029830418028773,4.706710935178661e-19,2.685469388961792,-1.75583016872406,-0.0,2.1089704036712646,4.861810537963667,-5.329140185494907e-05,0.29186704754829407,-1.3618953863727015,0.0010782134486362338,-0.03134780749678612,0.7538557052612305,0.0,-0.004329441115260124,0.916845977306366,-0.003125416114926338,-0.028811080381274223
269.0,281.0,0.8949,-2.4006,9.2501,-0.0583,0.0281,-0.1272,-1.7029663525023402,1.1366152469304957e-24,2.6955714225769043,-1.7558343410491943,-0.0,2.0731983184814453,4.8618468818958185,-0.00011453287879703566,0.2937318980693817,-1.3618796507464808,0.0012620545458048582,-0.04130769148468971,0.7538676261901855,0.0,-0.006632836069911718,0.916785717010498,-0.00458387890830636,0.046908989548683167
269.0,281.0,0.8949,-2.4006,9.2501,-0.0583,0.0281,-0.1272,-1.7029787502684535,2.7447926627858667e-30,2.6346256732940674,-1.755821943283081,-0.0,2.0999789237976074,4.861834633141317,-0.00013524315727408975,0.29731595516204834,-1.36186391512026,0.0013514668680727482,-0.037767406553030014,0.7539040446281433,0.0,0.0012376029044389725,0.9167657494544983,-0.00663397740572691,-0.049808524549007416
269.0,281.0,0.8949,-2.4006,9.2501,-0.0583,0.0281,-0.1272,-1.7029949627318324,8.89277906341295e-38,2.676208019256592,-1.7557817697525024,-0.0,2.09602952003479,4.861904176860609,-0.0005003204569220543,0.28467535972595215,-1.361779514943258,0.0012710425071418285,-0.03277357295155525,0.7538597583770752,0.0,-0.0023452078457921743,0.9167141318321228,-0.008056490682065487,-0.018697481602430344
269.0,281.0,0.8949,-2.4006,9.2501,-0.0583,0.0281,-0.1272,-1.703038831750387,-0.0002850082528311759,2.657371759414673,-1.7558468580245972,-0.0,2.114734172821045,4.861803027778425,-0.00046662241220474243,0.2885988652706146,-1.3618515173541468,0.001095553394407034,-0.02135075256228447,0.7538918256759644,0.0,0.00023510167375206947,0.9166496396064758,-0.00832288060337305,-0.05208422988653183
269.0,281.0,0.8949,-2.4006,9.2501,-0.0583,0.0281,-0.1272,-1.7030192814269007,-0.0002910277689807117,2.602550506591797,-1.7558343410491943,-0.0,2.108245849609375,4.861803027778425,-0.0006632546428591013,0.2830938994884491,-1.3618233839618128,0.0010178446536883712,-0.02867675945162773,0.753875732421875,0.0,-0.0014237228315323591,0.9166423678398132,-0.008424279280006886,-0.08542728424072266
269.0,281.0,0.8949,-2.4006,9.2501,-0.0583,0.0281,-0.1272,-1.7029944858946742,-0.000279319123364985,2.5663623809814453,-1.7557775974273682,-0.0,2.125354528427124,4.861778947501936,-0.0009507923386991024,0.2561100125312805,-1.3618195692645472,0.0011736812302842736,-0.01510634459555149,0.753875732421875,0.0,0.0077844648621976376,0.9165701270103455,-0.006443934980779886,-0.09322184324264526
269.0,281.0,0.8949,-2.4006,9.2501,-0.0583,0.0281,-0.1272,-1.7029944858946742,-0.0002465276629664004,2.5664186477661133,-1.7558178901672363,-0.0,2.0501034259796143,4.861823114543714,-0.0008296836167573929,0.2713826298713684,-1.361823860798971,0.0024180812761187553,-0.005265668034553528,0.7537831664085388,0.0,0.009968966245651245,0.9165579080581665,-0.005378209054470062,-0.034553445875644684
269.0,281.0,0.8949,-2.4006,9.2501,-0.0583,0.0281,-0.1272,-1.7029739818968714,-0.0002521270071156323,2.5758814811706543,-1.7557785511016846,-0.0,2.0863215923309326,4.861798944860258,-0.0006208562990650535,0.2554120719432831,-1.3617590109454554,0.0031562186777591705,-0.01998095214366913,0.7538639307022095,0.0,-0.00531268585473299,0.9164940714836121,-0.005040155723690987,-0.12122543156147003
269.0,281.0,0.8949,-2.4006,9.2501,-0.0583,0.0281,-0.1272,-1.703010698358053,-0.00022817218268755823,2.540843963623047,-1.7558178901672363,-0.0,2.0851986408233643,4.861839073687353,-0.0006119782337918878,0.25181955099105835,-1.361739460621969,0.0047777267172932625,-0.011355368420481682,0.7539443373680115,0.0,-0.007488657720386982,0.9164940714836121,-0.004766368772834539,-0.1048274040222168
269.0,281.0,0.8949,-2.4006,9.2501,-0.0583,0.0281,-0.1272,-1.703038831750387,-0.00021786153956782073,2.49290132522583,-1.7558178901672363,-0.0,2.0781378746032715,4.861794936447897,-0.0007739579887129366,0.22100664675235748,-1.3616755644427698,0.008074279874563217,0.021077146753668785,0.753875732421875,0.0,0.0008928321767598391,0.9164543151855469,-0.004808564204722643,-0.1415283977985382
282.0,262.0,0.4989,-1.9011,9.2082,-0.0522,0.0122,-0.1345,-1.703043123284811,-0.00021527617354877293,2.461583137512207,-1.7557743787765503,-0.0,2.1103312969207764,4.861783030420103,-0.0009266635170206428,0.22401870787143707,-1.3616803328143519,0.006880749017000198,0.010882699862122536,0.7539077401161194,0.0,-0.0013071771245449781,0.916414201259613,-0.005934492684900761,-0.11722518503665924
282.0,262.0,0.4989,-1.9011,9.2082,-0.0522,0.0122,-0.1345,-1.7030025921263636,-0.00023596009123139083,2.448314905166626,-1.7557538747787476,-0.0,2.072220802307129,4.861778813391485,-0.0012023436138406396,0.19454613327980042,-1.361539665852682,0.004227869212627411,0.008979800157248974,0.7538073658943176,0.0,-0.0033399113453924656,0.9163621068000793,-0.007294067181646824,-0.15436391532421112
282.0,262.0,0.4989,-1.9011,9.2082,-0.0522,0.0122,-0.1345,-1.703014989892477,-0.00041703192982822657,2.350705146789551,-1.75579833984375,-0.0,2.0469417572021484,4.861782985716619,-0.0017676622373983264,0.19622625410556793,-1.3615759054767054,0.002820512978360057,0.032459501177072525,0.7539400458335876,0.0,0.0031855928245931864,0.916374921798706,-0.00883177574723959,-0.20361581444740295
282.0,262.0,0.4989,-1.9011,9.2082,-0.0522,0.0122,-0.1345,-1.7030264339842738,-0.00107868411578238,2.361330986022949,-1.755798101425171,-0.0,1.9974174499511719,4.8617752371127985,-0.004171928856521845,0.17870385944843292,-1.3615315596209925,0.0037257925141602755,0.05153248459100723,0.7538352012634277,0.0,-0.009022320620715618,0.9162344336509705,-0.011927091516554356,-0.23572611808776855
282.0,262.0,0.4989,-1.9011,9.2082,-0.0522,0.0122,-0.1345,-1.7030307255186976,-0.001635124790482223,2.234879493713379,-1.7557940483093262,-0.0,1.98154878616333,4.86171546855525,-0.006092947442084551,0.16530941426753998,-1.3614314238177698,0.0062837423756718636,0.06336938589811325,0.753863513469696,0.0,-0.0035040806978940964,0.9162270426750183,-0.01394562516361475,-0.238643079996109
282.0,262.0,0.4989,-1.9011,9.2082,-0.0522,0.0122,-0.1345,-1.70302214244985,-0.002974177710711956,2.2226195335388184,-1.7558106184005737,-0.0,1.9786264896392822,4.861622530012884,-0.011015389114618301,0.15755178034305573,-1.3614361921893519,0.00915954727679491,0.08023200929164886,0.7539118528366089,0.0,0.014832410030066967,0.9160863757133484,-0.016190962865948677,-0.32904982566833496
282.0,262.0,0.4989,-1.9011,9.2082,-0.0522,0.0122,-0.1345,-1.7030822239317835,-0.0054582878947257996,2.198228120803833,-1.7557743787765503,-0.0,1.9684423208236694,4.861583384662428,-0.011820211075246334,0.12321144342422485,-1.3613360563861292,0.010248144157230854,0.09112492203712463,0.7539559602737427,0.0,0.000576969119720161,0.916022539138794,-0.01860768161714077,-0.3389912247657776
282.0,262.0,0.4989,-1.9011,9.2082,-0.0522,0.0122,-0.1345,-1.7031227550902308,-0.008226773701608181,2.127847671508789,-1.755821943283081,-0.0,1.9848065376281738,4.861544298916616,-0.009041269309818745,0.13822098076343536,-1.3612640539752405,0.008437604643404484,0.10653462260961533,0.7538712620735168,0.0,-0.004474351182579994,0.9158869385719299,-0.022372953593730927,-0.40782779455184937
282.0,262.0,0.4989,-1.9011,9.2082,-0.0522,0.0122,-0.1345,-1.703230997125143,-0.00929566752165556,2.077749729156494,-1.7557506561279297,-0.0,1.9774646759033203,4.861431810050764,-0.010325540788471699,0.11459150910377502,-1.3612201849566858,0.00761784752830863,0.09737195819616318,0.7538630962371826,0.0,0.01704995706677437,0.9156985878944397,-0.024681653827428818,-0.3603244423866272
282.0,262.0,0.4989,-1.9011,9.2082,-0.0522,0.0122,-0.1345,-1.7032348118224085,-0.010258110240101814,2.0440785884857178,-1.7557421922683716,-0.0,1.9421250820159912,4.861356946616926,-0.012957687489688396,0.10680193454027176,-1.3611963430987757,0.006234219763427973,0.12118682265281677,0.7539520859718323,0.0,0.00046525103971362114,0.9155389666557312,-0.0271039716899395,-0.4927205443382263
282.0,262.0,0.4989,-1.9011,9.2082,-0.0522,0.0122,-0.1345,-1.703322549859518,-0.0130935562774539,2.05126953125,-1.7557907104492188,-0.0,1.9129793643951416,4.861320975213804,-0.014615979976952076,0.09984511137008667,-1.361152474080221,0.004849196877330542,0.11816652864217758,0.7539278864860535,0.0,0.011564215645194054,0.915367066860199,-0.03002026490867138,-0.45079660415649414
282.0,262.0,0.4989,-1.9011,9.2082,-0.0522,0.0122,-0.1345,-1.7034265003600062,-0.016751663759350777,1.9990179538726807,-1.755786657333374,-0.0,1.9429686069488525,4.861205416708746,-0.017882563173770905,0.09958420693874359,-1.3611119429217737,0.0028585060499608517,0.11929404735565186,0.7538995742797852,0.0,0.016291989013552666,0.9150914549827576,-0.03366851434111595,-0.44412368535995483
282.0,262.0,0.4989,-1.9011,9.2082,-0.0522,0.0122,-0.1345,-1.7035423717894496,-0.019516536965966225,2.039153814315796,-1.7557826042175293,-0.0,1.9605982303619385,4.861040788679876,-0.02146325632929802,0.08869358897209167,-1.3611281553851526,0.0014366761315613985,0.1356355994939804,0.7538795471191406,0.0,0.016106359660625458,0.9148955345153809,-0.038067661225795746,-0.4374941289424896
282.0,262.0,0.4989,-1.9011,9.2082,-0.0522,0.0122,-0.1345,-1.7036458454527796,-0.021614111959934235,2.0701498985290527,-1.7557907104492188,-0.0,1.8831861019134521,4.860897260695257,-0.027325183153152466,0.08199700713157654,-1.361136261616842,0.0009658578783273697,0.12436259537935257,0.7538913488388062,0.0,0.032160766422748566,0.914635419845581,-0.0394381619989872,-0.4444507956504822
277.0,272.0,0.7531,-2.007,9.1412,-0.0367,-0.1691,-0.2011,-1.7038217983641566,-0.023601578548550606,2.005601644515991,-1.7557907104492188,-0.0,1.9386636018753052,4.8607012806232355,-0.036361370235681534,0.07822808623313904,-1.3611281553851526,0.0005318901385180652,0.10819053649902344,0.7538995146751404,0.0,0.03712310642004013,0.9143673181533813,-0.04204634949564934,-0.4742719531059265
277.0,272.0,0.7531,-2.007,9.1412,-0.0367,-0.1691,-0.2011,-1.7039815388121546,-0.024975106120109558,2.0061981678009033,-1.7557424306869507,-0.0,1.9389580488204956,4.860338228731909,-0.05711743235588074,0.08802077919244766,-1.3611205259906214,0.0004327604838181287,0.13921180367469788,0.7538913488388062,0.0,0.01328442431986332,0.914023756980896,-0.04485258087515831,-0.4574452042579651
277.0,272.0,0.7531,-2.007,9.1412,-0.0367,-0.1691,-0.2011,-1.704081197778219,-0.024699915200471878,2.0136983394622803,-1.7558146715164185,-0.0,1.9081318378448486,4.85993521192626,-0.08040584623813629,0.07303457707166672,-1.3611205259906214,0.00045695429434999824,0.1315339058637619,0.7538795471191406,0.0,0.03466014564037323,0.9138045310974121,-0.04583578184247017,-0.4478669762611389
277.0,272.0,0.7531,-2.007,9.1412,-0.0367,-0.1691,-0.2011,-1.7042490444579066,-0.024100936949253082,2.0173699855804443,-1.7557621002197266,-0.0,1.8923099040985107,4.859364259033956,-0.10172487795352936,0.05292925238609314,-1.361096207295553,0.00038958966615609825,0.12722381949424744,0.7539196014404297,0.0,0.03395087271928787,0.913444459438324,-0.04779832810163498,-0.49280881881713867
277.0,272.0,0.7531,-2.007,9.1412,-0.0367,-0.1691,-0.2011,-1.704461236993307,-0.02319038100540638,2.0278306007385254,-1.7557826042175293,-0.0,1.906553864479065,4.858393850713529,-0.11938214302062988,0.05246628820896149,-1.3610881010638636,0.00028478208696469665,0.13453622162342072,0.7539516091346741,0.0,0.04576697200536728,0.9130686521530151,-0.05055828019976616,-0.4307554066181183
277.0,272.0,0.7531,-2.007,9.1412,-0.0367,-0.1691,-0.2011,-1.7045813999571742,-0.020203042775392532,2.0006144046783447,-1.755770206451416,-0.0,1.9313493967056274,4.857749271183767,-0.11194593459367752,0.06616591662168503,-1.361096207295553,0.00023932353360578418,0.1302613466978073,0.7539236545562744,0.0,0.039111796766519547,0.9127690196037292,-0.05312434211373329,-0.4418257176876068
277.0,272.0,0.7531,-2.007,9.1412,-0.0367,-0.1691,-0.2011,-1.7046729526915492,-0.019362609833478928,2.0114927291870117,-1.7557424306869507,2.5979412384913303e-05,1.8814778327941895,4.857067483454504,-0.11539003998041153,0.048821039497852325,-1.3611162344561976,0.0002063852734863758,0.11861513555049896,0.7538955211639404,0.0,0.04472966864705086,0.9124775528907776,-0.05649062246084213,-0.4588271975517273
277.0,272.0,0.7531,-2.007,9.1412,-0.0367,-0.1691,-0.2011,-1.7048331699767054,-0.02055438607931137,2.0477828979492188,-1.7557668685913086,3.3171083487104625e-05,1.912097454071045,4.856284561544218,-0.1442842036485672,0.05225858837366104,-1.3611324469195765,0.00018141776672564447,0.12806609272956848,0.7539879679679871,0.0,0.03440115600824356,0.912081241607666,-0.056040916591882706,-0.47609055042266846
277.0,272.0,0.7531,-2.007,9.1412,-0.0367,-0.1691,-0.2011,-1.7049809894957484,-0.020855657756328583,2.0253539085388184,-1.755794882774353,4.723250458482653e-05,1.9146885871887207,4.85505590119914,-0.16166625916957855,0.029871072620153427,-1.3611648718463343,0.00015622148930560797,0.12486280500888824,0.7539315223693848,0.0,0.0472010001540184,0.9116743206977844,-0.05618399381637573,-0.4942566752433777
277.0,272.0,0.7531,-2.007,9.1412,-0.0367,-0.1691,-0.2011,-1.7051168880858363,-0.020680923014879227,2.0129902362823486,-1.7557021379470825,0.00022979093773756176,1.9860016107559204,4.8541150269802,-0.15703700482845306,0.030500303953886032,-1.3610919157611292,0.00012760331446770579,0.12443690747022629,0.7539072632789612,0.00013690128980670124,0.04934627190232277,0.9113063812255859,-0.05605269595980644,-0.4601418375968933
277.0,272.0,0.7531,-2.007,9.1412,-0.0367,-0.1691,-0.2011,-1.705257078210348,-0.01955050230026245,2.0650689601898193,-1.7557629346847534,0.00018913594249170274,1.9689521789550781,4.853166538267889,-0.16495932638645172,0.04013662040233612,-1.3611238638507288,4.066725159646012e-05,0.13914740085601807,0.7539434432983398,0.00012647532275877893,0.04769202694296837,0.9109306335449219,-0.05793546885251999,-0.4881138801574707
277.0,272.0,0.7531,-2.007,9.1412,-0.0367,-0.1691,-0.2011,-1.705320497552389,-0.018737614154815674,2.0621933937072754,-1.7557144165039062,0.00015628599794581532,1.9765150547027588,4.852084728866377,-0.1864338517189026,0.027071822434663773,-1.3611205259906214,3.559198012226261e-05,0.13274230062961578,0.7539196014404297,0.00011663998157018796,0.05819446220993996,0.9105951189994812,-0.0606192983686924,-0.46632465720176697
277.0,272.0,0.7531,-2.007,9.1412,-0.0367,-0.1691,-0.2011,-1.7054559193053187,-0.01810762844979763,2.0478546619415283,-1.755786657333374,0.00021143085905350745,1.9766433238983154,4.850605580001631,-0.19254718720912933,0.03860694542527199,-1.3611448446856897,2.756162871264678e-07,0.13747960329055786,0.7539278268814087,0.00012663275992963463,0.050996966660022736,0.9100955128669739,-0.06273487210273743,-0.46883624792099
277.0,272.0,0.7531,-2.007,9.1412,-0.0367,-0.1691,-0.2011,-1.7055722675719203,-0.018700867891311646,2.1061348915100098,-1.755778431892395,0.00018536311108618975,1.9624052047729492,4.849340173393049,-0.2228436917066574,0.022322291508316994,-1.361108128224508,7.671879104220736e-11,0.12663279473781586,0.753915548324585,0.00011847126734210178,0.05415787175297737,0.9097118377685547,-0.06471799314022064,-0.4495551884174347
272.0,268.0,0.786,-1.0379,8.8606,0.0014,-0.4322,-0.2799,-1.7056838474669398,-0.01906244270503521,2.1192710399627686,-1.755718469619751,0.00016497565957251936,1.9575588703155518,4.847980874567785,-0.2404167503118515,0.0012670943979173899,-1.3611448446856897,2.135495929124053e-14,0.12995275855064392,0.7539355754852295,0.00011115513188997284,0.046729542315006256,0.9093319773674011,-0.06256453692913055,-0.46249353885650635
272.0,268.0,0.786,-1.0379,8.8606,0.0014,-0.4322,-0.2799,-1.705815931359762,-0.018320709466934204,2.0998244285583496,-1.7557145357131958,0.0001486282708356157,1.9177801609039307,4.846488180547514,-0.24387811124324799,0.0078034959733486176,-1.361108128224508,5.944230724008139e-18,0.13516154885292053,0.7539716362953186,0.00010468993423273787,0.06044081225991249,0.9089682698249817,-0.05796918645501137,-0.45726901292800903
272.0,268.0,0.786,-1.0379,8.8606,0.0014,-0.4322,-0.2799,-1.7059198818602503,-0.01675603911280632,2.0717060565948486,-1.755750298500061,0.0001312837703153491,1.9280765056610107,4.844426083355703,-0.26674866676330566,-0.008674022741615772,-1.3611281553851526,1.0803345336273543e-22,0.11943040788173676,0.753939688205719,0.00011227159848203883,0.0679108202457428,0.9084968566894531,-0.05376030132174492,-0.5119426250457764
272.0,268.0,0.786,-1.0379,8.8606,0.0014,-0.4322,-0.2799,-1.7060071430602015,-0.016000863164663315,2.088641881942749,-1.755770206451416,0.00012071809032931924,2.0053884983062744,4.842791500478544,-0.2831311821937561,-0.0022836094722151756,-1.3611324469195765,3.007150712951723e-26,0.13756053149700165,0.7539474964141846,0.00010754306276794523,0.06312192231416702,0.9081771373748779,-0.052858866751194,-0.43324020504951477
272.0,268.0,0.786,-1.0379,8.8606,0.0014,-0.4322,-0.2799,-1.706111570397848,-0.015834463760256767,2.0892858505249023,-1.755778431892395,0.00011172625818289816,1.9889683723449707,4.840944069414892,-0.3147047460079193,-0.02500798925757408,-1.3611448446856897,8.370515092431415e-30,0.13310474157333374,0.753915548324585,0.00010230415500700474,0.057776980102062225,0.907913863658905,-0.054362185299396515,-0.4632514715194702
272.0,268.0,0.786,-1.0379,8.8606,0.0014,-0.4322,-0.2799,-1.7062074146666468,-0.016533786430954933,2.072932720184326,-1.7557629346847534,0.00013102381490170956,1.989494800567627,4.838937806874075,-0.3343401253223419,-0.03422333300113678,-1.3611725012408655,7.807876681908965e-05,0.15080463886260986,0.7539675235748291,0.00011147964687552303,0.051239803433418274,0.9075778722763062,-0.054676927626132965,-0.5147178173065186
272.0,268.0,0.786,-1.0379,8.8606,0.0014,-0.4322,-0.2799,-1.7063151798644007,-0.016871316358447075,2.0846681594848633,-1.7557021379470825,0.00013988844875711948,1.9583321809768677,4.836026134877958,-0.3581536114215851,-0.033710405230522156,-1.361152474080221,6.007461342960596e-05,0.12835997343063354,0.7539715766906738,0.00010498503979761153,0.056721970438957214,0.9071376323699951,-0.053016118705272675,-0.49664777517318726
272.0,268.0,0.786,-1.0379,8.8606,0.0014,-0.4322,-0.2799,-1.7064992390074671,-0.01620696857571602,2.051663875579834,-1.7557389736175537,0.00013061310164630413,1.9512367248535156,4.8337560323770425,-0.38483157753944397,-0.06204646825790405,-1.3611038366900843,4.499276474234648e-05,0.13687124848365784,0.7539757490158081,0.0001005851081572473,0.05516643822193146,0.9068543314933777,-0.050963856279850006,-0.43235233426094055
272.0,268.0,0.786,-1.0379,8.8606,0.0014,-0.4322,-0.2799,-1.706566949883932,-0.015927452594041824,2.125004291534424,-1.755710244178772,0.00015538946900051087,1.9548065662384033,4.831457297294893,-0.4050931930541992,-0.06896127015352249,-1.3611767927752894,1.365305251965765e-06,0.1187627986073494,0.7539917826652527,0.00010126264533028007,0.05125892162322998,0.9064982533454895,-0.04827459901571274,-0.4538620114326477
272.0,268.0,0.786,-1.0379,8.8606,0.0014,-0.4322,-0.2799,-1.706618448297018,-0.01614564098417759,2.099097728729248,-1.7557504177093506,0.00047209401964209974,1.9467582702636719,4.828859071224489,-0.4262266159057617,-0.08223872631788254,-1.3611605803119105,3.800377512686026e-10,0.12584178149700165,0.7539597749710083,9.641468204790726e-05,0.05850264057517052,0.9062305688858032,-0.04496423900127411,-0.4362666606903076
272.0,268.0,0.786,-1.0379,8.8606,0.0014,-0.4322,-0.2799,-1.706766744653219,-0.01479730848222971,2.1112334728240967,-1.7557473182678223,0.0029327282682061195,2.0140933990478516,4.825193027942934,-0.45889729261398315,-0.08944553136825562,-1.3611767927752894,1.8837621610146016e-05,0.13716261088848114,0.753955602645874,8.880419045453891e-05,0.0606776624917984,0.9059153199195862,-0.0436423197388649,-0.41410762071609497
272.0,268.0,0.786,-1.0379,8.8606,0.0014,-0.4322,-0.2799,-1.7068826160826625,-0.013826772570610046,2.124133348464966,-1.755715250968933,0.0032263961620628834,1.9680055379867554,4.822437900095739,-0.4767477214336395,-0.10298207402229309,-1.3611486593829554,5.243521172815235e-09,0.12320463359355927,0.7538630366325378,8.384044485865161e-05,0.06579291820526123,0.905619204044342,-0.04594629257917404,-0.4013291001319885
272.0,268.0,0.786,-1.0379,8.8606,0.0014,-0.4322,-0.2799,-1.7069665394225062,-0.015079682692885399,2.093240261077881,-1.7556871175765991,0.0027317667845636606,1.9857850074768066,4.81943245509223,-0.5094194412231445,-0.09878845512866974,-1.3611443678485315,1.4595536151212896e-12,0.11748037487268448,0.7539597749710083,7.940226350910962e-05,0.06090670824050903,0.9053959250450134,-0.048189375549554825,-0.4321371912956238
272.0,268.0,0.786,-1.0379,8.8606,0.0014,-0.4322,-0.2799,-1.7070981464781703,-0.01732681691646576,2.050525188446045,-1.7556427717208862,0.002202454721555114,2.011094570159912,4.815329032927313,-0.5355208516120911,-0.0978238582611084,-1.3611682097064417,2.6526666466783382e-17,0.10811249911785126,0.7538831830024719,7.416753214783967e-05,0.06997551023960114,0.9050039052963257,-0.050872284919023514,-0.4446638822555542
263.0,277.0,1.1348,-2.5675,8.6243,-0.0086,-0.7254,-0.2834,-1.7072302303709925,-0.01908118464052677,2.1155927181243896,-1.7555652856826782,0.0012077121064066887,2.038673162460327,4.812027576356687,-0.5596298575401306,-0.10338842123746872,-1.361152474080221,7.383795426211924e-21,0.11141045391559601,0.75392746925354,7.067293336149305e-05,0.062007151544094086,0.904744565486908,-0.05144982412457466,-0.4382302165031433
263.0,277.0,1.1348,-2.5675,8.6243,-0.0086,-0.7254,-0.2834,-1.707346101800436,-0.020455377176404,2.1181459426879883,-1.755618929862976,0.0007223179563879967,2.0107979774475098,4.808468128531732,-0.5849281549453735,-0.09297390282154083,-1.361136261616842,2.055306485502329e-24,0.11601642519235611,0.7539999485015869,6.74929833621718e-05,0.05693477392196655,0.9044086337089539,-0.04732558876276016,-0.4033365845680237
263.0,277.0,1.1348,-2.5675,8.6243,-0.0086,-0.7254,-0.2834,-1.7074176273741664,-0.021028870716691017,2.070462942123413,-1.7556105852127075,0.0006572091951966286,2.0589852333068848,4.804743277817526,-0.6151524782180786,-0.1059599369764328,-1.3611844221698206,5.721021122120949e-28,0.12377668917179108,0.7539434432983398,6.458683492382988e-05,0.061992451548576355,0.9042131900787354,-0.0403350405395031,-0.43159914016723633
263.0,277.0,1.1348,-2.5675,8.6243,-0.0086,-0.7254,-0.2834,-1.7076012096800746,-0.019915813580155373,2.1399571895599365,-1.7556147575378418,0.0003632918815128505,2.0353968143463135,4.799643735378542,-0.6533183455467224,-0.11415383219718933,-1.3612168470965784,1.0397671445673398e-32,0.12501218914985657,0.7539352178573608,6.108017987571657e-05,0.044834889471530914,0.9038655757904053,-0.0317130945622921,-0.36245548725128174
263.0,277.0,1.1348,-2.5675,8.6243,-0.0086,-0.7254,-0.2834,-1.7077743015685023,-0.018162187188863754,2.142350673675537,-1.7556509971618652,0.0004021843196824193,2.0068836212158203,4.795564602106371,-0.6759699583053589,-0.10665594041347504,-1.3611844221698206,2.8942302790963557e-36,0.10167191922664642,0.753915548324585,5.869034430361353e-05,0.06063319742679596,0.9036535024642944,-0.025974301621317863,-0.4010489881038666
263.0,277.0,1.1348,-2.5675,8.6243,-0.0086,-0.7254,-0.2834,-1.7078172169127406,-0.015582052990794182,2.165186882019043,-1.7556549310684204,0.001985914772376418,2.0695559978485107,4.7914539379771135,-0.6986264586448669,-0.09347540140151978,-1.3611763159381312,8.056190988265163e-40,0.11686314642429352,0.7539474964141846,5.648039950756356e-05,0.06367010623216629,0.903521716594696,-0.02132580615580082,-0.4024759531021118
263.0,277.0,1.1348,-2.5675,8.6243,-0.0086,-0.7254,-0.2834,-1.7079373798766078,-0.013342048041522503,2.168745517730713,-1.755618691444397,0.0030442499555647373,2.040930986404419,4.787232520967283,-0.7226754426956177,-0.09682569652795792,-1.361180607472555,2.2420775429197073e-43,0.0902387797832489,0.7538872361183167,5.443090049084276e-05,0.05592867359519005,0.9034259915351868,-0.01672551967203617,-0.40471702814102173
263.0,277.0,1.1348,-2.5675,8.6243,-0.0086,-0.7254,-0.2834,-1.708017488519186,-0.011373109184205532,2.181842565536499,-1.755558729171753,0.004504350014030933,2.0746467113494873,4.781386855035581,-0.752684473991394,-0.09108670055866241,-1.3611720244037073,0.0,0.10079526156187057,0.7539802193641663,5.1918883400503546e-05,0.061752840876579285,0.9032857418060303,-0.01136037614196539,-0.3712582588195801
263.0,277.0,1.1348,-2.5675,8.6243,-0.0086,-0.7254,-0.2834,-1.7080370388426722,-0.01028504129499197,2.220642328262329,-1.755506992340088,0.005248701199889183,2.0674171447753906,4.776706273644724,-0.774726927280426,-0.08440922945737839,-1.3612168470965784,-0.0001844939833972603,0.1066935807466507,0.7539434432983398,5.0181959522888064e-05,0.049249790608882904,0.9032742381095886,-0.007227293215692043,-0.3414413034915924
263.0,277.0,1.1348,-2.5675,8.6243,-0.0086,-0.7254,-0.2834,-1.7080890140929164,-0.008603009395301342,2.2044456005096436,-1.7554552555084229,0.007610547821968794,2.052222728729248,4.772029711842098,-0.7955944538116455,-0.08629593253135681,-1.361208740864889,-0.0002665921929292381,0.09352181851863861,0.7539675235748291,1.0724268406647752e-07,0.057537611573934555,0.9032139182090759,-0.004406769294291735,-0.3455944061279297
263.0,277.0,1.1348,-2.5675,8.6243,-0.0086,-0.7254,-0.2834,-1.7081366978087367,-0.005539909470826387,2.272254467010498,-1.7553911209106445,0.009458805434405804,2.1419763565063477,4.767168371915378,-0.8027623295783997,-0.05664344131946564,-1.3612325827227991,-0.0008047418668866158,0.08455322682857513,0.7539191842079163,2.9851402599812005e-11,0.05522257089614868,0.9032262563705444,-0.002459556795656681,-0.394187867641449
263.0,277.0,1.1348,-2.5675,8.6243,-0.0086,-0.7254,-0.2834,-1.7081691227354945,-0.0024250962305814028,2.339456558227539,-1.755363941192627,0.011624321341514587,2.131375312805176,4.76066758388237,-0.8141558170318604,-0.03499787673354149,-1.3611963430987757,-0.0006739860400557518,0.08613463491201401,0.7539232969284058,5.425345024139504e-16,0.05470835417509079,0.9031456112861633,-0.0014459816738963127,-0.2928554117679596
263.0,277.0,1.1348,-2.5675,8.6243,-0.0086,-0.7254,-0.2834,-1.7082215748228968,-0.0010962765663862228,2.3552606105804443,-1.7552313804626465,0.01266386453062296,2.141620635986328,4.75574470588521,-0.8230310082435608,-0.055741723626852036,-1.3612006346331995,-0.0005869746091775596,0.06816471368074417,0.7539598345756531,1.5101650327742802e-19,0.0603741779923439,0.9031538367271423,-0.0015788380987942219,-0.3168603181838989
263.0,277.0,1.1348,-2.5675,8.6243,-0.0086,-0.7254,-0.2834,-1.7081886730589808,-0.0007591147441416979,2.3449602127075195,-1.7551361322402954,0.014151277020573616,2.198713779449463,4.750891755312242,-0.8315964341163635,-0.03472559526562691,-1.3612406889544886,-0.0005754709127359092,0.06784416735172272,0.7539679408073425,4.2035996346632226e-23,0.061662957072257996,0.9032144546508789,-0.0017455273773521185,-0.331258088350296
263.0,277.0,1.1348,-2.5675,8.6243,-0.0086,-0.7254,-0.2834,-1.7081929645934046,-0.0006227882113307714,2.3779869079589844,-1.7550398111343384,0.01500817108899355,2.1539480686187744,4.745761326491394,-0.8283697962760925,-0.04099516570568085,-1.3612406889544886,-0.0006042259046807885,0.07677707076072693,0.7539315223693848,1.1700873362071944e-26,0.056632619351148605,0.9031620621681213,-0.0017341930652037263,-0.277802973985672
409.0,523.0,3.4361,-2.3743,9.0849,-0.0267,-0.7153,-0.2865,-1.7081886730589808,-0.00016242900164797902,2.4451160430908203,-1.7549608945846558,0.01748734526336193,2.218841075897217,4.73911175967709,-0.8249610066413879,-0.01823130063712597,-1.3612845579730433,-0.0007215311052277684,0.059369154274463654,0.7539036273956299,2.1265760155245728e-31,0.04760969802737236,0.9031381607055664,-0.001680484157986939,-0.2523694634437561
409.0,523.0,3.4361,-2.3743,9.0849,-0.0267,-0.7153,-0.2865,-1.7081810436644496,-3.193206055129849e-07,2.5049057006835938,-1.754824161529541,0.0192733071744442,2.227090358734131,4.734209890454569,-0.8226344585418701,-0.008285436779260635,-1.3612969557391565,-0.0008837117347866297,0.04324224963784218,0.7539311051368713,5.919402119741623e-35,0.0391884371638298,0.9030697345733643,-0.0018381370464339852,-0.2109028398990631
409.0,523.0,3.4361,-2.3743,9.0849,-0.0267,-0.7153,-0.2865,-1.7081324062743128,-7.711216105758811e-13,2.5061917304992676,-1.754709243774414,0.02120301127433777,2.266474723815918,4.729449138953843,-0.806589663028717,0.031569257378578186,-1.36127216020693,-0.0016272172797471285,0.03567853569984436,0.7539719939231873,1.6476873720085853e-38,0.04604293033480644,0.903078019618988,-0.0014555657980963588,-0.24117442965507507
409.0,523.0,3.4361,-2.3743,9.0849,-0.0267,-0.7153,-0.2865,-1.708177228967184,0.001983185764402151,2.5500175952911377,-1.754525065422058,0.023863377049565315,2.2638916969299316,4.7247461881260655,-0.7910447716712952,-0.017103100195527077,-1.3612316290484827,-0.0014555822126567364,0.02736574411392212,0.7539278864860535,4.586449873735126e-42,0.04851420223712921,0.903066098690033,-0.0012432194780558348,-0.2408299595117569
409.0,523.0,3.4361,-2.3743,9.0849,-0.0267,-0.7153,-0.2865,-1.7081333599486292,0.0024056213442236185,2.600905418395996,-1.7543092966079712,0.02769344672560692,2.3214001655578613,4.718590711686321,-0.7593788504600525,0.023420756682753563,-1.3612764517413538,-0.0016418909654021263,0.02120710350573063,0.7539839148521423,0.0,0.05158436298370361,0.9030702114105225,-0.0010258699767291546,-0.17606660723686218
409.0,523.0,3.4361,-2.3743,9.0849,-0.0267,-0.7153,-0.2865,-1.7080971203246058,0.0023718145675957203,2.6618471145629883,-1.7541587352752686,0.030364425852894783,2.3014004230499268,4.71402078480509,-0.7383180856704712,0.04660395160317421,-1.3613041082965296,-0.001928524230606854,0.0195680670440197,0.753939688205719,0.0,0.03291403874754906,0.9031021595001221,-0.0008746435632929206,-0.1753547191619873
409.0,523.0,3.4361,-2.3743,9.0849,-0.0267,-0.7153,-0.2865,-1.7080847225584925,0.002829186152666807,2.7497973442077637,-1.7539185285568237,0.034824103116989136,2.3497211933135986,4.709643049831055,-0.7127501368522644,0.05878119915723801,-1.361312214528219,-0.002866441383957863,0.01527143083512783,0.7539032101631165,0.0,0.040958672761917114,0.9030538201332092,-0.0006412489456124604,-0.19198617339134216
409.0,523.0,3.4361,-2.3743,9.0849,-0.0267,-0.7153,-0.2865,-1.7081052265562953,0.0032000341452658176,2.732868194580078,-1.7537078857421875,0.04029962420463562,2.402876853942871,4.704268141383789,-0.668316125869751,0.07146134227514267,-1.3613241354571741,-0.0073038674890995026,-0.005040204152464867,0.753907322883606,0.0,0.048755183815956116,0.9030619859695435,-0.00041368379606865346,-0.14844824373722076
409.0,523.0,3.4361,-2.3743,9.0849,-0.0267,-0.7153,-0.2865,-1.708052774468893,0.0023153519723564386,2.783419609069824,-1.7533848285675049,0.046037036925554276,2.4448604583740234,4.7003208833881835,-0.633642315864563,0.07638914883136749,-1.3613556067096155,-0.010519624687731266,-0.0017293125856667757,0.7539196014404297,0.0,0.03876778855919838,0.903066098690033,-6.963088526390493e-05,-0.12713274359703064
409.0,523.0,3.4361,-2.3743,9.0849,-0.0267,-0.7153,-0.2865,-1.7080565891661585,0.0013560960069298744,2.7807488441467285,-1.7530895471572876,0.054240692406892776,2.4608170986175537,4.696758909816406,-0.6035863161087036,0.10294628888368607,-1.3614442984210413,-0.00696425698697567,-0.015573929063975811,0.7539556622505188,0.0,0.0415412113070488,0.9030821323394775,-2.1203168216743506e-06,-0.12100110948085785
409.0,523.0,3.4361,-2.3743,9.0849,-0.0267,-0.7153,-0.2865,-1.7080933056273402,0.0009017059928737581,2.879634380340576,-1.7527217864990234,0.06288284063339233,2.438413619995117,4.693191691035889,-0.5712777972221375,0.10296570509672165,-1.361476246510641,-0.0020921083632856607,-0.0177671629935503,0.7538995146751404,0.0,0.02359078638255596,0.9030457139015198,-5.1203156298251784e-12,-0.16330696642398834
409.0,523.0,3.4361,-2.3743,9.0849,-0.0267,-0.7153,-0.2865,-1.7081133327879847,0.00013629857858177274,2.8593969345092773,-1.7521518468856812,0.0767364576458931,2.4817028045654297,4.688845797176025,-0.5316776037216187,0.10889557003974915,-1.3614442984210413,-0.00027946324553340673,-0.014499027281999588,0.7539799213409424,0.0,0.03913968801498413,0.9031141400337219,-1.6589170515766619e-19,-0.1200859397649765
409.0,523.0,3.4361,-2.3743,9.0849,-0.0267,-0.7153,-0.2865,-1.7081333599486292,1.106281956708699e-06,2.857593059539795,-1.751599669456482,0.08668670803308487,2.528404951095581,4.685712500209473,-0.5062574744224548,0.11829771101474762,-1.3614524046527308,-0.0001931723818415776,-0.024347003549337387,0.7539236545562744,0.0,0.03900452330708504,0.9031058549880981,-4.006089344797133e-25,-0.10068967193365097
409.0,523.0,3.4361,-2.3743,9.0849,-0.0267,-0.7153,-0.2865,-1.7081529102721156,2.6715407230176735e-12,2.8638863563537598,-1.7510493993759155,0.10113932192325592,2.54697322845459,4.68272511541333,-0.4908358156681061,0.12308807671070099,-1.3614681402789515,-0.00014608065248467028,-0.01991751231253147,0.7539516091346741,0.0,0.036497119814157486,0.9031304121017456,-9.674233871674167e-31,-0.14103949069976807
858.0,799.0,4.5811,-1.6152,9.4576,-0.0338,-0.1431,-0.1781,-1.708104749719137,6.451457462035349e-18,2.845775842666626,-1.7503749132156372,0.11318504810333252,2.540567636489868,4.679840250606201,-0.46258801221847534,0.13260731101036072,-1.3614237944232386,-0.00011746110249077901,-0.025424350053071976,0.75392746925354,0.0,0.047056593000888824,0.9031259417533875,0.00044601631816476583,-0.11435136944055557
858.0,799.0,4.5811,-1.6152,9.4576,-0.0338,-0.1431,-0.1781,-1.7081405125060023,-0.0007842362974770367,2.821028232574463,-1.7493977546691895,0.12711162865161896,2.567603826522827,4.676313086146973,-0.4321925938129425,0.1330854296684265,-1.3614442984210413,-9.313868213212118e-05,-0.026629231870174408,0.7539076805114746,0.0,0.0353890135884285,0.9031299948692322,0.0009655902977101505,-0.10238490998744965
858.0,799.0,4.5811,-1.6152,9.4576,-0.0338,-0.1431,-0.1781,-1.7081252537169398,-0.0021494983229786158,2.82405948638916,-1.7485759258270264,0.13312141597270966,2.5431156158447266,4.673834963435791,-0.40454933047294617,0.1498444378376007,-1.361431900654928,-8.062025881372392e-05,-0.014059791341423988,0.75392746925354,0.0,0.0493544340133667,0.9031943678855896,0.0015554656274616718,-0.05756928026676178
858.0,799.0,4.5811,-1.6152,9.4576,-0.0338,-0.1431,-0.1781,-1.7081767521300257,-0.0019933313596993685,2.8288204669952393,-1.747726321220398,0.14145119488239288,2.531919002532959,4.671456022853516,-0.3797748386859894,0.1619269698858261,-1.3614562193499964,-0.00010536970512475818,-0.016108384355902672,0.7539719939231873,0.0,0.04701191186904907,0.9031259417533875,0.00214319652877748,-0.11838862299919128
858.0,799.0,4.5811,-1.6152,9.4576,-0.0338,-0.1431,-0.1781,-1.70814909557485,-0.0009645749814808369,2.87318754196167,-1.7468125820159912,0.15479016304016113,2.5745620727539062,4.66932122289624,-0.350446492433548,0.16310226917266846,-1.3614400068866175,-9.531151590636e-05,-0.03392326086759567,0.7539679408073425,0.0,0.03691164404153824,0.9031295776367188,0.0018741865642368793,-0.07309087365865707
858.0,799.0,4.5811,-1.6152,9.4576,-0.0338,-0.1431,-0.1781,-1.708189149896139,-0.0005189748480916023,2.846816301345825,-1.745567798614502,0.1699533313512802,2.585634231567383,4.666755362147949,-0.29946205019950867,0.1965254247188568,-1.3614519278155726,-8.351745054824278e-05,-0.019906040281057358,0.7538672089576721,0.0,0.04005423188209534,0.9031619429588318,0.001332550309598446,-0.1081516295671463
858.0,799.0,4.5811,-1.6152,9.4576,-0.0338,-0.1431,-0.1781,-1.7081810436644496,-0.00046149632544256747,2.813082695007324,-1.7444416284561157,0.17679156363010406,2.6207456588745117,4.66507260381665,-0.28289005160331726,0.21129363775253296,-1.361431900654928,-7.642485434189439e-05,-0.028679262846708298,0.7539036273956299,0.0,0.041257042437791824,0.9032099843025208,0.0009243267704732716,-0.06577692925930023
858.0,799.0,4.5811,-1.6152,9.4576,-0.0338,-0.1431,-0.1781,-1.7081929645934046,-0.0005502274143509567,2.8104171752929688,-1.7433412075042725,0.18389666080474854,2.615359306335449,4.663452787990234,-0.24993093311786652,0.2059173583984375,-1.361460034047262,-7.044272206258029e-05,-0.016380535438656807,0.7539434432983398,0.0,0.0402192659676075,0.9032140374183655,0.00025060796178877354,-0.10148979723453522
858.0,799.0,4.5811,-1.6152,9.4576,-0.0338,-0.1431,-0.1781,-1.7081848583617152,-0.0028118162881582975,2.82393217086792,-1.7421278953552246,0.19586198031902313,2.6367111206054688,4.662012262935303,-0.2378740757703781,0.20831748843193054,-1.3614237944232386,-6.532904808409512e-05,-0.031386226415634155,0.7539196014404297,0.0,0.03455024212598801,0.9031820297241211,0.00026506162248551846,-0.10416241735219955
858.0,799.0,4.5811,-1.6152,9.4576,-0.0338,-0.1431,-0.1781,-1.7082368336119593,-0.0019304708112031221,2.806245803833008,-1.7405486106872559,0.2087831348180771,2.6346683502197266,4.660367174739502,-0.18689174950122833,0.23426011204719543,-1.361476246510641,-5.956399763817899e-05,-0.021171972155570984,0.7539196610450745,0.0,0.04379700496792793,0.9032140374183655,0.00019031611736863852,-0.07946231961250305
858.0,799.0,4.5811,-1.6152,9.4576,-0.0338,-0.1431,-0.1781,-1.7082287273802699,-0.0016886264784261584,2.823676347732544,-1.7392234802246094,0.21544641256332397,2.603822946548462,4.6593238550373535,-0.16391924023628235,0.22522257268428802,-1.3614476362811487,-5.586650877376087e-05,-0.007712097838521004,0.7539516091346741,0.0,0.03146010637283325,0.9031857252120972,0.0001570909225847572,-0.07427512109279633
858.0,799.0,4.5811,-1.6152,9.4576,-0.0338,-0.1431,-0.1781,-1.7082487545409144,-0.0025865398347377777,2.757230281829834,-1.7378827333450317,0.22006863355636597,2.5745320320129395,4.658416433925293,-0.14384999871253967,0.23515895009040833,-1.3614280859576624,1.8080216250382364e-05,-0.0011249394156038761,0.7539597153663635,0.0,0.03064551204442978,0.9032262563705444,0.00013374362606555223,-0.11450100690126419
858.0,799.0,4.5811,-1.6152,9.4576,-0.0338,-0.1431,-0.1781,-1.7083331547179164,-0.0029399956110864878,2.7796525955200195,-1.7366056442260742,0.22907820343971252,2.577408790588379,4.657694025630615,-0.10643015056848526,0.23171007633209229,-1.361403767262594,1.7332817151327617e-05,-0.011717568151652813,0.7539076805114746,0.0,0.03281807154417038,0.9032140374183655,0.00011643905600067228,-0.14447547495365143
858.0,799.0,4.5811,-1.6152,9.4576,-0.0338,-0.1431,-0.1781,-1.7083169422545375,-0.0028824068140238523,2.7587127685546875,-1.7347102165222168,0.2398299276828766,2.6345558166503906,4.657135649318359,-0.05655885860323906,0.2690587043762207,-1.3613956610309046,1.6093143131001852e-05,0.0025330535136163235,0.7539278268814087,0.0,0.03576046600937843,0.9031939506530762,9.930731175700203e-05,-0.13994751870632172
856.0,463.0,1.4303,-1.7354,9.9625,-0.015,0.3502,-0.064,-1.708320756951803,-0.0041959043592214584,2.705939531326294,-1.7332669496536255,0.24374955892562866,2.5081334114074707,4.656819506282471,-0.039674531668424606,0.24133345484733582,-1.3613994757281702,3.0513328965753317e-05,-0.007776790764182806,0.7539355754852295,0.0,0.03356441855430603,0.9031903147697449,8.943826105678454e-05,-0.08361523598432541
856.0,463.0,1.4303,-1.7354,9.9625,-0.015,0.3502,-0.064,-1.7083727322020472,-0.006128393579274416,2.6447296142578125,-1.7317458391189575,0.24553363025188446,2.557926893234253,4.6566359239765625,-0.03414376825094223,0.24451833963394165,-1.3614118734942835,4.311190787120722e-05,0.0004908249247819185,0.7539434432983398,0.0,0.04045706242322922,0.9031332731246948,8.135355164995417e-05,-0.10630065947771072
856.0,463.0,1.4303,-1.7354,9.9625,-0.015,0.3502,-0.064,-1.7084084949889125,-0.007753605954349041,2.6187429428100586,-1.729759693145752,0.26274383068084717,2.530141592025757,4.656332178706787,-0.03712458163499832,0.24215540289878845,-1.3613556067096155,4.09558997489512e-05,-0.014989608898758888,0.7539315223693848,0.0,0.026128794997930527,0.9031619429588318,-2.7452517315396108e-05,-0.17097993195056915
856.0,463.0,1.4303,-1.7354,9.9625,-0.015,0.3502,-0.064,-1.7085010013976039,-0.009675651788711548,2.620598316192627,-1.7281792163848877,0.2683359980583191,2.5964276790618896,4.656010313625,-0.04908645898103714,0.24037206172943115,-1.361391846333639,5.211803727434017e-05,0.005571714136749506,0.753955602645874,0.0,0.05279714986681938,0.9032062292098999,-5.0748218200169504e-05,-0.14382725954055786
856.0,463.0,1.4303,-1.7354,9.9625,-0.015,0.3502,-0.064,-1.708593030969137,-0.012044023722410202,2.6096532344818115,-1.7266037464141846,0.26986661553382874,2.4589903354644775,4.6557347017475585,-0.06021376699209213,0.21060921251773834,-1.3614118734942835,0.0002069829497486353,0.03521076962351799,0.7538995146751404,0.0,0.043366704136133194,0.9031820297241211,-2.3869566575740464e-05,-0.19055277109146118
856.0,463.0,1.4303,-1.7354,9.9625,-0.015,0.3502,-0.064,-1.708660741845602,-0.013777598738670349,2.544814109802246,-1.7248704433441162,0.28435108065605164,2.5210330486297607,4.655334635371826,-0.06398440152406693,0.22601762413978577,-1.3614118734942835,0.0001932952436618507,0.019183959811925888,0.7539319396018982,0.0,0.033934663981199265,0.9032140374183655,-2.1831745470990427e-05,-0.19011813402175903
856.0,463.0,1.4303,-1.7354,9.9625,-0.015,0.3502,-0.064,-1.7088047466673792,-0.018948059529066086,2.571688413619995,-1.7226651906967163,0.29314151406288147,2.547112464904785,4.654751463527344,-0.06108294427394867,0.19956496357917786,-1.3613961378680628,0.0001971998281078413,0.017393216490745544,0.75392746925354,0.0,0.03885364159941673,0.9032140374183655,-1.9900762708857656e-05,-0.22670266032218933
856.0,463.0,1.4303,-1.7354,9.9625,-0.015,0.3502,-0.064,-1.7089487514891566,-0.02510959841310978,2.5011446475982666,-1.7208824157714844,0.28779909014701843,2.556218147277832,4.654402895564697,-0.05781855061650276,0.19236621260643005,-1.36137563387026,0.0002059688267763704,0.03563549742102623,0.7539352178573608,0.0,0.037311989814043045,0.9032099843025208,-1.8662756701814942e-05,-0.21302646398544312
856.0,463.0,1.4303,-1.7354,9.9625,-0.015,0.3502,-0.064,-1.7091847858824671,-0.03392689675092697,2.449751138687134,-1.7190897464752197,0.2913401126861572,2.4679861068725586,4.654120131129883,-0.048461101949214935,0.1914243996143341,-1.3614280859576624,0.000293773045996204,0.0374303013086319,0.7539798617362976,0.0,0.02473212406039238,0.9031939506530762,-1.7569760530022904e-05,-0.1632392555475235
856.0,463.0,1.4303,-1.7354,9.9625,-0.015,0.3502,-0.064,-1.7093526325621546,-0.04053131863474846,2.468252420425415,-1.7172988653182983,0.29577019810676575,2.4616246223449707,4.653791113490723,-0.03837425261735916,0.20799164474010468,-1.3614361921893519,0.00029471912421286106,0.03335954621434212,0.7538631558418274,0.0,0.03426763415336609,0.9031898975372314,-1.659771442064084e-05,-0.2049790620803833
856.0,463.0,1.4303,-1.7354,9.9625,-0.015,0.3502,-0.064,-1.7097202740111292,-0.0511573888361454,2.3877620697021484,-1.7149665355682373,0.29466235637664795,2.4117705821990967,4.653609915370605,-0.030338285490870476,0.18260423839092255,-1.3613999525653284,0.00028229804593138397,0.03607146441936493,0.753947913646698,0.0,0.03989721089601517,0.9032222032546997,-1.5457468180102296e-05,-0.1841234713792801
856.0,463.0,1.4303,-1.7354,9.9625,-0.015,0.3502,-0.064,-1.7100478611388148,-0.057736605405807495,2.373258590698242,-1.713170051574707,0.297725647687912,2.44496488571167,4.653356238002441,-0.030085604637861252,0.17842040956020355,-1.3613999525653284,0.0002843833062797785,0.059769898653030396,0.753955602645874,0.0,0.04669266194105148,0.9031980037689209,-1.4700057363370433e-05,-0.20747628808021545
856.0,463.0,1.4303,-1.7354,9.9625,-0.015,0.3502,-0.064,-1.7104116878905238,-0.06409379094839096,2.3109123706817627,-1.7114231586456299,0.29503217339515686,2.405729293823242,4.653200789088867,-0.03841836377978325,0.17446886003017426,-1.361408535634176,0.00033054398954845965,0.047559723258018494,0.7539515495300293,0.0,0.03696084022521973,0.903209924697876,-2.800453148665838e-05,-0.23979417979717255
856.0,463.0,1.4303,-1.7354,9.9625,-0.015,0.3502,-0.064,-1.710794588128561,-0.07069643586874008,2.2825512886047363,-1.7096350193023682,0.29937437176704407,2.3931379318237305,4.6528636652180175,-0.052751947194337845,0.16528134047985077,-1.36137563387026,0.0002900450781453401,0.05970048904418945,0.7539597749710083,0.0,0.046980950981378555,0.9032222032546997,-1.3395314454101026e-05,-0.2650395631790161
422.0,286.0,0.4875,-1.8538,8.3797,-0.0475,-0.0509,-0.1271,-1.7113825283446253,-0.07961440086364746,2.2855427265167236,-1.7072628736495972,0.3003045320510864,2.3918509483337402,4.652321024531982,-0.08556408435106277,0.1494445949792862,-1.3613556067096155,0.00027852735365740955,0.0458696112036705,0.753963828086853,0.0,0.04260198026895523,0.9031660556793213,-2.5272340280935168e-05,-0.23565930128097534
422.0,286.0,0.4875,-1.8538,8.3797,-0.0475,-0.0509,-0.1271,-1.7118736706175746,-0.08583152294158936,2.246042490005493,-1.7054991722106934,0.3020000159740448,2.3627469539642334,4.651639147395752,-0.11114158481359482,0.1351766139268875,-1.3613398710833948,0.00027864976436831057,0.055031150579452515,0.7539434432983398,0.0,0.04811754822731018,0.9032180309295654,-2.42508904193528e-05,-0.2597472071647644
422.0,286.0,0.4875,-1.8538,8.3797,-0.0475,-0.0509,-0.1271,-1.712449689904684,-0.09348957985639572,2.285006046295166,-1.7036211490631104,0.3017458915710449,2.387237071990967,4.650878592128418,-0.12970344722270966,0.10931098461151123,-1.3614123503314417,0.00025172499590553343,0.08262042701244354,0.7539516091346741,7.656083766960364e-09,0.05023258179426193,0.9031898975372314,-2.3308813979383558e-05,-0.28517448902130127
422.0,286.0,0.4875,-1.8538,8.3797,-0.0475,-0.0509,-0.1271,-1.7131115398802699,-0.09898576885461807,2.242598056793213,-1.70192289352417,0.2982737123966217,2.3433587551116943,4.650081320399902,-0.1334288865327835,0.11004671454429626,-1.361396614705221,0.00024249537091236562,0.07378579676151276,0.7539475560188293,2.1310991166201276e-12,0.04330220818519592,0.9032180309295654,-2.243718881800305e-05,-0.31980738043785095
422.0,286.0,0.4875,-1.8538,8.3797,-0.0475,-0.0509,-0.1271,-1.713952203790182,-0.11098768562078476,2.1848456859588623,-1.6995339393615723,0.2931784689426422,2.374342441558838,4.6488048273273925,-0.17733509838581085,0.09625266492366791,-1.3614204565631312,0.00027891810168512166,0.07130623608827591,0.7539757490158081,3.873167339161145e-17,0.05751785263419151,0.9032140374183655,-3.081228715018369e-05,-0.31049323081970215
422.0,286.0,0.4875,-1.8538,8.3797,-0.0475,-0.0509,-0.1271,-1.7146769962706507,-0.12435150146484375,2.105841636657715,-1.6978060007095337,0.2920593321323395,2.352464199066162,4.647581263179443,-0.21149690449237823,0.06197187304496765,-1.36135179201235,0.0002770255960058421,0.0880524069070816,0.7539474964141846,1.0781104557943202e-20,0.057286426424980164,0.9031779766082764,-3.0954848625697196e-05,-0.28571170568466187
422.0,286.0,0.4875,-1.8538,8.3797,-0.0475,-0.0509,-0.1271,-1.7153941593565882,-0.13784626126289368,2.0885212421417236,-1.6960817575454712,0.2863665819168091,2.3367581367492676,4.646301432246826,-0.2238582968711853,0.058200351893901825,-1.3614242712603968,0.0002521122805774212,0.07577008008956909,0.7539634704589844,3.0009603981689376e-24,0.05726797133684158,0.9031898975372314,-3.9765454857843e-05,-0.3138667941093445
422.0,286.0,0.4875,-1.8538,8.3797,-0.0475,-0.0509,-0.1271,-1.7162872753539027,-0.15424008667469025,2.063790798187256,-1.6943457126617432,0.2878449559211731,2.298647403717041,4.64484088003125,-0.257466584444046,0.042243316769599915,-1.3613279501544397,0.0002851944009307772,0.07678131014108658,0.7540122270584106,8.353282984717287e-28,0.058861009776592255,0.903242290019989,-7.038049807306379e-05,-0.2703242301940918
422.0,286.0,0.4875,-1.8538,8.3797,-0.0475,-0.0509,-0.1271,-1.7176252804198207,-0.1679830402135849,2.0962460041046143,-1.6920335292816162,0.2971193790435791,2.3373756408691406,4.6425978380390625,-0.29336997866630554,0.02023160085082054,-1.3613880316363733,0.00022755975078325719,0.08389240503311157,0.7538991570472717,1.5181678518182774e-32,0.04600196331739426,0.9031820297241211,-0.0010803095065057278,-0.2971676290035248
422.0,286.0,0.4875,-1.8538,8.3797,-0.0475,-0.0509,-0.1271,-1.718598028222555,-0.16397307813167572,2.173685312271118,-1.6901966333389282,0.29005253314971924,2.2724404335021973,4.640676661128662,-0.33890268206596375,0.013308374211192131,-1.3613923231707972,0.0002001815300900489,0.09151694178581238,0.7539758086204529,4.225876362472829e-36,0.058611419051885605,0.9032062888145447,-0.0013401343021541834,-0.2718586325645447
422.0,286.0,0.4875,-1.8538,8.3797,-0.0475,-0.0509,-0.1271,-1.719731946984762,-0.17088492214679718,2.145723581314087,-1.688462257385254,0.29158636927604675,2.348292350769043,4.638505144710205,-0.3617806136608124,-0.002803199691697955,-1.36137563387026,0.00020941105321981013,0.08561208844184875,0.7539634704589844,1.1762877660127882e-39,0.04905039072036743,0.9031497240066528,-0.0006569356773979962,-0.27729469537734985
422.0,286.0,0.4875,-1.8538,8.3797,-0.0475,-0.0509,-0.1271,-1.7212616405882777,-0.2006700336933136,2.187746286392212,-1.6861417293548584,0.28605014085769653,2.300347328186035,4.6354662615009765,-0.40160709619522095,-0.02678113617002964,-1.3613479773150843,0.00018132942204829305,0.07046337425708771,0.75392746925354,2.1019476964872256e-44,0.06641795486211777,0.9031619429588318,-0.00011027901928173378,-0.31034955382347107
422.0,286.0,0.4875,-1.8538,8.3797,-0.0475,-0.0509,-0.1271,-1.7225595913329066,-0.2234366536140442,2.1288645267486572,-1.6844382286071777,0.277384489774704,2.2643065452575684,4.632898493404053,-0.45153605937957764,-0.03878745436668396,-1.3613360563861292,0.00016474738367833197,0.0994209349155426,0.753902792930603,0.0,0.06097102165222168,0.9031500816345215,-0.00023546372540295124,-0.3071034550666809
422.0,286.0,0.4875,-1.8538,8.3797,-0.0475,-0.0509,-0.1271,-1.7238899670042933,-0.23248903453350067,2.1197190284729004,-1.682709813117981,0.2797714173793793,2.3039162158966064,4.630135222072266,-0.48972952365875244,-0.06680212914943695,-1.3613680044757288,0.00016328212223015726,0.08629122376441956,0.7539597749710083,0.0,0.06180498003959656,0.9031057357788086,-0.0009985401993617415,-0.2570527195930481
313.0,324.0,1.6672,-1.8168,8.3222,-0.0301,-0.6932,-0.2928,-1.7251621685423792,-0.22461925446987152,2.1484568119049072,-1.6810256242752075,0.2818637192249298,2.277813196182251,4.626995249385498,-0.5239477753639221,-0.06982645392417908,-1.361363712941305,0.0001629505422897637,0.07869947701692581,0.753955602645874,0.0,0.06720467656850815,0.9030898213386536,-0.0033749290741980076,-0.31633466482162476
313.0,324.0,1.6672,-1.8168,8.3222,-0.0301,-0.6932,-0.2928,-1.72709383587026,-0.2314290702342987,2.2016537189483643,-1.6787055730819702,0.2823318541049957,2.373867988586426,4.622643156642578,-0.5666185021400452,-0.04714914411306381,-1.3613675276385706,-0.00020198911079205573,0.07945475727319717,0.7538955211639404,0.0,0.060041218996047974,0.9030940532684326,-0.002075678901746869,-0.26159125566482544
313.0,324.0,1.6672,-1.8168,8.3222,-0.0301,-0.6932,-0.2928,-1.728523393670553,-0.24394969642162323,2.1873788833618164,-1.677073359489441,0.2833467125892639,2.3515655994415283,4.618957205409668,-0.6133765578269958,-0.05475828796625137,-1.3614123503314417,-1.450291392757208e-06,0.08826398104429245,0.7539474964141846,0.0,0.05986861139535904,0.903057873249054,-0.0008780172793194652,-0.3061390221118927
313.0,324.0,1.6672,-1.8168,8.3222,-0.0301,-0.6932,-0.2928,-1.730025430718893,-0.2528819143772125,2.2416610717773438,-1.6753411293029785,0.28154173493385315,2.3365118503570557,4.615057631129883,-0.6391890645027161,-0.054025083780288696,-1.3613598982440394,-4.036939393881056e-10,0.07309745997190475,0.753915548324585,0.0,0.06562864780426025,0.9031100273132324,-0.0006587521056644619,-0.25816744565963745
313.0,324.0,1.6672,-1.8168,8.3222,-0.0301,-0.6932,-0.2928,-1.7315918407835902,-0.25908324122428894,2.230820655822754,-1.673645257949829,0.28504037857055664,2.4266674518585205,4.611117048854492,-0.6731233596801758,-0.04262738302350044,-1.3613761107074183,-1.1236968115984486e-13,0.08175767958164215,0.7539597749710083,0.0,0.04187499359250069,0.903066098690033,-0.0005314589361660182,-0.266632616519928
313.0,324.0,1.6672,-1.8168,8.3222,-0.0301,-0.6932,-0.2928,-1.7336255512633265,-0.27214404940605164,2.2913949489593506,-1.671360969543457,0.285934180021286,2.427151679992676,4.6055590349384765,-0.7145535349845886,-0.03534657508134842,-1.3613680044757288,-2.0422632306645818e-18,0.05953744426369667,0.753955602645874,0.0,0.05687958002090454,0.9030742645263672,-0.0016219542594626546,-0.32110345363616943
313.0,324.0,1.6672,-1.8168,8.3222,-0.0301,-0.6932,-0.2928,-1.735243936578268,-0.2759062647819519,2.265155792236328,-1.6697176694869995,0.28241777420043945,2.428084373474121,4.601258917445801,-0.7384313941001892,-0.0330786295235157,-1.3613842169391077,-5.684715456059091e-22,0.06008606776595116,0.7539920210838318,0.0,0.040265753865242004,0.9030098915100098,-0.0025076568126678467,-0.2715234160423279
313.0,324.0,1.6672,-1.8168,8.3222,-0.0301,-0.6932,-0.2928,-1.7368370495238246,-0.2784980833530426,2.2069814205169678,-1.667977213859558,0.29078423976898193,2.431863784790039,4.596871538753174,-0.7597234845161438,-0.03290891274809837,-1.36135179201235,-1.5823614219003711e-25,0.07604028284549713,0.7539474964141846,0.0,0.04415183141827583,0.9030382633209229,-0.003478261409327388,-0.27676400542259216
313.0,324.0,1.6672,-1.8168,8.3222,-0.0301,-0.6932,-0.2928,-1.7386161289610804,-0.2839771807193756,2.2373533248901367,-1.6662460565567017,0.29634156823158264,2.463238477706909,4.592345877284668,-0.7812050580978394,-0.0346560999751091,-1.3613603750811976,-4.404561458655398e-29,0.05501924455165863,0.7539196014404297,0.0,0.0408935546875,0.9030263423919678,-0.004740820731967688,-0.2875393033027649
313.0,324.0,1.6672,-1.8168,8.3222,-0.0301,-0.6932,-0.2928,-1.7408510647215785,-0.2846676707267761,2.2884058952331543,-1.6637369394302368,0.30117732286453247,2.473327875137329,4.585984869594238,-0.7930472493171692,-0.031198814511299133,-1.3613761107074183,-8.00507152970666e-34,0.048607006669044495,0.7538832426071167,0.0,0.03196755796670914,0.9029383063316345,-0.00561339408159256,-0.283733069896698
313.0,324.0,1.6672,-1.8168,8.3222,-0.0301,-0.6932,-0.2928,-1.7425362072386683,-0.29087042808532715,2.396476984024048,-1.6619611978530884,0.3147045075893402,2.560281276702881,4.581232710475586,-0.7911152839660645,-0.01660197228193283,-1.3613560835467737,-2.2282412339868412e-37,0.03269246593117714,0.7538995146751404,0.0,0.03459849953651428,0.9029142260551453,-0.006375978700816631,-0.2671940326690674
313.0,324.0,1.6672,-1.8168,8.3222,-0.0301,-0.6932,-0.2928,-1.744302888909811,-0.28780171275138855,2.3838815689086914,-1.6601170301437378,0.31854677200317383,2.5403051376342773,4.5764404970356445,-0.7900484204292297,-0.006688395980745554,-1.3613842169391077,-6.202427262794505e-41,0.05178476497530937,0.7538594007492065,0.0,0.02386719360947609,0.9028986692428589,-0.008526251651346684,-0.24446013569831848
313.0,324.0,1.6672,-1.8168,8.3222,-0.0301,-0.6932,-0.2928,-1.746056695977682,-0.28466740250587463,2.438784122467041,-1.6581372022628784,0.32213646173477173,2.5772018432617188,4.571737928981445,-0.7872370481491089,-0.008448529988527298,-1.3613560835467737,-1.6815581571897805e-44,0.036602385342121124,0.7539196014404297,0.0,0.027587931603193283,0.9027581214904785,-0.010926847346127033,-0.32175296545028687
313.0,324.0,1.6672,-1.8168,8.3222,-0.0301,-0.6932,-0.2928,-1.7484199009337367,-0.2949720621109009,2.4791018962860107,-1.6554256677627563,0.3364357054233551,2.6316566467285156,4.565582914943359,-0.7689161896705627,0.02137179858982563,-1.3613680044757288,-0.0,0.04447261989116669,0.7538472414016724,0.0,0.023687265813350677,0.902694046497345,-0.013138099573552608,-0.25767651200294495
814.0,718.0,5.5394,-1.9328,9.4726,-0.0476,-0.5843,-0.2726,-1.7502018413939417,-0.2888103127479553,2.551945447921753,-1.6533664464950562,0.3415352702140808,2.611020565032959,4.561091108913086,-0.7565008997917175,0.012445400469005108,-1.3613398710833948,-0.0,0.02327875979244709,0.7539597153663635,0.0,0.021143069490790367,0.9025945663452148,-0.015293465927243233,-0.22922025620937347
814.0,718.0,5.5394,-1.9328,9.4726,-0.0476,-0.5843,-0.2726,-1.751984258691305,-0.2848103940486908,2.5587282180786133,-1.6512343883514404,0.3526357412338257,2.7285499572753906,4.556539698238037,-0.7426605224609375,0.044897571206092834,-1.3613398710833948,-0.0,0.033961229026317596,0.7539199590682983,0.0,0.020018963143229485,0.9024983048439026,-0.018032774329185486,-0.2838069796562195
814.0,718.0,5.5394,-1.9328,9.4726,-0.0476,-0.5843,-0.2726,-1.7537342510619105,-0.28984296321868896,2.58048152923584,-1.6490910053253174,0.35915955901145935,2.683096408843994,4.552100821132324,-0.7205492258071899,0.03731900826096535,-1.3613598982440394,-0.0,0.02461865171790123,0.7538753747940063,0.0,0.027347367256879807,0.9023500084877014,-0.019782204180955887,-0.2553167939186096
814.0,718.0,5.5394,-1.9328,9.4726,-0.0476,-0.5843,-0.2726,-1.7560936413206996,-0.2822510302066803,2.6233153343200684,-1.6461632251739502,0.3665289580821991,2.7241244316101074,4.546489878291748,-0.7014680504798889,0.04985203593969345,-1.3613198439227503,-0.0,0.018324164673686028,0.7539358735084534,0.0,0.009902268648147583,0.9022026062011719,-0.021896855905652046,-0.22992604970932007
814.0,718.0,5.5394,-1.9328,9.4726,-0.0476,-0.5843,-0.2726,-1.757759233514303,-0.2758483588695526,2.667266368865967,-1.6438994407653809,0.37453845143318176,2.7763490676879883,4.542442007655762,-0.678196907043457,0.057715751230716705,-1.3613279501544397,-0.0,0.012088369578123093,0.7538716197013855,0.0,0.018509922549128532,0.9020668268203735,-0.021813778206706047,-0.21453647315502167
814.0,718.0,5.5394,-1.9328,9.4726,-0.0476,-0.5843,-0.2726,-1.759413858453268,-0.2784804403781891,2.6468706130981445,-1.6416435241699219,0.38336750864982605,2.7719125747680664,4.5383288103291015,-0.6612193584442139,0.056751932948827744,-1.361363712941305,-0.0,0.01351018063724041,0.7539117932319641,0.0,-0.0013720942661166191,0.9019468426704407,-0.022620394825935364,-0.19746442139148712
814.0,718.0,5.5394,-1.9328,9.4726,-0.0476,-0.5843,-0.2726,-1.7616039715208949,-0.2689334750175476,2.709090232849121,-1.638522982597351,0.3870566487312317,2.7801356315612793,4.533163710231445,-0.6407766938209534,0.0573764443397522,-1.3613484541522425,-0.0,0.004833824932575226,0.7538955211639404,0.0,0.0076117622666060925,0.9018154144287109,-0.02338092215359211,-0.1802157759666443
814.0,718.0,5.5394,-1.9328,9.4726,-0.0476,-0.5843,-0.2726,-1.763198038140768,-0.26163098216056824,2.7379422187805176,-1.6362254619598389,0.3987500071525574,2.8181190490722656,4.529432459468506,-0.6250311136245728,0.05986896902322769,-1.3613761107074183,-0.0,0.001346199307590723,0.7538676261901855,0.0,0.005997683387249708,0.9016274809837341,-0.021999238058924675,-0.2121424674987793
814.0,718.0,5.5394,-1.9328,9.4726,-0.0476,-0.5843,-0.2726,-1.7647282085814417,-0.25635361671447754,2.7267298698425293,-1.6338337659835815,0.4039580225944519,2.7636122703552246,4.5256358820148925,-0.6073188185691833,0.07232391834259033,-1.3614166418658655,-0.0,-0.0026259594596922398,0.7539318203926086,0.0,0.008930063806474209,0.9015313982963562,-0.021222403272986412,-0.19441017508506775
814.0,718.0,5.5394,-1.9328,9.4726,-0.0476,-0.5843,-0.2726,-1.7661692104735316,-0.24900315701961517,2.7535324096679688,-1.6314183473587036,0.4133775234222412,2.7762973308563232,4.5219995218464355,-0.5895594954490662,0.07892122864723206,-1.361408535634176,-0.00010092638694914058,0.007999182678759098,0.7538836002349854,0.0,0.008994288742542267,0.9014155268669128,-0.018045766279101372,-0.18626365065574646
814.0,718.0,5.5394,-1.9328,9.4726,-0.0476,-0.5843,-0.2726,-1.7680713138976039,-0.24052554368972778,2.7157835960388184,-1.6281310319900513,0.41847020387649536,2.82130765914917,4.5173536974140625,-0.5781431198120117,0.04053591191768646,-1.3613923231707972,-9.309342567576095e-05,0.01368221640586853,0.7538111805915833,0.0,0.006863517686724663,0.9013438820838928,-0.013767198659479618,-0.17371830344200134
814.0,718.0,5.5394,-1.9328,9.4726,-0.0476,-0.5843,-0.2726,-1.769496580163473,-0.23701173067092896,2.7823028564453125,-1.6255427598953247,0.4183788597583771,2.8320138454437256,4.513964815730713,-0.5670725703239441,0.06428127735853195,-1.3613761107074183,-8.765336679061875e-05,0.008686326444149017,0.7538872957229614,0.0,-0.007933121174573898,0.9012317061424255,-0.011069094762206078,-0.18329724669456482
814.0,718.0,5.5394,-1.9328,9.4726,-0.0476,-0.5843,-0.2726,-1.7708870373167933,-0.23380880057811737,2.773632526397705,-1.6229597330093384,0.4181792140007019,2.8161673545837402,4.510654612178467,-0.5548475384712219,0.0399155467748642,-1.3613441626178187,-8.281390182673931e-05,0.007258441299200058,0.7539277672767639,0.0,-0.0018516471609473228,0.9011842012405396,-0.008085864596068859,-0.1279260367155075
814.0,718.0,5.5394,-1.9328,9.4726,-0.0476,-0.5843,-0.2726,-1.7722202740111292,-0.23050987720489502,2.7861557006835938,-1.6204200983047485,0.4216994345188141,2.7289109230041504,4.507387800807617,-0.5448530316352844,0.04815763980150223,-1.3613398710833948,-7.848096720408648e-05,-0.012046443298459053,0.7539117932319641,0.0,-0.0016405663918703794,0.9011641144752502,-0.0052794055081903934,-0.15871286392211914
841.0,744.0,4.1456,-1.3729,8.5053,0.0093,-0.2295,-0.1955,-1.774010797540182,-0.2227248251438141,2.717231273651123,-1.6170275211334229,0.4257270097732544,2.777395725250244,4.503003283137939,-0.5373063683509827,0.04174404218792915,-1.36137563387026,-8.797092596068978e-05,-0.007444081827998161,0.7538632750511169,0.0,0.007788524962961674,0.9011281132698059,-0.00312567176297307,-0.12763305008411407
841.0,744.0,4.1456,-1.3729,8.5053,0.0093,-0.2295,-0.1955,-1.7753039799132289,-0.2109759896993637,2.784313678741455,-1.614452838897705,0.4264225661754608,2.7564032077789307,4.499904318446777,-0.5270624160766602,0.05056888982653618,-1.3613961378680628,-8.370758587261662e-05,-0.007627035956829786,0.7539399266242981,-1.3031676644459367e-05,0.0038636010140180588,0.9011281728744507,-0.0021319559309631586,-0.1276264190673828
841.0,744.0,4.1456,-1.3729,8.5053,0.0093,-0.2295,-0.1955,-1.7765099010863246,-0.1994379609823227,2.8083014488220215,-1.6119296550750732,0.42976921796798706,2.710771083831787,4.496831579799316,-0.5221511721611023,0.03485393524169922,-1.3613761107074183,-8.019142842385918e-05,-0.0033844891004264355,0.7538554072380066,-3.5133794881403446e-05,0.011570289731025696,0.9011444449424744,-0.0011144477175548673,-0.15508116781711578
841.0,744.0,4.1456,-1.3729,8.5053,0.0093,-0.2295,-0.1955,-1.7777515850462855,-0.19815361499786377,2.7731575965881348,-1.609433889389038,0.4351273775100708,2.7453982830047607,4.493579550380371,-0.5136998891830444,0.03326323628425598,-1.3613441626178187,-7.677118992432952e-05,-0.007548297755420208,0.7539236545562744,-3.319628012832254e-05,0.012166924774646759,0.9011199474334717,-0.00012404678273014724,-0.10569415986537933
