ramyac6/ROB537/final_project/csv/bad/bad_144.csv
tof_0,tof_1,accelx,accely,accelz,gyrox,gyroy,gyroz,shoulder_lift_joint_position,shoulder_lift_joint_velocity,shoulder_lift_joint_effort,elbow_joint_position,elbow_joint_velocity,elbow_joint_effort,wrist_1_joint_position,wrist_1_joint_velocity,wrist_1_joint_effort,wrist_2_joint_position,wrist_2_joint_velocity,wrist_2_joint_effort,wrist_3_joint_position,wrist_3_joint_velocity,wrist_3_joint_effort,shoulder_pan_joint_position,shoulder_pan_joint_velocity,shoulder_pan_joint_effort
350.0,354.0,-0.7454,0.2405,9.4158,-0.0403,0.0189,-0.1138,-1.7734157047667445,0.0,2.759246826171875,-1.8943276405334473,-0.0,1.8882769346237183,5.204571443587103,-0.0,0.2759292721748352,-1.5970061461078089,0.0,-0.007425522897392511,0.7840011715888977,0.0,-0.011314147152006626,0.790656566619873,0.0,-0.010028276592493057
350.0,354.0,-0.7454,0.2405,9.4158,-0.0403,0.0189,-0.1138,-1.7734281025328578,0.0,2.7952394485473633,-1.8943440914154053,-0.0,1.9313726425170898,5.2045476017291925,-0.0,0.27240535616874695,-1.5970099608050745,0.0,-0.008143545128405094,0.784069299697876,0.0,0.015960905700922012,0.7905879616737366,0.0,0.03263447806239128
350.0,354.0,-0.7454,0.2405,9.4158,-0.0403,0.0189,-0.1138,-1.773379465142721,0.0,2.768944263458252,-1.8943400382995605,-0.0,1.8923649787902832,5.204559522658148,-0.0,0.2891789674758911,-1.5970099608050745,0.0,-0.012777414172887802,0.7840773463249207,0.0,-0.010213959962129593,0.7906157970428467,0.0,0.016985159367322922
350.0,354.0,-0.7454,0.2405,9.4158,-0.0403,0.0189,-0.1138,-1.7734276256956996,0.0,2.7553911209106445,-1.8943482637405396,-0.0,1.9727880954742432,5.204583275109091,-0.0,0.2698014974594116,-1.5970099608050745,0.0,-0.0066844685934484005,0.7839972376823425,0.0,0.01101345382630825,0.7906157970428467,0.0,0.020412642508745193
350.0,354.0,-0.7454,0.2405,9.4158,-0.0403,0.0189,-0.1138,-1.773379465142721,0.0,2.775749683380127,-1.8942997455596924,-0.0,1.9520879983901978,5.20461197474555,-0.0,0.27758967876434326,-1.597001854573385,0.0,0.0036715466994792223,0.7840173840522766,0.0,0.005262003745883703,0.7906404733657837,0.0,0.024977827444672585
350.0,354.0,-0.7454,0.2405,9.4158,-0.0403,0.0189,-0.1138,-1.7733751736082972,0.0,2.7905046939849854,-1.8943358659744263,-0.0,1.901868462562561,5.204579609423437,-0.0,0.27353185415267944,-1.5970304648028772,0.0,-0.017052777111530304,0.7840173840522766,0.0,0.004333865828812122,0.7906039357185364,0.0,0.0008301497437059879
350.0,354.0,-0.7454,0.2405,9.4158,-0.0403,0.0189,-0.1138,-1.7734037838377894,0.0,2.8177995681762695,-1.8943276405334473,-0.0,1.920656681060791,5.204571443587103,-0.0,0.2765018045902252,-1.5970099608050745,0.0,0.002921980805695057,0.7840254306793213,0.0,0.0027743838727474213,0.790600061416626,0.0,0.023291029036045074
350.0,354.0,-0.7454,0.2405,9.4158,-0.0403,0.0189,-0.1138,-1.7733875713744105,0.0,2.789727210998535,-1.8943276405334473,-0.0,1.9180307388305664,5.204551297217169,-0.0,0.27984753251075745,-1.5970142523394983,0.0,0.0010967371053993702,0.7840213775634766,0.0,0.00273935217410326,0.7906121015548706,0.0,-0.03778793662786484
350.0,354.0,-0.7454,0.2405,9.4158,-0.0403,0.0189,-0.1138,-1.7733875713744105,0.0,2.775552749633789,-1.8943202495574951,-0.0,1.915632963180542,5.2045554397399805,-0.0,0.2841755449771881,-1.5969894568072718,0.0,-0.00921105407178402,0.7840414047241211,0.0,-0.009314127266407013,0.7906121611595154,0.0,-0.015410097315907478
355.0,358.0,-0.8548,0.216,9.7394,-0.0318,0.0194,-0.1156,-1.7734157047667445,0.0,2.8039445877075195,-1.8943318128585815,-0.0,1.9359149932861328,5.204571443587103,-0.0,0.27811071276664734,-1.5970099608050745,0.0,-0.01114718522876501,0.7840773463249207,0.0,-0.009664449840784073,0.7906121015548706,0.0,-0.02424764633178711
355.0,358.0,-0.8548,0.216,9.7394,-0.0318,0.0194,-0.1156,-1.7734157047667445,0.0,2.826371669769287,-1.8943761587142944,-0.0,1.8843172788619995,5.20459150055007,-0.0,0.279986709356308,-1.5969694296466272,0.0,-0.017741262912750244,0.7840611338615417,0.0,-0.004475092515349388,0.7906322479248047,0.0,0.04271503537893295
355.0,358.0,-0.8548,0.216,9.7394,-0.0318,0.0194,-0.1156,-1.773379465142721,0.0,2.761645793914795,-1.8943276405334473,-0.0,1.9263114929199219,5.2045476017291925,-0.0,0.2734607458114624,-1.5969980398761194,0.0,-0.0019693016074597836,0.784029483795166,0.0,-0.003094737883657217,0.7906240224838257,0.0,0.003115528030321002
355.0,358.0,-0.8548,0.216,9.7394,-0.0318,0.0194,-0.1156,-1.773367544213766,0.0,2.829563856124878,-1.894348382949829,-0.0,1.9090914726257324,5.204591530352392,-0.0,0.2807202935218811,-1.5969813505755823,0.0,-0.0013352036476135254,0.7840655446052551,0.0,0.0031187222339212894,0.7906121015548706,0.0,0.05266793072223663
355.0,358.0,-0.8548,0.216,9.7394,-0.0318,0.0194,-0.1156,-1.77341951946401,0.0,2.802441358566284,-1.8942915201187134,-0.0,1.9185853004455566,5.204575139075079,-0.0,0.2850489318370819,-1.5969579855548304,0.0,-0.022898226976394653,0.784001350402832,0.0,-0.0007952792220748961,0.7906280755996704,0.0,0.012807907536625862
355.0,358.0,-0.8548,0.216,9.7394,-0.0318,0.0194,-0.1156,-1.7733756504454554,0.0,2.7525579929351807,-1.8943803310394287,-0.0,1.9052647352218628,5.204595583468237,-0.0,0.27686429023742676,-1.5970261732684534,0.0,3.0183931812644005e-05,0.7840251326560974,0.0,0.0033142364118248224,0.7905998826026917,0.0,-0.04311680421233177
355.0,358.0,-0.8548,0.216,9.7394,-0.0318,0.0194,-0.1156,-1.7733918629088343,0.0,2.8391895294189453,-1.8943276405334473,-0.0,1.91227388381958,5.204579609423437,-0.0,0.27923011779785156,-1.5970099608050745,0.0,-0.013275736942887306,0.7839852571487427,0.0,0.000738751026801765,0.7905959486961365,0.0,-0.0034103700891137123
355.0,358.0,-0.8548,0.216,9.7394,-0.0318,0.0194,-0.1156,-1.77341951946401,0.0,2.806657314300537,-1.8943153619766235,-0.0,1.9132795333862305,5.204563605576315,-0.0,0.2788950800895691,-1.5970099608050745,0.0,-0.0038942438550293446,0.7840652465820312,0.0,0.001037309062667191,0.7905959486961365,0.0,-0.00034762080758810043
355.0,358.0,-0.8548,0.216,9.7394,-0.0318,0.0194,-0.1156,-1.7733432255186976,0.0,2.806973695755005,-1.8943194150924683,-0.0,1.9527055025100708,5.20455955246047,-0.0,0.2801997661590576,-1.5969732443438929,0.0,-0.006691734306514263,0.784069299697876,0.0,0.00703776441514492,0.7906039357185364,0.0,-0.02317659556865692
355.0,358.0,-0.8548,0.216,9.7394,-0.0318,0.0194,-0.1156,-1.7733918629088343,0.0,2.752039909362793,-1.8943358659744263,-0.0,1.8965097665786743,5.2045476017291925,-0.0,0.26717814803123474,-1.59698993364443,0.0,-0.010815741494297981,0.784069299697876,0.0,0.008006220683455467,0.7906363606452942,0.0,0.02139977365732193
355.0,358.0,-0.8548,0.216,9.7394,-0.0318,0.0194,-0.1156,-1.773367544213766,0.0,2.8040854930877686,-1.8943318128585815,-0.0,1.914196252822876,5.204571443587103,-0.0,0.2665632367134094,-1.5970142523394983,0.0,-0.005169450305402279,0.7840454578399658,0.0,-0.0030023250728845596,0.7906121015548706,0.0,-0.01903405785560608
355.0,358.0,-0.8548,0.216,9.7394,-0.0318,0.0194,-0.1156,-1.773367544213766,0.0,2.819690465927124,-1.8943318128585815,-0.0,1.9619123935699463,5.204595583468237,-0.0,0.2867245376110077,-1.5969856421100062,0.0,-0.011146549135446548,0.7840454578399658,0.0,0.004515286069363356,0.7906162142753601,0.0,-0.019875697791576385
355.0,358.0,-0.8548,0.216,9.7394,-0.0318,0.0194,-0.1156,-1.7734481296935023,0.0,2.804436206817627,-1.8943120241165161,-0.0,1.9343047142028809,5.20455955246047,-0.0,0.2671562433242798,-1.5969732443438929,0.0,0.0005619878065772355,0.7840613722801208,0.0,0.006161870434880257,0.7906561493873596,0.0,0.015873396769165993
355.0,358.0,-0.8548,0.216,9.7394,-0.0318,0.0194,-0.1156,-1.773351331750387,0.0,2.781398296356201,-1.8943358659744263,-0.0,1.9367108345031738,5.204619753151693,-0.0,0.2764819264411926,-1.5969775358783167,0.0,-0.000861960812471807,0.7840652465820312,0.0,-0.010993328876793385,0.7905959486961365,0.0,-0.002344354521483183
355.0,358.0,-0.8548,0.216,9.7394,-0.0318,0.0194,-0.1156,-1.7733756504454554,0.0,2.7728829383850098,-1.8943442106246948,-0.0,1.9720139503479004,5.204599636584081,-0.0,0.2839193344116211,-1.59698993364443,0.0,-0.009214929305016994,0.7840613722801208,0.0,-0.004858664236962795,0.7906561493873596,0.0,-0.019236629828810692
355.0,358.0,-0.8548,0.216,9.7394,-0.0318,0.0194,-0.1156,-1.7733713589110316,0.0,2.7317423820495605,-1.8943120241165161,-0.0,1.9008326530456543,5.204543548613348,-0.0,0.2915167808532715,-1.5970061461078089,0.0,0.006636031903326511,0.7840773463249207,0.0,0.011496701277792454,0.7906080484390259,0.0,0.012880221009254456
355.0,358.0,-0.8548,0.216,9.7394,-0.0318,0.0194,-0.1156,-1.7733870945372523,0.0,2.848660469055176,-1.8943276405334473,-0.0,1.9448691606521606,5.20455955246047,-0.0,0.28903719782829285,-1.597001854573385,0.0,-0.003572103101760149,0.7841175198554993,0.0,-0.011662699282169342,0.7906121015548706,0.0,-0.021440142765641212
355.0,358.0,-0.8548,0.216,9.7394,-0.0318,0.0194,-0.1156,-1.7733832798399867,0.0,2.8150217533111572,-1.8943439722061157,-0.0,1.9149763584136963,5.204571473389425,-0.0,0.2815995216369629,-1.5969694296466272,0.0,-0.004809110891073942,0.784069299697876,0.0,-0.0010385885834693909,0.7906321883201599,0.0,0.010775131173431873
334.0,376.0,-0.8566,0.1944,9.6658,-0.0362,0.026,-0.118,-1.7733832798399867,0.0,2.81942081451416,-1.8942791223526,-0.0,1.8904995918273926,5.204587447434225,-0.0,0.26325803995132446,-1.5969775358783167,0.0,-0.006200600415468216,0.7840492725372314,0.0,-0.0013784561306238174,0.7906162142753601,0.0,-9.544845670461655e-05
334.0,376.0,-0.8566,0.1944,9.6658,-0.0362,0.026,-0.118,-1.7733713589110316,0.0,2.834150552749634,-1.8942791223526,-0.0,1.9289320707321167,5.204555469542303,-0.0,0.274774968624115,-1.5969732443438929,0.0,-0.0026228034403175116,0.7840333580970764,0.0,0.002014894038438797,0.7906121015548706,0.0,-0.03316302224993706
334.0,376.0,-0.8566,0.1944,9.6658,-0.0362,0.026,-0.118,-1.77341951946401,0.0,2.7864930629730225,-1.894303798675537,-0.0,1.905407428741455,5.204555469542303,-0.0,0.2758045494556427,-1.5969856421100062,0.0,-0.0008309769909828901,0.7840373516082764,0.0,-0.0020773836877197027,0.7906121015548706,0.0,0.021848253905773163
334.0,376.0,-0.8566,0.1944,9.6658,-0.0362,0.026,-0.118,-1.7733875713744105,0.0,2.789759874343872,-1.8943482637405396,-0.0,1.9806478023529053,5.204583304911413,-0.0,0.2793208360671997,-1.5969622770892542,0.0,-0.017417477443814278,0.7840214371681213,0.0,-0.007821056060492992,0.7905474901199341,0.0,-0.027334243059158325
334.0,376.0,-0.8566,0.1944,9.6658,-0.0362,0.026,-0.118,-1.7734276256956996,0.0,2.804152488708496,-1.8943595886230469,-0.0,1.943679928779602,5.204595583468237,-0.0,0.26906687021255493,-1.5969980398761194,0.0,-0.006568543612957001,0.7840254306793213,0.0,0.004735647235065699,0.7906080484390259,0.0,0.0029143509455025196
334.0,376.0,-0.8566,0.1944,9.6658,-0.0362,0.026,-0.118,-1.7733875713744105,0.0,2.801455020904541,-1.894339919090271,-0.0,1.987044334411621,5.2045795796211145,-0.0,0.28387901186943054,-1.5969856421100062,0.0,9.2298723757267e-06,0.7840492725372314,0.0,-0.0027044671587646008,0.7906042337417603,0.0,0.013488019816577435
334.0,376.0,-0.8566,0.1944,9.6658,-0.0362,0.026,-0.118,-1.7733875713744105,0.0,2.7768714427948,-1.8942791223526,-0.0,1.8993380069732666,5.204571473389425,-0.0,0.27720820903778076,-1.5969622770892542,0.0,-0.0240393728017807,0.7840373516082764,0.0,-0.013691933825612068,0.7906121015548706,0.0,-0.0012377896346151829
334.0,376.0,-0.8566,0.1944,9.6658,-0.0362,0.026,-0.118,-1.7733875713744105,0.0,2.7826108932495117,-1.8942915201187134,-0.0,1.999668836593628,5.204591530352392,-0.0,0.27691900730133057,-1.5969775358783167,0.0,-0.0024480402935296297,0.7839932441711426,0.0,-0.0110399778932333,0.7906162142753601,0.0,-0.021013163030147552
334.0,376.0,-0.8566,0.1944,9.6658,-0.0362,0.026,-0.118,-1.773379465142721,0.0,2.751154899597168,-1.8942997455596924,-0.0,1.8985170125961304,5.204611885338583,-0.0,0.27492573857307434,-1.5970142523394983,0.0,-0.0002846093848347664,0.7840173244476318,0.0,-0.009583692997694016,0.7906321883201599,0.0,-0.002416756935417652
334.0,376.0,-0.8566,0.1944,9.6658,-0.0362,0.026,-0.118,-1.7733994923033656,0.0,2.8277671337127686,-1.8943523168563843,-0.0,1.9302952289581299,5.204551327019491,-0.0,0.2721612751483917,-1.597018067036764,0.0,-0.0051310076378285885,0.7840173840522766,0.0,-0.0007337603601627052,0.7905714511871338,0.0,0.00968126766383648
334.0,376.0,-0.8566,0.1944,9.6658,-0.0362,0.026,-0.118,-1.773367544213766,0.0,2.7458794116973877,-1.8943482637405396,-0.0,1.9476532936096191,5.204583632736959,-0.0,0.28190428018569946,-1.5969818274127405,0.0,-0.0012719007208943367,0.7840974926948547,0.0,0.00021820934489369392,0.7906039357185364,0.0,0.02304820343852043
334.0,376.0,-0.8566,0.1944,9.6658,-0.0362,0.026,-0.118,-1.773423810998434,0.0,2.793234348297119,-1.8943120241165161,-0.0,1.964221477508545,5.2045795796211145,-0.0,0.2802080810070038,-1.5969980398761194,0.0,-0.02133522741496563,0.7840936183929443,0.0,0.00023611023789271712,0.7905794978141785,0.0,0.014027987606823444
334.0,376.0,-0.8566,0.1944,9.6658,-0.0362,0.026,-0.118,-1.7733751736082972,0.0,2.7710142135620117,-1.8943276405334473,-0.0,1.9102227687835693,5.204543518811025,-0.0,0.2830847203731537,-1.5969494024859827,0.0,0.00035612937062978745,0.7840611338615417,0.0,0.0027362771797925234,0.7906360626220703,0.0,0.05139264836907387
334.0,376.0,-0.8566,0.1944,9.6658,-0.0362,0.026,-0.118,-1.7733994923033656,0.0,2.820629596710205,-1.8942915201187134,-0.0,1.9171966314315796,5.204579609423437,-0.0,0.2871320843696594,-1.5970099608050745,0.0,-0.01832391507923603,0.7840414047241211,0.0,0.00035553984344005585,0.7906240224838257,0.0,0.001081750146113336
334.0,376.0,-0.8566,0.1944,9.6658,-0.0362,0.026,-0.118,-1.773367544213766,0.0,2.8109591007232666,-1.8943439722061157,-0.0,1.9261822700500488,5.204543548613348,-0.0,0.27761438488960266,-1.5969732443438929,0.0,-0.00930849090218544,0.7840054631233215,0.0,0.005376966204494238,0.7906602621078491,0.0,-0.013337506912648678
334.0,376.0,-0.8566,0.1944,9.6658,-0.0362,0.026,-0.118,-1.7734071216978968,0.0,2.8041481971740723,-1.8942874670028687,-0.0,1.9405663013458252,5.204535352974691,-0.0,0.2761272192001343,-1.5969579855548304,0.0,-0.008138817735016346,0.7840454578399658,0.0,0.0022254246287047863,0.7906162142753601,0.0,-0.038933880627155304
334.0,376.0,-0.8566,0.1944,9.6658,-0.0362,0.026,-0.118,-1.773367544213766,0.0,2.820364475250244,-1.8942915201187134,-0.0,1.9200809001922607,5.204583692341604,-0.0,0.28056350350379944,-1.5969942251788538,0.0,-0.011834027245640755,0.7839932441711426,0.0,-0.0009602832142263651,0.7906240224838257,0.0,0.06902334094047546
350.0,358.0,-0.6891,0.2662,9.3655,-0.0425,0.0217,-0.1197,-1.7733713589110316,0.0,2.742755651473999,-1.8942791223526,-0.0,1.9570283889770508,5.2045554397399805,-0.0,0.26747170090675354,-1.5969813505755823,0.0,-0.00024107599165290594,0.7840333580970764,0.0,0.0013986449921503663,0.7906561493873596,0.0,-0.03558563068509102
350.0,358.0,-0.6891,0.2662,9.3655,-0.0425,0.0217,-0.1197,-1.7734114132323207,0.0,2.7860212326049805,-1.8942636251449585,-0.0,1.9597203731536865,5.20457552650527,-0.0,0.2805875241756439,-1.5970218817340296,0.0,-0.012197647243738174,0.7840132117271423,0.0,0.0035203949082642794,0.7906479835510254,0.0,-0.0017485072603449225
350.0,358.0,-0.6891,0.2662,9.3655,-0.0425,0.0217,-0.1197,-1.773379465142721,0.0,2.7587642669677734,-1.8943555355072021,-0.0,1.9209115505218506,5.204587834864416,-0.0,0.27911707758903503,-1.59698993364443,0.0,-0.0011526893358677626,0.7840535640716553,0.0,-1.178402453660965e-05,0.7906280755996704,0.0,0.02896161377429962
350.0,358.0,-0.6891,0.2662,9.3655,-0.0425,0.0217,-0.1197,-1.7733875713744105,0.0,2.754584312438965,-1.8943555355072021,-0.0,1.992383360862732,5.204575556307592,-0.0,0.29640111327171326,-1.5969980398761194,0.0,-0.007815017364919186,0.7840573191642761,0.0,0.004508906975388527,0.7906484007835388,0.0,-0.006678982172161341
350.0,358.0,-0.6891,0.2662,9.3655,-0.0425,0.0217,-0.1197,-1.7733994923033656,0.0,2.830397129058838,-1.8943440914154053,-0.0,1.9559326171875,5.204587447434225,-0.0,0.28435808420181274,-1.5969775358783167,0.0,-0.0263512022793293,0.7840772867202759,0.0,0.001392790931276977,0.7906240224838257,0.0,0.01858876273036003
350.0,358.0,-0.6891,0.2662,9.3655,-0.0425,0.0217,-0.1197,-1.7733594379820765,0.0,2.8035478591918945,-1.8943318128585815,-0.0,1.9168263673782349,5.204555469542303,-0.0,0.2795040011405945,-1.5969813505755823,0.0,-0.01816597767174244,0.7840652465820312,0.0,-0.012448987923562527,0.7906244397163391,0.0,-0.011627713218331337
350.0,358.0,-0.6891,0.2662,9.3655,-0.0425,0.0217,-0.1197,-1.7734037838377894,0.0,2.7565431594848633,-1.894287347793579,-0.0,1.9089937210083008,5.204583692341604,-0.0,0.27859818935394287,-1.5970423857318323,0.0,-0.003812075825408101,0.7840613722801208,0.0,0.008784233592450619,0.7906042337417603,0.0,0.006522772833704948
350.0,358.0,-0.6891,0.2662,9.3655,-0.0425,0.0217,-0.1197,-1.7733994923033656,0.0,2.778593063354492,-1.8943595886230469,-0.0,1.9289569854736328,5.204567301064291,-0.0,0.2635539472103119,-1.5969660917865198,0.0,-0.021507468074560165,0.7840174436569214,0.0,-0.0025647408328950405,0.7906121015548706,0.0,0.0015416070818901062
350.0,358.0,-0.6891,0.2662,9.3655,-0.0425,0.0217,-0.1197,-1.7734562359251917,0.0,2.8026351928710938,-1.8943120241165161,-0.0,1.909691572189331,5.204599636584081,-0.0,0.28902584314346313,-1.597001854573385,0.0,0.002015738282352686,0.7840815186500549,0.0,-0.006481521762907505,0.7906080484390259,0.0,0.02181142382323742
350.0,358.0,-0.6891,0.2662,9.3655,-0.0425,0.0217,-0.1197,-1.773423810998434,0.0,2.7804951667785645,-1.8943318128585815,-0.0,1.9187629222869873,5.20457552650527,-0.0,0.29023003578186035,-1.5970023314105433,0.0,-0.008648327551782131,0.7840414047241211,0.0,-0.004412704613059759,0.7905755639076233,0.0,0.006770833395421505
350.0,358.0,-0.6891,0.2662,9.3655,-0.0425,0.0217,-0.1197,-1.7734037838377894,0.0,2.7874302864074707,-1.8943358659744263,-0.0,1.933491587638855,5.204583692341604,-0.0,0.27592453360557556,-1.5969856421100062,0.0,-0.01155003346502781,0.7840732932090759,0.0,-0.0012063253670930862,0.790600061416626,0.0,0.009968039579689503
350.0,358.0,-0.6891,0.2662,9.3655,-0.0425,0.0217,-0.1197,-1.7733994923033656,0.0,2.775310754776001,-1.8942832946777344,-0.0,1.9189558029174805,5.204567301064291,-0.0,0.26927950978279114,-1.5970099608050745,0.0,-0.003578825620934367,0.7840214371681213,0.0,-0.006475248374044895,0.7906280755996704,0.0,0.022851180285215378
350.0,358.0,-0.6891,0.2662,9.3655,-0.0425,0.0217,-0.1197,-1.77341951946401,0.0,2.756417751312256,-1.8943120241165161,-0.0,1.9164661169052124,5.204559522658148,-0.0,0.2852136194705963,-1.5969942251788538,0.0,-0.0054809763096272945,0.7840815186500549,0.0,0.009668761864304543,0.7905794978141785,0.0,-0.010268083773553371
350.0,358.0,-0.6891,0.2662,9.3655,-0.0425,0.0217,-0.1197,-1.7734281025328578,0.0,2.7789669036865234,-1.8943400382995605,-0.0,1.90384042263031,5.204567301064291,-0.0,0.27435582876205444,-1.5969775358783167,0.0,-0.010337414219975471,0.7839852571487427,0.0,0.0034632752649486065,0.7906321883201599,0.0,-0.009678846225142479
350.0,358.0,-0.6891,0.2662,9.3655,-0.0425,0.0217,-0.1197,-1.7734114132323207,0.0,2.829005718231201,-1.8943524360656738,-0.0,1.918339729309082,5.204543131380834,-0.0,0.26797252893447876,-1.5969694296466272,0.0,-0.006235367152839899,0.7840692400932312,0.0,-0.0047738393768668175,0.7906280755996704,0.0,-0.01627727597951889
350.0,358.0,-0.6891,0.2662,9.3655,-0.0425,0.0217,-0.1197,-1.7734881840147914,0.0,2.820345401763916,-1.8943079710006714,-0.0,1.9424996376037598,5.204571443587103,-0.0,0.2697419822216034,-1.5969856421100062,0.0,-0.0011836359044536948,0.7840692400932312,0.0,0.014341249130666256,0.7906280755996704,0.0,0.015685981139540672
350.0,358.0,-0.6891,0.2662,9.3655,-0.0425,0.0217,-0.1197,-1.7733952007689417,0.0,2.8418917655944824,-1.8943276405334473,-0.0,1.937517523765564,5.204543518811025,-0.0,0.2859049439430237,-1.5969813505755823,0.0,-0.018663108348846436,0.7840254902839661,0.0,0.014842990785837173,0.7906363606452942,0.0,0.06457050144672394
350.0,358.0,-0.6891,0.2662,9.3655,-0.0425,0.0217,-0.1197,-1.7734362087645472,0.0,2.7865777015686035,-1.8943514823913574,-0.0,1.8940887451171875,5.204571443587103,-0.0,0.2760715186595917,-1.5969651381122034,0.0,-0.005201265215873718,0.7839811444282532,0.0,-0.005925463978201151,0.7906561493873596,0.0,0.019747978076338768
343.0,355.0,-0.8375,0.2506,9.5623,-0.04,0.0208,-0.1116,-1.7733952007689417,0.0,2.807922601699829,-1.8942512273788452,-0.0,1.931974172592163,5.20457552650527,-0.0,0.2744213342666626,-1.5970094839679163,0.0,-0.006598938722163439,0.7839852571487427,0.0,-0.007025251165032387,0.7905959486961365,0.0,0.06601419299840927
343.0,355.0,-0.8375,0.2506,9.5623,-0.04,0.0208,-0.1116,-1.773423810998434,0.0,2.782238006591797,-1.8943276405334473,-0.0,1.9153409004211426,5.204539525299825,-0.0,0.2781749367713928,-1.5969813505755823,0.0,-0.005223629530519247,0.7840654850006104,0.0,0.002196477260440588,0.7906280755996704,0.0,-0.027648741379380226
343.0,355.0,-0.8375,0.2506,9.5623,-0.04,0.0208,-0.1116,-1.7734605274596156,0.0,2.8389370441436768,-1.8943400382995605,-0.0,1.964674949645996,5.2045476017291925,-0.0,0.2787957787513733,-1.59698993364443,0.0,-0.009706626646220684,0.7840533256530762,0.0,-0.00638298224657774,0.7906158566474915,0.0,-0.021122008562088013
343.0,355.0,-0.8375,0.2506,9.5623,-0.04,0.0208,-0.1116,-1.7733913860716761,0.0,2.7947874069213867,-1.8943120241165161,-0.0,1.9086546897888184,5.204611915140905,-0.0,0.28318101167678833,-1.597001854573385,0.0,9.937025606632233e-05,0.7840051651000977,0.0,-0.005199452396482229,0.7906525135040283,0.0,0.02263992838561535
343.0,355.0,-0.8375,0.2506,9.5623,-0.04,0.0208,-0.1116,-1.7733918629088343,0.0,2.7760303020477295,-1.8943638801574707,-0.0,1.9152798652648926,5.204587477236547,-0.0,0.2725694179534912,-1.5969775358783167,0.0,-0.00041413685539737344,0.7839972972869873,0.0,0.006751106120646,0.7906199097633362,0.0,-0.029378287494182587
343.0,355.0,-0.8375,0.2506,9.5623,-0.04,0.0208,-0.1116,-1.7734438381590785,0.0,2.802305221557617,-1.8943555355072021,-0.0,1.9482369422912598,5.2046320019061945,-0.0,0.2827514111995697,-1.5970261732684534,0.0,-0.01664409227669239,0.7839932441711426,0.0,-0.0027902156580239534,0.7906561493873596,0.0,0.0351836122572422
343.0,355.0,-0.8375,0.2506,9.5623,-0.04,0.0208,-0.1116,-1.7733952007689417,0.0,2.8242170810699463,-1.8943400382995605,-0.0,1.9128806591033936,5.204599666386404,-0.0,0.2677638530731201,-1.5970175901996058,0.0,-0.001847816864028573,0.7840652465820312,0.0,-0.012780973687767982,0.7906280755996704,0.0,-0.019586987793445587
343.0,355.0,-0.8375,0.2506,9.5623,-0.04,0.0208,-0.1116,-1.7733994923033656,0.0,2.760291576385498,-1.8942636251449585,-0.0,1.8906325101852417,5.204543489008703,-0.0,0.264946848154068,-1.596973721181051,0.0,-0.008967656642198563,0.7841092944145203,0.0,-0.0032618530094623566,0.7906116247177124,0.0,-0.0023449608124792576
343.0,355.0,-0.8375,0.2506,9.5623,-0.04,0.0208,-0.1116,-1.773407598535055,0.0,2.816153049468994,-1.8943637609481812,-0.0,1.9439560174942017,5.204587447434225,-0.0,0.2883683145046234,-1.5969651381122034,0.0,-0.0018502301536500454,0.7840374112129211,0.0,-0.013024648651480675,0.7906401753425598,0.0,0.0016494239680469036
343.0,355.0,-0.8375,0.2506,9.5623,-0.04,0.0208,-0.1116,-1.7733756504454554,0.0,2.8000173568725586,-1.8943564891815186,-0.0,1.9398829936981201,5.204607832222738,-0.0,0.2832888960838318,-1.5970061461078089,0.0,0.004504078067839146,0.7840174436569214,0.0,-0.0063781761564314365,0.7906080484390259,0.0,-0.009579101577401161
343.0,355.0,-0.8375,0.2506,9.5623,-0.04,0.0208,-0.1116,-1.7733751736082972,0.0,2.8200793266296387,-1.8943637609481812,-0.0,1.9911632537841797,5.204579221993246,-0.0,0.28122225403785706,-1.5969732443438929,0.0,-0.010431528091430664,0.7840452194213867,0.0,0.007755442522466183,0.7906240224838257,0.0,0.03174564242362976
343.0,355.0,-0.8375,0.2506,9.5623,-0.04,0.0208,-0.1116,-1.7734281025328578,0.0,2.8004398345947266,-1.8943235874176025,-0.0,1.958495020866394,5.204587477236547,-0.0,0.2623802125453949,-1.5970175901996058,0.0,-0.013253685086965561,0.7840815186500549,0.0,0.008573499508202076,0.7906120419502258,0.0,0.014960418455302715
343.0,355.0,-0.8375,0.2506,9.5623,-0.04,0.0208,-0.1116,-1.7733994923033656,0.0,2.7690134048461914,-1.8942832946777344,-0.0,1.96620774269104,5.204620140581884,-0.0,0.28274381160736084,-1.5969651381122034,0.0,-0.008705683052539825,0.7840093970298767,0.0,-0.005958537571132183,0.7906442284584045,0.0,-0.01749957911670208
343.0,355.0,-0.8375,0.2506,9.5623,-0.04,0.0208,-0.1116,-1.7733952007689417,0.0,2.790780544281006,-1.8943235874176025,-0.0,1.9214138984680176,5.2045956430728815,-0.0,0.273841917514801,-1.5970175901996058,0.0,0.008133603259921074,0.7840452194213867,0.0,-0.0012861867435276508,0.790600061416626,0.0,0.008226161822676659
343.0,355.0,-0.8375,0.2506,9.5623,-0.04,0.0208,-0.1116,-1.773379465142721,0.0,2.823996067047119,-1.8943359851837158,-0.0,1.9432858228683472,5.204571473389425,-0.0,0.2749590277671814,-1.596945587788717,0.0,-0.011090314015746117,0.7840533256530762,0.0,0.007487709634006023,0.7905714511871338,0.0,-0.024271246045827866
343.0,355.0,-0.8375,0.2506,9.5623,-0.04,0.0208,-0.1116,-1.7733751736082972,0.0,2.780162811279297,-1.8943235874176025,-0.0,1.9062589406967163,5.204571443587103,-0.0,0.27850595116615295,-1.5969651381122034,0.0,-0.019800862297415733,0.7840732336044312,0.0,0.007306457031518221,0.7906162142753601,0.0,0.007786862552165985
343.0,355.0,-0.8375,0.2506,9.5623,-0.04,0.0208,-0.1116,-1.7733952007689417,0.0,2.7519114017486572,-1.894339919090271,-0.0,1.9520995616912842,5.204583304911413,-0.0,0.2780316174030304,-1.5969856421100062,0.0,-0.008370228111743927,0.784029483795166,0.0,0.005451170727610588,0.7906080484390259,0.0,0.00354381394572556
360.0,354.0,-0.8913,0.2411,9.6269,-0.0347,0.0192,-0.1151,-1.7733994923033656,0.0,2.7567138671875,-1.8943235874176025,-0.0,1.9210869073867798,5.2045554397399805,-0.0,0.26980113983154297,-1.5970061461078089,0.0,-0.0005407650023698807,0.7840813398361206,0.0,0.006263572722673416,0.7906203866004944,0.0,-0.04574084281921387
360.0,354.0,-0.8913,0.2411,9.6269,-0.0347,0.0192,-0.1151,-1.7733952007689417,0.0,2.743140697479248,-1.8943400382995605,-0.0,1.9345104694366455,5.204583334713735,-0.0,0.28140944242477417,-1.5969856421100062,0.0,-0.013997036963701248,0.7840335965156555,0.0,0.00866919755935669,0.790648341178894,0.0,-0.009250876493752003
360.0,354.0,-0.8913,0.2411,9.6269,-0.0347,0.0192,-0.1151,-1.773423810998434,0.0,2.7990212440490723,-1.8942915201187134,-0.0,1.9365657567977905,5.204591530352392,-0.0,0.27219218015670776,-1.5969775358783167,0.0,-0.018075324594974518,0.7840052247047424,0.0,-7.087612175382674e-06,0.7906079888343811,0.0,-0.04118775203824043
360.0,354.0,-0.8913,0.2411,9.6269,-0.0347,0.0192,-0.1151,-1.7734071216978968,0.0,2.7795019149780273,-1.8943120241165161,-0.0,1.907529592514038,5.204603779106893,-0.0,0.26865074038505554,-1.5970261732684534,0.0,-0.014401549473404884,0.7840174436569214,0.0,-0.006170609500259161,0.7906158566474915,0.0,-0.013278263621032238
360.0,354.0,-0.8913,0.2411,9.6269,-0.0347,0.0192,-0.1151,-1.7733832798399867,0.0,2.7941136360168457,-1.8943440914154053,-0.0,1.918821096420288,5.204559522658148,-0.0,0.27570658922195435,-1.5970099608050745,0.0,-0.014367247000336647,0.7840254902839661,0.0,-0.00652569904923439,0.7906401753425598,0.0,0.05641639232635498
360.0,354.0,-0.8913,0.2411,9.6269,-0.0347,0.0192,-0.1151,-1.7734443149962367,0.0,2.807037830352783,-1.8943276405334473,-0.0,1.8989135026931763,5.204591530352392,-0.0,0.27438753843307495,-1.5970218817340296,0.0,-0.022513501346111298,0.78409743309021,0.0,-0.0015708827413618565,0.7906520366668701,0.0,0.06823565810918808
360.0,354.0,-0.8913,0.2411,9.6269,-0.0347,0.0192,-0.1151,-1.773355623284811,0.0,2.742234230041504,-1.8943318128585815,-0.0,1.928009033203125,5.204579639225759,-0.0,0.2813846468925476,-1.5970218817340296,0.0,-0.010896414518356323,0.7840174436569214,0.0,0.00022959444322623312,0.7906602621078491,0.0,-0.027843859046697617
360.0,354.0,-0.8913,0.2411,9.6269,-0.0347,0.0192,-0.1151,-1.77341951946401,0.0,2.7751388549804688,-1.894384741783142,-0.0,1.92671799659729,5.204599666386404,-0.0,0.28095489740371704,-1.5970304648028772,0.0,-0.014798886142671108,0.7840772867202759,0.0,0.0005371464649215341,0.7906199097633362,0.0,-0.02425576001405716
360.0,354.0,-0.8913,0.2411,9.6269,-0.0347,0.0192,-0.1151,-1.773367544213766,0.0,2.7760093212127686,-1.894295573234558,-0.0,1.9163755178451538,5.2046119449432275,-0.0,0.28161585330963135,-1.5969856421100062,0.0,-0.007534402422606945,0.784045398235321,0.0,-0.0069543239660561085,0.7906076312065125,0.00031867725192569196,-0.01992715522646904
360.0,354.0,-0.8913,0.2411,9.6269,-0.0347,0.0192,-0.1151,-1.7733918629088343,0.0,2.7702183723449707,-1.8943120241165161,-0.0,1.9348652362823486,5.204567330866613,-0.0,0.27267754077911377,-1.5970061461078089,0.0,-0.0026760324835777283,0.7840334177017212,0.0,0.0019844556227326393,0.7906683683395386,0.00033410900505259633,0.06091337278485298
360.0,354.0,-0.8913,0.2411,9.6269,-0.0347,0.0192,-0.1151,-1.7734114132323207,0.0,2.801151752471924,-1.8943597078323364,-0.0,1.870542287826538,5.204587447434225,-0.0,0.28141874074935913,-1.597001854573385,0.0,-0.004520827904343605,0.7840414047241211,0.0,0.0007284884341061115,0.7906643152236938,0.0003306556900497526,0.009139022789895535
360.0,354.0,-0.8913,0.2411,9.6269,-0.0347,0.0192,-0.1151,-1.7734157047667445,0.0,2.810931921005249,-1.8943235874176025,-0.0,1.9266211986541748,5.2045956430728815,-0.0,0.28889140486717224,-1.597041432057516,0.0,0.003880790900439024,0.783981204032898,0.0,-0.01278829388320446,0.7906360626220703,0.00032630731584504247,-0.007141022942960262
360.0,354.0,-0.8913,0.2411,9.6269,-0.0347,0.0192,-0.1151,-1.773407598535055,0.0,2.801908016204834,-1.8943120241165161,-0.0,1.901221752166748,5.2045554397399805,-0.0,0.2834130525588989,-1.5970061461078089,0.0,-0.01040229108184576,0.7840093970298767,0.0,0.01290268637239933,0.7906479835510254,0.0002993529196828604,0.026448028162121773
360.0,354.0,-0.8913,0.2411,9.6269,-0.0347,0.0192,-0.1151,-1.7733994923033656,0.0,2.7648019790649414,-1.8942997455596924,-0.0,1.919836401939392,5.204543489008703,-0.0,0.2749786674976349,-1.597001854573385,0.0,0.008807440288364887,0.7840731739997864,0.0,0.002490958198904991,0.7906520366668701,0.0003157663159072399,0.005527747794985771
360.0,354.0,-0.8913,0.2411,9.6269,-0.0347,0.0192,-0.1151,-1.7733832798399867,0.0,2.7880282402038574,-1.8943120241165161,-0.0,1.87181556224823,5.204547244101324,-0.0,0.26575252413749695,-1.5969856421100062,0.0,-0.014764456078410149,0.7840414047241211,0.0,0.007559947203844786,0.7906237244606018,0.00027875808882527053,-0.07642096281051636
360.0,354.0,-0.8913,0.2411,9.6269,-0.0347,0.0192,-0.1151,-1.7734481296935023,0.0,2.802381992340088,-1.8942914009094238,-0.0,1.9409232139587402,5.204539465695181,-0.0,0.2875341475009918,-1.5970061461078089,0.0,-0.0075057679787278175,0.7840815186500549,0.0,0.012607946991920471,0.7906683683395386,0.0002350673166802153,0.015915367752313614
360.0,354.0,-0.8913,0.2411,9.6269,-0.0347,0.0192,-0.1151,-1.7734157047667445,0.0,2.737795829772949,-1.8943235874176025,-0.0,1.944888710975647,5.20454757192687,-0.0,0.26825645565986633,-1.5969856421100062,0.0,-0.011416766792535782,0.7840692400932312,0.0,-6.527970253955573e-05,0.7906561493873596,0.00020321787451393902,0.06308914721012115
360.0,354.0,-0.8913,0.2411,9.6269,-0.0347,0.0192,-0.1151,-1.7734438381590785,0.0,2.7958431243896484,-1.8942832946777344,-0.0,1.9288170337677002,5.204559522658148,-0.0,0.28077220916748047,-1.5970423857318323,0.0,-0.0025960372295230627,0.7840933203697205,0.0,-0.004783197771757841,0.7906320095062256,0.00018638273468241096,-0.06183142587542534
349.0,359.0,-0.7394,0.3296,9.5557,-0.0316,0.014,-0.1122,-1.7733751736082972,0.0,2.7980337142944336,-1.8943400382995605,-0.0,1.9017319679260254,5.2045554397399805,-0.0,0.2804853022098541,-1.5970099608050745,0.0,-0.003975521773099899,0.7840573191642761,0.0,-0.006125755608081818,0.7906724810600281,0.00016578267968725413,-0.028802692890167236
349.0,359.0,-0.7394,0.3296,9.5557,-0.0316,0.014,-0.1122,-1.7733994923033656,0.0,2.8088109493255615,-1.8943120241165161,-0.0,1.940936803817749,5.204539465695181,-0.0,0.275543212890625,-1.5970218817340296,0.0,-0.010638201609253883,0.7840414047241211,0.0,-0.005053448025137186,0.7906401753425598,0.00015440532297361642,0.03455706685781479
349.0,359.0,-0.7394,0.3296,9.5557,-0.0316,0.014,-0.1122,-1.7734033070006312,0.0,2.8054141998291016,-1.8943079710006714,-0.0,1.944589376449585,5.204571831017294,-0.0,0.2831794023513794,-1.5969818274127405,0.0,-0.0013954606838524342,0.7840573191642761,0.0,-0.0056471689604222775,0.7906479835510254,0.00013999437214806676,0.053515996783971786
349.0,359.0,-0.7394,0.3296,9.5557,-0.0316,0.014,-0.1122,-1.7733994923033656,0.0,2.78779935836792,-1.8943400382995605,-0.0,1.95162034034729,5.204543608217993,-0.0,0.26508694887161255,-1.5970061461078089,0.0,-0.014889550395309925,0.7840334177017212,0.0,0.01017735805362463,0.7906320095062256,0.00012804388825315982,0.003338805865496397
349.0,359.0,-0.7394,0.3296,9.5557,-0.0316,0.014,-0.1122,-1.7733952007689417,0.0,2.772818088531494,-1.8942997455596924,-0.0,1.9253594875335693,5.204563605576315,-0.0,0.2714358866214752,-1.596949879323141,0.0,-0.004514946136623621,0.7840772271156311,0.0,-0.002352001378312707,0.7906480431556702,0.00012114933633711189,-0.012479115277528763
349.0,359.0,-0.7394,0.3296,9.5557,-0.0316,0.014,-0.1122,-1.7733994923033656,0.0,2.7825984954833984,-1.8942997455596924,-0.0,1.9021687507629395,5.204603838711538,-0.0,0.28574734926223755,-1.5969813505755823,0.0,-0.008268882520496845,0.7840573191642761,0.0,-0.010090092197060585,0.7906320095062256,0.00011209574586246163,-0.03401119261980057
349.0,359.0,-0.7394,0.3296,9.5557,-0.0316,0.014,-0.1122,-1.7734281025328578,0.0,2.75565505027771,-1.894287347793579,-0.0,1.9337847232818604,5.20455168464736,-0.0,0.2829810380935669,-1.5970061461078089,0.0,-0.012064037844538689,0.7840214967727661,0.0,0.0038171710912138224,0.7905998826026917,0.00010677611135179177,0.05515318363904953
349.0,359.0,-0.7394,0.3296,9.5557,-0.0316,0.014,-0.1122,-1.7733952007689417,0.0,2.773364305496216,-1.8943318128585815,-0.0,1.9235682487487793,5.204559910088339,-0.0,0.28131306171417236,-1.5969856421100062,0.0,-0.0045292796567082405,0.7840494513511658,0.0,0.002445204881951213,0.7906360030174255,9.968050289899111e-05,0.0310041680932045
349.0,359.0,-0.7394,0.3296,9.5557,-0.0316,0.014,-0.1122,-1.7733913860716761,0.0,2.817971706390381,-1.8943597078323364,-0.0,1.998979091644287,5.204587834864416,-0.0,0.28767716884613037,-1.5970218817340296,0.0,-0.0034940680488944054,0.7840533256530762,0.0,-0.0020161685533821583,0.7906360626220703,9.346909791929647e-05,0.03111889585852623
349.0,359.0,-0.7394,0.3296,9.5557,-0.0316,0.014,-0.1122,-1.7734157047667445,0.0,2.767963171005249,-1.8943440914154053,-0.0,1.9493520259857178,5.20455168464736,-0.0,0.26686349511146545,-1.597018067036764,0.0,-0.012287260964512825,0.7840573191642761,0.0,0.0038484446704387665,0.7906442284584045,7.187698065536097e-05,0.02341851219534874
349.0,359.0,-0.7394,0.3296,9.5557,-0.0316,0.014,-0.1122,-1.7733994923033656,0.0,2.859891653060913,-1.8942594528198242,-0.0,1.9313585758209229,5.204559910088339,-0.0,0.2811984717845917,-1.5969818274127405,0.0,-0.015462145209312439,0.7840573191642761,0.0,-0.004166294354945421,0.7906320095062256,6.774025678168982e-05,0.0006166792009025812
349.0,359.0,-0.7394,0.3296,9.5557,-0.0316,0.014,-0.1122,-1.7734762630858363,0.0,2.7803244590759277,-1.89434015750885,-0.0,1.9529240131378174,5.20454769113616,-0.0,0.2809746563434601,-1.5970061461078089,0.0,-0.005217788275331259,0.7840732336044312,0.0,0.007748953532427549,0.7906683683395386,6.52834351058118e-05,0.005176873877644539
349.0,359.0,-0.7394,0.3296,9.5557,-0.0316,0.014,-0.1122,-1.773435731927389,0.0,2.790505886077881,-1.89434015750885,-0.0,1.9103102684020996,5.204563993006506,-0.0,0.2745107114315033,-1.5969694296466272,0.0,-0.001977646490558982,0.7840134501457214,0.0,0.016342567279934883,0.7906320095062256,6.191509601194412e-05,0.03437444940209389
349.0,359.0,-0.7394,0.3296,9.5557,-0.0316,0.014,-0.1122,-1.7734114132323207,0.0,2.83744478225708,-1.8943400382995605,-0.0,1.9527733325958252,5.204523521452703,-0.0,0.27328407764434814,-1.596945587788717,0.0,-0.003594811074435711,0.784029483795166,0.0,0.0014407089911401272,0.7906278371810913,5.8877296396531165e-05,-0.039848051965236664
349.0,359.0,-0.7394,0.3296,9.5557,-0.0316,0.014,-0.1122,-1.77341951946401,0.0,2.750354766845703,-1.8942874670028687,-0.0,1.8942277431488037,5.204523521452703,-0.0,0.2616521716117859,-1.5970061461078089,0.0,-0.013043435290455818,0.7840134501457214,0.0,0.001804183586500585,0.7906080484390259,5.7012479373952374e-05,0.010247697122395039
349.0,359.0,-0.7394,0.3296,9.5557,-0.0316,0.014,-0.1122,-1.773423810998434,0.0,2.775615930557251,-1.8942790031433105,4.4854417402540037e-10,1.905015468597412,5.20452760437087,-0.0,0.2738581895828247,-1.5970061461078089,0.0,-0.013380358926951885,0.7840774059295654,0.0,0.003698529675602913,0.7906199097633362,5.4426640417659655e-05,-0.019055413082242012
349.0,359.0,-0.7394,0.3296,9.5557,-0.0316,0.014,-0.1122,-1.7734157047667445,0.0,2.781248092651367,-1.8942676782608032,8.073636838289502e-14,1.9282305240631104,5.20452760437087,-0.0,0.2755356431007385,-1.5970218817340296,0.0,-0.007562273181974888,0.7840175032615662,0.0,-0.0015302598476409912,0.7906280755996704,5.282925485516898e-05,0.014377163723111153
349.0,359.0,-0.7394,0.3296,9.5557,-0.0316,0.014,-0.1122,-1.773379465142721,0.0,2.8211004734039307,-1.8943318128585815,1.9496879682422143e-19,1.8985328674316406,5.204539525299825,-0.0,0.26560890674591064,-1.5969732443438929,0.0,-0.016290947794914246,0.7840652465820312,0.0,0.005424433387815952,0.7906320095062256,5.0601600378286093e-05,0.043337542563676834
346.0,355.0,-1.014,0.7472,9.6257,-0.0159,0.0206,-0.1304,-1.773463865319723,0.0,2.78714919090271,-1.8942551612854004,0.0004452248977031559,1.9092581272125244,5.204495596676626,-0.0,0.2724972069263458,-1.5969622770892542,0.0,-0.017345977947115898,0.7840692400932312,0.0,-0.006808117032051086,0.7905755639076233,4.85542077512946e-05,0.0011618133867159486
346.0,355.0,-1.014,0.7472,9.6257,-0.0159,0.0206,-0.1304,-1.7734400234618128,0.0,2.8679893016815186,-1.894279956817627,0.0004511906299740076,1.905846357345581,5.204571860819616,-0.0,0.2880198657512665,-1.5969579855548304,0.0,-0.009035089053213596,0.7840652465820312,0.0,0.005361482501029968,0.7906360626220703,4.727888881461695e-05,-0.021197546273469925
346.0,355.0,-1.014,0.7472,9.6257,-0.0159,0.0206,-0.1304,-1.7734838924803675,0.0,2.7419114112854004,-1.8943202495574951,0.0004804536292795092,1.9450562000274658,5.2045316872890375,-0.0,0.2740923762321472,-1.5969579855548304,0.0,-0.003765297820791602,0.7840814590454102,0.0,0.014679977670311928,0.7906158566474915,4.5486813178285956e-05,0.003254892537370324
346.0,355.0,-1.014,0.7472,9.6257,-0.0159,0.0206,-0.1304,-1.773435731927389,0.0,2.7935924530029297,-1.894263505935669,0.0005576093681156635,1.8937335014343262,5.204543518811025,-0.0,0.27101168036460876,-1.5970342795001429,0.0,-0.016388120129704475,0.7840573191642761,0.0,-0.005569919478148222,0.7906520366668701,4.436567542143166e-05,0.049856677651405334
346.0,355.0,-1.014,0.7472,9.6257,-0.0159,0.0206,-0.1304,-1.7734071216978968,0.0,2.812931776046753,-1.8942716121673584,0.0005674216081388295,1.9368890523910522,5.20455168464736,-0.0,0.28554457426071167,-1.596949879323141,0.0,-0.009678562171757221,0.7840334177017212,0.0,-0.020084219053387642,0.7906643748283386,4.2783954995684326e-05,0.027326272800564766
346.0,355.0,-1.014,0.7472,9.6257,-0.0159,0.0206,-0.1304,-1.773379465142721,0.0,2.790907859802246,-1.8942996263504028,0.0006277427892200649,1.9494242668151855,5.204559910088339,-0.0,0.2756766676902771,-1.596949879323141,0.0,0.0019634789787232876,0.7840692400932312,0.0,-0.00460336497053504,0.7906602621078491,4.1311071981908754e-05,-0.02087903395295143
346.0,355.0,-1.014,0.7472,9.6257,-0.0159,0.0206,-0.1304,-1.773423810998434,0.0,2.742619037628174,-1.8942716121673584,0.0006902189925312996,1.9216371774673462,5.204559910088339,-0.0,0.27867066860198975,-1.5969856421100062,0.0,-0.006500220857560635,0.7840652465820312,0.0,-0.0017772283172234893,0.7906240224838257,4.038425686303526e-05,0.032336119562387466
346.0,355.0,-1.014,0.7472,9.6257,-0.0159,0.0206,-0.1304,-1.77341951946401,0.0,2.7624716758728027,-1.8942759037017822,0.001066501485183835,1.917730450630188,5.204539525299825,-0.0,0.272723913192749,-1.5969579855548304,0.0,-0.017590202391147614,0.7841132879257202,0.0,-0.009254558011889458,0.7906162738800049,6.171818256461847e-08,0.0188758485019207
346.0,355.0,-1.014,0.7472,9.6257,-0.0159,0.0206,-0.1304,-1.7734114132323207,0.0,2.8121085166931152,-1.894228219985962,0.0014568113256245852,1.9404499530792236,5.204587864666738,-0.0,0.2788303792476654,-1.596957031880514,0.0,-0.008141914382576942,0.7840452790260315,0.0,0.0012333719059824944,0.7906039357185364,1.1109054648406058e-11,-0.01744549535214901
346.0,355.0,-1.014,0.7472,9.6257,-0.0159,0.0206,-0.1304,-1.7734400234618128,0.0,2.806225061416626,-1.8942757844924927,0.0018538889707997441,1.9397423267364502,5.2045960305030725,-0.0,0.28577250242233276,-1.5969937483416956,0.0,-0.015737850219011307,0.7840532660484314,0.0,0.004207519814372063,0.7906401753425598,2.682706206931569e-17,0.017958076670765877
346.0,355.0,-1.014,0.7472,9.6257,-0.0159,0.0206,-0.1304,-1.773435731927389,0.0,2.8069241046905518,-1.894191026687622,0.003153946716338396,1.9459936618804932,5.204531299858846,-0.0,0.2789396643638611,-1.59698993364443,0.0,-0.012205954641103745,0.7840933203697205,0.0,0.0010983333922922611,0.7906278371810913,6.47842047210914e-23,-0.030013715848326683
346.0,355.0,-1.014,0.7472,9.6257,-0.0159,0.0206,-0.1304,-1.773435731927389,0.0,2.771170139312744,-1.8941960334777832,0.0034468909725546837,1.9183062314987183,5.2045718906219385,-0.0,0.2818394899368286,-1.5969703833209437,0.0,-0.02060016617178917,0.7840175032615662,0.0,-0.0005311038112267852,0.7906643152236938,1.1660926493537441e-26,-0.0007733008824288845
346.0,355.0,-1.014,0.7472,9.6257,-0.0159,0.0206,-0.1304,-1.7733952007689417,0.0,2.7602157592773438,-1.8942281007766724,0.004978917073458433,1.9504008293151855,5.204539525299825,-0.0,0.27535516023635864,-1.5969942251788538,0.0,-0.0018795978976413608,0.7840815186500549,0.0,-0.0033201768528670073,0.7906199097633362,2.8159766510106456e-32,0.04190918058156967
346.0,355.0,-1.014,0.7472,9.6257,-0.0159,0.0206,-0.1304,-1.7734438381590785,0.0,2.7810823917388916,-1.8941080570220947,0.0058828433975577354,1.9360620975494385,5.204567718296804,-0.0,0.2928653061389923,-1.5970256964312952,0.0,-0.006931051146239042,0.7840652465820312,0.0,-0.0017784575466066599,0.7906157970428467,5.068658244095259e-36,0.03425121307373047
346.0,355.0,-1.014,0.7472,9.6257,-0.0159,0.0206,-0.1304,-1.773463865319723,0.0,2.775479316711426,-1.8940562009811401,0.00989542342722416,1.9582672119140625,5.204531240254202,-0.0,0.2949668765068054,-1.5969412962542933,0.0,-0.002455236855894327,0.7840412855148315,0.0,-0.002273309277370572,0.7906075716018677,1.5680623466352017e-10,0.017348429188132286
346.0,355.0,-1.014,0.7472,9.6257,-0.0159,0.0206,-0.1304,-1.773435731927389,0.0,2.820744037628174,-1.8940562009811401,0.011773073114454746,1.9461219310760498,5.204587834864416,-0.0,0.27744680643081665,-1.5969579855548304,0.0,-0.017404772341251373,0.7841012477874756,0.0,-0.0029847309924662113,0.7906802892684937,3.7866856722931753e-16,0.025964777916669846
346.0,355.0,-1.014,0.7472,9.6257,-0.0159,0.0206,-0.1304,-1.7734796009459437,-0.00038232479710131884,2.780649185180664,-1.8940002918243408,0.010024462826550007,1.9080705642700195,5.204572307854452,-0.0,0.28279852867126465,-1.5969813505755823,0.0,-0.009288420900702477,0.7841052412986755,0.0,0.006008491851389408,0.7906520366668701,6.815900392777325e-20,0.006997870746999979
352.0,374.0,-0.7232,0.3787,9.5372,-0.0356,0.0235,-0.111,-1.7734352550902308,-0.0005313368747010827,2.8044161796569824,-1.8939194679260254,0.006871491204947233,1.9544262886047363,5.20455955246047,-0.0,0.2747161090373993,-1.5969818274127405,0.0,-0.015046525746583939,0.7840692400932312,0.0,-0.0004419227479957044,0.7906638979911804,1.6459598811173549e-25,-0.004941737279295921
352.0,374.0,-0.7232,0.3787,9.5372,-0.0356,0.0235,-0.111,-1.7734514675536097,-0.0009956513531506062,2.800506830215454,-1.8939152956008911,0.005432232283055782,1.9222033023834229,5.20454357841567,-0.0,0.29355329275131226,-1.5969579855548304,0.0,-0.02005767822265625,0.7840532064437866,0.0,0.005766194313764572,0.7906720638275146,0.0003532325499691069,-0.002906872658059001
352.0,374.0,-0.7232,0.3787,9.5372,-0.0356,0.0235,-0.111,-1.773447176019186,-0.0008635158883407712,2.8146791458129883,-1.8938355445861816,0.005438812077045441,1.9879050254821777,5.204531299858846,-0.0,0.2826337218284607,-1.596933666859762,0.0,-0.02874838188290596,0.7840652465820312,0.0,-0.00021929701324552298,0.7906479239463806,0.000394921051338315,0.026978369802236557
352.0,374.0,-0.7232,0.3787,9.5372,-0.0356,0.0235,-0.111,-1.7734672031798304,-0.000810990110039711,2.7982311248779297,-1.8938158750534058,0.0057198647409677505,1.949310302734375,5.204555856972494,-0.0,0.2782468795776367,-1.5969579855548304,0.0,-0.02006026729941368,0.7841252088546753,0.0,-0.002056055935099721,0.7906397581100464,0.0008107568137347698,0.0023849094286561012
352.0,374.0,-0.7232,0.3787,9.5372,-0.0356,0.0235,-0.111,-1.7734881840147914,-0.0007664122967980802,2.7766218185424805,-1.8938241004943848,0.005903411656618118,1.9735825061798096,5.2045353827770136,-0.0,0.28395694494247437,-1.5969536940204065,0.0,-0.02469136007130146,0.7840933203697205,0.0,0.011617027223110199,0.7906638979911804,0.0011229487136006355,0.03444034978747368
352.0,374.0,-0.7232,0.3787,9.5372,-0.0356,0.0235,-0.111,-1.7734672031798304,-0.0013449440011754632,2.80035138130188,-1.8937878608703613,0.006130767520517111,1.9749836921691895,5.204539525299825,-5.301283301228921e-10,0.28155794739723206,-1.5969732443438929,0.0,-0.015557951293885708,0.7840534448623657,0.0,0.002495836466550827,0.7906679511070251,0.0011161109432578087,0.027601487934589386
352.0,374.0,-0.7232,0.3787,9.5372,-0.0356,0.0235,-0.111,-1.7735239468016566,-0.0026060030795633793,2.744499444961548,-1.8937361240386963,0.007641395553946495,1.9373114109039307,5.2045075474079034,-2.260020295907772e-12,0.28102609515190125,-1.5969660917865198,0.0,-0.011517876759171486,0.7840973734855652,0.0,-0.0022330807987600565,0.7906960248947144,0.001012692111544311,-0.039752744138240814
352.0,374.0,-0.7232,0.3787,9.5372,-0.0356,0.0235,-0.111,-1.7735964260497035,-0.0045738499611616135,2.716017961502075,-1.8936718702316284,0.009130090475082397,1.9427576065063477,5.204511630326071,-6.290848054204276e-16,0.27230748534202576,-1.5969775358783167,0.0,-0.016659608110785484,0.78409343957901,0.0,-0.006641062907874584,0.7906800508499146,0.0008753552683629096,-0.06534801423549652
352.0,374.0,-0.7232,0.3787,9.5372,-0.0356,0.0235,-0.111,-1.773599763909811,-0.006816332694143057,2.7366063594818115,-1.8936480283737183,0.011599657125771046,1.996337652206421,5.20452760437087,-1.751080739945496e-19,0.2674939036369324,-1.5969741980182093,0.0,-0.002591482363641262,0.7840692400932312,0.0,-0.009712358936667442,0.790675938129425,0.0008726011728867888,-0.014228548854589462
352.0,374.0,-0.7232,0.3787,9.5372,-0.0356,0.0235,-0.111,-1.7736278973021449,-0.00823588203638792,2.7139430046081543,-1.8935599327087402,0.013225611299276352,1.9315475225448608,5.204531657486715,-7.465131857545161e-22,0.269602507352829,-1.5969622770892542,0.0,-0.0052961986511945724,0.7840134501457214,0.0,-0.006078049540519714,0.7906877994537354,0.0009251416777260602,0.003128012642264366
352.0,374.0,-0.7232,0.3787,9.5372,-0.0356,0.0235,-0.111,-1.7736641369261683,-0.008926019072532654,2.714885950088501,-1.8934636116027832,0.016393786296248436,1.9740519523620605,5.204547661333837,-2.077946892089785e-25,0.26807355880737305,-1.5969660917865198,0.0,-0.00030236411839723587,0.7840493321418762,0.0,-0.007186465431004763,0.7906877994537354,0.0008056015358306468,-0.008754681795835495
352.0,374.0,-0.7232,0.3787,9.5372,-0.0356,0.0235,-0.111,-1.7737609348692835,-0.009587869979441166,2.7181546688079834,-1.8934077024459839,0.018598364666104317,2.018044948577881,5.204604226141729,-8.858613298350471e-28,0.2653801441192627,-1.5969741980182093,0.0,-0.018989190459251404,0.7840655446052551,0.0,0.0028900247998535633,0.7907485961914062,0.0007666698074899614,-0.0013322820886969566
352.0,374.0,-0.7232,0.3787,9.5372,-0.0356,0.0235,-0.111,-1.773792406121725,-0.011922422796487808,2.683192253112793,-1.893308162689209,0.023929117247462273,2.0134193897247314,5.204543638020315,-0.00012110632815165445,0.2565528452396393,-1.5969494024859827,1.5061103795233066e-06,-0.008189771324396133,0.7840814590454102,0.0,0.0034983220975846052,0.7907242774963379,0.0008202107856050134,-0.03955302760004997
352.0,374.0,-0.7232,0.3787,9.5372,-0.0356,0.0235,-0.111,-1.7739082775511683,-0.015582582913339138,2.6952991485595703,-1.8931196928024292,0.028864728286862373,2.0278358459472656,5.204495566874304,-0.00019135540060233325,0.2634304165840149,-1.5969575087176722,4.192313718398566e-10,-0.007956413552165031,0.7840293645858765,0.0,0.0036896178498864174,0.7907159924507141,0.0014763997169211507,-0.04244250804185867
352.0,374.0,-0.7232,0.3787,9.5372,-0.0356,0.0235,-0.111,-1.773996492425436,-0.018699975684285164,2.639129638671875,-1.8930035829544067,0.03361926227807999,1.9806116819381714,5.204503315478124,-0.0002371081936871633,0.24844232201576233,-1.5969660917865198,1.7872491681059088e-12,-0.0042300475761294365,0.7840413451194763,0.0,-0.0029702468309551477,0.7907440662384033,0.002620619721710682,-0.03058178909122944
352.0,374.0,-0.7232,0.3787,9.5372,-0.0356,0.0235,-0.111,-1.7741686306395472,-0.023839332163333893,2.5993833541870117,-1.8927549123764038,0.0406787171959877,1.9832069873809814,5.204543638020315,-0.000840364140458405,0.2509576678276062,-1.5969460646258753,4.974872256361578e-16,-0.006428145337849855,0.7840973734855652,0.0,-0.0011276369914412498,0.7908123731613159,0.0044003864750266075,-0.026473768055438995
352.0,374.0,-0.7232,0.3787,9.5372,-0.0356,0.0235,-0.111,-1.7741919956602992,-0.025764791294932365,2.6359004974365234,-1.8925883769989014,0.04859505966305733,2.0209994316101074,5.204523938685217,-0.0019354604883119464,0.23299910128116608,-1.5969417730914515,2.1208662751675864e-18,0.009253272786736488,0.7841013073921204,0.0,0.008724965155124664,0.790812075138092,0.004983353894203901,-0.028149183839559555
352.0,374.0,-0.7232,0.3787,9.5372,-0.0356,0.0235,-0.111,-1.7743803463377894,-0.027597934007644653,2.6421382427215576,-1.8922804594039917,0.05560154467821121,2.0283284187316895,5.204463916807928,-0.0026007629930973053,0.23765721917152405,-1.5969298521624964,5.903508363150418e-22,0.0048824092373251915,0.7840652465820312,0.0,0.009524639695882797,0.7908563017845154,0.005632863845676184,-0.08333872258663177
351.0,354.0,-1.0726,0.5157,10.6893,-0.0286,0.0683,-0.1141,-1.7745572529234828,-0.027423743158578873,2.6089987754821777,-1.8919118642807007,0.06643100082874298,2.095991373062134,5.204431998520651,-0.003949707839637995,0.2378939688205719,-1.5969379583941858,1.6432633326761799e-25,0.00581873394548893,0.7840933203697205,0.0,0.007526743691414595,0.7909167408943176,0.006124497856944799,-0.06468406319618225
351.0,354.0,-1.0726,0.5157,10.6893,-0.0286,0.0683,-0.1141,-1.7746936283507289,-0.026739776134490967,2.609217643737793,-1.8916443586349487,0.07463771849870682,2.0840156078338623,5.204395997315206,-0.007784831803292036,0.23614653944969177,-1.596933666859762,7.005489283650906e-28,0.010616281069815159,0.7840611338615417,0.0,-0.004118715412914753,0.7909324169158936,0.006203075405210257,-0.05307883769273758
351.0,354.0,-1.0726,0.5157,10.6893,-0.0286,0.0683,-0.1141,-1.7748295269408167,-0.02545563131570816,2.611016035079956,-1.8911110162734985,0.0871252492070198,2.1057260036468506,5.204304235964575,-0.018986262381076813,0.2316422462463379,-1.5969298521624964,1.950003598494336e-31,-0.001253595226444304,0.7840933799743652,0.0,-0.005031645763665438,0.7909722328186035,0.006544286850839853,-0.0524517223238945
351.0,354.0,-1.0726,0.5157,10.6893,-0.0286,0.0683,-0.1141,-1.7749620876707972,-0.024527516216039658,2.599067449569702,-1.8907885551452637,0.09507941454648972,2.1225085258483887,5.204192209034719,-0.02342432178556919,0.23546373844146729,-1.5969141165362757,8.313171354122067e-34,0.003821129910647869,0.7841172218322754,0.0,0.011005868203938007,0.7909964323043823,0.006797997280955315,-0.07955664396286011
351.0,354.0,-1.0726,0.5157,10.6893,-0.0286,0.0683,-0.1141,-1.7751137218871058,-0.024148214608430862,2.5609817504882812,-1.8900675773620605,0.10763026028871536,2.085613965988159,5.204072940140524,-0.026049990206956863,0.2155475914478302,-1.5969460646258753,1.529592168481031e-06,0.014905731193721294,0.7840855121612549,0.0,-0.0007833084091544151,0.7909882068634033,0.006209990009665489,-0.09258582442998886
351.0,354.0,-1.0726,0.5157,10.6893,-0.0286,0.0683,-0.1141,-1.7752181492247523,-0.02478649839758873,2.5981955528259277,-1.8894637823104858,0.11741232126951218,2.1401844024658203,5.203888642578878,-0.020102519541978836,0.221437469124794,-1.5969417730914515,0.00015555109712295234,0.004795122891664505,0.7840254902839661,0.0,0.01047827210277319,0.7910364270210266,0.004885593429207802,-0.10774731636047363
351.0,354.0,-1.0726,0.5157,10.6893,-0.0286,0.0683,-0.1141,-1.7753344974913539,-0.02456831932067871,2.536267042160034,-1.888956069946289,0.12150325626134872,2.161672830581665,5.2038254020507715,-0.013785670511424541,0.2302199900150299,-1.596893612538473,0.00014553328219335526,9.597698226571083e-05,0.7840374112129211,0.0,0.003706364892423153,0.791020393371582,0.0037821170408278704,-0.0666583999991417
351.0,354.0,-1.0726,0.5157,10.6893,-0.0286,0.0683,-0.1141,-1.7754909000792445,-0.02549300715327263,2.5978522300720215,-1.888232707977295,0.1262691169977188,2.1858229637145996,5.20383774021224,-0.003595265792682767,0.22879378497600555,-1.596961800252096,0.00013266107998788357,0.007560244295746088,0.7840493321418762,0.0,0.0020864964462816715,0.7909882664680481,0.0017642603488638997,-0.0712488442659378
351.0,354.0,-1.0726,0.5157,10.6893,-0.0286,0.0683,-0.1141,-1.77557434658193,-0.026742130517959595,2.552429676055908,-1.8876765966415405,0.1328515112400055,2.170224666595459,5.203857826977529,0.0004917836631648242,0.22264942526817322,-1.5969660917865198,0.00014947231102269143,0.006326272152364254,0.7840814590454102,0.0,-0.011876648291945457,0.7910687327384949,0.0011854011099785566,-0.06225539743900299
351.0,354.0,-1.0726,0.5157,10.6893,-0.0286,0.0683,-0.1141,-1.775743146935934,-0.02571495622396469,2.5881035327911377,-1.886832356452942,0.14825226366519928,2.169567584991455,5.20379717925147,0.0016229267930611968,0.21779432892799377,-1.5968979040728968,0.00013874097203370184,0.019484423100948334,0.7840612530708313,0.0,-0.004028523340821266,0.7910042405128479,0.0004991216119378805,-0.05097358673810959
351.0,354.0,-1.0726,0.5157,10.6893,-0.0286,0.0683,-0.1141,-1.7759114704527796,-0.027783581987023354,2.5540974140167236,-1.8859164714813232,0.16130484640598297,2.1625728607177734,5.203833567887106,0.0007119699730537832,0.22580453753471375,-1.5969460646258753,0.00012881201109848917,0.008286979049444199,0.7840374112129211,0.0,-0.0035696460399776697,0.7910404801368713,1.5977250313881086e-06,-0.08758276700973511
351.0,354.0,-1.0726,0.5157,10.6893,-0.0286,0.0683,-0.1141,-1.7760678730406703,-0.0297713540494442,2.54730224609375,-1.8852853775024414,0.171458899974823,2.221561908721924,5.203845488816061,0.0005403459654189646,0.21078801155090332,-1.5969417730914515,0.00012294622138142586,0.011894181370735168,0.7840694785118103,0.0,-0.01804186776280403,0.791020393371582,2.8758490033808926e-10,-0.06259222328662872
351.0,354.0,-1.0726,0.5157,10.6893,-0.0286,0.0683,-0.1141,-1.7762400112547816,-0.03319555148482323,2.5331218242645264,-1.8841605186462402,0.18605196475982666,2.239593505859375,5.203829604178228,0.00032864371314644814,0.20789450407028198,-1.5969460646258753,0.00013424395001493394,0.024549931287765503,0.7841132879257202,0.0,0.0006152018904685974,0.7910363674163818,6.944838487010177e-16,-0.0960848405957222
351.0,354.0,-1.0726,0.5157,10.6893,-0.0286,0.0683,-0.1141,-1.776355882684225,-0.03572346642613411,2.5593533515930176,-1.8833844661712646,0.18840014934539795,2.262421131134033,5.203805434494772,0.0002700188779272139,0.21320420503616333,-1.5969255606280726,0.00012877679546363652,0.028053052723407745,0.7840692400932312,0.0,0.006119875703006983,0.7910323143005371,1.2500464569296166e-19,-0.12257340550422668
351.0,354.0,-1.0726,0.5157,10.6893,-0.0286,0.0683,-0.1141,-1.7765561542906703,-0.03815862908959389,2.527482271194458,-1.882272720336914,0.20321393013000488,2.281883478164673,5.203789400845327,6.224687240319327e-05,0.21352583169937134,-1.5969460646258753,0.00012133605923736468,0.02903987467288971,0.784033477306366,0.0,0.009419086389243603,0.7909882664680481,3.018715044043714e-25,-0.12038728594779968
351.0,354.0,-1.0726,0.5157,10.6893,-0.0286,0.0683,-0.1141,-1.7767402134337367,-0.03963581845164299,2.5345654487609863,-1.8810336589813232,0.21987482905387878,2.3171515464782715,5.203813212900915,5.051328116678633e-05,0.2190539389848709,-1.5969379583941858,0.00012686931586358696,0.03390749171376228,0.7840611934661865,0.0,-0.003499903716146946,0.7910163402557373,7.289841382161145e-31,-0.05181075632572174
351.0,354.0,-1.0726,0.5157,10.6893,-0.0286,0.0683,-0.1141,-1.7769447765746058,-0.03980634734034538,2.545546531677246,-1.8801056146621704,0.2330491840839386,2.342125415802002,5.203757035523214,2.1534602012707182e-07,0.21742236614227295,-1.5969179312335413,0.00012647097173612565,0.01643972471356392,0.7841172218322754,0.0,0.004818959627300501,0.7909882664680481,1.3121456838997486e-34,-0.112873874604702
352.0,341.0,-1.072,0.1095,9.6526,-0.0359,0.2269,-0.1193,-1.7772418461241664,-0.044683825224637985,2.5468297004699707,-1.8786365985870361,0.24768583476543427,2.3438258171081543,5.203789847880163,5.99423566338686e-11,0.21621543169021606,-1.5969098250018519,0.00012015610263915733,0.027248051017522812,0.784033477306366,0.0,0.00912135373800993,0.7910323143005371,3.1686721394698494e-40,-0.07115083932876587
352.0,341.0,-1.072,0.1095,9.6526,-0.0359,0.2269,-0.1193,-1.7774015865721644,-0.04841076582670212,2.563079833984375,-1.8776167631149292,0.2508547306060791,2.2737526893615723,5.203865963011541,2.5554363312918493e-13,0.22092698514461517,-1.5969136396991175,0.00011627525236690417,0.016932956874370575,0.784033477306366,0.0,0.004107020329684019,0.791052520275116,5.74532370373175e-44,-0.07168814539909363
352.0,341.0,-1.072,0.1095,9.6526,-0.0359,0.2269,-0.1193,-1.777733942071432,-0.05751302093267441,2.5150837898254395,-1.8760299682617188,0.2666069567203522,2.325923204421997,5.203829574375906,-0.000253369304118678,0.2189682424068451,-1.5969179312335413,0.00011090222687926143,0.041845355182886124,0.7840933203697205,0.0,0.011344008147716522,0.791020393371582,0.0,-0.1347508579492569
352.0,341.0,-1.072,0.1095,9.6526,-0.0359,0.2269,-0.1193,-1.7780829868712367,-0.06589137762784958,2.5140349864959717,-1.874280571937561,0.28854694962501526,2.38147234916687,5.203809517412939,-0.00018100977467838675,0.2091204822063446,-1.596949879323141,0.00010750697401817888,0.037815868854522705,0.7840652465820312,0.0,-0.0008318756008520722,0.7910163402557373,0.0,-0.07770891487598419
352.0,341.0,-1.072,0.1095,9.6526,-0.0359,0.2269,-0.1193,-1.7783433399596156,-0.07122507691383362,2.504450798034668,-1.8731342554092407,0.2991879880428314,2.374903917312622,5.203789818077841,-0.00020591232168953866,0.2142479419708252,-1.5968855063067835,0.00010276489047100767,0.029672350734472275,0.7840973734855652,0.0,-0.0012858081609010696,0.7910282015800476,-4.8670983233023435e-05,-0.1331510692834854
352.0,341.0,-1.072,0.1095,9.6526,-0.0359,0.2269,-0.1193,-1.7787758312621058,-0.07724201679229736,2.533604145050049,-1.8712817430496216,0.3073202967643738,2.36892032623291,5.203817236214437,2.5239667593268678e-05,0.22620496153831482,-1.5969298521624964,9.6176314400509e-05,0.020989498123526573,0.7840452790260315,0.0,-0.01575198583304882,0.7910487651824951,-3.068690421059728e-05,-0.1323133111000061
352.0,341.0,-1.072,0.1095,9.6526,-0.0359,0.2269,-0.1193,-1.7791406116881312,-0.07981201261281967,2.4675493240356445,-1.86996591091156,0.3187069296836853,2.429943084716797,5.2038012621696375,0.0001605448342161253,0.21902799606323242,-1.5969141165362757,9.223371307598427e-05,0.04621201008558273,0.7841327786445618,0.0,0.003431466408073902,0.7910363674163818,-2.8727723474730738e-05,-0.1415218710899353
352.0,341.0,-1.072,0.1095,9.6526,-0.0359,0.2269,-0.1193,-1.7796617947020472,-0.08134081214666367,2.522824287414551,-1.8680038452148438,0.34069451689720154,2.4234988689422607,5.203841763525762,0.00012871802027802914,0.23540832102298737,-1.5969298521624964,8.689080277690664e-05,0.03213585540652275,0.7840814590454102,0.0,-0.008987241424620152,0.7909882664680481,-2.621714520500973e-05,-0.15394341945648193
352.0,341.0,-1.072,0.1095,9.6526,-0.0359,0.2269,-0.1193,-1.7801414928831996,-0.08350898325443268,2.55203914642334,-1.8658949136734009,0.35577255487442017,2.459441661834717,5.203829574375906,0.00010597149230306968,0.21292732656002045,-1.5969379583941858,8.21329522295855e-05,0.02886452153325081,0.7840933799743652,0.0,-0.011052303947508335,0.7910323143005371,-4.585424040470798e-09,-0.1254654824733734
352.0,341.0,-1.072,0.1095,9.6526,-0.0359,0.2269,-0.1193,-1.7805706463255824,-0.08403868973255157,2.546808958053589,-1.8644802570343018,0.3644132614135742,2.4394166469573975,5.2037692842777155,4.907674519927241e-05,0.22163406014442444,-1.596893612538473,7.924037345219404e-05,0.031066961586475372,0.7840731739997864,0.0,-0.005807989276945591,0.7910926938056946,-8.253601795071841e-13,-0.1480008065700531
352.0,341.0,-1.072,0.1095,9.6526,-0.0359,0.2269,-0.1193,-1.7811113796629847,-0.0860997885465622,2.5265326499938965,-1.8622519969940186,0.37620285153388977,2.4988160133361816,5.203817623644628,4.0932958654593676e-05,0.20409658551216125,-1.5969298521624964,7.526428817072883e-05,0.03815729171037674,0.7840611934661865,0.0,0.012034718878567219,0.7910402417182922,-1.9931477274330207e-18,-0.11899089813232422
352.0,341.0,-1.072,0.1095,9.6526,-0.0359,0.2269,-0.1193,-1.7815247974791468,-0.09007341414690018,2.517606735229492,-1.8607125282287598,0.38479191064834595,2.511291742324829,5.203821795969763,1.7450365419335867e-07,0.21523749828338623,-1.596877400075094,7.282817387022078e-05,0.030615583062171936,0.7840853929519653,0.0,-0.0048444392159581184,0.7910282015800476,-3.5875955087160494e-22,-0.12196660041809082
352.0,341.0,-1.072,0.1095,9.6526,-0.0359,0.2269,-0.1193,-1.7820970020689906,-0.09987164288759232,2.5307750701904297,-1.8583451509475708,0.39903542399406433,2.4667162895202637,5.20380579212264,4.857373531175213e-11,0.22569143772125244,-1.5969222227679651,6.94558912073262e-05,0.026120059192180634,0.7840176224708557,0.0,-0.0005896314978599548,0.7910605072975159,0.0005589536158367991,-0.09809428453445435
352.0,341.0,-1.072,0.1095,9.6526,-0.0359,0.2269,-0.1193,-1.782677789727682,-0.11266882717609406,2.4885082244873047,-1.855928659439087,0.40732279419898987,2.484476327896118,5.203785645752706,1.352067702318615e-14,0.21645164489746094,-1.5969060103045862,6.638213380938396e-05,0.032837145030498505,0.7840893268585205,0.0,-0.014672519639134407,0.791068434715271,0.0004887637915089726,-0.1094251275062561
352.0,341.0,-1.072,0.1095,9.6526,-0.0359,0.2269,-0.1193,-1.783114572564596,-0.11851843446493149,2.5101585388183594,-1.854232668876648,0.420973002910614,2.5115275382995605,5.203829574375906,5.764076411422255e-17,0.21571314334869385,-1.596933666859762,7.569187437184155e-05,0.018200084567070007,0.7840692400932312,0.0,-0.006632830016314983,0.7910926342010498,0.00041382660856470466,-0.15040388703346252
352.0,341.0,-1.072,0.1095,9.6526,-0.0359,0.2269,-0.1193,-1.7838036022581996,-0.1218353658914566,2.508110761642456,-1.8517016172409058,0.44008705019950867,2.5853734016418457,5.203813570528784,1.6044518611309906e-20,0.21274520456790924,-1.5968897978412073,7.418624591082335e-05,0.03487825766205788,0.7840732336044312,0.0,-0.007134700659662485,0.791068434715271,0.00028047800878994167,-0.11935915052890778
352.0,341.0,-1.072,0.1095,9.6526,-0.0359,0.2269,-0.1193,-1.7843042812743128,-0.12328401952981949,2.524752616882324,-1.849938988685608,0.45362064242362976,2.5653910636901855,5.2038214085395715,6.840029893441382e-23,0.21382343769073486,-1.5969141165362757,7.220283441711217e-05,0.049435362219810486,0.7840533256530762,0.0,0.004742254503071308,0.7910563945770264,0.0002493092615623027,-0.1521434485912323
352.0,341.0,-1.072,0.1095,9.6526,-0.0359,0.2269,-0.1193,-1.7851296863951625,-0.1290191411972046,2.5060224533081055,-1.8471628427505493,0.4741802513599396,2.5424561500549316,5.20377345660285,1.903947380002e-26,0.21460670232772827,-1.5968979040728968,6.941828178241849e-05,0.032622549682855606,0.7840611934661865,0.0,0.007814764976501465,0.7910885214805603,0.00021377470693551004,-0.1732349991798401
343.0,329.0,-0.8435,0.2955,10.2341,-0.064,0.3293,-0.1188,-1.7859546146788539,-0.13296008110046387,2.5057003498077393,-1.8442275524139404,0.47906720638275146,2.6226298809051514,5.20380579212264,5.299707440964765e-30,0.2230006456375122,-1.596893612538473,6.684054824290797e-05,0.039599694311618805,0.7840572595596313,0.0,0.007008060812950134,0.791104793548584,0.0001871070999186486,-0.15315678715705872
343.0,329.0,-0.8435,0.2955,10.2341,-0.064,0.3293,-0.1188,-1.786567827264303,-0.1376017928123474,2.5252881050109863,-1.8422623872756958,0.4877892732620239,2.6098709106445312,5.203765231161871,2.2593481906120265e-32,0.2181156575679779,-1.5969222227679651,6.522586045321077e-05,0.038478802889585495,0.7840774059295654,0.0,-0.0019398771692067385,0.7910926342010498,0.00023775039881002158,-0.19220727682113647
343.0,329.0,-0.8435,0.2955,10.2341,-0.064,0.3293,-0.1188,-1.787457128564352,-0.1477077603340149,2.553640127182007,-1.839308738708496,0.49467289447784424,2.607694387435913,5.203693169146337,-0.0016263839788734913,0.21855753660202026,-1.5969060103045862,6.294498598435894e-05,0.04085114598274231,0.7841132283210754,0.0,0.0019435267895460129,0.7911447882652283,0.00020474752818699926,-0.2062239646911621
343.0,329.0,-0.8435,0.2955,10.2341,-0.064,0.3293,-0.1188,-1.788018365899557,-0.15603406727313995,2.580711841583252,-1.8372997045516968,0.5026644468307495,2.636317491531372,5.203705417900839,-0.0016780071891844273,0.2220935970544815,-1.5969060103045862,6.151096022222191e-05,0.032491620630025864,0.7840932607650757,0.0,0.007201784756034613,0.7910721898078918,0.00025539056514389813,-0.13333672285079956
343.0,329.0,-0.8435,0.2955,10.2341,-0.064,0.3293,-0.1188,-1.7889191112914027,-0.16763444244861603,2.5757555961608887,-1.8342678546905518,0.5081701874732971,2.58236026763916,5.203757869988241,-0.002770105842500925,0.20962508022785187,-1.596933666859762,3.0148919904604554e-05,0.04699515923857689,0.7840774059295654,0.0,0.010769287124276161,0.7910965085029602,0.0002606961061246693,-0.19024109840393066
343.0,329.0,-0.8435,0.2955,10.2341,-0.064,0.3293,-0.1188,-1.7899052105345667,-0.17631864547729492,2.481069564819336,-1.8311262130737305,0.518964946269989,2.6363415718078613,5.20372964718894,-0.0022857398726046085,0.21429967880249023,-1.5969141165362757,8.392062156303837e-09,0.04899536818265915,0.7840572595596313,0.0,0.01382527220994234,0.7910399436950684,0.00020682724425569177,-0.19094201922416687
343.0,329.0,-0.8435,0.2955,10.2341,-0.064,0.3293,-0.1188,-1.7905942402281703,-0.17610076069831848,2.4830050468444824,-1.8290183544158936,0.5285952091217041,2.6174001693725586,5.2037419257457636,-0.0012586767552420497,0.2341112345457077,-1.5969260374652308,3.577667676002427e-11,0.03220374882221222,0.784033477306366,0.0,0.01969878375530243,0.7910522818565369,8.854732004692778e-05,-0.18705525994300842
343.0,329.0,-0.8435,0.2955,10.2341,-0.064,0.3293,-0.1188,-1.7916237316527308,-0.16663798689842224,2.558063268661499,-1.8257743120193481,0.5423315763473511,2.6284689903259277,5.203810351877966,-0.0002671596594154835,0.21700376272201538,-1.596933666859762,9.958568901967651e-15,0.04300443083047867,0.7841446995735168,0.0,0.009225505404174328,0.7910885214805603,4.018072985445542e-08,-0.18790391087532043
343.0,329.0,-0.8435,0.2955,10.2341,-0.064,0.3293,-0.1188,-1.7922970257201136,-0.16005069017410278,2.5675692558288574,-1.8236311674118042,0.5499176383018494,2.6358652114868164,5.203705388098516,-0.0003064103948418051,0.2281947135925293,-1.5969141165362757,4.245493906016574e-17,0.0405774861574173,0.784132719039917,0.0,0.0026618102565407753,0.7910643815994263,7.232390034084268e-12,-0.18626055121421814
343.0,329.0,-0.8435,0.2955,10.2341,-0.064,0.3293,-0.1188,-1.7933174572386683,-0.1630885750055313,2.5540904998779297,-1.8203173875808716,0.5580201148986816,2.6186752319335938,5.203721838980474,-0.0003040048177354038,0.22088117897510529,-1.5968816916095179,1.181748916405112e-20,0.0349469929933548,0.7841171622276306,0.0,0.0023681912571191788,0.7911005616188049,1.746537104049167e-17,-0.1907328963279724
343.0,329.0,-0.8435,0.2955,10.2341,-0.064,0.3293,-0.1188,-1.7944518528380335,-0.17820611596107483,2.5919349193573,-1.8169630765914917,0.5683378577232361,2.674933910369873,5.203657763987341,-0.00038270431105047464,0.22268301248550415,-1.5968940893756312,3.289441900827604e-24,0.0406780019402504,0.7840771079063416,0.0,-0.010988084599375725,0.7910923957824707,4.217681432910142e-23,-0.20468677580356598
343.0,329.0,-0.8435,0.2955,10.2341,-0.064,0.3293,-0.1188,-1.7951771221556605,-0.19229570031166077,2.520089626312256,-1.814731240272522,0.5629745125770569,2.6148014068603516,5.20366187670783,-0.0031267558224499226,0.22461876273155212,-1.5969255606280726,1.4023406208046954e-26,0.04526443034410477,0.7840612530708313,0.0,0.004149658605456352,0.7910643815994263,7.591676877104272e-27,-0.195695161819458
343.0,329.0,-0.8435,0.2955,10.2341,-0.064,0.3293,-0.1188,-1.796286245385641,-0.20768311619758606,2.5293335914611816,-1.8112848997116089,0.5618361830711365,2.6277146339416504,5.203686046391287,-0.005712998565286398,0.20418500900268555,-1.5969179312335413,3.9034672881202044e-30,0.04645131155848503,0.7840932607650757,0.0,0.0017759779002517462,0.7910443544387817,1.8333008426056457e-32,-0.21189893782138824
343.0,329.0,-0.8435,0.2955,10.2341,-0.064,0.3293,-0.1188,-1.7970673046507777,-0.20970815420150757,2.568622589111328,-1.8089852333068848,0.5647989511489868,2.647329807281494,5.203645872860708,-0.0034092937130481005,0.21881546080112457,-1.5968979040728968,1.6641090019559168e-32,0.05362032353878021,0.7840056419372559,0.0,0.00014420831575989723,0.7910646200180054,3.299876813302578e-36,-0.1711328774690628
343.0,329.0,-0.8435,0.2955,10.2341,-0.064,0.3293,-0.1188,-1.798265119592184,-0.20507687330245972,2.573446273803711,-1.8055764436721802,0.5790500640869141,2.6628665924072266,5.203689771681585,-2.723479519772809e-05,0.22267559170722961,-1.5968940893756312,4.632108886065669e-36,0.0573946088552475,0.7840176224708557,0.0,-0.019334696233272552,0.7910605669021606,7.969184366615235e-42,-0.23427364230155945
343.0,329.0,-0.8435,0.2955,10.2341,-0.064,0.3293,-0.1188,-1.7994958362975062,-0.1956191062927246,2.543668746948242,-1.8020628690719604,0.5895617604255676,2.6334972381591797,5.20367785075263,-7.580905680981687e-09,0.2230987399816513,-1.5968893210040491,1.289364144293015e-39,0.056737348437309265,0.7840374112129211,0.0,0.013093461282551289,0.7910323143005371,0.0,-0.17250166833400726
343.0,329.0,-0.8435,0.2955,10.2341,-0.064,0.3293,-0.1188,-1.8002363644041957,-0.19162476062774658,2.6421213150024414,-1.7997190952301025,0.5963653922080994,2.6126275062561035,5.203693884402075,0.000350743968738243,0.2273007035255432,-1.5969179312335413,5.4972938755462574e-42,0.03821020945906639,0.7840176820755005,0.0,0.01691053993999958,0.7910443544387817,0.0,-0.2437644898891449
378.0,355.0,-1.2712,0.1561,9.2148,-0.0538,0.3968,-0.1289,-1.8014456234373988,-0.19134996831417084,2.561253070831299,-1.7961519956588745,0.6010425686836243,2.6197915077209473,5.203670012741842,3.2300216844305396e-05,0.22918404638767242,-1.596877400075094,1.401298464324817e-45,0.042056966572999954,0.7840854525566101,0.0,0.0006325403228402138,0.7910605072975159,0.0,-0.2339380979537964
378.0,355.0,-1.2712,0.1561,9.2148,-0.0538,0.3968,-0.1289,-1.802687784234518,-0.1991189569234848,2.5893688201904297,-1.79251229763031,0.600589394569397,2.6346168518066406,5.203658240824499,-0.0012373459758237004,0.22481673955917358,-1.596949879323141,0.0,0.03421708568930626,0.7840933203697205,0.0,0.0031273416243493557,0.7910885214805603,-0.00013766647316515446,-0.19230736792087555
378.0,355.0,-1.2712,0.1561,9.2148,-0.0538,0.3968,-0.1289,-1.8035170040526332,-0.2115837186574936,2.5951366424560547,-1.7901840209960938,0.6015090942382812,2.6045303344726562,5.2036582110221765,-0.0018225350650027394,0.22016280889511108,-1.5969179312335413,0.0,0.04704594239592552,0.7841051816940308,0.0,-0.0011783710215240717,0.7910522818565369,-0.00011053068010369316,-0.22159957885742188
378.0,355.0,-1.2712,0.1561,9.2148,-0.0538,0.3968,-0.1289,-1.8048068485655726,-0.22902017831802368,2.61495304107666,-1.7865430116653442,0.6057232618331909,2.6366164684295654,5.203674244671621,-0.0007387289660982788,0.21773982048034668,-1.5969141165362757,0.0,0.057218074798583984,0.7840573191642761,0.0,0.006366110872477293,0.7910482287406921,-9.333300113212317e-05,-0.22558194398880005
378.0,355.0,-1.2712,0.1561,9.2148,-0.0538,0.3968,-0.1289,-1.8057037792601527,-0.2317499965429306,2.642238140106201,-1.7841227054595947,0.6082651615142822,2.6224560737609863,5.203686016588964,-0.0005156308761797845,0.22029909491539001,-1.596933666859762,0.0,0.061133794486522675,0.7840893864631653,0.0,0.0019150801235809922,0.7910323143005371,-0.00015436038665939122,-0.20825283229351044
378.0,355.0,-1.2712,0.1561,9.2148,-0.0538,0.3968,-0.1289,-1.8070265255370082,-0.22309279441833496,2.6228795051574707,-1.7804677486419678,0.604819655418396,2.631288528442383,5.203654038697042,-0.0003603904042392969,0.21392503380775452,-1.596933666859762,0.0,0.03270868957042694,0.7840572595596313,0.0,-0.010907327756285667,0.791020393371582,-0.00040185972466133535,-0.18595021963119507
378.0,355.0,-1.2712,0.1561,9.2148,-0.0538,0.3968,-0.1289,-1.808392187158102,-0.21819904446601868,2.6751420497894287,-1.7767984867095947,0.6079440116882324,2.6018924713134766,5.203657793789663,0.00015222717775031924,0.2296120524406433,-1.5968816916095179,0.0,0.04446495324373245,0.7840774059295654,0.0,-0.006892767269164324,0.7910282015800476,-0.0010759922442957759,-0.2762640714645386
378.0,355.0,-1.2712,0.1561,9.2148,-0.0538,0.3968,-0.1289,-1.809277196923727,-0.2204054296016693,2.658055305480957,-1.7743111848831177,0.6137436628341675,2.6066319942474365,5.203645843058386,0.0002774251042865217,0.21405786275863647,-1.5969260374652308,0.0,0.04696650430560112,0.7840294241905212,0.0,-0.0023387421388179064,0.791020393371582,-0.0006862633163109422,-0.217354878783226
378.0,355.0,-1.2712,0.1561,9.2148,-0.0538,0.3968,-0.1289,-1.8107320270934046,-0.23265232145786285,2.6343469619750977,-1.7706537246704102,0.6186970472335815,2.6792726516723633,5.203641849547186,0.000278580206213519,0.2185831069946289,-1.596949879323141,0.0,0.027709200978279114,0.7840176224708557,0.0,0.002455745358020067,0.7910646200180054,-0.0003592172870412469,-0.21349507570266724
378.0,355.0,-1.2712,0.1561,9.2148,-0.0538,0.3968,-0.1289,-1.8116933308043421,-0.23489275574684143,2.6107559204101562,-1.7682082653045654,0.6200125813484192,2.5914034843444824,5.203629928618231,0.00011334581358823925,0.23031699657440186,-1.5969460646258753,0.0,0.04329068213701248,0.7840611934661865,0.0,-0.0006161495111882687,0.7910240888595581,-0.00029943036497570574,-0.2690497636795044
378.0,355.0,-1.2712,0.1561,9.2148,-0.0538,0.3968,-0.1289,-1.81311096767568,-0.23268002271652222,2.664308547973633,-1.7645140886306763,0.6200258135795593,2.666123390197754,5.203609841852941,2.1937788915238343e-05,0.21814581751823425,-1.5969141165362757,0.0,0.0575149729847908,0.7840973138809204,0.0,0.0023207715712487698,0.7910245060920715,-7.651672785868868e-05,-0.23050597310066223
378.0,355.0,-1.2712,0.1561,9.2148,-0.0538,0.3968,-0.1289,-1.8145610294737757,-0.2445102035999298,2.6857638359069824,-1.7608393430709839,0.6156129837036133,2.6150999069213867,5.203678238182821,6.10646555543326e-09,0.2259947955608368,-1.5969179312335413,0.0,0.04319863021373749,0.7840414047241211,0.0,0.012421561405062675,0.7910162806510925,-5.9430843975860626e-05,-0.22620844841003418
378.0,355.0,-1.2712,0.1561,9.2148,-0.0538,0.3968,-0.1289,-1.8156396351256312,-0.25346362590789795,2.616398811340332,-1.7583692073822021,0.6152674555778503,2.606539726257324,5.2036823509033105,2.603281652746592e-11,0.2176513522863388,-1.5969060103045862,0.0,0.040832456201314926,0.7840652465820312,0.0,0.01276690699160099,0.7909960150718689,-5.24964343640022e-05,-0.19881702959537506
378.0,355.0,-1.2712,0.1561,9.2148,-0.0538,0.3968,-0.1289,-1.8170691929259242,-0.25895917415618896,2.6667709350585938,-1.7547110319137573,0.6241198182106018,2.6716086864471436,5.203686046391287,7.246330441343807e-15,0.21440915763378143,-1.596933666859762,0.0,0.042749494314193726,0.7840853929519653,0.0,-0.004880133550614119,0.7910323143005371,-4.467742473934777e-05,-0.20869088172912598
378.0,355.0,-1.2712,0.1561,9.2148,-0.0538,0.3968,-0.1289,-1.818118234673971,-0.25412654876708984,2.6621410846710205,-1.7521816492080688,0.6226645112037659,2.6604628562927246,5.203658151417532,3.0892241189707544e-17,0.22258299589157104,-1.5969417730914515,0.0,0.06339655071496964,0.7840136289596558,0.0,0.01195754949003458,0.7910364270210266,-6.729565939167514e-05,-0.25017866492271423
378.0,355.0,-1.2712,0.1561,9.2148,-0.0538,0.3968,-0.1289,-1.8196608028807582,-0.2461968958377838,2.656599521636963,-1.7484315633773804,0.6186437606811523,2.64983868598938,5.203593569784918,8.59896898249207e-21,0.22620552778244019,-1.5968897978412073,0.0,0.03980427607893944,0.7840611934661865,0.0,0.001803722814656794,0.791020393371582,-0.00013893369759898633,-0.23978941142559052
378.0,355.0,-1.2712,0.1561,9.2148,-0.0538,0.3968,-0.1289,-1.8212157688536585,-0.2552390694618225,2.6573686599731445,-1.7446517944335938,0.6148150563240051,2.6264700889587402,5.203658151417532,2.3935548560886733e-24,0.22732822597026825,-1.5968897978412073,0.0,0.03904659301042557,0.7840216159820557,0.0,0.011199552565813065,0.7910042405128479,-0.0001279094285564497,-0.16381068527698517
378.0,355.0,-1.2712,0.1561,9.2148,-0.0538,0.3968,-0.1289,-1.8221961460509242,-0.2632520794868469,2.680879592895508,-1.7421627044677734,0.6167383193969727,2.6281650066375732,5.203658181219854,1.0204099157564493e-26,0.21567994356155396,-1.5968979040728968,0.0,0.04563314467668533,0.7840850353240967,0.0,-0.006204782985150814,0.7910484671592712,-9.260319347959012e-05,-0.25813359022140503
611.0,540.0,-1.8568,0.1047,9.0377,-0.044,0.3896,-0.1275,-1.823799272576803,-0.2628137171268463,2.689939498901367,-1.7385162115097046,0.6191912293434143,2.643672466278076,5.203622090607443,-9.43133927648887e-05,0.2186838835477829,-1.5969179312335413,0.0,0.051084004342556,0.7840691804885864,0.0,0.00011392119631636888,0.791052520275116,-0.00010810833191499114,-0.15481042861938477
611.0,540.0,-1.8568,0.1047,9.0377,-0.044,0.3896,-0.1275,-1.8248125515379847,-0.2630922198295593,2.707364559173584,-1.7360994815826416,0.6166588068008423,2.6420397758483887,5.203633653908529,-5.812744711874984e-05,0.21452543139457703,-1.5969222227679651,0.0,0.05390679091215134,0.7840932607650757,0.0,0.01435061451047659,0.791052520275116,-0.00014779639604967088,-0.2116614431142807
611.0,540.0,-1.8568,0.1047,9.0377,-0.044,0.3896,-0.1275,-1.8263303242125453,-0.2628757655620575,2.6813323497772217,-1.7324488162994385,0.6126672029495239,2.5597660541534424,5.203597980528631,-0.0003538638411555439,0.21706265211105347,-1.5969141165362757,0.0,0.04128574579954147,0.7840652465820312,0.0,-0.005614660680294037,0.7910245060920715,-0.0002863688860088587,-0.2748911678791046
611.0,540.0,-1.8568,0.1047,9.0377,-0.044,0.3896,-0.1275,-1.827888628045553,-0.25847798585891724,2.696044921875,-1.7286535501480103,0.6148774027824402,2.6349000930786133,5.2036419091518304,-0.00022558825730811805,0.21784493327140808,-1.5969579855548304,0.0,0.042392272502183914,0.7840572595596313,0.0,-0.011282753199338913,0.7910285592079163,-0.00039615968125872314,-0.1950186938047409
611.0,540.0,-1.8568,0.1047,9.0377,-0.044,0.3896,-0.1275,-1.8289343319334925,-0.2589207589626312,2.7092933654785156,-1.72626531124115,0.6155354380607605,2.619365692138672,5.203694301634588,-0.00018030650971923023,0.2145562469959259,-1.5969060103045862,0.0,0.03877141326665878,0.7840533256530762,0.0,0.009071599692106247,0.7910042405128479,-0.0006770793115720153,-0.2597314119338989
611.0,540.0,-1.8568,0.1047,9.0377,-0.044,0.3896,-0.1275,-1.8304363689818324,-0.25910601019859314,2.721841335296631,-1.722610354423523,0.6201282739639282,2.653639554977417,5.203602003842153,-0.00013375142589211464,0.23590058088302612,-1.596949879323141,0.0,0.04341067746281624,0.7840893268585205,0.0,-0.0034880959428846836,0.7909840941429138,-0.0005600917502306402,-0.25147125124931335
611.0,540.0,-1.8568,0.1047,9.0377,-0.044,0.3896,-0.1275,-1.8315464458861292,-0.26060885190963745,2.7344584465026855,-1.7201429605484009,0.6121625900268555,2.6492116451263428,5.203585701971807,-0.00045371416490525007,0.21960264444351196,-1.596921745930807,0.0,0.04485505819320679,0.7840374708175659,0.0,0.02069920115172863,0.790959894657135,-0.0005399993387982249,-0.23439517617225647
611.0,540.0,-1.8568,0.1047,9.0377,-0.044,0.3896,-0.1275,-1.83311190227651,-0.2662131190299988,2.735524892807007,-1.7164067029953003,0.601972222328186,2.619863510131836,5.203606116562643,-0.0041716997511684895,0.2142682671546936,-1.5969060103045862,0.0,0.05797768384218216,0.7840612530708313,0.0,0.006320178508758545,0.7909557819366455,-0.0004933815216645598,-0.2526310384273529
611.0,540.0,-1.8568,0.1047,9.0377,-0.044,0.3896,-0.1275,-1.8346706829466761,-0.27325040102005005,2.7230682373046875,-1.7127553224563599,0.6006639003753662,2.6952290534973145,5.203614371805944,-0.0031588301062583923,0.2118854522705078,-1.596949879323141,0.0,0.04668335244059563,0.7840335369110107,0.0,0.00590020976960659,0.7910083532333374,-0.0002876287035178393,-0.2548571527004242
611.0,540.0,-1.8568,0.1047,9.0377,-0.044,0.3896,-0.1275,-1.8357202015318812,-0.2789371609687805,2.7119216918945312,-1.7104355096817017,0.6025945544242859,2.6352555751800537,5.203598010330953,-0.0013298554113134742,0.2151731252670288,-1.5968735853778284,0.0,0.043312977999448776,0.7840691804885864,0.0,-0.009175059385597706,0.7909964323043823,-0.00024721462978050113,-0.22271499037742615
611.0,540.0,-1.8568,0.1047,9.0377,-0.044,0.3896,-0.1275,-1.8373614750304164,-0.27634865045547485,2.7004668712615967,-1.706798791885376,0.6052602529525757,2.621875286102295,5.2035697279270074,-0.0007017979514785111,0.22991624474525452,-1.5969141165362757,0.0,0.05366377532482147,0.7840691804885864,0.0,-0.0007438403554260731,0.7910124063491821,-0.00022172578610479832,-0.26592278480529785
611.0,540.0,-1.8568,0.1047,9.0377,-0.044,0.3896,-0.1275,-1.838400503198141,-0.2672390937805176,2.7431249618530273,-1.7044427394866943,0.6067037582397461,2.6323137283325195,5.203589844494619,-0.0005345534300431609,0.20626747608184814,-1.5969141165362757,0.0,0.0545932799577713,0.7840691804885864,0.0,0.0029640255961567163,0.7909964323043823,-0.0003606040554586798,-0.2343326210975647
611.0,540.0,-1.8568,0.1047,9.0377,-0.044,0.3896,-0.1275,-1.840055604974264,-0.2638031244277954,2.772089958190918,-1.700891375541687,0.6022794842720032,2.654918909072876,5.203533726721563,-0.0005289377295412123,0.2162153422832489,-1.596893612538473,0.0,0.04424317926168442,0.7840731143951416,0.0,0.002746939891949296,0.7909883856773376,-0.0010529899736866355,-0.22925692796707153
611.0,540.0,-1.8568,0.1047,9.0377,-0.044,0.3896,-0.1275,-1.841726919213766,-0.27470827102661133,2.745682716369629,-1.6971783638000488,0.6059694886207581,2.6774990558624268,5.203550028591909,-0.00044779517338611186,0.22240649163722992,-1.5968974272357386,0.0,0.03900199010968208,0.784045398235321,0.0,0.0018621392082422972,0.7910124063491821,-0.0007398843881674111,-0.26218730211257935
611.0,540.0,-1.8568,0.1047,9.0377,-0.044,0.3896,-0.1275,-1.842909952203268,-0.27743658423423767,2.7620773315429688,-1.6948270797729492,0.6042874455451965,2.628829002380371,5.2035783706005,-0.0013319894205778837,0.21070581674575806,-1.5969260374652308,0.0,0.05005655437707901,0.7840453386306763,0.0,0.004201372619718313,0.7909842729568481,-0.0006136983283795416,-0.25665372610092163
611.0,540.0,-1.8568,0.1047,9.0377,-0.044,0.3896,-0.1275,-1.8446093998351039,-0.275863379240036,2.7678236961364746,-1.6912517547607422,0.6089194416999817,2.6293210983276367,5.203514027386465,-0.0011202013120055199,0.20570427179336548,-1.5969341436969202,0.0,0.04740922898054123,0.7840893268585205,0.0,9.797723032534122e-05,0.7910006046295166,-0.0004393168492242694,-0.27595725655555725
611.0,540.0,-1.8568,0.1047,9.0377,-0.044,0.3896,-0.1275,-1.8457409344115199,-0.28201988339424133,2.7695300579071045,-1.6887986660003662,0.6031700372695923,2.636012554168701,5.20347751954154,-0.00304049183614552,0.21334530413150787,-1.596921745930807,0.0,0.04815930128097534,0.7840612530708313,0.0,-0.0013467855751514435,0.7910129427909851,-0.00041149332537315786,-0.22350625693798065
977.0,698.0,-2.2863,0.1621,8.8828,-0.0447,0.3164,-0.1348,-1.8475314579405726,-0.2970176935195923,2.8459339141845703,-1.6851829290390015,0.5901382565498352,2.6230852603912354,5.203482109099188,-0.00841386616230011,0.22159543633460999,-1.5968697706805628,0.0,0.04554831236600876,0.7840414047241211,0.0,-0.002970836590975523,0.7909561991691589,-0.0008213519467972219,-0.21117500960826874
977.0,698.0,-2.2863,0.1621,8.8828,-0.0447,0.3164,-0.1348,-1.8492943249144496,-0.2934845983982086,2.787970542907715,-1.6815268993377686,0.5913154482841492,2.6830568313598633,5.203462588578024,-0.006367142777889967,0.20334260165691376,-1.5969179312335413,0.0,0.030879780650138855,0.7840770483016968,0.0,0.013464352115988731,0.790976345539093,-0.0008820387301966548,-0.2333584725856781
977.0,698.0,-2.2863,0.1621,8.8828,-0.0447,0.3164,-0.1348,-1.850454946557516,-0.28864213824272156,2.79899263381958,-1.6791293621063232,0.5948331356048584,2.7194652557373047,5.203414279013433,-0.003251548856496811,0.203042671084404,-1.5968979040728968,0.0,0.05753915384411812,0.7841170430183411,0.0,0.002305335132405162,0.7909401059150696,-0.0010893539292737842,-0.2372640073299408
977.0,698.0,-2.2863,0.1621,8.8828,-0.0447,0.3164,-0.1348,-1.8521648846068324,-0.2855816185474396,2.833521842956543,-1.6756309270858765,0.5947786569595337,2.622457265853882,5.203434425383367,-0.0014098023530095816,0.22031629085540771,-1.596933666859762,0.0,0.04989694803953171,0.7840611934661865,0.0,-0.0002294895239174366,0.7909400463104248,-0.0015983576886355877,-0.22246870398521423
977.0,698.0,-2.2863,0.1621,8.8828,-0.0447,0.3164,-0.1348,-1.8532959423460902,-0.285982221364975,2.774498462677002,-1.6732910871505737,0.5921375751495361,2.666901111602783,5.203382420330801,-0.0014869329752400517,0.20720401406288147,-1.5968855063067835,0.0,0.04594679921865463,0.7840572595596313,0.0,0.006586527917534113,0.7909321188926697,-0.0027966401539742947,-0.2094598412513733
977.0,698.0,-2.2863,0.1621,8.8828,-0.0447,0.3164,-0.1348,-1.8550149403014125,-0.28241991996765137,2.8633627891540527,-1.6697381734848022,0.5836181044578552,2.621671676635742,5.203362273960867,-0.006083981599658728,0.2004079818725586,-1.5969060103045862,0.0,0.04983089864253998,0.7841012477874756,0.0,0.005410546436905861,0.7909122705459595,-0.0029767202213406563,-0.2104554921388626
977.0,698.0,-2.2863,0.1621,8.8828,-0.0447,0.3164,-0.1348,-1.8567096195616664,-0.28200486302375793,2.8215770721435547,-1.6662105321884155,0.5850176811218262,2.7441234588623047,5.203346746950903,-0.007924074307084084,0.1937457025051117,-1.5969179312335413,0.0,0.0484076589345932,0.7840813994407654,0.0,0.002620643936097622,0.790916383266449,-0.0028298243414610624,-0.23332583904266357
977.0,698.0,-2.2863,0.1621,8.8828,-0.0447,0.3164,-0.1348,-1.8578573666014613,-0.28780099749565125,2.8140604496002197,-1.6638661623001099,0.5809193253517151,2.624021053314209,5.203282403736868,-0.010786031372845173,0.20844712853431702,-1.5969060103045862,0.0,0.04783559590578079,0.7840813994407654,0.0,-0.0019281103741377592,0.7909364700317383,-0.0030544211622327566,-0.2991865575313568
977.0,698.0,-2.2863,0.1621,8.8828,-0.0447,0.3164,-0.1348,-1.859544416467184,-0.2885269820690155,2.8190765380859375,-1.6604669094085693,0.582755982875824,2.6829402446746826,5.2031946060951135,-0.014799810014665127,0.19113153219223022,-1.596893612538473,7.605473456351319e-06,0.0613386295735836,0.7840652465820312,0.0,0.002981309313327074,0.7909125685691833,-0.0028321011923253536,-0.28186434507369995
977.0,698.0,-2.2863,0.1621,8.8828,-0.0447,0.3164,-0.1348,-1.8607117138304652,-0.2890600562095642,2.7899346351623535,-1.658138394355774,0.5767075419425964,2.6526875495910645,5.2031070468719385,-0.021680645644664764,0.19331280887126923,-1.596893612538473,3.2423326246089346e-08,0.034487560391426086,0.7840813994407654,0.0,0.009508484974503517,0.7908480763435364,-0.0032656879629939795,-0.2665939927101135
977.0,698.0,-2.2863,0.1621,8.8828,-0.0447,0.3164,-0.1348,-1.8623134098448695,-0.2887687087059021,2.8411014080047607,-1.6546878814697266,0.5660807490348816,2.655156135559082,5.202906894474783,-0.0343419574201107,0.19247539341449738,-1.5969141165362757,9.025152153396832e-12,0.04692409932613373,0.7840652465820312,0.0,-0.0005883350968360901,0.7907716631889343,-0.003584971185773611,-0.2726629376411438
977.0,698.0,-2.2863,0.1621,8.8828,-0.0447,0.3164,-0.1348,-1.864065786401266,-0.2868568003177643,2.880258798599243,-1.6511561870574951,0.5653418898582458,2.692009449005127,5.202759820013799,-0.05259257182478905,0.1820058673620224,-1.5969260374652308,2.512184736833665e-15,0.056787148118019104,0.7840814590454102,0.0,0.0038079593796283007,0.7908159494400024,-0.0028129881247878075,-0.2896147668361664
977.0,698.0,-2.2863,0.1621,8.8828,-0.0447,0.3164,-0.1348,-1.8652049503722132,-0.28368446230888367,2.839757204055786,-1.648836612701416,0.5657998323440552,2.6603965759277344,5.2024840889270685,-0.07088907063007355,0.17238828539848328,-1.5969141165362757,1.0709836608607845e-17,0.0535530149936676,0.7841246724128723,0.0,-0.013025911524891853,0.7908241152763367,-0.001681264373473823,-0.2663549482822418
977.0,698.0,-2.2863,0.1621,8.8828,-0.0447,0.3164,-0.1348,-1.8669001064696253,-0.2870466709136963,2.8426647186279297,-1.6454415321350098,0.5633677840232849,2.6455185413360596,5.2019172487552545,-0.10823914408683777,0.16171236336231232,-1.5969260374652308,2.9811217691370322e-21,0.06577935814857483,0.7840651869773865,0.0,0.004862653091549873,0.790820300579071,-0.0010143887484446168,-0.29762059450149536
977.0,698.0,-2.2863,0.1621,8.8828,-0.0447,0.3164,-0.1348,-1.8680788479247035,-0.28559979796409607,2.8664865493774414,-1.6432615518569946,0.5632753968238831,2.65501070022583,5.201418626099386,-0.1274207979440689,0.15544527769088745,-1.5968616644488733,1.2708990156356519e-23,0.05768486484885216,0.7840731143951416,0.0,0.005015257745981216,0.790812075138092,-0.0007670988561585546,-0.25450950860977173
977.0,698.0,-2.2863,0.1621,8.8828,-0.0447,0.3164,-0.1348,-1.8697172604002894,-0.27653059363365173,2.8601608276367188,-1.6399306058883667,0.5626460313796997,2.693434715270996,5.200616407185354,-0.13602790236473083,0.13869783282279968,-1.5969260374652308,3.537593573797162e-27,0.0396723635494709,0.7840533256530762,0.0,-0.005565986968576908,0.7908364534378052,-0.0004819906025659293,-0.2539244294166565
977.0,698.0,-2.2863,0.1621,8.8828,-0.0447,0.3164,-0.1348,-1.8714333973326625,-0.28093913197517395,2.881483793258667,-1.6365511417388916,0.5601139664649963,2.6877975463867188,5.199742215662756,-0.13179652392864227,0.14328449964523315,-1.596865479146139,9.847022137290237e-31,0.05448971316218376,0.7839975357055664,0.0,0.002320169471204281,0.790803849697113,-0.0004361193277873099,-0.23885297775268555
977.0,698.0,-2.2863,0.1621,8.8828,-0.0447,0.3164,-0.1348,-1.8725716076292933,-0.287427693605423,2.8673295974731445,-1.6343401670455933,0.5577753782272339,2.649026870727539,5.199172007828512,-0.13130393624305725,0.14229929447174072,-1.5968697706805628,4.197939751993954e-33,0.05331850051879883,0.7839856743812561,0.0,0.0028558855410665274,0.7908082008361816,-0.00031292272615246475,-0.2914291024208069
960.0,605.0,-2.135,0.2572,9.5743,-0.0345,0.0918,-0.1182,-1.874399324456686,-0.2895342707633972,2.9157261848449707,-1.631000280380249,0.5588228106498718,2.6846256256103516,5.198457735567846,-0.14358700811862946,0.1336328238248825,-1.5969060103045862,1.1685121626212287e-36,0.04197544604539871,0.7840611934661865,0.0,0.0014534015208482742,0.7908243536949158,-0.00025887650554068387,-0.23613102734088898
960.0,605.0,-2.135,0.2572,9.5743,-0.0345,0.0918,-0.1182,-1.8755623302855433,-0.2860181927680969,2.9720492362976074,-1.6288251876831055,0.55849689245224,2.6578378677368164,5.197826999216833,-0.15164139866828918,0.13373634219169617,-1.596893612538473,4.981551580945366e-39,0.04343658313155174,0.784065306186676,0.0,0.004012578632682562,0.7908079624176025,-0.0002321614883840084,-0.26218464970588684
960.0,605.0,-2.135,0.2572,9.5743,-0.0345,0.0918,-0.1182,-1.8772450886168421,-0.2892009913921356,2.938232421875,-1.6254651546478271,0.551365077495575,2.738433361053467,5.196829396277227,-0.15936598181724548,0.1247369721531868,-1.5969060103045862,1.3872854796815689e-42,0.05235165357589722,0.7840814590454102,0.0,-0.00832398422062397,0.7908443808555603,-0.00024124779156409204,-0.24097222089767456
960.0,605.0,-2.135,0.2572,9.5743,-0.0345,0.0918,-0.1182,-1.8790155849852503,-0.29885727167129517,2.9172396659851074,-1.6221307516098022,0.5414870381355286,2.6461100578308105,5.195912170201101,-0.15358160436153412,0.11774977296590805,-1.596905533467428,0.0,0.051458973437547684,0.7840375304222107,0.0,0.0029659136198461056,0.7908161878585815,-0.00021273651509545743,-0.24642403423786163
960.0,605.0,-2.135,0.2572,9.5743,-0.0345,0.0918,-0.1182,-1.8802792034544886,-0.2976595461368561,2.9300880432128906,-1.6199394464492798,0.5412431359291077,2.6971068382263184,5.1952895698841,-0.17362311482429504,0.11280471831560135,-1.596893612538473,0.0,0.05013137310743332,0.7840136885643005,0.0,0.009472389705479145,0.7908161878585815,-0.00016566331032663584,-0.27967700362205505
960.0,605.0,-2.135,0.2572,9.5743,-0.0345,0.0918,-0.1182,-1.882022043267721,-0.29297131299972534,2.9220023155212402,-1.61665940284729,0.5409591794013977,2.6798782348632812,5.194115865021505,-0.20008008182048798,0.11326301842927933,-1.5968897978412073,0.0,0.044618211686611176,0.7840811014175415,0.0,0.009832737036049366,0.7908161878585815,-0.00014810555148869753,-0.24230912327766418
960.0,605.0,-2.135,0.2572,9.5743,-0.0345,0.0918,-0.1182,-1.8831531010069789,-0.2930978536605835,2.947946071624756,-1.6145005226135254,0.5404504537582397,2.674396276473999,5.193241762905874,-0.2082882523536682,0.10731619596481323,-1.5969141165362757,0.0,0.05938225984573364,0.784049391746521,0.0,0.004039175808429718,0.7908323407173157,-0.0001667048636591062,-0.23494693636894226
960.0,605.0,-2.135,0.2572,9.5743,-0.0345,0.0918,-0.1182,-1.8849240742125453,-0.2925891578197479,2.943359375,-1.6113280057907104,0.5356667637825012,2.6554903984069824,5.192077266960897,-0.21448157727718353,0.0996575653553009,-1.5969021956073206,0.0,0.04492101073265076,0.7840173244476318,0.0,0.011285537853837013,0.7908041477203369,-0.00015261197404470295,-0.23836852610111237
960.0,605.0,-2.135,0.2572,9.5743,-0.0345,0.0918,-0.1182,-1.8866073093810023,-0.28450700640678406,2.9507503509521484,-1.6082334518432617,0.5312585830688477,2.668292999267578,5.190724718361654,-0.24026885628700256,0.1122739166021347,-1.5969298521624964,0.0,0.04878738522529602,0.7840611934661865,0.0,-0.006167324259877205,0.7908526062965393,-0.00011734737927326933,-0.26503318548202515
960.0,605.0,-2.135,0.2572,9.5743,-0.0345,0.0918,-0.1182,-1.8877502880492152,-0.28344133496284485,2.993494749069214,-1.6061255931854248,0.5291925072669983,2.683368682861328,5.189690667181768,-0.24536742269992828,0.07472174614667892,-1.5969298521624964,0.0,0.047931283712387085,0.7840136885643005,0.0,0.002837785752490163,0.790820300579071,-0.00011143063602503389,-0.24833983182907104
960.0,605.0,-2.135,0.2572,9.5743,-0.0345,0.0918,-0.1182,-1.889409681359762,-0.28346893191337585,2.9352283477783203,-1.6029425859451294,0.5251265168190002,2.6390700340270996,5.188138234406271,-0.2653486728668213,0.09361220896244049,-1.5968974272357386,0.0,0.0346948578953743,0.7841135859489441,0.0,0.011358894407749176,0.7908161878585815,-0.00010372516408096999,-0.2202940434217453
960.0,605.0,-2.135,0.2572,9.5743,-0.0345,0.0918,-0.1182,-1.8905731640257777,-0.2808850407600403,2.9866628646850586,-1.60093092918396,0.5224105715751648,2.655036449432373,5.187053042441168,-0.28661707043647766,0.07119402289390564,-1.5969017187701624,0.0,0.045253630727529526,0.7840335369110107,0.0,0.006746669299900532,0.7908241152763367,-9.91541164694354e-05,-0.2374110072851181
960.0,605.0,-2.135,0.2572,9.5743,-0.0345,0.0918,-0.1182,-1.8922192058958949,-0.2806514799594879,3.0192360877990723,-1.5978480577468872,0.5210264325141907,2.633910894393921,5.185276794224539,-0.2945595979690552,0.06623441725969315,-1.5969260374652308,0.0,0.04995887726545334,0.7840533256530762,0.0,0.006904033478349447,0.7908603549003601,-9.300625970354304e-05,-0.20196546614170074
960.0,605.0,-2.135,0.2572,9.5743,-0.0345,0.0918,-0.1182,-1.8938905201353968,-0.279575914144516,2.9839491844177246,-1.5947208404541016,0.5136549472808838,2.7045199871063232,5.1833528755004785,-0.329092413187027,0.055170394480228424,-1.5968816916095179,0.0,0.04365827143192291,0.7840979695320129,0.0,0.00028673652559518814,0.7908768653869629,-9.91011256701313e-05,-0.21890485286712646
960.0,605.0,-2.135,0.2572,9.5743,-0.0345,0.0918,-0.1182,-1.8949171505370082,-0.27880409359931946,3.005728244781494,-1.592665433883667,0.5099905729293823,2.677234649658203,5.181968706637182,-0.34017878770828247,0.055547989904880524,-1.596893612538473,0.0,0.037797003984451294,0.7840533256530762,0.0,-0.003270423272624612,0.7907637357711792,-0.00010115305485669523,-0.23368608951568604
960.0,605.0,-2.135,0.2572,9.5743,-0.0345,0.0918,-0.1182,-1.8965932331480921,-0.2753203511238098,3.000086784362793,-1.5895302295684814,0.5052028894424438,2.668498992919922,5.17979713061408,-0.38040316104888916,0.035539135336875916,-1.5969298521624964,0.0,0.03997257351875305,0.784029483795166,0.0,0.0058880955912172794,0.790812075138092,-9.577209857525304e-05,-0.1948758065700531
960.0,605.0,-2.135,0.2572,9.5743,-0.0345,0.0918,-0.1182,-1.8977204761900843,-0.2776380777359009,3.0279595851898193,-1.5875262022018433,0.5037599802017212,2.673283100128174,5.178249168186941,-0.3850966989994049,0.04699334502220154,-1.5968816916095179,0.0,0.048614341765642166,0.7841135859489441,0.0,0.0007646519225090742,0.7907798886299133,-7.710073987254873e-05,-0.21505534648895264
940.0,609.0,-3.3523,0.2506,9.3817,-0.026,-0.1969,-0.1214,-1.8992988071837367,-0.276875376701355,3.0656278133392334,-1.584455132484436,0.49901139736175537,2.733802318572998,5.175911056786337,-0.41050970554351807,0.0017909182934090495,-1.5969222227679651,0.0,0.06278450042009354,0.7840774655342102,0.0,-0.010423081927001476,0.7907757759094238,-8.796316978987306e-05,-0.22948873043060303
940.0,609.0,-3.3523,0.2506,9.3817,-0.026,-0.1969,-0.1214,-1.900933404962057,-0.2640031576156616,3.086979866027832,-1.5815210342407227,0.49817436933517456,2.659480094909668,5.1733809290225885,-0.4361162781715393,0.007013981230556965,-1.5968659559832972,0.0,0.05241622403264046,0.7840693593025208,0.0,0.004710657522082329,0.7907963395118713,-9.766032599145547e-05,-0.2098681628704071
