ramyac6/ROB537/final_project/csv/bad/bad_94.csv
tof_0,tof_1,accelx,accely,accelz,gyrox,gyroy,gyroz,shoulder_lift_joint_position,shoulder_lift_joint_velocity,shoulder_lift_joint_effort,elbow_joint_position,elbow_joint_velocity,elbow_joint_effort,wrist_1_joint_position,wrist_1_joint_velocity,wrist_1_joint_effort,wrist_2_joint_position,wrist_2_joint_velocity,wrist_2_joint_effort,wrist_3_joint_position,wrist_3_joint_velocity,wrist_3_joint_effort,shoulder_pan_joint_position,shoulder_pan_joint_velocity,shoulder_pan_joint_effort
405.0,450.0,0.8327,-0.2818,9.4469,-0.0367,0.0252,-0.1203,-1.6795803509154261,0.0,2.5314903259277344,-1.88930082321167,-0.0,2.009579658508301,4.973510998278417,-0.0,0.29187917709350586,-1.54592210451235,0.0,-0.010394406504929066,0.7501125335693359,-0.0,0.01680755987763405,0.8291857242584229,0.0,-0.029671426862478256
405.0,450.0,0.8327,-0.2818,9.4469,-0.0367,0.0252,-0.1203,-1.6795555553831996,0.0,2.464725971221924,-1.8892853260040283,-0.0,2.0393424034118652,4.973527031927862,-0.0,0.2903085947036743,-1.5459144751178187,0.0,-0.005970710888504982,0.7500805854797363,-0.0,-0.0021601547487080097,0.8292019963264465,0.0,-0.003892228938639164
405.0,450.0,0.8327,-0.2818,9.4469,-0.0367,0.0252,-0.1203,-1.6796046696104945,0.0,2.5055885314941406,-1.8893296718597412,-0.0,2.016240119934082,4.973486828594961,-0.0,0.28851425647735596,-1.5458934942828577,0.0,-0.007061025593429804,0.7500804662704468,-0.0,0.005931965075433254,0.8291897773742676,0.0,-0.01911410689353943
405.0,450.0,0.8327,-0.2818,9.4469,-0.0367,0.0252,-0.1203,-1.6796323261656703,0.0,2.4607229232788086,-1.889284372329712,-0.0,2.040393829345703,4.973510998278417,-0.0,0.2836885154247284,-1.545905892048971,0.0,-0.003831468988209963,0.7501003742218018,-0.0,0.017904620617628098,0.8291817307472229,0.0,0.013988849706947803
405.0,450.0,0.8327,-0.2818,9.4469,-0.0367,0.0252,-0.1203,-1.679540296594137,0.0,2.4912612438201904,-1.889272928237915,-0.0,1.9743541479110718,4.973531174450674,-0.0,0.2913829982280731,-1.5459464232074183,0.0,-0.002308421302586794,0.7501684427261353,-0.0,-0.004530575126409531,0.8291577696800232,0.0,-0.0030806511640548706
405.0,450.0,0.8327,-0.2818,9.4469,-0.0367,0.0252,-0.1203,-1.679563661614889,0.0,2.4699573516845703,-1.8893048763275146,-0.0,2.0684456825256348,4.973486828594961,-0.0,0.29709604382514954,-1.5458782354937952,0.0,-0.008248232305049896,0.7500964403152466,-0.0,-0.01411967258900404,0.8291776180267334,0.0,-0.006526092067360878
405.0,450.0,0.8327,-0.2818,9.4469,-0.0367,0.0252,-0.1203,-1.679540296594137,0.0,2.46323561668396,-1.8892450332641602,-0.0,2.034453868865967,4.973478662758627,-0.0,0.2853877544403076,-1.5459182898150843,0.0,-0.019310588017106056,0.7500765323638916,-0.0,-0.0038633348885923624,0.8291816711425781,0.0,0.035491034388542175
391.0,399.0,0.8154,-0.271,9.5294,-0.0319,0.0137,-0.1197,-1.679596563378805,0.0,2.4799153804779053,-1.8892325162887573,-0.0,2.024916172027588,4.973538923054495,-0.0,0.2749333083629608,-1.5459345022784632,0.0,-0.014454731717705727,0.7501482963562012,-0.0,0.0080788005143404,0.8291417360305786,0.0,-0.02115303836762905
391.0,399.0,0.8154,-0.271,9.5294,-0.0319,0.0137,-0.1197,-1.6795879803099574,0.0,2.470726251602173,-1.8892771005630493,-0.0,2.005878448486328,4.9734991667564294,-0.0,0.277737021446228,-1.5458701292621058,0.0,-0.021495958790183067,0.7501283884048462,-0.0,-0.0025743735022842884,0.8291776776313782,0.0,0.04604911804199219
391.0,399.0,0.8154,-0.271,9.5294,-0.0319,0.0137,-0.1197,-1.6796041927733363,0.0,2.4942874908447266,-1.889309048652649,-0.0,2.001502275466919,4.973490911513128,-0.0,0.28863200545310974,-1.5459263960467737,0.0,-0.001039616297930479,0.7501561641693115,-0.0,-0.002961551770567894,0.8291537165641785,0.0,-0.027638642117381096
391.0,399.0,0.8154,-0.271,9.5294,-0.0319,0.0137,-0.1197,-1.6796041927733363,0.0,2.468557834625244,-1.8892934322357178,-0.0,2.0368387699127197,4.973490911513128,-0.0,0.28588902950286865,-1.5459101835833948,0.0,-0.00868120789527893,0.7502001523971558,-0.0,0.00803521927446127,0.8291978240013123,0.0,0.003947145771235228
391.0,399.0,0.8154,-0.271,9.5294,-0.0319,0.0137,-0.1197,-1.6796003780760707,0.0,2.5103964805603027,-1.88930082321167,-0.0,2.030622720718384,4.973506885557928,-0.0,0.28631138801574707,-1.5459182898150843,0.0,-0.013908959925174713,0.7500686645507812,-0.0,0.0039373766630887985,0.8292100429534912,0.0,-0.022601954638957977
391.0,399.0,0.8154,-0.271,9.5294,-0.0319,0.0137,-0.1197,-1.6795879803099574,0.0,2.5402607917785645,-1.8892966508865356,-0.0,2.0178308486938477,4.973515170603552,-0.0,0.29749801754951477,-1.5458820501910608,0.0,-0.0086944829672575,0.7500765323638916,-0.0,0.0010164703708142042,0.829161524772644,0.0,-0.04959053918719292
391.0,399.0,0.8154,-0.271,9.5294,-0.0319,0.0137,-0.1197,-1.6795484028258265,0.0,2.45770525932312,-1.889325499534607,-0.0,1.9908628463745117,4.973506885557928,-0.0,0.2812075614929199,-1.5459263960467737,0.0,-0.010476041585206985,0.7501046657562256,-0.0,0.007445365656167269,0.8291696906089783,0.0,0.010634738951921463
391.0,399.0,0.8154,-0.271,9.5294,-0.0319,0.0137,-0.1197,-1.6795760593810023,0.0,2.507077217102051,-1.889309048652649,-0.0,2.0329976081848145,4.973486828594961,-0.0,0.2964951992034912,-1.54592210451235,0.0,-0.010218676179647446,0.7501324415206909,-0.0,0.0010398679878562689,0.8291416764259338,0.0,-0.025924552232027054
391.0,399.0,0.8154,-0.271,9.5294,-0.0319,0.0137,-0.1197,-1.679596563378805,0.0,2.5271108150482178,-1.8893214464187622,-0.0,2.03220534324646,4.973478692560949,-0.0,0.2945442795753479,-1.5459302107440394,0.0,-0.0025725613813847303,0.7501003742218018,-0.0,0.004414253402501345,0.8292057514190674,0.0,-0.02197619341313839
391.0,399.0,0.8154,-0.271,9.5294,-0.0319,0.0137,-0.1197,-1.6795760593810023,0.0,2.4587948322296143,-1.88930082321167,-0.0,2.04721999168396,4.973494964628973,-0.0,0.2917407155036926,-1.5458977858172815,0.0,-0.0064434511587023735,0.7501442432403564,-0.0,0.007517989259213209,0.8291456699371338,0.0,0.0004164953716099262
391.0,399.0,0.8154,-0.271,9.5294,-0.0319,0.0137,-0.1197,-1.67958464244985,0.0,2.5042648315429688,-1.8893256187438965,-0.0,2.018507242202759,4.973490911513128,-0.0,0.2892904281616211,-1.5459383169757288,0.0,-0.02687174454331398,0.7501165866851807,-0.0,-0.010976073332130909,0.8291736245155334,0.0,0.0019068643450737
391.0,399.0,0.8154,-0.271,9.5294,-0.0319,0.0137,-0.1197,-1.6795803509154261,0.0,2.5300955772399902,-1.8893132209777832,-0.0,2.014543294906616,4.973486918001928,-0.0,0.2842678725719452,-1.5459144751178187,0.0,-0.012453888542950153,0.7500843405723572,-0.0,0.005307613871991634,0.8291937708854675,0.0,-0.000887810718268156
391.0,399.0,0.8154,-0.271,9.5294,-0.0319,0.0137,-0.1197,-1.6795760593810023,0.0,2.457944631576538,-1.8892884254455566,-0.0,2.017592191696167,4.973531144648351,-0.0,0.2911992371082306,-1.5459383169757288,0.0,-0.014294113963842392,0.7501207590103149,-0.0,0.0032005300745368004,0.8291496634483337,0.0,0.004195934161543846
394.0,429.0,0.8076,-0.2734,9.4911,-0.0415,0.0275,-0.1245,-1.6796122990050257,0.0,2.541560649871826,-1.8892934322357178,-0.0,2.0264229774475098,4.973470914154806,-0.0,0.29189085960388184,-1.5458934942828577,0.0,-0.011174843646585941,0.7501646280288696,-0.0,-0.007390591315925121,0.8291416764259338,0.0,-0.03099869377911091
394.0,429.0,0.8076,-0.2734,9.4911,-0.0415,0.0275,-0.1245,-1.6795879803099574,0.0,2.497016191482544,-1.8893132209777832,-0.0,2.026707649230957,4.973502832442083,-0.0,0.2875514626502991,-1.5459182898150843,0.0,-0.010506462305784225,0.7501208186149597,-0.0,0.005172508303076029,0.8291376829147339,0.0,-0.02483060024678707
394.0,429.0,0.8076,-0.2734,9.4911,-0.0415,0.0275,-0.1245,-1.67958464244985,0.0,2.4759979248046875,-1.8893048763275146,-0.0,2.054436206817627,4.973514693766393,-0.0,0.2891429662704468,-1.54592210451235,0.0,-0.014676807448267937,0.7501003742218018,-0.0,-0.0020705359056591988,0.8291977643966675,0.0,0.02326357364654541
394.0,429.0,0.8076,-0.2734,9.4911,-0.0415,0.0275,-0.1245,-1.6796041927733363,0.0,2.506213903427124,-1.88930082321167,-0.0,2.003465175628662,4.973522919207372,-0.0,0.2971329689025879,-1.5458977858172815,0.0,-0.02117326855659485,0.7501003742218018,-0.0,-0.004756095353513956,0.8291937708854675,0.0,-0.012652848847210407
394.0,429.0,0.8076,-0.2734,9.4911,-0.0415,0.0275,-0.1245,-1.67960848430776,0.0,2.481839418411255,-1.889272928237915,-0.0,2.0174453258514404,4.973490911513128,-0.0,0.27796095609664917,-1.5459421316729944,0.0,0.001510864356532693,0.7501003742218018,-0.0,-0.0055039068683981895,0.8291897773742676,0.0,-0.0059103528037667274
394.0,429.0,0.8076,-0.2734,9.4911,-0.0415,0.0275,-0.1245,-1.67960848430776,0.0,2.4992740154266357,-1.8892687559127808,-0.0,2.015296459197998,4.973515140801229,-0.0,0.2841988205909729,-1.5459263960467737,0.0,-0.010922523215413094,0.7501204013824463,-0.0,-0.0006741094402968884,0.8291577696800232,0.0,-0.027704373002052307
394.0,429.0,0.8076,-0.2734,9.4911,-0.0415,0.0275,-0.1245,-1.6795841656126917,0.0,2.4613802433013916,-1.8892769813537598,-0.0,1.9949228763580322,4.973494964628973,-0.0,0.2826071083545685,-1.5458853880511683,0.0,-0.013066517189145088,0.750092089176178,-0.0,-0.0011893915943801403,0.8291897773742676,0.0,-0.029923800379037857
394.0,429.0,0.8076,-0.2734,9.4911,-0.0415,0.0275,-0.1245,-1.67958464244985,0.0,2.4614579677581787,-1.8893051147460938,-0.0,2.0750951766967773,4.973502832442083,-0.0,0.285450279712677,-1.545917812977926,0.0,-0.0032019191421568394,0.7501125335693359,-0.0,-0.005653129890561104,0.8291857242584229,0.0,-0.021889738738536835
394.0,429.0,0.8076,-0.2734,9.4911,-0.0415,0.0275,-0.1245,-1.6795526943602503,0.0,2.4779458045959473,-1.889272928237915,-0.0,2.039853572845459,4.973462688713827,-0.0,0.2875221371650696,-1.5459101835833948,0.0,-0.009610614739358425,0.7500843405723572,-0.0,0.0015354370698332787,0.8292178511619568,0.0,0.03761528059840202
394.0,429.0,0.8076,-0.2734,9.4911,-0.0415,0.0275,-0.1245,-1.67958464244985,0.0,2.4500255584716797,-1.8893412351608276,-0.0,2.0364904403686523,4.973519223719396,-0.0,0.2862570583820343,-1.5459020773517054,0.0,-0.006806888151913881,0.750092089176178,-0.0,0.006983918137848377,0.8291816711425781,0.0,-0.012085070833563805
394.0,429.0,0.8076,-0.2734,9.4911,-0.0415,0.0275,-0.1245,-1.679596563378805,0.0,2.4989194869995117,-1.8892853260040283,-0.0,1.9958317279815674,4.973462718516149,-0.0,0.2888074219226837,-1.5458853880511683,0.0,-0.014440968632698059,0.7501208186149597,-0.0,0.009256882593035698,0.8292139768600464,0.0,-0.033135540783405304
394.0,429.0,0.8076,-0.2734,9.4911,-0.0415,0.0275,-0.1245,-1.6795879803099574,0.0,2.466583251953125,-1.8893214464187622,-0.0,2.034156322479248,4.973490524082937,-0.0,0.2996910512447357,-1.5459421316729944,0.0,-0.011725030839443207,0.7501367926597595,-0.0,0.0024154759012162685,0.8292137980461121,0.0,-0.02723296359181404
394.0,429.0,0.8076,-0.2734,9.4911,-0.0415,0.0275,-0.1245,-1.679563661614889,0.0,2.5015649795532227,-1.8893287181854248,-0.0,2.0491535663604736,4.973495024233618,-0.0,0.2884959280490875,-1.5458863417254847,0.0,-0.0004547345743048936,0.7501285672187805,-0.0,0.006574398372322321,0.8291537165641785,0.0,0.043287280946969986
389.0,427.0,0.8495,-0.2794,9.5384,-0.0386,0.0232,-0.1243,-1.6796003780760707,0.0,2.5211291313171387,-1.8893049955368042,-0.0,2.056812047958374,4.973482894688406,-0.0,0.2812606692314148,-1.5459101835833948,0.0,-0.01870238222181797,0.7501605749130249,-0.0,-0.0007477126782760024,0.8291416764259338,0.0,-0.011916499584913254
389.0,427.0,0.8495,-0.2794,9.5384,-0.0386,0.0232,-0.1243,-1.6796046696104945,0.0,2.4689600467681885,-1.88930082321167,-0.0,2.0068397521972656,4.973530697613516,-0.0,0.3014417886734009,-1.545865837727682,0.0,-0.01987115480005741,0.7500880360603333,-0.0,-0.013049907982349396,0.8292019367218018,0.0,-0.019105007871985435
389.0,427.0,0.8495,-0.2794,9.5384,-0.0386,0.0232,-0.1243,-1.67960848430776,0.0,2.511094570159912,-1.8893049955368042,-0.0,2.032508373260498,4.973531204252996,-0.0,0.2955039143562317,-1.5459144751178187,0.0,-0.0032467858400195837,0.7501568794250488,-0.0,-0.0005674553103744984,0.8291776776313782,0.0,0.01602707989513874
389.0,427.0,0.8495,-0.2794,9.5384,-0.0386,0.0232,-0.1243,-1.6795722446837367,0.0,2.481684684753418,-1.8893132209777832,-0.0,2.0184545516967773,4.973486828594961,-0.0,0.28199321031570435,-1.5459101835833948,0.0,-0.006964852102100849,0.7501204013824463,-0.0,-0.0023091351613402367,0.8291816711425781,0.0,-0.0461977943778038
389.0,427.0,0.8495,-0.2794,9.5384,-0.0386,0.0232,-0.1243,-1.6796204052367152,0.0,2.495480537414551,-1.88930082321167,-0.0,2.0023140907287598,4.973522859602728,-0.0,0.2889373302459717,-1.545934025441305,0.0,-0.01746700517833233,0.750124454498291,-0.0,-0.00019808951765298843,0.8291977643966675,0.0,0.007134703453630209
389.0,427.0,0.8495,-0.2794,9.5384,-0.0386,0.0232,-0.1243,-1.6796204052367152,0.0,2.483536958694458,-1.8893048763275146,-0.0,2.0745949745178223,4.9735270021255396,-0.0,0.2885909974575043,-1.5458701292621058,0.0,-0.010373245924711227,0.7501604557037354,-0.0,-0.00676749087870121,0.8291617631912231,0.0,0.021908555179834366
389.0,427.0,0.8495,-0.2794,9.5384,-0.0386,0.0232,-0.1243,-1.6795922718443812,0.0,2.4787025451660156,-1.8893173933029175,-0.0,1.9839181900024414,4.973526972323217,-0.0,0.28850486874580383,-1.5459101835833948,0.0,-0.015909716486930847,0.7501605153083801,-0.0,-0.0019829594530165195,0.8291696310043335,0.0,0.02505563199520111
389.0,427.0,0.8495,-0.2794,9.5384,-0.0386,0.0232,-0.1243,-1.6795722446837367,0.0,2.4865198135375977,-1.8893617391586304,-0.0,2.0545923709869385,4.973515200405874,-0.0,0.2940340042114258,-1.5458696524249476,0.0,-0.005114777944982052,0.7501125335693359,-0.0,0.020434435456991196,0.8291537165641785,0.0,-0.011779769323766232
389.0,427.0,0.8495,-0.2794,9.5384,-0.0386,0.0232,-0.1243,-1.6795679531493128,0.0,2.4780993461608887,-1.8893451690673828,-0.0,2.0475049018859863,4.973514723568716,-0.0,0.28905007243156433,-1.5459020773517054,0.0,-0.010539671406149864,0.7501487135887146,-0.0,-0.012556957080960274,0.8291496634483337,0.0,-0.009820318780839443
389.0,427.0,0.8495,-0.2794,9.5384,-0.0386,0.0232,-0.1243,-1.6795555553831996,0.0,2.472201108932495,-1.88932466506958,-0.0,2.0477633476257324,4.973470526724615,-0.0,0.29244986176490784,-1.545905892048971,0.0,-0.015232523903250694,0.7500720620155334,-0.0,-0.007914637215435505,0.8291577696800232,0.0,0.012298103421926498
389.0,427.0,0.8495,-0.2794,9.5384,-0.0386,0.0232,-0.1243,-1.6795803509154261,0.0,2.508035182952881,-1.8892966508865356,-0.0,2.0501694679260254,4.973442601948538,-0.0,0.3003620505332947,-1.5459383169757288,0.0,-0.018405454233288765,0.7501285076141357,-0.0,0.006034682039171457,0.8291617631912231,0.0,0.05466166138648987
389.0,427.0,0.8495,-0.2794,9.5384,-0.0386,0.0232,-0.1243,-1.6795441112914027,0.0,2.4481000900268555,-1.8892769813537598,-0.0,2.0243611335754395,4.973490911513128,-0.0,0.2848537266254425,-1.5458782354937952,0.0,-0.009644403122365475,0.7501523494720459,-0.0,0.012158689089119434,0.8291376829147339,0.0,0.0038109757006168365
389.0,427.0,0.8495,-0.2794,9.5384,-0.0386,0.0232,-0.1243,-1.6796003780760707,0.0,2.4965577125549316,-1.889281153678894,-0.0,2.0177323818206787,4.973499136954107,-0.0,0.2926619052886963,-1.545905892048971,0.0,-0.021737081930041313,0.7500397562980652,-0.0,-0.0003825537860393524,0.8291696310043335,0.0,-0.019970713183283806
389.0,427.0,0.8495,-0.2794,9.5384,-0.0386,0.0232,-0.1243,-1.6795927486815394,0.0,2.4767816066741943,-1.8893214464187622,-0.0,2.0307719707489014,4.973526942520895,-0.0,0.2952038049697876,-1.545934025441305,0.0,-0.012318840250372887,0.7500920295715332,-0.0,0.0008941590785980225,0.8291817307472229,0.0,0.009355051442980766
388.0,399.0,0.8788,-0.2716,9.5868,-0.0377,0.0289,-0.1191,-1.6795484028258265,0.0,2.495140552520752,-1.88932466506958,-0.0,1.9590613842010498,4.9734991667564294,-0.0,0.2821033000946045,-1.5459464232074183,0.0,-0.020618289709091187,0.7501647472381592,-0.0,0.011434893123805523,0.8291938900947571,0.0,-0.009152965620160103
388.0,399.0,0.8788,-0.2716,9.5868,-0.0377,0.0289,-0.1191,-1.6795879803099574,0.0,2.503605842590332,-1.889281153678894,-0.0,2.012348175048828,4.973531144648351,-0.0,0.2752445936203003,-1.5459421316729944,0.0,-0.01604137197136879,0.7501125335693359,-0.0,-0.006775171961635351,0.8291817307472229,0.0,0.016210174188017845
388.0,399.0,0.8788,-0.2716,9.5868,-0.0377,0.0289,-0.1191,-1.6795879803099574,0.0,2.470210552215576,-1.889349341392517,-0.0,1.9837214946746826,4.973494994431295,-0.0,0.2913552522659302,-1.5458853880511683,0.0,-0.02832423523068428,0.7501285076141357,-0.0,-0.004795880522578955,0.8291456699371338,0.0,0.012700528837740421
388.0,399.0,0.8788,-0.2716,9.5868,-0.0377,0.0289,-0.1191,-1.679563661614889,0.0,2.5076088905334473,-1.889272928237915,-0.0,2.015806198120117,4.97349505403594,-0.0,0.2953535318374634,-1.5459383169757288,0.0,-0.011136139743030071,0.7501043677330017,-0.0,-0.0005639583687298,0.8291897773742676,0.0,-0.016624057665467262
388.0,399.0,0.8788,-0.2716,9.5868,-0.0377,0.0289,-0.1191,-1.679619928399557,0.0,2.503889322280884,-1.8893131017684937,-0.0,2.0273640155792236,4.973462718516149,-0.0,0.28541404008865356,-1.5459421316729944,0.0,-0.011451059952378273,0.7501367926597595,-0.0,-0.0137277627363801,0.829197883605957,0.0,-0.023113518953323364
388.0,399.0,0.8788,-0.2716,9.5868,-0.0377,0.0289,-0.1191,-1.6795884571471156,0.0,2.4823999404907227,-1.8893091678619385,-0.0,2.045175075531006,4.973495024233618,-0.0,0.2855793237686157,-1.5459302107440394,0.0,-0.013605196960270405,0.7501487135887146,-0.0,-0.002840222092345357,0.8291577696800232,0.0,0.02914552390575409
388.0,399.0,0.8788,-0.2716,9.5868,-0.0377,0.0289,-0.1191,-1.6795722446837367,0.0,2.515986442565918,-1.8893451690673828,-0.0,2.0186843872070312,4.973482835083761,-0.0,0.28819555044174194,-1.545962158833639,0.0,-0.013596664182841778,0.7501208186149597,-0.0,-0.0034721323754638433,0.8291857242584229,0.0,0.00269242562353611
388.0,399.0,0.8788,-0.2716,9.5868,-0.0377,0.0289,-0.1191,-1.6795760593810023,0.0,2.4685707092285156,-1.889289379119873,-0.0,2.045713424682617,4.973486828594961,-0.0,0.28137269616127014,-1.545934025441305,0.0,-0.01470624003559351,0.7501928806304932,-0.0,-0.0007141112582758069,0.8292059898376465,0.0,0.014577353373169899
388.0,399.0,0.8788,-0.2716,9.5868,-0.0377,0.0289,-0.1191,-1.6796204052367152,0.0,2.4897634983062744,-1.8893369436264038,-0.0,2.0280613899230957,4.973470526724615,-0.0,0.29192104935646057,-1.5459101835833948,0.0,-0.011316507123410702,0.7501125335693359,-0.0,-0.00829553883522749,0.8292019367218018,0.0,-0.03744388744235039
388.0,399.0,0.8788,-0.2716,9.5868,-0.0377,0.0289,-0.1191,-1.6795922718443812,0.0,2.4762930870056152,-1.8892810344696045,-0.0,2.0470221042633057,4.97353075721816,-0.0,0.2900415062904358,-1.545905892048971,0.0,-0.022126933559775352,0.7501285076141357,-0.0,-0.0011884698178619146,0.8291736841201782,0.0,-0.012714575976133347
388.0,399.0,0.8788,-0.2716,9.5868,-0.0377,0.0289,-0.1191,-1.6796165905394496,0.0,2.4723596572875977,-1.8893173933029175,-0.0,2.005279779434204,4.97350691536025,-0.0,0.2940237522125244,-1.545905892048971,0.0,-0.021852601319551468,0.7500724792480469,-0.0,-0.007127420511096716,0.8291658163070679,0.0,-0.04933793470263481
388.0,399.0,0.8788,-0.2716,9.5868,-0.0377,0.0289,-0.1191,-1.6795722446837367,0.0,2.521122932434082,-1.889272928237915,-0.0,2.05155873298645,4.973522919207372,-0.0,0.2830874025821686,-1.5459101835833948,0.0,-0.010715965181589127,0.7501043677330017,-0.0,0.007997619919478893,0.8292178511619568,0.0,-0.028630083426833153
388.0,399.0,0.8788,-0.2716,9.5868,-0.0377,0.0289,-0.1191,-1.6795803509154261,0.0,2.51155686378479,-1.8892966508865356,-0.0,2.010530471801758,4.973519223719396,-0.0,0.3006284832954407,-1.5459383169757288,0.0,-0.00741998478770256,0.7500962018966675,-0.0,-0.014069046825170517,0.8291497230529785,0.0,4.083290696144104e-05
402.0,440.0,0.8417,-0.2578,9.4409,-0.0373,0.0218,-0.1264,-1.6795999012389125,0.0,2.4763925075531006,-1.8892688751220703,-0.0,1.995291829109192,4.973526942520895,-0.0,0.29933854937553406,-1.5459144751178187,0.0,-0.022207651287317276,0.7500925064086914,-0.0,0.008045654743909836,0.8291658163070679,0.0,-0.03496832400560379
402.0,440.0,0.8417,-0.2578,9.4409,-0.0373,0.0218,-0.1264,-1.67960848430776,0.0,2.5089125633239746,-1.8892966508865356,-0.0,2.0105297565460205,4.973515140801229,-0.0,0.28873318433761597,-1.545905892048971,0.0,-0.023114506155252457,0.7500600814819336,-0.0,-0.0061472137458622456,0.8291857242584229,0.0,-0.02585502713918686
402.0,440.0,0.8417,-0.2578,9.4409,-0.0373,0.0218,-0.1264,-1.6795922718443812,0.0,2.477287769317627,-1.8893132209777832,-0.0,2.019354820251465,4.973514783173361,-0.0,0.29543328285217285,-1.545934025441305,0.0,-0.003356632310897112,0.7501367926597595,-0.0,-0.008309763856232166,0.8291615843772888,0.0,0.025059079751372337
402.0,440.0,0.8417,-0.2578,9.4409,-0.0373,0.0218,-0.1264,-1.679540296594137,0.0,2.5417256355285645,-1.889272928237915,-0.0,2.0027456283569336,4.97350691536025,-0.0,0.285451203584671,-1.5458977858172815,0.0,-0.019786061719059944,0.7501851320266724,-0.0,-0.009108984842896461,0.8291897773742676,0.0,0.019724585115909576
402.0,440.0,0.8417,-0.2578,9.4409,-0.0373,0.0218,-0.1264,-1.6795441112914027,0.0,2.497541666030884,-1.88930082321167,-0.0,1.99030339717865,4.973494964628973,-0.0,0.2867514491081238,-1.5459664503680628,0.0,-0.018087221309542656,0.7500962018966675,-0.0,-0.0025285996962338686,0.8291776776313782,0.0,0.002989038825035095
402.0,440.0,0.8417,-0.2578,9.4409,-0.0373,0.0218,-0.1264,-1.6796285114684046,0.0,2.5365400314331055,-1.8892885446548462,-0.0,2.013500452041626,4.973454522877493,-0.0,0.29028645157814026,-1.5459263960467737,0.0,-0.010326200164854527,0.7501003742218018,-0.0,0.0014636882115155458,0.8291816711425781,0.0,0.002212265506386757
402.0,440.0,0.8417,-0.2578,9.4409,-0.0373,0.0218,-0.1264,-1.67954744915151,0.0,2.5047056674957275,-1.88932466506958,-0.0,2.051406145095825,4.9734991667564294,-0.0,0.28474441170692444,-1.5459101835833948,0.0,-0.0067751151509583,0.7501688003540039,-0.0,-0.011679521761834621,0.8291615843772888,0.0,0.013273327611386776
402.0,440.0,0.8417,-0.2578,9.4409,-0.0373,0.0218,-0.1264,-1.679652830163473,0.0,2.485167980194092,-1.8893051147460938,-0.0,2.0141613483428955,4.97352288940505,-0.0,0.2867732644081116,-1.54592210451235,0.0,-0.00793435238301754,0.7501327395439148,-0.0,-0.00870036706328392,0.8291938900947571,0.0,0.02230369672179222
402.0,440.0,0.8417,-0.2578,9.4409,-0.0373,0.0218,-0.1264,-1.6796041927733363,0.0,2.4906563758850098,-1.8893131017684937,-0.0,2.004216194152832,4.973527031927862,-0.0,0.2940187454223633,-1.5458820501910608,0.0,-0.019751660525798798,0.7501487135887146,-0.0,-0.003991553094238043,0.8292178511619568,0.0,0.004980655387043953
402.0,440.0,0.8417,-0.2578,9.4409,-0.0373,0.0218,-0.1264,-1.6795760593810023,0.0,2.4986226558685303,-1.8893173933029175,-0.0,2.057748317718506,4.973475026875295,-0.0,0.2859672009944916,-1.5459302107440394,0.0,-0.023064281791448593,0.7501647472381592,-0.0,0.005394438281655312,0.8291537165641785,0.0,-0.015338776633143425
402.0,440.0,0.8417,-0.2578,9.4409,-0.0373,0.0218,-0.1264,-1.67958464244985,0.0,2.4470412731170654,-1.889325499534607,-0.0,1.988645315170288,4.973494994431295,-0.0,0.29141440987586975,-1.5459020773517054,0.0,0.0023881173692643642,0.7500880360603333,-0.0,0.0017354637384414673,0.8291816711425781,0.0,0.018623070791363716
402.0,440.0,0.8417,-0.2578,9.4409,-0.0373,0.0218,-0.1264,-1.6795879803099574,0.0,2.5146055221557617,-1.8893048763275146,-0.0,2.0637383460998535,4.973555254727163,-0.0,0.27936285734176636,-1.545905892048971,0.0,-0.009298358112573624,0.7501404285430908,-0.0,0.007075510453432798,0.8291977643966675,0.0,-0.025004787370562553
402.0,440.0,0.8417,-0.2578,9.4409,-0.0373,0.0218,-0.1264,-1.6795803509154261,0.0,2.4794139862060547,-1.8893409967422485,-0.0,2.003030300140381,4.9735270021255396,-0.0,0.2983160614967346,-1.545917812977926,0.0,-0.01053170207887888,0.7501285076141357,-0.0,0.004042609129101038,0.8291416764259338,0.0,0.021674588322639465
400.0,415.0,0.786,-0.2913,9.5384,-0.0315,0.025,-0.1217,-1.6796003780760707,0.0,2.4833498001098633,-1.8893369436264038,-0.0,2.0291287899017334,4.973482835083761,-0.0,0.29229262471199036,-1.545905892048971,0.0,-0.006310375407338142,0.7500761151313782,-0.0,-0.03127288073301315,0.8291857242584229,0.0,0.039645738899707794
400.0,415.0,0.786,-0.2913,9.5384,-0.0315,0.025,-0.1217,-1.679596563378805,0.0,2.4862446784973145,-1.889264702796936,-0.0,2.0704452991485596,4.973518836289205,-0.0,0.2927544116973877,-1.5459101835833948,0.0,-0.013087200000882149,0.7501367926597595,-0.0,-0.005905924364924431,0.8292140364646912,0.0,-0.026329772546887398
400.0,415.0,0.786,-0.2913,9.5384,-0.0315,0.025,-0.1217,-1.6796003780760707,0.0,2.488482713699341,-1.8892853260040283,-0.0,2.0115318298339844,4.973510998278417,-0.0,0.29632818698883057,-1.5458701292621058,0.0,-0.010435124859213829,0.7501523494720459,-0.0,0.0021327189169824123,0.8291696310043335,0.0,0.012542765587568283
400.0,415.0,0.786,-0.2913,9.5384,-0.0315,0.025,-0.1217,-1.67958464244985,0.0,2.4598488807678223,-1.8892573118209839,-0.0,2.0205795764923096,4.973510581045904,-0.0,0.29512864351272583,-1.5459383169757288,0.0,-0.009182080626487732,0.7501606345176697,-0.0,-0.006914859637618065,0.8291497230529785,0.0,0.008905606344342232
400.0,415.0,0.786,-0.2913,9.5384,-0.0315,0.025,-0.1217,-1.679563661614889,0.0,2.509053945541382,-1.889349341392517,-0.0,2.018855094909668,4.973478692560949,-0.0,0.29534780979156494,-1.5459101835833948,0.0,0.001607741927728057,0.7501445412635803,-0.0,-0.010402153246104717,0.8291496634483337,0.0,-0.006052553653717041
400.0,415.0,0.786,-0.2913,9.5384,-0.0315,0.025,-0.1217,-1.6795078716673792,0.0,2.4495415687561035,-1.8893132209777832,-0.0,2.008352279663086,4.973543035774984,-0.0,0.29035088419914246,-1.545905892048971,0.0,-0.008258514106273651,0.7501768469810486,-0.0,-0.006567126605659723,0.8291217684745789,0.0,0.005288798362016678
400.0,415.0,0.786,-0.2913,9.5384,-0.0315,0.025,-0.1217,-1.6795484028258265,0.0,2.5054097175598145,-1.8892853260040283,-0.0,2.0296518802642822,4.973482715874471,-0.0,0.28090476989746094,-1.5459101835833948,0.0,-0.008464599959552288,0.7501285076141357,-0.0,0.002336083445698023,0.8291857242584229,0.0,-0.04588693007826805
400.0,415.0,0.786,-0.2913,9.5384,-0.0315,0.025,-0.1217,-1.6795646152892054,0.0,2.483691692352295,-1.889349341392517,-0.0,2.006838083267212,4.973486828594961,-0.0,0.28820377588272095,-1.5459540526019495,0.0,-0.01124894991517067,0.7501248717308044,-0.0,-0.007357480935752392,0.8291857242584229,0.0,-0.02334590069949627
400.0,415.0,0.786,-0.2913,9.5384,-0.0315,0.025,-0.1217,-1.679556509057516,0.0,2.5351903438568115,-1.8892974853515625,-0.0,2.045424461364746,4.973522919207372,-0.0,0.29630035161972046,-1.5458701292621058,0.0,-0.009222104214131832,0.7501605749130249,-0.0,0.003216919954866171,0.8292099237442017,0.0,0.033201202750205994
400.0,415.0,0.786,-0.2913,9.5384,-0.0315,0.025,-0.1217,-1.679563661614889,0.0,2.451613426208496,-1.889264702796936,-0.0,2.0211806297302246,4.973555254727163,-0.0,0.28543001413345337,-1.545934025441305,0.0,-0.007348896004259586,0.7501445412635803,-0.0,0.00028629833832383156,0.8291937708854675,0.0,-0.03394671157002449
400.0,415.0,0.786,-0.2913,9.5384,-0.0315,0.025,-0.1217,-1.6795760593810023,0.0,2.485459804534912,-1.8893016576766968,-0.0,2.037557601928711,4.9735187766845605,-0.0,0.30156394839286804,-1.5459421316729944,0.0,-0.002433227375149727,0.7500962018966675,-0.0,-0.003113547572866082,0.8291736245155334,0.0,-0.011840589344501495
400.0,415.0,0.786,-0.2913,9.5384,-0.0315,0.025,-0.1217,-1.6795722446837367,0.0,2.4850549697875977,-1.88930082321167,-0.0,2.045626163482666,4.973514753371038,-0.0,0.29180893301963806,-1.5458701292621058,0.0,-0.025204766541719437,0.7501084208488464,-0.0,0.018344102427363396,0.8291456699371338,0.0,-0.020668236538767815
400.0,415.0,0.786,-0.2913,9.5384,-0.0315,0.025,-0.1217,-1.6795960865416468,2.0055521687822875e-08,2.5365819931030273,-1.8893295526504517,-0.0,2.0455987453460693,4.973559367447653,-0.0,0.2911131978034973,-1.545889679585592,0.0,-0.010786110535264015,0.750092089176178,-0.0,-0.005444830283522606,0.8291776180267334,0.0,0.05308583378791809
407.0,421.0,0.7765,-0.204,9.6281,-0.0457,0.0215,-0.118,-1.6795922718443812,4.8431717620742165e-14,2.451148271560669,-1.8892967700958252,-0.0,2.017075538635254,4.973502832442083,-0.0,0.2924862504005432,-1.5459101835833948,0.0,-0.021963555365800858,0.7501043677330017,-0.0,-0.00634810421615839,0.8291615843772888,0.0,0.04639860615134239
407.0,421.0,0.7765,-0.204,9.6281,-0.0457,0.0215,-0.118,-1.6795884571471156,1.1695690211585668e-19,2.5044472217559814,-1.889264702796936,-0.0,2.0430681705474854,4.973494994431295,-0.0,0.28930896520614624,-1.5459302107440394,0.0,-0.0063402848318219185,0.7501125335693359,-0.0,0.010929616168141365,0.8291456699371338,0.0,0.013805397786200047
407.0,421.0,0.7765,-0.204,9.6281,-0.0457,0.0215,-0.118,-1.6795679531493128,3.7892544544442536e-27,2.469989061355591,-1.8893533945083618,-0.0,2.050210952758789,4.973486828594961,-0.0,0.28530484437942505,-1.5459702650653284,0.0,-0.006056264974176884,0.7501687407493591,-0.0,-0.003018766175955534,0.8291655778884888,0.0,0.009620476514101028
407.0,421.0,0.7765,-0.204,9.6281,-0.0457,0.0215,-0.118,-1.6795598469176234,9.150601978513511e-33,2.458983898162842,-1.8892532587051392,-0.0,1.99580717086792,4.973454463272848,-0.0,0.2783084213733673,-1.5459144751178187,0.0,-0.01386595144867897,0.7501044273376465,-0.0,0.003732807468622923,0.8291376829147339,0.0,0.04220472276210785
407.0,421.0,0.7765,-0.204,9.6281,-0.0457,0.0215,-0.118,-1.6795679531493128,2.9646851220180857e-40,2.4715592861175537,-1.889357566833496,-0.0,2.0356099605560303,4.973494994431295,-0.0,0.29157817363739014,-1.5458934942828577,0.0,-0.013608715496957302,0.7501528263092041,-0.0,0.0013801318127661943,0.8291736841201782,0.0,0.009129091165959835
407.0,421.0,0.7765,-0.204,9.6281,-0.0457,0.0215,-0.118,-1.6796046696104945,1.401298464324817e-45,2.507051944732666,-1.8893126249313354,-0.0,1.9979138374328613,4.9734704969222925,-0.0,0.2845743000507355,-1.545865837727682,0.0,-0.008705494925379753,0.7500962018966675,-0.0,-0.004932541865855455,0.8291897773742676,0.0,0.017620310187339783
407.0,421.0,0.7765,-0.204,9.6281,-0.0457,0.0215,-0.118,-1.6796165905394496,0.0,2.5060412883758545,-1.8893173933029175,-0.0,2.009949207305908,4.973499196558752,-0.0,0.2978501319885254,-1.5459421316729944,0.0,-0.019700298085808754,0.7501445412635803,-0.0,-0.011677811853587627,0.8292099833488464,0.0,0.06884242594242096
407.0,421.0,0.7765,-0.204,9.6281,-0.0457,0.0215,-0.118,-1.6795760593810023,0.0,2.5041866302490234,-1.8892967700958252,-0.0,2.036888599395752,4.9735270021255396,-0.0,0.2763499915599823,-1.5458739439593714,0.0,-0.016531553119421005,0.7500884532928467,-0.0,0.006849181838333607,0.8291537761688232,0.0,0.02707691863179207
407.0,421.0,0.7765,-0.204,9.6281,-0.0457,0.0215,-0.118,-1.679556509057516,0.0,2.502020835876465,-1.889289379119873,-0.0,2.0279839038848877,4.973515140801229,-0.0,0.28064224123954773,-1.5459383169757288,0.0,-0.01785263977944851,0.7500397562980652,-0.0,-0.005476301070302725,0.8291857242584229,0.0,0.005402926821261644
407.0,421.0,0.7765,-0.204,9.6281,-0.0457,0.0215,-0.118,-1.6796285114684046,0.0,2.4722352027893066,-1.889309048652649,-0.0,2.0341274738311768,4.97350691536025,-0.0,0.29866790771484375,-1.545934025441305,0.0,-0.02327786013484001,0.7501363754272461,-0.0,0.005800948943942785,0.8292019963264465,0.0,-0.00824742391705513
407.0,421.0,0.7765,-0.204,9.6281,-0.0457,0.0215,-0.118,-1.6795722446837367,0.0,2.5197880268096924,-1.8893773555755615,-0.0,2.0190603733062744,4.973518836289205,-0.0,0.2953130602836609,-1.5459416548358362,0.0,-0.01267295889556408,0.7501568794250488,-0.0,0.0021994407288730145,0.8292058110237122,0.0,-0.019131116569042206
407.0,421.0,0.7765,-0.204,9.6281,-0.0457,0.0215,-0.118,-1.6795679531493128,0.0,2.429959774017334,-1.8893132209777832,-0.0,2.0086960792541504,4.973538923054495,-0.0,0.29936787486076355,-1.5459578672992151,0.0,-0.01873001642525196,0.7501445412635803,-0.0,-0.002422656398266554,0.8292019367218018,0.0,-0.007825062610208988
407.0,421.0,0.7765,-0.204,9.6281,-0.0457,0.0215,-0.118,-1.6795441112914027,0.0,2.4903643131256104,-1.8892451524734497,-0.0,2.033461570739746,4.973514753371038,-0.0,0.2837269604206085,-1.545893971120016,0.0,-0.005020190961658955,0.7500560879707336,-0.0,0.005213729105889797,0.8292537927627563,0.0,0.019980426877737045
414.0,424.0,0.8961,-0.0778,9.524,-0.0304,0.0189,-0.1148,-1.6795927486815394,3.7587476981570944e-05,2.4812893867492676,-1.8892688751220703,-0.0,1.9930882453918457,4.973514753371038,-0.0,0.2816568613052368,-1.5459898153888147,0.0,-0.017092226073145866,0.7501688003540039,-0.0,0.009630599990487099,0.8292258381843567,0.0003134477010462433,0.001537601463496685
414.0,424.0,0.8961,-0.0778,9.524,-0.0304,0.0189,-0.1148,-1.6796003780760707,3.469190050964244e-05,2.5015857219696045,-1.8892853260040283,-0.0,2.00097393989563,4.973542916565695,-0.0,0.27882182598114014,-1.5459497610675257,0.0,-0.019791170954704285,0.7501487135887146,-0.0,0.0012557089794427156,0.8292258977890015,0.00041381604387424886,0.03708489239215851
414.0,424.0,0.8961,-0.0778,9.524,-0.0304,0.0189,-0.1148,-1.6795932255186976,3.279565862612799e-05,2.5292890071868896,-1.8893365859985352,-0.0,1.9675673246383667,4.973567145853796,-0.0,0.2795741558074951,-1.5459540526019495,0.0,-0.013950804248452187,0.7501125335693359,-0.0,-0.016998454928398132,0.8292258977890015,0.0007947328267619014,0.03740749508142471
414.0,424.0,0.8961,-0.0778,9.524,-0.0304,0.0189,-0.1148,-1.6795803509154261,3.1096013117348775e-05,2.4924066066741943,-1.889312744140625,-0.0,2.0330991744995117,4.973518836289205,-0.0,0.2909129858016968,-1.5460179487811487,0.0,-0.017292868345975876,0.750092089176178,-0.0,0.00764432642608881,0.8292539119720459,0.0014214577386155725,0.02013321965932846
414.0,424.0,0.8961,-0.0778,9.524,-0.0304,0.0189,-0.1148,-1.6795441112914027,2.90861298708478e-05,2.5353074073791504,-1.8893132209777832,-0.0,1.9986317157745361,4.9735348401363275,-0.0,0.29560387134552,-1.5459373633014124,0.0,-0.022923052310943604,0.7501167058944702,-0.0,-0.031753119081258774,0.8292859196662903,0.00539095513522625,0.03806501626968384
414.0,424.0,0.8961,-0.0778,9.524,-0.0304,0.0189,-0.1148,-1.6795522175230921,2.7741323719965294e-05,2.4826478958129883,-1.889321208000183,-0.0,2.020047664642334,4.973498749523916,-0.0,0.28100213408470154,-1.5460217634784144,0.0,-0.014201173558831215,0.7501367926597595,-0.0,0.005227584391832352,0.8293256759643555,0.012515929527580738,0.009030613116919994
414.0,424.0,0.8961,-0.0778,9.524,-0.0304,0.0189,-0.1148,-1.679556509057516,2.6130477635888383e-05,2.5425877571105957,-1.8892934322357178,-0.0,2.020880699157715,4.97351102808074,-0.0,0.2914832830429077,-1.5459936300860804,0.0,-0.017944134771823883,0.7500761151313782,-0.0,-0.0073518576100468636,0.8294100165367126,0.012388095259666443,-0.004751872271299362
414.0,424.0,0.8961,-0.0778,9.524,-0.0304,0.0189,-0.1148,-1.6795278988280238,2.5039995307452045e-05,2.509366512298584,-1.889317274093628,-0.0,2.0217390060424805,4.973498749523916,-0.0,0.279090017080307,-1.5460341612445276,0.0,-0.02338075079023838,0.7501445412635803,-0.0,-0.005955174565315247,0.829494059085846,0.010543961077928543,0.010318582877516747
414.0,424.0,0.8961,-0.0778,9.524,-0.0304,0.0189,-0.1148,-1.6795550785460414,1.6122394299600273e-05,2.526362657546997,-1.8892968893051147,-0.0,2.058814525604248,4.97349505403594,-0.0,0.29709118604660034,-1.5459817091571253,0.0,-0.012240802869200706,0.7501564621925354,-0.0,0.01271191705018282,0.8295741081237793,0.00920394342392683,0.0016294163651764393
414.0,424.0,0.8961,-0.0778,9.524,-0.0304,0.0189,-0.1148,-1.679612775842184,1.550320405385719e-07,2.523552656173706,-1.8892650604248047,-0.0,2.016084671020508,4.973495024233618,-0.0,0.28655150532722473,-1.5460179487811487,0.0,-0.005743730813264847,0.7501002550125122,-0.0,-0.007204407826066017,0.8296343088150024,0.006954804062843323,0.0005211620591580868
414.0,424.0,0.8961,-0.0778,9.524,-0.0304,0.0189,-0.1148,-1.6795879803099574,3.7438411745749356e-13,2.5314557552337646,-1.8893331289291382,-0.0,2.0010299682617188,4.973482805281439,-0.0,0.28536003828048706,-1.5459654966937464,0.0,-0.019607828930020332,0.7501367926597595,-0.0,0.005598825868219137,0.8296822905540466,0.004255087114870548,-0.0488596186041832
414.0,424.0,0.8961,-0.0778,9.524,-0.0304,0.0189,-0.1148,-1.679591795007223,1.2129567283943759e-20,2.488546848297119,-1.8893613815307617,-0.0,2.00496244430542,4.973482715874471,-0.0,0.2882416844367981,-1.546030346547262,0.0,-0.017238179221749306,0.7501487135887146,-0.0,-0.009174455888569355,0.8296781778335571,0.0023829536512494087,-0.022673550993204117
414.0,424.0,0.8961,-0.0778,9.524,-0.0304,0.0189,-0.1148,-1.6796399555602015,2.9291480850137114e-26,2.5184552669525146,-1.8893285989761353,-0.0,1.9999263286590576,4.973482864886083,-0.0,0.2811020016670227,-1.5459254423724573,0.0,-0.013771359808743,0.7500921487808228,-0.0,-0.00306493416428566,0.8297061324119568,0.0012729039881378412,-0.037596896290779114
392.0,412.0,0.7214,-0.3117,9.3894,-0.0293,0.0089,-0.1026,-1.6796285114684046,7.073547835522272e-32,2.4844915866851807,-1.8893053531646729,-0.0,2.0148422718048096,4.973450827389517,-0.0,0.2867465019226074,-1.5459497610675257,0.0,-0.0153870340436697,0.7500880360603333,-0.0,0.00115128920879215,0.829674243927002,0.0004616408550646156,0.031829945743083954
392.0,412.0,0.7214,-0.3117,9.3894,-0.0293,0.0089,-0.1026,-1.6796041927733363,2.2917395604953788e-39,2.447415590286255,-1.8893455266952515,-0.0,1.9658043384552002,4.973478662758627,-0.0,0.2985556125640869,-1.5459860006915491,0.0,-0.014639873057603836,0.7500925064086914,-0.0,-0.00781826302409172,0.8296821713447571,-0.0003421013243496418,-0.003262491663917899
392.0,412.0,0.7214,-0.3117,9.3894,-0.0293,0.0089,-0.1026,-1.6796204052367152,5.605193857299268e-45,2.5293376445770264,-1.88930082321167,-0.0,2.039872646331787,4.973466861038961,-0.0,0.29391714930534363,-1.5459416548358362,-3.488872971502133e-05,-0.016286442056298256,0.7501207590103149,-0.0,-0.0014588700141757727,0.8296060562133789,-0.000747839396353811,0.015288694761693478
392.0,412.0,0.7214,-0.3117,9.3894,-0.0293,0.0089,-0.1026,-1.67960848430776,0.0,2.471369504928589,-1.8893285989761353,-0.0,2.0147619247436523,4.973490911513128,-0.0,0.29400983452796936,-1.5459860006915491,0.0002069733600364998,-0.022755438461899757,0.7500641942024231,-0.0,-0.014163543470203876,0.8296380639076233,-0.00046698417281731963,-8.195731788873672e-05
392.0,412.0,0.7214,-0.3117,9.3894,-0.0293,0.0089,-0.1026,-1.6796122990050257,0.0,2.4769325256347656,-1.8893449306488037,-0.0,2.037607192993164,4.97345860579566,-0.0,0.28647375106811523,-1.54594594637026,0.00012635735038202256,-0.022378068417310715,0.7501084804534912,-0.0,0.005888721905648708,0.8296782374382019,-0.0004899221239611506,-0.010640159249305725
392.0,412.0,0.7214,-0.3117,9.3894,-0.0293,0.0089,-0.1026,-1.6796561680235804,0.0,2.4522926807403564,-1.889297366142273,-0.0,2.0195250511169434,4.973494964628973,-0.0,0.28609442710876465,-1.5459297339068812,8.8853070337791e-05,-0.011619976721704006,0.7501003742218018,-0.0,-0.009851232171058655,0.8296982049942017,-0.00043053043191321194,-0.0029634018428623676
392.0,412.0,0.7214,-0.3117,9.3894,-0.0293,0.0089,-0.1026,-1.6795841656126917,0.0,2.496899127960205,-1.8893613815307617,-0.0,2.016979217529297,4.973482835083761,-0.0,0.27569401264190674,-1.5459378401385706,6.368014146573842e-05,-0.014965159818530083,0.7501167058944702,-0.0,0.010384744964540005,0.8296782374382019,-0.00042820608359761536,0.047414571046829224
392.0,412.0,0.7214,-0.3117,9.3894,-0.0293,0.0089,-0.1026,-1.6795922718443812,0.0,2.46097469329834,-1.8893330097198486,-0.0,2.030167818069458,4.973499136954107,-0.0,0.29256385564804077,-1.5459898153888147,5.252456321613863e-05,-0.005951897706836462,0.750108540058136,-0.0,0.007322947960346937,0.8296301364898682,-0.00036080722929909825,-0.01204724796116352
392.0,412.0,0.7214,-0.3117,9.3894,-0.0293,0.0089,-0.1026,-1.6796041927733363,0.0,2.499706745147705,-1.8893132209777832,-0.0,2.0073490142822266,4.9734991667564294,-0.0,0.2868192791938782,-1.5459659735309046,4.258073022356257e-05,-0.014998311176896095,0.7501003742218018,-0.0,-0.008472155779600143,0.8296301364898682,-0.0002935518277809024,-0.009809551760554314
392.0,412.0,0.7214,-0.3117,9.3894,-0.0293,0.0089,-0.1026,-1.6795879803099574,0.0,2.4777328968048096,-1.889309287071228,-0.0,2.039252758026123,4.973475056677618,-0.0,0.28594765067100525,-1.545962158833639,3.728706360561773e-05,-0.013266247697174549,0.7501003742218018,-0.0,-0.01208275742828846,0.8296460509300232,-0.00025754794478416443,-0.018623489886522293
392.0,412.0,0.7214,-0.3117,9.3894,-0.0293,0.0089,-0.1026,-1.6795760593810023,0.0,2.479128122329712,-1.8893409967422485,-0.0,2.00313401222229,4.973499136954107,-0.0,0.2928406000137329,-1.5459297339068812,3.316433139843866e-05,0.0017314580036327243,0.7501568794250488,-0.0,-0.012331684119999409,0.8296141028404236,-0.00022941130737308413,0.02343764528632164
392.0,412.0,0.7214,-0.3117,9.3894,-0.0293,0.0089,-0.1026,-1.6796204052367152,0.0,2.498067617416382,-1.889309287071228,-0.0,2.013096809387207,4.973454910307684,-0.0,0.27206340432167053,-1.545917812977926,2.890348514483776e-05,-0.01567891053855419,0.7501564621925354,-0.0,-0.012264512479305267,0.8296500444412231,-0.0002002434484893456,-0.0325196348130703
392.0,412.0,0.7214,-0.3117,9.3894,-0.0293,0.0089,-0.1026,-1.679596563378805,0.0,2.478755235671997,-1.8893409967422485,-0.0,2.0234591960906982,4.9734549699123285,-0.0,0.29308682680130005,-1.5459702650653284,2.6363284632680006e-05,-0.019108302891254425,0.750124454498291,-0.0,0.008118703030049801,0.8296661376953125,-0.0001828111708164215,0.013024995103478432
399.0,397.0,0.7908,-0.2495,9.3667,-0.0483,0.0333,-0.1234,-1.6796285114684046,0.0,2.441164493560791,-1.8893409967422485,-0.0,2.0106916427612305,4.973454940110006,-0.0,0.29271456599235535,-1.546014134083883,2.359806421736721e-05,-0.014529956504702568,0.7501688003540039,-0.0,-0.010303343646228313,0.8296180963516235,-0.00016379902081098408,0.0013003731146454811
399.0,397.0,0.7908,-0.2495,9.3667,-0.0483,0.0333,-0.1234,-1.6796204052367152,0.0,2.478085517883301,-1.889389157295227,-0.0,2.007115364074707,4.973450886994161,-0.0,0.2880580723285675,-1.5459778944598597,2.1877109247725457e-05,-0.008791392669081688,0.7501003742218018,-0.0,0.00025997497141361237,0.8296621441841125,-5.6109489378286526e-05,0.029484234750270844
399.0,397.0,0.7908,-0.2495,9.3667,-0.0483,0.0333,-0.1234,-1.6795841656126917,0.0,2.4834771156311035,-1.889320731163025,-0.0,2.029632806777954,4.973491000920095,1.7906720550797672e-09,0.2892659306526184,-1.5459297339068812,2.0390145436977036e-05,-0.012401506304740906,0.750076174736023,-0.0,0.0017985193990170956,0.8296420574188232,-5.131041325512342e-05,-0.009140130132436752
399.0,397.0,0.7908,-0.2495,9.3667,-0.0483,0.0333,-0.1234,-1.6795960865416468,0.0,2.5036158561706543,-1.8893013000488281,-0.0,2.0238804817199707,4.973486977606573,3.25445847029239e-14,0.2926657497882843,-1.5459583441363733,3.7069628888275474e-05,-0.016252774745225906,0.7501125335693359,-0.0,-0.007248464971780777,0.8296221494674683,-6.877077976241708e-05,0.029084527865052223
399.0,397.0,0.7908,-0.2495,9.3667,-0.0483,0.0333,-0.1234,-1.6796399555602015,0.0,2.4583168029785156,-1.889320731163025,-0.0,2.0536489486694336,4.973470914154806,9.058904047140822e-18,0.3010573387145996,-1.5459659735309046,3.5197928809793666e-05,-0.021306470036506653,0.7500921487808228,-0.0,-0.006201787386089563,0.8296301364898682,-6.416244286810979e-05,-0.03766997903585434
399.0,397.0,0.7908,-0.2495,9.3667,-0.0483,0.0333,-0.1234,-1.6795879803099574,0.0,2.4610750675201416,-1.8892848491668701,-0.0,2.04702091217041,4.9734791097934625,1.6464112742298552e-22,0.2894785404205322,-1.5459502379046839,3.264455881435424e-05,-0.015112827531993389,0.750124454498291,-0.0,-0.008692256174981594,0.8295901417732239,-7.81238341005519e-05,0.043295398354530334
399.0,397.0,0.7908,-0.2495,9.3667,-0.0483,0.0333,-0.1234,-1.6795999012389125,0.0,2.4508907794952393,-1.889397144317627,-0.0,2.0026931762695312,4.973470914154806,4.5828464450922515e-26,0.284853994846344,-1.5459502379046839,3.096007276326418e-05,-0.01101408340036869,0.7501207590103149,-0.0,0.008716880343854427,0.8296661376953125,-7.334865949815139e-05,-0.003413277678191662
399.0,397.0,0.7908,-0.2495,9.3667,-0.0483,0.0333,-0.1234,-1.6795999012389125,-2.5978741177823395e-05,2.48991322517395,-1.889309287071228,-0.0,1.9729154109954834,4.9734389064605615,1.275652036653592e-29,0.29514825344085693,-1.54594594637026,2.944089465017896e-05,-0.010806739330291748,0.7500880360603333,-0.0,-0.005412166938185692,0.8296220898628235,-6.912359094712883e-05,0.02913771942257881
399.0,397.0,0.7908,-0.2495,9.3667,-0.0483,0.0333,-0.1234,-1.679619928399557,-4.302334855310619e-05,2.495715618133545,-1.8893574476242065,-2.2735206584911793e-05,2.0161454677581787,4.973478662758627,2.31843462537775e-34,0.27615615725517273,-1.5459979216205042,2.7633028366835788e-05,-0.024150937795639038,0.7501686215400696,-0.0,0.008876347914338112,0.8295982480049133,-4.878623076365329e-05,0.0016196374781429768
399.0,397.0,0.7908,-0.2495,9.3667,-0.0483,0.0333,-0.1234,-1.6795922718443812,-4.139861630392261e-05,2.5079269409179688,-1.8893576860427856,-2.1905183530179784e-05,2.032482624053955,4.973494994431295,6.453447461902867e-38,0.29209598898887634,-1.5459659735309046,2.6416413675178774e-05,-0.019903093576431274,0.750124454498291,-0.0,0.0068873935379087925,0.8296661376953125,-4.570033706841059e-05,0.0005868799053132534
399.0,397.0,0.7908,-0.2495,9.3667,-0.0483,0.0333,-0.1234,-1.6795760593810023,-1.0135506272490602e-05,2.5047197341918945,-1.8892966508865356,-1.0585963536868803e-05,2.046048164367676,4.973478662758627,1.1728868146398719e-42,0.2936074137687683,-1.545974079762594,2.4951657906058244e-05,-0.010951575823128223,0.7501363754272461,-0.0,0.005160391330718994,0.8296420574188232,-4.2802483221748844e-05,0.015107878483831882
399.0,397.0,0.7908,-0.2495,9.3667,-0.0483,0.0333,-0.1234,-1.6796041927733363,-2.4476058332889572e-11,2.4964487552642822,-1.8893287181854248,-1.0092836419062223e-05,2.0261566638946533,4.973522978812017,0.0,0.28494951128959656,-1.5459378401385706,2.3955455617397092e-05,-0.019196320325136185,0.7501687407493591,-0.0,-0.0007472413708455861,0.8296381235122681,-4.085928958375007e-05,0.03362505882978439
399.0,397.0,0.7908,-0.2495,9.3667,-0.0483,0.0333,-0.1234,-1.6796242199339808,6.295429193414748e-05,2.47526478767395,-1.8892968893051147,-1.5424705068767253e-08,2.0274033546447754,4.973526972323217,0.0,0.2835842967033386,-1.5459578672992151,2.303573455719743e-05,-0.015528053976595402,0.7501080632209778,-0.0,-0.0008463091216981411,0.8296500444412231,-3.908489816240035e-05,0.03127068281173706
399.0,397.0,0.7908,-0.2495,9.3667,-0.0483,0.0333,-0.1234,-1.679556509057516,8.562537550460547e-05,2.4843811988830566,-1.889237403869629,-4.997407567923278e-16,2.020146369934082,4.973470526724615,0.0,0.28512677550315857,-1.5459578672992151,1.132419583882438e-05,-0.006915405858308077,0.7501806616783142,-0.0,0.019668160006403923,0.8296021819114685,-3.694565748446621e-05,0.002056955825537443
407.0,394.0,1.072,-0.7376,9.4899,-0.0527,0.0214,-0.1115,-1.6795760593810023,7.493110751966015e-05,2.473334789276123,-1.889289379119873,-1.2068152152687572e-21,2.028043031692505,4.973495024233618,0.0,0.28011298179626465,-1.5459578672992151,1.0570998711045831e-05,-0.0218910314142704,0.7502126693725586,-0.0,0.0077751497738063335,0.8296380639076233,-3.548883614712395e-05,0.0232667475938797
407.0,394.0,1.072,-0.7376,9.4899,-0.0527,0.0214,-0.1115,-1.6796046696104945,9.505105845164508e-05,2.5337979793548584,-1.8892967700958252,-3.9099275793774083e-29,1.99599289894104,4.973502832442083,0.0,0.29870492219924927,-1.5459254423724573,1.0099266546603758e-05,-0.015868278220295906,0.7501806616783142,-0.0,0.019002661108970642,0.8296340107917786,-3.371622005943209e-05,-0.012950158677995205
407.0,394.0,1.072,-0.7376,9.4899,-0.0527,0.0214,-0.1115,-1.6795479259886683,0.00011262986663496122,2.4731063842773438,-1.8892769813537598,0.0005865293205715716,2.014406681060791,4.973518866091528,0.0,0.29133689403533936,-1.5459097067462366,1.6566325200528809e-07,-0.01112380065023899,0.7501400113105774,0.000270356162218377,0.02204938605427742,0.8295981287956238,-3.249878136557527e-05,0.018757104873657227
407.0,394.0,1.072,-0.7376,9.4899,-0.0527,0.0214,-0.1115,-1.6795598469176234,0.00010581259266473353,2.523442268371582,-1.8892333507537842,0.0004319070721976459,1.9774221181869507,4.973518836289205,0.0,0.29736241698265076,-1.545962158833639,4.6112984958268655e-11,-7.883179932832718e-06,0.7502166628837585,0.0002758441842161119,0.025291696190834045,0.8296540975570679,-3.136615123366937e-05,0.0032311324030160904
407.0,394.0,1.072,-0.7376,9.4899,-0.0527,0.0214,-0.1115,-1.6795398197569789,0.00011835136683657765,2.5041422843933105,-1.889272928237915,0.00037446926580742,2.002764940261841,4.973527031927862,0.0,0.287097692489624,-1.545934025441305,8.380807089743288e-16,-0.01985441893339157,0.7502166032791138,0.0005525783635675907,0.05541658401489258,0.8296261429786682,-2.997338197019417e-05,0.059263113886117935
407.0,394.0,1.072,-0.7376,9.4899,-0.0527,0.0214,-0.1115,-1.679563661614889,8.776909089647233e-05,2.546987533569336,-1.8892571926116943,0.00030997477006167173,2.0321662425994873,4.97352288940505,0.0,0.28353554010391235,-1.545934025441305,2.332828463700944e-19,-0.006207720376551151,0.7502003312110901,0.0005678851157426834,0.03837612271308899,0.8296181559562683,-6.214578296415141e-10,0.04006213694810867
407.0,394.0,1.072,-0.7376,9.4899,-0.0527,0.0214,-0.1115,-1.6796122990050257,3.558639218681492e-05,2.493628978729248,-1.8892852067947388,0.0002520864945836365,1.9932701587677002,4.973495024233618,0.0,0.3069477677345276,-1.5459297339068812,4.2398011715786296e-24,-0.019284404814243317,0.7502161860466003,0.000639214355032891,0.05079931765794754,0.8296661376953125,-2.013444299482265e-17,-0.006709241308271885
407.0,394.0,1.072,-0.7376,9.4899,-0.0527,0.0214,-0.1115,-1.6795760593810023,5.542995840102094e-09,2.5048716068267822,-1.8892576694488525,0.00018426553288009018,2.0441231727600098,4.97352288940505,0.0,0.2937360405921936,-1.5459101835833948,1.1801642253808162e-27,-0.02696463093161583,0.7502042055130005,0.0006336839869618416,0.05837833881378174,0.8296261429786682,-4.862231595118005e-23,0.05456246808171272
407.0,394.0,1.072,-0.7376,9.4899,-0.0527,0.0214,-0.1115,-1.6796280346312464,1.3385683688316337e-14,2.5172441005706787,-1.8893086910247803,0.0001641044218558818,2.0223312377929688,4.973543005972662,0.0,0.3042025864124298,-1.545889679585592,3.2850304002373404e-31,-0.02525230124592781,0.7502880692481995,0.0006120844045653939,0.06408701837062836,0.8296460509300232,1.2193966540507972e-05,0.014474176801741123
407.0,394.0,1.072,-0.7376,9.4899,-0.0527,0.0214,-0.1115,-1.6796518764891566,-0.0003854894603136927,2.4984378814697266,-1.8892691135406494,0.00014321337221190333,2.079162120819092,4.973522919207372,0.0,0.31094202399253845,-1.545905892048971,5.9703802188983684e-36,-0.01796281710267067,0.750244140625,0.000623927975539118,0.090229332447052,0.8296180963516235,2.31374961003894e-05,0.09401653707027435
407.0,394.0,1.072,-0.7376,9.4899,-0.0527,0.0214,-0.1115,-1.6796680889525355,-0.0007040136842988431,2.4996230602264404,-1.8892933130264282,0.00015687750419601798,2.068774700164795,4.97350691536025,0.0,0.3009195923805237,-1.5458977858172815,1.6618769202583384e-39,-0.034674786031246185,0.7502838969230652,0.0006788428872823715,0.08740551769733429,0.8296141028404236,3.3417407394154e-05,0.0556483268737793
407.0,394.0,1.072,-0.7376,9.4899,-0.0527,0.0214,-0.1115,-1.6796351871886195,-0.0007242494029924273,2.4720444679260254,-1.8892810344696045,0.00014399555220734328,2.047947406768799,4.973550814181127,0.0,0.30902203917503357,-1.5458782354937952,3.0828566215145976e-44,-0.023912690579891205,0.7503159642219543,0.0008458793163299561,0.08909324556589127,0.8296621441841125,0.00040828128112480044,0.0634484514594078
407.0,394.0,1.072,-0.7376,9.4899,-0.0527,0.0214,-0.1115,-1.6796685657896937,-0.0006287776050157845,2.503142833709717,-1.8892532587051392,0.000181712704943493,2.0323705673217773,4.973530787020483,0.0,0.30859726667404175,-1.5458863417254847,0.0,-0.03413746505975723,0.7503241896629333,0.0010188792366534472,0.1103016585111618,0.8296540975570679,0.0003905024495907128,0.028818350285291672
393.0,411.0,0.5408,-0.402,9.9009,-0.0273,0.0229,-0.1093,-1.6796642742552699,-0.0007442617206834257,2.430441379547119,-1.8892407417297363,0.0009226003894582391,2.020585775375366,4.973502832442083,0.0,0.3179786205291748,-1.5458944479571741,1.5186202517725178e-08,-0.025454724207520485,0.7503482699394226,0.002283517736941576,0.12267215549945831,0.8297261595726013,0.0003576204180717468,0.03156391531229019
393.0,411.0,0.5408,-0.402,9.9009,-0.0273,0.0229,-0.1093,-1.6797086201109828,-0.0016191316535696387,2.4663751125335693,-1.8891767263412476,0.001666193245910108,2.057426929473877,4.973490971117773,0.0,0.31893038749694824,-1.5458820501910608,0.0001402354973834008,-0.0318392813205719,0.7503880858421326,0.008551443926990032,0.13426190614700317,0.8296581506729126,0.00026256596902385354,0.050975214689970016
393.0,411.0,0.5408,-0.402,9.9009,-0.0273,0.0229,-0.1093,-1.679716249505514,-0.0021275095641613007,2.4125659465789795,-1.8891816139221191,0.002328620059415698,2.0053088665008545,4.973514723568716,0.0,0.30279451608657837,-1.5458906332599085,0.00019083246297668666,-0.020864393562078476,0.7504194974899292,0.016333987936377525,0.13482962548732758,0.8296701312065125,0.0001124316404457204,0.00292923953384161
393.0,411.0,0.5408,-0.402,9.9009,-0.0273,0.0229,-0.1093,-1.6797195873656214,-0.0051735867746174335,2.427135467529297,-1.889193058013916,0.003921671770513058,2.068030834197998,4.97345860579566,0.0,0.3024293780326843,-1.5458620230304163,0.00020095340732950717,-0.031032346189022064,0.7505635023117065,0.014893521554768085,0.1429392397403717,0.8296580910682678,6.32526848676207e-07,0.041616421192884445
393.0,411.0,0.5408,-0.402,9.9009,-0.0273,0.0229,-0.1093,-1.6797720394530238,-0.006746798288077116,2.3889784812927246,-1.8891329765319824,0.005129392724484205,2.084618330001831,4.973474609642782,0.0,0.2971770763397217,-1.5458338896380823,0.00019097342737950385,-0.013347011059522629,0.7506236433982849,0.009966670535504818,0.14211231470108032,0.8295658826828003,1.5274779054455512e-12,0.06026022136211395
393.0,411.0,0.5408,-0.402,9.9009,-0.0273,0.0229,-0.1093,-1.679807802239889,-0.007722663227468729,2.394667148590088,-1.8891164064407349,0.006024995818734169,2.0211639404296875,4.973502832442083,0.0,0.30092722177505493,-1.5459182898150843,0.00018524297047406435,-0.009162460453808308,0.7506591081619263,0.004590083844959736,0.1338241696357727,0.8295941352844238,3.688678765601606e-18,0.03234489634633064
393.0,411.0,0.5408,-0.402,9.9009,-0.0273,0.0229,-0.1093,-1.6799003086485804,-0.009018482640385628,2.3973894119262695,-1.889060616493225,0.005614275578409433,2.0714311599731445,4.973490911513128,0.0,0.29785072803497314,-1.5458906332599085,0.00015362164413090795,-0.0183505080640316,0.7506030797958374,0.0012244360987097025,0.135111004114151,0.8296061754226685,-0.0006674279575236142,-0.01725800521671772
393.0,411.0,0.5408,-0.402,9.9009,-0.0273,0.0229,-0.1093,-1.6799150906004847,-0.00946369580924511,2.4458255767822266,-1.8890169858932495,0.004462753422558308,2.064661741256714,4.973474609642782,0.0,0.28995978832244873,-1.5458501021014612,0.00018334119522478431,-0.022123154252767563,0.7506674528121948,0.0007271002978086472,0.13832111656665802,0.8296301364898682,-0.0005939717520959675,-0.0161669310182333
393.0,411.0,0.5408,-0.402,9.9009,-0.0273,0.0229,-0.1093,-1.6800724468626917,-0.01216082088649273,2.3358936309814453,-1.889033555984497,0.0024094004184007645,2.07287335395813,4.97351102808074,0.0,0.29406842589378357,-1.5459020773517054,0.00016297315596602857,-0.012297388166189194,0.7506628632545471,0.0006187530816532671,0.14066873490810394,0.8296261429786682,-0.0005413307226262987,-0.0008460935205221176
393.0,411.0,0.5408,-0.402,9.9009,-0.0273,0.0229,-0.1093,-1.6801520786681117,-0.013134649023413658,2.396425724029541,-1.8890376091003418,0.001471909461542964,2.0510592460632324,4.973531204252996,0.0,0.3039180040359497,-1.5458577314959925,0.00014700011524837464,-0.014548012055456638,0.7506952881813049,0.00045954372035339475,0.1441263109445572,0.8295899629592896,-0.0004775216511916369,-0.0016330359503626823
393.0,411.0,0.5408,-0.402,9.9009,-0.0273,0.0229,-0.1093,-1.6802393398680628,-0.014025711454451084,2.363161087036133,-1.8890013694763184,0.000633303658105433,2.0818052291870117,4.973490881710806,0.0,0.300012469291687,-1.5458696524249476,0.0001300103176617995,-0.011427091434597969,0.7507071495056152,0.001144859939813614,0.15846887230873108,0.8295660614967346,-0.000515765103045851,-0.0113687040284276
393.0,411.0,0.5408,-0.402,9.9009,-0.0273,0.0229,-0.1093,-1.68035950283193,-0.014592904597520828,2.3561995029449463,-1.8890167474746704,0.00040509135578759015,2.0447614192962646,4.973502832442083,2.0533725546556525e-05,0.2943180203437805,-1.5458257834063929,0.0001165409485111013,-0.022450853139162064,0.7507153153419495,0.0018483019666746259,0.14822976291179657,0.8295779824256897,-0.0005864087725058198,-0.027074692770838737
393.0,411.0,0.5408,-0.402,9.9009,-0.0273,0.0229,-0.1093,-1.6804396114745082,-0.014534602873027325,2.360872745513916,-1.8890008926391602,0.0003800651466008276,2.0597963333129883,4.973531144648351,2.197792855440639e-05,0.29054713249206543,-1.5458577314959925,0.00010813896369654685,-0.02440568059682846,0.750771164894104,0.0017487566219642758,0.15379934012889862,0.8295901417732239,-0.0009863099548965693,-0.054228901863098145
392.0,418.0,0.6891,-0.4074,9.4582,-0.0405,0.0101,-0.1257,-1.6805998287596644,-0.01495028380304575,2.360809087753296,-1.8890457153320312,0.00034785890602506697,2.0291290283203125,4.973490911513128,2.095510353683494e-05,0.30412811040878296,-1.5458820501910608,0.00011836367775686085,-0.019491080194711685,0.750723123550415,0.0015207089018076658,0.16124996542930603,0.8295700550079346,-0.001713611651211977,-0.03557838872075081
392.0,418.0,0.6891,-0.4074,9.4582,-0.0405,0.0101,-0.1257,-1.6807118854918421,-0.015606025233864784,2.3530678749084473,-1.8890128135681152,0.0003410581557545811,2.052187204360962,4.973454910307684,1.1442733921285253e-05,0.3011308014392853,-1.5458820501910608,0.0001110803714254871,-0.006020095199346542,0.7506911158561707,0.0015081354649737477,0.15314120054244995,0.8295220136642456,-0.0021011612843722105,-0.024360278621315956
392.0,418.0,0.6891,-0.4074,9.4582,-0.0405,0.0101,-0.1257,-1.6808072529234828,-0.016508974134922028,2.337226629257202,-1.8889811038970947,0.00023854324535932392,2.1069812774658203,4.973543035774984,1.6647210543396795e-07,0.2993319630622864,-1.5459182898150843,8.74861070769839e-05,-0.014516280964016914,0.7507268786430359,0.0016521740471944213,0.15545126795768738,0.8295421004295349,-0.0031992641743272543,-0.05337577313184738
392.0,418.0,0.6891,-0.4074,9.4582,-0.0405,0.0101,-0.1257,-1.6809030971922816,-0.017301363870501518,2.4015302658081055,-1.8890167474746704,0.00019625175627879798,2.041377544403076,4.973499136954107,3.0255479111646055e-12,0.30407828092575073,-1.545905892048971,8.091546624200419e-05,-0.014425737783312798,0.7507547736167908,0.002451229142025113,0.16066771745681763,0.8294939994812012,-0.005105171352624893,-0.046701088547706604
392.0,418.0,0.6891,-0.4074,9.4582,-0.0405,0.0101,-0.1257,-1.6810561619200648,-0.0180504247546196,2.3680853843688965,-1.8890376091003418,0.00020415395556483418,2.0896527767181396,4.973486918001928,8.421723016260407e-16,0.2986990809440613,-1.5458539167987269,7.677393296035007e-05,-0.01569950208067894,0.7507304549217224,0.0027234312146902084,0.15996123850345612,0.8294780254364014,-0.004295389633625746,0.008613262325525284
392.0,418.0,0.6891,-0.4074,9.4582,-0.0405,0.0101,-0.1257,-1.681178709069723,-0.017782393842935562,2.345341682434082,-1.8890252113342285,0.00024014331575017422,2.042668342590332,4.9734991667564294,1.5306064428563128e-20,0.30303990840911865,-1.5458906332599085,7.186927541624755e-05,-0.012228335253894329,0.7508429884910583,0.003780652303248644,0.15757295489311218,0.829461932182312,-0.001739446190185845,-0.05920948088169098
392.0,418.0,0.6891,-0.4074,9.4582,-0.0405,0.0101,-0.1257,-1.6812626324095667,-0.017305003479123116,2.393174171447754,-1.8890247344970703,0.0003596344031393528,2.066126823425293,4.973495113640585,4.2604993040098185e-24,0.30970194935798645,-1.5458820501910608,6.858325650682673e-05,-0.0066287936642766,0.7508264780044556,0.0048739053308963776,0.16109223663806915,0.8294579386711121,-0.0003539843892212957,-0.019278548657894135
392.0,418.0,0.6891,-0.4074,9.4582,-0.0405,0.0101,-0.1257,-1.681378027001852,-0.01630672626197338,2.3747527599334717,-1.8890093564987183,0.0007250313647091389,2.046811580657959,4.973459052830496,1.1859255485129533e-27,0.29148614406585693,-1.5458782354937952,6.558458699146286e-05,-0.006219814531505108,0.7508587837219238,0.005325901787728071,0.16182753443717957,0.8294699192047119,-3.9044298318913206e-05,0.015231380239129066
392.0,418.0,0.6891,-0.4074,9.4582,-0.0405,0.0101,-0.1257,-1.6815067730345667,-0.01589263789355755,2.378264904022217,-1.8889610767364502,0.000816645915620029,2.02032470703125,4.973467248469152,2.1553613154759975e-32,0.29101207852363586,-1.5459182898150843,6.197176844580099e-05,-0.018142743036150932,0.7508706450462341,0.00559436809271574,0.16988810896873474,0.8294820189476013,-1.2649857290131239e-12,-0.03224958851933479
392.0,418.0,0.6891,-0.4074,9.4582,-0.0405,0.0101,-0.1257,-1.6816345653929652,-0.016839705407619476,2.3111112117767334,-1.888925552368164,0.0008605418843217194,2.064448595046997,4.973447191506185,5.9995275856887315e-36,0.30029353499412537,-1.5458934942828577,5.951304774498567e-05,-0.015534642152488232,0.7509629130363464,0.0057585290633141994,0.15974663197994232,0.8294820189476013,-3.0547920642287446e-18,-0.053161513060331345
392.0,418.0,0.6891,-0.4074,9.4582,-0.0405,0.0101,-0.1257,-1.681758543054098,-0.01572227105498314,2.3761138916015625,-1.8889814615249634,0.0006380159175023437,2.051462411880493,4.973434912949362,-0.0002804561227094382,0.2994197607040405,-1.5458820501910608,5.652292747981846e-05,-0.0011513293720781803,0.751034677028656,0.006153336726129055,0.1591249704360962,0.8295340538024902,-9.897137663754651e-26,-0.04491719976067543
392.0,418.0,0.6891,-0.4074,9.4582,-0.0405,0.0101,-0.1257,-1.6818629703917445,-0.014850610867142677,2.371140480041504,-1.8889893293380737,0.0006262224051170051,2.105010509490967,4.973463523178854,-0.00024150086392182857,0.29876813292503357,-1.5459020773517054,5.447039075079374e-05,-0.01743057556450367,0.7510425448417664,0.007207524497061968,0.1672191470861435,0.8294820189476013,-2.390042385560814e-31,-0.023091811686754227
392.0,418.0,0.6891,-0.4074,9.4582,-0.0405,0.0101,-0.1257,-1.6819502315916957,-0.013852163217961788,2.367518663406372,-1.8889527320861816,0.0006157919415272772,2.0771424770355225,4.973463076144018,-0.00020800337370019406,0.2814192771911621,-1.5458863417254847,5.256171425571665e-05,-0.0025848401710391045,0.7510904669761658,0.009153852239251137,0.1618112027645111,0.8295621275901794,-5.771671253769617e-37,-0.008334936574101448
398.0,444.0,0.8333,-0.4409,9.5898,-0.0351,-0.0057,-0.1156,-1.6820255718626917,-0.012825881130993366,2.3938333988189697,-1.8889732360839844,0.0006460642325691879,2.0511481761932373,4.973447072296896,-0.0002104861632687971,0.2905764877796173,-1.5459020773517054,5.021558899898082e-05,-0.020724739879369736,0.7511218190193176,0.014845672063529491,0.1680866777896881,0.829509973526001,-1.8216880036222622e-44,0.007640104740858078
398.0,444.0,0.8333,-0.4409,9.5898,-0.0351,-0.0057,-0.1156,-1.6821257076659144,-0.01211131177842617,2.3607265949249268,-1.8889646530151367,0.0009160563349723816,2.034482479095459,4.973438995867529,-0.00018857647955883294,0.2766936719417572,-1.5459101835833948,2.1171440778289252e-07,-0.010828880593180656,0.7512417435646057,0.023187294602394104,0.16901104152202606,0.8294780254364014,0.0,0.007365047466009855
398.0,444.0,0.8333,-0.4409,9.5898,-0.0351,-0.0057,-0.1156,-1.6822172604002894,-0.011198429390788078,2.386770725250244,-1.8888931274414062,0.0014192545786499977,2.076132297515869,4.973434912949362,-0.00016546124243177474,0.28693026304244995,-1.5458338896380823,3.847804453532833e-12,-0.011796615086495876,0.7515854239463806,0.04290541633963585,0.1791456937789917,0.829509973526001,0.0,-0.003951315302401781
398.0,444.0,0.8333,-0.4409,9.5898,-0.0351,-0.0057,-0.1156,-1.6822535000243128,-0.010535527020692825,2.3588500022888184,-1.8889174461364746,0.0017630048096179962,2.057457685470581,4.973483252316274,-0.00015153075219132006,0.29821258783340454,-1.5458977858172815,1.0710505036717237e-15,-0.009909028187394142,0.7518967986106873,0.07004319876432419,0.1655380129814148,0.8294820189476013,0.0,-0.05068005248904228
398.0,444.0,0.8333,-0.4409,9.5898,-0.0351,-0.0057,-0.1156,-1.6823460064330042,-0.010684548877179623,2.355419397354126,-1.8889412879943848,0.0026357739698141813,2.0442748069763184,4.973443019181051,-0.00015998983872123063,0.2928919196128845,-1.5458696524249476,2.981308337139254e-19,-0.005077952519059181,0.7525964975357056,0.11771176755428314,0.1954311728477478,0.829465925693512,0.0,0.022349227219820023
398.0,444.0,0.8333,-0.4409,9.5898,-0.0351,-0.0057,-0.1156,-1.6824056110777796,-0.009267136454582214,2.349991798400879,-1.8888490200042725,0.00517308060079813,2.043625831604004,4.973458993225851,-0.00014776003081351519,0.2863205075263977,-1.5458577314959925,5.4183814520841674e-24,-0.0025332928635179996,0.7538660764694214,0.1954863965511322,0.23439687490463257,0.8295139670372009,3.720797394635156e-05,-0.0335075818002224
398.0,444.0,0.8333,-0.4409,9.5898,-0.0351,-0.0057,-0.1156,-1.6824494800963343,-0.008560938760638237,2.337522029876709,-1.8888132572174072,0.005806356202811003,2.051274061203003,4.9734229920204065,-0.00013804633636027575,0.2837265729904175,-1.5458663145648401,1.5082261691427657e-27,-0.004524772055447102,0.7550942897796631,0.21110863983631134,0.24377073347568512,0.8294739723205566,1.6736264596417527e-09,-0.010247552767395973
398.0,444.0,0.8333,-0.4409,9.5898,-0.0351,-0.0057,-0.1156,-1.682516714135641,-0.009155037812888622,2.294541120529175,-1.8888413906097412,0.006433574482798576,2.0405266284942627,4.973426627903738,-0.0001269215572392568,0.2864736020565033,-1.5458620230304163,2.741126460474861e-32,-0.003747275099158287,0.7570987939834595,0.25565794110298157,0.26034465432167053,0.8294780254364014,5.422336336641077e-17,-0.035157591104507446
398.0,444.0,0.8333,-0.4409,9.5898,-0.0351,-0.0057,-0.1156,-1.6825529537596644,-0.008719973266124725,2.3714687824249268,-1.888744592666626,0.007797898259013891,2.0387845039367676,4.973471331387319,-0.00011968761828029528,0.28065410256385803,-1.5458577314959925,7.630026641944296e-36,-0.0020236256532371044,0.7585870623588562,0.25635573267936707,0.2562211751937866,0.8295140862464905,1.3094304690118472e-22,-0.007801483850926161
398.0,444.0,0.8333,-0.4409,9.5898,-0.0351,-0.0057,-0.1156,-1.682641168633932,-0.008911044336855412,2.342149257659912,-1.8886812925338745,0.008678131736814976,2.0583062171936035,4.97347907999114,-0.00011323382932459936,0.2786291837692261,-1.5458138624774378,7.621791610290529e-06,-0.006498911418020725,0.7603350281715393,0.3109129071235657,0.2597391605377197,0.8294819593429565,3.1621205792599947e-28,-0.05884931981563568
398.0,444.0,0.8333,-0.4409,9.5898,-0.0351,-0.0057,-0.1156,-1.6826969585814417,-0.010600865818560123,2.369717836380005,-1.8886088132858276,0.009501338005065918,2.021193027496338,4.973447072296896,-0.00012066368071828038,0.28441810607910156,-1.5458701292621058,1.3852229086008805e-10,-0.005350481253117323,0.7632170915603638,0.36249488592147827,0.2939213216304779,0.8294419646263123,-0.0003939524758607149,-0.07121825218200684
398.0,444.0,0.8333,-0.4409,9.5898,-0.0351,-0.0057,-0.1156,-1.6827317676939906,-0.010390156880021095,2.338670253753662,-1.8885486125946045,0.010590019635856152,2.075551986694336,4.973430740624227,-0.00011494783393573016,0.2655736804008484,-1.5458944479571741,3.855818659151411e-14,0.0030632682610303164,0.7653844356536865,0.38381290435791016,0.29663974046707153,0.8294140696525574,-0.0004269335768185556,-0.06001757085323334
398.0,444.0,0.8333,-0.4409,9.5898,-0.0351,-0.0057,-0.1156,-1.6828566990294398,-0.011223037727177143,2.3269293308258057,-1.8884656429290771,0.012415099889039993,2.0581631660461426,4.973458993225851,-0.00010804790508700535,0.2717975378036499,-1.5458539167987269,7.007758861251376e-19,-0.01056605577468872,0.7686930894851685,0.4462522864341736,0.3176715075969696,0.8294540643692017,-0.0005558967241086066,-0.06731737405061722
392.0,483.0,0.8112,0.4558,9.7149,-0.0689,0.0324,0.1475,-1.6829449139037074,-0.012398884631693363,2.3151774406433105,-1.8883975744247437,0.014026371762156487,2.09978985786438,4.973454910307684,-0.0001033931621350348,0.274114727973938,-1.5458663145648401,1.9506351667839764e-22,0.01122799888253212,0.7714506983757019,0.48209917545318604,0.32972782850265503,0.8294140696525574,-0.0005660259048454463,-0.08267013728618622
392.0,483.0,0.8112,0.4558,9.7149,-0.0689,0.0324,0.1475,-1.6830126247801722,-0.014668913558125496,2.3507423400878906,-1.8883216381072998,0.01433446817100048,2.0859389305114746,4.9734229920204065,-9.912294626701623e-05,0.27472198009490967,-1.5458458105670374,0.00025989237474277616,0.00790320709347725,0.7744923830032349,0.5261831283569336,0.34773534536361694,0.8294739127159119,-0.0005314433947205544,-0.0650586187839508
392.0,483.0,0.8112,0.4558,9.7149,-0.0689,0.0324,0.1475,-1.683141370812887,-0.01823674887418747,2.325514793395996,-1.8881611824035645,0.01737673394382,2.079543352127075,4.973427074938574,-7.25791760487482e-05,0.2779017388820648,-1.5458782354937952,0.0002527305914554745,0.02177855186164379,0.7789149880409241,0.564344048500061,0.33099085092544556,0.8294743299484253,-0.0005526135792024434,-0.08241631835699081
392.0,483.0,0.8112,0.4558,9.7149,-0.0689,0.0324,0.1475,-1.683305402795309,-0.021052218973636627,2.281343936920166,-1.8880245685577393,0.02152038738131523,2.0728507041931152,4.973470914154806,-6.922797183506191e-05,0.2730863094329834,-1.54584247270693,0.00022274933871813118,0.0009625451639294624,0.7823942303657532,0.6076189279556274,0.3398183584213257,0.829417884349823,-0.0005513334763236344,-0.08462028205394745
392.0,483.0,0.8112,0.4558,9.7149,-0.0689,0.0324,0.1475,-1.6834560833373011,-0.026205748319625854,2.3051812648773193,-1.8878896236419678,0.02515384927392006,2.0879526138305664,4.9734229920204065,-6.521493196487427e-05,0.2615261673927307,-1.545854393635885,0.00022291681671049446,-0.00015704176621511579,0.787456750869751,0.6336698532104492,0.33614808320999146,0.8294058442115784,-0.0007477352628484368,-0.08306698501110077
392.0,483.0,0.8112,0.4558,9.7149,-0.0689,0.0324,0.1475,-1.6836372814574183,-0.030129028484225273,2.282421827316284,-1.8876774311065674,0.030794715508818626,2.0577807426452637,4.9734229920204065,-7.499044295400381e-05,0.273663729429245,-1.545854393635885,0.00020164181478321552,0.007011055015027523,0.7915037274360657,0.6703879237174988,0.3308185040950775,0.8293660283088684,-0.001521499129012227,-0.13049572706222534
392.0,483.0,0.8112,0.4558,9.7149,-0.0689,0.0324,0.1475,-1.6838122806944789,-0.03476734831929207,2.2923433780670166,-1.8875136375427246,0.037459567189216614,2.1160941123962402,4.973447072296896,-8.379291102755815e-05,0.2662133276462555,-1.545809570943014,0.0001839749893406406,0.024031993001699448,0.7956619262695312,0.6926470398902893,0.3301517367362976,0.829397976398468,-0.001746135763823986,-0.09369689226150513
392.0,483.0,0.8112,0.4558,9.7149,-0.0689,0.0324,0.1475,-1.684091707269186,-0.03975483030080795,2.283005475997925,-1.8871417045593262,0.04709116742014885,2.1472537517547607,4.973398732929983,-9.1038309619762e-05,0.2559617757797241,-1.5458057562457483,0.00018826333689503372,0.006777563132345676,0.8010679483413696,0.702017605304718,0.3024265468120575,0.8294339776039124,-0.0021754263434559107,-0.08079774677753448
392.0,483.0,0.8112,0.4558,9.7149,-0.0689,0.0324,0.1475,-1.6843553982176722,-0.04741290584206581,2.2503392696380615,-1.8868095874786377,0.0553898848593235,2.099926233291626,4.973395067244329,-0.0001909079437609762,0.2591128945350647,-1.5458663145648401,0.0001738282444421202,0.009285533800721169,0.8054221272468567,0.7311512231826782,0.3081536293029785,0.8293096423149109,-0.0025173849426209927,-0.08695578575134277
392.0,483.0,0.8112,0.4558,9.7149,-0.0689,0.0324,0.1475,-1.6848274670042933,-0.05892679840326309,2.241788148880005,-1.8863370418548584,0.06391527503728867,2.1286511421203613,4.973407405405798,-0.00022989249555394053,0.26214852929115295,-1.5458138624774378,0.00018072327657137066,0.03361688554286957,0.8112723231315613,0.7349780797958374,0.28685837984085083,0.8293538093566895,-0.003729629097506404,-0.09727418422698975
392.0,483.0,0.8112,0.4558,9.7149,-0.0689,0.0324,0.1475,-1.6852122745909632,-0.06555884331464767,2.1840226650238037,-1.8859940767288208,0.07303351908922195,2.1311326026916504,4.973431157856741,-0.00023721488832961768,0.25710469484329224,-1.545830551777975,0.00021931197261437774,0.00887255184352398,0.8157258629798889,0.7404993176460266,0.29458802938461304,0.8293097615242004,-0.004911854863166809,-0.11193826794624329
392.0,483.0,0.8112,0.4558,9.7149,-0.0689,0.0324,0.1475,-1.6857229671873988,-0.06886076927185059,2.181044101715088,-1.8853495121002197,0.0853152722120285,2.123684883117676,4.973382818489828,-0.00020969609613530338,0.25650450587272644,-1.5457819143878382,0.0005914372159168124,0.02069239877164364,0.82167649269104,0.7317690849304199,0.2729751467704773,0.8292497992515564,-0.006031799595803022,-0.10742329806089401
392.0,483.0,0.8112,0.4558,9.7149,-0.0689,0.0324,0.1475,-1.686185976068014,-0.0701858326792717,2.174132823944092,-1.8847626447677612,0.09190522879362106,2.1314849853515625,4.973395067244329,-0.0002901543921325356,0.2595655024051666,-1.5457857290851038,0.0007785563357174397,0.008535891771316528,0.8261718153953552,0.7448574900627136,0.2595933973789215,0.8291777968406677,-0.004773908294737339,-0.1596677601337433
419.0,435.0,0.5336,0.0562,9.6706,-0.0447,0.0264,0.5806,-1.6866656742491664,-0.0703224465250969,2.2103025913238525,-1.884249210357666,0.09495781362056732,2.2101869583129883,4.973431157856741,-0.00033553733373992145,0.2512383460998535,-1.5457704702960413,0.0010376492282375693,0.014645151793956757,0.8304954171180725,0.7406977415084839,0.2585241198539734,0.8291938900947571,-0.002931545954197645,-0.17582076787948608
419.0,435.0,0.5336,0.0562,9.6706,-0.0447,0.0264,0.5806,-1.687270303765768,-0.06821285933256149,2.2400622367858887,-1.8834785223007202,0.09176748245954514,2.190171480178833,4.973399150162496,-0.0006328157032839954,0.25865209102630615,-1.545802418385641,0.002646230859681964,0.002944089937955141,0.8363467454910278,0.7262833118438721,0.24145078659057617,0.8291857242584229,-0.0019012257689610124,-0.15718334913253784
419.0,435.0,0.5336,0.0562,9.6706,-0.0447,0.0264,0.5806,-1.6876121960081996,-0.06559675186872482,2.2169992923736572,-1.8829704523086548,0.09109624475240707,2.167039394378662,4.97337098696784,-0.0006155231967568398,0.24614688754081726,-1.5457542578326624,0.010781547985970974,0.014661310240626335,0.8407154083251953,0.7189306616783142,0.21245023608207703,0.8291897773742676,-0.0022859983146190643,-0.13634106516838074
419.0,435.0,0.5336,0.0562,9.6706,-0.0447,0.0264,0.5806,-1.688188215295309,-0.06513417512178421,2.2170069217681885,-1.8822027444839478,0.09469844400882721,2.184873342514038,4.973359393864431,-0.0020489210728555918,0.23561634123325348,-1.5456183592425745,0.018645117059350014,0.023857247084379196,0.8463556170463562,0.7059215307235718,0.23041173815727234,0.8291492462158203,-0.004986813757568598,-0.17299515008926392
419.0,435.0,0.5336,0.0562,9.6706,-0.0447,0.0264,0.5806,-1.6886078319945277,-0.06766485422849655,2.1952903270721436,-1.8816068172454834,0.09984942525625229,2.132911205291748,4.973351228028097,-0.004950568079948425,0.24382251501083374,-1.545506779347555,0.01195172406733036,0.0347379595041275,0.8504403233528137,0.6898539066314697,0.22855359315872192,0.8291617631912231,-0.005996701307594776,-0.16813600063323975
419.0,435.0,0.5336,0.0562,9.6706,-0.0447,0.0264,0.5806,-1.6890117130675257,-0.07137072086334229,2.251774311065674,-1.8810194730758667,0.10610233247280121,2.1783287525177,4.973295050650396,-0.013049616478383541,0.23581045866012573,-1.5455072561847132,0.0031917006708681583,0.024836264550685883,0.8545178174972534,0.6780742406845093,0.2006630301475525,0.8291420340538025,-0.004040460102260113,-0.15069115161895752
419.0,435.0,0.5336,0.0562,9.6706,-0.0447,0.0264,0.5806,-1.6895863018431605,-0.07779357582330704,2.194257974624634,-1.8801162242889404,0.12420839071273804,2.1984143257141113,4.973147499352255,-0.016378942877054214,0.2348024696111679,-1.5454948584186,0.0006555501604452729,0.036484722048044205,0.8598565459251404,0.6553574204444885,0.2174670696258545,0.8291097283363342,-0.001255925977602601,-0.1744367480278015
419.0,435.0,0.5336,0.0562,9.6706,-0.0447,0.0264,0.5806,-1.6901427708067835,-0.08521926403045654,2.1942903995513916,-1.8793359994888306,0.13102473318576813,2.1855549812316895,4.973111855774679,-0.010460800491273403,0.24003572762012482,-1.545466725026266,0.00042337222839705646,0.02511284314095974,0.8636681437492371,0.6314067244529724,0.2118421196937561,0.8291416764259338,-0.0006179259507916868,-0.17885015904903412
419.0,435.0,0.5336,0.0562,9.6706,-0.0447,0.0264,0.5806,-1.690868993798727,-0.09985028952360153,2.1507980823516846,-1.8781561851501465,0.13308438658714294,2.2494378089904785,4.9730520127113245,-0.0038716804701834917,0.23572677373886108,-1.5454791227923792,0.00018673314480111003,0.015609575435519218,0.8686972856521606,0.6118990182876587,0.1726282835006714,0.8290656805038452,-0.0003979603061452508,-0.13761834800243378
419.0,435.0,0.5336,0.0562,9.6706,-0.0447,0.0264,0.5806,-1.6915294132628382,-0.11185057461261749,2.1705803871154785,-1.8774079084396362,0.13603705167770386,2.1391265392303467,4.973088013916769,-0.0007520912331528962,0.24616754055023193,-1.5454748312579554,3.39178313879529e-07,0.03182951360940933,0.8722344040870667,0.6005481481552124,0.18581247329711914,0.8290496468544006,-0.00031449669040739536,-0.1555252969264984
419.0,435.0,0.5336,0.0562,9.6706,-0.0447,0.0264,0.5806,-1.692221303979391,-0.11543987691402435,2.175584554672241,-1.8765608072280884,0.14414937794208527,2.217559814453125,4.973084020405569,-0.00023157481336966157,0.23755621910095215,-1.5454748312579554,9.441152026834487e-11,0.034285396337509155,0.8757872581481934,0.5731906890869141,0.16859203577041626,0.8290737271308899,-0.0002599784638732672,-0.14872980117797852
419.0,435.0,0.5336,0.0562,9.6706,-0.0447,0.0264,0.5806,-1.6931563816466273,-0.10597693920135498,2.2066171169281006,-1.8753807544708252,0.15163946151733398,2.2091217041015625,4.973015534668722,-0.00022942166833672673,0.23351511359214783,-1.5454543272601526,1.7158828162519113e-15,0.028068896383047104,0.8802576065063477,0.553103506565094,0.18056181073188782,0.8291458487510681,-0.0002111725480062887,-0.2181127667427063
419.0,435.0,0.5336,0.0562,9.6706,-0.0447,0.0264,0.5806,-1.6937619648375453,-0.10567495226860046,2.211137294769287,-1.8745076656341553,0.15393224358558655,2.229161024093628,4.97305195310668,-0.00019534127204678953,0.23719434440135956,-1.545483414326803,4.776223057954554e-19,0.04005897790193558,0.8834757208824158,0.5196962952613831,0.16446423530578613,0.8291137218475342,-0.00014826662663836032,-0.17984050512313843
419.0,435.0,0.5336,0.0562,9.6706,-0.0447,0.0264,0.5806,-1.694697996179098,-0.12099972367286682,2.1608381271362305,-1.8732177019119263,0.15250036120414734,2.223375082015991,4.97299216964797,-0.003691045567393303,0.2361975610256195,-1.5454872290240687,8.680549670405113e-24,0.029098153114318848,0.8876401782035828,0.5108440518379211,0.19299891591072083,0.8291256427764893,6.660650979029015e-05,-0.2369338870048523
390.0,394.0,0.3829,-0.548,8.3761,-0.0385,0.064,0.5011,-1.6954452000060023,-0.13800153136253357,2.1650195121765137,-1.8722703456878662,0.14922910928726196,2.1919803619384766,4.9730082032974146,-0.00365638080984354,0.2315087765455246,-1.5453818480121058,2.4162634267294652e-27,0.031882110983133316,0.8905456066131592,0.4742288887500763,0.1597561538219452,0.8290976881980896,1.2252157830516808e-06,-0.1853056102991104
390.0,394.0,0.3829,-0.548,8.3761,-0.0385,0.064,0.5011,-1.6962696514525355,-0.1466769576072693,2.1327366828918457,-1.8713659048080444,0.15237152576446533,2.222561836242676,4.972975718766012,-0.001685053575783968,0.23857498168945312,-1.5454471747027796,0.00023278644948732108,0.03439165651798248,0.8934040665626526,0.46521177887916565,0.1497403085231781,0.8290897607803345,2.9587515163603806e-12,-0.20819157361984253
390.0,394.0,0.3829,-0.548,8.3761,-0.0385,0.064,0.5011,-1.697315355340475,-0.13974761962890625,2.1224536895751953,-1.8700343370437622,0.16012637317180634,2.2708630561828613,4.9729999778564355,-0.0008684873464517295,0.22537477314472198,-1.5454672018634241,0.001073454855941236,0.032340157777071,0.8969413042068481,0.42323923110961914,0.1489151418209076,0.8290496468544006,-0.001462931395508349,-0.18866512179374695
390.0,394.0,0.3829,-0.548,8.3761,-0.0385,0.064,0.5011,-1.69816317180776,-0.13180632889270782,2.2046165466308594,-1.8690848350524902,0.1702360063791275,2.2424850463867188,4.973024177342214,-0.000637441931758076,0.22844630479812622,-1.5454109350787562,0.0008103543659672141,0.03914090245962143,0.8994079828262329,0.4222472906112671,0.14713555574417114,0.8290897607803345,-0.0011080404510721564,-0.16182515025138855
390.0,394.0,0.3829,-0.548,8.3761,-0.0385,0.064,0.5011,-1.6993218861021937,-0.13165323436260223,2.1582469940185547,-1.867668867111206,0.17467190325260162,2.2348504066467285,4.972988086729803,-0.0003376746317371726,0.22933511435985565,-1.5453985373126429,0.0006111938273534179,0.03499200567603111,0.9025814533233643,0.3776087164878845,0.1350555717945099,0.8291137218475342,-2.5688683535918244e-07,-0.20276513695716858
390.0,394.0,0.3829,-0.548,8.3761,-0.0385,0.064,0.5011,-1.700160642663473,-0.14397481083869934,2.1592907905578613,-1.8665201663970947,0.17667122185230255,2.217646837234497,4.9729323265846155,-0.0018554480047896504,0.2178746461868286,-1.5454109350787562,0.00048706482630223036,0.030398324131965637,0.9047049880027771,0.3433496356010437,0.09706851840019226,0.8291137218475342,-6.20351426477983e-13,-0.18133282661437988
390.0,394.0,0.3829,-0.548,8.3761,-0.0385,0.064,0.5011,-1.7011004887022914,-0.15778988599777222,2.159515857696533,-1.8654955625534058,0.17943638563156128,2.328857898712158,4.972920435457983,-0.006590152624994516,0.23666606843471527,-1.5454147497760218,0.0003417933185119182,0.025338003411889076,0.9067486524581909,0.33282017707824707,0.10900512337684631,0.8291577696800232,0.0007620880496688187,-0.1719348281621933
390.0,394.0,0.3829,-0.548,8.3761,-0.0385,0.064,0.5011,-1.702376504937643,-0.17478270828723907,2.1192870140075684,-1.8640334606170654,0.1880945861339569,2.2422547340393066,4.97286473491744,-0.009701410308480263,0.20504391193389893,-1.5454190413104456,0.00039487238973379135,0.046030595898628235,0.9092435240745544,0.2967103123664856,0.08444077521562576,0.8291096687316895,-0.00040993801667355,-0.19902659952640533
390.0,394.0,0.3829,-0.548,8.3761,-0.0385,0.064,0.5011,-1.7033277950682582,-0.17244119942188263,2.171380043029785,-1.862864375114441,0.19570428133010864,2.282799243927002,4.972752380162039,-0.009311522357165813,0.2075512409210205,-1.5454066435443323,0.0012783202109858394,0.04242228716611862,0.9107964634895325,0.241814985871315,0.0696401372551918,0.8291298151016235,-0.0011737850727513433,-0.19879722595214844
390.0,394.0,0.3829,-0.548,8.3761,-0.0385,0.064,0.5011,-1.7047211132445277,-0.16891029477119446,2.1901755332946777,-1.861288070678711,0.20762987434864044,2.284738302230835,4.972800510912695,-0.005021638236939907,0.21791863441467285,-1.5453951994525355,0.001391894998960197,0.056068286299705505,0.9126999378204346,0.2389160543680191,0.0687587559223175,0.8291056752204895,-0.00041292389505542815,-0.1872585415840149
390.0,394.0,0.3829,-0.548,8.3761,-0.0385,0.064,0.5011,-1.7057587109007777,-0.17384450137615204,2.1649904251098633,-1.8599885702133179,0.22119317948818207,2.3145649433135986,4.972793388157644,-0.002627396257594228,0.21589958667755127,-1.5453994909869593,0.0010164132108911872,0.04002780467271805,0.9139735102653503,0.19820694625377655,0.06791280210018158,0.8290936946868896,-2.2117801279364357e-07,-0.23361077904701233
390.0,394.0,0.3829,-0.548,8.3761,-0.0385,0.064,0.5011,-1.7069040737547816,-0.18566344678401947,2.122164726257324,-1.8586175441741943,0.22605007886886597,2.311781406402588,4.972668874054708,-0.006877033971250057,0.21680694818496704,-1.5453746954547327,0.000732958025764674,0.03959091380238533,0.9150661826133728,0.18106995522975922,0.05341625213623047,0.8290616869926453,-5.341189187983708e-13,-0.23461315035820007
390.0,394.0,0.3829,-0.548,8.3761,-0.0385,0.064,0.5011,-1.7084485493102015,-0.20345228910446167,2.1274349689483643,-1.8568021059036255,0.22772447764873505,2.309823989868164,4.972620951920309,-0.01211936678737402,0.21013420820236206,-1.545358959828512,0.0006303884438239038,0.05213817209005356,0.916331946849823,0.12754128873348236,0.042001768946647644,0.8291977643966675,-1.730477674214846e-20,-0.21484258770942688
353.0,380.0,0.1579,-1.7043,8.7063,-0.0803,0.0105,0.2008,-1.7096997700133265,-0.21465958654880524,2.109677791595459,-1.8554097414016724,0.2381693720817566,2.278169870376587,4.972549485951223,-0.012539489194750786,0.2129712700843811,-1.5453670660602015,0.0005567586631514132,0.0428914949297905,0.9168462157249451,0.0683986246585846,0.02225903980433941,0.8291137218475342,-4.178900357812517e-26,-0.19727164506912231
353.0,380.0,0.1579,-1.7043,8.7063,-0.0803,0.0105,0.2008,-1.7114058933653773,-0.22395125031471252,2.068354845046997,-1.8534348011016846,0.26067158579826355,2.3566248416900635,4.972453552275457,-0.010110417380928993,0.21418344974517822,-1.5453670660602015,0.0010034602601081133,0.059261493384838104,0.9170578122138977,0.005798622500151396,0.025892838835716248,0.8291016817092896,3.437736779687839e-07,-0.1825234293937683
353.0,380.0,0.1579,-1.7043,8.7063,-0.0803,0.0105,0.2008,-1.7127701244749964,-0.2220362424850464,2.115633487701416,-1.8518520593643188,0.26674675941467285,2.3370437622070312,4.972425418883123,-0.006471384782344103,0.20591744780540466,-1.5454109350787562,0.001101559610106051,0.0517980232834816,0.9170090556144714,-0.023683736100792885,-0.02369251847267151,0.8290857672691345,8.301730613710645e-13,-0.2857924699783325
353.0,380.0,0.1579,-1.7043,8.7063,-0.0803,0.0105,0.2008,-1.7141272030272425,-0.21946869790554047,2.136188507080078,-1.8501951694488525,0.28056058287620544,2.303934097290039,4.972409444838323,-0.0022821046877652407,0.217157244682312,-1.5453713575946253,0.000998823787085712,0.04374048113822937,0.9169500470161438,-0.04189978539943695,-0.01836150884628296,0.8291296362876892,2.004770028629697e-18,-0.21600866317749023
353.0,380.0,0.1579,-1.7043,8.7063,-0.0803,0.0105,0.2008,-1.7160469494261683,-0.23625008761882782,2.121413469314575,-1.8479236364364624,0.3026723265647888,2.3998422622680664,4.972357529192724,-0.0009162888745777309,0.20160430669784546,-1.5453794638263147,0.0008385880501009524,0.0638507753610611,0.9165213704109192,-0.05716883763670921,-0.03008386120200157,0.8291338086128235,0.00028576701879501343,-0.2057848572731018
353.0,380.0,0.1579,-1.7043,8.7063,-0.0803,0.0105,0.2008,-1.717565198937887,-0.2581654191017151,2.075474739074707,-1.846116542816162,0.3013654351234436,2.3389389514923096,4.9723859308059595,-0.00518555985763669,0.220916748046875,-1.5453713575946253,0.0006295053171925247,0.05032510682940483,0.916174054145813,-0.055348463356494904,-0.028399625793099403,0.8291378021240234,0.00022417477157432586,-0.23143631219863892
353.0,380.0,0.1579,-1.7043,8.7063,-0.0803,0.0105,0.2008,-1.719720026055807,-0.2668503522872925,2.1126902103424072,-1.8435182571411133,0.3130074441432953,2.4009757041931152,4.972313779383459,-0.004878310952335596,0.2082318812608719,-1.5453670660602015,0.00038494906038977206,0.04625784605741501,0.9158875346183777,-0.03730737045407295,-0.00843142531812191,0.8290777802467346,0.0001124609843827784,-0.2182091772556305
353.0,380.0,0.1579,-1.7043,8.7063,-0.0803,0.0105,0.2008,-1.7213050327696742,-0.27320605516433716,2.0879404544830322,-1.8416049480438232,0.32844823598861694,2.4143080711364746,4.972345816880026,-0.0015297217760235071,0.2077922523021698,-1.545403305684225,0.00034725607838481665,0.05159464851021767,0.9157040119171143,-0.016927668824791908,-0.003950607031583786,0.8291056752204895,1.9424182937655132e-06,-0.15831491351127625
353.0,380.0,0.1579,-1.7043,8.7063,-0.0803,0.0105,0.2008,-1.7229839764037074,-0.28142249584198,2.097381830215454,-1.8394969701766968,0.33846038579940796,2.4716389179229736,4.972349899798193,-0.0007170804892666638,0.2224387526512146,-1.545387093220846,0.0003022335295099765,0.05135171860456467,0.9156879782676697,-0.0003220038488507271,0.002547183074057102,0.8291376233100891,4.690710927318653e-12,-0.12851403653621674
353.0,380.0,0.1579,-1.7043,8.7063,-0.0803,0.0105,0.2008,-1.7252828083434046,-0.2734561562538147,2.105884075164795,-1.836746096611023,0.352772057056427,2.4478390216827393,4.972313779383459,-0.0004374939016997814,0.215609610080719,-1.5453546682940882,0.0002469362807460129,0.044886939227581024,0.9157199859619141,0.00625567277893424,0.03065139800310135,0.8290737271308899,1.519730471829661e-19,-0.19659385085105896
353.0,380.0,0.1579,-1.7043,8.7063,-0.0803,0.0105,0.2008,-1.7268840275206507,-0.2781446576118469,2.1727848052978516,-1.8345978260040283,0.3586597740650177,2.4594545364379883,4.9723298130329034,-0.00033862519194372,0.21088141202926636,-1.5453713575946253,0.00025268783792853355,0.044164642691612244,0.9157558083534241,0.002150097629055381,0.023711547255516052,0.8291056752204895,3.6699709972624986e-25,-0.19028857350349426
353.0,380.0,0.1579,-1.7043,8.7063,-0.0803,0.0105,0.2008,-1.7292195759215296,-0.2953609526157379,2.2003891468048096,-1.8317111730575562,0.37071025371551514,2.4345598220825195,4.972301590233602,-0.00031229108572006226,0.20891031622886658,-1.5453756491290491,0.0002182246680604294,0.04648270457983017,0.9157680869102478,0.000544468523003161,0.01254183053970337,0.8290697932243347,1.1890240703950613e-32,-0.16029104590415955
353.0,380.0,0.1579,-1.7043,8.7063,-0.0803,0.0105,0.2008,-1.730901380578512,-0.2962966859340668,2.1459734439849854,-1.8294674158096313,0.3770782947540283,2.4695098400115967,4.972350376635351,-0.00026610810891725123,0.2069764882326126,-1.5453670660602015,0.0001976798812393099,0.046830810606479645,0.9157561659812927,0.000321240775519982,0.01533878780901432,0.8290938138961792,2.8713530391001956e-38,-0.13786576688289642
343.0,370.0,0.1436,-0.3852,9.3194,-0.0367,0.0985,-0.133,-1.732615133325094,-0.2980306148529053,2.0926120281219482,-1.8272196054458618,0.38533198833465576,2.4438977241516113,4.972326177149572,-0.0002318265469511971,0.2156659960746765,-1.545358959828512,0.0001806711225071922,0.04116547107696533,0.9157558083534241,0.00029572314815595746,0.02536039426922798,0.8291257619857788,6.866362475191604e-44,-0.12305928766727448
343.0,370.0,0.1436,-0.3852,9.3194,-0.0367,0.0985,-0.133,-1.7350107632079066,-0.296708881855011,2.1220128536224365,-1.82401704788208,0.3953346908092499,2.4537668228149414,4.972317892103948,-0.0001649107871344313,0.1945163607597351,-1.5453069845782679,0.00016207760199904442,0.03678668290376663,0.9157397747039795,0.00022265252482611686,0.03427362069487572,0.8291376233100891,0.0,-0.13849280774593353
343.0,370.0,0.1436,-0.3852,9.3194,-0.0367,0.0985,-0.133,-1.736788888970846,-0.29803088307380676,2.142169237136841,-1.8216688632965088,0.41048216819763184,2.470048427581787,4.972325700312414,-3.4088094253093004e-05,0.22210994362831116,-1.545387093220846,0.00015046415501274168,0.05010459944605827,0.9157319664955139,0.00018779333913698792,0.02458457462489605,0.8291618824005127,0.0,-0.16206444799900055
343.0,370.0,0.1436,-0.3852,9.3194,-0.0367,0.0985,-0.133,-1.7391911945738734,-0.3012126684188843,2.170607089996338,-1.8183791637420654,0.41906794905662537,2.489532470703125,4.972297477513113,-5.3999043302610517e-05,0.21951299905776978,-1.5453546682940882,0.00013734280946664512,0.03635384887456894,0.9158446788787842,0.00015536566206719726,0.02307797223329544,0.8291458487510681,0.0,-0.1887030154466629
343.0,370.0,0.1436,-0.3852,9.3194,-0.0367,0.0985,-0.133,-1.7409936390318812,-0.307991087436676,2.2253966331481934,-1.8157646656036377,0.42664945125579834,2.514592170715332,4.972293811827459,-9.255673649022356e-05,0.2210657000541687,-1.545342747365133,0.0001289115461986512,0.03782668709754944,0.9157520532608032,3.843525701086037e-05,0.015066918917000294,0.8290936946868896,0.0,-0.13068462908267975
343.0,370.0,0.1436,-0.3852,9.3194,-0.0367,0.0985,-0.133,-1.7429043255248011,-0.31891128420829773,2.20591402053833,-1.8132188320159912,0.4266456663608551,2.56638240814209,4.972313898592748,-0.0011867184657603502,0.21572652459144592,-1.5453713575946253,0.00012145573418820277,0.04720078781247139,0.9157724380493164,6.0975846281507984e-05,0.023617040365934372,0.8291296362876892,0.0,-0.14893656969070435
343.0,370.0,0.1436,-0.3852,9.3194,-0.0367,0.0985,-0.133,-1.7455154858031214,-0.3208102583885193,2.188814640045166,-1.8097108602523804,0.4386669993400574,2.4914779663085938,4.972337978869238,-0.0005753537989221513,0.22093647718429565,-1.5454190413104456,0.00011276012082817033,0.03615274652838707,0.9157314300537109,8.551505015930161e-05,0.028692638501524925,0.8291177749633789,0.0,-0.1707930564880371
343.0,370.0,0.1436,-0.3852,9.3194,-0.0367,0.0985,-0.133,-1.7475110493102015,-0.3243505358695984,2.217107057571411,-1.8070359230041504,0.4472277760505676,2.576054811477661,4.972313898592748,-0.0003858684503939003,0.21980644762516022,-1.5453951994525355,0.0001070138969225809,0.041141897439956665,0.9158121347427368,0.00031694216886535287,0.05474961921572685,0.8291056752204895,0.0,-0.1580611765384674
343.0,370.0,0.1436,-0.3852,9.3194,-0.0367,0.0985,-0.133,-1.7501169643797816,-0.32133808732032776,2.267508029937744,-1.8034143447875977,0.4552106559276581,2.498337745666504,4.9723219750221155,-6.752072749804938e-06,0.22416692972183228,-1.5453951994525355,0.00010020533227361739,0.03666902706027031,0.9157801270484924,0.0003941754112020135,0.02810939960181713,0.8290656805038452,0.0,-0.13875886797904968
343.0,370.0,0.1436,-0.3852,9.3194,-0.0367,0.0985,-0.133,-1.7521234951415003,-0.31966501474380493,2.2946925163269043,-1.800667643547058,0.46408164501190186,2.5646135807037354,4.972313868790426,-1.8794641398756085e-09,0.2153780460357666,-1.5454190413104456,4.1037397750187665e-05,0.03919197618961334,0.9157925248146057,0.00039285377715714276,0.0428648479282856,0.8291458487510681,0.0,-0.14776219427585602
343.0,370.0,0.1436,-0.3852,9.3194,-0.0367,0.0985,-0.133,-1.7541376552977503,-0.33213895559310913,2.233212471008301,-1.7979443073272705,0.4706282615661621,2.549398899078369,4.972281861096182,-5.231557916908491e-13,0.22983548045158386,-1.5453994909869593,3.112245030933991e-05,0.04343067854642868,0.9157683253288269,0.0006017900304868817,0.03245305269956589,0.8291137218475342,0.0,-0.12561379373073578
343.0,370.0,0.1436,-0.3852,9.3194,-0.0367,0.0985,-0.133,-1.7568942509093226,-0.33199256658554077,2.2912404537200928,-1.7941558361053467,0.4673312306404114,2.5728344917297363,4.972269969969549,-9.508097861342844e-18,0.22304579615592957,-1.5454147497760218,2.9107210139045492e-05,0.029169559478759766,0.9157723784446716,0.0010243203723803163,0.04849350452423096,0.8291256427764893,0.0,-0.11498373746871948
343.0,370.0,0.1436,-0.3852,9.3194,-0.0367,0.0985,-0.133,-1.7588941059508265,-0.34147870540618896,2.2755942344665527,-1.7913960218429565,0.4702084958553314,2.600625514984131,4.972313898592748,-2.6466138472193875e-21,0.2334197610616684,-1.5453909079181116,2.7760499506257474e-05,0.049127642065286636,0.9158281683921814,0.001781944534741342,0.03961735963821411,0.8291336297988892,0.0,-0.12572526931762695
309.0,330.0,0.0197,-0.265,9.4804,-0.0058,0.1634,-0.1258,-1.7615605793394984,-0.33958911895751953,2.3587632179260254,-1.787598967552185,0.47117742896080017,2.5401535034179688,4.972330230265417,-4.810089230346435e-26,0.2325548678636551,-1.5453704039203089,2.52960053330753e-05,0.020200572907924652,0.9158163666725159,0.001909300102852285,0.05910705775022507,0.8291097283363342,0.0002851851750165224,-0.0760856345295906
309.0,330.0,0.0197,-0.265,9.4804,-0.0058,0.1634,-0.1258,-1.7635590038695277,-0.3337675929069519,2.2757670879364014,-1.7847959995269775,0.47637230157852173,2.5898749828338623,4.972293811827459,-1.3389061964114526e-29,0.23113174736499786,-1.5454066435443323,2.505532029317692e-05,0.029613502323627472,0.9158397316932678,0.0021258338820189238,0.06502768397331238,0.8291137218475342,0.0002875840291380882,-0.08596006780862808
309.0,330.0,0.0197,-0.265,9.4804,-0.0058,0.1634,-0.1258,-1.7654806576170863,-0.3299897313117981,2.307953119277954,-1.781935214996338,0.47015249729156494,2.57452392578125,4.9722823081310175,-3.726894553706493e-33,0.2283695638179779,-1.5453746954547327,1.2821405107388273e-05,0.022116996347904205,0.9159044027328491,0.004024009220302105,0.06609603017568588,0.8291057348251343,0.00024796329671517015,-0.10172848403453827
309.0,330.0,0.0197,-0.265,9.4804,-0.0058,0.1634,-0.1258,-1.7681237659850062,-0.32972246408462524,2.3727951049804688,-1.7781215906143188,0.4683380424976349,2.5621509552001953,4.972217517882147,-6.773446858177311e-38,0.24081718921661377,-1.5454066435443323,1.1415484550525434e-05,0.02713577076792717,0.9160005450248718,0.006825186312198639,0.07497970759868622,0.8291617631912231,0.0005759125924669206,-0.11508467048406601
309.0,330.0,0.0197,-0.265,9.4804,-0.0058,0.1634,-0.1258,-1.7700373135008753,-0.33186042308807373,2.4177846908569336,-1.7753074169158936,0.47145816683769226,2.5697178840637207,4.972241717367925,-1.8854470837490414e-41,0.23260223865509033,-1.5453985373126429,1.0997019671776798e-05,0.0319545641541481,0.9159315824508667,0.007187013514339924,0.077916219830513,0.8292182087898254,0.001989036099985242,-0.1367802619934082
309.0,330.0,0.0197,-0.265,9.4804,-0.0058,0.1634,-0.1258,-1.772672792474264,-0.33392277359962463,2.383965015411377,-1.7716064453125,0.46731752157211304,2.5611438751220703,4.972249972611227,-0.0019519703928381205,0.23886245489120483,-1.5454872290240687,1.0484593985893298e-05,0.03707651048898697,0.9160154461860657,0.005355718079954386,0.07624849677085876,0.8292058110237122,0.0011794331949204206,-0.06836187839508057
309.0,330.0,0.0197,-0.265,9.4804,-0.0058,0.1634,-0.1258,-1.7747165165343226,-0.3351355791091919,2.3647046089172363,-1.7687801122665405,0.46680334210395813,2.525444269180298,4.972238051682272,-0.002290842356160283,0.23863235116004944,-1.5454233328448694,1.0130540431418922e-05,0.021021831780672073,0.9160276651382446,0.004155475180596113,0.08500897139310837,0.8291938900947571,0.0009532948606647551,-0.007065769284963608
309.0,330.0,0.0197,-0.265,9.4804,-0.0058,0.1634,-0.1258,-1.776675363580221,-0.3254004418849945,2.4996285438537598,-1.7659627199172974,0.47299104928970337,2.6219675540924072,4.972290503769674,-0.0004949271678924561,0.22949188947677612,-1.5454233328448694,3.2789409942779457e-07,0.021586038172245026,0.9160434603691101,0.002578268526121974,0.0813923105597496,0.8291816711425781,0.0007155810599215329,-0.07785110920667648
309.0,330.0,0.0197,-0.265,9.4804,-0.0058,0.1634,-0.1258,-1.7793265781798304,-0.3306069076061249,2.4377644062042236,-1.7621840238571167,0.4746420085430145,2.5845065116882324,4.972266334086218,-0.00033980925218202174,0.24348562955856323,-1.5453789869891565,5.959312904257885e-12,0.03589630872011185,0.9160676598548889,0.0015541468746960163,0.09404419362545013,0.8291816711425781,0.0005457005463540554,-0.08004692941904068
