ramyac6/ROB537/final_project/csv/bad/bad_39.csv
tof_0,tof_1,accelx,accely,accelz,gyrox,gyroy,gyroz,shoulder_lift_joint_position,shoulder_lift_joint_velocity,shoulder_lift_joint_effort,elbow_joint_position,elbow_joint_velocity,elbow_joint_effort,wrist_1_joint_position,wrist_1_joint_velocity,wrist_1_joint_effort,wrist_2_joint_position,wrist_2_joint_velocity,wrist_2_joint_effort,wrist_3_joint_position,wrist_3_joint_velocity,wrist_3_joint_effort,shoulder_pan_joint_position,shoulder_pan_joint_velocity,shoulder_pan_joint_effort
220.0,221.0,2.0255,0.4995,9.2752,-0.0325,0.0266,-0.111,-1.8056780300536097,0.0,3.1101677417755127,-1.6515859365463257,-0.0,2.0842576026916504,4.819389107614317,-0.0,0.2953004539012909,-1.4037531057940882,0.0,-0.006030581425875425,0.007419671397656202,-0.0,-0.0021250625140964985,1.2991163730621338,0.0,-0.006306655704975128
220.0,221.0,2.0255,0.4995,9.2752,-0.0325,0.0266,-0.111,-1.8056374988951625,0.0,3.0591020584106445,-1.6515620946884155,-0.0,2.1253695487976074,4.819377186685362,-0.0,0.2758694291114807,-1.403729263936178,0.0,-0.011262460611760616,0.007443904876708984,-0.0,0.0020738798193633556,1.2991447448730469,0.0,0.0009347693994641304
220.0,221.0,2.0255,0.4995,9.2752,-0.0325,0.0266,-0.111,-1.8056580028929652,0.0,3.0686612129211426,-1.6515456438064575,-0.0,2.114924907684326,4.8193890927131555,-0.0,0.278627872467041,-1.4037168661700647,0.0,-0.008035724051296711,0.007451667450368404,-0.0,0.001769654219970107,1.2991610765457153,0.0,0.032744504511356354
220.0,221.0,2.0255,0.4995,9.2752,-0.0325,0.0266,-0.111,-1.8057428799071253,0.0,3.112361431121826,-1.6516057252883911,-0.0,2.115812063217163,4.819396938174524,-0.0,0.2743854522705078,-1.4037378470050257,0.0,-0.012371813878417015,0.007431644946336746,-0.0,-0.0077502550557255745,1.2991406917572021,0.0,0.03049289807677269
220.0,221.0,2.0255,0.4995,9.2752,-0.0325,0.0266,-0.111,-1.8057142696776332,0.0,3.08591628074646,-1.6515177488327026,-0.0,2.118579864501953,4.81936493793086,-0.0,0.2910560369491577,-1.4037130514727991,0.0,-0.011266807094216347,0.0074962954968214035,-0.0,-0.005066656041890383,1.2990885972976685,0.0,-0.01234271377325058
220.0,221.0,2.0255,0.4995,9.2752,-0.0325,0.0266,-0.111,-1.8057099781432093,0.0,3.1107075214385986,-1.651581883430481,-0.0,2.150231122970581,4.819437372475424,-0.0,0.28632852435112,-1.4037254492389124,0.0,-0.016654320061206818,0.0074881333857774734,-0.0,-0.005495246034115553,1.299128770828247,0.0,-0.028257807716727257
220.0,221.0,2.0255,0.4995,9.2752,-0.0325,0.0266,-0.111,-1.8056656322874964,0.0,3.1343185901641846,-1.6515939235687256,-0.0,2.1165108680725098,4.819392788201132,-0.0,0.2746703624725342,-1.4037254492389124,0.0,-0.012736603617668152,0.007439815904945135,-0.0,-0.002517455257475376,1.2991693019866943,0.0,0.03861990571022034
220.0,221.0,2.0255,0.4995,9.2752,-0.0325,0.0266,-0.111,-1.8057061634459437,0.0,3.1022140979766846,-1.6515978574752808,-0.0,2.128324031829834,4.819401021092691,-0.0,0.28521767258644104,-1.4037449995623987,0.0,-0.011053308844566345,0.007463979534804821,-0.0,-0.009098008275032043,1.2991247177124023,0.0,-0.01425311341881752
220.0,221.0,2.0255,0.4995,9.2752,-0.0325,0.0266,-0.111,-1.8056780300536097,0.0,3.112704277038574,-1.6515417098999023,-0.0,2.1185126304626465,4.819392803102293,-0.0,0.2799046039581299,-1.4037168661700647,0.0,-0.02199571579694748,0.0074598947539925575,-0.0,-0.0062102461233735085,1.2991570234298706,0.0,-0.020544908940792084
226.0,234.0,2.0112,0.4887,9.2148,-0.0354,0.0186,-0.1127,-1.8056823215880335,0.0,3.1300504207611084,-1.6515700817108154,-0.0,2.0803849697113037,4.819392803102293,-0.0,0.2924313247203827,-1.4037378470050257,0.0,-0.011182164773344994,0.007435742300003767,-0.0,-0.005212026182562113,1.2991410493850708,0.0,0.025280417874455452
226.0,234.0,2.0112,0.4887,9.2148,-0.0354,0.0186,-0.1127,-1.8056580028929652,0.0,3.117799758911133,-1.6515456438064575,-0.0,2.1527769565582275,4.819364967733183,-0.0,0.27243664860725403,-1.4037655035602015,0.0,-0.012685984373092651,0.007431539706885815,-0.0,-0.007199191488325596,1.299128770828247,0.0,0.017573252320289612
226.0,234.0,2.0112,0.4887,9.2148,-0.0354,0.0186,-0.1127,-1.8056899509825648,0.0,3.1482810974121094,-1.6515138149261475,-0.0,2.1285266876220703,4.819396960526266,-0.0,0.27915340662002563,-1.4037459532367151,0.0,-0.016052529215812683,0.007459902670234442,-0.0,0.004608198534697294,1.2991611957550049,0.0,-0.054649874567985535
226.0,234.0,2.0112,0.4887,9.2148,-0.0354,0.0186,-0.1127,-1.8056580028929652,0.0,3.061979293823242,-1.6515218019485474,-0.0,2.081815719604492,4.819352651923456,-0.0,0.281395822763443,-1.4037130514727991,0.0,-0.024598797783255577,0.007399621419608593,-0.0,-0.005415377207100391,1.299128770828247,0.0,-0.013890253379940987
226.0,234.0,2.0112,0.4887,9.2148,-0.0354,0.0186,-0.1127,-1.8056942425169886,0.0,3.043271541595459,-1.6515575647354126,-0.0,2.1284940242767334,4.819353046804228,-0.0,0.2721048593521118,-1.4037449995623987,0.0,-0.017717968672513962,0.007455817889422178,-0.0,-0.02481965906918049,1.2990927696228027,0.0,-0.009131408296525478
226.0,234.0,2.0112,0.4887,9.2148,-0.0354,0.0186,-0.1127,-1.805673738519186,0.0,3.104701042175293,-1.6515495777130127,-0.0,2.0577425956726074,4.819409194379606,-0.0,0.2842339277267456,-1.403757397328512,0.0,-0.012720126658678055,0.007468023803085089,-0.0,-0.00031701428815722466,1.2991570234298706,0.0,-0.024316972121596336
226.0,234.0,2.0112,0.4887,9.2148,-0.0354,0.0186,-0.1127,-1.8057223759093226,0.0,3.134636402130127,-1.6515495777130127,-0.0,2.096088409423828,4.819396960526266,-0.0,0.2759656012058258,-1.4037335554706019,0.0,-0.016699019819498062,0.007488141767680645,-0.0,0.0008237611036747694,1.2991365194320679,0.0,-0.0148631501942873
226.0,234.0,2.0112,0.4887,9.2148,-0.0354,0.0186,-0.1127,-1.80564608196401,0.0,3.1384706497192383,-1.6515495777130127,-0.0,2.1247100830078125,4.819364967733183,-0.0,0.27144181728363037,-1.4037211577044886,0.0,-0.01088026724755764,0.007467985153198242,-0.0,-0.005524117965251207,1.299120545387268,0.0,0.001416641054674983
226.0,234.0,2.0112,0.4887,9.2148,-0.0354,0.0186,-0.1127,-1.8056823215880335,0.0,3.114604949951172,-1.6515495777130127,-0.0,2.094818592071533,4.8193489638860605,-0.0,0.2738177180290222,-1.4037492910968226,0.0,-0.012109434232115746,0.007427531760185957,-0.0,-0.017640477046370506,1.2990926504135132,0.0,-0.057988785207271576
226.0,234.0,2.0112,0.4887,9.2148,-0.0354,0.0186,-0.1127,-1.8056374988951625,0.0,3.0832080841064453,-1.6515536308288574,-0.0,2.097334146499634,4.8194050444062135,-0.0,0.28507107496261597,-1.4037697950946253,0.0,-0.012315979227423668,0.007431515492498875,-0.0,-0.004474388435482979,1.2991247177124023,0.0,-0.03517266735434532
226.0,234.0,2.0112,0.4887,9.2148,-0.0354,0.0186,-0.1127,-1.8056780300536097,0.0,3.1242079734802246,-1.651621699333191,-0.0,2.0853514671325684,4.819365012436666,-0.0,0.2836282551288605,-1.4037049452411097,0.0,-0.013701580464839935,0.007447606883943081,-0.0,-0.006851854734122753,1.299096703529358,0.0,0.003151881042867899
226.0,234.0,2.0112,0.4887,9.2148,-0.0354,0.0186,-0.1127,-1.80564608196401,0.0,3.1056833267211914,-1.6515740156173706,-0.0,2.0885157585144043,4.819417382567682,-0.0,0.290752112865448,-1.403729263936178,0.0,-0.020260397344827652,0.007468001451343298,-0.0,0.0012716703349724412,1.2991693019866943,0.0,0.01559879444539547
226.0,234.0,2.0112,0.4887,9.2148,-0.0354,0.0186,-0.1127,-1.8057142696776332,0.0,3.1105098724365234,-1.6515780687332153,-0.0,2.087700128555298,4.8194050444062135,-0.0,0.27524787187576294,-1.4037087599383753,0.0,-0.019206803292036057,0.007415969856083393,-0.0,-0.015616034157574177,1.299056053161621,0.0,0.00446110125631094
226.0,234.0,2.0112,0.4887,9.2148,-0.0354,0.0186,-0.1127,-1.8057629070677699,0.0,3.061917781829834,-1.6515495777130127,-0.0,2.0918350219726562,4.819372723787584,-0.0,0.2806965708732605,-1.4037531057940882,0.0,-0.01891445741057396,0.007443904876708984,-0.0,-0.014042693190276623,1.299104928970337,0.0,-0.06762246787548065
226.0,234.0,2.0112,0.4887,9.2148,-0.0354,0.0186,-0.1127,-1.805645605126852,0.0,3.081315517425537,-1.6515138149261475,-0.0,2.0722837448120117,4.81941735276536,-0.0,0.2847398519515991,-1.4037254492389124,0.0,-0.02296459674835205,0.007423830218613148,-0.0,0.001195356366224587,1.299072265625,0.0,0.01975708082318306
226.0,234.0,2.0112,0.4887,9.2148,-0.0354,0.0186,-0.1127,-1.805673738519186,0.0,3.1220335960388184,-1.6515700817108154,-0.0,2.087031364440918,4.819405111461439,-0.0,0.2784362733364105,-1.4037449995623987,0.0,-0.014624183066189289,0.007451667450368404,-0.0,-0.0004904214292764664,1.299096703529358,0.0,-0.034925058484077454
226.0,234.0,2.0112,0.4887,9.2148,-0.0354,0.0186,-0.1127,-1.8057099781432093,0.0,3.125628709793091,-1.6515177488327026,-0.0,2.095951557159424,4.819401035993852,-0.0,0.2886541187763214,-1.4037378470050257,0.0,-0.02111983112990856,0.007499980740249157,-0.0,-0.0033351746387779713,1.2991528511047363,0.0,-0.01125706173479557
221.0,235.0,2.0309,0.4624,9.2345,-0.0367,0.0267,-0.121,-1.805629392663473,0.0,3.070814371109009,-1.6515103578567505,-0.0,2.080552101135254,4.819441172271528,-0.0,0.27727216482162476,-1.4037531057940882,0.0,-0.020593855530023575,0.007488141767680645,-0.0,-0.014185097999870777,1.2990763187408447,0.0,0.020773570984601974
221.0,235.0,2.0309,0.4624,9.2345,-0.0367,0.0267,-0.121,-1.8056823215880335,0.0,3.1538338661193848,-1.6515495777130127,-0.0,2.123452663421631,4.8193771345312975,-0.0,0.286211758852005,-1.4037254492389124,0.0,-0.017011750489473343,0.007451667450368404,-0.0,0.0025657175574451685,1.2991164922714233,0.0,0.02739371918141842
221.0,235.0,2.0309,0.4624,9.2345,-0.0367,0.0267,-0.121,-1.8057018719115199,0.0,3.0916309356689453,-1.6515177488327026,-0.0,2.0899462699890137,4.819405111461439,-0.0,0.28354308009147644,-1.4037449995623987,0.0,-0.014041461050510406,0.007488141767680645,-0.0,0.002473948523402214,1.2991410493850708,0.0,-0.04237125441431999
221.0,235.0,2.0309,0.4624,9.2345,-0.0367,0.0267,-0.121,-1.8057099781432093,0.0,3.1087403297424316,-1.6515421867370605,-0.0,2.130028009414673,4.819373118668356,-0.0,0.2843840718269348,-1.403729263936178,0.0,-0.019707292318344116,0.007467985153198242,-0.0,0.007170715369284153,1.2991406917572021,0.0,0.0029895957559347153
221.0,235.0,2.0309,0.4624,9.2345,-0.0367,0.0267,-0.121,-1.8056899509825648,0.0,3.071988105773926,-1.6515495777130127,-0.0,2.0766983032226562,4.819377194135942,-0.0,0.2733968496322632,-1.4036849180804651,0.0,-0.022102292627096176,0.007476220838725567,-0.0,-0.007044698111712933,1.2991365194320679,0.0,-0.08009134232997894
221.0,235.0,2.0309,0.4624,9.2345,-0.0367,0.0267,-0.121,-1.8057018719115199,0.0,3.1007328033447266,-1.6515138149261475,-0.0,2.08319091796875,4.8193489266331575,-0.0,0.2826882004737854,-1.4037697950946253,0.0,-0.022062690928578377,0.007459902670234442,-0.0,-0.02987079694867134,1.299072265625,0.0,-0.022622568532824516
221.0,235.0,2.0309,0.4624,9.2345,-0.0367,0.0267,-0.121,-1.8056899509825648,0.0,3.1194374561309814,-1.6515620946884155,-0.0,2.1163299083709717,4.819369043200769,-0.0,0.28756386041641235,-1.4037211577044886,0.0,-0.013650024309754372,0.007488141767680645,-0.0,-0.011525627225637436,1.2991529703140259,0.0,-0.04406197741627693
221.0,235.0,2.0309,0.4624,9.2345,-0.0367,0.0267,-0.121,-1.8057099781432093,0.0,3.1119232177734375,-1.6515580415725708,-0.0,2.0880978107452393,4.8194535104329965,-0.0,0.2872472107410431,-1.4037449995623987,0.0,-0.021186180412769318,0.00749219860881567,-0.0,0.0005580387078225613,1.2990885972976685,0.0,-0.05887393653392792
221.0,235.0,2.0309,0.4624,9.2345,-0.0367,0.0267,-0.121,-1.8056823215880335,0.0,3.109506130218506,-1.6515461206436157,-0.0,2.0530104637145996,4.819393227785387,-0.0,0.2950441837310791,-1.403757397328512,0.0,-0.005294921342283487,0.007504139561206102,-0.0,-0.007582721300423145,1.2991406917572021,0.0,-0.010506981983780861
221.0,235.0,2.0309,0.4624,9.2345,-0.0367,0.0267,-0.121,-1.8056618175902308,0.0,3.0854721069335938,-1.6515495777130127,-0.0,2.097341775894165,4.819409186929025,-0.0,0.2805482745170593,-1.4037254492389124,0.0,-0.00884019024670124,0.00747215561568737,-0.0,0.005817414727061987,1.2991493940353394,0.0,0.017596308141946793
221.0,235.0,2.0309,0.4624,9.2345,-0.0367,0.0267,-0.121,-1.8056661091246546,0.0,3.13006329536438,-1.651581883430481,-0.0,2.075133800506592,4.819389100163736,-0.0,0.26304182410240173,-1.4037492910968226,0.0,0.0002215229906141758,0.0074721435084939,-0.0,0.005747083108872175,1.2990968227386475,0.0,0.021992556750774384
221.0,235.0,2.0309,0.4624,9.2345,-0.0367,0.0267,-0.121,-1.8057223759093226,0.0,3.109339714050293,-1.6515456438064575,-0.0,2.065483808517456,4.819380971580305,-0.0,0.27920255064964294,-1.4037335554706019,0.0,-0.008541729301214218,0.007399596739560366,-0.0,-0.008798898197710514,1.299088478088379,0.0,0.03545897826552391
221.0,235.0,2.0309,0.4624,9.2345,-0.0367,0.0267,-0.121,-1.8056899509825648,0.0,3.0757741928100586,-1.6515655517578125,-0.0,2.070535659790039,4.8193649900849245,-0.0,0.2953563332557678,-1.4037531057940882,0.0,-0.011389065533876419,0.007439832668751478,-0.0,-0.01160512026399374,1.2991611957550049,0.0,-0.07365421950817108
221.0,235.0,2.0309,0.4624,9.2345,-0.0367,0.0267,-0.121,-1.8056580028929652,0.0,3.1047725677490234,-1.651658058166504,-0.0,2.0981404781341553,4.819369005947866,-0.0,0.28550368547439575,-1.4037531057940882,0.0,-0.022033341228961945,0.007459927350282669,-0.0,-0.00018633296713232994,1.2991528511047363,0.0,-0.004008573479950428
221.0,235.0,2.0309,0.4624,9.2345,-0.0367,0.0267,-0.121,-1.8056980572142542,0.0,3.162231922149658,-1.6515103578567505,-0.0,2.141852378845215,4.819437461882391,-0.0,0.28156667947769165,-1.4037254492389124,0.0,-0.020114436745643616,0.007467976771295071,-0.0,0.0004597398219630122,1.2991368770599365,0.0,0.039187245070934296
221.0,235.0,2.0309,0.4624,9.2345,-0.0367,0.0267,-0.121,-1.805673738519186,0.0,3.0908801555633545,-1.6515536308288574,-0.0,2.1251373291015625,4.819332989841261,-0.0,0.27649280428886414,-1.4037368933307093,0.0,-0.017218541353940964,0.007476253435015678,-0.0,-0.013762107118964195,1.2991610765457153,0.0,0.0058254096657037735
221.0,235.0,2.0309,0.4624,9.2345,-0.0367,0.0267,-0.121,-1.8056498966612757,0.0,3.1005806922912598,-1.6515700817108154,-0.0,2.0876221656799316,4.819392788201132,-0.0,0.2912222743034363,-1.4037130514727991,0.0,-0.008297902531921864,0.007472139783203602,-0.0,-0.0027317635249346495,1.2991091012954712,0.0,0.03244539350271225
221.0,235.0,2.0309,0.4624,9.2345,-0.0367,0.0267,-0.121,-1.8056899509825648,0.0,3.073143482208252,-1.651521921157837,-0.0,2.108513832092285,4.819409231632509,-0.0,0.2815724015235901,-1.4037378470050257,0.0,-0.02454613335430622,0.007467985153198242,-0.0,-0.0003685262054204941,1.299088478088379,0.0,0.0015045377658680081
218.0,229.0,2.0339,0.4612,9.2758,-0.0373,0.0192,-0.1196,-1.8057061634459437,0.0,3.0891976356506348,-1.6515620946884155,-0.0,2.1333534717559814,4.819364960282602,-0.0,0.2859871983528137,-1.403689209614889,0.0,-0.020749546587467194,0.00741969607770443,-0.0,0.007611616514623165,1.2990803718566895,0.0,-0.008413368836045265
218.0,229.0,2.0339,0.4612,9.2758,-0.0373,0.0192,-0.1196,-1.8057223759093226,0.0,3.1081602573394775,-1.6515341997146606,-0.0,2.0874223709106445,4.8194211078579805,-0.0,0.27834534645080566,-1.4037168661700647,0.0,-0.01384912058711052,0.007500013802200556,-0.0,-0.0043552955612540245,1.2990764379501343,0.0,-0.030460175126791
218.0,229.0,2.0339,0.4612,9.2758,-0.0373,0.0192,-0.1196,-1.8056618175902308,0.0,3.047041654586792,-1.6515700817108154,-0.0,2.0712504386901855,4.819389107614317,-0.0,0.27709975838661194,-1.4037130514727991,0.0,-0.015941880643367767,0.007451667450368404,-0.0,0.007572179660201073,1.2990926504135132,0.0,0.05333457142114639
218.0,229.0,2.0339,0.4612,9.2758,-0.0373,0.0192,-0.1196,-1.805702348748678,0.0,3.1063284873962402,-1.6515660285949707,-0.0,2.137887477874756,4.819396960526266,-0.0,0.28710442781448364,-1.4037860075580042,0.0,-0.008664393797516823,0.007459831424057484,-0.0,0.004809587262570858,1.2991368770599365,0.0,0.03567131608724594
218.0,229.0,2.0339,0.4612,9.2758,-0.0373,0.0192,-0.1196,-1.8056537113585414,0.0,3.094865083694458,-1.6515575647354126,-0.0,2.085538387298584,4.819396945625105,-0.0,0.27537211775779724,-1.4037368933307093,0.0,-0.01306646317243576,0.007511901669204235,-0.0,0.008082247339189053,1.2990968227386475,0.0,0.01750759407877922
218.0,229.0,2.0339,0.4612,9.2758,-0.0373,0.0192,-0.1196,-1.8056699238219203,0.0,3.0744099617004395,-1.6515495777130127,-0.0,2.073408365249634,4.819344761758604,-0.0,0.28456830978393555,-1.4037531057940882,0.0,-0.011311797425150871,0.007459831424057484,-0.0,0.004653641022741795,1.2991410493850708,0.0,-0.017695313319563866
218.0,229.0,2.0339,0.4612,9.2758,-0.0373,0.0192,-0.1196,-1.8056823215880335,0.0,3.117980480194092,-1.6515859365463257,-0.0,2.1633596420288086,4.819369035750189,-0.0,0.2742004096508026,-1.403729263936178,0.0,0.004195913206785917,0.007500372361391783,-0.0,0.0033548607025295496,1.2991487979888916,0.0,0.028373107314109802
218.0,229.0,2.0339,0.4612,9.2758,-0.0373,0.0192,-0.1196,-1.8056618175902308,0.0,3.115164279937744,-1.6515581607818604,-0.0,2.119556427001953,4.819401035993852,-0.0,0.27899011969566345,-1.4037449995623987,0.0,-0.004251581616699696,0.0074839829467237,-0.0,0.004425748251378536,1.2990927696228027,0.0,-0.006668156944215298
218.0,229.0,2.0339,0.4612,9.2758,-0.0373,0.0192,-0.1196,-1.8056656322874964,0.0,3.0759034156799316,-1.6515700817108154,-0.0,2.1048271656036377,4.819380949228563,-0.0,0.2815524637699127,-1.4037616888629358,0.0,-0.021642737090587616,0.007423438597470522,-0.0,-0.013378916308283806,1.2990764379501343,0.0,-0.012253032997250557
218.0,229.0,2.0339,0.4612,9.2758,-0.0373,0.0192,-0.1196,-1.8056780300536097,0.0,3.093639373779297,-1.651561975479126,-0.0,2.085268974304199,4.819373118668356,-0.0,0.28084856271743774,-1.4037378470050257,0.0,-0.005456522107124329,0.00752821983769536,-0.0,-5.784514360129833e-05,1.2990764379501343,0.0,0.04076872766017914
218.0,229.0,2.0339,0.4612,9.2758,-0.0373,0.0192,-0.1196,-1.8056699238219203,0.0,3.1201560497283936,-1.651581883430481,-0.0,2.1162471771240234,4.819393183081903,-0.0,0.2918049097061157,-1.4037531057940882,0.0,-0.016977787017822266,0.0074839829467237,-0.0,-0.0061864834278821945,1.299080491065979,0.0,-0.051801908761262894
218.0,229.0,2.0339,0.4612,9.2758,-0.0373,0.0192,-0.1196,-1.8056937656798304,0.0,3.059412956237793,-1.6515575647354126,-0.0,2.109386444091797,4.819433386414804,-0.0,0.28861427307128906,-1.4037254492389124,0.0,-0.007512941956520081,0.007492218632251024,-0.0,0.00028773536905646324,1.2990968227386475,0.0,-0.04716503247618675
218.0,229.0,2.0339,0.4612,9.2758,-0.0373,0.0192,-0.1196,-1.8057142696776332,0.0,3.0970611572265625,-1.6515376567840576,-0.0,2.089890480041504,4.8194051263626,-0.0,0.27573633193969727,-1.4037335554706019,0.0,-0.00841495580971241,0.007427515462040901,-0.0,-0.004790755454450846,1.2990927696228027,0.0,-0.02111460268497467
218.0,229.0,2.0339,0.4612,9.2758,-0.0373,0.0192,-0.1196,-1.8056618175902308,0.0,3.095546245574951,-1.6515536308288574,-0.0,2.12007999420166,4.8194091198738,-0.0,0.2806284427642822,-1.4037459532367151,0.0,-0.019979052245616913,0.007476220838725567,-0.0,-0.00708794966340065,1.299128770828247,0.0,0.00320007698610425
218.0,229.0,2.0339,0.4612,9.2758,-0.0373,0.0192,-0.1196,-1.805685659448141,0.0,3.1337804794311523,-1.6515700817108154,-0.0,2.10520339012146,4.819384614914217,-0.0,0.27866363525390625,-1.403785530720846,0.0,-0.02497107908129692,0.0074918270111083984,-0.0,0.005493099335581064,1.2991368770599365,0.0,0.046789005398750305
218.0,229.0,2.0339,0.4612,9.2758,-0.0373,0.0192,-0.1196,-1.8057142696776332,0.0,3.1050894260406494,-1.6515495777130127,-0.0,2.094388008117676,4.819364967733183,-0.0,0.2799323797225952,-1.4037168661700647,0.0,-0.013426307588815689,0.007451667450368404,-0.0,0.0045070890337228775,1.2991610765457153,0.0,0.010615682229399681
218.0,229.0,2.0339,0.4612,9.2758,-0.0373,0.0192,-0.1196,-1.8057309589781703,0.0,3.1876204013824463,-1.6515495777130127,-0.0,2.12869930267334,4.819380964129724,-0.0,0.28524792194366455,-1.4037779013263147,0.0,-0.010927621275186539,0.0074315923266112804,-0.0,-0.008076775819063187,1.299104928970337,0.0,0.006880733650177717
213.0,234.0,2.0411,0.4887,9.3123,-0.036,0.0223,-0.1182,-1.805673738519186,0.0,3.1130423545837402,-1.6515536308288574,-0.0,2.1030216217041016,4.819425138622083,-0.0,0.29367828369140625,-1.403757397328512,0.0,-0.023363666608929634,0.007480297703295946,-0.0,-0.0032115974463522434,1.2991610765457153,0.0,-0.02584616094827652
213.0,234.0,2.0411,0.4887,9.3123,-0.036,0.0223,-0.1182,-1.80564608196401,0.0,3.0833499431610107,-1.6515382528305054,-0.0,2.105677604675293,4.819377194135942,-0.0,0.2829190194606781,-1.4037211577044886,0.0,-0.01448671892285347,0.007488141767680645,-0.0,-0.015201653353869915,1.299080491065979,0.0,0.02710062451660633
213.0,234.0,2.0411,0.4887,9.3123,-0.036,0.0223,-0.1182,-1.8057099781432093,0.0,3.067800998687744,-1.6515978574752808,-0.0,2.105181932449341,4.819409134774961,-0.0,0.2833389639854431,-1.4037459532367151,0.0,-0.008759556338191032,0.0074721435084939,-0.0,-0.006652628071606159,1.2991447448730469,0.0,0.017567545175552368
213.0,234.0,2.0411,0.4887,9.3123,-0.036,0.0223,-0.1182,-1.8056580028929652,0.0,3.1036157608032227,-1.6515700817108154,-0.0,2.1034555435180664,4.819364967733183,-0.0,0.2711959183216095,-1.4037168661700647,0.0,-0.014773288741707802,0.007476220838725567,-0.0,-0.00761934369802475,1.2990844249725342,0.0,-0.04797843098640442
213.0,234.0,2.0411,0.4887,9.3123,-0.036,0.0223,-0.1182,-1.8056942425169886,0.0,3.0660877227783203,-1.6515620946884155,-0.0,2.067337989807129,4.819380971580305,-0.0,0.2768491208553314,-1.4037416617022913,0.0,-0.017590701580047607,0.007451667450368404,-0.0,-0.016397496685385704,1.2990680932998657,0.0,0.006579486653208733
213.0,234.0,2.0411,0.4887,9.3123,-0.036,0.0223,-0.1182,-1.8057424030699671,0.0,3.088784694671631,-1.6515536308288574,-0.0,2.1142637729644775,4.819337035506525,-0.0,0.28031444549560547,-1.4037211577044886,0.0,-0.01854364573955536,0.00743566919118166,-0.0,0.005889891646802425,1.299136996269226,0.0,-0.016379306092858315
213.0,234.0,2.0411,0.4887,9.3123,-0.036,0.0223,-0.1182,-1.8056699238219203,0.0,3.0668253898620605,-1.6515616178512573,-0.0,2.1307976245880127,4.819389137416639,-0.0,0.2980639636516571,-1.4037168661700647,0.0,-0.007519986480474472,0.0074115339666605,-0.0,0.009153195656836033,1.2990927696228027,0.0,-0.04442287236452103
213.0,234.0,2.0411,0.4887,9.3123,-0.036,0.0223,-0.1182,-1.8057099781432093,0.0,3.0861425399780273,-1.6515740156173706,-0.0,2.0899105072021484,4.819385039597311,-0.0,0.29914307594299316,-1.403757397328512,0.0,-0.011484405025839806,0.007443904876708984,-0.0,-0.01527214515954256,1.2991734743118286,0.0,0.012958388775587082
213.0,234.0,2.0411,0.4887,9.3123,-0.036,0.0223,-0.1182,-1.8057018719115199,0.0,3.111013650894165,-1.6515740156173706,-0.0,2.1208600997924805,4.819360787957468,-0.0,0.2826105058193207,-1.4037616888629358,0.0,-0.02316102758049965,0.007463979534804821,-0.0,0.0008573075756430626,1.2991091012954712,0.0,-0.031161896884441376
213.0,234.0,2.0411,0.4887,9.3123,-0.036,0.0223,-0.1182,-1.805697580377096,0.0,3.0414528846740723,-1.651525855064392,-0.0,2.1222643852233887,4.819429318397798,-0.0,0.2676953673362732,-1.4037449995623987,0.0,-0.024714728817343712,0.007435645442456007,-0.0,0.0032342877238988876,1.2991529703140259,0.0,-0.00564548559486866
213.0,234.0,2.0411,0.4887,9.3123,-0.036,0.0223,-0.1182,-1.8056942425169886,0.0,3.113703966140747,-1.6515461206436157,-0.0,2.0588386058807373,4.819437402277746,-0.0,0.2839411199092865,-1.4037254492389124,0.0,-0.021970411762595177,0.007451642770320177,-0.0,-0.011474438942968845,1.2991366386413574,0.0,-0.033843446522951126
213.0,234.0,2.0411,0.4887,9.3123,-0.036,0.0223,-0.1182,-1.8056537113585414,0.0,3.0898733139038086,-1.6515495777130127,-0.0,2.08505916595459,4.819405148714342,-0.0,0.27796459197998047,-1.4037087599383753,0.0,-0.011373735964298248,0.007431597448885441,-0.0,0.01757737062871456,1.299120545387268,0.0,-0.04840527102351189
213.0,234.0,2.0411,0.4887,9.3123,-0.036,0.0223,-0.1182,-1.8056374988951625,0.0,3.109549045562744,-1.6515575647354126,-0.0,2.081724166870117,4.819449353009023,-0.0,0.28224125504493713,-1.4037254492389124,0.0,-0.029840370640158653,0.0074721435084939,-0.0,0.002152565633878112,1.2991771697998047,0.0,-0.007651877123862505
213.0,234.0,2.0411,0.4887,9.3123,-0.036,0.0223,-0.1182,-1.8056613407530726,0.0,3.0854997634887695,-1.6515899896621704,-0.0,2.08840012550354,4.819392803102293,-0.0,0.28730934858322144,-1.4037531057940882,0.0,-0.010131963528692722,0.00741969607770443,-0.0,-0.011588850989937782,1.2991693019866943,0.0,0.032706815749406815
213.0,234.0,2.0411,0.4887,9.3123,-0.036,0.0223,-0.1182,-1.8057018719115199,0.0,3.165059804916382,-1.6515218019485474,-0.0,2.074190855026245,4.819409164577284,-0.0,0.28432315587997437,-1.4037049452411097,0.0,-0.017723742872476578,0.0074721435084939,-0.0,-0.004593799356371164,1.299104928970337,0.0,-0.00833651702851057
213.0,234.0,2.0411,0.4887,9.3123,-0.036,0.0223,-0.1182,-1.8057061634459437,0.0,3.0801351070404053,-1.6515382528305054,-0.0,2.1064250469207764,4.819396960526266,-0.0,0.2736322283744812,-1.4037449995623987,0.0,-0.018299702554941177,0.007435653358697891,-0.0,0.005830223206430674,1.299096703529358,0.0,0.048600610345602036
213.0,234.0,2.0411,0.4887,9.3123,-0.036,0.0223,-0.1182,-1.8056775532164515,0.0,3.104576587677002,-1.6515103578567505,-0.0,2.1060619354248047,4.819364923029699,-0.0,0.27494966983795166,-1.403757397328512,0.0,-0.021494274958968163,0.007451667450368404,-0.0,0.010699967853724957,1.2990885972976685,0.0,-0.01353735476732254
218.0,244.0,2.0261,0.4965,9.265,-0.0334,0.0211,-0.1194,-1.8056899509825648,0.0,3.0877552032470703,-1.6515780687332153,-0.0,2.0615320205688477,4.819405111461439,-0.0,0.2795974612236023,-1.4037378470050257,0.0,-0.023946041241288185,0.00752821983769536,-0.0,-0.009794353507459164,1.299128770828247,0.0,-0.015050552785396576
218.0,244.0,2.0261,0.4965,9.265,-0.0334,0.0211,-0.1194,-1.80564608196401,0.0,3.1266860961914062,-1.6515660285949707,-0.0,2.0434932708740234,4.819413277297773,-0.0,0.28229695558547974,-1.4037616888629358,0.0,-0.0140692088752985,0.0074435132555663586,-0.0,-0.004921799059957266,1.299120545387268,0.0,-0.0164087675511837
218.0,244.0,2.0261,0.4965,9.265,-0.0334,0.0211,-0.1194,-1.8056699238219203,0.0,3.111567258834839,-1.6515620946884155,-0.0,2.125471353530884,4.819364923029699,-0.0,0.296023964881897,-1.4037168661700647,0.0,-0.00904281996190548,0.007492218632251024,-0.0,0.0019122352823615074,1.2991247177124023,0.0,0.014332642778754234
218.0,244.0,2.0261,0.4965,9.265,-0.0334,0.0211,-0.1194,-1.8056823215880335,0.0,3.1115808486938477,-1.651522159576416,-0.0,2.105421304702759,4.81936493793086,-0.0,0.2963508069515228,-1.4037774244891565,0.0,-0.009393353015184402,0.007447981741279364,-0.0,-0.006397324614226818,1.299096703529358,0.0,-0.0016167070716619492
218.0,244.0,2.0261,0.4965,9.265,-0.0334,0.0211,-0.1194,-1.805697580377096,0.0,3.1126623153686523,-1.6515575647354126,-0.0,2.0919511318206787,4.8193731037671945,-0.0,0.279295951128006,-1.403729263936178,0.0,-0.023180369287729263,0.007476220838725567,-0.0,-0.010237409733235836,1.2991447448730469,0.0,0.009356169030070305
218.0,244.0,2.0261,0.4965,9.265,-0.0334,0.0211,-0.1194,-1.8057342968382777,0.0,3.090325117111206,-1.6515978574752808,-0.0,2.092376232147217,4.81942147293643,-0.0,0.2784421741962433,-1.4037697950946253,0.0,-0.01694289967417717,0.007423830218613148,-0.0,0.008215324021875858,1.2991091012954712,0.0,0.032458409667015076
218.0,244.0,2.0261,0.4965,9.265,-0.0334,0.0211,-0.1194,-1.8056823215880335,0.0,3.1080150604248047,-1.6515580415725708,-0.0,2.1345314979553223,4.819364967733183,-0.0,0.27983617782592773,-1.403729263936178,0.0,-0.015349924564361572,0.007403281982988119,-0.0,-0.0019033398712053895,1.2990763187408447,0.0,-0.014938972890377045
218.0,244.0,2.0261,0.4965,9.265,-0.0334,0.0211,-0.1194,-1.8056656322874964,0.0,3.0880239009857178,-1.6515341997146606,-0.0,2.0806281566619873,4.81938502469615,-0.0,0.28780442476272583,-1.4037168661700647,0.0,-0.012614648789167404,0.007427515462040901,-0.0,-0.0016653616912662983,1.2990926504135132,0.0,-0.06450964510440826
218.0,244.0,2.0261,0.4965,9.265,-0.0334,0.0211,-0.1194,-1.8056704006590785,0.0,3.1118412017822266,-1.651525855064392,-0.0,2.12442684173584,4.819353017001905,-0.0,0.2789752781391144,-1.4037254492389124,0.0,-1.594889909029007e-06,0.007467985153198242,-0.0,0.003432715777307749,1.2991691827774048,0.0,-0.022137589752674103
218.0,244.0,2.0261,0.4965,9.265,-0.0334,0.0211,-0.1194,-1.8057018719115199,0.0,3.0937509536743164,-1.6515616178512573,-0.0,2.1560935974121094,4.819413299649515,-0.0,0.2831776738166809,-1.4037492910968226,0.0,-0.02009880170226097,0.007459902670234442,-0.0,-0.0037181563675403595,1.299104928970337,0.0,-0.050891049206256866
218.0,244.0,2.0261,0.4965,9.265,-0.0334,0.0211,-0.1194,-1.8056899509825648,0.0,3.0738890171051025,-1.6515103578567505,-0.0,2.037102699279785,4.819344813912668,-0.0,0.2765882611274719,-1.4037492910968226,0.0,-0.023864060640335083,0.007467985153198242,-0.0,-0.00496647646650672,1.2991770505905151,0.0,0.010309889912605286
218.0,244.0,2.0261,0.4965,9.265,-0.0334,0.0211,-0.1194,-1.8057018719115199,0.0,3.1014456748962402,-1.6515700817108154,-0.0,2.057755947113037,4.8193969679768465,-0.0,0.2765251398086548,-1.4037168661700647,0.0,-0.021113954484462738,0.007423438597470522,-0.0,4.203230491839349e-05,1.2990803718566895,0.0,-0.017509588971734047
218.0,244.0,2.0261,0.4965,9.265,-0.0334,0.0211,-0.1194,-1.8057061634459437,0.0,3.0818564891815186,-1.6515536308288574,-0.0,2.1205508708953857,4.819413292198934,-0.0,0.2810330390930176,-1.4037087599383753,0.0,-0.014097021892666817,0.007480297703295946,-0.0,-0.0061022131703794,1.2991365194320679,0.0,-0.011465143412351608
218.0,244.0,2.0261,0.4965,9.265,-0.0334,0.0211,-0.1194,-1.805657526055807,0.0,3.1043684482574463,-1.6515262126922607,-0.0,2.0747811794281006,4.819364982634344,-0.0,0.2905402183532715,-1.4037697950946253,0.0,-0.013422206044197083,0.0074435132555663586,-0.0,-0.0025812967214733362,1.2991691827774048,0.0,0.018761612474918365
218.0,244.0,2.0261,0.4965,9.265,-0.0334,0.0211,-0.1194,-1.8056656322874964,0.0,3.0894365310668945,-1.6516097784042358,-0.0,2.0682175159454346,4.819360840111532,-0.0,0.28470712900161743,-1.4037168661700647,0.0,-0.023642297834157944,0.007463908288627863,-0.0,-0.0026159377302974463,1.2990968227386475,0.0,0.0507279634475708
218.0,244.0,2.0261,0.4965,9.265,-0.0334,0.0211,-0.1194,-1.8056861362852992,0.0,3.135162830352783,-1.6515740156173706,-0.0,2.0996265411376953,4.819421420782366,-0.0,0.27964499592781067,-1.4036968390094202,0.0,-0.019809739664196968,0.0074598826467990875,-0.0,-0.007974948734045029,1.2991570234298706,0.0,-0.017099948599934578
218.0,244.0,2.0261,0.4965,9.265,-0.0334,0.0211,-0.1194,-1.8056537113585414,0.0,3.0441951751708984,-1.6515382528305054,-0.0,2.0901541709899902,4.8193969679768465,-0.0,0.2795954942703247,-1.4037335554706019,0.0,-0.02026403322815895,0.007415594533085823,-0.0,0.003317271126434207,1.2991610765457153,0.0,0.008804443292319775
219.0,244.0,2.083,0.5073,9.0658,-0.0432,0.0218,-0.1164,-1.8057099781432093,0.0,3.1254334449768066,-1.6515779495239258,-0.0,2.1252379417419434,4.819401050895014,-0.0,0.27770665287971497,-1.4037335554706019,0.0,-0.018021482974290848,0.0074274674989283085,-0.0,-0.00117710221093148,1.2991529703140259,0.0,0.03430560603737831
219.0,244.0,2.083,0.5073,9.0658,-0.0432,0.0218,-0.1164,-1.8057223759093226,0.0,3.124119281768799,-1.6515064239501953,-0.0,2.104624032974243,4.819417382567682,-0.0,0.29009896516799927,-1.4037817160235804,0.0,-0.019711628556251526,0.007455842569470406,-0.0,0.006526054348796606,1.2991447448730469,0.0,-0.012663550674915314
219.0,244.0,2.083,0.5073,9.0658,-0.0432,0.0218,-0.1164,-1.8057018719115199,0.0,3.0848021507263184,-1.6515939235687256,-0.0,2.0508017539978027,4.81942147293643,-0.0,0.27999749779701233,-1.4037697950946253,0.0,-0.0211112592369318,0.007423862814903259,-0.0,-0.0020348469261080027,1.299145221710205,0.0,0.023257823660969734
219.0,244.0,2.083,0.5073,9.0658,-0.0432,0.0218,-0.1164,-1.8057061634459437,0.0,3.0777599811553955,-1.6515138149261475,-0.0,2.096285820007324,4.819433393865385,-0.0,0.28706830739974976,-1.4037492910968226,0.0,-0.020489048212766647,0.007459922693669796,-0.0,-0.008511941879987717,1.299104928970337,0.0,-0.001469931099563837
219.0,244.0,2.083,0.5073,9.0658,-0.0432,0.0218,-0.1164,-1.8056618175902308,0.0,3.079469680786133,-1.6515859365463257,-0.0,2.088442802429199,4.819353039353647,-0.0,0.29009687900543213,-1.4037655035602015,0.0,-0.02431490272283554,0.007472168188542128,-0.0,-0.005795338656753302,1.2991406917572021,0.0,-0.011247172951698303
219.0,244.0,2.083,0.5073,9.0658,-0.0432,0.0218,-0.1164,-1.8057223759093226,0.0,3.0877959728240967,-1.6515575647354126,-0.0,2.0506625175476074,4.81936493793086,-0.0,0.2711505591869354,-1.4037168661700647,0.0,-0.006017316598445177,0.007423879113048315,-0.0,-0.01521063782274723,1.299128770828247,0.0,0.03120489977300167
219.0,244.0,2.083,0.5073,9.0658,-0.0432,0.0218,-0.1164,-1.8057018719115199,0.0,3.1019673347473145,-1.6516019105911255,-0.0,2.122262954711914,4.819377209037103,-0.0,0.287236750125885,-1.4037449995623987,0.0,-0.019919071346521378,0.0074639953672885895,-0.0,-0.008885731920599937,1.2991852760314941,0.0,-0.02284456416964531
219.0,244.0,2.083,0.5073,9.0658,-0.0432,0.0218,-0.1164,-1.8056580028929652,0.0,3.1412625312805176,-1.6515415906906128,-0.0,2.088376522064209,4.819373111217775,-0.0,0.2890182137489319,-1.4037092367755335,0.0,-0.030794108286499977,0.00742794806137681,-0.0,-0.01105396170169115,1.2990927696228027,0.0,-0.027515113353729248
219.0,244.0,2.083,0.5073,9.0658,-0.0432,0.0218,-0.1164,-1.8056942425169886,0.0,3.0944814682006836,-1.6515859365463257,-0.0,2.0691967010498047,4.819433386414804,-0.0,0.27127546072006226,-1.4037378470050257,0.0,-0.015716398134827614,0.007504139561206102,-0.0,-0.0066242218017578125,1.299080491065979,0.0,-0.01079261302947998
219.0,244.0,2.083,0.5073,9.0658,-0.0432,0.0218,-0.1164,-1.8056980572142542,0.0,3.0575032234191895,-1.651581883430481,-0.0,2.0899503231048584,4.819364967733183,-0.0,0.26687783002853394,-1.4037378470050257,0.0,-0.018011683598160744,0.007451667450368404,-0.0,0.007444716989994049,1.299072265625,0.0,-0.020866520702838898
219.0,244.0,2.083,0.5073,9.0658,-0.0432,0.0218,-0.1164,-1.8056580028929652,0.0,3.1097769737243652,-1.651502251625061,-0.0,2.09867262840271,4.819405148714342,-0.0,0.29801440238952637,-1.403785530720846,0.0,-0.007072167936712503,0.007463979534804821,-0.0,-5.322881042957306e-05,1.2991529703140259,0.0,0.023785986006259918
219.0,244.0,2.083,0.5073,9.0658,-0.0432,0.0218,-0.1164,-1.8056661091246546,0.0,3.0680315494537354,-1.6515536308288574,-0.0,2.0484135150909424,4.819364900677957,-0.0,0.2905498147010803,-1.4037130514727991,0.0,-0.025790633633732796,0.007431983947753906,-0.0,-0.007014892995357513,1.2991447448730469,0.0,0.005836843978613615
219.0,244.0,2.083,0.5073,9.0658,-0.0432,0.0218,-0.1164,-1.8057223759093226,0.0,3.1071925163269043,-1.6515700817108154,-0.0,2.0953245162963867,4.819360750704565,-0.0,0.2836117446422577,-1.4037130514727991,0.0,-0.010827135294675827,0.0074839829467237,-0.0,0.0036576674319803715,1.2991691827774048,0.0,0.0009148446843028069
219.0,244.0,2.083,0.5073,9.0658,-0.0432,0.0218,-0.1164,-1.8056379757323207,0.0,3.1081371307373047,-1.6515700817108154,-0.0,2.0886425971984863,4.819396960526266,-0.0,0.28284990787506104,-1.4037378470050257,0.0,-0.01246007438749075,0.007423830218613148,-0.0,-0.003963252529501915,1.2991365194320679,0.0,-0.016915706917643547
219.0,244.0,2.083,0.5073,9.0658,-0.0432,0.0218,-0.1164,-1.8056780300536097,0.0,3.06782865524292,-1.6515978574752808,-0.0,2.0715994834899902,4.819380964129724,-0.0,0.28388404846191406,-1.4037492910968226,0.0,-0.018592385575175285,0.00747990608215332,-0.0,-0.007647415157407522,1.2991411685943604,0.0,-0.014662468805909157
219.0,244.0,2.083,0.5073,9.0658,-0.0432,0.0218,-0.1164,-1.8056494198241175,0.0,3.124763011932373,-1.6515580415725708,-0.0,2.0805513858795166,4.819401028543272,-0.0,0.28059929609298706,-1.4037531057940882,0.0,-0.015260789543390274,0.007495903875678778,-0.0,0.001956844935193658,1.2991368770599365,0.0,-0.009989134967327118
219.0,244.0,2.083,0.5073,9.0658,-0.0432,0.0218,-0.1164,-1.8056937656798304,0.0,3.067127227783203,-1.6515859365463257,-0.0,2.113565444946289,4.819388749986448,-0.0,0.2817341089248657,-1.4036968390094202,0.0,-0.0051252874545753,0.0074558258056640625,-0.0,-0.0038905609399080276,1.299104928970337,0.0,0.02164631336927414
219.0,244.0,2.083,0.5073,9.0658,-0.0432,0.0218,-0.1164,-1.805746694604391,0.0,3.1219680309295654,-1.6515421867370605,-0.0,2.0657620429992676,4.8193809790308855,-0.0,0.2699909806251526,-1.4037616888629358,0.0,-0.02603067085146904,0.007467985153198242,-0.0,-0.01794370263814926,1.2991091012954712,0.0,-0.04625286906957626
221.0,232.0,2.0477,0.4935,9.2243,-0.0373,0.0293,-0.1116,-1.8056336841978968,0.0,3.119102954864502,-1.651517629623413,-0.0,2.0883944034576416,4.819393227785387,-0.0,0.2709118723869324,-1.403729263936178,0.0,-0.011515029706060886,0.007403281982988119,-0.0,-0.004660916514694691,1.299120545387268,0.0,-0.006298125721514225
221.0,232.0,2.0477,0.4935,9.2243,-0.0373,0.0293,-0.1116,-1.8057018719115199,0.0,3.1100242137908936,-1.651581883430481,-0.0,2.1058006286621094,4.8193726790841005,-0.0,0.2818011939525604,-1.4037774244891565,0.0,-0.018870119005441666,0.007540531922131777,-0.0,0.007858820259571075,1.2991528511047363,0.0,0.0016029360704123974
221.0,232.0,2.0477,0.4935,9.2243,-0.0373,0.0293,-0.1116,-1.8057061634459437,0.0,3.1188297271728516,-1.651581883430481,-0.0,2.0681309700012207,4.819421040802755,-0.0,0.29368916153907776,-1.4037697950946253,0.0,-0.009737979620695114,0.007504139561206102,-0.0,0.002076374599710107,1.299120545387268,0.0,-0.0014389287680387497
221.0,232.0,2.0477,0.4935,9.2243,-0.0373,0.0293,-0.1116,-1.8057018719115199,0.0,3.1136908531188965,-1.6515740156173706,-0.0,2.0870726108551025,4.819385039597311,-0.0,0.2928924560546875,-1.4037531057940882,0.0,-0.017864195629954338,0.007492218632251024,-0.0,-0.00869828648865223,1.2990641593933105,0.0,-0.007667129393666983
221.0,232.0,2.0477,0.4935,9.2243,-0.0373,0.0293,-0.1116,-1.8056980572142542,0.0,3.1106958389282227,-1.6515541076660156,-0.0,2.1029460430145264,4.819433416217127,-0.0,0.27653607726097107,-1.4037449995623987,0.0,-0.016191981732845306,0.007508216425776482,-0.0,0.005811204668134451,1.2990968227386475,0.0,0.0017716074362397194
221.0,232.0,2.0477,0.4935,9.2243,-0.0373,0.0293,-0.1116,-1.8056899509825648,0.0,3.097486734390259,-1.6515495777130127,-0.0,2.0811376571655273,4.819396960526266,-0.0,0.27471688389778137,-1.4037531057940882,0.0,-0.02259320579469204,0.007463908288627863,-0.0,0.01227031834423542,1.299128770828247,0.0,-0.0026893317699432373
221.0,232.0,2.0477,0.4935,9.2243,-0.0373,0.0293,-0.1116,-1.805685659448141,0.0,3.0761356353759766,-1.6516177654266357,-0.0,2.0511531829833984,4.819396960526266,-0.0,0.2713683545589447,-1.4037335554706019,0.0,-0.006823154632002115,0.007508216425776482,-0.0,0.002847498282790184,1.2991448640823364,0.0,-0.015647422522306442
221.0,232.0,2.0477,0.4935,9.2243,-0.0373,0.0293,-0.1116,-1.8056861362852992,0.0,3.098252773284912,-1.6515575647354126,-0.0,2.10087251663208,4.819369005947866,-0.0,0.2862735986709595,-1.4037492910968226,0.0,-0.022501304745674133,0.007439828012138605,-0.0,-0.0036672174464911222,1.2991693019866943,0.0,-0.0031521059572696686
221.0,232.0,2.0477,0.4935,9.2243,-0.0373,0.0293,-0.1116,-1.8056937656798304,0.0,3.0947072505950928,-1.6515415906906128,-0.0,2.089038610458374,4.819385039597311,-0.0,0.29557856917381287,-1.403701130543844,0.0,-0.0150759257376194,0.007496262900531292,-0.0,-0.014294164255261421,1.299104928970337,0.0,0.016041601076722145
221.0,232.0,2.0477,0.4935,9.2243,-0.0373,0.0293,-0.1116,-1.8056422672667445,0.0,3.1290183067321777,-1.6515097618103027,-0.0,2.126558780670166,4.819409134774961,-0.0,0.2896713316440582,-1.4037254492389124,0.0,8.384662214666605e-05,0.007463988848030567,-0.0,0.0021165101788938046,1.299193024635315,0.0,-0.0016003013588488102
221.0,232.0,2.0477,0.4935,9.2243,-0.0373,0.0293,-0.1116,-1.8056780300536097,0.0,3.0964646339416504,-1.6515699625015259,-0.0,2.11946177482605,4.8193489638860605,-0.0,0.27928829193115234,-1.4037335554706019,0.0,-0.009513168595731258,0.007415602914988995,-0.0,-0.00985632836818695,1.2990926504135132,0.0,0.03843271732330322
221.0,232.0,2.0477,0.4935,9.2243,-0.0373,0.0293,-0.1116,-1.8056899509825648,0.0,3.100219249725342,-1.651533603668213,-0.0,2.095684051513672,4.819401050895014,-0.0,0.277614563703537,-1.403701130543844,0.0,-0.028095481917262077,0.007419671397656202,-0.0,-0.014356357976794243,1.299080491065979,0.0,0.01792614534497261
221.0,232.0,2.0477,0.4935,9.2243,-0.0373,0.0293,-0.1116,-1.805650373498434,0.0,3.064612865447998,-1.6515620946884155,-0.0,2.0827741622924805,4.819401028543272,-0.0,0.2952095568180084,-1.4037211577044886,0.0,-0.008803852833807468,0.007504139561206102,-0.0,0.0017851872835308313,1.2990927696228027,0.0,0.010233819484710693
221.0,232.0,2.0477,0.4935,9.2243,-0.0373,0.0293,-0.1116,-1.8056899509825648,0.0,3.10628080368042,-1.6515536308288574,-0.0,2.0779857635498047,4.819413277297773,-0.0,0.2846188545227051,-1.4037168661700647,0.0,-0.02906564623117447,0.00745585048571229,-0.0,-0.002912125550210476,1.2990927696228027,0.0,-0.015415666624903679
221.0,232.0,2.0477,0.4935,9.2243,-0.0373,0.0293,-0.1116,-1.805702348748678,0.0,3.085345983505249,-1.6516019105911255,-0.0,2.138789176940918,4.819353002100744,-0.0,0.28490298986434937,-1.4037130514727991,0.0,-0.022577883675694466,0.0074921660125255585,-0.0,0.001991730183362961,1.2991529703140259,0.0,-0.009919652715325356
221.0,232.0,2.0477,0.4935,9.2243,-0.0373,0.0293,-0.1116,-1.8056980572142542,0.0,3.022339344024658,-1.6515660285949707,-0.0,2.111334800720215,4.819385039597311,-0.0,0.27986133098602295,-1.4037168661700647,0.0,-0.02100200206041336,0.0074599189683794975,-0.0,-0.005923084914684296,1.299080491065979,0.0,-0.03373904526233673
221.0,232.0,2.0477,0.4935,9.2243,-0.0373,0.0293,-0.1116,-1.8057061634459437,0.0,3.1181130409240723,-1.6515700817108154,-0.0,2.130917549133301,4.8193731410200975,-0.0,0.29324400424957275,-1.4037087599383753,0.0,-0.006640538573265076,0.007427931763231754,-0.0,-0.0019359950674697757,1.2991894483566284,0.0,-0.04650569707155228
217.0,233.0,2.0853,0.5013,9.0999,-0.0383,0.0165,-0.1158,-1.805673738519186,0.0,3.077256441116333,-1.6515495777130127,-0.0,2.0678040981292725,4.819348971336641,-0.0,0.2753295600414276,-1.4037531057940882,0.0,-0.018013425171375275,0.007516014389693737,-0.0,-0.002599762985482812,1.2991447448730469,0.0,-0.012769259512424469
217.0,233.0,2.0853,0.5013,9.0999,-0.0383,0.0165,-0.1158,-1.8057018719115199,0.0,3.0791497230529785,-1.6515779495239258,-0.0,2.1210896968841553,4.819369035750189,-0.0,0.2852519750595093,-1.4037531057940882,0.0,-0.007343529723584652,0.007496343459933996,-0.0,-0.0003275788913015276,1.2991571426391602,0.0,0.04492741450667381
217.0,233.0,2.0853,0.5013,9.0999,-0.0383,0.0165,-0.1158,-1.8056980572142542,0.0,3.1043972969055176,-1.6515978574752808,-0.0,2.1406333446502686,4.819465736835756,-0.0,0.28081968426704407,-1.4037130514727991,0.0,-0.01893463358283043,0.007463883608579636,-0.0,8.620717562735081e-05,1.2991770505905151,0.0,-0.046594105660915375
217.0,233.0,2.0853,0.5013,9.0999,-0.0383,0.0165,-0.1158,-1.8057223759093226,0.0,3.1055827140808105,-1.6516019105911255,-0.0,2.120149612426758,4.819369028299608,-0.0,0.28565075993537903,-1.4037168661700647,0.0,-0.015714820474386215,0.007443496957421303,-0.0,0.009637738578021526,1.2991570234298706,0.0,0.00449884869158268
217.0,233.0,2.0853,0.5013,9.0999,-0.0383,0.0165,-0.1158,-1.8056980572142542,0.0,3.0641579627990723,-1.6515860557556152,-0.0,2.0948123931884766,4.819385054498472,-0.0,0.29133760929107666,-1.4037531057940882,0.0,-0.018684150651097298,0.007476204074919224,-0.0,-0.0025302672293037176,1.2991247177124023,0.0,-0.009412309154868126
217.0,233.0,2.0853,0.5013,9.0999,-0.0383,0.0165,-0.1158,-1.805685659448141,0.0,3.129973888397217,-1.6515699625015259,-0.0,2.101598024368286,4.819369065552511,-0.0,0.2840845584869385,-1.4037378470050257,0.0,-0.012094372883439064,0.007403770461678505,-0.0,-0.015982160344719887,1.2991091012954712,0.0,0.018901556730270386
217.0,233.0,2.0853,0.5013,9.0999,-0.0383,0.0165,-0.1158,-1.8056780300536097,0.0,3.145857810974121,-1.6515218019485474,-0.0,2.106571674346924,4.819357122271814,-0.0,0.2879021167755127,-1.4037130514727991,0.0,-0.020318660885095596,0.00746393296867609,-0.0,0.007635676767677069,1.299136996269226,0.0,-0.001630384474992752
217.0,233.0,2.0853,0.5013,9.0999,-0.0383,0.0165,-0.1158,-1.8057099781432093,0.0,3.1066765785217285,-1.6515415906906128,-0.0,2.094064474105835,4.819380949228563,-0.0,0.27646753191947937,-1.4037168661700647,0.0,-0.014449739828705788,0.007431567646563053,-0.0,-0.003269679145887494,1.299080491065979,0.0,0.0457184761762619
217.0,233.0,2.0853,0.5013,9.0999,-0.0383,0.0165,-0.1158,-1.805685659448141,0.0,3.152806282043457,-1.6515699625015259,-0.0,2.08931565284729,4.819373118668356,-0.0,0.2671554982662201,-1.4037655035602015,0.0,-0.012578872963786125,0.007496296428143978,-0.0,-0.004854277241975069,1.2991610765457153,0.0,-0.06665783375501633
217.0,233.0,2.0853,0.5013,9.0999,-0.0383,0.0165,-0.1158,-1.8057099781432093,0.0,3.0862698554992676,-1.651545524597168,-0.0,2.0621261596679688,4.819396960526266,-0.0,0.28817448019981384,-1.4037130514727991,0.0,-0.019489426165819168,0.007476220838725567,-0.0,0.0021555330604314804,1.2991406917572021,0.0,-0.005369288381189108
217.0,233.0,2.0853,0.5013,9.0999,-0.0383,0.0165,-0.1158,-1.8057266674437464,0.0,3.129207134246826,-1.6515382528305054,-0.0,2.081819534301758,4.819396960526266,-0.0,0.28614842891693115,-1.4037612120257776,0.0,-0.025348331779241562,0.0074721435084939,-0.0,-0.0047827488742768764,1.2990968227386475,0.0,0.0013435711152851582
217.0,233.0,2.0853,0.5013,9.0999,-0.0383,0.0165,-0.1158,-1.8056580028929652,0.0,3.1502785682678223,-1.6515620946884155,-0.0,2.079789400100708,4.819413277297773,-0.0,0.2773589491844177,-1.4037449995623987,0.0,-0.013782411813735962,0.0074962954968214035,-0.0,-0.0012854370288550854,1.2991324663162231,0.0,-0.05449837073683739
217.0,233.0,2.0853,0.5013,9.0999,-0.0383,0.0165,-0.1158,-1.805690427819723,0.0,3.076578378677368,-1.651633858680725,-0.0,2.076516628265381,4.819405141263761,-0.0,0.2867765724658966,-1.4037211577044886,0.0,-0.03066142275929451,0.007451667450368404,-0.0,-0.009014205075800419,1.2991091012954712,0.0,-0.02043740823864937
217.0,233.0,2.0853,0.5013,9.0999,-0.0383,0.0165,-0.1158,-1.8057018719115199,0.0,3.0872113704681396,-1.6515097618103027,-0.0,2.0966360569000244,4.819396960526266,-0.0,0.27704691886901855,-1.403729263936178,0.0,-0.006211144383996725,0.007431983947753906,-0.0,-0.0007783181499689817,1.299080491065979,0.0,-0.004059997387230396
217.0,233.0,2.0853,0.5013,9.0999,-0.0383,0.0165,-0.1158,-1.8057056866087855,0.0,3.068063497543335,-1.6515495777130127,-0.0,2.1179733276367188,4.819433408766546,-0.0,0.27690589427948,-1.4037130514727991,0.0,-0.0056080203503370285,0.007479881402105093,-0.0,-0.003310250584036112,1.2991247177124023,0.0,0.027652140706777573
217.0,233.0,2.0853,0.5013,9.0999,-0.0383,0.0165,-0.1158,-1.8056580028929652,0.0,3.1163785457611084,-1.6515899896621704,-0.0,2.107694625854492,4.819405141263761,-0.0,0.28467798233032227,-1.4037616888629358,0.0,-0.017951587215065956,0.007495892234146595,-0.0,-0.010616343468427658,1.2990926504135132,0.0,0.022361353039741516
217.0,233.0,2.0853,0.5013,9.0999,-0.0383,0.0165,-0.1158,-1.8057018719115199,0.0,3.0927796363830566,-1.6515421867370605,-0.0,2.08280348777771,4.819405141263761,-0.0,0.2900863289833069,-1.4037335554706019,0.0,-0.012170040979981422,0.007483971305191517,-0.0,0.003465249203145504,1.299128770828247,0.0,0.013626741245388985
223.0,226.0,1.9735,0.4199,9.1753,-0.0367,0.0237,-0.1136,-1.805697580377096,0.0,3.061859607696533,-1.651534080505371,-0.0,2.10758638381958,4.819421063154497,-0.0,0.29306209087371826,-1.4037492910968226,0.0,-0.013754697516560555,0.00751221738755703,-0.0,0.0003912044921889901,1.2991368770599365,0.0,-0.012054122053086758
223.0,226.0,1.9735,0.4199,9.1753,-0.0367,0.0237,-0.1136,-1.8056618175902308,0.0,3.107907295227051,-1.6515740156173706,-0.0,2.1168289184570312,4.819401058345594,-0.0,0.2857692837715149,-1.4037488142596644,0.0,-0.012964111752808094,0.007511821575462818,-0.0,-0.007166936062276363,1.2990968227386475,0.0,-0.0124164167791605
223.0,226.0,1.9735,0.4199,9.1753,-0.0367,0.0237,-0.1136,-1.8056899509825648,0.0,3.095694065093994,-1.6515700817108154,-0.0,2.0673091411590576,4.819360765605726,-0.0,0.2928272783756256,-1.4037531057940882,0.0,-0.02225138247013092,0.00747990608215332,-0.0,-0.000428550411015749,1.2990968227386475,0.0,-0.01221671886742115
223.0,226.0,1.9735,0.4199,9.1753,-0.0367,0.0237,-0.1136,-1.8057223759093226,0.0,3.101746082305908,-1.6515536308288574,-0.0,2.0937042236328125,4.819396960526266,-0.0,0.2665235698223114,-1.403740708027975,0.0,-0.012439188547432423,0.007403721567243338,-0.0,-0.007162772119045258,1.2991770505905151,0.0,-0.03709143400192261
223.0,226.0,1.9735,0.4199,9.1753,-0.0367,0.0237,-0.1136,-1.8056541881956996,0.0,3.055654525756836,-1.6515536308288574,-0.0,2.0839309692382812,4.819409209280767,-0.0,0.28433385491371155,-1.4037211577044886,0.0,-0.032758645713329315,0.007467976771295071,-0.0,0.004858802538365126,1.299128770828247,0.0,-0.008956316858530045
223.0,226.0,1.9735,0.4199,9.1753,-0.0367,0.0237,-0.1136,-1.8057142696776332,0.0,3.1471900939941406,-1.651534080505371,-0.0,2.079646110534668,4.819421435683527,-0.0,0.28004422783851624,-1.4037616888629358,0.0,-0.019042672589421272,0.007451679557561874,-0.0,-0.018010495230555534,1.299128770828247,0.0,0.028734248131513596
223.0,226.0,1.9735,0.4199,9.1753,-0.0367,0.0237,-0.1136,-1.8056537113585414,0.0,3.0791664123535156,-1.6515063047409058,-0.0,2.085564136505127,4.819409194379606,-0.0,0.2798018455505371,-1.4037449995623987,0.0,-0.00544897373765707,0.007492218632251024,-0.0,-0.005450354889035225,1.2991610765457153,0.0,-0.04725094139575958
223.0,226.0,1.9735,0.4199,9.1753,-0.0367,0.0237,-0.1136,-1.8056780300536097,0.0,3.095402240753174,-1.6515495777130127,-0.0,2.088078022003174,4.819376776903429,-0.0,0.29238322377204895,-1.403729263936178,0.0,-0.025879021733999252,0.007427927106618881,-0.0,-0.013680643402040005,1.2991368770599365,0.0,0.0521085225045681
223.0,226.0,1.9735,0.4199,9.1753,-0.0367,0.0237,-0.1136,-1.8057223759093226,0.0,3.1186957359313965,-1.6515700817108154,-0.0,2.101144552230835,4.819337042957105,-0.0,0.2824515700340271,-1.4037297407733362,0.0,0.002095657167956233,0.007443904876708984,-0.0,-0.009248842485249043,1.2991091012954712,0.0,0.029705990105867386
223.0,226.0,1.9735,0.4199,9.1753,-0.0367,0.0237,-0.1136,-1.8056818447508753,0.0,3.0737967491149902,-1.6515536308288574,-0.0,2.1231446266174316,4.819357099920072,-0.0,0.2842363715171814,-1.4037531057940882,0.0,-0.03622676059603691,0.00747211929410696,-0.0,-0.010542279109358788,1.2990968227386475,0.0,-0.022640561684966087
223.0,226.0,1.9735,0.4199,9.1753,-0.0367,0.0237,-0.1136,-1.8057018719115199,0.0,3.0891940593719482,-1.6515495777130127,-0.0,2.0821943283081055,4.819421413331785,-0.0,0.274156391620636,-1.4037774244891565,0.0,-0.020843705162405968,0.0074922265484929085,-0.0,-0.005770813673734665,1.2991529703140259,0.0,-0.0061382120475173
223.0,226.0,1.9735,0.4199,9.1753,-0.0367,0.0237,-0.1136,-1.8056580028929652,0.0,3.10579252243042,-1.6515495777130127,-0.0,2.095029830932617,4.819392803102293,-0.0,0.26542389392852783,-1.4037459532367151,0.0,-0.024514928460121155,0.007415578234940767,-0.0,-0.0009830258786678314,1.2991852760314941,0.0,-0.060772690922021866
223.0,226.0,1.9735,0.4199,9.1753,-0.0367,0.0237,-0.1136,-1.8056537113585414,0.0,3.097179412841797,-1.6514897346496582,-0.0,2.105029344558716,4.819357085018911,-0.0,0.2847933769226074,-1.4037211577044886,0.0,-0.023349704220891,0.007455842569470406,-0.0,-0.00652303546667099,1.2991406917572021,0.0,-0.006201460957527161
223.0,226.0,1.9735,0.4199,9.1753,-0.0367,0.0237,-0.1136,-1.805673738519186,0.0,3.0732357501983643,-1.6515978574752808,-0.0,2.1104071140289307,4.8194051561649225,-0.0,0.29243069887161255,-1.4037449995623987,0.0,-0.008498837240040302,0.007451679557561874,-0.0,-0.004542254842817783,1.2990885972976685,0.0,-0.029421333223581314
223.0,226.0,1.9735,0.4199,9.1753,-0.0367,0.0237,-0.1136,-1.8056980572142542,0.0,3.1067910194396973,-1.6515700817108154,-0.0,2.1284918785095215,4.819437514036455,-0.0,0.28950151801109314,-1.4037531057940882,0.0,-0.020151767879724503,0.00747213140130043,-0.0,-0.009511668235063553,1.2991091012954712,0.0,-0.01804778352379799
223.0,226.0,1.9735,0.4199,9.1753,-0.0367,0.0237,-0.1136,-1.805713792840475,0.0,3.1295504570007324,-1.6515378952026367,-0.0,2.0802252292633057,4.819380986481466,-0.0,0.27809640765190125,-1.4037531057940882,0.0,-0.02497774362564087,0.007468069903552532,-0.0,-0.00426715612411499,1.2991368770599365,0.0,-0.05878164991736412
223.0,226.0,1.9735,0.4199,9.1753,-0.0367,0.0237,-0.1136,-1.805650373498434,0.0,3.114408493041992,-1.6515536308288574,-0.0,2.134598970413208,4.819437417178907,-0.0,0.28520163893699646,-1.4037616888629358,0.0,-0.002565911039710045,0.007520017214119434,-0.0,-0.004588201176375151,1.2991164922714233,0.0,0.005390938837081194
216.0,236.0,2.0483,0.4463,9.3111,-0.0391,0.0267,-0.1225,-1.8056780300536097,0.0,3.1460046768188477,-1.6515860557556152,-0.0,2.0957298278808594,4.819369073003092,-0.0,0.29088103771209717,-1.4036768118487757,0.0,-0.014810949563980103,0.007427588105201721,-0.0,-0.0057006897404789925,1.2990885972976685,0.0,0.007271922193467617
216.0,236.0,2.0483,0.4463,9.3111,-0.0391,0.0267,-0.1225,-1.8056541881956996,0.0,3.0806093215942383,-1.6515536308288574,-0.0,2.084404468536377,4.819392810552873,-0.0,0.2840104401111603,-1.4037087599383753,0.0,-0.01542087085545063,0.0075201536528766155,-0.0,-0.005295074079185724,1.2990764379501343,0.0,-0.0030609234236180782
216.0,236.0,2.0483,0.4463,9.3111,-0.0391,0.0267,-0.1225,-1.8056818447508753,0.0,3.1494781970977783,-1.6515660285949707,-0.0,2.1103029251098633,4.819328728109159,-0.0,0.27636221051216125,-1.4037817160235804,0.0,-0.014948825351893902,0.0074999332427978516,-0.0,0.003015491645783186,1.2991447448730469,0.0,-0.022808821871876717
216.0,236.0,2.0483,0.4463,9.3111,-0.0391,0.0267,-0.1225,-1.8057300053038539,0.0,3.109649658203125,-1.6515218019485474,-0.0,2.1500885486602783,4.8193727163370035,-0.0,0.28402483463287354,-1.403729263936178,0.0,-0.009241594932973385,0.007459878921508789,-0.0,-0.005554100498557091,1.2991247177124023,0.0,-0.0066226571798324585
216.0,236.0,2.0483,0.4463,9.3111,-0.0391,0.0267,-0.1225,-1.8057180843748988,0.0,3.093369960784912,-1.6515940427780151,-0.0,2.0632095336914062,4.819344761758604,-0.0,0.27538537979125977,-1.4037211577044886,0.0,-0.009206659160554409,0.007431935053318739,-0.0,-0.005274119786918163,1.2990926504135132,0.0,0.025613389909267426
216.0,236.0,2.0483,0.4463,9.3111,-0.0391,0.0267,-0.1225,-1.8057018719115199,0.0,3.0565876960754395,-1.6516138315200806,-0.0,2.0363478660583496,4.819376776903429,-0.0,0.2726757228374481,-1.403785530720846,0.0,-0.03113335743546486,0.007451700046658516,-0.0,-0.001385269220918417,1.2990927696228027,0.0,0.01661491021513939
216.0,236.0,2.0483,0.4463,9.3111,-0.0391,0.0267,-0.1225,-1.805674215356344,0.0,3.107128620147705,-1.6515415906906128,-0.0,2.082014560699463,4.819380971580305,-0.0,0.2807697653770447,-1.4037168661700647,0.0,-0.023259885609149933,0.007447614334523678,-0.0,-0.005070054437965155,1.2991528511047363,0.0,0.00946903321892023
216.0,236.0,2.0483,0.4463,9.3111,-0.0391,0.0267,-0.1225,-1.8056861362852992,0.0,3.103342056274414,-1.651561975479126,-0.0,2.0989575386047363,4.819369028299608,-0.0,0.2827742099761963,-1.4037335554706019,0.0,-0.015003904700279236,0.007463932037353516,-0.0,-0.005880527198314667,1.2991447448730469,0.0,0.01170415710657835
216.0,236.0,2.0483,0.4463,9.3111,-0.0391,0.0267,-0.1225,-1.8056980572142542,0.0,3.086984634399414,-1.6516059637069702,-0.0,2.1174285411834717,4.819388697832384,-0.0,0.2852117419242859,-1.4037378470050257,0.0,-0.029544807970523834,0.00744355283677578,-0.0,-0.004146647173911333,1.2991852760314941,0.0,-0.023302065208554268
216.0,236.0,2.0483,0.4463,9.3111,-0.0391,0.0267,-0.1225,-1.8056699238219203,0.0,3.0842156410217285,-1.6515462398529053,-0.0,2.0761585235595703,4.819405029505052,-0.0,0.2897794246673584,-1.4037211577044886,0.0,-0.02094140090048313,0.0075121656991541386,-0.0,-0.004684822168201208,1.2991529703140259,0.0,-0.02111181616783142
216.0,236.0,2.0483,0.4463,9.3111,-0.0391,0.0267,-0.1225,-1.8057018719115199,0.0,3.1073474884033203,-1.6515536308288574,-0.0,2.1222047805786133,4.819437476783552,-0.0,0.2808700203895569,-1.4037655035602015,0.0,-0.02420077472925186,0.007451691664755344,-0.0,-0.0018693001475185156,1.2990803718566895,0.0,-0.032460931688547134
216.0,236.0,2.0483,0.4463,9.3111,-0.0391,0.0267,-0.1225,-1.8056780300536097,0.0,3.1098034381866455,-1.6515820026397705,-0.0,2.08353328704834,4.819413292198934,-0.0,0.28638654947280884,-1.4036930243121546,0.0,-0.01599402353167534,0.00743571761995554,-0.0,0.002208101097494364,1.299120545387268,0.0,0.03510141372680664
216.0,236.0,2.0483,0.4463,9.3111,-0.0391,0.0267,-0.1225,-1.8056780300536097,0.0,3.0964460372924805,-1.6515381336212158,-0.0,2.089231014251709,4.819413292198934,-0.0,0.27975431084632874,-1.4037697950946253,0.0,-0.014717290177941322,0.0074802665039896965,-0.0,-0.0022134529426693916,1.2991570234298706,0.0,-0.011959407478570938
216.0,236.0,2.0483,0.4463,9.3111,-0.0391,0.0267,-0.1225,-1.8057099781432093,0.0,3.113114833831787,-1.6515421867370605,-0.0,2.098820686340332,4.819425131171503,-0.0,0.27356868982315063,-1.4037531057940882,0.0,-0.013351045548915863,0.007455834187567234,-0.0,0.00371871842071414,1.2991365194320679,0.0,-0.001659040804952383
216.0,236.0,2.0483,0.4463,9.3111,-0.0391,0.0267,-0.1225,-1.8056699238219203,0.0,3.112277030944824,-1.651533842086792,-0.0,2.0663487911224365,4.819372693985262,-0.0,0.290351927280426,-1.4037449995623987,0.0,-0.010325687006115913,0.00749623216688633,-0.0,-0.0027668243274092674,1.2991528511047363,0.0,0.0003189982380717993
216.0,236.0,2.0483,0.4463,9.3111,-0.0391,0.0267,-0.1225,-1.8057300053038539,0.0,3.1361238956451416,-1.6515103578567505,-0.0,2.0847628116607666,4.819401050895014,-0.0,0.2860499620437622,-1.4037449995623987,0.0,-0.014857562258839607,0.007447605952620506,-0.0,0.008767564781010151,1.2991366386413574,0.0,-0.023989496752619743
216.0,236.0,2.0483,0.4463,9.3111,-0.0391,0.0267,-0.1225,-1.805713792840475,0.0,3.0913443565368652,-1.65158212184906,-0.0,2.0798187255859375,4.8193489638860605,-0.0,0.27113664150238037,-1.403773609791891,0.0,-0.028279757127165794,0.007467985153198242,-0.0,0.0053641838021576405,1.2991570234298706,0.0,-0.032232072204351425
216.0,236.0,2.0483,0.4463,9.3111,-0.0391,0.0267,-0.1225,-1.8056861362852992,0.0,3.090418815612793,-1.651505947113037,-0.0,2.1368777751922607,4.819421040802755,-0.0,0.26718688011169434,-1.4037531057940882,0.0,-0.022461336106061935,0.007488093338906765,-0.0,-0.004699959419667721,1.299128770828247,0.0,0.05186401307582855
210.0,227.0,2.1458,0.2506,9.2417,-0.0619,-0.022,-0.1168,-1.8057176075377406,0.0,3.1223249435424805,-1.6515218019485474,-0.0,2.103325128555298,4.819392803102293,-0.0,0.2783857583999634,-1.4037449995623987,0.0,-0.03021990694105625,0.007483959197998047,-0.0,-0.0023634193930774927,1.2991204261779785,0.0,-0.026472847908735275
210.0,227.0,2.1458,0.2506,9.2417,-0.0619,-0.022,-0.1168,-1.80564608196401,0.0,3.091543197631836,-1.6515381336212158,-0.0,2.0849950313568115,4.819401050895014,-0.0,0.28742390871047974,-1.4037936369525355,0.0,-0.02431706339120865,0.007431656122207642,-0.0,-0.0011762618087232113,1.2991324663162231,0.0,0.034858714789152145
210.0,227.0,2.1458,0.2506,9.2417,-0.0619,-0.022,-0.1168,-1.8056937656798304,0.0,3.071075201034546,-1.6515536308288574,-0.0,2.0944929122924805,4.819388727634706,-0.0,0.28618115186691284,-1.4037254492389124,0.0,-0.022938573732972145,0.007451691664755344,-0.0,-0.005653710104525089,1.2991528511047363,0.0,-0.011825719848275185
210.0,227.0,2.1458,0.2506,9.2417,-0.0619,-0.022,-0.1168,-1.8056541881956996,0.0,3.1076807975769043,-1.651565670967102,-0.0,2.074946403503418,4.819412778108873,-0.0,0.2784106135368347,-1.403773609791891,2.4043487201197422e-08,-0.019780976697802544,0.0074918270111083984,-0.0,-0.004708077292889357,1.2991610765457153,0.0,-0.03517131507396698
210.0,227.0,2.1458,0.2506,9.2417,-0.0619,-0.022,-0.1168,-1.8056818447508753,0.0,3.1085944175720215,-1.651565670967102,0.00013003779167775065,2.1194159984588623,4.819388727634706,-0.0,0.2774800658226013,-1.403785530720846,6.692593527979351e-12,-0.008209454827010632,0.007495900150388479,-0.0,-0.0019662866834551096,1.2991725206375122,0.0,-0.09087064117193222
210.0,227.0,2.1458,0.2506,9.2417,-0.0619,-0.022,-0.1168,-1.80564608196401,0.0,3.1117279529571533,-1.6515101194381714,0.0001694970269454643,2.1228487491607666,4.8193764118249796,-0.0,0.2892416715621948,-1.4038012663470667,2.853157637992647e-14,-0.013127923011779785,0.0074999332427978516,-0.0,-0.008452329784631729,1.2991766929626465,0.0011886880965903401,-0.07843887060880661
210.0,227.0,2.1458,0.2506,9.2417,-0.0619,-0.022,-0.1168,-1.8056899509825648,0.0,3.105438232421875,-1.6515462398529053,0.0011710184626281261,2.1099257469177246,4.819429273694315,-0.0,0.2885368764400482,-1.403797451649801,7.94186859460125e-18,-0.01921684294939041,0.0074958521872758865,-0.0,-0.009561890736222267,1.2992048263549805,0.0016598657239228487,-0.03466418385505676
210.0,227.0,2.1458,0.2506,9.2417,-0.0619,-0.022,-0.1168,-1.8056780300536097,0.0,3.0878806114196777,-1.651533842086792,0.0008830317528918386,2.118931293487549,4.819428804307737,-0.0,0.28002363443374634,-1.403797451649801,3.3857433049984545e-20,-0.02182970941066742,0.007455866318196058,-0.0,0.005697992164641619,1.2991888523101807,0.001046312740072608,0.05089539289474487
210.0,227.0,2.1458,0.2506,9.2417,-0.0619,-0.022,-0.1168,-1.8056217632689417,0.00045807016431353986,3.1222105026245117,-1.6514813899993896,0.00044532379251904786,2.1073813438415527,4.819453391223707,-0.0,0.2742117941379547,-1.4038012663470667,9.424340585528132e-24,-0.02203894779086113,0.007467960938811302,-0.0,0.007887487299740314,1.299193024635315,0.0006159030017443001,0.014098640531301498
210.0,227.0,2.1458,0.2506,9.2417,-0.0619,-0.022,-0.1168,-1.8056980572142542,0.0002811937010847032,3.0735812187194824,-1.651513934135437,0.00032442170777358115,2.07476544380188,4.819452996342935,-0.0,0.2830449342727661,-1.4037893454181116,2.623299547600132e-27,-0.010201115161180496,0.007431732956320047,-0.0,-0.00807027518749237,1.2991607189178467,0.0004365337663330138,0.003127268049865961
210.0,227.0,2.1458,0.2506,9.2417,-0.0619,-0.022,-0.1168,-1.805650373498434,0.00024292716989293694,3.0952484607696533,-1.6515419483184814,0.00027486594626680017,2.115941047668457,4.819421055703916,-0.0,0.2838740348815918,-1.4037449995623987,1.1183537397000026e-29,-0.02517644874751568,0.0074918270111083984,-0.0,0.003013082081452012,1.2991808652877808,0.00036557845305651426,0.029609257355332375
210.0,227.0,2.1458,0.2506,9.2417,-0.0619,-0.022,-0.1168,-1.8057018719115199,0.00015152114792726934,3.1131937503814697,-1.6515380144119263,0.0002236306172562763,2.1228742599487305,4.8194493157561205,-0.0,0.2877350449562073,-1.4037769476519983,3.112978669994137e-33,-0.021098118275403976,0.007431725040078163,-0.0,-0.004175293259322643,1.2991888523101807,0.00029392511351034045,0.027569977566599846
210.0,227.0,2.1458,0.2506,9.2417,-0.0619,-0.022,-0.1168,-1.8056899509825648,-0.00013717923138756305,3.0867483615875244,-1.6515421867370605,0.00018849738989956677,2.107274055480957,4.819400983839788,-0.0,0.279396653175354,-1.4037650267230433,8.665090707943351e-37,-0.015300511382520199,0.0074998848140239716,-0.0,0.0036723765078932047,1.2992286682128906,0.0002890592149924487,-0.03128555417060852
210.0,227.0,2.1458,0.2506,9.2417,-0.0619,-0.022,-0.1168,-1.8056861362852992,-0.00012194933515274897,3.105313301086426,-1.651497721672058,0.00017062746337614954,2.0600640773773193,4.819392795651712,-0.0,0.2780778408050537,-1.4038055578814905,3.6940637752960817e-39,-0.020750168710947037,0.00747182359918952,-0.0,-0.008899188600480556,1.2992167472839355,0.00030836721998639405,0.008291018195450306
210.0,227.0,2.1458,0.2506,9.2417,-0.0619,-0.022,-0.1168,-1.8057381115355433,-0.0001520114892628044,3.073578357696533,-1.6515017747879028,4.5251570554682985e-05,2.1392078399658203,4.819437067001619,-0.0,0.29009008407592773,-1.4037492910968226,1.0285530728144157e-42,-0.018621977418661118,0.007524094544351101,-0.0,0.00325677078217268,1.2992126941680908,0.0002954319061245769,-0.05260326713323593
210.0,227.0,2.1458,0.2506,9.2417,-0.0619,-0.022,-0.1168,-1.8057180843748988,-0.0001300518197240308,3.077638626098633,-1.6515225172042847,7.629401807207614e-05,2.112210273742676,4.819469417422571,-0.0,0.29690587520599365,-1.4037492910968226,0.0,-0.021342124789953232,0.007447694893926382,-0.0,-0.002171037718653679,1.2992204427719116,0.001572970300912857,0.018496248871088028
210.0,227.0,2.1458,0.2506,9.2417,-0.0619,-0.022,-0.1168,-1.8057099781432093,-0.00015814154176041484,3.105778217315674,-1.6514697074890137,0.00010701534483814612,2.0943613052368164,4.8194694248731516,-0.0,0.2681015729904175,-1.403785530720846,0.0,-0.013412362895905972,0.007488093338906765,-0.0,-0.0008084628498181701,1.299253225326538,0.0015193079598248005,-0.008443151600658894
221.0,232.0,1.1432,0.4499,9.7238,-0.0874,0.0551,-0.1263,-1.8057624302306117,-0.0003621314244810492,3.1558427810668945,-1.651513934135437,0.00012805590813513845,2.0540239810943604,4.819432946830549,-0.0,0.2768144905567169,-1.403773609791891,0.0,-0.023706898093223572,0.007459878921508789,-0.0,-0.001965316478163004,1.2991963624954224,0.0009277287172153592,-0.0043048434890806675
221.0,232.0,1.1432,0.4499,9.7238,-0.0874,0.0551,-0.1263,-1.805770059625143,-0.0004265377065166831,3.083555221557617,-1.6514935493469238,0.00029665217152796686,2.173081874847412,4.819384637265959,-0.0,0.27295467257499695,-1.4037531057940882,0.0,-0.020229320973157883,0.007499909494072199,-0.0,0.013544741086661816,1.299224615097046,0.0005723000504076481,0.03153008967638016
221.0,232.0,1.1432,0.4499,9.7238,-0.0874,0.0551,-0.1263,-1.805753847161764,-0.0009893361711874604,3.141270160675049,-1.6514935493469238,-0.0001815725991036743,2.0959279537200928,4.819404992252149,7.57039060772513e-06,0.2880149483680725,-1.4037650267230433,0.0,-0.015060237608850002,0.007451703771948814,-0.0,0.007859928533434868,1.29923677444458,0.0004561867972370237,0.014817639254033566
221.0,232.0,1.1432,0.4499,9.7238,-0.0874,0.0551,-0.1263,-1.8057943783202113,-0.0010516548063606024,3.092196464538574,-1.651489496231079,-0.000455852277809754,2.0902211666107178,4.819416950434007,4.577065192279406e-05,0.2852286994457245,-1.4037655035602015,0.0,-0.017027782276272774,0.007483907043933868,-0.0,0.002001970773562789,1.29923677444458,0.0004812411207240075,-0.022472072392702103
221.0,232.0,1.1432,0.4499,9.7238,-0.0874,0.0551,-0.1263,-1.805758615533346,-0.0008891489706002176,3.148922920227051,-1.651534080505371,-0.00033789195003919303,2.0869569778442383,4.819388749986448,4.25364742113743e-05,0.2768453061580658,-1.4037326017962855,0.0,-0.021821260452270508,0.007475852966308594,-0.0,-0.007104775402694941,1.2992569208145142,0.0003970688849221915,0.006794394459575415
221.0,232.0,1.1432,0.4499,9.7238,-0.0874,0.0551,-0.1263,-1.8057900867857875,-0.0007129943114705384,3.116954803466797,-1.6515264511108398,-0.0002196548884967342,2.0990424156188965,4.819413284748354,3.063181429752149e-05,0.292085200548172,-1.4037650267230433,0.0,-0.021687183529138565,0.007475852966308594,-0.0,-0.012875961139798164,1.299224615097046,0.000402977253543213,-0.033445410430431366
221.0,232.0,1.1432,0.4499,9.7238,-0.0874,0.0551,-0.1263,-1.8057862720885218,-0.0005496440571732819,3.055769681930542,-1.6514699459075928,-0.00016062073700595647,2.1106185913085938,4.819401050895014,1.9023589629796334e-05,0.272868275642395,-1.4037774244891565,0.0,-0.011707322672009468,0.007495851721614599,-0.0,-0.0002613500691950321,1.2992445230484009,0.00034504442010074854,0.00803555827587843
221.0,232.0,1.1432,0.4499,9.7238,-0.0874,0.0551,-0.1263,-1.8057342968382777,-0.0003936152788810432,3.08715558052063,-1.651505947113037,-6.598304025828838e-05,2.0804004669189453,4.819461132376947,3.57329445250798e-05,0.28025564551353455,-1.4037211577044886,0.0,-0.0135112963616848,0.007443585433065891,-0.0,-0.006790978834033012,1.2991926670074463,9.39953388296999e-05,-0.005419209599494934
221.0,232.0,1.1432,0.4499,9.7238,-0.0874,0.0551,-0.1263,-1.8056985340514125,-0.0003480599552858621,3.0645785331726074,-1.651533842086792,-5.55290789634455e-05,2.076481580734253,4.819461624115267,3.440554064582102e-05,0.28594231605529785,-1.4037492910968226,0.0,-0.021123480051755905,0.00747990608215332,-0.0,0.001419222098775208,1.2992208003997803,1.705859745015914e-06,0.010668715462088585
221.0,232.0,1.1432,0.4499,9.7238,-0.0874,0.0551,-0.1263,-1.8057738743224085,-0.0002985688915941864,3.034925937652588,-1.6514896154403687,-4.685473322751932e-05,2.1277003288269043,4.81943295428113,4.866797098657116e-05,0.28683486580848694,-1.403740708027975,0.0,-0.015309512615203857,0.007467985153198242,-0.0,-0.0021219532936811447,1.2991766929626465,-0.002097979886457324,0.018805645406246185
221.0,232.0,1.1432,0.4499,9.7238,-0.0874,0.0551,-0.1263,-1.8057824573912562,-0.00026140091358684003,3.108079195022583,-1.6515225172042847,-4.052489748573862e-05,2.0569634437561035,4.819428789406576,4.6298722736537457e-05,0.28080207109451294,-1.403757397328512,0.0,-0.011891317553818226,0.007467985153198242,-0.0,-0.010573371313512325,1.2991323471069336,-0.0034229704178869724,-0.05195629596710205
221.0,232.0,1.1432,0.4499,9.7238,-0.0874,0.0551,-0.1263,-1.8057619533934535,-0.00024137004220392555,3.0832018852233887,-1.6515017747879028,-7.383312185993418e-05,2.067509651184082,4.819441030710497,5.5840104323579e-05,0.2811794579029083,-1.4037492910968226,0.0,-0.011309834197163582,0.0074235824868083,-0.0,3.605359233915806e-05,1.2991647720336914,-0.003537808544933796,-0.030736509710550308
221.0,232.0,1.1432,0.4499,9.7238,-0.0874,0.0551,-0.1263,-1.8057743511595667,-0.00024726573610678315,3.066915988922119,-1.6515462398529053,-9.789156320039183e-05,2.1290814876556396,4.819473053305902,6.549285171786323e-05,0.2877851128578186,-1.4037893454181116,0.0,-0.010401062667369843,0.00749613530933857,-0.0,0.004566609393805265,1.2990927696228027,-0.003190671792253852,-0.057950474321842194
221.0,232.0,1.1432,0.4499,9.7238,-0.0874,0.0551,-0.1263,-1.805753847161764,-0.00022429096861742437,3.1328420639038086,-1.6515576839447021,-0.00011902814003406093,2.0785324573516846,4.819412822812357,8.635820267954841e-05,0.2872031331062317,-1.403740708027975,0.0,-0.026776185259222984,0.007540316320955753,-0.0,-0.0031623728573322296,1.2990443706512451,-0.004781602416187525,-0.023232683539390564
221.0,232.0,1.1432,0.4499,9.7238,-0.0874,0.0551,-0.1263,-1.8057705364623011,-0.00021113618277013302,3.090660572052002,-1.6515576839447021,-0.00011176997941220179,2.099215269088745,4.819396848767557,0.00011098781396867707,0.2790781259536743,-1.403729263936178,0.0,-0.003615282941609621,0.0074881017208099365,-0.0,0.0027204095385968685,1.2990446090698242,-0.00604055542498827,-0.03254764899611473
221.0,232.0,1.1432,0.4499,9.7238,-0.0874,0.0551,-0.1263,-1.8057342968382777,-0.00019406361388973892,3.0983266830444336,-1.6515297889709473,-7.669907790841535e-05,2.1012086868286133,4.819477158575811,0.0005477679660543799,0.276803195476532,-1.4037378470050257,0.0,-0.029220454394817352,0.007471855729818344,-0.0,0.015794431790709496,1.2989524602890015,-0.008374846540391445,-0.02092968299984932
221.0,232.0,1.1432,0.4499,9.7238,-0.0874,0.0551,-0.1263,-1.80578674892568,-0.00015800389519426972,3.100217342376709,-1.651493787765503,2.8715850930893794e-05,2.0709025859832764,4.819484974234857,0.0005457730730995536,0.2874706983566284,-1.4037087599383753,0.0,-0.02495654672384262,0.007515907287597656,-0.0,-0.010266201570630074,1.2989528179168701,-0.01106034405529499,0.044510599225759506
220.0,231.0,2.1296,0.9458,9.2507,-0.0191,0.0389,-0.1588,-1.8057381115355433,-8.212144166463986e-05,3.077530860900879,-1.651465892791748,7.793118129484355e-05,2.0723867416381836,4.819509114115991,0.0005315770977176726,0.2847359776496887,-1.4037492910968226,0.0,-0.02490966022014618,0.007528139743953943,-0.0,0.002344699576497078,1.2988601922988892,-0.012353788129985332,0.012595676816999912
220.0,231.0,2.1296,0.9458,9.2507,-0.0191,0.0389,-0.1588,-1.8057061634459437,-7.449720669683302e-06,3.0910472869873047,-1.6514853239059448,0.0009203396621160209,2.09745454788208,4.819489012449541,0.0005541800055652857,0.2874149978160858,-1.4037616888629358,0.0,-0.01723511330783367,0.007467985153198242,-0.0,-0.00948036927729845,1.298776388168335,-0.015321711078286171,-0.026363445445895195
220.0,231.0,2.1296,0.9458,9.2507,-0.0191,0.0389,-0.1588,-1.8057018719115199,-1.7990196138351067e-11,3.083130359649658,-1.6514822244644165,0.0030639248434454203,2.1117889881134033,4.819484974234857,0.000584213063120842,0.2855023741722107,-1.4037211577044886,0.0,-0.012760816141963005,0.007491802331060171,-0.0,-0.01337209902703762,1.2987250089645386,-0.01803968846797943,-0.039467521011829376
220.0,231.0,2.1296,0.9458,9.2507,-0.0191,0.0389,-0.1588,-1.8057342968382777,-3.2381715937276423e-15,3.1152210235595703,-1.6514697074890137,0.005037193652242422,2.132227659225464,4.819492804795065,0.0007473748410120606,0.2862705588340759,-1.403757397328512,0.0,-0.022723611444234848,0.0074436296708881855,-0.0,-0.007452622056007385,1.298644781112671,-0.019195010885596275,-0.02417539246380329
220.0,231.0,2.1296,0.9458,9.2507,-0.0191,0.0389,-0.1588,-1.8057223759093226,-7.819803619558332e-21,3.0933761596679688,-1.651357650756836,0.00742601603269577,2.0960352420806885,4.819484624057569,0.0010342461755499244,0.297894686460495,-1.403801743184225,0.0,-0.027265235781669617,0.0074396440759301186,-0.0,-0.009503303095698357,1.2985204458236694,-0.020385565236210823,-0.039810627698898315
220.0,231.0,2.1296,0.9458,9.2507,-0.0191,0.0389,-0.1588,-1.8057300053038539,-1.407537100269395e-24,3.1338746547698975,-1.6513941287994385,0.007523338310420513,2.105468273162842,4.819444778352537,0.0008695353753864765,0.29812461137771606,-1.4037378470050257,0.0,-0.029889889061450958,0.007435781881213188,-0.0,-0.009348482824862003,1.2984163761138916,-0.021966392174363136,0.0057092104107141495
220.0,231.0,2.1296,0.9458,9.2507,-0.0191,0.0389,-0.1588,-1.8056980572142542,-3.3990365191879985e-30,3.0714168548583984,-1.65128493309021,0.008404901251196861,2.1322519779205322,4.81950472572402,0.0006836784305050969,0.29703253507614136,-1.403729263936178,0.0,-0.020831774920225143,0.00746366148814559,-0.0,-0.007251502480357885,1.2983121871948242,-0.02063859812915325,-0.00734803918749094
220.0,231.0,2.1296,0.9458,9.2507,-0.0191,0.0389,-0.1588,-1.8057104549803675,-8.208273865756784e-36,3.1207337379455566,-1.6512821912765503,0.008646673522889614,2.1866455078125,4.819496902614393,0.0005157595151104033,0.2930415868759155,-1.4037449995623987,0.0,-0.012682919390499592,0.00747208297252655,-0.0,0.0002287305542267859,1.2981847524642944,-0.01987222582101822,-0.012331039644777775
220.0,231.0,2.1296,0.9458,9.2507,-0.0191,0.0389,-0.1588,-1.8057261906065882,-1.4774604371593352e-39,3.046600341796875,-1.6512579917907715,0.008491958491504192,2.0668210983276367,4.8194686500127695,0.00044314327533356845,0.29390954971313477,-1.4037449995623987,0.0,-0.024438858032226562,0.007463660556823015,-0.0,-0.0012051842641085386,1.2980884313583374,-0.01924004778265953,0.003566902130842209
220.0,231.0,2.1296,0.9458,9.2507,-0.0191,0.0389,-0.1588,-1.8057180843748988,-0.00011488181189633906,3.0569047927856445,-1.6511578559875488,0.007726102136075497,2.063497543334961,4.819457027107038,0.00036588989314623177,0.3052126169204712,-1.4037130514727991,0.0,-0.03554721549153328,0.007472074590623379,-0.0,-0.007913844659924507,1.2979238033294678,-0.01923983357846737,0.02609838917851448
220.0,231.0,2.1296,0.9458,9.2507,-0.0191,0.0389,-0.1588,-1.8057381115355433,-0.00018711511802393943,3.0602402687072754,-1.651150107383728,0.0067291054874658585,2.094794750213623,4.819477158575811,0.00031158217461779714,0.30446428060531616,-1.4037254492389124,0.0,-0.023390769958496094,0.007467985153198242,-0.0,0.007772722281515598,1.2979010343551636,-0.019919149577617645,-0.019605791196227074
220.0,231.0,2.1296,0.9458,9.2507,-0.0191,0.0389,-0.1588,-1.805753847161764,-0.00017418876814190298,3.0578413009643555,-1.6511262655258179,0.005803185515105724,2.112130641937256,4.819480898767271,0.00014506216393783689,0.29117852449417114,-1.4037449995623987,0.0,-0.035542700439691544,0.007520029321312904,-0.0,-0.0012977136066183448,1.297804832458496,-0.02081230841577053,0.021481601521372795
220.0,231.0,2.1296,0.9458,9.2507,-0.0191,0.0389,-0.1588,-1.805802961389059,-0.00017705422942526639,3.0628232955932617,-1.6510173082351685,0.004851965699344873,2.0963053703308105,4.8194689629371545,8.252670522779226e-05,0.287926584482193,-1.4036768118487757,0.0,-0.029654953628778458,0.0075158714316785336,-0.0,0.007061116397380829,1.2976566553115845,-0.021532485261559486,0.0007447283715009689
220.0,231.0,2.1296,0.9458,9.2507,-0.0191,0.0389,-0.1588,-1.805753847161764,-0.00016874480934347957,3.0587503910064697,-1.651090145111084,0.0043234676122665405,2.1118171215057373,4.819424676686086,3.635372922872193e-05,0.2956116199493408,-1.4037335554706019,0.0,-0.032105110585689545,0.007483935449272394,-0.0,-0.0022065932862460613,1.2974803447723389,-0.022492611780762672,0.002335214987397194
220.0,231.0,2.1296,0.9458,9.2507,-0.0191,0.0389,-0.1588,-1.8057619533934535,-0.00015697158232796937,3.0559301376342773,-1.6510696411132812,0.004031376447528601,2.1390023231506348,4.819457034557619,4.4598759814107325e-06,0.2818866968154907,-1.4037211577044886,0.0,-0.03178013861179352,0.007459570653736591,-0.0,-0.0021625058725476265,1.2974247932434082,-0.02328423410654068,0.003437434323132038
220.0,231.0,2.1296,0.9458,9.2507,-0.0191,0.0389,-0.1588,-1.8057619533934535,-0.00014210084918886423,3.0331273078918457,-1.651005744934082,0.004688609857112169,2.0997848510742188,4.819457071810522,1.2414228534041172e-09,0.2839016914367676,-1.403729263936178,0.0,-0.02061326429247856,0.0074758767150342464,-0.0,-0.008725241757929325,1.297284722328186,-0.023729173466563225,-0.01609789952635765
220.0,231.0,2.1296,0.9458,9.2507,-0.0191,0.0389,-0.1588,-1.805753847161764,-0.00012980372412130237,2.9948501586914062,-1.6509861946105957,0.005599333439022303,2.0466482639312744,4.819477590709486,3.4555458537990913e-13,0.28289902210235596,-1.4037616888629358,0.0,-0.02704823762178421,0.0075037479400634766,-0.0,-0.014574838802218437,1.2970843315124512,-0.024157099425792694,-0.00667524291202426
212.0,229.0,2.4281,0.0808,9.0628,-0.0505,0.0302,-0.1374,-1.8057223759093226,-0.0001227237080456689,3.017430305480957,-1.6509382724761963,0.005858706776052713,2.119189500808716,4.819441045611658,1.4731532432384563e-15,0.2846713066101074,-1.4037335554706019,0.0,-0.023255998268723488,0.007491563446819782,-0.0,0.000301585765555501,1.297044277191162,-0.024507617577910423,0.013766532763838768
212.0,229.0,2.4281,0.0808,9.0628,-0.0505,0.0302,-0.1374,-1.805753847161764,-0.00011344230733811855,2.9869043827056885,-1.6508862972259521,0.006373903714120388,2.1116018295288086,4.819421040802755,-0.00046233637840487063,0.2973179817199707,-1.403689209614889,0.0,-0.03496604785323143,0.00747990608215332,-0.0,-0.006627895403653383,1.2968482971191406,-0.023996708914637566,0.010745210573077202
212.0,229.0,2.4281,0.0808,9.0628,-0.0505,0.0302,-0.1374,-1.8057381115355433,-0.00010546606063144282,2.9659695625305176,-1.6508537530899048,0.006457545794546604,2.121335744857788,4.81941736021594,-0.000790375517681241,0.2858196496963501,-1.4036849180804651,0.0,-0.025620875880122185,0.007451739627867937,-0.0,0.001606195466592908,1.2967087030410767,-0.024023041129112244,-0.0019605436827987432
212.0,229.0,2.4281,0.0808,9.0628,-0.0505,0.0302,-0.1374,-1.8057223759093226,-0.00010074385500047356,2.984365463256836,-1.6508663892745972,0.00709916278719902,2.0574405193328857,4.819405148714342,-0.0011720546754077077,0.2860390841960907,-1.4037130514727991,0.0,-0.030796347185969353,0.007523778825998306,-0.0,-0.012655219994485378,1.2966126203536987,-0.022722631692886353,-0.004097471944987774
212.0,229.0,2.4281,0.0808,9.0628,-0.0505,0.0302,-0.1374,-1.8057581386961878,-0.00012707895075436682,2.9870128631591797,-1.650818109512329,0.006275921128690243,2.096292734146118,4.819417382567682,-0.001418386702425778,0.2752932906150818,-1.4037531057940882,0.0,-0.030589381232857704,0.007503740023821592,-0.0,0.0058415550738573074,1.2964763641357422,-0.022111842408776283,0.0023529890459030867
212.0,229.0,2.4281,0.0808,9.0628,-0.0505,0.0302,-0.1374,-1.8057662449278773,-0.00014499829558189958,2.9336647987365723,-1.6507172584533691,0.0059044454246759415,2.1434998512268066,4.819357122271814,-0.0011417798232287169,0.27271002531051636,-1.4037817160235804,0.0,-0.023668605834245682,0.007499597501009703,-0.0,-0.0010739029385149479,1.2963244915008545,-0.02033275179564953,0.04286199063062668
212.0,229.0,2.4281,0.0808,9.0628,-0.0505,0.0302,-0.1374,-1.805770059625143,-0.00016057147877290845,2.964008331298828,-1.65073823928833,0.005380946211516857,2.1235923767089844,4.819337013154783,-0.000939770950935781,0.27625274658203125,-1.4037211577044886,0.0,-0.03883451595902443,0.007507788948714733,-0.0,0.0040291002951562405,1.296284556388855,-0.018583785742521286,0.021538391709327698
212.0,229.0,2.4281,0.0808,9.0628,-0.0505,0.0302,-0.1374,-1.805737634698385,-0.0005949037149548531,2.950674057006836,-1.65071439743042,0.004835133906453848,2.117894411087036,4.819365288108148,-0.0006741716642864048,0.26251256465911865,-1.4036811033831995,0.0,-0.03918397054076195,0.007503740023821592,-0.0,-0.00169540720526129,1.2961806058883667,-0.016722748056054115,0.05485212802886963
212.0,229.0,2.4281,0.0808,9.0628,-0.0505,0.0302,-0.1374,-1.805770059625143,-0.0006277546635828912,2.914236307144165,-1.6506452560424805,0.0041110883466899395,2.1011834144592285,4.8193813292081735,-0.0006238456699065864,0.2687380611896515,-1.4037335554706019,0.0,-0.031300053000450134,0.007487786002457142,-0.0,0.009045063517987728,1.2961128950119019,-0.014707503840327263,0.08566407114267349
212.0,229.0,2.4281,0.0808,9.0628,-0.0505,0.0302,-0.1374,-1.8057462177672328,-0.0008620122680440545,2.93229341506958,-1.6507023572921753,0.0037244558334350586,2.105722665786743,4.819341066270628,-0.0005750354612246156,0.2801649570465088,-1.4036930243121546,0.0,-0.02678229659795761,0.0075440737418830395,-0.0,0.009616768918931484,1.2960329055786133,-0.013328838162124157,0.08313090354204178
212.0,229.0,2.4281,0.0808,9.0628,-0.0505,0.0302,-0.1374,-1.8057824573912562,-0.0007820506580173969,2.860074520111084,-1.6506662368774414,0.0033346230629831553,2.1401824951171875,4.819381269603529,-0.0004893582663498819,0.2773834466934204,-1.4037049452411097,0.0,-0.03299626335501671,0.007491623517125845,-0.0,0.009626920334994793,1.295985221862793,-0.010537789203226566,0.04223527014255524
212.0,229.0,2.4281,0.0808,9.0628,-0.0505,0.0302,-0.1374,-1.805798193017477,-0.0007872162968851626,2.881621837615967,-1.6505780220031738,0.003413541242480278,2.1277246475219727,4.819373461395063,-0.0004064491658937186,0.2725679278373718,-1.4037092367755335,0.0,-0.042993396520614624,0.007455861661583185,-0.0,0.010074607096612453,1.295904517173767,-0.007449383847415447,0.03213105350732803
212.0,229.0,2.4281,0.0808,9.0628,-0.0505,0.0302,-0.1374,-1.8057900867857875,-0.0007219660328701138,2.8918492794036865,-1.6506097316741943,0.0036320765502750874,2.1253116130828857,4.819357412844457,-0.0003263714024797082,0.273877888917923,-1.4037211577044886,0.0,-0.03405838832259178,0.007531869225203991,-0.0,0.002046125242486596,1.2959012985229492,-0.005614339839667082,0.051993194967508316
212.0,229.0,2.4281,0.0808,9.0628,-0.0505,0.0302,-0.1374,-1.8057662449278773,-0.0006798622198402882,2.8964030742645264,-1.6505376100540161,0.004044543020427227,2.117847442626953,4.81931725421504,-0.0002678621676750481,0.27234163880348206,-1.4037531057940882,0.0,-0.02762017212808132,0.007495584897696972,-0.0,0.01102679967880249,1.2958807945251465,-0.0026398238260298967,0.11910741031169891
212.0,229.0,2.4281,0.0808,9.0628,-0.0505,0.0302,-0.1374,-1.8058024845519007,-0.0009585683001205325,2.8549065589904785,-1.6505703926086426,0.004980855621397495,2.0736770629882812,4.819349276810446,-0.00022726286260876805,0.27171480655670166,-1.4037531057940882,0.0,-0.02975248545408249,0.007528075482696295,-0.0,0.006236551329493523,1.2958807945251465,-0.0013308313209563494,0.009293859824538231
212.0,229.0,2.4281,0.0808,9.0628,-0.0505,0.0302,-0.1374,-1.8058144054808558,-0.0010144460247829556,2.87369966506958,-1.650550127029419,0.00553087005391717,2.1329126358032227,4.819365288108148,-0.00020640832372009754,0.2641249895095825,-1.4037049452411097,0.0,-0.04663407802581787,0.007524070329964161,-0.0,0.010155060328543186,1.2958767414093018,-0.0009350594482384622,0.09382925927639008
212.0,229.0,2.4281,0.0808,9.0628,-0.0505,0.0302,-0.1374,-1.8058058224120082,-0.0021692775189876556,2.831637144088745,-1.6504656076431274,0.005930093117058277,2.1580002307891846,4.819337005704202,-0.00018143613124266267,0.2702484726905823,-1.4037211577044886,0.0,-0.04258335381746292,0.0075158909894526005,-8.60642845879056e-09,0.021728048101067543,1.2958848476409912,-4.906386038783239e-06,0.06601180136203766
212.0,229.0,2.4281,0.0808,9.0628,-0.0505,0.0302,-0.1374,-1.8058225117125453,-0.0029195635579526424,2.86784029006958,-1.6504460573196411,0.007071365602314472,2.1183054447174072,4.819357092469492,-0.00016789522487670183,0.26961538195610046,-1.4037655035602015,0.0,-0.02361910231411457,0.0075719282031059265,-3.669055684274447e-11,0.019595148041844368,1.295900821685791,-8.83132234008599e-10,0.10053203999996185
211.0,226.0,2.0303,0.6712,9.4265,-0.0386,0.0414,-0.1148,-1.8058058224120082,-0.003280980046838522,2.864501953125,-1.6503978967666626,0.008836062625050545,2.1343789100646973,4.819349284261026,-0.00015099221491254866,0.2803589105606079,-1.4036968390094202,3.934955827844533e-08,-0.04090812802314758,0.00752784451469779,-1.0212951530752957e-14,0.010381793603301048,1.2958725690841675,0.0012775687500834465,0.10895833373069763
211.0,226.0,2.0303,0.6712,9.4265,-0.0386,0.0414,-0.1148,-1.8058058224120082,-0.003902930999174714,2.8378734588623047,-1.6503424644470215,0.011471942998468876,2.1578526496887207,4.819353374629774,-0.00013718183618038893,0.25954073667526245,-1.4037492910968226,1.0953094334298363e-11,-0.03234861418604851,0.007559728808701038,-2.842812970191618e-18,0.015756938606500626,1.2958927154541016,0.0010805713245645165,0.09647668898105621
211.0,226.0,2.0303,0.6712,9.4265,-0.0386,0.0414,-0.1148,-1.8059026203551234,-0.0035866410471498966,2.8532826900482178,-1.6502490043640137,0.011610802263021469,2.105511426925659,4.819345186441698,-0.00012929781223647296,0.2613844871520996,-1.403785530720846,4.669475120152103e-14,-0.042140211910009384,0.007551909890025854,-1.2119357581051124e-20,0.026319263502955437,1.2958604097366333,0.0009796692756935954,0.08849290013313293
211.0,226.0,2.0303,0.6712,9.4265,-0.0386,0.0414,-0.1148,-1.8058620891966761,-0.002930261893197894,2.8355679512023926,-1.6502546072006226,0.013699909672141075,2.1051878929138184,4.819329175143995,-0.00011903650010935962,0.2600446045398712,-1.4037168661700647,1.2997655228348847e-17,-0.04586421698331833,0.007495608646422625,-3.373467814577673e-24,0.0246933214366436,1.295912742614746,0.0008029515156522393,0.09785354137420654
211.0,226.0,2.0303,0.6712,9.4265,-0.0386,0.0414,-0.1148,-1.8059545956053675,-0.002345776418223977,2.803823471069336,-1.6501342058181763,0.014675973914563656,2.0986995697021484,4.819377209037103,-0.00011028411972802132,0.25731122493743896,-1.4037655035602015,3.617945423742377e-21,-0.05264358967542648,0.007511877920478582,-9.39017092596632e-28,0.015663035213947296,1.295920491218567,0.0006374688819050789,0.0843840166926384
211.0,226.0,2.0303,0.6712,9.4265,-0.0386,0.0414,-0.1148,-1.8059545956053675,-0.002068837871775031,2.828847885131836,-1.6500860452651978,0.015511371195316315,2.130286931991577,4.819325084775247,-0.00010513082816032693,0.2623903751373291,-1.4037211577044886,1.542386995003183e-23,-0.046752698719501495,0.0075556873343884945,-4.003177420934354e-30,0.013959922827780247,1.2959004640579224,0.000515783904120326,0.13169986009597778
211.0,226.0,2.0303,0.6712,9.4265,-0.0386,0.0414,-0.1148,-1.8059503040709437,-0.002121414290741086,2.8205695152282715,-1.6499459743499756,0.016350995749235153,2.1211647987365723,4.819349276810446,-9.824494190979749e-05,0.26156625151634216,-1.4037211577044886,4.293289965375826e-27,-0.04913792014122009,0.007495632860809565,-1.114299125108937e-33,0.012944376096129417,1.2959086894989014,0.0004676852549891919,0.10063892602920532
211.0,226.0,2.0303,0.6712,9.4265,-0.0386,0.0414,-0.1148,-1.8059584103026332,-0.00216551311314106,2.7856943607330322,-1.6499065160751343,0.018061276525259018,2.1029067039489746,4.819393220334806,-9.220552601618692e-05,0.26911211013793945,-1.4037130514727991,1.1950532602662975e-30,-0.04494454711675644,0.0075316098518669605,-3.1016925391604203e-37,0.030384056270122528,1.2959285974502563,0.00038248603232204914,0.1443823277950287
211.0,226.0,2.0303,0.6712,9.4265,-0.0386,0.0414,-0.1148,-1.8059865436949671,-0.002007707254961133,2.813640594482422,-1.6498141288757324,0.019018903374671936,2.160442590713501,4.81930540034131,-9.729172597872093e-05,0.24888043105602264,-1.4037449995623987,5.094698678297353e-33,-0.054744236171245575,0.0075238109566271305,-1.3223002633985055e-39,0.028848085552453995,1.2959450483322144,0.00038978029624558985,0.09569782018661499
211.0,226.0,2.0303,0.6712,9.4265,-0.0386,0.0414,-0.1148,-1.8059865436949671,-0.0017689238302409649,2.792684555053711,-1.6496620178222656,0.019747132435441017,2.1518845558166504,4.8193131787474535,-0.00010036162711912766,0.26355135440826416,-1.403785530720846,1.4181281261436844e-36,-0.05340283736586571,0.007495739962905645,-3.685414961174269e-43,0.029499614611268044,1.295904517173767,0.000316422461764887,0.17228855192661285
211.0,226.0,2.0303,0.6712,9.4265,-0.0386,0.0414,-0.1148,-1.8059665165343226,-0.0014410989824682474,2.7795355319976807,-1.649484634399414,0.02177239954471588,2.160236120223999,4.81934109607295,-0.00011063595593441278,0.26690438389778137,-1.4037774244891565,3.94741573504908e-40,-0.04044291377067566,0.0075237988494336605,-0.0,0.03447250649333,1.2959527969360352,0.0003299016389064491,0.12881091237068176
211.0,226.0,2.0303,0.6712,9.4265,-0.0386,0.0414,-0.1148,-1.8060065708556117,-0.0012368569150567055,2.789231300354004,-1.6494377851486206,0.023878630250692368,2.1166462898254395,4.819357457547941,-0.00010319758439436555,0.25443071126937866,-1.4037211577044886,1.6829594556541053e-42,-0.05273176357150078,0.007519769482314587,-0.0,0.021891893818974495,1.2959487438201904,0.00034404589678160846,0.12207411229610443
211.0,226.0,2.0303,0.6712,9.4265,-0.0386,0.0414,-0.1148,-1.8059865436949671,-0.0011820899089798331,2.761683464050293,-1.6492860317230225,0.02675856277346611,2.1351091861724854,4.819293054729261,-0.00014259091403800994,0.25689905881881714,-1.4037378470050257,0.0,-0.057358551770448685,0.007511890027672052,-0.0,0.04794755578041077,1.2959892749786377,0.0005352785810828209,0.12100432813167572
211.0,226.0,2.0303,0.6712,9.4265,-0.0386,0.0414,-0.1148,-1.806002756158346,-0.0009985399665310979,2.754243850708008,-1.6491498947143555,0.030102917924523354,2.140465021133423,4.819305437594213,-0.0019841655157506466,0.249582901597023,-1.4037211577044886,0.0,-0.06204846128821373,0.007543766405433416,-0.0,0.03159409388899803,1.2959487438201904,0.0004813054110854864,0.14086662232875824
211.0,226.0,2.0303,0.6712,9.4265,-0.0386,0.0414,-0.1148,-1.8060108623900355,-0.0010671410709619522,2.7555811405181885,-1.6489903926849365,0.03302394971251488,2.1647415161132812,4.819285343378343,-0.0026004486717283726,0.23568889498710632,-1.4037368933307093,0.0,-0.06235551834106445,0.0075159152038395405,-0.0,0.0381317064166069,1.2959527969360352,0.00041753044934011996,0.23622392117977142
211.0,226.0,2.0303,0.6712,9.4265,-0.0386,0.0414,-0.1148,-1.8059827289977015,-0.0013753898674622178,2.755143642425537,-1.6488065719604492,0.03657541051506996,2.204402208328247,4.8192574111516855,-0.003884733421728015,0.2619847357273102,-1.4037130514727991,0.0,-0.055765263736248016,0.007551670074462891,-0.0,0.030509840697050095,1.2959527969360352,0.0003482745960354805,0.16951140761375427
211.0,226.0,2.0303,0.6712,9.4265,-0.0386,0.0414,-0.1148,-1.8060108623900355,-0.0017096957890316844,2.7450289726257324,-1.6485543251037598,0.0402049645781517,2.2023000717163086,4.819213259011068,-0.009030398912727833,0.2433265745639801,-1.403740708027975,0.0,-0.04629354178905487,0.0075316582806408405,-0.0,0.024335388094186783,1.2959569692611694,0.00029872715822421014,0.17291027307510376
206.0,205.0,2.0058,0.4612,9.262,-0.0806,0.0571,-0.1138,-1.8060146770873011,-0.0019957670010626316,2.7089152336120605,-1.6483381986618042,0.04241577908396721,2.153970718383789,4.819181914418497,-0.01571531593799591,0.24501986801624298,-1.403729263936178,0.0,-0.051809120923280716,0.007535731885582209,-0.0,0.03237033262848854,1.295920491218567,0.00027285004034638405,0.16948331892490387
206.0,205.0,2.0058,0.4612,9.262,-0.0806,0.0571,-0.1138,-1.806042810479635,-0.0021559586748480797,2.7480947971343994,-1.64805006980896,0.04651549458503723,2.2140953540802,4.819077881961622,-0.018171099945902824,0.22986915707588196,-1.4037655035602015,0.0,-0.055931657552719116,0.0075397491455078125,-0.0,0.028346925973892212,1.295920491218567,9.624757512938231e-05,0.13354134559631348
206.0,205.0,2.0058,0.4612,9.262,-0.0806,0.0571,-0.1138,-1.8060547314085902,-0.0024698202032595873,2.726024627685547,-1.6478060483932495,0.05036815628409386,2.163480758666992,4.818965951889314,-0.01733013428747654,0.2428402155637741,-1.4037817160235804,0.0,-0.06843957304954529,0.007527608890086412,-0.0,0.045178912580013275,1.2959285974502563,8.141977014020085e-05,0.1438443958759308
206.0,205.0,2.0058,0.4612,9.262,-0.0806,0.0571,-0.1138,-1.806099077264303,-0.002643746789544821,2.738589286804199,-1.6475706100463867,0.05315354838967323,2.127163887023926,4.818946312158861,-0.01716102473437786,0.23077619075775146,-1.4037168661700647,0.0,-0.07280024886131287,0.0075397491455078125,-0.0,0.04950306564569473,1.2959409952163696,7.466465467587113e-05,0.16945552825927734
206.0,205.0,2.0058,0.4612,9.262,-0.0806,0.0571,-0.1138,-1.8061353168883265,-0.0031851218082010746,2.7294530868530273,-1.6472502946853638,0.0555519200861454,2.133854866027832,4.818858849793234,-0.017066413536667824,0.23751786351203918,-1.4037378470050257,0.0,-0.05942356586456299,0.007551654241979122,-0.0,0.03736737370491028,1.2959409952163696,6.640113133471459e-05,0.09652059525251389
206.0,205.0,2.0058,0.4612,9.262,-0.0806,0.0571,-0.1138,-1.8061105213561,-0.004227121360599995,2.7626123428344727,-1.646898627281189,0.059939105063676834,2.171990394592285,4.818762983172693,-0.015986178070306778,0.23842263221740723,-1.4037697950946253,0.0,-0.06215339154005051,0.007531845476478338,-0.0,0.036860391497612,1.2959446907043457,8.966010500444099e-05,0.1614261269569397
206.0,205.0,2.0058,0.4612,9.262,-0.0806,0.0571,-0.1138,-1.8061591587462367,-0.005293902941048145,2.7231597900390625,-1.646621823310852,0.06322919577360153,2.2025890350341797,4.818678858667173,-0.014888140372931957,0.2536086142063141,-1.4037531057940882,0.0,-0.06670629233121872,0.007535731885582209,-0.0,0.04102727770805359,1.2959450483322144,-4.679469930124469e-05,0.10748998820781708
206.0,205.0,2.0058,0.4612,9.262,-0.0806,0.0571,-0.1138,-1.8061267338194789,-0.006180569529533386,2.745311975479126,-1.6462628841400146,0.06645146757364273,2.215008497238159,4.818651842861929,-0.013244875706732273,0.24784418940544128,-1.4037697950946253,0.0,-0.06366366893053055,0.007547580637037754,-0.0,0.030706878751516342,1.2959611415863037,-5.3066687542013824e-05,0.1485256552696228
206.0,205.0,2.0058,0.4612,9.262,-0.0806,0.0571,-0.1138,-1.806194921533102,-0.007804985158145428,2.71328067779541,-1.6457659006118774,0.06843161582946777,2.1947898864746094,4.818531374424257,-0.011911114677786827,0.24645522236824036,-1.4037697950946253,0.0,-0.05574151873588562,0.007583776954561472,-0.0,0.0410112589597702,1.295920491218567,-4.5089840568834916e-05,0.11252930015325546
206.0,205.0,2.0058,0.4612,9.262,-0.0806,0.0571,-0.1138,-1.8062712154784144,-0.008388509042561054,2.6828460693359375,-1.645526647567749,0.06937439739704132,2.215702533721924,4.818495946913519,-0.0116672832518816,0.23240703344345093,-1.4037211577044886,0.0,-0.0634579136967659,0.007535723969340324,-0.0,0.03983649984002113,1.2959086894989014,-4.09830390708521e-05,0.16570143401622772
206.0,205.0,2.0058,0.4612,9.262,-0.0806,0.0571,-0.1138,-1.8063351116576136,-0.009502443484961987,2.698133945465088,-1.6450703144073486,0.07080385833978653,2.218386650085449,4.818407925754347,-0.011113887652754784,0.24580396711826324,-1.4037254492389124,0.0,-0.05525009334087372,0.007571960799396038,-0.0,0.032629869878292084,1.2959368228912354,-3.605696838349104e-05,0.2050384283065796
206.0,205.0,2.0058,0.4612,9.262,-0.0806,0.0571,-0.1138,-1.8063589535155238,-0.009005827829241753,2.7514402866363525,-1.6447104215621948,0.07196734100580215,2.2033698558807373,4.818339857250013,-0.009365360252559185,0.22866997122764587,-1.403729263936178,0.0,-0.05239785090088844,0.0075397491455078125,-0.0,0.04473337531089783,1.2959164381027222,-3.21880797855556e-05,0.2088780403137207
206.0,205.0,2.0058,0.4612,9.262,-0.0806,0.0571,-0.1138,-1.8063589535155238,-0.00882189441472292,2.697237491607666,-1.6443735361099243,0.07433565706014633,2.2031307220458984,4.818291853159227,-0.008623003959655762,0.24184641242027283,-1.4037168661700647,0.0,-0.0628834143280983,0.007547604385763407,-0.0,0.044138550758361816,1.295912742614746,-3.0039311241125688e-05,0.17098216712474823
206.0,205.0,2.0058,0.4612,9.262,-0.0806,0.0571,-0.1138,-1.806427618066305,-0.008800240233540535,2.7027575969696045,-1.643955111503601,0.08038069307804108,2.2434515953063965,4.818240615516462,-0.009054065681993961,0.2392241358757019,-1.4037254492389124,0.0,-0.05740875005722046,0.00756382942199707,-0.0,0.04850165545940399,1.295920491218567,-2.7305190087645315e-05,0.24189484119415283
206.0,205.0,2.0058,0.4612,9.262,-0.0806,0.0571,-0.1138,-1.8064714870848597,-0.0090500982478261,2.6675972938537598,-1.6435664892196655,0.0846233144402504,2.2078325748443604,4.818216833263197,-0.010515210218727589,0.23194682598114014,-1.4037459532367151,0.0,-0.06006445735692978,0.007555675692856312,-0.0,0.045703768730163574,1.2959086894989014,-2.5743111109477468e-05,0.2220083326101303
206.0,205.0,2.0058,0.4612,9.262,-0.0806,0.0571,-0.1138,-1.8065678081908167,-0.010696668177843094,2.6529741287231445,-1.6430574655532837,0.08870519697666168,2.2195990085601807,4.818140971451559,-0.012221249751746655,0.2425386905670166,-1.4037335554706019,0.0,-0.051848575472831726,0.007563686463981867,6.392227533069672e-06,0.061562925577163696,1.2959086894989014,-2.3708642402198166e-05,0.18446457386016846
206.0,205.0,2.0058,0.4612,9.262,-0.0806,0.0571,-0.1138,-1.806615491906637,-0.013416193425655365,2.670487403869629,-1.6424466371536255,0.09445840120315552,2.257533550262451,4.818069207459249,-0.012315046973526478,0.2384142130613327,-1.4037211577044886,0.0,-0.06868262588977814,0.007575961761176586,1.7792999296162293e-09,0.04281727969646454,1.2959246635437012,-2.197221328970045e-05,0.23146076500415802
199.0,193.0,1.544,0.2734,9.5827,-0.1022,0.0886,-0.1167,-1.806711813012594,-0.014943387359380722,2.6534934043884277,-1.642142415046692,0.09678912162780762,2.2114999294281006,4.8180372817213915,-0.011839615181088448,0.2370235025882721,-1.4037087599383753,0.0,-0.06506982445716858,0.007587882690131664,7.585433149659426e-12,0.04623909294605255,1.2958885431289673,-4.161085598752834e-05,0.15158845484256744
