ramyac6/ROB537/final_project/csv/bad/bad_9.csv
tof_0,tof_1,accelx,accely,accelz,gyrox,gyroy,gyroz,shoulder_lift_joint_position,shoulder_lift_joint_velocity,shoulder_lift_joint_effort,elbow_joint_position,elbow_joint_velocity,elbow_joint_effort,wrist_1_joint_position,wrist_1_joint_velocity,wrist_1_joint_effort,wrist_2_joint_position,wrist_2_joint_velocity,wrist_2_joint_effort,wrist_3_joint_position,wrist_3_joint_velocity,wrist_3_joint_effort,shoulder_pan_joint_position,shoulder_pan_joint_velocity,shoulder_pan_joint_effort
298.0,295.0,5.2074,0.3727,7.4231,-0.0415,0.0318,-0.115,-1.5362929862788697,0.0,2.0085160732269287,-1.4436407089233398,-0.0,2.1723978519439697,-2.3811189136900843,0.0,0.28420180082321167,-1.4101269880877894,0.0,-0.026553768664598465,0.5420968532562256,-0.0,0.008040245622396469,1.1732289791107178,0.0,0.019821733236312866
298.0,295.0,5.2074,0.3727,7.4231,-0.0415,0.0318,-0.115,-1.536313222055771,0.0,2.0213449001312256,-1.4435725212097168,-0.0,2.1918177604675293,-2.3811589680113734,0.0,0.2761099636554718,-1.4101837317096155,0.0,-0.019897328689694405,0.5420889854431152,-0.0,-0.000675048737321049,1.1732174158096313,0.0,-0.005405453033745289
298.0,295.0,5.2074,0.3727,7.4231,-0.0415,0.0318,-0.115,-1.5362970617464562,0.0,2.008209705352783,-1.4435518980026245,-0.0,2.1634960174560547,-2.3811189136900843,0.0,0.2859675884246826,-1.4101432005511683,0.0,-0.036122407764196396,0.5421209931373596,-0.0,-0.0007890374399721622,1.1732854843139648,0.0,0.01259600929915905
298.0,295.0,5.2074,0.3727,7.4231,-0.0415,0.0318,-0.115,-1.536317379479744,0.0,2.019085168838501,-1.4435886144638062,-0.0,2.1863222122192383,-2.3811189136900843,0.0,0.27990710735321045,-1.4101551214801233,0.0,-0.027299484238028526,0.5420927405357361,-0.0,0.003124795388430357,1.1732854843139648,0.0,-0.04507152736186981
298.0,295.0,5.2074,0.3727,7.4231,-0.0415,0.0318,-0.115,-1.536276989882328,0.0,2.011598587036133,-1.443536400794983,-0.0,2.1538357734680176,-2.3811351261534632,0.0,0.2868329882621765,-1.4101350943194788,0.0,-0.036367323249578476,0.542076826095581,-0.0,-0.013916699215769768,1.1733096837997437,0.0,0.017694370821118355
298.0,295.0,5.2074,0.3727,7.4231,-0.0415,0.0318,-0.115,-1.5363331039300938,0.0,2.0067174434661865,-1.4435806274414062,-0.0,2.2049331665039062,-2.3811708889403285,0.0,0.27674341201782227,-1.4101508299456995,0.0,-0.02194640412926674,0.5421009063720703,-0.0,-0.01683969423174858,1.173265814781189,0.0,-0.02107055112719536
298.0,295.0,5.2074,0.3727,7.4231,-0.0415,0.0318,-0.115,-1.536264845435955,0.0,1.9769260883331299,-1.443532109260559,-0.0,2.1433894634246826,-2.38112272838735,0.0,0.26923707127571106,-1.4101632277118128,0.0,-0.02451024204492569,0.5420889854431152,-0.0,-0.008120177313685417,1.173233151435852,0.0,0.013729989528656006
298.0,295.0,5.2074,0.3727,7.4231,-0.0415,0.0318,-0.115,-1.5362810653499146,0.0,2.0520434379577637,-1.4436287879943848,-0.0,2.1930503845214844,-2.381150861779684,0.0,0.282115638256073,-1.4101470152484339,0.0,-0.023342909291386604,0.5420604944229126,-0.0,-0.004921590443700552,1.1732330322265625,0.0,0.02736862748861313
303.0,312.0,5.2187,0.3631,7.4255,-0.0344,0.0321,-0.1239,-1.5362810653499146,0.0,2.0306453704833984,-1.4435601234436035,-0.0,2.1729702949523926,-2.3811027012267054,0.0,0.2916873097419739,-1.4101350943194788,0.0,-0.02703666314482689,0.5420968532562256,-0.0,0.0007967755082063377,1.1732494831085205,0.0,0.03096570074558258
303.0,312.0,5.2187,0.3631,7.4255,-0.0344,0.0321,-0.1239,-1.5362850253335019,0.0,2.0525147914886475,-1.4435765743255615,-0.0,2.151358127593994,-2.3811871014037074,0.0,0.27553272247314453,-1.4101432005511683,0.0,-0.008792208507657051,0.5421615242958069,-0.0,0.00037055835127830505,1.1732614040374756,0.0,-0.037329599261283875
303.0,312.0,5.2187,0.3631,7.4255,-0.0344,0.0321,-0.1239,-1.5362888698330899,0.0,2.019620180130005,-1.4435405731201172,-0.0,2.1864876747131348,-2.3810869656004847,0.0,0.28011655807495117,-1.4101951758014124,0.0,-0.026516970247030258,0.54212886095047,-0.0,-0.0057115317322313786,1.1732735633850098,0.0,0.02859683334827423
303.0,312.0,5.2187,0.3631,7.4255,-0.0344,0.0321,-0.1239,-1.536309142862894,0.0,2.0292975902557373,-1.4435765743255615,-0.0,2.130465030670166,-2.3811470470824183,0.0,0.280341237783432,-1.4101551214801233,0.0,-0.022924358025193214,0.5420562624931335,-0.0,-0.005284436512738466,1.1733015775680542,0.0,0.027374178171157837
303.0,312.0,5.2187,0.3631,7.4255,-0.0344,0.0321,-0.1239,-1.5363215033761044,0.0,1.9984986782073975,-1.4435157775878906,-0.0,2.1879966259002686,-2.3811351261534632,0.0,0.2760884165763855,-1.4101751486407679,0.0,-0.01391422189772129,0.5421288013458252,-0.0,-0.0002663813065737486,1.1732773780822754,0.0,0.028971519321203232
303.0,312.0,5.2187,0.3631,7.4255,-0.0344,0.0321,-0.1239,-1.536321022813656,0.0,1.980858325958252,-1.4436086416244507,-0.0,2.1910300254821777,-2.381163259545797,8.28660375873369e-08,0.2841295301914215,-1.4101551214801233,0.0,-0.009742134250700474,0.5420968532562256,-0.0,-0.0038211906794458628,1.173277735710144,0.0,0.023026242852211
303.0,312.0,5.2187,0.3631,7.4255,-0.0344,0.0321,-0.1239,-1.536313222055771,0.0,2.031257152557373,-1.4435486793518066,-0.0,2.1335806846618652,-2.3811313114561976,3.5327091252312925e-10,0.2795757055282593,-1.4101389090167444,0.0,-0.023877490311861038,0.5421532988548279,-0.0,-0.0012040947331115603,1.173269510269165,0.0,-0.013926789164543152
303.0,312.0,5.2187,0.3631,7.4255,-0.0344,0.0321,-0.1239,-1.5363208924284955,0.0,2.0886082649230957,-1.4435518980026245,-0.0,2.1733572483062744,-2.381151338616842,9.833425035615101e-14,0.27837368845939636,-1.4101713339435022,0.0,-0.021192997694015503,0.5420767664909363,-0.0,-0.014229993335902691,1.173249363899231,0.0,-0.005216561257839203
303.0,312.0,5.2187,0.3631,7.4255,-0.0344,0.0321,-0.1239,-1.536281069075205,0.0,2.005026340484619,-1.4435601234436035,-0.0,2.193307399749756,-2.3811546764769496,2.7371697636955304e-17,0.29303035140037537,-1.4101670424090784,0.0,-0.011602799408137798,0.5421209931373596,-0.0,-0.0010087473783642054,1.1732614040374756,0.0,0.005706855095922947
303.0,312.0,5.2187,0.3631,7.4255,-0.0344,0.0321,-0.1239,-1.5362771202674885,0.0,1.9728178977966309,-1.4436124563217163,-0.0,2.139486312866211,-2.381111284295553,7.61901198820962e-21,0.28679323196411133,-1.4101389090167444,0.0,-0.015234517864882946,0.5421128273010254,-0.0,-0.0011538306716829538,1.173289179801941,0.0,0.029078053310513496
303.0,312.0,5.2187,0.3631,7.4255,-0.0344,0.0321,-0.1239,-1.5362890002182503,0.0,2.005843162536621,-1.4435806274414062,-0.0,2.1950480937957764,-2.381163259545797,2.1207803629138625e-24,0.28057122230529785,-1.4101594130145472,0.0,-0.02359752357006073,0.5421128273010254,-0.0,-0.02386924810707569,1.173221468925476,0.0,-0.05042402073740959
303.0,312.0,5.2187,0.3631,7.4255,-0.0344,0.0321,-0.1239,-1.5362931837192555,0.0,1.989153504371643,-1.4435886144638062,-0.0,2.131272077560425,-2.381162782708639,5.903269946828369e-28,0.2768929600715637,-1.4101470152484339,0.0,-0.027620453387498856,0.5421009063720703,-0.0,0.0003908898215740919,1.173249363899231,0.0,-0.03355627506971359
303.0,312.0,5.2187,0.3631,7.4255,-0.0344,0.0321,-0.1239,-1.536309180115797,0.0,2.061656951904297,-1.4435725212097168,-0.0,2.127854108810425,-2.38114657024526,1.6431969868421471e-31,0.2785400152206421,-1.4101713339435022,0.0,-0.022478248924016953,0.542104959487915,-0.0,-0.01731352135539055,1.1732690334320068,0.0,0.030139824375510216
303.0,312.0,5.2187,0.3631,7.4255,-0.0344,0.0321,-0.1239,-1.5363169473460694,0.0,1.9894086122512817,-1.4435560703277588,-0.0,2.200575351715088,-2.381127019921774,4.5738984546005566e-35,0.2910561263561249,-1.4101670424090784,0.0,-0.02711108699440956,0.5421009659767151,-0.0,-0.012807915918529034,1.17329740524292,0.0,-0.013767439872026443
303.0,312.0,5.2187,0.3631,7.4255,-0.0344,0.0321,-0.1239,-1.536321022813656,0.0,2.035999059677124,-1.4435405731201172,-0.0,2.146230936050415,-2.381138940850729,1.2731613505395664e-38,0.2792448401451111,-1.410191837941305,0.0,-0.02632986754179001,0.5420849323272705,-0.0,-0.01037339773029089,1.1733096837997437,0.0,0.025623254477977753
303.0,312.0,5.2187,0.3631,7.4255,-0.0344,0.0321,-0.1239,-1.5362646777978917,0.0,2.0243372917175293,-1.4435445070266724,-0.0,2.161388874053955,-2.381178995172018,3.5438838162774624e-42,0.280693918466568,-1.410191837941305,0.0,-0.029485872015357018,0.5420889854431152,-0.0,-0.006938877049833536,1.1733179092407227,0.0,0.08480417728424072
283.0,316.0,5.187,0.3954,7.5087,-0.0414,0.0328,-0.1165,-1.536325142984726,0.0,2.0143914222717285,-1.4435807466506958,-0.0,2.194026470184326,-2.3811546764769496,1.401298464324817e-45,0.2838115394115448,-1.4101269880877894,0.0,-0.017633585259318352,0.5421087741851807,-0.0,0.010190997272729874,1.17329740524292,0.0,0.03275616839528084
283.0,316.0,5.187,0.3954,7.5087,-0.0414,0.0328,-0.1165,-1.536328987484314,0.0,1.9899462461471558,-1.443608283996582,-0.0,2.1612634658813477,-2.3811546764769496,0.0,0.27110570669174194,-1.4101432005511683,0.0,-0.024749498814344406,0.5420968532562256,-0.0,-0.007845556363463402,1.1732773780822754,0.0,-0.00893025565892458
283.0,316.0,5.187,0.3954,7.5087,-0.0414,0.0328,-0.1165,-1.536305033867695,0.0,2.0011351108551025,-1.4435518980026245,-0.0,2.1800296306610107,-2.381167074243063,0.0,0.2831026315689087,-1.4101713339435022,0.0,-0.018867868930101395,0.5421251654624939,-0.0,-0.009281270205974579,1.1732654571533203,0.0,0.025197891518473625
283.0,316.0,5.187,0.3954,7.5087,-0.0414,0.0328,-0.1165,-1.5362687942436715,0.0,2.019327163696289,-1.4435601234436035,-0.0,2.166398048400879,-2.38114657024526,0.0,0.27922314405441284,-1.4101350943194788,0.0,-0.02768002077937126,0.5421410799026489,-0.0,-0.005701094400137663,1.1732453107833862,0.0,0.0013807658106088638
283.0,316.0,5.187,0.3954,7.5087,-0.0414,0.0328,-0.1165,-1.5362646777978917,0.0,1.9709376096725464,-1.4435518980026245,-0.0,2.19570255279541,-2.3811351261534632,0.0,0.26843172311782837,-1.4101956526385706,0.0,-0.01124967634677887,0.5420525670051575,-0.0,-0.008031838573515415,1.1732571125030518,0.0,0.005500693805515766
283.0,316.0,5.187,0.3954,7.5087,-0.0414,0.0328,-0.1165,-1.536276989882328,0.0,2.0305144786834717,-1.4435806274414062,-0.0,2.1823456287384033,-2.3811546764769496,0.0,0.27819138765335083,-1.4101908842669886,0.0,-0.016156788915395737,0.542185366153717,-0.0,-0.014467256143689156,1.173249363899231,0.0,0.013166157528758049
283.0,316.0,5.187,0.3954,7.5087,-0.0414,0.0328,-0.1165,-1.5363209147802372,0.0,2.048424005508423,-1.4435569047927856,-0.0,2.1715071201324463,-2.3811265430846156,0.0,0.2774415612220764,-1.410147492085592,0.0,-0.011792801320552826,0.5421087145805359,-0.0,-0.008305740542709827,1.1733137369155884,0.0,0.04618057981133461
283.0,316.0,5.187,0.3954,7.5087,-0.0414,0.0328,-0.1165,-1.5362731342068692,0.0,2.0184996128082275,-1.4435926675796509,-0.0,2.14019513130188,-2.3811189136900843,0.0,0.2750704884529114,-1.4101231733905237,0.0,-0.024773836135864258,0.5421209931373596,-0.0,-0.00968416128307581,1.1732494831085205,0.0,-0.03820282220840454
283.0,316.0,5.187,0.3954,7.5087,-0.0414,0.0328,-0.1165,-1.536325142984726,0.0,2.026034355163574,-1.4435323476791382,-0.0,2.145855665206909,-2.3811189136900843,0.0,0.27792882919311523,-1.410147492085592,0.0,-0.019069643691182137,0.5421848893165588,-0.0,-0.013816438615322113,1.1732494831085205,0.0,0.02035907655954361
283.0,316.0,5.187,0.3954,7.5087,-0.0414,0.0328,-0.1165,-1.536313222055771,0.0,1.990539789199829,-1.4435404539108276,-0.0,2.1976468563079834,-2.3811551533141078,0.0,0.27944403886795044,-1.4101999441729944,0.0,-0.03574765473604202,0.5421091914176941,-0.0,-0.013469419442117214,1.1733015775680542,0.0,0.020815705880522728
283.0,316.0,5.187,0.3954,7.5087,-0.0414,0.0328,-0.1165,-1.5362890002182503,0.0,2.0608019828796387,-1.4435601234436035,-0.0,2.16908860206604,-2.381127019921774,0.0,0.27938443422317505,-1.410147492085592,0.0,-0.021482393145561218,0.5421735644340515,-0.0,-0.004204015247523785,1.1733219623565674,0.0,0.021620051935315132
283.0,316.0,5.187,0.3954,7.5087,-0.0414,0.0328,-0.1165,-1.536313222055771,0.0,2.01957631111145,-1.44352388381958,-0.0,2.1558499336242676,-2.381162782708639,0.0,0.2783471941947937,-1.4101432005511683,0.0,-0.022419460117816925,0.5420724749565125,-0.0,-0.0040359036065638065,1.173269510269165,0.0,0.008711826987564564
283.0,316.0,5.187,0.3954,7.5087,-0.0414,0.0328,-0.1165,-1.536284790640213,0.0,2.025888204574585,-1.4435765743255615,-0.0,2.180856466293335,-2.3811427555479945,0.0,0.2866826355457306,-1.4101551214801233,0.0,-0.017616264522075653,0.5420968532562256,-0.0,-0.005923741031438112,1.1732933521270752,0.0,0.02450874075293541
283.0,316.0,5.187,0.3954,7.5087,-0.0414,0.0328,-0.1165,-1.536325142984726,0.0,2.0385875701904297,-1.4435405731201172,-0.0,2.122955083847046,-2.3811189136900843,0.0,0.28202590346336365,-1.4101508299456995,0.0,-0.020106518641114235,0.5421209931373596,-0.0,0.0002813951577991247,1.1732933521270752,0.0,0.0031084660440683365
283.0,316.0,5.187,0.3954,7.5087,-0.0414,0.0328,-0.1165,-1.5363248784891148,0.0,2.0243077278137207,-1.4435968399047852,-0.0,2.1577584743499756,-2.3811031780638636,0.0,0.2727164924144745,-1.410191837941305,0.0,-0.020906459540128708,0.542104959487915,-0.0,-0.0006276280619204044,1.1733015775680542,0.0,-0.007207857444882393
283.0,316.0,5.187,0.3954,7.5087,-0.0414,0.0328,-0.1165,-1.536345375036337,0.0,2.006843328475952,-1.4435486793518066,-0.0,2.15834379196167,-2.3811546764769496,0.0,0.2802284061908722,-1.410158936177389,0.0,-0.035572297871112823,0.5421009063720703,-0.0,0.007049000822007656,1.1732614040374756,0.0,-0.03850845620036125
295.0,310.0,5.281,0.4056,7.3986,-0.0359,0.031,-0.1248,-1.5362687942436715,0.0,2.001159191131592,-1.4435601234436035,-0.0,2.1392619609832764,-2.3811427555479945,0.0,0.27585339546203613,-1.4101837317096155,0.0,-0.02779299020767212,0.5421091318130493,-0.0,-0.009909318760037422,1.1732370853424072,0.0,0.06675619632005692
295.0,310.0,5.281,0.4056,7.3986,-0.0359,0.031,-0.1248,-1.5362970617464562,0.0,2.0277490615844727,-1.4435486793518066,-0.0,2.1645615100860596,-2.381110807458395,0.0,0.28955185413360596,-1.4101632277118128,0.0,-0.029182229191064835,0.5421128273010254,-0.0,0.0004225663433317095,1.1733174324035645,0.0,-0.011201468296349049
295.0,310.0,5.281,0.4056,7.3986,-0.0359,0.031,-0.1248,-1.5362769973329087,0.0,2.0346133708953857,-1.443552851676941,-0.0,2.1559479236602783,-2.381127019921774,0.0,0.27969932556152344,-1.4101627508746546,0.0,-0.02692718245089054,0.5421169996261597,-0.0,-0.003765492234379053,1.1732854843139648,0.0,-0.0047981468960642815
295.0,310.0,5.281,0.4056,7.3986,-0.0359,0.031,-0.1248,-1.5362968307784577,0.0,1.932228922843933,-1.4435807466506958,-0.0,2.122554063796997,-2.381178995172018,0.0,0.278076171875,-1.4101713339435022,0.0,-0.02573450654745102,0.5421369671821594,-0.0,-0.00209695752710104,1.1733214855194092,0.0,-0.0234866663813591
295.0,310.0,5.281,0.4056,7.3986,-0.0359,0.031,-0.1248,-1.5363050264171143,0.0,2.011976957321167,-1.443632960319519,-0.0,2.1671371459960938,-2.381150861779684,0.0,0.27608299255371094,-1.4102075735675257,0.0,-0.02032851055264473,0.5421168804168701,-0.0,-0.007283410057425499,1.1733137369155884,0.0,0.005263333208858967
295.0,310.0,5.281,0.4056,7.3986,-0.0359,0.031,-0.1248,-1.536325142984726,0.0,2.070427894592285,-1.4435601234436035,-0.0,2.1571221351623535,-2.3811589680113734,0.0,0.2909413278102875,-1.410191837941305,0.0,-0.020366674289107323,0.5420726537704468,-0.0,-0.015872670337557793,1.1732896566390991,0.0,0.05383671075105667
295.0,310.0,5.281,0.4056,7.3986,-0.0359,0.031,-0.1248,-1.5362888698330899,0.0,2.041334390640259,-1.4435560703277588,-0.0,2.199345111846924,-2.3811432323851527,0.0,0.2847193479537964,-1.4101508299456995,0.0,-0.02634982019662857,0.542056679725647,-0.0,-0.01055979821830988,1.173261284828186,0.0,0.02953639067709446
295.0,310.0,5.281,0.4056,7.3986,-0.0359,0.031,-0.1248,-1.5363169622472306,0.0,2.0477490425109863,-1.4436086416244507,-0.0,2.16862154006958,-2.3811031780638636,0.0,0.2793632745742798,-1.4102032820331019,0.0,-0.034900154918432236,0.542173445224762,-0.0,-0.012636104598641396,1.173253059387207,0.0,-0.005695875734090805
295.0,310.0,5.281,0.4056,7.3986,-0.0359,0.031,-0.1248,-1.5363129426589985,0.0,2.0505480766296387,-1.4435765743255615,-0.0,2.1587843894958496,-2.381167074243063,0.0,0.27871981263160706,-1.410191837941305,0.0,-0.01675838604569435,0.542120635509491,-0.0,-0.008190461434423923,1.1732535362243652,0.0,-0.015707053244113922
295.0,310.0,5.281,0.4056,7.3986,-0.0359,0.031,-0.1248,-1.536316980873682,0.0,1.9834349155426025,-1.4436086416244507,-0.0,2.1432929039001465,-2.3811189136900843,0.0,0.29012325406074524,-1.4102070967303675,0.0,-0.025044851005077362,0.5421410799026489,-0.0,0.0005834617768414319,1.173317790031433,0.0,-0.028744608163833618
295.0,310.0,5.281,0.4056,7.3986,-0.0359,0.031,-0.1248,-1.536284790640213,0.0,2.0607903003692627,-1.4435518980026245,-0.0,2.1357505321502686,-2.3810869656004847,0.0,0.2745897173881531,-1.410130802785055,0.0,-0.013557345606386662,0.5421168804168701,-0.0,-0.006764348596334457,1.1732937097549438,0.0,0.02547755092382431
295.0,310.0,5.281,0.4056,7.3986,-0.0359,0.031,-0.1248,-1.5363012228957196,0.0,2.0142154693603516,-1.4435161352157593,-0.0,2.175569534301758,-2.3811589680113734,0.0,0.28271958231925964,-1.4101713339435022,0.0,-0.024309879168868065,0.542072594165802,-0.0,-0.013449111022055149,1.17329740524292,0.0,-0.02374175190925598
295.0,310.0,5.281,0.4056,7.3986,-0.0359,0.031,-0.1248,-1.5362606693855305,0.0,1.9930200576782227,-1.4435886144638062,-0.0,2.1709742546081543,-2.3811265430846156,0.0,0.28730645775794983,-1.4101508299456995,0.0,-0.014778004959225655,0.5420849323272705,-0.0,-0.005446332506835461,1.1732453107833862,0.0,-0.0023434259928762913
295.0,310.0,5.281,0.4056,7.3986,-0.0359,0.031,-0.1248,-1.536313222055771,0.0,2.0215907096862793,-1.4435683488845825,-0.0,2.1600143909454346,-2.381162782708639,0.0,0.27863073348999023,-1.4101594130145472,0.0,-0.016535311937332153,0.5420284867286682,-0.0,-0.0037848104257136583,1.1732614040374756,0.0,0.014360683038830757
295.0,310.0,5.281,0.4056,7.3986,-0.0359,0.031,-0.1248,-1.536272869711258,0.0,1.978290319442749,-1.4435765743255615,-0.0,2.154498338699341,-2.3811351261534632,0.0,0.2784712314605713,-1.4101350943194788,0.0,-0.01813247986137867,0.5421251058578491,-0.0,-0.009603207930922508,1.1732732057571411,0.0,0.01161806471645832
296.0,305.0,5.2044,0.3218,7.4441,-0.0322,0.0301,-0.1173,-1.5362771202674885,0.0,2.005614757537842,-1.4436126947402954,-0.0,2.1718451976776123,-2.381123205224508,0.0,0.28187283873558044,-1.410191837941305,0.0,-0.027291297912597656,0.5420889854431152,-0.0,-0.003615308552980423,1.173269510269165,0.0,0.00816329289227724
296.0,305.0,5.2044,0.3218,7.4441,-0.0322,0.0301,-0.1173,-1.5363050264171143,0.0,2.014188289642334,-1.443560242652893,-0.0,2.187808036804199,-2.3811432323851527,0.0,0.268078088760376,-1.4101627508746546,0.0,-0.017417781054973602,0.5420726537704468,-0.0,-0.01165691390633583,1.1733014583587646,0.0,-0.024166323244571686
296.0,305.0,5.2044,0.3218,7.4441,-0.0322,0.0301,-0.1173,-1.5363214549473305,0.0,2.0368168354034424,-1.4435641765594482,-0.0,2.160378932952881,-2.3811546764769496,0.0,0.2788725197315216,-1.4101956526385706,0.0,-0.02123909443616867,0.542068600654602,-0.0,0.003491051960736513,1.1732454299926758,0.0,0.011628443375229836
296.0,305.0,5.2044,0.3218,7.4441,-0.0322,0.0301,-0.1173,-1.5362929862788697,0.0,2.030337333679199,-1.443632960319519,-0.0,2.1652286052703857,-2.3811546764769496,0.0,0.28417709469795227,-1.4101432005511683,0.0,-0.021976619958877563,0.5420525670051575,-0.0,-0.0013366066850721836,1.173317790031433,0.0,0.017380941659212112
296.0,305.0,5.2044,0.3218,7.4441,-0.0322,0.0301,-0.1173,-1.536336788242199,0.0,2.011563539505005,-1.4435601234436035,-0.0,2.176511764526367,-2.3811828098692835,0.0,0.27711671590805054,-1.4101508299456995,0.0,-0.01766250841319561,0.5420848727226257,-0.0,-0.0056625716388225555,1.1732933521270752,0.0,-0.019068246707320213
296.0,305.0,5.2044,0.3218,7.4441,-0.0322,0.0301,-0.1173,-1.5362929862788697,0.0,2.0582985877990723,-1.4435847997665405,-0.0,2.156010866165161,-2.381123205224508,0.0,0.28812769055366516,-1.410191837941305,0.0,-0.02786274626851082,0.5420931577682495,-0.0,-0.004649369511753321,1.1733137369155884,0.0,0.04553774744272232
296.0,305.0,5.2044,0.3218,7.4441,-0.0322,0.0301,-0.1173,-1.5363333758762856,0.0,1.9864001274108887,-1.4435641765594482,-0.0,2.1590752601623535,-2.3810907802977503,0.0,0.28959834575653076,-1.4101713339435022,0.0,-0.023434437811374664,0.5421050190925598,-0.0,-0.008153402246534824,1.1732854843139648,0.0,-0.05092186480760574
296.0,305.0,5.2044,0.3218,7.4441,-0.0322,0.0301,-0.1173,-1.5362810728004952,0.0,1.992734670639038,-1.4435362815856934,-0.0,2.177255392074585,-2.3811351261534632,0.0,0.28309503197669983,-1.4101389090167444,0.0,-0.007211394142359495,0.542080819606781,-0.0,-0.0023060967214405537,1.1732494831085205,0.0,-0.0021488273050636053
296.0,305.0,5.2044,0.3218,7.4441,-0.0322,0.0301,-0.1173,-1.536324856137373,0.0,2.025846004486084,-1.4435240030288696,-0.0,2.134138584136963,-2.381082674066061,0.0,0.27351611852645874,-1.41014272371401,0.0,-0.0287223719060421,0.5420485138893127,-0.0,-0.004854052327573299,1.1733055114746094,0.0,-0.0024714237079024315
296.0,305.0,5.2044,0.3218,7.4441,-0.0322,0.0301,-0.1173,-1.5362890821746369,0.0,2.046797513961792,-1.443560242652893,-0.0,2.138111114501953,-2.3811828098692835,0.0,0.2861546277999878,-1.4101908842669886,0.0,-0.016111699864268303,0.5421091318130493,-0.0,-0.009750336408615112,1.1733014583587646,0.0,-0.01877441443502903
296.0,305.0,5.2044,0.3218,7.4441,-0.0322,0.0301,-0.1173,-1.536329211001732,0.0,2.0371274948120117,-1.4435282945632935,-0.0,2.1595239639282227,-2.38112272838735,0.0,0.27907827496528625,-1.4101269880877894,0.0,-0.024035301059484482,0.5421575307846069,-0.0,-0.01313992589712143,1.1732290983200073,0.0,0.012291448190808296
296.0,305.0,5.2044,0.3218,7.4441,-0.0322,0.0301,-0.1173,-1.5363288161209603,0.0,1.9881789684295654,-1.4436004161834717,-0.0,2.1883020401000977,-2.3811546764769496,0.0,0.2707768380641937,-1.410158936177389,0.0,-0.0210860688239336,0.5420968532562256,-0.0,-0.016920290887355804,1.1732453107833862,0.0,-0.004470509476959705
296.0,305.0,5.2044,0.3218,7.4441,-0.0322,0.0301,-0.1173,-1.5363012228957196,0.0,2.0557100772857666,-1.443532109260559,-0.0,2.12790846824646,-2.3811351261534632,0.0,0.27908027172088623,-1.4101470152484339,0.0,-0.03748735785484314,0.5420849919319153,-0.0,0.000956506934016943,1.1732933521270752,0.0,0.038691505789756775
296.0,305.0,5.2044,0.3218,7.4441,-0.0322,0.0301,-0.1173,-1.5363089864007016,0.0,2.0360610485076904,-1.4435765743255615,-0.0,2.187028408050537,-2.3811351261534632,0.0,0.2809811234474182,-1.4101551214801233,0.0,-0.023993799462914467,0.5420849323272705,-0.0,-0.0008752073626965284,1.1732854843139648,0.0,0.00995373260229826
296.0,305.0,5.2044,0.3218,7.4441,-0.0322,0.0301,-0.1173,-1.536276989882328,0.0,2.0524351596832275,-1.4435765743255615,-0.0,2.182243585586548,-2.381195207635397,0.0,0.2742791175842285,-1.4101594130145472,0.0,-0.015424082987010479,0.5421168804168701,-0.0,0.007868588902056217,1.1733014583587646,0.0,-0.030267124995589256
296.0,305.0,5.2044,0.3218,7.4441,-0.0322,0.0301,-0.1173,-1.5362968941083928,0.0,1.9978923797607422,-1.443532109260559,-0.0,2.1566410064697266,-2.38114657024526,0.0,0.2902212142944336,-1.4101269880877894,0.0,-0.03713151067495346,0.5420448184013367,-0.0,-0.014130858704447746,1.1732854843139648,0.0,0.04375547170639038
301.0,309.0,5.1966,0.3505,7.4459,-0.033,0.0261,-0.1124,-1.536276989882328,0.0,1.9993177652359009,-1.4435601234436035,-0.0,2.195209503173828,-2.3810507259764613,0.0,0.2885179817676544,-1.4101508299456995,0.0,-0.032935045659542084,0.5421009063720703,-0.0,-0.007139471359550953,1.173261284828186,0.0,0.017977092415094376
301.0,309.0,5.1966,0.3505,7.4459,-0.033,0.0261,-0.1124,-1.5363251504353066,0.0,2.042713165283203,-1.4436371326446533,-0.0,2.172842502593994,-2.381094594995016,0.0,0.2754131257534027,-1.4101389090167444,0.0,-0.01672208495438099,0.5421091318130493,-0.0,-0.00824236124753952,1.173241138458252,0.0,-0.005703169386833906
301.0,309.0,5.1966,0.3505,7.4459,-0.033,0.0261,-0.1124,-1.5363009509495278,0.0,2.036137580871582,-1.443552851676941,-0.0,2.145979881286621,-2.3811432323851527,0.0,0.27613210678100586,-1.41014272371401,0.0,-0.01869277097284794,0.5420529842376709,-0.0,-0.007870007306337357,1.1732614040374756,0.0,0.018671024590730667
301.0,309.0,5.1966,0.3505,7.4459,-0.033,0.0261,-0.1124,-1.5362890374711533,0.0,2.016624927520752,-1.4435968399047852,-0.0,2.2227399349212646,-2.3811432323851527,0.0,0.281716525554657,-1.4101875464068812,0.0,-0.04075910896062851,0.5421045422554016,-0.0,0.0032300150487571955,1.1732654571533203,0.0,-0.026236187666654587
301.0,309.0,5.1966,0.3505,7.4459,-0.033,0.0261,-0.1124,-1.5363009323230763,0.0,1.9998080730438232,-1.4435362815856934,-0.0,2.1693239212036133,-2.381174703637594,0.0,0.2840193510055542,-1.410158936177389,0.0,-0.019661331549286842,0.5421127676963806,-0.0,-0.009675227105617523,1.1732256412506104,0.0,-0.015033392235636711
301.0,309.0,5.1966,0.3505,7.4459,-0.033,0.0261,-0.1124,-1.5363050264171143,0.0,2.011854648590088,-1.4435888528823853,-0.0,2.134676456451416,-2.381138940850729,0.0,0.2793351709842682,-1.410147492085592,0.0,-0.02674790844321251,0.5420526266098022,-0.0,-0.01851050928235054,1.1733297109603882,0.0,0.06934650987386703
301.0,309.0,5.1966,0.3505,7.4459,-0.033,0.0261,-0.1124,-1.5363089901259919,0.0,2.0170912742614746,-1.4435601234436035,-0.0,2.162217378616333,-2.381111284295553,0.0,0.27956274151802063,-1.4101875464068812,0.0,-0.016803614795207977,0.5420849323272705,-0.0,0.00010455306619405746,1.173317790031433,0.0,0.01569623127579689
301.0,309.0,5.1966,0.3505,7.4459,-0.033,0.0261,-0.1124,-1.5363132630339642,0.0,2.0454635620117188,-1.4435642957687378,-0.0,2.182342529296875,-2.38112272838735,0.0,0.2692101001739502,-1.4101432005511683,0.0,-0.019051553681492805,0.542056679725647,-0.0,-0.014085463248193264,1.1732412576675415,0.0,-0.0378391370177269
301.0,309.0,5.1966,0.3505,7.4459,-0.033,0.0261,-0.1124,-1.536225040709116,0.0,1.9837682247161865,-1.4435725212097168,-0.0,2.150291919708252,-2.381095071832174,0.0,0.28604570031166077,-1.4101713339435022,0.0,-0.009363413788378239,0.5421292185783386,-0.0,-0.0008953813230618834,1.1732814311981201,0.0,0.018105780705809593
301.0,309.0,5.1966,0.3505,7.4459,-0.033,0.0261,-0.1124,-1.5363288831761857,0.0,2.0181522369384766,-1.4435765743255615,-0.0,2.189105987548828,-2.38112272838735,0.0,0.2802121937274933,-1.4101875464068812,0.0,-0.02890438586473465,0.5421328544616699,-0.0,0.005207507871091366,1.1732614040374756,0.0,0.009065311402082443
301.0,309.0,5.1966,0.3505,7.4459,-0.033,0.0261,-0.1124,-1.5362771239927788,0.0,2.051375150680542,-1.4435806274414062,-0.0,2.1108250617980957,-2.3811589680113734,0.0,0.28599077463150024,-1.4101389090167444,0.0,-0.03288763016462326,0.542068600654602,-0.0,-0.0004329318180680275,1.1732814311981201,0.0,0.01960921101272106
301.0,309.0,5.1966,0.3505,7.4459,-0.033,0.0261,-0.1124,-1.5362647485784073,0.0,2.04547119140625,-1.4435161352157593,-0.0,2.1634440422058105,-2.381167074243063,0.0,0.27689477801322937,-1.410158936177389,0.0,-0.012544991448521614,0.5421168804168701,-0.0,0.0007660267874598503,1.1732773780822754,0.0,-0.06581740826368332
301.0,309.0,5.1966,0.3505,7.4459,-0.033,0.0261,-0.1124,-1.5362771202674885,0.0,2.0493404865264893,-1.443552851676941,-0.0,2.206378936767578,-2.381127019921774,0.0,0.27358728647232056,-1.410130802785055,0.0,-0.0030704850796610117,0.5421009063720703,-0.0,-0.014163533225655556,1.1732494831085205,0.0,-0.00845060683786869
301.0,309.0,5.1966,0.3505,7.4459,-0.033,0.0261,-0.1124,-1.5362850551358243,0.0,2.0161221027374268,-1.4435683488845825,-0.0,2.1877453327178955,-2.3811265430846156,0.0,0.28540655970573425,-1.4101269880877894,0.0,-0.028084252029657364,0.5421288013458252,-0.0,0.005686196498572826,1.1732732057571411,0.0,0.049396805465221405
301.0,309.0,5.1966,0.3505,7.4459,-0.033,0.0261,-0.1124,-1.5362850625864048,0.0,2.0055360794067383,-1.4435601234436035,-0.0,2.1400909423828125,-2.381151338616842,0.0,0.2887316048145294,-1.4101713339435022,0.0,-0.020657770335674286,0.5420931577682495,-0.0,-0.003939028363674879,1.17329740524292,0.0,0.043703529983758926
294.0,311.0,5.2295,0.2758,7.4704,-0.0362,0.0179,-0.1072,-1.5362771202674885,0.0,2.01171612739563,-1.4435405731201172,-0.0,2.226194143295288,-2.381127019921774,0.0,0.27770137786865234,-1.4101632277118128,0.0,-0.02279841899871826,0.542080819606781,-0.0,-0.002486442681401968,1.173317790031433,0.0,0.04258393868803978
294.0,311.0,5.2295,0.2758,7.4704,-0.0362,0.0179,-0.1072,-1.5362647113255044,0.0,2.0004076957702637,-1.4435569047927856,-0.0,2.1549630165100098,-2.381167074243063,0.0,0.29257363080978394,-1.4101627508746546,0.0,-0.02629588171839714,0.5421209931373596,-0.0,-0.0014080032706260681,1.1732895374298096,0.0,-0.019412990659475327
294.0,311.0,5.2295,0.2758,7.4704,-0.0362,0.0179,-0.1072,-1.5362969388118763,0.0,2.014165163040161,-1.4435161352157593,-0.0,2.1263303756713867,-2.3810864887633265,0.0,0.2886731028556824,-1.4101627508746546,0.0,-0.02576630935072899,0.5421132445335388,-0.0,-0.016813840717077255,1.1732535362243652,0.0,-0.015550987794995308
294.0,311.0,5.2295,0.2758,7.4704,-0.0362,0.0179,-0.1072,-1.5362490464797993,0.0,1.9868897199630737,-1.4435889720916748,-0.0,2.1800906658172607,-2.381163259545797,0.0,0.28538647294044495,-1.4101350943194788,0.0,-0.03330190107226372,0.5421570539474487,-0.0,-0.010656658560037613,1.1732732057571411,0.0,0.012560384348034859
294.0,311.0,5.2295,0.2758,7.4704,-0.0362,0.0179,-0.1072,-1.5362810504487534,0.0,2.041898727416992,-1.4435725212097168,-0.0,2.128462076187134,-2.3811708889403285,0.0,0.2836604714393616,-1.4101627508746546,0.0,-0.01697729155421257,0.5421288013458252,-0.0,-0.005750654265284538,1.1732654571533203,0.0,-0.004129474516957998
294.0,311.0,5.2295,0.2758,7.4704,-0.0362,0.0179,-0.1072,-1.536277112816908,0.0,2.0284881591796875,-1.443544626235962,-0.0,2.1659202575683594,-2.381138940850729,0.0,0.2705724537372589,-1.4101837317096155,-5.768566957442545e-09,-0.01832566224038601,0.5420485138893127,-0.0,-0.004429707769304514,1.1732735633850098,0.0,-0.012630445882678032
294.0,311.0,5.2295,0.2758,7.4704,-0.0362,0.0179,-0.1072,-1.5362969201854249,0.0,1.994131326675415,-1.4435240030288696,-0.0,2.1867971420288086,-2.38109888652944,0.0,0.2808850109577179,-1.410130802785055,-1.6057017911477733e-12,-0.019385648891329765,0.5421168804168701,-0.0,0.002295015612617135,1.1732453107833862,0.0,-0.007668021135032177
294.0,311.0,5.2295,0.2758,7.4704,-0.0362,0.0179,-0.1072,-1.5362890039435406,0.0,2.0340518951416016,-1.443548560142517,-0.0,2.159801721572876,-2.3811027012267054,0.0,0.2818070650100708,-1.4101470152484339,-6.845359020157251e-15,-0.027015987783670425,0.5421009063720703,-0.0,-0.005728572607040405,1.1733014583587646,0.0,-0.030033312737941742
294.0,311.0,5.2295,0.2758,7.4704,-0.0362,0.0179,-0.1072,-1.536305033867695,0.0,2.030958414077759,-1.4435683488845825,-0.0,2.185393810272217,-2.3811027012267054,0.0,0.2740044593811035,-1.4101794401751917,-1.9054303933506005e-18,-0.014149768278002739,0.5421128273010254,-0.0,-0.003781912848353386,1.1733256578445435,0.0,0.028409922495484352
294.0,311.0,5.2295,0.2758,7.4704,-0.0362,0.0179,-0.1072,-1.5362810653499146,0.0,2.027207136154175,-1.44352388381958,-0.0,2.1704368591308594,-2.381127019921774,0.0,0.27748170495033264,-1.41014272371401,-5.30383574053411e-22,-0.01945517212152481,0.5420849323272705,-0.0,-0.0014561297139152884,1.1732773780822754,0.0,-0.019636090844869614
294.0,311.0,5.2295,0.2758,7.4704,-0.0362,0.0179,-0.1072,-1.5362771202674885,0.0,1.9808599948883057,-1.4435641765594482,-0.0,2.1736154556274414,-2.3811351261534632,0.0,0.2831873893737793,-1.410198990498678,-1.4763422140241604e-25,-0.02666630409657955,0.5420767664909363,-0.0,-0.007800869643688202,1.1732933521270752,0.0,-0.027832096442580223
294.0,311.0,5.2295,0.2758,7.4704,-0.0362,0.0179,-0.1072,-1.5363169398954888,0.0,1.9709768295288086,-1.4435601234436035,-0.0,2.185227632522583,-2.38112272838735,0.0,0.27640166878700256,-1.4101951758014124,-4.109453620689372e-29,-0.02597101405262947,0.542076826095581,-0.0,-0.0014622625894844532,1.1732814311981201,0.0,-0.012349340133368969
294.0,311.0,5.2295,0.2758,7.4704,-0.0362,0.0179,-0.1072,-1.5362530027380963,0.0,2.0306270122528076,-1.4435683488845825,-0.0,2.156712770462036,-2.3811150989928187,0.0,0.28700336813926697,-1.4101551214801233,-1.143881487372036e-32,-0.024692993611097336,0.5421492457389832,-0.0,-0.016661176458001137,1.1733297109603882,0.0,-0.029582221060991287
294.0,311.0,5.2295,0.2758,7.4704,-0.0362,0.0179,-0.1072,-1.5362969686141987,0.0,2.0186002254486084,-1.4435765743255615,-0.0,2.1655843257904053,-2.3811546764769496,0.0,0.28820347785949707,-1.410191837941305,-3.1840363794066644e-36,-0.007352115586400032,0.5420928001403809,-0.0,0.0036477285902947187,1.173326015472412,0.0,-0.027259942144155502
294.0,311.0,5.2295,0.2758,7.4704,-0.0362,0.0179,-0.1072,-1.5362524029663582,0.0,2.032905340194702,-1.4435642957687378,-0.0,2.1490650177001953,-2.3811313114561976,0.0,0.28732407093048096,-1.4101713339435022,-8.86287647522303e-40,-0.021814150735735893,0.542097270488739,-0.0,-0.010885502211749554,1.1732535362243652,0.0,0.00714903324842453
294.0,311.0,5.2295,0.2758,7.4704,-0.0362,0.0179,-0.1072,-1.5362850700369854,0.0,2.001342535018921,-1.4435570240020752,-0.0,2.228294610977173,-2.381127019921774,0.0,0.2800031304359436,-1.4101508299456995,-2.466285297211678e-43,-0.03382507711648941,0.5421611666679382,-0.0,-0.01940731890499592,1.1733137369155884,0.0,-0.005949038080871105
288.0,308.0,5.3169,0.3374,7.4662,-0.0458,0.0229,-0.1179,-1.5363129575601597,0.0,2.058178424835205,-1.443544626235962,-0.0,2.168644428253174,-2.3811751804747523,0.0,0.2680540382862091,-1.4101794401751917,-0.0,-0.02107631228864193,0.542068600654602,-0.0,-0.010783354751765728,1.17329740524292,0.0,-0.002511298283934593
288.0,308.0,5.3169,0.3374,7.4662,-0.0458,0.0229,-0.1179,-1.5363129016808053,0.0,2.018688201904297,-1.4435240030288696,-0.0,2.1823158264160156,-2.3811432323851527,0.0,0.2934877276420593,-1.4101546446429651,-0.0,-0.013055059127509594,0.5421329140663147,-0.0,-0.0027495422400534153,1.1732454299926758,0.0,-0.04364633187651634
288.0,308.0,5.3169,0.3374,7.4662,-0.0458,0.0229,-0.1179,-1.5362969127348443,0.0,2.018062114715576,-1.443532109260559,-0.0,2.202307939529419,-2.381078382531637,0.0,0.2674551010131836,-1.4101670424090784,-0.0,-0.02368837222456932,0.542177140712738,-0.0,-0.010708503425121307,1.1733218431472778,2.4091055539354755e-11,-0.012723922729492188
288.0,308.0,5.3169,0.3374,7.4662,-0.0458,0.0229,-0.1179,-1.5362930011800309,0.0,1.9611141681671143,-1.443544626235962,-0.0,2.1825366020202637,-2.381167074243063,0.0,0.2730701267719269,-1.4101951758014124,-0.0,-0.013385705649852753,0.5421369671821594,-0.0,-0.006407679058611393,1.1732735633850098,5.817706831873253e-17,-0.01687581092119217
288.0,308.0,5.3169,0.3374,7.4662,-0.0458,0.0229,-0.1179,-1.5362329495004197,0.0,1.9964675903320312,-1.4435601234436035,-0.0,2.1910293102264404,-2.3811069927611292,0.0,0.27395597100257874,-1.4101794401751917,-0.0,-0.01416741218417883,0.5421168804168701,-0.0,-0.0018587036756798625,1.173317790031433,1.0471666307427345e-20,0.04284955561161041
288.0,308.0,5.3169,0.3374,7.4662,-0.0458,0.0229,-0.1179,-1.5362929937294503,0.0,2.0099854469299316,-1.4435198307037354,-0.0,2.199018955230713,-2.381078382531637,0.0,0.2866760194301605,-1.4101751486407679,-0.0,-0.030490821227431297,0.5421128273010254,-0.0,-0.011203431524336338,1.17329740524292,2.5287839192817462e-26,0.002832995727658272
288.0,308.0,5.3169,0.3374,7.4662,-0.0458,0.0229,-0.1179,-1.5362490129521866,0.0,2.01250958442688,-1.4435197114944458,-0.0,2.1524245738983154,-2.3811027012267054,0.0,0.2929886281490326,-1.4101837317096155,-0.0,-0.0327298603951931,0.5421046018600464,-0.0,3.772659692913294e-05,1.1732773780822754,6.106714899167274e-32,-0.026855098083615303
288.0,308.0,5.3169,0.3374,7.4662,-0.0458,0.0229,-0.1179,-1.5362810653499146,0.0,2.009490728378296,-1.4435641765594482,-0.0,2.1963460445404053,-2.3811308346190394,0.0,0.27308326959609985,-1.4101794401751917,-0.0,-0.030732132494449615,0.5421165227890015,-0.0,-0.0049149938859045506,1.1732895374298096,1.4746999352365539e-37,-0.02256852574646473
288.0,308.0,5.3169,0.3374,7.4662,-0.0458,0.0229,-0.1179,-1.536292978828289,0.0,2.054811477661133,-1.4435203075408936,-0.0,2.1740753650665283,-2.38109888652944,1.7272342347496306e-06,0.27986860275268555,-1.410198990498678,-0.0,-0.0323510505259037,0.5421730875968933,-0.0,0.0024302667006850243,1.173269510269165,3.5592980993850354e-43,-0.006136899348348379
288.0,308.0,5.3169,0.3374,7.4662,-0.0458,0.0229,-0.1179,-1.536272832458355,0.0,2.009474277496338,-1.4435243606567383,-0.0,2.1971726417541504,-2.3811031780638636,4.807819697916216e-10,0.2855992913246155,-1.410158936177389,-0.0,-0.03226913884282112,0.5421247482299805,-0.0,-0.013341296464204788,1.1732895374298096,0.0,-0.017666373401880264
288.0,308.0,5.3169,0.3374,7.4662,-0.0458,0.0229,-0.1179,-1.5362930086306115,0.0,2.0466561317443848,-1.4435405731201172,-0.0,2.204418182373047,-2.381139417687887,1.3382741095857575e-13,0.2863556146621704,-1.4101384321795862,-0.0,-0.007589556276798248,0.5422090888023376,-0.0,-0.006806378252804279,1.1732453107833862,0.0,0.005052626132965088
288.0,308.0,5.3169,0.3374,7.4662,-0.0458,0.0229,-0.1179,-1.5362771202674885,0.0,2.0401296615600586,-1.443576455116272,-0.0,2.216076135635376,-2.381071229974264,3.7251360893553905e-17,0.28323790431022644,-1.4101951758014124,-0.0,-0.03618345409631729,0.5421930551528931,-0.0,-0.003519439371302724,1.1732614040374756,0.0,0.005226013250648975
288.0,308.0,5.3169,0.3374,7.4662,-0.0458,0.0229,-0.1179,-1.5362130303731938,0.0,2.0537827014923096,-1.4435725212097168,-0.0,2.1411683559417725,-2.3810907802977503,1.0369052290618154e-20,0.28432121872901917,-1.4101908842669886,-0.0,-0.021942930296063423,0.5421364903450012,-0.0,-2.8289970941841602e-05,1.173277735710144,0.0,-0.009677985683083534
288.0,308.0,5.3169,0.3374,7.4662,-0.0458,0.0229,-0.1179,-1.5362810504487534,0.0,2.0075037479400635,-1.4435765743255615,-0.0,2.212320566177368,-2.3810907802977503,2.8862633752086496e-24,0.27153387665748596,-1.4102194944964808,-0.0,-0.03563670068979263,0.5421648025512695,-0.0,0.002303915098309517,1.1732617616653442,0.0,-0.024388795718550682
288.0,308.0,5.3169,0.3374,7.4662,-0.0458,0.0229,-0.1179,-1.5362969313612957,0.0,2.0269052982330322,-1.443552851676941,-0.0,2.126087188720703,-2.3811470470824183,8.034020614871243e-28,0.27543747425079346,-1.4101470152484339,-0.0,-0.024849291890859604,0.5421971678733826,-0.0,0.0038680604193359613,1.1732617616653442,0.0,-0.02241535671055317
288.0,308.0,5.3169,0.3374,7.4662,-0.0458,0.0229,-0.1179,-1.5362810653499146,0.0,2.0139217376708984,-1.4435930252075195,-0.0,2.1441762447357178,-2.381078382531637,2.2362990092190267e-31,0.2801508903503418,-1.4101546446429651,-0.0,-0.03530276566743851,0.5421205759048462,-0.0,-0.015469073317945004,1.1732572317123413,0.0,0.020175201818346977
286.0,294.0,5.1511,0.329,7.4662,-0.0444,0.0336,-0.1118,-1.5362810020199795,0.0,2.0429306030273438,-1.4435569047927856,-0.0,2.2003350257873535,-2.381078382531637,6.224821151229808e-35,0.272195428609848,-1.4101627508746546,-0.0,-0.022162336856126785,0.5421484112739563,-0.0,-0.010621987283229828,1.1732735633850098,0.0,-0.02314778044819832
286.0,294.0,5.1511,0.329,7.4662,-0.0444,0.0336,-0.1118,-1.5362771202674885,0.0,2.0026986598968506,-1.443532109260559,-0.0,2.171668529510498,-2.381123205224508,2.6537384501348117e-37,0.2868179678916931,-1.410158936177389,-0.0,-0.017853405326604843,0.5421684980392456,-0.0,-0.009976884350180626,1.1732535362243652,0.0,-0.03624376654624939
286.0,294.0,5.1511,0.329,7.4662,-0.0444,0.0336,-0.1118,-1.5362850812128563,0.0,2.00370192527771,-1.4435518980026245,-0.0,2.1737985610961914,-2.38109888652944,7.386804724841841e-41,0.2878570258617401,-1.4101670424090784,-0.0,-0.019579343497753143,0.5421971678733826,-0.0,0.0012425181921571493,1.1732535362243652,0.0,0.010301832109689713
286.0,294.0,5.1511,0.329,7.4662,-0.0444,0.0336,-0.1118,-1.5363328580609341,0.0,2.0163514614105225,-1.4435601234436035,-0.0,2.1815710067749023,-2.381038805047506,2.1019476964872256e-44,0.27987080812454224,-1.4101546446429651,-0.0,-0.028913427144289017,0.5421726107597351,-0.0,-0.01846827194094658,1.1732814311981201,0.0,-0.003387467935681343
286.0,294.0,5.1511,0.329,7.4662,-0.0444,0.0336,-0.1118,-1.5362691481462498,0.0,1.988487720489502,-1.4435362815856934,-0.0,2.1335947513580322,-2.3811193905272425,0.0,0.27735841274261475,-1.4101670424090784,-0.0,-0.024698838591575623,0.5421727299690247,-0.0,-0.0008763803634792566,1.1732256412506104,0.0,0.051517657935619354
286.0,294.0,5.1511,0.329,7.4662,-0.0444,0.0336,-0.1118,-1.5363050264171143,0.0,2.0280699729919434,-1.4435560703277588,-0.0,2.1684257984161377,-2.381071229974264,0.0,0.28065526485443115,-1.41014272371401,-0.0,-0.03514934703707695,0.5422410368919373,-0.0,-0.001186939305625856,1.1733055114746094,0.0,-0.0034459715243428946
286.0,294.0,5.1511,0.329,7.4662,-0.0444,0.0336,-0.1118,-1.5363328394344826,0.0,2.0336413383483887,-1.4435443878173828,-0.0,2.1849770545959473,-2.3810750446715296,0.0,0.2765057384967804,-1.410130802785055,-0.0,-0.015787282958626747,0.5422491431236267,-0.0,-0.003511944552883506,1.1732735633850098,0.0,0.013570601120591164
286.0,294.0,5.1511,0.329,7.4662,-0.0444,0.0336,-0.1118,-1.5362648864141484,0.0,1.9795669317245483,-1.4435043334960938,-0.0,2.153035879135132,-2.3810063801207484,0.0,0.2906872034072876,-1.4101713339435022,-0.0,-0.03373851627111435,0.5420960187911987,-0.0,-0.001251635025255382,1.173241138458252,0.0,0.003425643313676119
286.0,294.0,5.1511,0.329,7.4662,-0.0444,0.0336,-0.1118,-1.5362850551358243,0.0,1.9873007535934448,-1.4435280561447144,-0.0,2.2033376693725586,-2.3810306988158167,0.0,0.2764134109020233,-1.4101670424090784,-0.0,-0.018029140308499336,0.5421848297119141,-0.0,0.011662713252007961,1.173224925994873,0.0,-0.021281708031892776
286.0,294.0,5.1511,0.329,7.4662,-0.0444,0.0336,-0.1118,-1.536320862626173,0.0,1.9854624271392822,-1.4435280561447144,-0.0,2.167175531387329,-2.3810793362059535,0.0,0.28905022144317627,-1.4101150671588343,-0.0,-0.02466057613492012,0.5422210097312927,-0.0,0.0026697127614170313,1.1732895374298096,0.0,-0.06641362607479095
286.0,294.0,5.1511,0.329,7.4662,-0.0444,0.0336,-0.1118,-1.5363368701985856,0.0,2.024625539779663,-1.4435724020004272,-0.0,2.168372631072998,-2.3810588322081507,0.0,0.29981178045272827,-1.410158936177389,-0.0,-0.01966676115989685,0.5422250628471375,-0.0,0.022018827497959137,1.17329740524292,0.0,0.003219684585928917
286.0,294.0,5.1511,0.329,7.4662,-0.0444,0.0336,-0.1118,-1.536332980995514,0.0,2.014655590057373,-1.443604588508606,-0.0,2.153824806213379,-2.381111284295553,0.0,0.28052812814712524,-1.4101627508746546,-0.0,-0.03663841262459755,0.5421848297119141,-0.0,0.0027113393880426884,1.1732174158096313,0.0,0.06462708860635757
286.0,294.0,5.1511,0.329,7.4662,-0.0444,0.0336,-0.1118,-1.5363409419408818,-0.00023187581973616034,2.030033826828003,-1.4435280561447144,-0.0,2.1872687339782715,-2.38104309658193,7.595292117912322e-05,0.28152862191200256,-1.4101713339435022,-0.0,-0.0327037014067173,0.5421562790870667,-0.0,0.01786280982196331,1.1732617616653442,0.0,0.019684990867972374
286.0,294.0,5.1511,0.329,7.4662,-0.0444,0.0336,-0.1118,-1.536344987606146,-0.0003066975041292608,2.029637336730957,-1.4435609579086304,-0.0,2.1735198497772217,-2.381042619744772,7.232680945890024e-05,0.2862941026687622,-1.410191837941305,-0.0,-0.020114893093705177,0.5421926975250244,-0.0,0.013389763422310352,1.1732735633850098,0.0,0.01705324649810791
286.0,294.0,5.1511,0.329,7.4662,-0.0444,0.0336,-0.1118,-1.5363611330142994,-0.00029042709502391517,2.0262582302093506,-1.443544626235962,-0.0,2.161343574523926,-2.381026884118551,8.402750245295465e-05,0.2891390323638916,-1.4101594130145472,-0.0,-0.032172683626413345,0.5422004461288452,-0.0,0.014221664518117905,1.1732854843139648,0.0,0.020488101989030838
284.0,304.0,5.1051,0.3015,7.471,-0.0475,0.029,-0.1196,-1.536328987484314,-0.00029155416996218264,2.0146050453186035,-1.4435886144638062,-0.0,2.123521566390991,-2.3810917339720667,9.32752009248361e-05,0.285270094871521,-1.4101875464068812,-0.0,-0.027365412563085556,0.5421324372291565,-0.0,0.016718637198209763,1.17325758934021,0.0,0.09101357311010361
284.0,304.0,5.1051,0.3015,7.471,-0.0475,0.029,-0.1196,-1.5363652271083375,-0.0002561644942034036,2.018254041671753,-1.4435518980026245,-0.0,2.1760873794555664,-2.381071229974264,9.603612852515653e-05,0.28223302960395813,-1.4101837317096155,-0.0,-0.02262616902589798,0.5421881079673767,-0.0,0.02644147351384163,1.1732572317123413,0.0,0.029237188398838043
284.0,304.0,5.1051,0.3015,7.471,-0.0475,0.029,-0.1196,-1.5363244240036984,-0.0002622745232656598,2.0393989086151123,-1.443511962890625,-0.0,2.1705946922302246,-2.3810111484923304,9.833525837166235e-05,0.2925410866737366,-1.4101713339435022,-0.0,-0.02224501222372055,0.5422370433807373,-0.0,0.0053238170221447945,1.1732617616653442,0.0,-0.001188456080853939
284.0,304.0,5.1051,0.3015,7.471,-0.0475,0.029,-0.1196,-1.536345024859049,-0.00030898209661245346,2.007417678833008,-1.4436091184616089,-0.0,2.187368392944336,-2.38101925472402,0.00022881734184920788,0.2975080609321594,-1.4101670424090784,-0.0,-0.026768825948238373,0.542245090007782,-0.0,0.020995281636714935,1.1732494831085205,0.0,0.033091962337493896
284.0,304.0,5.1051,0.3015,7.471,-0.0475,0.029,-0.1196,-1.5363967691412945,-0.00030422385316342115,2.0846729278564453,-1.4435725212097168,-0.0,2.2172656059265137,-2.381014963189596,0.0002383668179390952,0.2961927652359009,-1.4101508299456995,-0.0,-0.034674953669309616,0.5422328114509583,-0.0,0.036609917879104614,1.1732654571533203,0.0,0.0397401787340641
284.0,304.0,5.1051,0.3015,7.471,-0.0475,0.029,-0.1196,-1.5363888640752812,-0.00030823261477053165,2.0262231826782227,-1.4435043334960938,-0.0,2.170492649078369,-2.3809906444945277,0.00024554849369451404,0.2863290309906006,-1.4101875464068812,-0.0,-0.035027921199798584,0.5422008037567139,-0.0,0.019281631335616112,1.1732412576675415,0.0,-0.034229882061481476
284.0,304.0,5.1051,0.3015,7.471,-0.0475,0.029,-0.1196,-1.5364052180996914,-0.000421023229137063,2.088414192199707,-1.4435683488845825,-0.0,2.167307138442993,-2.381014963189596,0.0002512104401830584,0.29035088419914246,-1.4101751486407679,-0.0,-0.04311051219701767,0.5421848297119141,-0.0,0.016288597136735916,1.1733218431472778,0.0,0.008519386872649193
284.0,304.0,5.1051,0.3015,7.471,-0.0475,0.029,-0.1196,-1.5363529597273846,-0.00035800522891804576,2.050872325897217,-1.443532109260559,-0.0,2.169379234313965,-2.3810235462584437,0.00022746507602278143,0.31282615661621094,-1.4101875464068812,-0.0,-0.03651929646730423,0.5421766638755798,-0.0,0.014665015041828156,1.1732732057571411,0.0,0.06349927186965942
284.0,304.0,5.1051,0.3015,7.471,-0.0475,0.029,-0.1196,-1.5364127916148682,-0.00034836315899156034,2.0534515380859375,-1.443520188331604,-0.0,2.151078939437866,-2.3810235462584437,0.0002609305374789983,0.29811879992485046,-1.41014272371401,-0.0,-0.03528529033064842,0.542224645614624,-0.0,0.021609719842672348,1.1732814311981201,0.0,0.06355458498001099
284.0,304.0,5.1051,0.3015,7.471,-0.0475,0.029,-0.1196,-1.536372897481062,-0.0003414602833800018,2.005833625793457,-1.443552851676941,-0.0,2.268155097961426,-2.38101925472402,0.00026521715335547924,0.3059549033641815,-1.4101627508746546,-0.0,-0.024211399257183075,0.5421881079673767,-0.0,0.02716265246272087,1.173269510269165,0.0,0.016685808077454567
284.0,304.0,5.1051,0.3015,7.471,-0.0475,0.029,-0.1196,-1.5363848333111783,-0.00030926248291507363,2.0510106086730957,-1.443532109260559,-0.0,2.1751174926757812,-2.381014963189596,0.00023233691172208637,0.29955223202705383,-1.4101350943194788,-0.0,-0.0407022200524807,0.542208731174469,9.919954027282074e-05,0.025835175067186356,1.1732854843139648,0.0,0.013415928930044174
284.0,304.0,5.1051,0.3015,7.471,-0.0475,0.029,-0.1196,-1.5364288178137322,-0.0003076721914112568,2.0324606895446777,-1.4435240030288696,-0.0,2.1870615482330322,-2.381014963189596,0.0002057719830190763,0.29315146803855896,-1.4101350943194788,-0.0,-0.03468476980924606,0.5422286987304688,9.342144767288119e-05,0.028629709035158157,1.173221468925476,0.0,0.006398063153028488
284.0,304.0,5.1051,0.3015,7.471,-0.0475,0.029,-0.1196,-1.5363885474256058,-0.0003203492669854313,2.058063507080078,-1.4435280561447144,-0.0,2.1543662548065186,-2.381071229974264,0.00019119777425657958,0.3046119809150696,-1.4101713339435022,-0.0,-0.033261802047491074,0.5422570109367371,8.969719056040049e-05,0.03870043158531189,1.1732572317123413,0.0,0.02332129515707493
284.0,304.0,5.1051,0.3015,7.471,-0.0475,0.029,-0.1196,-1.536412776713707,-0.00031454686541110277,2.046165943145752,-1.4435079097747803,-0.0,2.1845345497131348,-2.38101925472402,0.00020160891290288419,0.29593050479888916,-1.410158936177389,-0.0,-0.0324007049202919,0.5421725511550903,9.934545232681558e-05,0.02884916216135025,1.1732535362243652,0.0,-0.0034515317529439926
284.0,304.0,5.1051,0.3015,7.471,-0.0475,0.029,-0.1196,-1.5364088092795392,-0.0003298780065961182,2.0641889572143555,-1.4435847997665405,-0.0,2.1557199954986572,-2.3810025654234828,0.00018397574604023248,0.30626988410949707,-1.410130802785055,-0.0,-0.029522698372602463,0.5422247052192688,9.613795555196702e-05,0.02893511950969696,1.17329740524292,0.0,0.04646739363670349
284.0,304.0,5.1051,0.3015,7.471,-0.0475,0.029,-0.1196,-1.5363650073162098,-0.0002881345571950078,2.014556884765625,-1.4436168670654297,-0.0,2.1966614723205566,-2.380974908868307,0.0001691556244622916,0.30797091126441956,-1.4101231733905237,-0.0,-0.041131459176540375,0.5422528982162476,9.126408258453012e-05,0.018536072224378586,1.1732654571533203,0.0,0.0679178312420845
302.0,316.0,5.2038,0.2722,7.5715,-0.0313,0.0131,-0.1228,-1.5364167292467137,-0.0002900391991715878,2.0533480644226074,-1.443503737449646,-0.0,2.2055602073669434,-2.3809873066344203,0.00017814667080529034,0.3026018738746643,-1.4101751486407679,-0.0,-0.03279449790716171,0.5422607064247131,0.00010133247269550338,0.038857463747262955,1.1732494831085205,0.0,0.08602593094110489
302.0,316.0,5.2038,0.2722,7.5715,-0.0313,0.0131,-0.1228,-1.5364008408835907,-0.0002912157215178013,2.037937641143799,-1.44350004196167,-0.0,2.168304443359375,-2.3809997044005335,0.00016649618919473141,0.3156602382659912,-1.4101627508746546,-0.0,-0.04180756211280823,0.5422124266624451,0.00011024618288502097,0.036059796810150146,1.1732933521270752,0.0,0.04287819564342499
302.0,316.0,5.2038,0.2722,7.5715,-0.0313,0.0131,-0.1228,-1.5364008967629452,-0.00029281977913342416,2.021559715270996,-1.4435240030288696,-0.0,2.216646194458008,-2.3810554943480433,0.00014325375377666205,0.31902968883514404,-1.4101832548724573,-0.0,-0.04012252390384674,0.5422934293746948,0.00010561981616774574,0.039747416973114014,1.1732735633850098,0.0,-0.009128754958510399
302.0,316.0,5.2038,0.2722,7.5715,-0.0313,0.0131,-0.1228,-1.5363889832845707,-0.00040741509292274714,2.015064239501953,-1.4435683488845825,-0.0,2.189861297607422,-2.3809787235655726,0.00015661574434489012,0.3142579197883606,-1.410198990498678,-0.0,-0.03136850893497467,0.5422083139419556,0.00016165785200428218,0.04985407739877701,1.1733096837997437,0.0,0.010540561750531197
302.0,316.0,5.2038,0.2722,7.5715,-0.0313,0.0131,-0.1228,-1.5364248392036934,-0.0010086079128086567,2.014483690261841,-1.443544626235962,-0.0,2.1941261291503906,-2.380970617333883,0.00016504120139870793,0.320832222700119,-1.4101508299456995,-0.0,-0.03733516484498978,0.542216420173645,0.0001461725914850831,0.03207103908061981,1.1732814311981201,0.0,0.07398976385593414
302.0,316.0,5.2038,0.2722,7.5715,-0.0313,0.0131,-0.1228,-1.5364526075175782,-0.0020016187336295843,1.968955397605896,-1.4435807466506958,-0.0,2.198498249053955,-2.38101925472402,0.00016666458395775408,0.3148770332336426,-1.4102032820331019,-0.0,-0.04545823484659195,0.5422004461288452,0.00015936534327920526,0.03998411074280739,1.1732773780822754,0.0,0.05534994602203369
302.0,316.0,5.2038,0.2722,7.5715,-0.0313,0.0131,-0.1228,-1.536476769750454,-0.0034630938898772,2.028724193572998,-1.4435486793518066,-0.0,2.167171001434326,-2.380975385705465,0.00016568994033150375,0.31895506381988525,-1.4101875464068812,-0.0,-0.04905200004577637,0.5422288179397583,0.00015880801947787404,0.039671991020441055,1.1732814311981201,0.0,-0.008300913497805595
302.0,316.0,5.2038,0.2722,7.5715,-0.0313,0.0131,-0.1228,-1.5365005669048806,-0.004472864326089621,2.0141332149505615,-1.4435157775878906,-0.0,2.209794521331787,-2.38096346477651,0.00027409475296735764,0.31804150342941284,-1.4101269880877894,-0.0,-0.03467434272170067,0.5422769784927368,0.00015834275109227747,0.042087238281965256,1.1733055114746094,0.0,0.013568555004894733
302.0,316.0,5.2038,0.2722,7.5715,-0.0313,0.0131,-0.1228,-1.53654062495146,-0.005702698137611151,2.044070243835449,-1.4435724020004272,-0.0,2.1993446350097656,-2.3809672794737757,0.0002779364585876465,0.31411951780319214,-1.4101594130145472,-0.0,-0.0384637825191021,0.5422164797782898,0.00016756261175032705,0.04659470543265343,1.173317790031433,0.0,0.008571090176701546
302.0,316.0,5.2038,0.2722,7.5715,-0.0313,0.0131,-0.1228,-1.536596768801548,-0.006841395050287247,2.041977882385254,-1.4436087608337402,-0.0,2.1794521808624268,-2.380991598168844,0.0002832000609487295,0.31603339314460754,-1.4101713339435022,-0.0,-0.04333266615867615,0.5422969460487366,0.0001607596641406417,0.04329322651028633,1.1733096837997437,0.0,0.045812807977199554
302.0,316.0,5.2038,0.2722,7.5715,-0.0313,0.0131,-0.1228,-1.5366448399475594,-0.007698376663029194,2.017591953277588,-1.4435280561447144,-0.0,2.194948196411133,-2.3809710941710414,0.0002942439750768244,0.3209397494792938,-1.4101594130145472,-0.0,-0.048063620924949646,0.5422487258911133,0.00015066996274981648,0.052512966096401215,1.1733256578445435,0.0001305690675508231,0.0142190121114254
302.0,316.0,5.2038,0.2722,7.5715,-0.0313,0.0131,-0.1228,-1.536676601772644,-0.007987642660737038,2.061553716659546,-1.443552851676941,-0.0,2.185511589050293,-2.3809434376158656,0.00032906662090681493,0.3168695867061615,-1.4101350943194788,-0.0,-0.041063547134399414,0.5422687530517578,0.00018013273074757308,0.044680699706077576,1.1733253002166748,0.00012024418538203463,0.04209371656179428
302.0,316.0,5.2038,0.2722,7.5715,-0.0313,0.0131,-0.1228,-1.536760540013649,-0.008491256274282932,2.056898593902588,-1.4435322284698486,-0.0,2.159968614578247,-2.3809834919371546,0.0003243892570026219,0.30545830726623535,-1.4102070967303675,-0.0,-0.04446854442358017,0.5422204732894897,0.00016084017988760024,0.059242717921733856,1.1733334064483643,0.000133479421492666,0.08269201964139938
302.0,316.0,5.2038,0.2722,7.5715,-0.0313,0.0131,-0.1228,-1.5367721331170578,-0.009064393118023872,2.0057897567749023,-1.4435405731201172,-0.0,2.1909918785095215,-2.380935331384176,0.0003206742403563112,0.31494030356407166,-1.4101470152484339,-0.0,-0.02822188101708889,0.5422483682632446,0.00017430582374799997,0.03532823920249939,1.1733697652816772,0.00012435548705980182,0.045006368309259415
302.0,316.0,5.2038,0.2722,7.5715,-0.0313,0.0131,-0.1228,-1.536892720764019,-0.009806188754737377,2.0830085277557373,-1.443544626235962,-0.0,2.188145637512207,-2.380975385705465,0.00031793591915629804,0.3144334554672241,-1.4101670424090784,-0.0,-0.04392176866531372,0.5422970056533813,0.00018494749383535236,0.04899834841489792,1.1733137369155884,0.0001357059518340975,0.054379094392061234
302.0,316.0,5.2038,0.2722,7.5715,-0.0313,0.0131,-0.1228,-1.5368883845261117,-0.010730698704719543,2.033839464187622,-1.4435518980026245,-0.0,2.1738266944885254,-2.38096346477651,0.00032767915399745107,0.3123320937156677,-1.4101875464068812,-0.0,-0.04845007508993149,0.5422286987304688,0.000193071537069045,0.05763992667198181,1.173289179801941,0.00014542923599947244,0.08543084561824799
301.0,305.0,4.4201,0.1699,7.8586,-0.0411,0.0579,-0.1193,-1.537008450632431,-0.010946014896035194,2.024959087371826,-1.4435362815856934,-0.0,2.228588104248047,-2.3809715710081996,0.00034889252856373787,0.31074774265289307,-1.4101432005511683,-0.0,-0.04007193446159363,0.5422483682632446,0.0002450157480780035,0.04332330822944641,1.1733253002166748,0.00022647363948635757,0.04993618279695511
301.0,305.0,4.4201,0.1699,7.8586,-0.0411,0.0579,-0.1193,-1.5370639574578782,-0.01168407779186964,2.03448224067688,-1.443544626235962,-0.0,2.1857974529266357,-2.3809272251524867,0.0003192430594936013,0.3301089107990265,-1.4102032820331019,-0.0,-0.0364469438791275,0.5422687530517578,0.00026140702539123595,0.0517437681555748,1.1733334064483643,0.00023961644910741597,0.041471704840660095
301.0,305.0,4.4201,0.1699,7.8586,-0.0411,0.0579,-0.1193,-1.5371202652207394,-0.012315334752202034,2.0601894855499268,-1.4436086416244507,-0.0,2.167681932449341,-2.3809672794737757,0.00036481794086284935,0.3108263313770294,-1.4101551214801233,-0.0,-0.039162635803222656,0.5422766804695129,0.00026190513744950294,0.04045043885707855,1.173357605934143,0.0002467491722200066,0.042301591485738754
301.0,305.0,4.4201,0.1699,7.8586,-0.0411,0.0579,-0.1193,-1.537280847584345,-0.013046910054981709,2.0076406002044678,-1.4435765743255615,-0.0,2.2227745056152344,-2.3809396229186,0.00036625261418521404,0.3180598318576813,-1.4101865927325647,-0.0,-0.0396764799952507,0.5422283411026001,0.0002684136852622032,0.05018378049135208,1.173374056816101,0.0002522145223338157,0.08392888307571411
301.0,305.0,4.4201,0.1699,7.8586,-0.0411,0.0579,-0.1193,-1.5373038177243252,-0.014164552092552185,2.025822401046753,-1.4435641765594482,-0.0,2.190370559692383,-2.380907197991842,0.0005496328813023865,0.31392577290534973,-1.4101551214801233,-0.0,-0.0324738547205925,0.5423126816749573,0.00024326688435394317,0.04326009750366211,1.1733055114746094,0.00022835317940916866,0.054128311574459076
301.0,305.0,4.4201,0.1699,7.8586,-0.0411,0.0579,-0.1193,-1.537424051468708,-0.015054193325340748,2.029012680053711,-1.4435203075408936,-0.0,2.1694915294647217,-2.3808752499022425,0.0016600324306637049,0.3315279185771942,-1.4101184050189417,-0.0,-0.041742853820323944,0.542304515838623,0.0002860279637388885,0.05044186860322952,1.1733494997024536,0.0002855996135622263,0.05662959814071655
301.0,305.0,4.4201,0.1699,7.8586,-0.0411,0.0579,-0.1193,-1.5375401724926014,-0.017416933551430702,2.0409116744995117,-1.4435362815856934,-0.0,2.2184133529663086,-2.3809477291502894,0.009557572193443775,0.31560707092285156,-1.4101508299456995,-0.0,-0.047011781483888626,0.5422324538230896,0.00024121497699525207,0.05592074245214462,1.1733494997024536,0.00024077620764728636,0.01318686455488205
301.0,305.0,4.4201,0.1699,7.8586,-0.0411,0.0579,-0.1193,-1.5375518438271065,-0.018514025956392288,2.0487008094787598,-1.4435560703277588,-0.0,2.193941831588745,-2.3808232746519984,0.028015796095132828,0.327832967042923,-1.4101794401751917,-0.0,-0.032745786011219025,0.5422728657722473,0.00025558192282915115,0.054496295750141144,1.173301339149475,0.00021749867300968617,0.08975965529680252
301.0,305.0,4.4201,0.1699,7.8586,-0.0411,0.0579,-0.1193,-1.5376676221242924,-0.020758340135216713,2.0151848793029785,-1.4435240030288696,5.566824938796344e-07,2.198586940765381,-2.380627771417135,0.030889006331562996,0.34215494990348816,-1.4101794401751917,-0.0,-0.03366926312446594,0.5423007011413574,0.00022826067288406193,0.04730867221951485,1.1733298301696777,0.000189953061635606,0.0014860108494758606
301.0,305.0,4.4201,0.1699,7.8586,-0.0411,0.0579,-0.1193,-1.5377994899502774,-0.023069363087415695,1.9985971450805664,-1.443612813949585,1.3443224398251852e-12,2.1953511238098145,-2.3805486164488734,0.020619377493858337,0.33187729120254517,-1.4101470152484339,-0.0,-0.03761327266693115,0.542300820350647,0.00020256896095816046,0.06237313896417618,1.1733412742614746,0.00016860141477081925,0.05300603061914444
301.0,305.0,4.4201,0.1699,7.8586,-0.0411,0.0579,-0.1193,-1.5379837688854714,-0.02510645054280758,2.035402297973633,-1.4435203075408936,3.2463805357809798e-18,2.1665000915527344,-2.3803841076292933,0.009256990626454353,0.3224218189716339,-1.4101470152484339,-0.0,-0.03208928555250168,0.5423126220703125,0.00021238558110781014,0.05774497240781784,1.1733375787734985,0.00015156474546529353,0.0644541084766388
301.0,305.0,4.4201,0.1699,7.8586,-0.0411,0.0579,-0.1193,-1.5381235566786309,-0.027150938287377357,2.0024735927581787,-1.443552851676941,7.83962788974404e-24,2.1973214149475098,-2.380404611627096,0.0013471333077177405,0.3161945641040802,-1.4102070967303675,-0.0,-0.040534425526857376,0.5423290133476257,0.00020642577146645635,0.04561246931552887,1.1733051538467407,0.00013765532639808953,0.023787152022123337
301.0,305.0,4.4201,0.1699,7.8586,-0.0411,0.0579,-0.1193,-1.5383194473436852,-0.028877198696136475,2.039762020111084,-1.4435161352157593,1.893177850586885e-29,2.2266364097595215,-2.3803726635374964,-0.001391343423165381,0.3266562819480896,-1.4101627508746546,-0.0,-0.034545645117759705,0.5423367619514465,0.00020191114163026214,0.06613810360431671,1.1732851266860962,0.00012608442921191454,0.024653833359479904
301.0,305.0,4.4201,0.1699,7.8586,-0.0411,0.0579,-0.1193,-1.5385316287032147,-0.031094452366232872,2.069648265838623,-1.4435968399047852,4.5718023094007505e-35,2.1931169033050537,-2.38040890316152,-0.0006688389112241566,0.32817959785461426,-1.4101269880877894,-0.0,-0.030628811568021774,0.5422725081443787,0.000184775359230116,0.04890776053071022,1.1732932329177856,0.00011630788503680378,0.02836715802550316
301.0,305.0,4.4201,0.1699,7.8586,-0.0411,0.0579,-0.1193,-1.5386832368424912,-0.03396860510110855,2.001483678817749,-1.443532109260559,1.1040410210875936e-40,2.1917293071746826,-2.380392690698141,-0.0003239002835471183,0.333844929933548,-1.4102194944964808,-7.40886775929539e-07,-0.04129628464579582,0.5422403216362,0.000197141183889471,0.0634193941950798,1.173309326171875,0.00010793842375278473,0.07295476645231247
293.0,295.0,5.3767,0.2441,7.2987,0.0026,-0.0884,-0.1417,-1.5389231045595189,-0.037502724677324295,2.0069379806518555,-1.443528413772583,0.0,2.220643997192383,-2.3803607426085414,0.0003625016543082893,0.32872843742370605,-1.4101713339435022,-2.0622856200525064e-10,-0.04883524030447006,0.5423489212989807,0.00020743707136716694,0.06831634044647217,1.1733534336090088,0.00010069269046653062,0.025529835373163223
293.0,295.0,5.3767,0.2441,7.2987,0.0026,-0.0884,-0.1417,-1.5391309794834633,-0.04230312630534172,2.0481162071228027,-1.4435601234436035,-0.0,2.1916592121124268,-2.380368848840231,0.0010322369635105133,0.33392173051834106,-1.4102276007281702,-5.740447315627853e-14,-0.0455549880862236,0.5423408150672913,0.0002158221905119717,0.06370547413825989,1.1733616590499878,9.435857646167278e-05,0.10085247457027435
293.0,295.0,5.3767,0.2441,7.2987,0.0026,-0.0884,-0.1417,-1.5393907216242333,-0.04822995513677597,2.0192513465881348,-1.443508267402649,-0.0,2.2068097591400146,-2.3803330860533656,0.0024018893018364906,0.3351544737815857,-1.4102113882647913,-1.5978747154360342e-17,-0.0339946486055851,0.5423248410224915,0.00032672323868609965,0.0702987015247345,1.173337459564209,8.877420623321086e-05,0.04534638673067093
293.0,295.0,5.3767,0.2441,7.2987,0.0026,-0.0884,-0.1417,-1.539718586286046,-0.05377109348773956,2.053975820541382,-1.443516492843628,5.94750490563456e-05,2.195842742919922,-2.380256792108053,0.004416728857904673,0.3366960287094116,-1.4102156797992151,-4.447743691349094e-21,-0.032792627811431885,0.5423007011413574,0.0003235997282899916,0.06614776700735092,1.1733214855194092,8.381389488931745e-05,0.052107930183410645
293.0,295.0,5.3767,0.2441,7.2987,0.0026,-0.0884,-0.1417,-1.5400100027075787,-0.05962013080716133,2.0361242294311523,-1.443569302558899,8.119628910208121e-05,2.2502503395080566,-2.3802815876402796,0.006492043845355511,0.355243444442749,-1.410215202962057,-1.2380457002248424e-24,-0.04734364151954651,0.5423405170440674,0.00034263476845808327,0.07574616372585297,1.173365831375122,9.524566121399403e-05,0.0797690898180008
293.0,295.0,5.3767,0.2441,7.2987,0.0026,-0.0884,-0.1417,-1.540245996122696,-0.062952920794487,2.034160614013672,-1.4435601234436035,7.659423135919496e-05,2.244800567626953,-2.3802367649474085,0.007444216404110193,0.3510010242462158,-1.410198990498678,-5.277982894016032e-27,-0.0479469820857048,0.542304515838623,0.00033226553932763636,0.08643639087677002,1.1733253002166748,9.200843487633392e-05,0.10129128396511078
293.0,295.0,5.3767,0.2441,7.2987,0.0026,-0.0884,-0.1417,-1.5406295874020834,-0.0664731040596962,2.0583555698394775,-1.443540334701538,9.400479029864073e-05,2.1891117095947266,-2.3801852665343226,0.006650364026427269,0.3425804376602173,-1.4102314154254358,-0.00022175521007739007,-0.05473977327346802,0.5423364639282227,0.0004005660011898726,0.08610004186630249,1.1732650995254517,8.753414294915274e-05,0.15476387739181519
293.0,295.0,5.3767,0.2441,7.2987,0.0026,-0.0884,-0.1417,-1.5410693541965266,-0.07265448570251465,2.064772605895996,-1.443552851676941,8.727110980544239e-05,2.3035073280334473,-2.380193372766012,0.005871320143342018,0.3450745940208435,-1.410215202962057,-0.0001947022246895358,-0.047853171825408936,0.5423204898834229,0.0004102525126654655,0.08266972005367279,1.1733092069625854,8.347474795300514e-05,0.12882021069526672
293.0,295.0,5.3767,0.2441,7.2987,0.0026,-0.0884,-0.1417,-1.5415091284415503,-0.07693846523761749,2.106052875518799,-1.4435203075408936,8.135457028402016e-05,2.2737245559692383,-2.3801614246764125,0.004938163794577122,0.36359500885009766,-1.410215202962057,-0.00017232945538125932,-0.050055086612701416,0.5423281788825989,0.0005539763369597495,0.08334624767303467,1.1732770204544067,7.977525820024312e-05,0.10039415955543518
293.0,295.0,5.3767,0.2441,7.2987,0.0026,-0.0884,-0.1417,-1.5419603803059836,-0.07840593159198761,2.0906007289886475,-1.4435240030288696,7.618925883434713e-05,2.257471799850464,-2.3801409206786097,0.003932355437427759,0.3642406761646271,-1.4102032820331019,-0.0001545689592603594,-0.040616706013679504,0.5423645973205566,0.0006099024903960526,0.09147049486637115,1.1733174324035645,7.63898206059821e-05,0.15428796410560608
293.0,295.0,5.3767,0.2441,7.2987,0.0026,-0.0884,-0.1417,-1.542452124213316,-0.07808908820152283,2.0710785388946533,-1.4435930252075195,7.164082489907742e-05,2.2465391159057617,-2.3801456890501917,0.00328823016025126,0.34839022159576416,-1.4101794401751917,-0.00014012775500304997,-0.054737381637096405,0.5423564910888672,0.0008049280731938779,0.0777997374534607,1.17329740524292,7.327993080252782e-05,0.11323213577270508
293.0,295.0,5.3767,0.2441,7.2987,0.0026,-0.0884,-0.1417,-1.542951963176467,-0.07900263369083405,2.0968334674835205,-1.4435080289840698,6.760474934708327e-05,2.2357523441314697,-2.3801056347289027,0.002392228925600648,0.34991103410720825,-1.4101908842669886,-0.00012815465743187815,-0.0511506125330925,0.5423364639282227,0.0011092359200119972,0.08628852665424347,1.1733334064483643,7.041336357360706e-05,0.12500637769699097
293.0,295.0,5.3767,0.2441,7.2987,0.0026,-0.0884,-0.1417,-1.5434273474714537,-0.08115003257989883,2.0744993686676025,-1.4435161352157593,6.509931699838489e-05,2.284731149673462,-2.3800975284972132,0.0013418964808806777,0.35030442476272583,-1.4102075735675257,-0.00011806662223534659,-0.049782849848270416,0.5422961711883545,0.0016703776782378554,0.08419505506753922,1.1733174324035645,6.776264490326867e-05,0.14521515369415283
293.0,295.0,5.3767,0.2441,7.2987,0.0026,-0.0884,-0.1417,-1.5439430245063086,-0.08550675958395004,2.104140281677246,-1.4435683488845825,5.873717600479722e-05,2.2339789867401123,-2.3801218471922816,0.000773243373259902,0.36235737800598145,-1.4102476278888147,-0.00010945127723971382,-0.05900675803422928,0.5424254536628723,0.004024839494377375,0.09185588359832764,1.173317313194275,6.53043098282069e-05,0.05871983990073204
293.0,295.0,5.3767,0.2441,7.2987,0.0026,-0.0884,-0.1417,-1.5444744632444163,-0.09167937189340591,2.021754741668701,-1.4435806274414062,5.3499639761867e-05,2.271573066711426,-2.3801218471922816,0.0006063689943403006,0.3546517789363861,-1.4101627508746546,-0.00010200770338997245,-0.04875710979104042,0.5424246788024902,0.007484470494091511,0.09618251025676727,1.1733174324035645,6.30180147709325e-05,0.110198974609375
293.0,295.0,5.3767,0.2441,7.2987,0.0026,-0.0884,-0.1417,-1.5450180929950257,-0.09541003406047821,2.0307137966156006,-1.443544626235962,4.911978612653911e-05,2.2712926864624023,-2.3800536594786585,0.0005446114810183644,0.3494822382926941,-1.4102032820331019,-9.551216498948634e-05,-0.051905557513237,0.5424485206604004,0.007641792297363281,0.09104373306035995,1.1733214855194092,6.088645022828132e-05,0.09790471941232681
279.0,293.0,6.1167,0.7095,7.9986,-0.0116,-0.0324,-0.1394,-1.5456181050143023,-0.10382983088493347,2.069671630859375,-1.4435724020004272,4.54028086096514e-05,2.204080104827881,-2.380089899102682,0.00045184444752521813,0.34849968552589417,-1.4101827780352991,-8.979435369838029e-05,-0.05598606914281845,0.5424643754959106,0.004033858887851238,0.10102066397666931,1.1733416318893433,7.988549555193458e-07,0.11057029664516449
279.0,293.0,6.1167,0.7095,7.9986,-0.0116,-0.0324,-0.1394,-1.5462010384402056,-0.10965300351381302,2.0631611347198486,-1.4435641765594482,6.33118543191813e-05,2.254063844680786,-2.3800651035704554,0.0021799253299832344,0.33842623233795166,-1.4101713339435022,-8.472243644064292e-05,-0.05011659860610962,0.5424723029136658,0.0012541734613478184,0.0802752822637558,1.1733256578445435,1.9291408748234318e-12,0.11745260655879974
279.0,293.0,6.1167,0.7095,7.9986,-0.0116,-0.0324,-0.1394,-1.5466127966395398,-0.1102246642112732,2.0939269065856934,-1.4435243606567383,6.047690840205178e-05,2.2053215503692627,-2.3800493679442347,0.003029590006917715,0.3469427824020386,-1.4102233091937464,-8.164800965460017e-05,-0.06317431479692459,0.542508602142334,0.0008023218833841383,0.08247476816177368,1.1733096837997437,3.4723856268849946e-16,0.1181027814745903
279.0,293.0,6.1167,0.7095,7.9986,-0.0116,-0.0324,-0.1394,-1.5473127581975241,-0.10951412469148636,2.0433568954467773,-1.4435362815856934,5.666898869094439e-05,2.2499899864196777,-2.3800059757628382,0.0049505471251904964,0.34080296754837036,-1.410243336354391,-7.743309834040701e-05,-0.051565028727054596,0.5424845218658447,0.0005220797611400485,0.09558412432670593,1.17329740524292,8.385402095882102e-22,0.12172022461891174
279.0,293.0,6.1167,0.7095,7.9986,-0.0116,-0.0324,-0.1394,-1.5479114682278414,-0.10688470304012299,2.010354518890381,-1.443552851676941,5.331220381776802e-05,2.275379180908203,-2.379994054833883,0.0061396704986691475,0.3598807454109192,-1.4101827780352991,-7.363202894339338e-05,-0.04442793130874634,0.5424804091453552,0.0003871343214996159,0.09237220883369446,1.1732614040374756,2.0249760917881993e-27,0.08517259359359741
279.0,293.0,6.1167,0.7095,7.9986,-0.0116,-0.0324,-0.1394,-1.5486476749977847,-0.11533355712890625,2.0255041122436523,-1.4434959888458252,-3.18938291457016e-05,2.1820523738861084,-2.379954000512594,0.006112979259341955,0.35793015360832214,-1.4101751486407679,-7.01866956660524e-05,-0.060503698885440826,0.542468249797821,0.00030766375130042434,0.09542076289653778,1.1732932329177856,4.890079274623763e-33,0.07699477672576904
279.0,293.0,6.1167,0.7095,7.9986,-0.0116,-0.0324,-0.1394,-1.549310752456524,-0.11994478106498718,2.0687308311462402,-1.4435279369354248,-2.9765051294816658e-05,2.226235866546631,-2.3799292049803675,0.0052088405936956406,0.34208425879478455,-1.4101713339435022,-6.704933912260458e-05,-0.04320969432592392,0.5425007939338684,0.0002552765654399991,0.07433035969734192,1.1732690334320068,1.180896776791799e-38,0.07969830185174942
279.0,293.0,6.1167,0.7095,7.9986,-0.0116,-0.0324,-0.1394,-1.5500183713487168,-0.12400263547897339,2.0092787742614746,-1.4434961080551147,-4.406837561532484e-08,2.250749349594116,-2.3798214397826136,0.0060736010782420635,0.34859558939933777,-1.4102075735675257,-6.418048724299297e-05,-0.05162172019481659,0.5424685478210449,0.00021813876810483634,0.08114989846944809,1.1733055114746094,2.802596928649634e-44,0.05603504180908203
279.0,293.0,6.1167,0.7095,7.9986,-0.0116,-0.0324,-0.1394,-1.550741772433259,-0.12490416318178177,2.0283942222595215,-1.443565011024475,-1.0641994555547762e-13,2.2035908699035645,-2.379850526849264,0.009359613060951233,0.33521220088005066,-1.4102075735675257,-6.154708535177633e-05,-0.04952581226825714,0.5425245761871338,0.00019043734937440604,0.07566356658935547,1.1732773780822754,0.0,0.050951533019542694
279.0,293.0,6.1167,0.7095,7.9986,-0.0116,-0.0324,-0.1394,-1.5514894195697089,-0.12315594404935837,2.018296241760254,-1.4435043334960938,-2.569916780328483e-19,2.259456157684326,-2.3797136745848597,0.015229569748044014,0.3448835015296936,-1.4101670424090784,-5.912128835916519e-05,-0.04526585340499878,0.5425045490264893,0.00016898001194931567,0.08181753009557724,1.1733174324035645,0.0,0.041024379432201385
279.0,293.0,6.1167,0.7095,7.9986,-0.0116,-0.0324,-0.1394,-1.552151958724,-0.1217987909913063,2.044926404953003,-1.443516492843628,-6.20604664138809e-25,2.2471909523010254,-2.379573961297506,0.026087353006005287,0.3596293330192566,-1.4101994673358362,-5.6879420299082994e-05,-0.05690861493349075,0.5424845218658447,0.0001518688804935664,0.0779477208852768,1.1733214855194092,0.0,0.08639021962881088
279.0,293.0,6.1167,0.7095,7.9986,-0.0116,-0.0324,-0.1394,-1.5529515475830813,-0.11705249547958374,2.0522453784942627,-1.443540334701538,-1.498687212665617e-30,2.25927734375,-2.37939514736318,0.04199967533349991,0.36899620294570923,-1.4102314154254358,-5.480146501213312e-05,-0.05305235832929611,0.5424885749816895,0.00013790502271149307,0.07248866558074951,1.1732572317123413,0.0,0.0849275290966034
279.0,293.0,6.1167,0.7095,7.9986,-0.0116,-0.0324,-0.1394,-1.553662820985057,-0.11934179067611694,2.0668604373931885,-1.4435243606567383,-3.6191533189356336e-36,2.2756834030151367,-2.379007478753561,0.07041322439908981,0.3811461925506592,-1.4101784865008753,-5.8083085605176166e-05,-0.05638112500309944,0.5425364971160889,0.0001262929872609675,0.07374534010887146,1.1733096837997437,0.0,0.08892227709293365
279.0,293.0,6.1167,0.7095,7.9986,-0.0116,-0.0324,-0.1394,-1.5543824967793007,-0.12590448558330536,2.0264437198638916,-1.4435248374938965,-8.739898521993884e-42,2.213373899459839,-2.378495832482809,0.11025366187095642,0.40043091773986816,-1.410215202962057,-6.12823641858995e-05,-0.06823098659515381,0.5425527691841125,0.00011648491636151448,0.07265538722276688,1.1733698844909668,0.0,0.10144443809986115
279.0,293.0,6.1167,0.7095,7.9986,-0.0116,-0.0324,-0.1394,-1.5551416029087086,-0.13412263989448547,2.0790557861328125,-1.4435243606567383,-0.0,2.250223398208618,-2.3777500591673792,0.1377982646226883,0.43059128522872925,-1.410243336354391,-1.5227497897285502e-05,-0.0585283562541008,0.5424845814704895,0.00010809053492266685,0.0745963305234909,1.1733096837997437,0.0,0.11143086850643158
274.0,275.0,6.6174,0.8722,6.399,-0.1326,0.3401,-0.087,-1.5557375394603987,-0.1359720379114151,2.1292214393615723,-1.4435243606567383,-0.0,2.2785112857818604,-2.377223154107565,0.14668840169906616,0.43443822860717773,-1.4102075735675257,-6.491720938583967e-08,-0.06358892470598221,0.542468249797821,0.0001031355932354927,0.07255217432975769,1.17329740524292,0.0,0.10710269957780838
274.0,275.0,6.6174,0.8722,6.399,-0.1326,0.3401,-0.087,-1.556576637817063,-0.13754937052726746,2.1132214069366455,-1.443548560142517,-0.0,2.2308645248413086,-2.3761688671507777,0.16094902157783508,0.4311826825141907,-1.4102514425860804,-1.806994658071215e-11,-0.06798964738845825,0.5424966812133789,9.650029824115336e-05,0.07764419913291931,1.1732854843139648,0.0,0.1276281774044037
274.0,275.0,6.6174,0.8722,6.399,-0.1326,0.3401,-0.087,-1.557295548995473,-0.13329939544200897,2.0866241455078125,-1.4434322118759155,0.0009277200442738831,2.2839455604553223,-2.375091692010397,0.19531089067459106,0.44336628913879395,-1.4102190176593226,-5.029835377275962e-15,-0.07042981684207916,0.5424525737762451,9.066714119398966e-05,0.07235973328351974,1.1732814311981201,0.0,0.14941498637199402
274.0,275.0,6.6174,0.8722,6.399,-0.1326,0.3401,-0.087,-1.558122564373054,-0.12452354282140732,2.142165184020996,-1.443455696105957,0.0009506027563475072,2.2713985443115234,-2.3738509617247523,0.2272566258907318,0.4758293032646179,-1.4102395216571253,-5.2515537390718237e-05,-0.07118405401706696,0.5424804091453552,8.549900667276233e-05,0.08494728803634644,1.1732810735702515,0.0,0.113410085439682
274.0,275.0,6.6174,0.8722,6.399,-0.1326,0.3401,-0.087,-1.5589628203636785,-0.12898372113704681,2.2054409980773926,-1.4435243606567383,-0.00013780764129478484,2.3064627647399902,-2.3724457226195277,0.23608732223510742,0.4763162434101105,-1.410227123891012,-5.190993761061691e-05,-0.08695417642593384,0.5425245761871338,8.08884360594675e-05,0.0764947310090065,1.17329740524292,1.8804657884174958e-06,0.20334598422050476
274.0,275.0,6.6174,0.8722,6.399,-0.1326,0.3401,-0.087,-1.5597537916949769,-0.13778339326381683,2.1035075187683105,-1.4435203075408936,-0.00012335168139543384,2.3014824390411377,-2.3708883724608363,0.27665936946868896,0.4956168532371521,-1.4102194944964808,-6.0205900808796287e-05,-0.07967934012413025,0.5424926280975342,7.674959488213062e-05,0.08549900352954865,1.1733055114746094,4.541103604260854e-12,0.173397496342659
274.0,275.0,6.6174,0.8722,6.399,-0.1326,0.3401,-0.087,-1.5606488169035693,-0.14932985603809357,2.1745314598083496,-1.4435083866119385,-0.00014568916230928153,2.2736237049102783,-2.3691770039000453,0.29670801758766174,0.49856793880462646,-1.410255257283346,-1.2867013765571755e-07,-0.0868339017033577,0.5425288677215576,7.301370351342484e-05,0.07206025719642639,1.1733014583587646,1.0966231165636007e-17,0.22485628724098206
274.0,275.0,6.6174,0.8722,6.399,-0.1326,0.3401,-0.087,-1.5615442807650943,-0.15322384238243103,2.142021417617798,-1.443496823310852,-3.5182209923156904e-10,2.3494925498962402,-2.3672615490355433,0.3315412402153015,0.5224321484565735,-1.4102314154254358,-3.581580865219536e-11,-0.09022609144449234,0.54248046875,6.962464976822957e-05,0.06611622869968414,1.1733096837997437,2.6482158407021614e-23,0.16883216798305511
274.0,275.0,6.6174,0.8722,6.399,-0.1326,0.3401,-0.087,-1.562447577049472,-0.14901167154312134,2.180723190307617,-1.4434844255447388,0.0010586424032226205,2.299640655517578,-2.365246912042135,0.3421698212623596,0.5261388421058655,-1.4102194944964808,-9.969463439735236e-15,-0.08539633452892303,0.5424763560295105,6.653623131569475e-05,0.06878010928630829,1.1732735633850098,6.395129223094915e-29,0.17006132006645203
274.0,275.0,6.6174,0.8722,6.399,-0.1326,0.3401,-0.087,-1.5633584272912522,-0.13659453392028809,2.146483898162842,-1.4434762001037598,0.0017300861654803157,2.3307342529296875,-2.363059183160299,0.3741939961910248,0.5529046058654785,-1.4102194944964808,-2.77503689272632e-18,-0.08429037779569626,0.5424966216087341,6.371022027451545e-05,0.06445062160491943,1.1733297109603882,1.5443485216928639e-34,0.18644890189170837
274.0,275.0,6.6174,0.8722,6.399,-0.1326,0.3401,-0.087,-1.564141481915005,-0.1324114203453064,2.1384828090667725,-1.4434400796890259,0.0027231331914663315,2.3487014770507812,-2.3607894382872523,0.40837031602859497,0.5492437481880188,-1.4102471510516565,-7.72441693179261e-22,-0.08069434762001038,0.5425326228141785,6.11145151196979e-05,0.08346498012542725,1.1732773780822754,3.729415732954068e-40,0.19835016131401062
274.0,275.0,6.6174,0.8722,6.399,-0.1326,0.3401,-0.087,-1.5650212911753734,-0.1377980262041092,2.181945562362671,-1.4434524774551392,0.0021562352776527405,2.2696094512939453,-2.3582822285094203,0.42861461639404297,0.5601756572723389,-1.410215202962057,-2.1501200228274884e-25,-0.06742629408836365,0.5425050854682922,4.999820521334186e-05,0.06482087820768356,1.1733256578445435,1.401298464324817e-45,0.14082470536231995
274.0,275.0,6.6174,0.8722,6.399,-0.1326,0.3401,-0.087,-1.565916311727353,-0.15021562576293945,2.197659492492676,-1.4434400796890259,0.0011558952974155545,2.298231363296509,-2.3555485210814417,0.4537539482116699,0.5717500448226929,-1.4101827780352991,-5.984938043155138e-29,-0.08509227633476257,0.5424804091453552,4.520864604273811e-05,0.08864183723926544,1.1732691526412964,0.0,0.1384209841489792
274.0,275.0,6.6174,0.8722,6.399,-0.1326,0.3401,-0.087,-1.56648791701112,-0.1584499329328537,2.1593213081359863,-1.443472981452942,0.0009659589268267155,2.301176071166992,-2.353605409661764,0.47442129254341125,0.5875979065895081,-1.4102032820331019,-2.5514725545614985e-31,-0.08300931006669998,0.5425007939338684,4.4100215745856985e-05,0.07349225133657455,1.1732453107833862,0.0,0.1428229957818985
274.0,275.0,6.6174,0.8722,6.399,-0.1326,0.3401,-0.087,-1.5674106299741943,-0.1631430983543396,2.140532970428467,-1.4434486627578735,0.0024615528527647257,2.264772653579712,-2.350628515283102,0.4926404356956482,0.5873661637306213,-1.4101751486407679,-7.102118758364886e-35,-0.07418690621852875,0.5425007939338684,4.2536979890428483e-05,0.06746242940425873,1.173261284828186,0.0,0.11394308507442474
274.0,275.0,6.6174,0.8722,6.399,-0.1326,0.3401,-0.087,-1.5683946449174364,-0.15056855976581573,2.1493618488311768,-1.443384051322937,0.008690018206834793,2.320463180541992,-2.3474923572936,0.5237149596214294,0.616549551486969,-1.410215202962057,-1.9769004458158112e-38,-0.07206635177135468,0.5424885749816895,4.1080791561398655e-05,0.06768819689750671,1.1732732057571411,0.0,0.11871518194675446
273.0,285.0,4.2227,0.0532,7.5206,-0.1393,0.4409,-0.0536,-1.5692733323997636,-0.1397608369588852,2.1978745460510254,-1.4433404207229614,0.006301517598330975,2.306283950805664,-2.344356199304098,0.5413954854011536,0.6021565198898315,-1.4102233091937464,-5.5028990694035566e-42,-0.06706943362951279,0.5424885749816895,2.9834045562893152e-05,0.051643818616867065,1.1733297109603882,0.0,0.15774838626384735
273.0,285.0,4.2227,0.0532,7.5206,-0.1393,0.4409,-0.0536,-1.5700765966069703,-0.13955453038215637,2.195833683013916,-1.4433808326721191,0.0016019875183701515,2.2441039085388184,-2.3409558735289515,0.5638307332992554,0.6057689785957336,-1.4101784865008753,-1.401298464324817e-45,-0.05167779326438904,0.5425129532814026,8.304415821669409e-09,0.06366200000047684,1.1732895374298096,0.0,0.11624244600534439
273.0,285.0,4.2227,0.0532,7.5206,-0.1393,0.4409,-0.0536,-1.5709473095335902,-0.14606957137584686,2.1492056846618652,-1.4433684349060059,-0.0018528882646933198,2.2666022777557373,-2.3375560245909632,0.5810095071792603,0.5855531692504883,-1.410158936177389,-0.0,-0.062466949224472046,0.5424845218658447,6.006641939393376e-08,0.058854199945926666,1.1733137369155884,0.0,0.08177483081817627
273.0,285.0,4.2227,0.0532,7.5206,-0.1393,0.4409,-0.0536,-1.571827074090475,-0.15308833122253418,2.1250224113464355,-1.4433280229568481,-0.0019466850208118558,2.197201728820801,-2.334057947198385,0.5975235104560852,0.5919849276542664,-1.4102075735675257,-0.0,-0.07732497900724411,0.5425291657447815,1.671970721595084e-11,0.04636671394109726,1.173269510269165,0.0,0.09212223440408707
273.0,285.0,4.2227,0.0532,7.5206,-0.1393,0.4409,-0.0536,-1.572698255578512,-0.15822310745716095,2.1455719470977783,-1.4433643817901611,-0.0006153573049232364,2.222047805786133,-2.3304554424681605,0.5984995365142822,0.5902447700500488,-1.4101751486407679,-0.0,-0.06146334856748581,0.5424726009368896,4.653992035502652e-15,0.04108554869890213,1.1732617616653442,0.0,0.0772143229842186
273.0,285.0,4.2227,0.0532,7.5206,-0.1393,0.4409,-0.0536,-1.5735999546446742,-0.15216641128063202,2.1459438800811768,-1.4433890581130981,-8.635607429141601e-08,2.2538039684295654,-2.326923986474508,0.6109628081321716,0.6102141737937927,-1.4101508299456995,-0.0,-0.045579031109809875,0.5424365997314453,1.2954559325229987e-18,0.032775647938251495,1.173265814781189,-0.0007317287963815033,0.05668208748102188
273.0,285.0,4.2227,0.0532,7.5206,-0.1393,0.4409,-0.0536,-1.574484487573141,-0.14193393290042877,2.1808993816375732,-1.4433362483978271,-2.0853972845444324e-13,2.2481801509857178,-2.3231898746886195,0.6073083877563477,0.5928447246551514,-1.4101670424090784,-0.0,-0.054807327687740326,0.5424325466156006,3.6059488309925594e-22,0.02303820103406906,1.1732454299926758,-0.0008087505702860653,0.02855653688311577
273.0,285.0,4.2227,0.0532,7.5206,-0.1393,0.4409,-0.0536,-1.5753361187376917,-0.13393734395503998,2.102821111679077,-1.4433647394180298,0.0002940221456810832,2.2502946853637695,-2.319578786889547,0.6040259003639221,0.585270881652832,-1.4101875464068812,-0.0,-0.06705169379711151,0.5424006581306458,-0.00029258738504722714,0.031673211604356766,1.173305630683899,-0.00064429035410285,0.07869866490364075
273.0,285.0,4.2227,0.0532,7.5206,-0.1393,0.4409,-0.0536,-1.5761190853514613,-0.1296425610780716,2.1631269454956055,-1.4433605670928955,0.00019432077533565462,2.230508804321289,-2.3160187206664027,0.5963410139083862,0.5762523412704468,-1.410158936177389,2.367200613662135e-05,-0.04261336475610733,0.5424647927284241,-0.0003156100574415177,0.038742296397686005,1.1732017993927002,-0.0005535052623599768,0.009690923616290092
273.0,285.0,4.2227,0.0532,7.5206,-0.1393,0.4409,-0.0536,-1.5769058666624964,-0.13352569937705994,2.0790514945983887,-1.4433445930480957,7.338541763601825e-05,2.236084461212158,-2.312507291833395,0.5814404487609863,0.5853568911552429,-1.4101875464068812,2.72968718491029e-05,-0.06512387096881866,0.5424365997314453,-0.0003096848668064922,0.03807724267244339,1.1732454299926758,-0.00048222849727608263,0.03932172805070877
273.0,285.0,4.2227,0.0532,7.5206,-0.1393,0.4409,-0.0536,-1.5774499378600062,-0.13669098913669586,2.1396093368530273,-1.443332314491272,6.309199670795351e-05,2.2396998405456543,-2.3101893864073695,0.561356782913208,0.576764702796936,-1.410191837941305,2.6494610210647807e-05,-0.04489341005682945,0.5424206256866455,-0.000289579969830811,0.038341887295246124,1.173209547996521,-0.0004685917519964278,0.06871283054351807
273.0,285.0,4.2227,0.0532,7.5206,-0.1393,0.4409,-0.0536,-1.5782619915404261,-0.1332188844680786,2.1523139476776123,-1.4433280229568481,5.212731412029825e-05,2.227689266204834,-2.306873460809225,0.5479262471199036,0.562067985534668,-1.4101956526385706,3.795151860686019e-05,-0.04155689477920532,0.5424528121948242,-0.0003339621762279421,0.025224726647138596,1.1732378005981445,-0.0004940881044603884,-0.0022295229136943817
273.0,285.0,4.2227,0.0532,7.5206,-0.1393,0.4409,-0.0536,-1.5789486370482386,-0.1275412142276764,2.1165945529937744,-1.4433445930480957,4.4409840484149754e-05,2.25314998626709,-2.30368771175527,0.524310290813446,0.5621330142021179,-1.410147492085592,3.651688530226238e-05,-0.03181514889001846,0.5423805117607117,-0.00032781047048047185,0.020650073885917664,1.1732378005981445,-0.0006554286228492856,0.06542738527059555
273.0,285.0,4.2227,0.0532,7.5206,-0.1393,0.4409,-0.0536,-1.5796638927855433,-0.12463792413473129,2.1449077129364014,-1.4433848857879639,7.682366413064301e-05,2.19535231590271,-2.300626894036764,0.4978012144565582,0.5533888339996338,-1.4100945631610315,4.5264943764777854e-05,-0.05418187007308006,0.5424768328666687,-0.0003235615149606019,0.01796736754477024,1.1731735467910767,-0.000889768241904676,0.05427049472928047
273.0,285.0,4.2227,0.0532,7.5206,-0.1393,0.4409,-0.0536,-1.580351015130514,-0.12153894454240799,2.1891074180603027,-1.4433890581130981,6.852919614175335e-05,2.213531255722046,-2.2977830372252406,0.4840925931930542,0.5624045729637146,-1.410191837941305,4.50343286502175e-05,-0.020543832331895828,0.54244464635849,-0.000320440623909235,0.01537372637540102,1.1732218265533447,-0.0011239404557272792,0.047313231974840164
273.0,285.0,4.2227,0.0532,7.5206,-0.1393,0.4409,-0.0536,-1.581106802026266,-0.11560394614934921,2.182021141052246,-1.44334876537323,9.225044050253928e-05,2.220606565475464,-2.2950030765929164,0.46151408553123474,0.5553662180900574,-1.4101555983172815,4.3405801989138126e-05,-0.0416579470038414,0.5424249768257141,-0.0003504169580992311,0.034737344831228256,1.1732341051101685,-0.0010961192892864347,0.10919458419084549
295.0,290.0,4.6708,0.186,8.2313,0.0316,-0.1813,-0.1495,-1.581761976281637,-0.10943198204040527,2.126328945159912,-1.4433001279830933,-3.320352334412746e-05,2.2468159198760986,-2.2923342190184535,0.42923784255981445,0.5374030470848083,-1.410123650227682,5.227304427535273e-05,-0.05362589657306671,0.5424168705940247,-0.00031602411763742566,0.013513937592506409,1.1731817722320557,-0.0011516859522089362,0.031397201120853424
295.0,290.0,4.6708,0.186,8.2313,0.0316,-0.1813,-0.1495,-1.5824161968626917,-0.10919217765331268,2.1246352195739746,-1.4433362483978271,-3.0347528081620112e-05,2.193676710128784,-2.2899376354613246,0.3873083293437958,0.5243183970451355,-1.410090748463766,5.059692921349779e-05,-0.049579158425331116,0.5424124598503113,-0.00031360556022264063,0.018591828644275665,1.1732501983642578,-0.0012277294881641865,0.07882922887802124
295.0,290.0,4.6708,0.186,8.2313,0.0316,-0.1813,-0.1495,-1.5830995045103968,-0.10939841717481613,2.1474449634552,-1.4433445930480957,-2.7559628506423905e-05,2.205759048461914,-2.287724634210104,0.35574111342430115,0.4973372220993042,-1.4101231733905237,8.301547609335103e-07,-0.05982000380754471,0.5423765182495117,-0.00031148435664363205,0.007481388747692108,1.1731898784637451,-0.0011788923293352127,0.040450211614370346
295.0,290.0,4.6708,0.186,8.2313,0.0316,-0.1813,-0.1495,-1.5837146244444789,-0.10646340996026993,2.135219097137451,-1.4433363676071167,-5.0467649998608977e-05,2.2085771560668945,-2.2857796154417933,0.3135242760181427,0.4733923673629761,-1.4101393858539026,2.3107663005283996e-10,-0.03744923323392868,0.5424046516418457,-0.00027597419102676213,0.011486079543828964,1.1732181310653687,-0.0008533889194950461,0.028257083147764206
295.0,290.0,4.6708,0.186,8.2313,0.0316,-0.1813,-0.1495,-1.5843240223326625,-0.10190793871879578,2.143815755844116,-1.4433808326721191,-3.21171768291606e-07,2.1658577919006348,-2.2840944729247035,0.2657478153705597,0.4438818097114563,-1.410123650227682,0.00011929541506106034,-0.04455547779798508,0.5424126982688904,-0.00025895939324982464,-0.0008227708749473095,1.1731935739517212,-0.0007033759029582143,0.07282345741987228
295.0,290.0,4.6708,0.186,8.2313,0.0316,-0.1813,-0.1495,-1.584949632684225,-0.1013747900724411,2.1879611015319824,-1.443312406539917,-7.755919929734734e-13,2.193974733352661,-2.282780786553854,0.19482599198818207,0.42718029022216797,-1.4101875464068812,0.00011647499195532873,-0.05735260620713234,0.5424005389213562,-0.0002209047379437834,0.0060122511349618435,1.1732221841812134,-0.0005998021806590259,0.007206900045275688
295.0,290.0,4.6708,0.186,8.2313,0.0316,-0.1813,-0.1495,-1.5855251751341761,-0.10297787189483643,2.1304707527160645,-1.443340539932251,-1.872963347512741e-18,2.2202861309051514,-2.281819006005758,0.1539386659860611,0.4073500633239746,-1.4101312796222132,0.0001080836882465519,-0.04933822900056839,0.5424046516418457,-0.00019254189101047814,-0.010221725329756737,1.1731739044189453,-0.0004292769590392709,-0.011308697983622551
295.0,290.0,4.6708,0.186,8.2313,0.0316,-0.1813,-0.1495,-1.5859972439207972,-0.10551375895738602,2.1116414070129395,-1.4433321952819824,0.0011566652683541179,2.241603374481201,-2.2812844715514125,0.11869655549526215,0.3867747187614441,-1.4101393858539026,0.00010312935046385974,-0.05467173457145691,0.5423645973205566,-0.00021160172764211893,-0.009000166319310665,1.1732341051101685,-0.0003604753874242306,-0.00039360392838716507
295.0,290.0,4.6708,0.186,8.2313,0.0316,-0.1813,-0.1495,-1.5865804157652796,-0.10344114154577255,2.1639645099639893,-1.4432885646820068,0.0011038692900910974,2.2535791397094727,-2.2807451687254847,0.054620083421468735,0.38496384024620056,-1.4101513067828577,9.64947757893242e-05,-0.04537557065486908,0.5424405932426453,-0.00019032480486202985,0.005640329793095589,1.1731977462768555,-0.00029061813256703317,-0.03341374173760414
295.0,290.0,4.6708,0.186,8.2313,0.0316,-0.1813,-0.1495,-1.5871731243529261,-0.10293053835630417,2.153956174850464,-1.443340539932251,0.0017565586604177952,2.2487614154815674,-2.2806979618468226,0.001640391768887639,0.3349460959434509,-1.4100874106036585,7.255071977851912e-05,-0.04774114117026329,0.5423765182495117,-0.00017212329839821905,0.008480762131512165,1.1731657981872559,-0.00024344498524442315,0.0026635578833520412
295.0,290.0,4.6708,0.186,8.2313,0.0316,-0.1813,-0.1495,-1.5878569088377894,-0.09822531044483185,2.171666383743286,-1.4432648420333862,0.0023504779674112797,2.213027000427246,-2.2808381519713343,-0.0441025085747242,0.303282231092453,-1.4101432005511683,6.839581328677014e-05,-0.03730597347021103,0.5424246788024902,-0.0001570994791109115,0.0028145345859229565,1.1732258796691895,-0.00016755942488089204,0.049275338649749756
295.0,290.0,4.6708,0.186,8.2313,0.0316,-0.1813,-0.1495,-1.5884200535216273,-0.09345481544733047,2.149653911590576,-1.443320631980896,0.001390670076943934,2.2161705493927,-2.281097551385397,-0.05623820424079895,0.30444154143333435,-1.4101675192462366,6.470764492405578e-05,-0.05006369948387146,0.5423727631568909,-0.00014448801812250167,-0.007406041957437992,1.1732099056243896,-0.00014702760381624103,0.008465959690511227
295.0,290.0,4.6708,0.186,8.2313,0.0316,-0.1813,-0.1495,-1.5890423260130824,-0.08790284395217896,2.1883397102355957,-1.4433528184890747,0.00044212432112544775,2.2266814708709717,-2.28143372158193,-0.05354795232415199,0.3007265627384186,-1.410135571156637,6.139694596640766e-05,-0.03452169895172119,0.5424368381500244,-0.0001556564966449514,0.0015279806684702635,1.1732017993927002,-0.00010209705214947462,0.0035843392834067345
295.0,290.0,4.6708,0.186,8.2313,0.0316,-0.1813,-0.1495,-1.5896030865111292,-0.0933062806725502,2.172053337097168,-1.4432804584503174,-0.0013637543888762593,2.2276551723480225,-2.2816888294615687,-0.04346800222992897,0.3002520203590393,-1.4101632277118128,5.840850280947052e-05,-0.04997650533914566,0.5424087643623352,-0.00014524914149660617,-0.014935910701751709,1.1732258796691895,-8.856695785652846e-05,-0.011493618600070477
295.0,290.0,4.6708,0.186,8.2313,0.0316,-0.1813,-0.1495,-1.5902015171446742,-0.1058134138584137,2.1790201663970947,-1.4433445930480957,-0.0015525605995208025,2.2185370922088623,-2.281868120233053,-0.027990343049168587,0.30317583680152893,-1.4101312796222132,5.5697430070722476e-05,-0.0516376793384552,0.5423566102981567,-0.00013585253327619284,-0.008754443377256393,1.1732460260391235,-8.06320458650589e-05,0.02119990810751915
288.0,268.0,5.132,0.8339,7.7198,0.0246,-0.0325,-0.1283,-1.5908786259093226,-0.11591985821723938,2.201082229614258,-1.4432882070541382,-0.0009913110407069325,2.1979620456695557,-2.281980176965231,-0.007787592243403196,0.3270661234855652,-1.4101432005511683,5.3226976888254285e-05,-0.0460565909743309,0.5424249172210693,-0.0001446111564291641,-0.017319709062576294,1.1732300519943237,-7.400204049190506e-05,0.022010741755366325
288.0,268.0,5.132,0.8339,7.7198,0.0246,-0.0325,-0.1283,-1.5915738544859828,-0.12671513855457306,2.111360549926758,-1.443300485610962,-2.5514933099657355e-07,2.185360908508301,-2.2819396458067835,0.009714106097817421,0.3154541254043579,-1.4101675192462366,5.09663404955063e-05,-0.04991244524717331,0.5423805713653564,-0.000137472539790906,0.004239174071699381,1.1732218265533447,-6.837944965809584e-05,0.015698440372943878
288.0,268.0,5.132,0.8339,7.7198,0.0246,-0.0325,-0.1283,-1.5923243961729945,-0.13089415431022644,2.135112762451172,-1.443272590637207,0.0016575619811192155,2.183854103088379,-2.28191675762319,0.010652780532836914,0.3222539722919464,-1.4101312796222132,4.888984767603688e-05,-0.051797449588775635,0.5423443913459778,-0.00013002482592128217,-0.0028189895674586296,1.1731935739517212,-6.355104414978996e-05,-0.011181862093508244
288.0,268.0,5.132,0.8339,7.7198,0.0246,-0.0325,-0.1283,-1.59314026455068,-0.13007399439811707,2.1621572971343994,-1.4432450532913208,0.0043817623518407345,2.197326421737671,-2.2817918262877406,0.0071798874996602535,0.3285394012928009,-1.4101551214801233,4.697601980296895e-05,-0.038356415927410126,0.5423886775970459,-0.00012334244092926383,-0.01149680744856596,1.1731854677200317,-5.9359532315284014e-05,0.030598241835832596
288.0,268.0,5.132,0.8339,7.7198,0.0246,-0.0325,-0.1283,-1.5939442119994105,-0.11846623569726944,2.1959118843078613,-1.4431886672973633,0.004469768609851599,2.2349987030029297,-2.2818123302855433,0.00281264865770936,0.32733049988746643,-1.4101231733905237,4.520634320215322e-05,-0.04131364822387695,0.5423765182495117,-0.00011731342237908393,-0.006931571755558252,1.1732100248336792,-5.568672713707201e-05,-0.0014846092090010643
288.0,268.0,5.132,0.8339,7.7198,0.0246,-0.0325,-0.1283,-1.5946914158263148,-0.11046094447374344,2.1458637714385986,-1.4432244300842285,0.0025238937232643366,2.194375991821289,-2.2817441425719203,0.000499487854540348,0.31456121802330017,-1.4101594130145472,4.356514909886755e-05,-0.04817034676671028,0.542344331741333,-0.00011184625327587128,-0.0002847278956323862,1.1732739210128784,6.052459866623394e-05,0.004628568887710571
288.0,268.0,5.132,0.8339,7.7198,0.0246,-0.0325,-0.1283,-1.5951820812621058,-0.11364120244979858,2.215416669845581,-1.4432042837142944,0.0007896823226474226,2.223283529281616,-2.28177609066152,0.00014043794362805784,0.32049065828323364,-1.4101713339435022,4.2535702959867194e-05,-0.04320225492119789,0.5423524379730225,-0.00010847610246855766,-0.0018169048707932234,1.1732418537139893,7.748785719741136e-05,0.044264450669288635
288.0,268.0,5.132,0.8339,7.7198,0.0246,-0.0325,-0.1283,-1.5959135494627894,-0.12524010241031647,2.193215847015381,-1.4432400465011597,-0.0015256128972396255,2.25498366355896,-2.281856199304098,5.002437433176965e-07,0.33661413192749023,-1.4101555983172815,4.107959830434993e-05,-0.04505782201886177,0.542384684085846,-8.618730498710647e-05,-0.010426310822367668,1.1732137203216553,9.108500671572983e-05,-0.011314946226775646
288.0,268.0,5.132,0.8339,7.7198,0.0246,-0.0325,-0.1283,-1.5966698131956996,-0.13839715719223022,2.1953487396240234,-1.443232774734497,-0.0017649499932304025,2.212826728820801,-2.28179993251943,1.3924468522663602e-10,0.3186076879501343,-1.4101112524615687,3.971986734541133e-05,-0.05713902413845062,0.5423727631568909,-7.917110633570701e-05,-0.012876508757472038,1.1732176542282104,8.587080810684711e-05,0.054360195994377136
288.0,268.0,5.132,0.8339,7.7198,0.0246,-0.0325,-0.1283,-1.597544332543844,-0.14977332949638367,2.1546459197998047,-1.4432122707366943,9.388635226059705e-05,2.244330406188965,-2.281792303124899,3.875926882506049e-14,0.3085535764694214,-1.4101594130145472,1.1056171977941176e-08,-0.04787725210189819,0.542384684085846,-7.520123472204432e-05,0.0008905692957341671,1.1732137203216553,6.49858484393917e-05,0.03336424008011818
288.0,268.0,5.132,0.8339,7.7198,0.0246,-0.0325,-0.1283,-1.598440786401266,-0.14950470626354218,2.1752517223358154,-1.4432005882263184,0.0029051590245217085,2.2172443866729736,-2.281828542748922,-0.0001191309274872765,0.3129974603652954,-1.4101112524615687,3.0775267317179056e-12,-0.03840084373950958,0.542400598526001,-7.161105168052018e-05,-0.01314779743552208,1.1732177734375,6.163937359815463e-05,-0.04429061710834503
288.0,268.0,5.132,0.8339,7.7198,0.0246,-0.0325,-0.1283,-1.5993038616576136,-0.13657069206237793,2.208355188369751,-1.4431767463684082,0.004348710644990206,2.2337002754211426,-2.281792779962057,-3.3160532098008844e-08,0.3165391683578491,-1.4101513067828577,8.566408949145651e-16,-0.0456404983997345,0.5423483848571777,-6.834806117694825e-05,-0.01101209782063961,1.1732177734375,7.32768967282027e-05,0.018875762820243835
288.0,268.0,5.132,0.8339,7.7198,0.0246,-0.0325,-0.1283,-1.6001020870604457,-0.1239732950925827,2.1895036697387695,-1.443152904510498,0.003684540279209614,2.2886199951171875,-2.2817722759642542,-9.23035606281708e-12,0.32961446046829224,-1.4101632277118128,2.384491579821592e-19,-0.05004732310771942,0.5423927307128906,-6.536945147672668e-05,-0.007063841447234154,1.1732494831085205,0.00019773557141888887,0.033662598580121994
