ramyac6/ROB537/final_project/csv/bad/bad_186.csv
tof_0,tof_1,accelx,accely,accelz,gyrox,gyroy,gyroz,shoulder_lift_joint_position,shoulder_lift_joint_velocity,shoulder_lift_joint_effort,elbow_joint_position,elbow_joint_velocity,elbow_joint_effort,wrist_1_joint_position,wrist_1_joint_velocity,wrist_1_joint_effort,wrist_2_joint_position,wrist_2_joint_velocity,wrist_2_joint_effort,wrist_3_joint_position,wrist_3_joint_velocity,wrist_3_joint_effort,shoulder_pan_joint_position,shoulder_pan_joint_velocity,shoulder_pan_joint_effort
259.0,288.0,-3.2542,4.0851,8.7685,-0.0235,0.0249,-0.1162,-1.9304987392821253,0.0,3.4659018516540527,-1.723514199256897,-0.0,1.953162670135498,5.086736428528585,0.0,0.2639978528022766,-2.011496369038717,-0.0,0.041208140552043915,-0.1006858984576624,-0.0,0.010010811500251293,1.0113153457641602,0.0,-0.024347858503460884
259.0,288.0,-3.2542,4.0851,8.7685,-0.0235,0.0249,-0.1162,-1.9305345020689906,0.0,3.4333200454711914,-1.7235101461410522,-0.0,1.9132533073425293,5.086740511446752,0.0,0.2523879408836365,-2.011427704487936,-0.0,0.05536217242479324,-0.10069829622377569,-0.0,-0.0017317970050498843,1.0113554000854492,0.0,-0.07748575508594513
259.0,288.0,-3.2542,4.0851,8.7685,-0.0235,0.0249,-0.1162,-1.930462499658102,0.0,3.4572031497955322,-1.7235140800476074,-0.0,1.9255698919296265,5.08674834945754,0.0,0.2736559510231018,-2.0114362875567835,-0.0,0.04179515317082405,-0.10063392320741826,-0.0,-0.008343127556145191,1.0113153457641602,0.0,0.01704379729926586
259.0,288.0,-3.2542,4.0851,8.7685,-0.0235,0.0249,-0.1162,-1.9304987392821253,0.0,3.4519166946411133,-1.7235018014907837,-0.0,1.9253077507019043,5.086720365076818,0.0,0.2763592004776001,-2.011460606251852,-0.0,0.0605507455766201,-0.10068160692323858,-0.0,-0.005179440602660179,1.0113312005996704,0.0,0.002209041267633438
259.0,288.0,-3.2542,4.0851,8.7685,-0.0235,0.0249,-0.1162,-1.9305068455138148,0.0,3.4561986923217773,-1.7235264778137207,-0.0,1.9284241199493408,5.086675870209493,0.0,0.26190704107284546,-2.0114362875567835,-0.0,0.03914770483970642,-0.10071450868715459,-0.0,0.007932601496577263,1.0113153457641602,0.0,0.014731336385011673
259.0,288.0,-3.2542,4.0851,8.7685,-0.0235,0.0249,-0.1162,-1.9304987392821253,0.0,3.4576501846313477,-1.723522424697876,-0.0,1.9438506364822388,5.086748736887731,0.0,0.27151185274124146,-2.011460606251852,-0.0,0.030078938230872154,-0.10071021715273076,-0.0,0.007477402687072754,1.0113751888275146,0.0,-0.02670522779226303
259.0,288.0,-3.2542,4.0851,8.7685,-0.0235,0.0249,-0.1162,-1.930486341516012,0.0,3.461540460586548,-1.7235461473464966,-0.0,1.932244062423706,5.0867647407348535,0.0,0.25350600481033325,-2.011440102254049,-0.0,0.05408516526222229,-0.10069018999208623,-0.0,0.0016450862167403102,1.011291265487671,0.0,-0.013917127624154091
259.0,288.0,-3.2542,4.0851,8.7685,-0.0235,0.0249,-0.1162,-1.9305068455138148,0.0,3.4588043689727783,-1.7235338687896729,-0.0,1.9547150135040283,5.0867565152938745,0.0,0.26030245423316956,-2.0114882628070276,-0.0,0.04670184850692749,-0.10062152544130498,-0.0,0.0157915111631155,1.0113153457641602,0.0,-0.013030880130827427
259.0,288.0,-3.2542,4.0851,8.7685,-0.0235,0.0249,-0.1162,-1.9304505787291468,0.0,3.448385238647461,-1.7235419750213623,-0.0,1.9228191375732422,5.086736428528585,0.0,0.25725889205932617,-2.011472527180807,-0.0,0.029069870710372925,-0.10067350069154912,-0.0,-0.0076913912780582905,1.0113351345062256,0.0,-0.04692412167787552
259.0,288.0,-3.2542,4.0851,8.7685,-0.0235,0.0249,-0.1162,-1.9305068455138148,0.0,3.4624006748199463,-1.7235493659973145,-0.0,1.9462809562683105,5.0866921720798395,0.0,0.2620573937892914,-2.011456314717428,-0.0,0.03639845550060272,-0.10066157976259404,-0.0,0.010191777721047401,1.0113391876220703,0.0,0.002840715926140547
259.0,288.0,-3.2542,4.0851,8.7685,-0.0235,0.0249,-0.1162,-1.9304901562132777,0.0,3.466465950012207,-1.7235461473464966,-0.0,1.9057426452636719,5.086700010090627,0.0,0.2650597393512726,-2.0114806334124964,-0.0,0.031581319868564606,-0.10066205659975225,-0.0,0.004323281347751617,1.0113513469696045,0.0,-0.03694679215550423
258.0,298.0,-3.0861,4.0792,8.5035,-0.0367,0.0237,-0.119,-1.930486341516012,0.0,3.4288082122802734,-1.7235099077224731,-0.0,1.9542148113250732,5.086712229042806,0.0,0.26310446858406067,-2.0114763418780726,-0.0,0.041087329387664795,-0.1006696859942835,-0.0,0.010950963944196701,1.0114150047302246,0.0,-0.017484083771705627
258.0,298.0,-3.0861,4.0792,8.5035,-0.0367,0.0237,-0.119,-1.930514474908346,0.0,3.439377784729004,-1.7235099077224731,-0.0,1.8956447839736938,5.086716401367941,0.0,0.27223092317581177,-2.0114687124835413,-0.0,0.04560349881649017,-0.10069829622377569,-0.0,0.005876018665730953,1.0113871097564697,0.0,-0.014721904881298542
258.0,298.0,-3.0861,4.0792,8.5035,-0.0367,0.0237,-0.119,-1.930514474908346,0.0,3.3970391750335693,-1.7235338687896729,-0.0,1.962080717086792,5.0867245374019525,0.0,0.26047027111053467,-2.011472527180807,-0.0,0.033505141735076904,-0.10068971315492803,-0.0,-0.012262889184057713,1.0113672018051147,0.0,0.012423902750015259
258.0,298.0,-3.0861,4.0792,8.5035,-0.0367,0.0237,-0.119,-1.9304987392821253,0.0,3.452533483505249,-1.7235699892044067,-0.0,1.9328210353851318,5.086752432375707,0.0,0.26466840505599976,-2.0114362875567835,-0.0,0.037699442356824875,-0.10068160692323858,-0.0,0.0031369607895612717,1.0113351345062256,0.0,0.0005230074748396873
258.0,298.0,-3.0861,4.0792,8.5035,-0.0367,0.0237,-0.119,-1.930514474908346,0.0,3.3959617614746094,-1.7235451936721802,-0.0,1.9231925010681152,5.086695956974783,0.0,0.2734515964984894,-2.011427704487936,-0.0,0.03107519820332527,-0.10066157976259404,-0.0,-0.001048667123541236,1.011311411857605,0.0,-0.008408595807850361
258.0,298.0,-3.0861,4.0792,8.5035,-0.0367,0.0237,-0.119,-1.930490633050436,0.0,3.4461708068847656,-1.723565697669983,-0.0,1.9526742696762085,5.086728679924764,0.0,0.2627740502357483,-2.0115044752704065,-0.0,0.03900471329689026,-0.10068208376039678,-0.0,-0.0026965958531945944,1.0113391876220703,0.0,-0.0021402337588369846
258.0,298.0,-3.0861,4.0792,8.5035,-0.0367,0.0237,-0.119,-1.9304949245848597,0.0,3.4331436157226562,-1.723514199256897,-0.0,1.949974775314331,5.086728262692251,0.0,0.2785355746746063,-2.011460606251852,-0.0,0.0379299633204937,-0.10065776506532842,-0.0,0.0057489341124892235,1.01133131980896,0.0,0.030572446063160896
258.0,298.0,-3.0861,4.0792,8.5035,-0.0367,0.0237,-0.119,-1.930486341516012,0.0,3.446082592010498,-1.7234894037246704,-0.0,1.9140946865081787,5.086736428528585,0.0,0.2579796314239502,-2.011460606251852,-0.0,0.039711564779281616,-0.10067397752870733,-0.0,0.013473143801093102,1.0113554000854492,0.0,-0.010128393769264221
258.0,298.0,-3.0861,4.0792,8.5035,-0.0367,0.0237,-0.119,-1.930486341516012,0.0,3.4241085052490234,-1.7235018014907837,-0.0,1.936415433883667,5.086700069695272,0.0,0.2595506012439728,-2.0114525000201624,-0.0,0.042780060321092606,-0.10069352785219365,-0.0,-0.001347740413621068,1.0113513469696045,0.0,0.021509315818548203
258.0,298.0,-3.0861,4.0792,8.5035,-0.0367,0.0237,-0.119,-1.9304944477477015,0.0,3.4212136268615723,-1.7235016822814941,-0.0,1.9842373132705688,5.086736428528585,0.0,0.2697661519050598,-2.011427704487936,-0.0,0.04654744267463684,-0.10071832338442022,-0.0,0.002671954920515418,1.0113391876220703,0.0,0.024577219039201736
258.0,298.0,-3.0861,4.0792,8.5035,-0.0367,0.0237,-0.119,-1.9304706058897914,0.0,3.4807939529418945,-1.7235616445541382,-0.0,1.924587607383728,5.086748319655218,0.0,0.25044721364974976,-2.0114482084857386,-0.0,0.038279205560684204,-0.10068160692323858,-0.0,0.004877359140664339,1.0113474130630493,0.0,0.08224872499704361
258.0,298.0,-3.0861,4.0792,8.5035,-0.0367,0.0237,-0.119,-1.9304706058897914,0.0,3.452353000640869,-1.723565936088562,-0.0,1.9045109748840332,5.0867565152938745,0.0,0.2624596357345581,-2.0114925543414515,-0.0,0.04925524443387985,-0.10070592561830694,-0.0,0.0049835010431706905,1.0113272666931152,0.0,-0.015530425123870373
258.0,298.0,-3.0861,4.0792,8.5035,-0.0367,0.0237,-0.119,-1.930530687371725,0.0,3.474789619445801,-1.7235018014907837,-0.0,1.8983358144760132,5.086744266539373,0.0,0.26566898822784424,-2.011448685322897,-0.0,0.03197477012872696,-0.10063392320741826,-0.0,-0.0034531373530626297,1.0113672018051147,0.0,-0.0208898838609457
258.0,298.0,-3.0861,4.0792,8.5035,-0.0367,0.0237,-0.119,-1.9304987392821253,0.0,3.4207396507263184,-1.7235822677612305,-0.0,1.9700181484222412,5.086740511446752,0.0,0.26657676696777344,-2.011444393788473,-0.0,0.042196765542030334,-0.10066157976259404,-0.0,0.012312146835029125,1.0113391876220703,0.0,0.036917317658662796
258.0,298.0,-3.0861,4.0792,8.5035,-0.0367,0.0237,-0.119,-1.9304987392821253,0.0,3.460300922393799,-1.7235740423202515,-0.0,1.919849157333374,5.086732345610418,0.0,0.267414391040802,-2.011440102254049,-0.0,0.03209124132990837,-0.10068637529482061,-0.0,0.004387466702610254,1.011311411857605,0.0,-0.040162160992622375
258.0,298.0,-3.0861,4.0792,8.5035,-0.0367,0.0237,-0.119,-1.9304706058897914,0.0,3.401437759399414,-1.7235338687896729,-0.0,1.9720816612243652,5.086708205729284,0.0,0.25873297452926636,-2.0114639441119593,-0.0,0.044017091393470764,-0.10070211092104131,-0.0,-0.0013192737242206931,1.0113351345062256,0.0,-0.026591971516609192
258.0,298.0,-3.0861,4.0792,8.5035,-0.0367,0.0237,-0.119,-1.9304706058897914,0.0,3.477565050125122,-1.7235461473464966,-0.0,1.9446115493774414,5.086740511446752,0.0,0.2609397768974304,-2.011440102254049,-0.0,0.02935108169913292,-0.10066587129701787,-0.0,0.002177515998482704,1.0113352537155151,0.0,-0.038960400968790054
258.0,298.0,-3.0861,4.0792,8.5035,-0.0367,0.0237,-0.119,-1.930486341516012,0.0,3.435567855834961,-1.7234976291656494,-0.0,1.9028904438018799,5.086752402573385,0.0,0.27312153577804565,-2.0114319960223597,-0.0,0.03925877436995506,-0.10069829622377569,-0.0,0.006136014591902494,1.0113153457641602,0.0,0.021769093349575996
258.0,298.0,-3.0861,4.0792,8.5035,-0.0367,0.0237,-0.119,-1.9305068455138148,0.0,3.4384875297546387,-1.7235018014907837,-0.0,1.8946406841278076,5.086752432375707,0.0,0.25803276896476746,-2.0114644209491175,-0.0,0.03322447091341019,-0.10075027147401983,-0.0,0.0005397627828642726,1.0113433599472046,0.0,0.040090519934892654
249.0,294.0,-3.0855,4.0552,8.461,-0.0331,0.0228,-0.1173,-1.9304706058897914,0.0,3.4534051418304443,-1.7235904932022095,-0.0,1.8895834684371948,5.08672450759963,0.0,0.2771267294883728,-2.011468235646383,-0.0,0.042551882565021515,-0.10075837770570928,-0.0,0.004893431439995766,1.011291265487671,0.0,0.03910183906555176
249.0,294.0,-3.0855,4.0552,8.461,-0.0331,0.0228,-0.1173,-1.9305068455138148,0.0,3.4349169731140137,-1.7235018014907837,-0.0,1.8931589126586914,5.086740511446752,0.0,0.26420289278030396,-2.0114644209491175,-0.0,0.04027550294995308,-0.10064202943910772,-0.0,0.00444378238171339,1.0113074779510498,0.0,-0.03977235406637192
249.0,294.0,-3.0855,4.0552,8.461,-0.0331,0.0228,-0.1173,-1.9304901562132777,0.0,3.439210891723633,-1.723574161529541,-0.0,1.9301981925964355,5.086728292494573,0.0,0.2691984474658966,-2.011440102254049,-0.0,0.03461138904094696,-0.10069829622377569,-0.0,-0.008614015765488148,1.011311411857605,0.0,0.019425425678491592
249.0,294.0,-3.0855,4.0552,8.461,-0.0331,0.0228,-0.1173,-1.9304586849608363,0.0,3.438845157623291,-1.723557472229004,-0.0,1.9187872409820557,5.086752432375707,0.0,0.2656662166118622,-2.011444393788473,-0.0,0.0410509929060936,-0.10068160692323858,-0.0,0.01222697552293539,1.0113751888275146,0.0,0.0100291408598423
249.0,294.0,-3.0855,4.0552,8.461,-0.0331,0.0228,-0.1173,-1.9304782352843226,0.0,3.443286895751953,-1.7235451936721802,-0.0,1.9101428985595703,5.086720424681463,0.0,0.26870593428611755,-2.011444393788473,-0.0,0.027623925358057022,-0.1006858984576624,-0.0,-0.004940749146044254,1.0113593339920044,0.0,0.025059305131435394
249.0,294.0,-3.0855,4.0552,8.461,-0.0331,0.0228,-0.1173,-1.930514474908346,0.0,3.4816243648529053,-1.7235338687896729,-0.0,1.9295854568481445,5.086732315808096,0.0,0.26475590467453003,-2.0114925543414515,-0.0,0.03699871525168419,-0.10061723390688115,-0.0,0.015324437990784645,1.0113470554351807,0.0,0.006720207165926695
249.0,294.0,-3.0855,4.0552,8.461,-0.0331,0.0228,-0.1173,-1.9305187664427699,0.0,3.450852394104004,-1.7235419750213623,-0.0,1.942281723022461,5.086684036045828,0.0,0.264176607131958,-2.011444393788473,-0.0,0.0513673834502697,-0.10069829622377569,-0.0,0.004873468540608883,1.0113351345062256,0.0,-0.019302736967802048
249.0,294.0,-3.0855,4.0552,8.461,-0.0331,0.0228,-0.1173,-1.930514474908346,0.0,3.4091897010803223,-1.7235264778137207,-0.0,1.9328198432922363,5.086712348252096,0.0,0.2607574760913849,-2.011460606251852,-0.0,0.042704109102487564,-0.10068208376039678,-0.0,0.002106600906699896,1.0113431215286255,0.0,0.040692854672670364
249.0,294.0,-3.0855,4.0552,8.461,-0.0331,0.0228,-0.1173,-1.930530687371725,0.0,3.423677921295166,-1.7235782146453857,-0.0,1.9650037288665771,5.086728650122442,0.0,0.26489919424057007,-2.0114319960223597,-0.0,0.050241775810718536,-0.1006696859942835,-0.0,-0.0012684916146099567,1.0113712549209595,0.0,-0.009080206044018269
249.0,294.0,-3.0855,4.0552,8.461,-0.0331,0.0228,-0.1173,-1.930502553979391,0.0,3.42954158782959,-1.7235493659973145,-0.0,1.9374680519104004,5.086712288647451,0.0,0.264367938041687,-2.0114076773272913,-0.0,0.04258295148611069,-0.10072261491884404,-0.0,0.000564562389627099,1.0113712549209595,0.0,-0.0027200626209378242
249.0,294.0,-3.0855,4.0552,8.461,-0.0331,0.0228,-0.1173,-1.9304706058897914,0.0,3.448056221008301,-1.7234935760498047,-0.0,1.8729593753814697,5.086692231684484,0.0,0.2571913003921509,-2.011484448109762,-0.0,0.028086047619581223,-0.10072261491884404,-0.0,0.0053133172914385796,1.0113471746444702,0.0,-0.0006412249058485031
249.0,294.0,-3.0855,4.0552,8.461,-0.0331,0.0228,-0.1173,-1.9304901562132777,0.0,3.4523401260375977,-1.7235575914382935,-0.0,1.9633824825286865,5.086704063206472,0.0,0.2738812565803528,-2.0114882628070276,-0.0,0.051234517246484756,-0.10071832338442022,-0.0,-0.005693957209587097,1.0113672018051147,0.0,0.034837380051612854
249.0,294.0,-3.0855,4.0552,8.461,-0.0331,0.0228,-0.1173,-1.9305187664427699,0.0,3.4476876258850098,-1.7235379219055176,-0.0,1.8824809789657593,5.086756485491552,0.0,0.2646030783653259,-2.011460606251852,-0.0,0.029021605849266052,-0.1006539503680628,-0.0,0.0015911068767309189,1.0113871097564697,0.0,-0.033546414226293564
249.0,294.0,-3.0855,4.0552,8.461,-0.0331,0.0228,-0.1173,-1.9304663143553675,0.0,3.464341640472412,-1.7235419750213623,-0.0,1.9234700202941895,5.086724477797308,0.0,0.2743578553199768,-2.011456314717428,-0.0,0.03442614525556564,-0.10071450868715459,-0.0,0.007307856343686581,1.0113312005996704,0.0,-0.04702436551451683
249.0,294.0,-3.0855,4.0552,8.461,-0.0331,0.0228,-0.1173,-1.9304782352843226,0.0,3.4755444526672363,-1.7235018014907837,-0.0,1.9096553325653076,5.086708175926962,0.0,0.26297712326049805,-2.011460606251852,-0.0,0.04031071066856384,-0.10066587129701787,-0.0,-0.0002469852624926716,1.0113153457641602,0.0,0.0447562076151371
249.0,294.0,-3.0855,4.0552,8.461,-0.0331,0.0228,-0.1173,-1.930486341516012,0.0,3.455031156539917,-1.7235347032546997,-0.0,1.9525227546691895,5.086712288647451,0.0,0.2625906467437744,-2.011452023183004,-0.0,0.045587074011564255,-0.10070592561830694,-0.0,0.010596455074846745,1.011383295059204,0.0,-0.0674397349357605
249.0,294.0,-3.0855,4.0552,8.461,-0.0331,0.0228,-0.1173,-1.9304944477477015,0.0,3.440861701965332,-1.7235347032546997,-0.0,1.8970286846160889,5.086692231684484,0.0,0.2793469727039337,-2.011452023183004,-0.0,0.028436880558729172,-0.1006696859942835,-0.0,0.007676499895751476,1.01132333278656,0.0,0.026458313688635826
249.0,294.0,-3.0855,4.0552,8.461,-0.0331,0.0228,-0.1173,-1.930530687371725,0.0,3.4733152389526367,-1.7235534191131592,-0.0,1.902740478515625,5.086740541249075,0.0,0.2712559401988983,-2.011456314717428,-0.0,0.03827642649412155,-0.10070592561830694,-0.0,-0.008510023355484009,1.0113153457641602,0.0,-0.026619471609592438
249.0,294.0,-3.0855,4.0552,8.461,-0.0331,0.0228,-0.1173,-1.930514474908346,0.0,3.455684185028076,-1.7234976291656494,-0.0,1.9228427410125732,5.08674834945754,0.0,0.2717794179916382,-2.011472527180807,-0.0,0.045422740280628204,-0.10065776506532842,-0.0,-0.0019759514834731817,1.0113431215286255,0.0,-0.037797797471284866
249.0,294.0,-3.0855,4.0552,8.461,-0.0331,0.0228,-0.1173,-1.9304663143553675,0.0,3.4736406803131104,-1.7235419750213623,-0.0,1.9251854419708252,5.086708175926962,0.0,0.2665743827819824,-2.0114763418780726,-0.0,0.04225948452949524,-0.10070211092104131,-0.0,-0.002470273058861494,1.0113193988800049,0.0,0.07391330599784851
252.0,288.0,-3.064,4.0995,8.388,-0.0319,0.0263,-0.118,-1.9304825268187464,0.0,3.4279096126556396,-1.7235738039016724,-0.0,1.8907581567764282,5.086712348252096,0.0,0.27357327938079834,-2.011472527180807,-0.0,0.0431487113237381,-0.10071832338442022,-0.0,-0.008611621335148811,1.0113351345062256,0.0,0.0517297238111496
252.0,288.0,-3.064,4.0995,8.388,-0.0319,0.0263,-0.118,-1.930486341516012,0.0,3.4600536823272705,-1.723522424697876,-0.0,1.9000996351242065,5.086728322296896,0.0,0.26271119713783264,-2.0114925543414515,-0.0,0.04605849087238312,-0.1006858984576624,-0.0,-0.012777445837855339,1.0113554000854492,0.0,-0.011099621653556824
252.0,288.0,-3.064,4.0995,8.388,-0.0319,0.0263,-0.118,-1.930486341516012,0.0,3.4485602378845215,-1.7235016822814941,-0.0,1.9529595375061035,5.086768466025152,0.0,0.2764926850795746,-2.0114195982562464,-0.0,0.04877837002277374,-0.10069781938661748,-0.0,-0.008159236051142216,1.0113351345062256,0.0,-0.03549308329820633
252.0,288.0,-3.064,4.0995,8.388,-0.0319,0.0263,-0.118,-1.9304987392821253,0.0,3.487173080444336,-1.7234811782836914,-0.0,1.9276354312896729,5.0867647407348535,0.0,0.25324273109436035,-2.011480156575338,-0.0,0.046430300921201706,-0.10070592561830694,-0.0,0.0008089940529316664,1.0113431215286255,0.0,0.0086451955139637
252.0,288.0,-3.064,4.0995,8.388,-0.0319,0.0263,-0.118,-1.9304949245848597,0.0,3.457031726837158,-1.7235419750213623,-0.0,1.8834559917449951,5.086756545096197,0.0,0.2632080912590027,-2.011456314717428,-0.0,0.028954587876796722,-0.10069781938661748,-0.0,-0.008332448080182076,1.0113593339920044,0.0,0.017712535336613655
252.0,288.0,-3.064,4.0995,8.388,-0.0319,0.0263,-0.118,-1.9305464229979457,0.0,3.457404613494873,-1.7235379219055176,-0.0,1.927189826965332,5.08676843622283,0.0,0.27146756649017334,-2.0115249792682093,-0.0,0.030635561794042587,-0.10070211092104131,-0.0,-0.0040688966400921345,1.0113554000854492,0.0,0.019239289686083794
252.0,288.0,-3.064,4.0995,8.388,-0.0319,0.0263,-0.118,-1.9304987392821253,0.0,3.461665630340576,-1.7235018014907837,-0.0,1.9082510471343994,5.086667972594061,0.0,0.2578326165676117,-2.011472527180807,-0.0,0.0420222133398056,-0.10069018999208623,-0.0,-0.0028317333199083805,1.0113351345062256,0.0,-0.03047339804470539
252.0,288.0,-3.064,4.0995,8.388,-0.0319,0.0263,-0.118,-1.930490633050436,0.0,3.4371118545532227,-1.7235419750213623,-0.0,1.9891893863677979,5.086736428528585,0.0,0.2660393714904785,-2.011452023183004,-0.0,0.03403741121292114,-0.1007307211505335,-0.0,0.006516641937196255,1.0113431215286255,0.0,0.04776889830827713
252.0,288.0,-3.064,4.0995,8.388,-0.0319,0.0263,-0.118,-1.930462499658102,0.0,3.432797908782959,-1.7235617637634277,-0.0,1.9598274230957031,5.086772548943319,0.0,0.2648526728153229,-2.011440102254049,-0.0,0.032420121133327484,-0.10071021715273076,-0.0,-0.009930760599672794,1.0113593339920044,0.0,-0.038986872881650925
252.0,288.0,-3.064,4.0995,8.388,-0.0319,0.0263,-0.118,-1.9304825268187464,0.0,3.4501171112060547,-1.7235740423202515,-0.0,1.9186599254608154,5.086716341763296,0.0,0.2705484926700592,-2.0114195982562464,-0.0,0.02913793921470642,-0.10068160692323858,-0.0,0.011230314150452614,1.0113312005996704,0.0,-0.03948923945426941
252.0,288.0,-3.064,4.0995,8.388,-0.0319,0.0263,-0.118,-1.9305187664427699,0.0,3.4735870361328125,-1.7235183715820312,-0.0,1.9443731307983398,5.086712229042806,0.0,0.27441489696502686,-2.011444393788473,-0.0,0.04329963028430939,-0.10072595277895147,-0.0,-0.002202461240813136,1.0113431215286255,0.0,0.015447083860635757
252.0,288.0,-3.064,4.0995,8.388,-0.0319,0.0263,-0.118,-1.9304348431029261,0.0,3.431882381439209,-1.7235264778137207,-0.0,1.9495849609375,5.08674048164443,0.0,0.26002752780914307,-2.011460606251852,-0.0,0.04868596792221069,-0.10065776506532842,-0.0,0.007084948010742664,1.0113712549209595,0.0,-0.015694109722971916
252.0,288.0,-3.064,4.0995,8.388,-0.0319,0.0263,-0.118,-1.9305106602110804,0.0,3.4573235511779785,-1.7234976291656494,-0.0,1.9528863430023193,5.086716341763296,0.0,0.2751634418964386,-2.0115001837359827,-0.0,0.034653402864933014,-0.10066587129701787,-0.0,0.0056442031636834145,1.01132333278656,0.0,0.0019022321794182062
252.0,288.0,-3.064,4.0995,8.388,-0.0319,0.0263,-0.118,-1.9304663143553675,0.0,3.4603633880615234,-1.7236225605010986,-0.0,1.9295005798339844,5.086728262692251,0.0,0.2654024362564087,-2.011456314717428,-0.0,0.03236992284655571,-0.10072642961610967,-0.0,0.002819335786625743,1.0113153457641602,0.0,0.024467192590236664
252.0,288.0,-3.064,4.0995,8.388,-0.0319,0.0263,-0.118,-1.9304987392821253,0.0,3.494412899017334,-1.7235461473464966,-0.0,1.942947268486023,5.086720424681463,0.0,0.2590520679950714,-2.011440102254049,-0.0,0.03721903637051582,-0.10061818758119756,-0.0,0.006060509011149406,1.0113554000854492,0.0,-0.018341749906539917
252.0,288.0,-3.064,4.0995,8.388,-0.0319,0.0263,-0.118,-1.9305106602110804,0.0,3.4243788719177246,-1.7235740423202515,-0.0,1.916398048400879,5.0867245374019525,0.0,0.2728990912437439,-2.011427704487936,-0.0,0.05304403975605965,-0.1005938688861292,-0.0,0.008343052119016647,1.0113552808761597,0.0,0.05813790485262871
252.0,288.0,-3.064,4.0995,8.388,-0.0319,0.0263,-0.118,-1.930514474908346,0.0,3.4352972507476807,-1.723522424697876,-0.0,1.9590158462524414,5.0867565152938745,0.0,0.2661389410495758,-2.0114157835589808,-0.0,0.03158995509147644,-0.10063392320741826,-0.0,0.0011507559102028608,1.0113751888275146,0.0,-0.017665885388851166
252.0,288.0,-3.064,4.0995,8.388,-0.0319,0.0263,-0.118,-1.930486341516012,0.0,3.44119930267334,-1.7235018014907837,-0.0,1.9424004554748535,5.086772548943319,0.0,0.26611316204071045,-2.011440102254049,-0.0,0.024605045095086098,-0.10064155260194951,-0.0,0.000780521659180522,1.0113871097564697,0.0,0.006715660449117422
252.0,288.0,-3.064,4.0995,8.388,-0.0319,0.0263,-0.118,-1.9304949245848597,0.0,3.4199626445770264,-1.723522424697876,-0.0,1.943312644958496,5.086740511446752,0.0,0.2758685350418091,-2.011456314717428,-0.0,0.044752269983291626,-0.10064155260194951,-0.0,0.01039476040750742,1.0113632678985596,0.0,0.03950424864888191
252.0,288.0,-3.064,4.0995,8.388,-0.0319,0.0263,-0.118,-1.9305225811400355,0.0,3.4659910202026367,-1.7235338687896729,-0.0,1.905808687210083,5.086728262692251,0.0,0.2569982409477234,-2.011472527180807,-0.0,0.030410444363951683,-0.10071403184999639,-0.0,-0.008904236368834972,1.0113593339920044,0.0,-0.045829690992832184
257.0,296.0,-3.076,4.1025,8.3713,-0.0339,0.0279,-0.1199,-1.9305068455138148,0.0,3.4167981147766113,-1.723522424697876,-0.0,1.9938340187072754,5.08676843622283,0.0,0.2608705163002014,-2.011460606251852,-0.0,0.04560709372162819,-0.10067826906313115,-0.0,0.006414716597646475,1.01132333278656,0.0,0.046245500445365906
257.0,296.0,-3.076,4.1025,8.3713,-0.0339,0.0279,-0.1199,-1.9304467640318812,0.0,3.431947708129883,-1.7235338687896729,-0.0,1.9269928932189941,5.086736428528585,0.0,0.2566783130168915,-2.011496369038717,-0.0,0.04004276171326637,-0.10071832338442022,-0.0,-0.0033830760512501,1.0113513469696045,0.0,0.027088116854429245
257.0,296.0,-3.076,4.1025,8.3713,-0.0339,0.0279,-0.1199,-1.9304706058897914,0.0,3.471527099609375,-1.7235864400863647,-0.0,1.9365592002868652,5.086744683771887,0.0,0.2557362914085388,-2.011460606251852,-0.0,0.03242788836359978,-0.10067779222597295,-0.0,-0.006134544964879751,1.011303424835205,0.0,-0.043320272117853165
257.0,296.0,-3.076,4.1025,8.3713,-0.0339,0.0279,-0.1199,-1.9304706058897914,0.0,3.4317240715026855,-1.7235419750213623,-0.0,1.972945213317871,5.0867323754127405,0.0,0.2706499695777893,-2.011452023183004,-0.0,0.045804835855960846,-0.10066587129701787,-0.0,0.013465037569403648,1.0113272666931152,0.0,-0.006871872581541538
257.0,296.0,-3.076,4.1025,8.3713,-0.0339,0.0279,-0.1199,-1.9305068455138148,0.0,3.4697651863098145,-1.7235347032546997,-0.0,1.9224408864974976,5.086700457125463,0.0,0.268970251083374,-2.011456314717428,-0.0,0.04686405509710312,-0.10065776506532842,-0.0,0.009273968636989594,1.0113351345062256,0.0,0.0044273133389651775
257.0,296.0,-3.076,4.1025,8.3713,-0.0339,0.0279,-0.1199,-1.9304901562132777,0.0,3.4531044960021973,-1.7235140800476074,-0.0,1.9096481800079346,5.086699980288305,0.0,0.26357120275497437,-2.0114362875567835,-0.0,0.03373328596353531,-0.10071021715273076,-0.0,7.287552580237389e-05,1.0113431215286255,0.0,0.005686581134796143
257.0,296.0,-3.076,4.1025,8.3713,-0.0339,0.0279,-0.1199,-1.930514474908346,0.0,3.447756290435791,-1.723522424697876,-0.0,1.9171549081802368,5.086744683771887,0.0,0.2684338688850403,-2.011484448109762,-0.0,0.026923097670078278,-0.10066587129701787,-0.0,0.010572920553386211,1.0113272666931152,0.0,-0.02187850885093212
257.0,296.0,-3.076,4.1025,8.3713,-0.0339,0.0279,-0.1199,-1.9304949245848597,0.0,3.457808256149292,-1.7235699892044067,-0.0,1.9441722631454468,5.086776721268453,0.0,0.25032681226730347,-2.0114195982562464,-0.0,0.039853814989328384,-0.10068208376039678,-0.0,-0.012126811780035496,1.0113593339920044,0.0,-0.003531805705279112
257.0,296.0,-3.076,4.1025,8.3713,-0.0339,0.0279,-0.1199,-1.9305502376952113,0.0,3.443881034851074,-1.7235534191131592,-0.0,1.912086009979248,5.0867643533046625,0.0,0.27536526322364807,-2.011427704487936,-0.0,0.04444465786218643,-0.10066587129701787,-0.0,0.004832279868423939,1.0113431215286255,0.0,0.01833772473037243
257.0,296.0,-3.076,4.1025,8.3713,-0.0339,0.0279,-0.1199,-1.9304706058897914,0.0,3.4654736518859863,-1.723557472229004,-0.0,1.9173027276992798,5.086700010090627,0.0,0.26570653915405273,-2.0114639441119593,-0.0,0.04269290342926979,-0.10070592561830694,-0.0,0.010577652603387833,1.0113554000854492,0.0,-0.01447291113436222
257.0,296.0,-3.076,4.1025,8.3713,-0.0339,0.0279,-0.1199,-1.9304987392821253,0.0,3.4645843505859375,-1.7235181331634521,-0.0,1.9326443672180176,5.0867643533046625,0.0,0.2617829740047455,-2.011456314717428,-0.0,0.04183841124176979,-0.10072642961610967,-0.0,-0.0022251023910939693,1.0113513469696045,0.0,-0.0014852071180939674
257.0,296.0,-3.076,4.1025,8.3713,-0.0339,0.0279,-0.1199,-1.9304543934264125,0.0,3.4153623580932617,-1.723557472229004,-0.0,1.9105017185211182,5.0867565152938745,0.0,0.26642000675201416,-2.011440102254049,-0.0,0.035336099565029144,-0.10068208376039678,-0.0,0.001985508017241955,1.0113434791564941,0.0,-0.008803224191069603
257.0,296.0,-3.076,4.1025,8.3713,-0.0339,0.0279,-0.1199,-1.9304901562132777,0.0,3.4395241737365723,-1.723522424697876,-0.0,1.9368364810943604,5.08674048164443,0.0,0.25710374116897583,-2.011448685322897,-0.0,0.049316808581352234,-0.10069781938661748,-0.0,0.005814896430820227,1.0113272666931152,0.0,-0.0005117561668157578
257.0,296.0,-3.076,4.1025,8.3713,-0.0339,0.0279,-0.1199,-1.9304706058897914,0.0,3.4445724487304688,-1.7235493659973145,-0.0,1.9479275941848755,5.086772489338674,0.0,0.2593824565410614,-2.011468235646383,-0.0,0.02861933782696724,-0.10068208376039678,-0.0,0.001914874417707324,1.0113431215286255,0.0,-0.006427254062145948
257.0,296.0,-3.076,4.1025,8.3713,-0.0339,0.0279,-0.1199,-1.930490633050436,0.0,3.417053699493408,-1.7235461473464966,-0.0,1.938240647315979,5.086772489338674,0.0,0.26628202199935913,-2.011460606251852,-0.0,0.02949332259595394,-0.10070592561830694,-0.0,-0.0015953306574374437,1.0113074779510498,0.0,-0.006249795667827129
257.0,296.0,-3.076,4.1025,8.3713,-0.0339,0.0279,-0.1199,-1.9304987392821253,0.0,3.4297070503234863,-1.7235699892044067,-0.0,1.9385688304901123,5.08672450759963,0.0,0.2723751366138458,-2.0114362875567835,-0.0,0.05247656628489494,-0.10067779222597295,-0.0,0.012040199711918831,1.0113153457641602,0.0,0.03437819704413414
257.0,296.0,-3.076,4.1025,8.3713,-0.0339,0.0279,-0.1199,-1.930474420587057,0.0,3.413701057434082,-1.7235451936721802,-0.0,1.9190104007720947,5.086740511446752,0.0,0.25744864344596863,-2.011427704487936,-0.0,0.03251947462558746,-0.10075027147401983,-0.0,0.011008192785084248,1.01132333278656,0.0,-0.004266115836799145
257.0,296.0,-3.076,4.1025,8.3713,-0.0339,0.0279,-0.1199,-1.9305068455138148,0.0,3.4881465435028076,-1.7234853506088257,-0.0,1.9122331142425537,5.086752432375707,0.0,0.2763166129589081,-2.011444393788473,-0.0,0.038429245352745056,-0.10068208376039678,-0.0,0.00026399060152471066,1.0113431215286255,0.0,0.03199955075979233
257.0,296.0,-3.076,4.1025,8.3713,-0.0339,0.0279,-0.1199,-1.9305187664427699,0.0,3.4118430614471436,-1.7235699892044067,-0.0,1.8985202312469482,5.086736428528585,0.0,0.2657814621925354,-2.0114763418780726,-0.0,0.04374167323112488,-0.10068971315492803,-0.0,-0.0036421366967260838,1.0113434791564941,0.0,-0.01269158348441124
257.0,296.0,-3.076,4.1025,8.3713,-0.0339,0.0279,-0.1199,-1.930490633050436,0.0,3.4573864936828613,-1.7235140800476074,-0.0,1.9169620275497437,5.086696344404974,0.0,0.2555365264415741,-2.011427704487936,-0.0,0.029925663024187088,-0.10065824190248662,-0.0,-0.005148662254214287,1.0113153457641602,0.0,-0.00015984755009412766
257.0,272.0,-3.0431,4.0606,8.4275,-0.0455,0.0237,-0.1162,-1.9305106602110804,0.0,3.4122815132141113,-1.723522424697876,-0.0,1.9372048377990723,5.086736428528585,0.0,0.26129618287086487,-2.011472527180807,-0.0,0.03683950752019882,-0.10071832338442022,-0.0,0.0027452101930975914,1.0113351345062256,0.0,-0.03729628399014473
257.0,272.0,-3.0431,4.0606,8.4275,-0.0455,0.0237,-0.1162,-1.9305068455138148,0.0,3.455033779144287,-1.7235099077224731,-0.0,1.9422216415405273,5.086704122811117,0.0,0.271079421043396,-2.0115044752704065,-0.0,0.029693307355046272,-0.10067779222597295,-0.0,0.005754009820520878,1.0113391876220703,0.0,0.02886263281106949
257.0,272.0,-3.0431,4.0606,8.4275,-0.0455,0.0237,-0.1162,-1.9305106602110804,0.0,3.4539952278137207,-1.7235493659973145,-0.0,1.9845046997070312,5.086720424681463,0.0,0.2690093517303467,-2.0114482084857386,-0.0,0.05118541792035103,-0.1006539503680628,-0.0,0.012765798717737198,1.0113554000854492,0.0,-0.04492349922657013
257.0,272.0,-3.0431,4.0606,8.4275,-0.0455,0.0237,-0.1162,-1.930502553979391,0.0,3.4275922775268555,-1.7234615087509155,-0.0,1.9501099586486816,5.086695956974783,0.0,0.26053768396377563,-2.011440102254049,-0.0,0.03282305970788002,-0.10069829622377569,-0.0,-0.004624939989298582,1.0113712549209595,0.0,0.046025630086660385
257.0,272.0,-3.0431,4.0606,8.4275,-0.0455,0.0237,-0.1162,-1.930486341516012,0.0,3.469719409942627,-1.7235347032546997,-0.0,1.9235010147094727,5.086748319655218,0.0,0.26854246854782104,-2.011468235646383,-0.0,0.03787299245595932,-0.10069400468935186,-0.0,0.0017754563596099615,1.011311411857605,0.0,-0.03744260221719742
257.0,272.0,-3.0431,4.0606,8.4275,-0.0455,0.0237,-0.1162,-1.930530687371725,0.0,3.4064581394195557,-1.7235099077224731,-0.0,1.9340126514434814,5.086732345610418,0.0,0.26799529790878296,-2.011444393788473,-0.0,0.017285006120800972,-0.10069400468935186,-0.0,0.0013003651984035969,1.0113474130630493,0.0,0.023637643083930016
257.0,272.0,-3.0431,4.0606,8.4275,-0.0455,0.0237,-0.1162,-1.9304586849608363,0.0,3.4635376930236816,-1.7235264778137207,-0.0,1.9013073444366455,5.086728650122442,0.0,0.2662807106971741,-2.0114319960223597,-0.0,0.04166403040289879,-0.10070211092104131,-0.0,-0.005715981125831604,1.0113312005996704,0.0,0.015018351376056671
257.0,272.0,-3.0431,4.0606,8.4275,-0.0455,0.0237,-0.1162,-1.930502553979391,0.0,3.450352668762207,-1.7235419750213623,-0.0,1.9445997476577759,5.08674834945754,0.0,0.275674968957901,-2.011444393788473,-0.0,0.03852330148220062,-0.10064632097353154,-0.0,-0.0027748362626880407,1.0113272666931152,0.0,0.0013422677293419838
257.0,272.0,-3.0431,4.0606,8.4275,-0.0455,0.0237,-0.1162,-1.930502553979391,0.0,3.431861162185669,-1.7235419750213623,-0.0,1.9384925365447998,5.0867565152938745,0.0,0.2629692554473877,-2.011452023183004,-0.0,0.036369096487760544,-0.10065824190248662,-0.0,0.0012986971996724606,1.0113312005996704,0.0,0.011492930352687836
257.0,272.0,-3.0431,4.0606,8.4275,-0.0455,0.0237,-0.1162,-1.9305187664427699,0.0,3.4294986724853516,-1.7235140800476074,-0.0,1.947319507598877,5.086716431170263,0.0,0.2662639915943146,-2.011460606251852,-0.0,0.04511299729347229,-0.10066587129701787,-0.0,-0.006966089829802513,1.0113593339920044,0.0,0.044105347245931625
257.0,272.0,-3.0431,4.0606,8.4275,-0.0455,0.0237,-0.1162,-1.9304944477477015,0.0,3.4089343547821045,-1.7235616445541382,-0.0,1.9174463748931885,5.086708175926962,0.0,0.2640482783317566,-2.011472527180807,-0.0,0.04997248202562332,-0.10065824190248662,-0.0,-0.0030217268504202366,1.0113632678985596,0.0,-0.020200982689857483
257.0,272.0,-3.0431,4.0606,8.4275,-0.0455,0.0237,-0.1162,-1.9305225811400355,0.0,3.4363255500793457,-1.7234902381896973,-0.0,1.926198124885559,5.086776661663809,0.0,0.26105642318725586,-2.0114439169513147,-0.0,0.04057517647743225,-0.10071021715273076,-0.0,-0.0016829033847898245,1.0113391876220703,0.0,0.0003343680873513222
257.0,272.0,-3.0431,4.0606,8.4275,-0.0455,0.0237,-0.1162,-1.930474420587057,0.0,3.442748546600342,-1.7235183715820312,-0.0,1.917320966720581,5.08672450759963,0.0,0.2613306939601898,-2.0114806334124964,-0.0,0.040507931262254715,-0.10071403184999639,-0.0,0.0033044370356947184,1.0113312005996704,0.0,-0.002536292187869549
257.0,272.0,-3.0431,4.0606,8.4275,-0.0455,0.0237,-0.1162,-1.9305225811400355,0.0,3.4395484924316406,-1.7235782146453857,-0.0,1.970175862312317,5.086704122811117,0.0,0.2739420533180237,-2.011452023183004,-0.0,0.03862767666578293,-0.10069400468935186,-0.0,0.0032226771581918,1.0113554000854492,0.0,-0.034725748002529144
257.0,272.0,-3.0431,4.0606,8.4275,-0.0455,0.0237,-0.1162,-1.9305187664427699,0.0,3.454397201538086,-1.723522424697876,-0.0,1.9151551723480225,5.086772489338674,0.0,0.2696205675601959,-2.0114763418780726,-0.0,0.03760632872581482,-0.10066587129701787,-0.0,0.006015278398990631,1.0113470554351807,0.0,-0.026327792555093765
257.0,272.0,-3.0431,4.0606,8.4275,-0.0455,0.0237,-0.1162,-1.9304663143553675,0.0,3.469264030456543,-1.7235181331634521,-0.0,1.9457626342773438,5.086704122811117,0.0,0.2542359232902527,-2.0114644209491175,-0.0,0.04561568796634674,-0.10064155260194951,-0.0,-0.008660591207444668,1.011291265487671,0.0,0.008675307035446167
257.0,272.0,-3.0431,4.0606,8.4275,-0.0455,0.0237,-0.1162,-1.9304825268187464,0.0,3.463700294494629,-1.7235347032546997,-0.0,1.9231263399124146,5.0867245374019525,0.0,0.27291548252105713,-2.011480156575338,-0.0,0.03370174020528793,-0.1006858984576624,-0.0,-0.0011020246893167496,1.0113312005996704,0.0,-0.007421744056046009
257.0,272.0,-3.0431,4.0606,8.4275,-0.0455,0.0237,-0.1162,-1.930462499658102,0.0,3.4036240577697754,-1.7235616445541382,-0.0,1.9564433097839355,5.086764800339498,0.0,0.26797741651535034,-2.011444393788473,-0.0,0.034943707287311554,-0.10066205659975225,-0.0,-0.007057682611048222,1.0113791227340698,0.0,0.0060979221016168594
257.0,272.0,-3.0431,4.0606,8.4275,-0.0455,0.0237,-0.1162,-1.9305225811400355,0.0,3.4828262329101562,-1.7235419750213623,-0.0,1.9221160411834717,5.086712288647451,0.0,0.2745577394962311,-2.0113919417010706,-0.0,0.0378609225153923,-0.10067397752870733,-0.0,-0.0020241588354110718,1.0113474130630493,0.0,0.007906616665422916
257.0,272.0,-3.0431,4.0606,8.4275,-0.0455,0.0237,-0.1162,-1.9305225811400355,0.0,3.494442939758301,-1.7235347032546997,-0.0,1.8937466144561768,5.086692231684484,0.0,0.264737069606781,-2.011472527180807,-0.0,0.049584999680519104,-0.10068971315492803,-0.0,-0.0008014169288799167,1.0113431215286255,0.0,0.01733122020959854
262.0,292.0,-3.0616,4.1067,8.3593,-0.0327,0.0234,-0.1159,-1.9304706058897914,0.0,3.447016716003418,-1.7234779596328735,-0.0,1.9169660806655884,5.086736428528585,0.0,0.2697826623916626,-2.011444393788473,-0.0,0.041647374629974365,-0.10070211092104131,-0.0,0.0032420691568404436,1.0113351345062256,0.0,9.245472028851509e-05
262.0,292.0,-3.0616,4.1067,8.3593,-0.0327,0.0234,-0.1159,-1.930474420587057,0.0,3.420151472091675,-1.7235347032546997,-0.0,1.9089722633361816,5.086748736887731,0.0,0.2726576328277588,-2.011440102254049,-0.0,0.04253082722425461,-0.10062581697572881,-0.0,0.0030968571081757545,1.0113272666931152,0.0,0.029034871608018875
262.0,292.0,-3.0616,4.1067,8.3593,-0.0327,0.0234,-0.1159,-1.9305068455138148,0.0,3.4444329738616943,-1.7235099077224731,-0.0,1.9262797832489014,5.086740511446752,0.0,0.2617884874343872,-2.0114157835589808,-0.0,0.036123983561992645,-0.10062963167299444,-0.0,0.0011952423956245184,1.0113431215286255,0.0,-0.003826731815934181
262.0,292.0,-3.0616,4.1067,8.3593,-0.0327,0.0234,-0.1159,-1.9304949245848597,0.0,3.4344305992126465,-1.7235347032546997,5.651807022388766e-09,1.9167039394378662,5.086695956974783,0.0,0.27295827865600586,-2.0114763418780726,-0.0,0.04261099547147751,-0.1007307211505335,-0.0,-0.006155887618660927,1.0113712549209595,0.0,0.0050905728712677956
262.0,292.0,-3.0616,4.1067,8.3593,-0.0327,0.0234,-0.1159,-1.930502553979391,0.0,3.402040958404541,-1.7234976291656494,1.3648449402180619e-14,2.0361709594726562,5.086760657816686,0.0,0.28268712759017944,-2.011460606251852,-0.0,0.027123186737298965,-0.10069781938661748,-0.0,-0.001562296412885189,1.011391043663025,0.0,-0.011553021147847176
262.0,292.0,-3.0616,4.1067,8.3593,-0.0327,0.0234,-0.1159,-1.9305345020689906,0.0,3.440187931060791,-1.723522424697876,2.4566728593378294e-18,1.8845586776733398,5.086724567204275,0.0,0.26259830594062805,-2.011444393788473,-0.0,0.03580579161643982,-0.10065776506532842,-0.0,-4.3992651626467705e-05,1.01132333278656,0.0,-0.029725458472967148
262.0,292.0,-3.0616,4.1067,8.3593,-0.0327,0.0234,-0.1159,-1.9305263958373011,0.0,3.440112590789795,-1.7234894037246704,4.421924589465573e-22,1.9149054288864136,5.086708175926962,0.0,0.2776651978492737,-2.011472527180807,-0.0,0.031115487217903137,-0.1006696859942835,-0.0,0.007788234390318394,1.0113192796707153,0.0,-0.02562318742275238
262.0,292.0,-3.0616,4.1067,8.3593,-0.0327,0.0234,-0.1159,-1.930514474908346,0.0,3.4728407859802246,-1.7234500646591187,7.95930762935264e-26,1.9588100910186768,5.086736428528585,0.0,0.26799386739730835,-2.011444393788473,-0.0,0.0404440313577652,-0.10064202943910772,-0.0,0.0009697198402136564,1.0113153457641602,0.0,-0.04192718118429184
262.0,292.0,-3.0616,4.1067,8.3593,-0.0327,0.0234,-0.1159,-1.9305502376952113,0.0,3.481459617614746,-1.7234934568405151,0.00047792369150556624,1.968738079071045,5.086760240584173,0.0,0.27853989601135254,-2.0114362875567835,-0.0,0.035969845950603485,-0.10067826906313115,-0.0,0.002345855813473463,1.0113632678985596,0.0,-0.0286058709025383
262.0,292.0,-3.0616,4.1067,8.3593,-0.0327,0.0234,-0.1159,-1.9305345020689906,0.0,3.4299204349517822,-1.7234541177749634,0.0016785672632977366,1.9343007802963257,5.086720424681463,0.0,0.2687806189060211,-2.0114882628070276,-0.0,0.03326878696680069,-0.10070592561830694,-0.0,0.010320167988538742,1.0113554000854492,0.0,-0.014398535713553429
262.0,292.0,-3.0616,4.1067,8.3593,-0.0327,0.0234,-0.1159,-1.930514474908346,0.0,3.3990564346313477,-1.7235262393951416,0.0010901261121034622,1.9370760917663574,5.086716341763296,0.0,0.2655441164970398,-2.0114601294146937,-0.0,0.05142083019018173,-0.10074216524233037,-0.0,0.006953517906367779,1.0113989114761353,0.000637546181678772,0.012590707279741764
262.0,292.0,-3.0616,4.1067,8.3593,-0.0327,0.0234,-0.1159,-1.9305225811400355,0.0,3.4601778984069824,-1.7235223054885864,0.0006390925263985991,1.934718370437622,5.086720424681463,0.0,0.273075670003891,-2.0114157835589808,-0.0,0.03487233817577362,-0.10067779222597295,-0.0,-0.007158076856285334,1.0114351511001587,0.0008134221425279975,-0.00786793977022171
262.0,292.0,-3.0616,4.1067,8.3593,-0.0327,0.0234,-0.1159,-1.9304825268187464,0.0,3.4553799629211426,-1.7234622240066528,0.0004425559309311211,1.9517066478729248,5.086744266539373,0.0,0.26816526055336,-2.011472527180807,-0.0,0.03087140992283821,-0.10066587129701787,-0.0,0.012698007747530937,1.0113914012908936,0.0007261309074237943,0.010180920362472534
262.0,292.0,-3.0616,4.1067,8.3593,-0.0327,0.0234,-0.1159,-1.9305225811400355,0.0,3.412095546722412,-1.7235180139541626,0.00035516839125193655,1.923982858657837,5.0867245374019525,0.0,0.2705950438976288,-2.011448685322897,-0.0,0.04720127582550049,-0.10069781938661748,-0.0,0.01193048246204853,1.011423110961914,0.0005930129555054009,-0.0061860522255301476
262.0,292.0,-3.0616,4.1067,8.3593,-0.0327,0.0234,-0.1159,-1.9304467640318812,0.0,3.430004596710205,-1.7234541177749634,0.00027403177227824926,1.8856890201568604,5.086728679924764,0.0,0.25803935527801514,-2.0115044752704065,-0.0,0.049212560057640076,-0.1006858984576624,-0.0,-0.0024655743036419153,1.0113751888275146,0.0004623941204044968,-0.02750064805150032
262.0,292.0,-3.0616,4.1067,8.3593,-0.0327,0.0234,-0.1159,-1.9304901562132777,0.0,3.5247154235839844,-1.7234666347503662,0.00023781851632520556,1.925572395324707,5.086740511446752,0.0,0.27073532342910767,-2.011484448109762,-0.0,0.037214361131191254,-0.10068971315492803,-0.0,0.004198969341814518,1.0113672018051147,0.00015902311133686453,-0.012995789758861065
262.0,292.0,-3.0616,4.1067,8.3593,-0.0327,0.0234,-0.1159,-1.930514474908346,0.0,3.438446044921875,-1.723470687866211,0.00021005999587941915,1.970820665359497,5.086720424681463,0.0,0.27316951751708984,-2.011440102254049,-0.0,0.039722710847854614,-0.10066157976259404,-0.0,0.0022542020305991173,1.01139497756958,7.033756992314011e-05,0.03676334396004677
262.0,292.0,-3.0616,4.1067,8.3593,-0.0327,0.0234,-0.1159,-1.930530687371725,0.0,3.3981428146362305,-1.7234934568405151,0.00018810565234161913,1.9501674175262451,5.086760270386495,0.0,0.27525028586387634,-2.0115044752704065,-0.0,0.03384744003415108,-0.10062152544130498,-0.0,0.0011655119014903903,1.0113871097564697,2.0311179468990304e-05,0.026836702600121498
262.0,292.0,-3.0616,4.1067,8.3593,-0.0327,0.0234,-0.1159,-1.9304543934264125,0.0,3.4380111694335938,-1.7234779596328735,0.00012793633504770696,1.903695821762085,5.086684036045828,0.0,0.2718728184700012,-2.0114195982562464,-0.0,0.03933042660355568,-0.10068971315492803,-0.0,-0.0010548736900091171,1.0113474130630493,3.6559406613179135e-09,-0.004248449578881264
262.0,292.0,-3.0616,4.1067,8.3593,-0.0327,0.0234,-0.1159,-1.930474420587057,0.0,3.4639101028442383,-1.7235016822814941,0.00011185387120349333,1.94449782371521,5.086700010090627,0.0,0.2647241950035095,-2.011452023183004,-0.0,0.043825581669807434,-0.10068160692323858,-0.0,0.006306152790784836,1.0113554000854492,8.828667607911882e-15,0.013647006824612617
262.0,292.0,-3.0616,4.1067,8.3593,-0.0327,0.0234,-0.1159,-1.9304782352843226,0.0,3.3946566581726074,-1.7234861850738525,0.00010329519864171743,1.916553020477295,5.086756485491552,0.0,0.26282766461372375,-2.0114195982562464,-0.0,0.03531234711408615,-0.10069781938661748,-0.0,0.000516318716108799,1.0113474130630493,1.589128934819511e-18,-0.04190625622868538
263.0,283.0,-3.0012,3.9709,8.6243,-0.0344,0.0171,-0.1086,-1.930514474908346,0.0,3.4831957817077637,-1.7235583066940308,9.595294977771118e-05,1.9229172468185425,5.0867565152938745,0.0,0.25625288486480713,-2.011452023183004,-0.0,0.034382402896881104,-0.1006539503680628,-0.0,-0.001436323393136263,1.0113474130630493,2.860375815975773e-22,0.04449816793203354
263.0,283.0,-3.0012,3.9709,8.6243,-0.0344,0.0171,-0.1086,-1.9304620228209437,0.0,3.4769012928009033,-1.723530650138855,8.958551188698038e-05,1.9012515544891357,5.086716341763296,0.0,0.27052533626556396,-2.011440102254049,-0.0,0.034256450831890106,-0.10072976747621709,-0.0,-0.005760842934250832,1.0113751888275146,-0.0005979990237392485,-0.02548273466527462
263.0,283.0,-3.0012,3.9709,8.6243,-0.0344,0.0171,-0.1086,-1.9304949245848597,0.0,3.4756200313568115,-1.7234747409820557,8.40103966766037e-05,1.9163177013397217,5.086740511446752,0.0,0.27166348695755005,-2.011440102254049,-0.0,0.043939970433712006,-0.10070640245546514,-0.0,-0.005115060601383448,1.01132333278656,-0.0005996469990350306,-0.026700306683778763
263.0,283.0,-3.0012,3.9709,8.6243,-0.0344,0.0171,-0.1086,-1.9304543934264125,0.0,3.490299701690674,-1.7234934568405151,7.683775038458407e-05,1.9666728973388672,5.086732345610418,0.0,0.2586956024169922,-2.0114482084857386,-0.0,0.0423257052898407,-0.1006091276751917,-0.0,0.0014104170259088278,1.0113554000854492,-0.0005256855511106551,0.03062174841761589
263.0,283.0,-3.0012,3.9709,8.6243,-0.0344,0.0171,-0.1086,-1.930486341516012,0.0,3.4641661643981934,-1.7235139608383179,7.269990601344034e-05,1.9183340072631836,5.086784380465307,0.0,0.262258380651474,-2.011448685322897,-0.0,0.03908952325582504,-0.10064965883363897,-0.0,0.0006219892529770732,1.0113153457641602,-0.0005145324976183474,-0.0016245422884821892
263.0,283.0,-3.0012,3.9709,8.6243,-0.0344,0.0171,-0.1086,-1.9304663143553675,0.0,3.4664125442504883,-1.7235428094863892,6.898502033436671e-05,1.9592487812042236,5.086720424681463,0.0,0.2601809501647949,-2.0114319960223597,-0.0,0.033704277127981186,-0.10069400468935186,-0.0,-0.004080777522176504,1.01132333278656,-0.00045042336569167674,-0.020111555233597755
263.0,283.0,-3.0012,3.9709,8.6243,-0.0344,0.0171,-0.1086,-1.9304944477477015,1.942175753555375e-09,3.4226579666137695,-1.7235099077224731,6.563125498360023e-05,1.9639955759048462,5.086720424681463,0.0,0.2751271724700928,-2.0114482084857386,-0.0,0.04847712814807892,-0.10064965883363897,-0.0,0.010443776845932007,1.0113673210144043,-0.0004003275535069406,0.0044187214225530624
263.0,283.0,-3.0012,3.9709,8.6243,-0.0344,0.0171,-0.1086,-1.930502553979391,4.690126037516047e-15,3.4773149490356445,-1.723470687866211,6.117045995779335e-05,1.9340828657150269,5.086732345610418,0.0,0.26949530839920044,-2.0114482084857386,-0.0,0.03675028309226036,-0.10064584413637334,-0.0,0.0011965767480432987,1.0113431215286255,-0.00034309274633415043,-0.0447644405066967
263.0,283.0,-3.0012,3.9709,8.6243,-0.0344,0.0171,-0.1086,-1.930514474908346,8.4420610920968865e-19,3.4653983116149902,-1.7235140800476074,5.8518875448498875e-05,1.919333815574646,5.086716341763296,0.0,0.2702968120574951,-2.011468235646383,-0.0,0.03750438243150711,-0.10068971315492803,-0.0,0.006986510008573532,1.0113632678985596,-0.00031323774601332843,0.006939999293535948
263.0,283.0,-3.0012,3.9709,8.6243,-0.0344,0.0171,-0.1086,-1.9305106602110804,1.5195411098714394e-22,3.4102084636688232,-1.723494291305542,5.60877269890625e-05,1.9438021183013916,5.086695897370138,0.0,0.27604061365127563,-2.0114362875567835,-0.0,0.04842529818415642,-0.10071403184999639,-0.0,0.0026051290333271027,1.0113153457641602,-0.0002522024151403457,0.004055931698530912
263.0,283.0,-3.0012,3.9709,8.6243,-0.0344,0.0171,-0.1086,-1.9304987392821253,2.735120349803617e-26,3.4678220748901367,-1.7235262393951416,5.3850388212595135e-05,1.9163801670074463,5.08674834945754,0.0,0.2702208161354065,-2.011508289967672,-0.0,0.04044083505868912,-0.10069781938661748,-0.0,0.005723657086491585,1.01132333278656,-0.00023345458612311631,0.02124638482928276
263.0,283.0,-3.0012,3.9709,8.6243,-0.0344,0.0171,-0.1086,-1.930486341516012,4.923120428362453e-30,3.4488532543182373,-1.723437786102295,5.178477294975892e-05,1.9424022436141968,5.08672450759963,0.0,0.27219080924987793,-2.0114882628070276,-0.0,0.037031080573797226,-0.10067779222597295,-0.0,-0.0039780717343091965,1.0113672018051147,-0.00021734613983426243,-0.039248425513505936
263.0,283.0,-3.0012,3.9709,8.6243,-0.0344,0.0171,-0.1086,-1.9304901562132777,1.1888755000773206e-35,3.4387588500976562,-1.7235016822814941,4.896726386505179e-05,1.9452488422393799,5.086704093008795,0.0,0.27646976709365845,-2.011440102254049,-0.0,0.02706312946975231,-0.10072261491884404,-0.0,0.0026184753514826298,1.011383056640625,-0.0001969603035831824,-0.015374351292848587
263.0,283.0,-3.0012,3.9709,8.6243,-0.0344,0.0171,-0.1086,-1.9305106602110804,2.1399340952581427e-39,3.456923007965088,-1.7234779596328735,4.725333928945474e-05,1.9211361408233643,5.086732315808096,0.0,0.27138662338256836,-2.011460606251852,-0.0,0.04373916983604431,-0.10068971315492803,-0.0,0.010127927176654339,1.0113712549209595,-0.0001853697031037882,0.01535113900899887
263.0,283.0,-3.0012,3.9709,8.6243,-0.0344,0.0171,-0.1086,-1.9304706058897914,3.853570776893247e-43,3.441592216491699,-1.7234934568405151,4.5655324356630445e-05,1.9001693725585938,5.086740511446752,0.0,0.25290441513061523,-2.011468235646383,-0.0,0.053719889372587204,-0.10070211092104131,-0.0,-0.009653800167143345,1.0113632678985596,-0.00017506725271232426,0.0009801674168556929
263.0,283.0,-3.0012,3.9709,8.6243,-0.0344,0.0171,-0.1086,-1.930486341516012,0.0,3.4265542030334473,-1.7235016822814941,4.4161861296743155e-05,1.933138370513916,5.086724477797308,0.0,0.27950090169906616,-2.01142388979067,-0.0,0.04960324242711067,-0.10068971315492803,-0.0,-0.002321459585800767,1.0113751888275146,-0.00016584969125688076,0.015061145648360252
263.0,283.0,-3.0012,3.9709,8.6243,-0.0344,0.0171,-0.1086,-1.930474420587057,0.0,3.4070639610290527,-1.7234820127487183,4.276299296179786e-05,1.9436160326004028,5.086712229042806,0.0,0.27265501022338867,-2.011427704487936,-0.0,0.04972444474697113,-0.10061437288393194,-0.0,0.002650566166266799,1.0113272666931152,-0.00015755432832520455,-0.005381576716899872
263.0,283.0,-3.0012,3.9709,8.6243,-0.0344,0.0171,-0.1086,-1.9304505787291468,0.0,3.4522202014923096,-1.723494291305542,4.082335362909362e-05,1.9697868824005127,5.086736398726263,0.0,0.26318058371543884,-2.011456314717428,-0.0,0.0289656650274992,-0.10065776506532842,-0.0,-0.013427420519292355,1.011291265487671,-0.00016720814164727926,-0.011274872347712517
263.0,283.0,-3.0012,3.9709,8.6243,-0.0344,0.0171,-0.1086,-1.9304706058897914,0.0,3.4654245376586914,-1.723462462425232,3.9625119825359434e-05,1.937644362449646,5.08672450759963,0.0,0.27804243564605713,-2.011440102254049,-0.0,0.0358622744679451,-0.10069400468935186,-0.0,0.008163741789758205,1.011291265487671,-0.0001600490213604644,0.006451775785535574
263.0,283.0,-3.0012,3.9709,8.6243,-0.0344,0.0171,-0.1086,-1.9304305515685023,0.0,3.442769765853882,-1.7235057353973389,3.849523636745289e-05,1.933060884475708,5.086736428528585,0.0,0.27590110898017883,-2.011456314717428,-0.0,0.0509747713804245,-0.10068971315492803,-0.0,-0.0006177743780426681,1.0113554000854492,-0.00015323658590205014,-0.020156381651759148
250.0,293.0,-2.9611,3.8913,8.4096,-0.0402,0.0313,-0.1168,-1.930514474908346,0.0,3.411810874938965,-1.7234902381896973,3.742801345651969e-05,1.8932147026062012,5.0867643533046625,0.0,0.2567291259765625,-2.011472527180807,-0.0,0.039380766451358795,-0.10068208376039678,-0.0,-0.009851139970123768,1.0113751888275146,-0.00014698022278025746,-0.017823949456214905
250.0,293.0,-2.9611,3.8913,8.4096,-0.0402,0.0313,-0.1168,-1.9304586849608363,0.0,3.440208911895752,-1.7234829664230347,3.6418332456378266e-05,1.9414600133895874,5.08672450759963,0.0,0.2678259313106537,-2.011468235646383,-0.0,0.029790837317705154,-0.10069781938661748,-0.0,0.008140561170876026,1.0113192796707153,-0.0001412147976225242,0.004898142535239458
250.0,293.0,-2.9611,3.8913,8.4096,-0.0402,0.0313,-0.1168,-1.930502553979391,0.0,3.457242012023926,-1.7234666347503662,3.500204547890462e-05,1.9153127670288086,5.086716341763296,0.0,0.2761399745941162,-2.011456314717428,-0.0,0.051167625933885574,-0.10071832338442022,-0.0,0.0006546613294631243,1.0113632678985596,-0.000133367590024136,-0.0044249556958675385
250.0,293.0,-2.9611,3.8913,8.4096,-0.0402,0.0313,-0.1168,-1.930490633050436,0.0,3.4684553146362305,-1.723470687866211,3.411746729398146e-05,1.9314265251159668,5.086752432375707,0.0,0.27492713928222656,-2.011440102254049,-0.0,0.04974906146526337,-0.10072261491884404,-0.0,-0.017033448442816734,1.011303424835205,-0.0001125535782193765,-0.005741136148571968
250.0,293.0,-2.9611,3.8913,8.4096,-0.0402,0.0313,-0.1168,-1.930474420587057,0.0,3.443788528442383,-1.723454236984253,4.4362692278809845e-05,1.917967677116394,5.086740511446752,0.0,0.2557998597621918,-2.0114439169513147,-0.0,0.04420604556798935,-0.10072261491884404,-0.0,0.0009761410765349865,1.0113751888275146,-0.00010864670912269503,0.014330990612506866
250.0,293.0,-2.9611,3.8913,8.4096,-0.0402,0.0313,-0.1168,-1.930502553979391,0.0,3.4522838592529297,-1.7235016822814941,4.330138835939579e-05,1.9173243045806885,5.086736398726263,0.0,0.27438846230506897,-2.0114687124835413,-0.0,0.0398067981004715,-0.10069400468935186,-0.0,0.003532848320901394,1.0113554000854492,-0.00010502445366000757,-0.00766438152641058
250.0,293.0,-2.9611,3.8913,8.4096,-0.0402,0.0313,-0.1168,-1.9304987392821253,0.0,3.428600311279297,-1.7234976291656494,4.2284184019081295e-05,1.9737701416015625,5.086708175926962,0.0,0.2607705593109131,-2.0114482084857386,-0.0,0.04234376549720764,-0.10065776506532842,-0.0,0.010374804958701134,1.0113272666931152,-3.250080771977082e-05,-0.009228765964508057
250.0,293.0,-2.9611,3.8913,8.4096,-0.0402,0.0313,-0.1168,-1.9304987392821253,0.0,3.4500060081481934,-1.72344172000885,1.168670041806763e-05,1.9638336896896362,5.086704122811117,0.0,0.2640611529350281,-2.011448685322897,-0.0,0.040441837161779404,-0.1006701628314417,-0.0,0.014585733413696289,1.01139497756958,-6.177718319122505e-07,-0.0059870039112865925
250.0,293.0,-2.9611,3.8913,8.4096,-0.0402,0.0313,-0.1168,-1.9305187664427699,0.0,3.4199447631835938,-1.7235221862792969,2.951098394987639e-05,1.927523136138916,5.086772489338674,0.0,0.27233168482780457,-2.011460606251852,-0.0,0.031201928853988647,-0.10066157976259404,-0.0,-0.01635098084807396,1.011391043663025,-1.1119674625525988e-10,-0.03606084734201431
250.0,293.0,-2.9611,3.8913,8.4096,-0.0402,0.0313,-0.1168,-1.9304949245848597,0.0,3.398033618927002,-1.723458170890808,0.0009612946887500584,1.9663165807724,5.086716341763296,0.0,0.26602789759635925,-2.011411492024557,-0.0,0.04002721980214119,-0.10067779222597295,-0.0,0.011772900819778442,1.0114270448684692,0.0031203057151287794,0.02142776921391487
250.0,293.0,-2.9611,3.8913,8.4096,-0.0402,0.0313,-0.1168,-1.9305263958373011,0.0,3.489090919494629,-1.7234910726547241,0.0010966419940814376,1.911376714706421,5.086688118963995,0.0,0.27077600359916687,-2.011460606251852,-0.0,0.03682486712932587,-0.10064965883363897,-0.0,-0.007184574846178293,1.0114191770553589,0.004501799587160349,0.04847988858819008
250.0,293.0,-2.9611,3.8913,8.4096,-0.0402,0.0313,-0.1168,-1.9305187664427699,0.0,3.439810276031494,-1.7234621047973633,0.001365101896226406,1.9519996643066406,5.086752432375707,0.0,0.2780120372772217,-2.0114482084857386,-0.0,0.03307027369737625,-0.10064202943910772,-0.0,0.003418245119974017,1.0114551782608032,0.005537000484764576,-0.03467390686273575
250.0,293.0,-2.9611,3.8913,8.4096,-0.0402,0.0313,-0.1168,-1.9305345020689906,0.0,3.4593167304992676,-1.7234829664230347,0.0008834261680021882,1.9567642211914062,5.086728262692251,0.0,0.263231098651886,-2.011468235646383,-0.0,0.034651048481464386,-0.10062581697572881,-0.0,0.006624376401305199,1.0115028619766235,0.006040947046130896,-0.0007644016295671463
250.0,293.0,-2.9611,3.8913,8.4096,-0.0402,0.0313,-0.1168,-1.9305106602110804,0.0,3.3990657329559326,-1.7234952449798584,0.000716209935490042,1.9502804279327393,5.086780744581976,0.0,0.2625763416290283,-2.0114882628070276,-0.0,0.0409078411757946,-0.10068160692323858,-0.0,-0.002626245841383934,1.0115625858306885,0.005547791253775358,-0.04050431400537491
250.0,293.0,-2.9611,3.8913,8.4096,-0.0402,0.0313,-0.1168,-1.9305225811400355,0.0,3.476330280303955,-1.7234376668930054,0.0005935305380262434,1.9578089714050293,5.086752402573385,0.0,0.27526646852493286,-2.0115001837359827,-0.0,0.03131896257400513,-0.10071021715273076,-0.0,0.002841727342456579,1.0115467309951782,0.004198442213237286,0.015456588938832283
250.0,293.0,-2.9611,3.8913,8.4096,-0.0402,0.0313,-0.1168,-1.9305106602110804,0.0,3.4499189853668213,-1.723449945449829,0.0004865322553087026,1.9636082649230957,5.0867241499717615,0.0,0.2652583420276642,-2.011484448109762,-0.0,0.033980559557676315,-0.10070592561830694,-0.0,-0.0009494356345385313,1.011602759361267,0.0031920690089464188,0.0020031826570630074
250.0,293.0,-2.9611,3.8913,8.4096,-0.0402,0.0313,-0.1168,-1.9304949245848597,0.0,3.439241647720337,-1.7234829664230347,0.00048080802662298083,1.9432533979415894,5.086716341763296,0.0,0.27853289246559143,-2.011452023183004,-0.0,0.04328302666544914,-0.10062152544130498,-0.0,-0.001977271866053343,1.0115666389465332,0.0020414157770574093,-0.04768015444278717
250.0,293.0,-2.9611,3.8913,8.4096,-0.0402,0.0313,-0.1168,-1.9304706058897914,0.0,3.4805421829223633,-1.723450779914856,0.00039129838114604354,1.915776252746582,5.08677630403594,0.0,0.26259878277778625,-2.0115202108966272,-0.0,0.03215174749493599,-0.1006858984576624,-0.0,0.013889409601688385,1.011542797088623,0.0006828993209637702,0.062285926192998886
250.0,293.0,-2.9611,3.8913,8.4096,-0.0402,0.0313,-0.1168,-1.9305225811400355,0.0,3.4263758659362793,-1.723442554473877,0.0003744250279851258,1.9093273878097534,5.086720424681463,0.0,0.26271116733551025,-2.0115001837359827,-0.0,0.04299285262823105,-0.10070211092104131,-0.0,0.007751790806651115,1.0115230083465576,0.00037099080509506166,-0.045268841087818146
250.0,293.0,-2.9611,3.8913,8.4096,-0.0402,0.0313,-0.1168,-1.9304949245848597,0.0,3.464383602142334,-1.723434329032898,0.0023086743894964457,1.9403632879257202,5.086744266539373,1.3629232853418216e-07,0.278493195772171,-2.0115087668048304,-8.387457839376111e-09,0.022985398769378662,-0.1006539503680628,-0.0,-0.005989362020045519,1.0115269422531128,0.0002908187743742019,-0.00458824448287487
264.0,298.0,-3.204,4.279,8.8893,-0.0076,0.0224,-0.1106,-1.9304987392821253,0.0,3.4422836303710938,-1.7233824729919434,0.004885510541498661,1.9297170639038086,5.0867643533046625,5.810355530044831e-10,0.2653876841068268,-2.01147967973818,-3.575705009861707e-11,0.029309257864952087,-0.10068971315492803,-0.0,-0.007498144172132015,1.011550784111023,0.0003185941022820771,-0.025113195180892944
264.0,298.0,-3.204,4.279,8.8893,-0.0076,0.0224,-0.1106,-1.9305101833739222,2.07876678359753e-06,3.4077107906341553,-1.7234258651733398,0.006247968412935734,1.8885979652404785,5.086740153818884,2.477045695295499e-12,0.25977209210395813,-2.011512581502096,-1.5243793098466962e-13,0.04107186943292618,-0.10063821474184209,-0.0,0.0026997483801096678,1.0115547180175781,9.014109673444182e-05,0.031147684901952744
264.0,298.0,-3.204,4.279,8.8893,-0.0076,0.0224,-0.1106,-1.9305383167662562,-2.2006239305483177e-05,3.4207797050476074,-1.7233132123947144,0.005623938981443644,1.9630918502807617,5.086768108397283,6.894948775812491e-16,0.26391178369522095,-2.011483971272604,-4.2431655580283596e-17,0.03072493150830269,-0.10069400468935186,-0.0,0.005251901224255562,1.0115625858306885,0.00012913631508126855,-0.03937221318483353
264.0,298.0,-3.204,4.279,8.8893,-0.0076,0.0224,-0.1106,-1.930530687371725,-3.221962469979189e-05,3.4690873622894287,-1.7233150005340576,0.004845410119742155,1.9011337757110596,5.086780357151785,2.9394245638105144e-18,0.2712470293045044,-2.011536423360006,-0.0004053638258483261,0.029396075755357742,-0.10068208376039678,-0.0,0.012328630313277245,1.0115586519241333,0.0001693028025329113,0.02143876627087593
264.0,298.0,-3.204,4.279,8.8893,-0.0076,0.0224,-0.1106,-1.9305464229979457,-3.147048846585676e-05,3.454864025115967,-1.7232387065887451,0.004479304887354374,1.9812042713165283,5.0868082521255396,1.2531227287030042e-20,0.2668250501155853,-2.0115116278277796,-0.00035455895704217255,0.044477030634880066,-0.10069781938661748,-0.0,0.0022318789269775152,1.0115867853164673,0.00023410047288052738,0.01938731037080288
264.0,298.0,-3.204,4.279,8.8893,-0.0076,0.0224,-0.1106,-1.930530687371725,-2.0641520677600056e-05,3.4741084575653076,-1.723230242729187,0.005048060789704323,1.9543559551239014,5.08675246217803,5.342258189110422e-23,0.2691793441772461,-2.011483971272604,-0.00030631085974164307,0.04591061919927597,-0.10069400468935186,-0.0,0.010800243355333805,1.0115586519241333,9.473750105826184e-05,0.03385399281978607
264.0,298.0,-3.204,4.279,8.8893,-0.0076,0.0224,-0.1106,-1.9304868183531703,-2.0045778001076542e-05,3.510226249694824,-1.7232229709625244,0.006846752483397722,1.9448567628860474,5.086728262692251,2.2774885185083415e-25,0.2669285535812378,-2.011540238057272,-0.00026958948001265526,0.028963644057512283,-0.10059053102602178,-0.0,0.008345043286681175,1.011550784111023,3.257164735259721e-06,-0.04559154435992241
264.0,298.0,-3.204,4.279,8.8893,-0.0076,0.0224,-0.1106,-1.9305068455138148,-1.2178106301163893e-09,3.4244775772094727,-1.7231990098953247,0.008162025362253189,1.975271224975586,5.086720067053594,6.33947345882077e-29,0.26703548431396484,-2.0115445295916956,-0.00031673331977799535,0.04043944925069809,-0.10068971315492803,-0.0,0.008402014151215553,1.0115907192230225,7.865669920947838e-12,0.02279895544052124
264.0,298.0,-3.204,4.279,8.8893,-0.0076,0.0224,-0.1106,-1.930490633050436,-2.1920160998833982e-13,3.4815711975097656,-1.7231266498565674,0.007939484901726246,1.9013018608093262,5.086740183621206,2.7026169128936177e-31,0.26350879669189453,-2.0115202108966272,-0.0003290372551418841,0.044622551649808884,-0.10071832338442022,-0.0,0.0072609977796673775,1.0115625858306885,1.415792913204224e-15,0.04712776094675064
264.0,298.0,-3.204,4.279,8.8893,-0.0076,0.0224,-0.1106,-1.930490633050436,-3.9455515984599456e-17,3.4680118560791016,-1.7230913639068604,0.008195895701646805,1.9386448860168457,5.086760240584173,1.1521681347981577e-33,0.26155886054039,-2.011524025593893,-0.0003737913502845913,0.06146202236413956,-0.10070592561830694,-0.0,0.0006966919172555208,1.0115349292755127,2.548376997177602e-19,0.05931060016155243
264.0,298.0,-3.204,4.279,8.8893,-0.0076,0.0224,-0.1106,-1.930530687371725,-7.101853660921352e-21,3.443570613861084,-1.7230675220489502,0.008047583512961864,1.9423364400863647,5.086776244431295,4.911873169476749e-36,0.275208055973053,-2.0115159193622034,-0.0003902667958755046,0.03856227174401283,-0.10073453584779912,-0.0,0.0041114636696875095,1.0115388631820679,4.586988874499893e-23,-0.004640855826437473
264.0,298.0,-3.204,4.279,8.8893,-0.0076,0.0224,-0.1106,-1.9305907688536585,-1.2783084705740307e-24,3.460111141204834,-1.7230558395385742,0.007838757708668709,1.9391112327575684,5.086792248278417,2.0940087801674398e-38,0.2586567997932434,-2.0115159193622034,-0.0003968880628235638,0.03657015785574913,-0.1006701628314417,-0.0,0.0038815299049019814,1.0115586519241333,8.256417760385348e-27,-0.015375019982457161
264.0,298.0,-3.204,4.279,8.8893,-0.0076,0.0224,-0.1106,-1.930554529229635,-0.0002141949225915596,3.4187867641448975,-1.7230114936828613,0.006602931767702103,1.9336676597595215,5.086744296341696,5.829401611591239e-42,0.26809343695640564,-2.0115116278277796,-0.0005362429074011743,0.04042864963412285,-0.10067779222597295,-0.0,0.018727457150816917,1.011514663696289,1.993827673585082e-32,0.0267963744699955
264.0,298.0,-3.204,4.279,8.8893,-0.0076,0.0224,-0.1106,-1.9305621586241664,-0.00026791158597916365,3.4180214405059814,-1.722975254058838,0.005171491298824549,1.9724456071853638,5.08675246217803,2.5223372357846707e-44,0.28208181262016296,-2.0115483442889612,-0.0005173017270863056,0.03644469380378723,-0.1006858984576624,-0.0,-0.0006533907726407051,1.0114948749542236,3.588819624075761e-36,-0.02892036736011505
264.0,298.0,-3.204,4.279,8.8893,-0.0076,0.0224,-0.1106,-1.9305502376952113,-0.0010446420637890697,3.4110147953033447,-1.7229710817337036,0.0037872805260121822,1.9110193252563477,5.086728292494573,0.0,0.27104806900024414,-2.0115283171283167,-0.0004363277112133801,0.04520083963871002,-0.10071021715273076,-0.0,0.0008495014626532793,1.0115187168121338,6.4597476997984715e-40,0.028209414333105087
264.0,298.0,-3.204,4.279,8.8893,-0.0076,0.0224,-0.1106,-1.9305383167662562,-0.000835886225104332,3.4556493759155273,-1.7230031490325928,0.0027152991387993097,1.9147167205810547,5.08674834945754,0.0,0.28607887029647827,-2.0115564505206507,-0.0004059876664541662,0.031376101076602936,-0.10071832338442022,-0.0,-0.0028881458565592766,1.0115107297897339,-0.00027521466836333275,0.0022337445989251137
264.0,298.0,-3.204,4.279,8.8893,-0.0076,0.0224,-0.1106,-1.930554529229635,-0.0006878656568005681,3.469245433807373,-1.722991704940796,0.0020853891037404537,1.947157859802246,5.086716341763296,0.0,0.2698327600955963,-2.01156455675234,-0.00038451660657301545,0.037607718259096146,-0.10068160692323858,-0.0,0.010303843766450882,1.011542797088623,-0.00038788991514593363,0.014042007736861706
264.0,298.0,-3.204,4.279,8.8893,-0.0076,0.0224,-0.1106,-1.9305783710875453,-0.0005180900334380567,3.4499635696411133,-1.7229596376419067,0.0017391681903973222,1.9377446174621582,5.086732345610418,0.0,0.274404913187027,-2.011536423360006,-0.00032508387812413275,0.03641091659665108,-0.1006539503680628,-0.0,0.015157519839704037,1.0115185976028442,-0.001185263623483479,0.012042081914842129
264.0,298.0,-3.204,4.279,8.8893,-0.0076,0.0224,-0.1106,-1.930554529229635,-0.0001674971863394603,3.4937021732330322,-1.7228635549545288,0.0018677202751860023,1.924516201019287,5.086728262692251,0.0,0.27472931146621704,-2.0115564505206507,-0.00029466499108821154,0.03103480115532875,-0.10069400468935186,-0.0,-0.0016700979322195053,1.0114672183990479,-0.0014141876017674804,0.014809288084506989
264.0,298.0,-3.204,4.279,8.8893,-0.0076,0.0224,-0.1106,-1.9305502376952113,-0.0001383064955007285,3.434431552886963,-1.7228471040725708,0.0027989789377897978,2.0096373558044434,5.086752104550161,0.0,0.2745629549026489,-2.0115202108966272,-0.00026945231365971267,0.0360894612967968,-0.10074216524233037,-0.0,0.003532628994435072,1.0114672183990479,-0.0014914176426827908,0.06358320266008377
268.0,282.0,-3.2046,4.2826,8.2576,-0.0102,0.0139,-0.1206,-1.9305621586241664,-0.00011987950711045414,3.450773239135742,-1.7228550910949707,0.0034383488819003105,1.8927172422409058,5.086720454483785,0.0,0.27502238750457764,-2.011540238057272,-0.0002482156560290605,0.04872855916619301,-0.10073787370790654,-0.0,0.00633201003074646,1.0115067958831787,-0.0014946776209399104,-0.0009044678881764412
268.0,282.0,-3.2046,4.2826,8.2576,-0.0102,0.0139,-0.1206,-1.9305664501585902,-0.00010578647925285622,3.429938316345215,-1.722856044769287,0.004806190263479948,1.97713303565979,5.0867565152938745,0.0,0.2710062265396118,-2.011507813130514,-0.00023008252901490778,0.0323665514588356,-0.10070211092104131,-0.0,0.012294008396565914,1.0114551782608032,-0.0014373625162988901,0.017007596790790558
268.0,282.0,-3.2046,4.2826,8.2576,-0.0102,0.0139,-0.1206,-1.930582662621969,-0.00013489252887666225,3.4516096115112305,-1.722815752029419,0.006601829547435045,1.942662000656128,5.086752819805898,0.0,0.2819719612598419,-2.01150352159609,-0.00020736028091050684,0.036463528871536255,-0.10070592561830694,-0.0,0.010837014764547348,1.0114670991897583,-0.0012940485030412674,-0.01871415413916111
268.0,282.0,-3.2046,4.2826,8.2576,-0.0102,0.0139,-0.1206,-1.9306026897826136,-0.00012263815733604133,3.4473471641540527,-1.722832202911377,0.007257185410708189,1.9303863048553467,5.086724209576406,0.0,0.25719502568244934,-2.0115001837359827,-0.0001945517142303288,0.03837990760803223,-0.10063392320741826,-0.0,0.0019193612970411777,1.0113953351974487,-0.001089524943381548,-0.012748068198561668
268.0,282.0,-3.2046,4.2826,8.2576,-0.0102,0.0139,-0.1206,-1.9305907688536585,-0.0001124245100072585,3.4653520584106445,-1.7228238582611084,0.008760454133152962,1.9029412269592285,5.086712288647451,0.0,0.2856167256832123,-2.011495892201559,-0.00018323375843465328,0.041413113474845886,-0.10062581697572881,-0.0,0.020463131368160248,1.0114309787750244,-0.0009399542468599975,0.07981503009796143
268.0,282.0,-3.2046,4.2826,8.2576,-0.0102,0.0139,-0.1206,-1.9305383167662562,-0.00013835556455887854,3.4441421031951904,-1.722727656364441,0.009483329020440578,1.982844591140747,5.086756545096197,0.0,0.27302154898643494,-2.0115326086627405,-6.428282358683646e-05,0.03802584856748581,-0.10063392320741826,-0.0,-0.0009839516133069992,1.0114432573318481,-0.0008310472476296127,0.009078399278223515
268.0,282.0,-3.2046,4.2826,8.2576,-0.0102,0.0139,-0.1206,-1.9306026897826136,-0.00010012132406700402,3.422623634338379,-1.722639799118042,0.010008861310780048,1.9414596557617188,5.086732345610418,0.0,0.273963987827301,-2.0114715735064905,-5.6646578741492704e-05,0.03288068622350693,-0.10065013567079717,-0.0,0.005197715479880571,1.0114350318908691,-0.0006258769426494837,0.023256869986653328
268.0,282.0,-3.2046,4.2826,8.2576,-0.0102,0.0139,-0.1206,-1.9305864773192347,-0.0001276871917070821,3.447314977645874,-1.7226084470748901,0.0125013692304492,1.9457473754882812,5.086716431170263,0.0,0.2728275656700134,-2.0115116278277796,-5.1745748351095244e-05,0.03887190297245979,-0.1006701628314417,-0.0,0.009409273974597454,1.0113953351974487,-0.0005260553443804383,-0.007491549011319876
268.0,282.0,-3.2046,4.2826,8.2576,-0.0102,0.0139,-0.1206,-1.9305907688536585,-0.00011715551227098331,3.448519706726074,-1.7225886583328247,0.013761905953288078,1.9469094276428223,5.086760657816686,0.0,0.2659589350223541,-2.011524025593893,-4.8932182835415006e-05,0.03963051736354828,-0.10062581697572881,-0.0,-0.0005853092297911644,1.0114033222198486,-0.00044287359924055636,-0.026744268834590912
268.0,282.0,-3.2046,4.2826,8.2576,-0.0102,0.0139,-0.1206,-1.9306189022459925,-0.0001432308490620926,3.483668327331543,-1.722496509552002,0.015411208383738995,1.9378299713134766,5.086736428528585,0.0,0.27623990178108215,-2.01147967973818,-4.6408815251197666e-05,0.054107677191495895,-0.10066205659975225,-0.0,0.002404363825917244,1.0114670991897583,-0.0003804524603765458,0.02430596388876438
268.0,282.0,-3.2046,4.2826,8.2576,-0.0102,0.0139,-0.1206,-1.930582662621969,-0.00015494832769036293,3.4572057723999023,-1.7224209308624268,0.01772657409310341,1.9434436559677124,5.086708175926962,0.0,0.2792784571647644,-2.0115087668048304,-4.413293208926916e-05,0.04318319261074066,-0.10069400468935186,-0.0,0.014644423499703407,1.0114350318908691,-0.0003334554785396904,0.02659580484032631
268.0,282.0,-3.2046,4.2826,8.2576,-0.0102,0.0139,-0.1206,-1.930570741693014,-0.0004134531191084534,3.427266836166382,-1.7223204374313354,0.020919324830174446,1.9477163553237915,5.0867647407348535,0.0,0.2585543990135193,-2.0114834944354456,-4.110900772502646e-05,0.04125213250517845,-0.10071403184999639,-0.0,0.0133785055950284,1.0114591121673584,-0.0002813315368257463,0.03777911514043808
268.0,282.0,-3.2046,4.2826,8.2576,-0.0102,0.0139,-0.1206,-1.9306303463377894,-0.00047855329466983676,3.484342098236084,-1.7222291231155396,0.021800149232149124,1.9778257608413696,5.08672450759963,0.0,0.26688092947006226,-2.0114720503436487,-3.9313294109888375e-05,0.0393572673201561,-0.10063392320741826,-0.0,0.00992343109101057,1.0114829540252686,-0.00021405283769126981,0.012649827636778355
268.0,282.0,-3.2046,4.2826,8.2576,-0.0102,0.0139,-0.1206,-1.9306260548033656,-0.0010548382997512817,3.4353644847869873,-1.722152590751648,0.02373230643570423,1.9378986358642578,5.08672450759963,0.0,0.2765934467315674,-2.011496369038717,-3.766781810554676e-05,0.04908568784594536,-0.10069400468935186,-0.0,-0.0027402988635003567,1.0114630460739136,-0.00019400910241529346,-0.03925603628158569
268.0,282.0,-3.2046,4.2826,8.2576,-0.0102,0.0139,-0.1206,-1.930634161035055,-0.0012380515690892935,3.458916664123535,-1.7220654487609863,0.02472909539937973,2.005033254623413,5.086696344404974,0.0,0.2716846764087677,-2.0115044752704065,-3.615461537265219e-05,0.03955666348338127,-0.10063392320741826,-0.0,0.005319174844771624,1.0114551782608032,-0.00014433723117690533,-0.03777015954256058
268.0,282.0,-3.2046,4.2826,8.2576,-0.0102,0.0139,-0.1206,-1.9306384525694789,-0.0012919360306113958,3.4352400302886963,-1.7219289541244507,0.02624642103910446,1.9753776788711548,5.086724567204275,0.0,0.26897692680358887,-2.01154071489443,-3.475825724308379e-05,0.046098411083221436,-0.10063392320741826,-0.0,0.011529438197612762,1.0114670991897583,-0.0001106501804315485,-0.001539583783596754
268.0,282.0,-3.2046,4.2826,8.2576,-0.0102,0.0139,-0.1206,-1.93064608196401,-0.001309858402237296,3.4336018562316895,-1.7217971086502075,0.029799291864037514,1.952012062072754,5.086708593159475,-2.1634345102938823e-05,0.2806761562824249,-2.011536423360006,-3.285493585281074e-05,0.042700059711933136,-0.1006858984576624,-0.0,-0.006645278539508581,1.0114905834197998,0.00010813230619532987,-0.0038753305561840534
268.0,282.0,-3.2046,4.2826,8.2576,-0.0102,0.0139,-0.1206,-1.9306827984251917,-0.0016530840657651424,3.437257766723633,-1.7216572761535645,0.032286982983350754,2.0441575050354004,5.086680757790365,-2.122100704582408e-05,0.2656775414943695,-2.011536423360006,-3.1697771191829816e-05,0.029861724004149437,-0.1006701628314417,-0.0,0.0031514528673142195,1.0114866495132446,0.00015732538304291666,0.03201773017644882
268.0,282.0,-3.2046,4.2826,8.2576,-0.0102,0.0139,-0.1206,-1.9306704006590785,-0.0033269128762185574,3.4166269302368164,-1.72146475315094,0.03513142466545105,2.008188486099243,5.086688506394186,-3.092286715400405e-05,0.2764296531677246,-2.0115044752704065,-3.06193542201072e-05,0.04331762716174126,-0.10068971315492803,-0.0,0.009249581024050713,1.0114749670028687,0.0007621487602591515,-0.02316819131374359
268.0,282.0,-3.2046,4.2826,8.2576,-0.0102,0.0139,-0.1206,-1.930706640283102,-0.00546666793525219,3.4544248580932617,-1.7213413715362549,0.03782111406326294,1.9929975271224976,5.0866562006767175,-3.039786133740563e-05,0.2751372158527374,-2.011512581502096,-2.9611916033900343e-05,0.03333432972431183,-0.1006858984576624,-0.0,0.020813610404729843,1.0114989280700684,0.0008177785202860832,0.016735659912228584
265.0,298.0,-2.9013,4.014,8.4826,-0.0412,0.0246,-0.1219,-1.9307061634459437,-0.006795130204409361,3.4884188175201416,-1.7211445569992065,0.04118076339364052,2.027860641479492,5.086696344404974,-1.5069351320562419e-05,0.2667243182659149,-2.0114882628070276,-1.5285393601516262e-05,0.04465212672948837,-0.10065824190248662,-0.0,0.0007959224749356508,1.0114948749542236,0.0009174442966468632,0.03907070681452751
265.0,298.0,-2.9013,4.014,8.4826,-0.0412,0.0246,-0.1219,-1.9307743511595667,-0.00744893541559577,3.4181203842163086,-1.7209124565124512,0.047151144593954086,1.994356632232666,5.08672450759963,-4.1946091045019784e-09,0.2693466246128082,-2.0114920775042933,-1.3680909432878252e-05,0.04523668438196182,-0.10070211092104131,-0.0,0.01417127437889576,1.0114909410476685,0.0006880269502289593,0.022491909563541412
265.0,298.0,-2.9013,4.014,8.4826,-0.0412,0.0246,-0.1219,-1.9308349094786585,-0.006354952231049538,3.4103989601135254,-1.720688819885254,0.05246059596538544,1.9890947341918945,5.086668389826574,-1.7882275521463598e-11,0.26602083444595337,-2.011496369038717,-1.3277003745315596e-05,0.05120491981506348,-0.10063344637026006,-0.0,0.013666000217199326,1.0114786624908447,0.0005482321721501648,0.000835862010717392
265.0,298.0,-2.9013,4.014,8.4826,-0.0412,0.0246,-0.1219,-1.930826326409811,-0.004198205191642046,3.4109158515930176,-1.7204320430755615,0.05630629509687424,2.0205624103546143,5.086684453278341,-7.623493714558824e-14,0.26048946380615234,-2.011512581502096,-1.2896493899461348e-05,0.0347776785492897,-0.10068208376039678,-0.0,0.003258353564888239,1.0114827156066895,0.00045566988410428166,0.021450379863381386
265.0,298.0,-2.9013,4.014,8.4826,-0.0412,0.0246,-0.1219,-1.930822034875387,-0.002905450062826276,3.3817481994628906,-1.7202450037002563,0.06093494966626167,1.992964267730713,5.086648481875219,-3.250015126033507e-16,0.28177937865257263,-2.0115087668048304,-1.0837550235009985e-07,0.04623900353908539,-0.10069781938661748,-0.0,0.0032702286262065172,1.0115265846252441,0.00038985509308986366,0.03333543241024017
265.0,298.0,-2.9013,4.014,8.4826,-0.0412,0.0246,-0.1219,-1.930906435052389,-0.0025655869394540787,3.4039058685302734,-1.7199894189834595,0.06620226055383682,2.0192158222198486,5.086716371565618,-1.3855322823148435e-18,0.25243130326271057,-2.0115001837359827,-4.620218096995643e-10,0.04409211874008179,-0.10067779222597295,-0.0,0.01174936257302761,1.0115429162979126,0.0003406568430364132,0.053281113505363464
265.0,298.0,-2.9013,4.014,8.4826,-0.0412,0.0246,-0.1219,-1.9308859310545863,-0.0048349276185035706,3.45995831489563,-1.7195812463760376,0.07405691593885422,2.0409693717956543,5.086636143713751,-0.00021474031382240355,0.24198515713214874,-2.0114319960223597,-1.2860548672007088e-13,0.03607187047600746,-0.10069400468935186,-0.0,0.010309807024896145,1.0114672183990479,0.0002864395792130381,-0.013333287090063095
265.0,298.0,-2.9013,4.014,8.4826,-0.0412,0.0246,-0.1219,-1.9308978519835414,-0.006529208272695541,3.3804688453674316,-1.719196081161499,0.07993676513433456,2.0436952114105225,5.086692589312353,-0.00020791940914932638,0.2812858521938324,-2.011452023183004,-5.482653685163954e-16,0.04658603295683861,-0.10068971315492803,-0.0,0.011232618242502213,1.011534571647644,0.00021601254411507398,0.015368225052952766
265.0,298.0,-2.9013,4.014,8.4826,-0.0412,0.0246,-0.1219,-1.9309379063048304,-0.007283012382686138,3.3669114112854004,-1.7189244031906128,0.08585164695978165,2.0647172927856445,5.086656141072073,-0.00022512297437060624,0.26153308153152466,-2.011452023183004,-2.337341095833939e-18,0.04208793863654137,-0.10070211092104131,-0.0,0.0056790923699736595,1.011451244354248,0.00023623224114999175,0.007776946295052767
265.0,298.0,-2.9013,4.014,8.4826,-0.0412,0.0246,-0.1219,-1.9310227833189906,-0.00826340913772583,3.3931360244750977,-1.7185763120651245,0.09072915464639664,2.0766000747680664,5.086696344404974,-0.00021023373119533062,0.24804586172103882,-2.011440102254049,-9.964451111154619e-21,0.040432386100292206,-0.100654427205221,-0.0,0.009420307353138924,1.0114631652832031,0.00018157338490709662,0.04345289617776871
265.0,298.0,-2.9013,4.014,8.4826,-0.0412,0.0246,-0.1219,-1.9310184917845667,-0.008282607421278954,3.387683868408203,-1.7181124687194824,0.09551122784614563,2.1009573936462402,5.0866360543067834,-0.00019707987667061388,0.25340133905410767,-2.011456314717428,-4.2480014595744925e-23,0.03342663496732712,-0.10065013567079717,-0.0,0.0018922955496236682,1.0114473104476929,0.00016758075798861682,0.005919016897678375
265.0,298.0,-2.9013,4.014,8.4826,-0.0412,0.0246,-0.1219,-1.931094308892721,-0.007455247454345226,3.331517219543457,-1.717564344406128,0.0964869037270546,2.0803136825561523,5.086692589312353,-0.00018016953254118562,0.26272985339164734,-2.011427704487936,-1.1824467219951072e-26,0.05632655322551727,-0.1006858984576624,-0.0,0.007887104526162148,1.0114591121673584,0.00017053951160050929,0.04246169328689575
265.0,298.0,-2.9013,4.014,8.4826,-0.0412,0.0246,-0.1219,-1.9310862026610316,-0.006391587201505899,3.391671657562256,-1.717119812965393,0.09830553084611893,2.0564804077148438,5.086704510241308,-0.00017042175750248134,0.2443217635154724,-2.0114644209491175,-5.04095581890244e-29,0.03678623586893082,-0.1006858984576624,-0.0,0.009863237850368023,1.0115185976028442,0.00016952767327893525,-0.0026721032336354256
265.0,298.0,-2.9013,4.014,8.4826,-0.0412,0.0246,-0.1219,-1.9311300716795863,-0.005165351554751396,3.344338893890381,-1.71673583984375,0.09999219328165054,2.0785951614379883,5.086696761637487,-0.0001616739173186943,0.24865186214447021,-2.01142388979067,-2.1490383019755657e-31,0.03483257442712784,-0.1006858984576624,-0.0,0.017732642590999603,1.011542797088623,0.00015951335080899298,0.035817183554172516
265.0,298.0,-2.9013,4.014,8.4826,-0.0412,0.0246,-0.1219,-1.9310814342894496,-0.004266924690455198,3.3259849548339844,-1.7163283824920654,0.1022040843963623,2.0670909881591797,5.086708175926962,-0.00015378065290860832,0.24095097184181213,-2.011456314717428,0.00017941274563781917,0.038520749658346176,-0.10069781938661748,-0.0,0.017027776688337326,1.0114747285842896,0.00017567703616805375,0.04650549590587616
265.0,298.0,-2.9013,4.014,8.4826,-0.0412,0.0246,-0.1219,-1.9311586819090785,-0.004230580758303404,3.3848369121551514,-1.7159444093704224,0.10477938503026962,2.0876002311706543,5.086688536196508,-0.00014662249304819852,0.2319267988204956,-2.011411968861715,0.00027380927349440753,0.04302865266799927,-0.1006701628314417,-0.0,0.00525467935949564,1.0115349292755127,0.0001664335431996733,0.036847665905952454
265.0,298.0,-2.9013,4.014,8.4826,-0.0412,0.0246,-0.1219,-1.9311777553954066,-0.00405023293569684,3.3484151363372803,-1.7152758836746216,0.1091361865401268,2.053370952606201,5.0866848705108545,-0.00015662629448343068,0.24264931678771973,-2.0114405790912073,0.00025456512230448425,0.040305014699697495,-0.10069829622377569,-0.0,0.011442127637565136,1.0114827156066895,0.0001762376632541418,0.026758737862110138
265.0,298.0,-2.9013,4.014,8.4826,-0.0412,0.0246,-0.1219,-1.9311896763243617,-0.004277084954082966,3.3602099418640137,-1.7148116827011108,0.11248204112052917,2.0971951484680176,5.086652087956228,-0.00015010105562396348,0.24268165230751038,-2.011411968861715,0.0002522037539165467,0.043570730835199356,-0.10062963167299444,-0.0,0.022164568305015564,1.011530876159668,0.00011654368427116424,-0.01599447801709175
265.0,298.0,-2.9013,4.014,8.4826,-0.0412,0.0246,-0.1219,-1.9312135181822718,-0.0050881593488156796,3.408665180206299,-1.7143439054489136,0.11760479211807251,2.085320472717285,5.086692589312353,-0.00016154990589711815,0.23352938890457153,-2.011440102254049,0.00023073791817296296,0.04064607247710228,-0.10062581697572881,-0.0,0.00839737057685852,1.0115306377410889,0.00013284001033753157,0.029686102643609047
265.0,298.0,-2.9013,4.014,8.4826,-0.0412,0.0246,-0.1219,-1.9312783680357875,-0.006167032290250063,3.3495354652404785,-1.713883399963379,0.12185315787792206,2.1057634353637695,5.086704510241308,-0.00018072884995490313,0.2378508746623993,-2.0114157835589808,0.00021256867330521345,0.04930096119642258,-0.10066205659975225,-0.0,0.010034670121967793,1.0115388631820679,0.00014771638961974531,0.04321683570742607
250.0,282.0,-3.262,4.4548,9.1101,-0.0606,0.0522,-0.1501,-1.9312898121275843,-0.0076934415847063065,3.3338561058044434,-1.7134038209915161,0.12297431379556656,2.1186723709106445,5.086672591954031,-0.00019791141676250845,0.23832839727401733,-2.01140004793276,0.00019705224258359522,0.037699144333601,-0.1006701628314417,-0.0,0.024177728220820427,1.0115028619766235,0.0001411307166563347,-0.02112191915512085
250.0,282.0,-3.262,4.4548,9.1101,-0.0606,0.0522,-0.1501,-1.93129362682485,-0.00989796593785286,3.3369829654693604,-1.7126598358154297,0.12466313689947128,2.1805529594421387,5.086612599879064,-0.00020520684483926743,0.24169743061065674,-2.0114157835589808,0.00017760624177753925,0.04551728069782257,-0.10066205659975225,-0.0,0.01185996551066637,1.0115107297897339,0.0003968416713178158,0.010491406545042992
250.0,282.0,-3.262,4.4548,9.1101,-0.0606,0.0522,-0.1501,-1.9314104519286097,-0.01143025141209364,3.3492889404296875,-1.7120840549468994,0.12621736526489258,2.1189656257629395,5.08662827590064,-0.00019568810239434242,0.22943121194839478,-2.0114319960223597,0.0001941695372806862,0.037384577095508575,-0.10067779222597295,-0.0,0.025905992835760117,1.011542797088623,0.00043421436566859484,0.036799248307943344
250.0,282.0,-3.262,4.4548,9.1101,-0.0606,0.0522,-0.1501,-1.9314338169493617,-0.012820633128285408,3.2915031909942627,-1.7115793228149414,0.13023445010185242,2.1053192615509033,5.0867003975208185,-0.0001856053277151659,0.23264920711517334,-2.0114200750934046,0.0001831134723033756,0.03392655774950981,-0.10068160692323858,-0.0,0.00970507599413395,1.0115187168121338,0.0004915726603940129,0.020412538200616837
250.0,282.0,-3.262,4.4548,9.1101,-0.0606,0.0522,-0.1501,-1.9314614735045375,-0.013396103866398335,3.343994617462158,-1.7110519409179688,0.13483931124210358,2.15256929397583,5.086680727988043,-0.00017650485096964985,0.23783129453659058,-2.0114157835589808,0.00019611578318290412,0.05021554231643677,-0.10063010851015264,-0.0,0.014434298500418663,1.011550784111023,0.0006998848984949291,0.08241535723209381
250.0,282.0,-3.262,4.4548,9.1101,-0.0606,0.0522,-0.1501,-1.931554456750387,-0.013950280845165253,3.290048122406006,-1.7105276584625244,0.140012726187706,2.1298770904541016,5.086660283594885,-0.0001682550209807232,0.23879599571228027,-2.0113962332354944,0.000187468554941006,0.024971583858132362,-0.10063344637026006,-0.0,0.01233334094285965,1.011518955230713,0.0006438060663640499,-0.008877617307007313
250.0,282.0,-3.262,4.4548,9.1101,-0.0606,0.0522,-0.1501,-1.931674142877096,-0.016696831211447716,3.307811737060547,-1.709679365158081,0.14379559457302094,2.1542813777923584,5.086644220143118,-0.0002265215734951198,0.23917438089847565,-2.011448685322897,0.00017389122513122857,0.0306396484375,-0.10063821474184209,-0.0,0.02364533208310604,1.0115269422531128,0.0005531922797672451,-0.0029807290993630886
250.0,282.0,-3.262,4.4548,9.1101,-0.0606,0.0522,-0.1501,-1.9317380390562953,-0.019053515046834946,3.2990574836730957,-1.7090587615966797,0.14483806490898132,2.165886163711548,5.086620050459661,-0.00021025855676271021,0.23790156841278076,-2.011388127003805,0.00016587843128945678,0.0435326062142849,-0.10069781938661748,-0.0,0.012137521058321,1.0115625858306885,0.0005367830744944513,0.03850845992565155
250.0,282.0,-3.262,4.4548,9.1101,-0.0606,0.0522,-0.1501,-1.9318019352354945,-0.02295825444161892,3.313260078430176,-1.708539605140686,0.14921405911445618,2.139535903930664,5.086660253792562,-0.00019230516045354307,0.24203088879585266,-2.011460606251852,0.00014494692732114345,0.04464225471019745,-0.10062963167299444,-0.0,0.03265995532274246,1.0115269422531128,0.000512337195686996,-0.011224080808460712
250.0,282.0,-3.262,4.4548,9.1101,-0.0606,0.0522,-0.1501,-1.9319459400572718,-0.026492515578866005,3.29185152053833,-1.7079236507415771,0.15564100444316864,2.153635025024414,5.0866525051887415,-0.00019450290710665286,0.22607065737247467,-2.0113399664508265,0.0001359983580186963,0.042027607560157776,-0.10065013567079717,-0.0,0.007055317051708698,1.011510968208313,0.0004527514975052327,0.03842417523264885
250.0,282.0,-3.262,4.4548,9.1101,-0.0606,0.0522,-0.1501,-1.932049413720602,-0.03062383271753788,3.283115863800049,-1.7073482275009155,0.1546659618616104,2.132619619369507,5.08664424994544,-0.0001969954464584589,0.22960223257541656,-2.0114243666278284,0.0001282451703445986,0.043100371956825256,-0.10072642961610967,-0.0,0.019910618662834167,1.011550784111023,0.0004522310337051749,0.03448283672332764
250.0,282.0,-3.262,4.4548,9.1101,-0.0606,0.0522,-0.1501,-1.9321972332396449,-0.037673044949769974,3.2080936431884766,-1.706411600112915,0.1585916131734848,2.155118465423584,5.086640614062109,-0.00020720905740745366,0.2486170530319214,-2.011428181325094,0.00014175826800055802,0.03434736281633377,-0.10065824190248662,-0.0,0.022090833634138107,1.011530876159668,0.00037216339842416346,0.011636404320597649
250.0,282.0,-3.262,4.4548,9.1101,-0.0606,0.0522,-0.1501,-1.93237366298818,-0.041584618389606476,3.233268976211548,-1.7057435512542725,0.16298094391822815,2.1873793601989746,5.086624133377828,-0.00022208449081517756,0.2352915108203888,-2.011388127003805,0.00013469888654071838,0.03342884033918381,-0.10063773790468389,-0.0,0.008030593395233154,1.0115388631820679,0.00033283408265560865,0.03260638937354088
250.0,282.0,-3.262,4.4548,9.1101,-0.0606,0.0522,-0.1501,-1.9325539074339808,-0.0461418479681015,3.258780002593994,-1.7050955295562744,0.16927316784858704,2.169315814971924,5.086640584259786,-0.00026176078245043755,0.23395293951034546,-2.0113919417010706,0.0001282980665564537,0.04283126816153526,-0.10065013567079717,-0.0,0.02512884885072708,1.011610507965088,0.00030102417804300785,-0.007413653656840324
250.0,282.0,-3.262,4.4548,9.1101,-0.0606,0.0522,-0.1501,-1.9327575169005335,-0.05127286911010742,3.238905906677246,-1.7043507099151611,0.1748521625995636,2.2223870754241943,5.0866525051887415,-0.00025021377950906754,0.23146146535873413,-2.0114243666278284,0.00014219759032130241,0.04095527529716492,-0.10066205659975225,-0.0,0.02996273711323738,1.011530876159668,0.00027476486866362393,0.04334085062146187
250.0,282.0,-3.262,4.4548,9.1101,-0.0606,0.0522,-0.1501,-1.9330297909178675,-0.05705470219254494,3.259981632232666,-1.7036912441253662,0.17951124906539917,2.1793110370635986,5.086644577770986,-0.0002698636380955577,0.22655737400054932,-2.0114567915545862,0.00013668726023752242,0.0507030263543129,-0.10064632097353154,-0.0,0.026254091411828995,1.0115349292755127,0.0002527194155845791,0.00830986350774765
250.0,282.0,-3.262,4.4548,9.1101,-0.0606,0.0522,-0.1501,-1.9333487949767054,-0.06595429033041,3.248441696166992,-1.702618956565857,0.18543817102909088,2.2462644577026367,5.086616742401876,-0.0003030354855582118,0.23117941617965698,-2.0113962332354944,0.0001283364399569109,0.06818756461143494,-0.10063392320741826,-0.0,0.01925831288099289,1.0115625858306885,0.0002255722356494516,-0.0227883942425251
250.0,282.0,-3.262,4.4548,9.1101,-0.0606,0.0522,-0.1501,-1.933641096154684,-0.07278995215892792,3.2314438819885254,-1.7017788887023926,0.18577435612678528,2.2047955989837646,5.086604523449697,-0.00028818094870075583,0.2217632234096527,-2.0114124456988733,0.00012331240577623248,0.05953265354037285,-0.1006701628314417,-0.0,0.015255553647875786,1.0115547180175781,0.00021049822680652142,0.020702645182609558
250.0,282.0,-3.262,4.4548,9.1101,-0.0606,0.0522,-0.1501,-1.9338880978026332,-0.0808420479297638,3.249830961227417,-1.7010341882705688,0.18701428174972534,2.1932334899902344,5.086624878435888,-0.0003927307261619717,0.23703086376190186,-2.0113962332354944,0.00011866681597894058,0.04876060411334038,-0.10071403184999639,-0.0,0.013813717290759087,1.011530876159668,7.69565740483813e-05,-0.008731557987630367
250.0,282.0,-3.262,4.4548,9.1101,-0.0606,0.0522,-0.1501,-1.934301038781637,-0.08642055094242096,3.212771415710449,-1.7004234790802002,0.19344960153102875,2.2605693340301514,5.086560535221853,-0.0003354143991600722,0.23373834788799286,-2.0113800207721155,0.0001296092086704448,0.052626822143793106,-0.10066587129701787,-0.0,0.0324929840862751,1.0115785598754883,7.083754462655634e-05,-0.008926424197852612
256.0,268.0,-3.1681,3.5372,8.336,-0.1312,0.0915,-0.1779,-1.9346486530699671,-0.0907793864607811,3.1770448684692383,-1.6995627880096436,0.2006845772266388,2.277940511703491,5.0866044638450525,-0.00032025709515437484,0.23048049211502075,-2.0114157835589808,0.00012611229612957686,0.042732566595077515,-0.1006858984576624,-0.0,0.012316391803324223,1.0115230083465576,6.566869706148282e-05,-0.020286621525883675
256.0,268.0,-3.1681,3.5372,8.336,-0.1312,0.0915,-0.1779,-1.9352122745909632,-0.09599778056144714,3.2042293548583984,-1.6983472108840942,0.20885875821113586,2.2595462799072266,5.086556482106008,-0.0005551900248974562,0.23077145218849182,-2.011383835469381,0.0001198204408865422,0.04757970571517944,-0.100654427205221,-0.0,0.024202734231948853,1.0115547180175781,5.91901371080894e-05,-0.024170082062482834
256.0,268.0,-3.1681,3.5372,8.336,-0.1312,0.0915,-0.1779,-1.9356242618956507,-0.10006413608789444,3.1984105110168457,-1.697494387626648,0.2111554592847824,2.2512388229370117,5.086589234858312,-0.0015631107380613685,0.23692774772644043,-2.011444393788473,0.00011596083641052246,0.05370873957872391,-0.10067397752870733,-0.0,0.015286678448319435,1.0115705728530884,5.55375954718329e-05,-0.0065623195841908455
256.0,268.0,-3.1681,3.5372,8.336,-0.1312,0.0915,-0.1779,-1.9360958538451136,-0.10378456115722656,3.159473180770874,-1.6966630220413208,0.2099214643239975,2.2488880157470703,5.086585151940145,-0.0015998559538275003,0.2237846553325653,-2.0114768187152308,0.0001123421243391931,0.042656220495700836,-0.10063344637026006,-0.0,0.013064572587609291,1.0115269422531128,5.2309580496512353e-05,-0.037697065621614456
256.0,268.0,-3.1681,3.5372,8.336,-0.1312,0.0915,-0.1779,-1.9364878139891566,-0.10607168823480606,3.1739501953125,-1.695754051208496,0.21155408024787903,2.2781214714050293,5.086576986103811,-0.0015483619645237923,0.22256487607955933,-2.0114124456988733,0.00010894245497183874,0.042482711374759674,-0.10065824190248662,-0.0,0.0051303887739777565,1.0115586519241333,4.9436235713073984e-05,0.018951166421175003
256.0,268.0,-3.1681,3.5372,8.336,-0.1312,0.0915,-0.1779,-1.936967512170309,-0.10771118849515915,3.1697845458984375,-1.6950312852859497,0.21573230624198914,2.243218421936035,5.086544978409567,-0.001714759855531156,0.2304125428199768,-2.011371914540426,0.00010574247426120564,0.04593610763549805,-0.10068208376039678,-0.0,0.0008794688619673252,1.0115586519241333,4.686209649662487e-05,-0.07517140358686447
256.0,268.0,-3.1681,3.5372,8.336,-0.1312,0.0915,-0.1779,-1.9376589260497035,-0.11499714851379395,3.2132680416107178,-1.6937105655670166,0.2208910435438156,2.294322967529297,5.086480963021078,-0.0083742905408144,0.2123035043478012,-2.0113919417010706,0.00010128012945642695,0.030260873958468437,-0.10068208376039678,-0.0,0.014258150942623615,1.0115907192230225,4.346720743342303e-05,0.02138672024011612
256.0,268.0,-3.1681,3.5372,8.336,-0.1312,0.0915,-0.1779,-1.9381143055357875,-0.12320514768362045,3.1572208404541016,-1.6928588151931763,0.22184839844703674,2.2927074432373047,5.086449372559347,-0.020516954362392426,0.21946969628334045,-2.0114157835589808,8.640492160338908e-05,0.03937220200896263,-0.10068208376039678,-0.0,0.009240877814590931,1.0115586519241333,4.146453647990711e-05,0.03528141975402832
256.0,268.0,-3.1681,3.5372,8.336,-0.1312,0.0915,-0.1779,-1.9386502705016078,-0.13456480205059052,3.150527000427246,-1.691934585571289,0.21893608570098877,2.3018479347229004,5.086333352118292,-0.025339048355817795,0.21771138906478882,-2.0113919417010706,8.390034054173157e-05,0.04212044179439545,-0.10064202943910772,-0.0,0.01988222636282444,1.0115867853164673,3.963834387832321e-05,-0.017165018245577812
256.0,268.0,-3.1681,3.5372,8.336,-0.1312,0.0915,-0.1779,-1.9392310581602992,-0.14394736289978027,3.156050205230713,-1.6910263299942017,0.21851250529289246,2.2366068363189697,5.086253750115194,-0.0211310014128685,0.20805472135543823,-2.011387650166647,8.747664105612785e-05,0.0347275584936142,-0.10067397752870733,-0.0,0.008896797895431519,1.0115190744400024,3.796620512730442e-05,0.007523948326706886
256.0,268.0,-3.1681,3.5372,8.336,-0.1312,0.0915,-0.1779,-1.939794202844137,-0.15338480472564697,3.1329705715179443,-1.6900988817214966,0.2217670977115631,2.2950220108032227,5.086210000305929,-0.01207569520920515,0.21579056978225708,-2.01133901277651,9.101042815018445e-05,0.02393271028995514,-0.10064202943910772,-0.0,-0.00020939274691045284,1.0115586519241333,3.6429482861422e-05,-0.014512315392494202
256.0,268.0,-3.1681,3.5372,8.336,-0.1312,0.0915,-0.1779,-1.9406568012633265,-0.16230244934558868,3.1013779640197754,-1.6887791156768799,0.23409800231456757,2.299567937850952,5.0861500082309625,-0.0004862395580857992,0.21947351098060608,-2.011371437703268,8.770875137997791e-05,0.029715130105614662,-0.10062152544130498,-0.0,0.018044956028461456,1.0114988088607788,1.7406993720214814e-05,0.028431301936507225
256.0,268.0,-3.1681,3.5372,8.336,-0.1312,0.0915,-0.1779,-1.941352983514303,-0.1614624410867691,3.1854939460754395,-1.6877542734146118,0.23780596256256104,2.3198087215423584,5.086209970503607,0.0032585712615400553,0.2273067831993103,-2.011371914540426,8.562268340028822e-05,0.045514218509197235,-0.10065013567079717,-0.0,0.01482719462364912,1.0115745067596436,2.261148210891406e-07,-0.012574617750942707
256.0,268.0,-3.1681,3.5372,8.336,-0.1312,0.0915,-0.1779,-1.9420157871642054,-0.15430320799350739,3.167025089263916,-1.6867581605911255,0.2419947236776352,2.3186452388763428,5.086182075529852,0.0018667629919946194,0.22611871361732483,-2.0113442579852503,8.363356755580753e-05,0.04687478765845299,-0.1007302443133753,-0.0,0.019663410261273384,1.0114949941635132,4.069987055710378e-11,-0.018072647973895073
256.0,268.0,-3.1681,3.5372,8.336,-0.1312,0.0915,-0.1779,-1.942700048486227,-0.15364359319210052,3.1941685676574707,-1.6858102083206177,0.2411513328552246,2.3295719623565674,5.086170154600897,0.0002393406757619232,0.21941348910331726,-2.0114038626300257,8.173480455297977e-05,0.044016752392053604,-0.1006701628314417,-0.0,0.0020737755112349987,1.0115028619766235,7.325833800806043e-15,-0.0011650081723928452
256.0,268.0,-3.1681,3.5372,8.336,-0.1312,0.0915,-0.1779,-1.9433356724181117,-0.16101115942001343,3.162938356399536,-1.6848130226135254,0.24188177287578583,2.3006269931793213,5.086186158448019,1.0203468718827935e-06,0.22435620427131653,-2.011420551930563,7.531718438258395e-05,0.050869978964328766,-0.10071403184999639,-0.0,0.004692507907748222,1.011522650718689,1.31862433090242e-18,0.0169227235019207
256.0,268.0,-3.1681,3.5372,8.336,-0.1312,0.0915,-0.1779,-1.9444266758360804,-0.17868968844413757,3.2234385013580322,-1.6834383010864258,0.24203068017959595,2.320802927017212,5.086118060141363,2.840173096707588e-10,0.22224704921245575,-2.0114005247699183,7.112657476682216e-05,0.05770593509078026,-0.10065824190248662,-0.0,0.0031510291155427694,1.0114750862121582,3.184322240902378e-24,-0.03655713051557541
256.0,268.0,-3.1681,3.5372,8.336,-0.1312,0.0915,-0.1779,-1.9451705418028773,-0.1922193020582199,3.146486282348633,-1.6824381351470947,0.2422923892736435,2.350799083709717,5.08610616901473,-0.0015406337333843112,0.22735221683979034,-2.011388603840963,8.227217040257528e-05,0.052525803446769714,-0.10069400468935186,-0.0,0.008929292671382427,1.0115349292755127,5.731667662853522e-28,-0.045238103717565536
256.0,268.0,-3.1681,3.5372,8.336,-0.1312,0.0915,-0.1779,-1.9459058247008265,-0.20212097465991974,3.200413703918457,-1.681441307067871,0.23858310282230377,2.296051502227783,5.086130398302831,-0.0022011722903698683,0.23258939385414124,-2.011371914540426,8.027430885704234e-05,0.04655689746141434,-0.10062581697572881,-0.0,0.0038111230824142694,1.0115067958831787,-0.0005457657389342785,-0.06319740414619446
256.0,268.0,-3.1681,3.5372,8.336,-0.1312,0.0915,-0.1779,-1.9466406307616175,-0.20865671336650848,3.1536765098571777,-1.6805580854415894,0.23657949268817902,2.289796829223633,5.08612214305953,-0.0015232173027470708,0.2299487590789795,-2.011388603840963,9.051479719346389e-05,0.04659333825111389,-0.1006701628314417,-0.0,0.006892935372889042,1.0114672183990479,-0.0017739947652444243,-0.08449964225292206
275.0,254.0,-3.6461,4.0307,8.4718,-0.0454,0.1029,-0.1642,-1.947892805139059,-0.20694600045681,3.137777328491211,-1.679046392440796,0.24349801242351532,2.3740057945251465,5.0861384747321985,0.0004026198585052043,0.24056494235992432,-2.011376682912008,0.00035574205685406923,0.057790279388427734,-0.10068971315492803,-0.0,0.010403526946902275,1.0114749670028687,-0.0021683922968804836,-0.10591156035661697
275.0,254.0,-3.6461,4.0307,8.4718,-0.0454,0.1029,-0.1642,-1.9486352405943812,-0.19929760694503784,3.1475908756256104,-1.6780333518981934,0.24809609353542328,2.3281171321868896,5.086182403355398,0.0005844795377925038,0.22016875445842743,-2.0113561789142054,0.00042688118992373347,0.0655992329120636,-0.10065824190248662,-0.0,0.014198899269104004,1.0114309787750244,-0.0024942781310528517,-0.1012888178229332
275.0,254.0,-3.6461,4.0307,8.4718,-0.0454,0.1029,-0.1642,-1.9494310818114222,-0.19371037185192108,3.197185516357422,-1.6770299673080444,0.25305405259132385,2.3882694244384766,5.086162316590109,0.0004449343541637063,0.22573986649513245,-2.0113523642169397,0.00043317978270351887,0.059170614928007126,-0.10067397752870733,-0.0,0.010084059089422226,1.0114191770553589,-0.0037753204815089703,-0.12545818090438843
275.0,254.0,-3.6461,4.0307,8.4718,-0.0454,0.1029,-0.1642,-1.9502607784666957,-0.1904325932264328,3.238995313644409,-1.6760140657424927,0.25466835498809814,2.3696963787078857,5.086178707867422,0.0003566358354873955,0.2390950322151184,-2.0113561789142054,0.0006260169902816415,0.06586889922618866,-0.10063010851015264,-0.0,0.0041153342463076115,1.0114471912384033,-0.004887744318693876,-0.16682076454162598
275.0,254.0,-3.6461,4.0307,8.4718,-0.0454,0.1029,-0.1642,-1.9510179958739222,-0.19465433061122894,3.177731513977051,-1.6750386953353882,0.25616756081581116,2.397019386291504,5.0861384747321985,0.0002976011310238391,0.23309968411922455,-2.0113285223590296,0.0005164751200936735,0.06281690299510956,-0.10070974031557256,-0.0,0.009677440859377384,1.0113914012908936,-0.006776932626962662,-0.19205403327941895
