ramyac6/ROB537/final_project/csv/bad/bad_155.csv
tof_0,tof_1,accelx,accely,accelz,gyrox,gyroy,gyroz,shoulder_lift_joint_position,shoulder_lift_joint_velocity,shoulder_lift_joint_effort,elbow_joint_position,elbow_joint_velocity,elbow_joint_effort,wrist_1_joint_position,wrist_1_joint_velocity,wrist_1_joint_effort,wrist_2_joint_position,wrist_2_joint_velocity,wrist_2_joint_effort,wrist_3_joint_position,wrist_3_joint_velocity,wrist_3_joint_effort,shoulder_pan_joint_position,shoulder_pan_joint_velocity,shoulder_pan_joint_effort
1014.0,1010.0,-0.3703,0.6305,9.5605,-0.0391,0.0269,-0.1226,-1.7786146603026332,0.0,2.6326680183410645,-2.077165365219116,-0.0,1.7317101955413818,5.374738681107321,-0.0,0.2682415843009949,-1.6385954062091272,0.0,0.006879133637994528,0.7882992625236511,-0.0,-0.009430969133973122,0.7900271415710449,0.0,0.044298674911260605
1014.0,1010.0,-0.3703,0.6305,9.5605,-0.0391,0.0269,-0.1226,-1.7786103687682093,0.0,2.6078341007232666,-2.0771095752716064,-0.0,1.6649413108825684,5.374750602036276,-0.0,0.2839737832546234,-1.6386478582965296,0.0,-0.0053892722353339195,0.7883196473121643,-0.0,0.0009765527211129665,0.7900916337966919,0.0,-0.010009754449129105
1014.0,1010.0,-0.3703,0.6305,9.5605,-0.0391,0.0269,-0.1226,-1.778647085229391,0.0,2.5711963176727295,-2.0771260261535645,-0.0,1.7189338207244873,5.374782252102651,-0.0,0.28222471475601196,-1.6385954062091272,0.0,0.007322846911847591,0.788271427154541,-0.0,-0.0016583839897066355,0.7901319861412048,0.0,-0.027007276192307472
1014.0,1010.0,-0.3703,0.6305,9.5605,-0.0391,0.0269,-0.1226,-1.7786227665343226,0.0,2.6208293437957764,-2.0771498680114746,-0.0,1.700209140777588,5.374734627991476,-0.0,0.28202012181282043,-1.6385915915118616,0.0,0.0016618738882243633,0.788323700428009,-0.0,-0.0008666865178383887,0.7900997996330261,0.0,0.04631361365318298
1014.0,1010.0,-0.3703,0.6305,9.5605,-0.0391,0.0269,-0.1226,-1.77868713955068,0.0,2.575758934020996,-2.077209949493408,-0.0,1.7163324356079102,5.374730515270986,-0.0,0.2858656346797943,-1.6386359373675745,0.0,-0.006925355643033981,0.7882992625236511,-0.0,0.0052954647690057755,0.7901116609573364,0.0,0.05082477256655693
1014.0,1010.0,-0.3703,0.6305,9.5605,-0.0391,0.0269,-0.1226,-1.7785903416075648,0.0,2.5646791458129883,-2.077097177505493,-0.0,1.7109401226043701,5.3747543571288965,-0.0,0.2704695463180542,-1.6385954062091272,0.0,-0.0009536876459605992,0.7883437275886536,-0.0,-0.0029037115164101124,0.7900554537773132,0.0,-0.0170693751424551
1014.0,1010.0,-0.3703,0.6305,9.5605,-0.0391,0.0269,-0.1226,-1.778618951837057,0.0,2.6176300048828125,-2.077169418334961,-0.0,1.699823260307312,5.374730515270986,-0.0,0.28892403841018677,-1.638627831135885,0.0,-0.005128961987793446,0.7883114814758301,-0.0,-0.0016108390409499407,0.7901398539543152,0.0,-0.02443666383624077
1014.0,1010.0,-0.3703,0.6305,9.5605,-0.0391,0.0269,-0.1226,-1.778635164300436,0.0,2.6107869148254395,-2.077157974243164,-0.0,1.6837172508239746,5.374750602036276,-0.0,0.2775825262069702,-1.6386521498309534,0.0,-0.015536632388830185,0.788323700428009,-0.0,0.009476598352193832,0.7900636792182922,0.0,-0.04670807346701622
1014.0,1010.0,-0.3703,0.6305,9.5605,-0.0391,0.0269,-0.1226,-1.7785827122130335,0.0,2.5939741134643555,-2.0771498680114746,-0.0,1.7225446701049805,5.37479447105483,-0.0,0.28259801864624023,-1.6386359373675745,0.0,-0.00414802972227335,0.7882471084594727,-0.0,-0.01049046404659748,0.7900311946868896,0.0,0.03842295706272125
1008.0,1036.0,-0.2441,0.6963,9.3135,-0.0421,0.02,-0.1187,-1.7785984478392542,0.0,2.6778688430786133,-2.0771219730377197,-0.0,1.6916793584823608,5.374750602036276,-0.0,0.2751932144165039,-1.6385749022113245,0.0,0.0020250752568244934,0.7883356213569641,-0.0,-0.009598580189049244,0.7901039123535156,0.0,-0.013558048754930496
1008.0,1036.0,-0.2441,0.6963,9.3135,-0.0421,0.02,-0.1187,-1.778607030908102,0.0,2.5577054023742676,-2.0772058963775635,-0.0,1.7388672828674316,5.374766993313589,-0.0,0.27081549167633057,-1.6386192480670374,0.0,-0.011994577944278717,0.7883074283599854,-0.0,0.004629958886653185,0.790083646774292,0.0,-0.017521459609270096
1008.0,1036.0,-0.2441,0.6963,9.3135,-0.0421,0.02,-0.1187,-1.7786146603026332,0.0,2.6129727363586426,-2.077125310897827,-0.0,1.7407476902008057,5.374769973545828,-0.0,0.28121551871299744,-1.6386192480670374,0.0,-0.000730870699044317,0.7883033752441406,-0.0,-0.014014977030456066,0.7901157736778259,0.0,0.017260519787669182
1008.0,1036.0,-0.2441,0.6963,9.3135,-0.0421,0.02,-0.1187,-1.7786065540709437,0.0,2.5337002277374268,-2.077125310897827,-0.0,1.6713497638702393,5.374762880593099,-0.0,0.2829192578792572,-1.6386192480670374,0.0,-0.004712920635938644,0.7882473468780518,-0.0,0.008371785283088684,0.7900472283363342,0.0,-0.02658098377287388
1008.0,1036.0,-0.2441,0.6963,9.3135,-0.0421,0.02,-0.1187,-1.778630872766012,0.0,2.587613105773926,-2.0771899223327637,-0.0,1.7238152027130127,5.374762522965231,-0.0,0.2801401913166046,-1.6385915915118616,0.0,-0.01537557877600193,0.7883075475692749,-0.0,0.007942130789160728,0.7900877594947815,0.0,-0.04341543838381767
1008.0,1036.0,-0.2441,0.6963,9.3135,-0.0421,0.02,-0.1187,-1.7786227665343226,0.0,2.566326856613159,-2.0771374702453613,-0.0,1.7201778888702393,5.374750602036276,-0.0,0.2808094918727875,-1.6385629812823694,0.0,0.0017242822796106339,0.788323700428009,-0.0,0.0068976981565356255,0.7901039123535156,0.0,0.007482233457267284
1008.0,1036.0,-0.2441,0.6963,9.3135,-0.0421,0.02,-0.1187,-1.7786146603026332,0.0,2.610058307647705,-2.0771334171295166,-0.0,1.6522748470306396,5.37476663568572,-0.0,0.2889900505542755,-1.6386235396014612,0.0,-0.008515691384673119,0.7883033752441406,-0.0,0.010580485686659813,0.7900795340538025,0.0,0.023000188171863556
1008.0,1036.0,-0.2441,0.6963,9.3135,-0.0421,0.02,-0.1187,-1.7786270580687464,0.0,2.6012706756591797,-2.077117919921875,-0.0,1.714806079864502,5.374742555409231,-0.0,0.27323490381240845,-1.6386235396014612,0.0,-0.005335931200534105,0.788271427154541,-0.0,-0.007566222921013832,0.7900956869125366,0.0,-0.023791000247001648
1008.0,1036.0,-0.2441,0.6963,9.3135,-0.0421,0.02,-0.1187,-1.778647085229391,0.0,2.608704090118408,-2.077097177505493,-0.0,1.7245206832885742,5.374762522965231,-0.0,0.2883029878139496,-1.6386435667621058,0.0,-0.00858513917773962,0.7883074283599854,-0.0,-0.0005106322350911796,0.7901319265365601,0.0,0.009818222373723984
1008.0,1036.0,-0.2441,0.6963,9.3135,-0.0421,0.02,-0.1187,-1.7786632976927699,0.0,2.5680091381073,-2.0771334171295166,-0.0,1.692489743232727,5.374722468643942,-0.0,0.27893081307411194,-1.6386635939227503,0.0,-0.005911032669246197,0.7883077263832092,-0.0,-0.0003733087796717882,0.7901039123535156,0.0,0.004259668756276369
1008.0,1036.0,-0.2441,0.6963,9.3135,-0.0421,0.02,-0.1187,-1.7786432705321253,0.0,2.6242504119873047,-2.07714581489563,-0.0,1.744779348373413,5.374770033150472,-0.0,0.2876037657260895,-1.6386154333697718,0.0,-0.004940555430948734,0.7882513403892517,-0.0,0.004667508415877819,0.7900553941726685,0.0,-0.042604416608810425
1008.0,1036.0,-0.2441,0.6963,9.3135,-0.0421,0.02,-0.1187,-1.7786146603026332,0.0,2.546363353729248,-2.0771498680114746,-0.0,1.7248773574829102,5.374818670540609,-0.0,0.27237769961357117,-1.6386435667621058,0.0,0.014261309057474136,0.7882835865020752,-0.0,0.005389383528381586,0.7900795340538025,0.0,-0.030739476904273033
1008.0,1036.0,-0.2441,0.6963,9.3135,-0.0421,0.02,-0.1187,-1.7786103687682093,0.0,2.6250057220458984,-2.077162265777588,-0.0,1.6910762786865234,5.374762522965231,-0.0,0.2930373549461365,-1.6386359373675745,0.0,-0.010063569992780685,0.7883196473121643,-0.0,-0.003820687998086214,0.7900875210762024,0.0,-0.0011185919865965843
1008.0,1036.0,-0.2441,0.6963,9.3135,-0.0421,0.02,-0.1187,-1.7786513767638148,0.0,2.6074464321136475,-2.0771737098693848,-0.0,1.7272707223892212,5.374746548920431,-0.0,0.29143548011779785,-1.6386235396014612,0.0,-0.002655249321833253,0.7882753014564514,-0.0,-0.014847492799162865,0.7901199460029602,0.0,0.011742853559553623
1008.0,1036.0,-0.2441,0.6963,9.3135,-0.0421,0.02,-0.1187,-1.7786909542479457,0.0,2.587839126586914,-2.0771656036376953,-0.0,1.7588586807250977,5.374758529454031,-0.0,0.2763744592666626,-1.6386192480670374,0.0,-0.014291959814727306,0.7882554531097412,-0.0,-0.009810435585677624,0.7901438474655151,0.0,0.01859179139137268
1008.0,1036.0,-0.2441,0.6963,9.3135,-0.0421,0.02,-0.1187,-1.778647085229391,0.0,2.593881368637085,-2.0771777629852295,-0.0,1.7184044122695923,5.374778914242544,-0.0,0.28593379259109497,-1.638627831135885,0.0,-0.010056569240987301,0.7883317470550537,-0.0,0.006578556261956692,0.7901039123535156,0.0,-0.017003946006298065
1008.0,1036.0,-0.2441,0.6963,9.3135,-0.0421,0.02,-0.1187,-1.7786146603026332,0.0,2.5900025367736816,-2.07714581489563,-0.0,1.6647878885269165,5.374754714756765,-0.0,0.2877338230609894,-1.638611141835348,0.0,0.00253212358802557,0.7882792353630066,-0.0,-0.007306160405278206,0.7901080250740051,0.0,0.0046094488352537155
995.0,980.0,-0.3805,0.6646,9.67,-0.0408,0.029,-0.1194,-1.7785984478392542,0.0,2.7012994289398193,-2.077125310897827,-0.0,1.7300089597702026,5.37477062919692,-0.0,0.28258219361305237,-1.638611141835348,0.0,-0.007120142690837383,0.7883356213569641,-0.0,-0.006308885291218758,0.7901079654693604,0.0,0.02393171191215515
995.0,980.0,-0.3805,0.6646,9.67,-0.0408,0.029,-0.1194,-1.778647085229391,0.0,2.5774168968200684,-2.077117681503296,-0.0,1.6911814212799072,5.374738383084097,-0.0,0.2786158323287964,-1.638599697743551,0.0,-0.001969322795048356,0.7883075475692749,-0.0,-0.011224031448364258,0.7900713086128235,0.0,-0.00907320249825716
995.0,980.0,-0.3805,0.6646,9.67,-0.0408,0.029,-0.1194,-1.7785903416075648,0.0,2.592690944671631,-2.0771334171295166,-0.0,1.7448527812957764,5.374770688801565,-0.0,0.2900858223438263,-1.638583008443014,0.0,0.0012719668447971344,0.7883315086364746,-0.0,0.0034734043292701244,0.7900956869125366,0.0,-0.012925057671964169
995.0,980.0,-0.3805,0.6646,9.67,-0.0408,0.029,-0.1194,-1.778659006158346,0.0,2.5909624099731445,-2.0772016048431396,-0.0,1.7399418354034424,5.374734627991476,-0.0,0.27808240056037903,-1.6386192480670374,0.0,0.010699930600821972,0.7883196473121643,-0.0,-0.0036948046181350946,0.7900997996330261,0.0,0.04140178859233856
995.0,980.0,-0.3805,0.6646,9.67,-0.0408,0.029,-0.1194,-1.7785984478392542,0.0,2.589360237121582,-2.077125310897827,-0.0,1.6958677768707275,5.374742555409231,-0.0,0.2805851995944977,-1.638599697743551,0.0,-0.006122823804616928,0.7882754802703857,-0.0,0.003004875034093857,0.7901116609573364,0.0,0.010600103065371513
995.0,980.0,-0.3805,0.6646,9.67,-0.0408,0.029,-0.1194,-1.7785984478392542,0.0,2.5920166969299316,-2.077125310897827,-0.0,1.7282150983810425,5.374750602036276,-0.0,0.2687987685203552,-1.6386397520648401,0.0,-0.0116420928388834,0.7883552312850952,-0.0,-0.00450671324506402,0.7900633215904236,0.0,-1.0851654224097729e-06
995.0,980.0,-0.3805,0.6646,9.67,-0.0408,0.029,-0.1194,-1.7786022625365199,0.0,2.6185574531555176,-2.077185869216919,-0.0,1.7017250061035156,5.374750602036276,-0.0,0.26772889494895935,-1.638611141835348,0.0,-0.0027188949752599,0.7882754802703857,-0.0,-0.003456848207861185,0.7900997996330261,0.0,0.010477985255420208
995.0,980.0,-0.3805,0.6646,9.67,-0.0408,0.029,-0.1194,-1.7785784206786097,0.0,2.6002020835876465,-2.0771734714508057,-0.0,1.6732966899871826,5.374778198986807,-0.0,0.2701299786567688,-1.6386316458331507,0.0,-0.005709280725568533,0.7883114814758301,-0.0,-0.007119953166693449,0.7901278138160706,0.0,0.016673803329467773
995.0,980.0,-0.3805,0.6646,9.67,-0.0408,0.029,-0.1194,-1.7786065540709437,0.0,2.6187965869903564,-2.077169418334961,-0.0,1.7176527976989746,5.374746548920431,-0.0,0.2870332598686218,-1.6386397520648401,0.0,-0.0034195242915302515,0.7883471846580505,-0.0,0.014713618904352188,0.7900513410568237,0.0,-0.0437968373298645
995.0,980.0,-0.3805,0.6646,9.67,-0.0408,0.029,-0.1194,-1.7785903416075648,0.0,2.614245891571045,-2.077141761779785,-0.0,1.7057721614837646,5.374746548920431,-0.0,0.2827208638191223,-1.6385791937457483,0.0,0.004360733553767204,0.7882673740386963,-0.0,-0.004853030666708946,0.7900877594947815,0.0,0.028173506259918213
995.0,980.0,-0.3805,0.6646,9.67,-0.0408,0.029,-0.1194,-1.7786508999266566,0.0,2.5914130210876465,-2.077125310897827,-0.0,1.6838269233703613,5.374774145870962,-0.0,0.26735907793045044,-1.6385987440692347,0.0,-0.0066458191722631454,0.7883196473121643,-0.0,0.004828406032174826,0.7900997996330261,0.0,-0.08474140614271164
995.0,980.0,-0.3805,0.6646,9.67,-0.0408,0.029,-0.1194,-1.7786313496031703,0.0,2.641819953918457,-2.077129364013672,-0.0,1.6859608888626099,5.374750602036276,-0.0,0.2724454700946808,-1.638611141835348,0.0,-0.01620584912598133,0.7882754802703857,-0.0,0.008510163053870201,0.7901238203048706,0.0,0.014499944634735584
995.0,980.0,-0.3805,0.6646,9.67,-0.0408,0.029,-0.1194,-1.7785865269102992,0.0,2.547186851501465,-2.077162265777588,-0.0,1.7633652687072754,5.37475465515212,-0.0,0.2870197296142578,-1.6386235396014612,0.0,-0.00852421298623085,0.7882835865020752,-0.0,-0.008465960621833801,0.7900916337966919,0.0,-0.010193109512329102
995.0,980.0,-0.3805,0.6646,9.67,-0.0408,0.029,-0.1194,-1.7786632976927699,0.0,2.5822651386260986,-2.077162265777588,-0.0,1.7198078632354736,5.374714183598318,-0.0,0.2832331657409668,-1.6386068503009241,0.0,-0.00037632579915225506,0.7883114814758301,-0.0,-0.007243752013891935,0.7900554537773132,0.0,-0.02409188076853752
995.0,980.0,-0.3805,0.6646,9.67,-0.0408,0.029,-0.1194,-1.7786146603026332,0.0,2.6393630504608154,-2.077165365219116,-0.0,1.688431978225708,5.374770688801565,-0.0,0.27764832973480225,-1.6386192480670374,0.0,0.0011801625369116664,0.7882955074310303,-0.0,0.007485199254006147,0.7900956869125366,0.0,-0.026981202885508537
995.0,980.0,-0.3805,0.6646,9.67,-0.0408,0.029,-0.1194,-1.778630872766012,0.0,2.5766687393188477,-2.0771374702453613,-0.0,1.6996301412582397,5.374746548920431,-0.0,0.2616410255432129,-1.6385629812823694,0.0,-0.007286254316568375,0.7883471250534058,-0.0,-0.0015056697884574533,0.7901039719581604,0.0,0.011995052918791771
995.0,980.0,-0.3805,0.6646,9.67,-0.0408,0.029,-0.1194,-1.7786551914610804,0.0,2.5851306915283203,-2.077101230621338,-0.0,1.7288191318511963,5.374734627991476,-0.0,0.2851661741733551,-1.6385310331927698,0.0,0.00036063589504919946,0.7883955240249634,-0.0,-0.008061932399868965,0.790083646774292,0.0,-0.01535046473145485
1001.0,1005.0,-0.3547,0.6371,9.5492,-0.0379,0.0234,-0.1206,-1.7785703144469203,0.0,2.5519635677337646,-2.077162265777588,-0.0,1.741913914680481,5.374710190087118,-0.0,0.29078131914138794,-1.638603989277975,0.0,0.004022978711873293,0.788323700428009,-0.0,0.0007274679956026375,0.7900956869125366,0.0,0.0021142347250133753
1001.0,1005.0,-0.3547,0.6371,9.5492,-0.0379,0.0234,-0.1206,-1.7786389789977015,0.0,2.562609910964966,-2.0771613121032715,-0.0,1.6723097562789917,5.374790537148275,-0.0,0.28744304180145264,-1.6385586897479456,0.0,-0.0003615824971348047,0.7883074283599854,-0.0,-0.0008817750494927168,0.7900472283363342,0.0,-0.025837397202849388
1001.0,1005.0,-0.3547,0.6371,9.5492,-0.0379,0.0234,-0.1206,-1.7786227665343226,0.0,2.5940706729888916,-2.0771572589874268,-0.0,1.7057116031646729,5.37475465515212,-0.0,0.28214073181152344,-1.638627831135885,0.0,0.0015704906545579433,0.7882714867591858,-0.0,-0.0030285902321338654,0.7900956869125366,0.0,0.01956043392419815
1001.0,1005.0,-0.3547,0.6371,9.5492,-0.0379,0.0234,-0.1206,-1.7786227665343226,0.0,2.6574807167053223,-2.077165365219116,-0.0,1.7511069774627686,5.37479459026412,-0.0,0.27449527382850647,-1.638599697743551,0.0,-0.011914331465959549,0.788327693939209,-0.0,0.003105834126472473,0.790083646774292,0.0,-0.010517503134906292
1001.0,1005.0,-0.3547,0.6371,9.5492,-0.0379,0.0234,-0.1206,-1.778618951837057,0.0,2.574295997619629,-2.0771737098693848,-0.0,1.7065794467926025,5.374778198986807,-0.0,0.29240044951438904,-1.6385954062091272,0.0,0.001102291513234377,0.788323700428009,-0.0,0.004255856852978468,0.790083646774292,0.0,-0.039362430572509766
1001.0,1005.0,-0.3547,0.6371,9.5492,-0.0379,0.0234,-0.1206,-1.778659006158346,0.0,2.592796802520752,-2.0771052837371826,-0.0,1.7024188041687012,5.374742555409231,-0.0,0.281724750995636,-1.638583008443014,0.0,-0.006951444316655397,0.7882955074310303,-0.0,0.0030115728732198477,0.7900956869125366,0.0,-0.0004328060895204544
1001.0,1005.0,-0.3547,0.6371,9.5492,-0.0379,0.0234,-0.1206,-1.7786270580687464,0.0,2.6090221405029297,-2.0771777629852295,-0.0,1.7098803520202637,5.374766576081075,-0.0,0.27086880803108215,-1.6385915915118616,0.0,0.0013176503125578165,0.7882513999938965,-0.0,0.00024729035794734955,0.7900674939155579,0.0,0.006236925721168518
1001.0,1005.0,-0.3547,0.6371,9.5492,-0.0379,0.0234,-0.1206,-1.7786432705321253,0.0,2.6324572563171387,-2.077141761779785,-0.0,1.7145185470581055,5.374786364823141,-0.0,0.2775931656360626,-1.6385872999774378,0.0,-0.013857262209057808,0.7883592247962952,-0.0,0.012109881266951561,0.790067732334137,0.0,0.009064137004315853
1001.0,1005.0,-0.3547,0.6371,9.5492,-0.0379,0.0234,-0.1206,-1.7786227665343226,0.0,2.582181930541992,-2.077141761779785,-0.0,1.6932117938995361,5.374758827477255,-0.0,0.28254878520965576,-1.638611141835348,0.0,-0.005663441959768534,0.7882714867591858,-0.0,0.006084563210606575,0.7901039123535156,0.0,0.010002038441598415
1001.0,1005.0,-0.3547,0.6371,9.5492,-0.0379,0.0234,-0.1206,-1.7786103687682093,0.0,2.631659507751465,-2.077141761779785,-0.0,1.720862627029419,5.374726521759786,-0.0,0.279209166765213,-1.638583008443014,0.0,-0.0010116109624505043,0.7882994413375854,-0.0,0.0026245443150401115,0.790083646774292,0.0,0.006819403264671564
1001.0,1005.0,-0.3547,0.6371,9.5492,-0.0379,0.0234,-0.1206,-1.7786103687682093,0.0,2.574150323867798,-2.077113628387451,-0.0,1.7118041515350342,5.374738383084097,-0.0,0.2877263128757477,-1.6386068503009241,0.0,-0.009415917098522186,0.788323700428009,-0.0,0.007704531773924828,0.7900757193565369,0.0,0.004014936275780201
1001.0,1005.0,-0.3547,0.6371,9.5492,-0.0379,0.0234,-0.1206,-1.7786313496031703,0.0,2.6249470710754395,-2.077197551727295,-0.0,1.7114858627319336,5.374722349434652,-0.0,0.2731451392173767,-1.6386235396014612,0.0,0.0034321523271501064,0.7883155941963196,-0.0,-0.010635588318109512,0.7900674939155579,0.0,-0.017710993066430092
1001.0,1005.0,-0.3547,0.6371,9.5492,-0.0379,0.0234,-0.1206,-1.7786389789977015,0.0,2.6020073890686035,-2.077129364013672,-0.0,1.7384577989578247,5.374798643379965,-0.0,0.2917608916759491,-1.6386597792254847,0.0,0.00012798246461898088,0.7882673740386963,-0.0,-0.0015947702340781689,0.7900513410568237,0.0,0.005626703146845102
1001.0,1005.0,-0.3547,0.6371,9.5492,-0.0379,0.0234,-0.1206,-1.7785984478392542,0.0,2.6447672843933105,-2.0771374702453613,-0.0,1.672210454940796,5.374774205475607,-0.0,0.272527277469635,-1.6386554876910608,0.0,0.005875366739928722,0.7882833480834961,-0.0,-0.006114670541137457,0.7900795340538025,0.0,0.005206650123000145
1001.0,1005.0,-0.3547,0.6371,9.5492,-0.0379,0.0234,-0.1206,-1.7786551914610804,0.0,2.5985522270202637,-2.077169418334961,-0.0,1.7447378635406494,5.374782192498007,-0.0,0.276276171207428,-1.6386154333697718,0.0,-0.009133689105510712,0.7883391380310059,-0.0,-0.0075200749561190605,0.7900797724723816,0.0,-0.004889763426035643
1001.0,1005.0,-0.3547,0.6371,9.5492,-0.0379,0.0234,-0.1206,-1.7786876163878382,0.0,2.550556182861328,-2.077185869216919,-0.0,1.709670066833496,5.374722349434652,-0.0,0.29064154624938965,-1.6385954062091272,0.0,0.0033918689005076885,0.7882795333862305,-0.0,0.002344981301575899,0.7900716066360474,0.0,-0.02534995600581169
1001.0,1005.0,-0.3547,0.6371,9.5492,-0.0379,0.0234,-0.1206,-1.7785541019835414,0.0,2.580497980117798,-2.0771539211273193,-0.0,1.6957478523254395,5.374738681107321,-0.0,0.28058362007141113,-1.6385954062091272,0.0,-0.0026621026918292046,0.7882755398750305,-0.0,0.007069176062941551,0.7900674939155579,0.0,0.023066120222210884
996.0,995.0,-0.4026,0.6144,9.6174,-0.0357,0.0247,-0.1248,-1.7786432705321253,0.0,2.542468547821045,-2.0771613121032715,-0.0,1.6918938159942627,5.374766576081075,-0.0,0.2844688296318054,-1.6386197249041956,0.0,0.006242372561246157,0.7883033752441406,-0.0,0.008322513662278652,0.7900754809379578,0.0,-0.0062666041776537895
996.0,995.0,-0.4026,0.6144,9.6174,-0.0357,0.0247,-0.1248,-1.7785827122130335,0.0,2.5707645416259766,-2.0771210193634033,-0.0,1.697985291481018,5.374746548920431,-0.0,0.2825148403644562,-1.6386154333697718,0.0,-0.004348308313637972,0.7882753610610962,-0.0,0.01068655401468277,0.7900674939155579,0.0,-0.018104728311300278
996.0,995.0,-0.4026,0.6144,9.6174,-0.0357,0.0247,-0.1248,-1.7786389789977015,0.0,2.6716132164001465,-2.0771334171295166,-0.0,1.744006872177124,5.374746191292562,-0.0,0.2824518084526062,-1.6385791937457483,0.0,0.0029136158991605043,0.7882554531097412,-0.0,0.003717586165294051,0.790091872215271,0.0,-0.00011015217751264572
996.0,995.0,-0.4026,0.6144,9.6174,-0.0357,0.0247,-0.1248,-1.7786270580687464,0.0,2.594195604324341,-2.0771498680114746,-0.0,1.7111499309539795,5.374762522965231,-0.0,0.2742067873477936,-1.638566795979635,0.0,-0.0008966561872512102,0.788219153881073,-0.0,0.006782207638025284,0.7900554537773132,0.0,-0.0013770852237939835
996.0,995.0,-0.4026,0.6144,9.6174,-0.0357,0.0247,-0.1248,-1.7785984478392542,0.0,2.561483860015869,-2.0771095752716064,-0.0,1.7041816711425781,5.374762522965231,-0.0,0.27985042333602905,-1.6386597792254847,0.0,-0.004981829784810543,0.7883076071739197,-0.0,0.003730256576091051,0.7900795340538025,0.0,-0.00925244577229023
996.0,995.0,-0.4026,0.6144,9.6174,-0.0357,0.0247,-0.1248,-1.7785989246764125,0.0,2.5864388942718506,-2.077169418334961,-0.0,1.683307409286499,5.3747585890586755,-0.0,0.2811644375324249,-1.6386478582965296,0.0,0.009457964450120926,0.7882594466209412,-0.0,-0.010431468486785889,0.7901039123535156,0.0,0.0025510331615805626
996.0,995.0,-0.4026,0.6144,9.6174,-0.0357,0.0247,-0.1248,-1.7786065540709437,0.0,2.5839691162109375,-2.077158212661743,-0.0,1.7208296060562134,5.374750602036276,-0.0,0.2825585603713989,-1.638583008443014,0.0,-0.0025120065547525883,0.7882954478263855,-0.0,0.011290696449577808,0.7900633811950684,0.0,-0.036363452672958374
996.0,995.0,-0.4026,0.6144,9.6174,-0.0357,0.0247,-0.1248,-1.7786227665343226,0.0,2.6255059242248535,-2.077185869216919,-0.0,1.701405644416809,5.374726581364431,-0.0,0.2835333049297333,-1.6386192480670374,0.0,-0.00590831134468317,0.7882514595985413,-0.0,0.0014310568803921342,0.7900877594947815,0.0,-0.008848095312714577
996.0,995.0,-0.4026,0.6144,9.6174,-0.0357,0.0247,-0.1248,-1.7786313496031703,0.0,2.5879955291748047,-2.0771737098693848,-0.0,1.7282164096832275,5.374722349434652,-0.0,0.2863767743110657,-1.6386068503009241,0.0,-0.004258720204234123,0.7883114218711853,-0.0,-0.0006457269773818552,0.7900633811950684,0.0,-0.014299923554062843
996.0,995.0,-0.4026,0.6144,9.6174,-0.0357,0.0247,-0.1248,-1.7786146603026332,0.0,2.588196277618408,-2.0771498680114746,-0.0,1.755376935005188,5.374782192498007,-0.0,0.2796476483345032,-1.6386516729937952,0.0,0.004336307290941477,0.7883155345916748,-0.0,-0.000440831296145916,0.7901360988616943,0.0,-0.020601224154233932
996.0,995.0,-0.4026,0.6144,9.6174,-0.0357,0.0247,-0.1248,-1.7786065540709437,0.0,2.619828701019287,-2.0771777629852295,-0.0,1.681699275970459,5.3747103092964075,-0.0,0.2795027196407318,-1.6385915915118616,0.0,-0.00431470712646842,0.7882992625236511,-0.0,-0.005116560496389866,0.790083646774292,0.0,-0.024486394599080086
996.0,995.0,-0.4026,0.6144,9.6174,-0.0357,0.0247,-0.1248,-1.7785865269102992,0.0,2.5839107036590576,-2.0771498680114746,-0.0,1.6426862478256226,5.374782252102651,-0.0,0.2765728533267975,-1.6385353247271937,0.0,0.011350239627063274,0.7882473468780518,-0.0,0.005056463647633791,0.7901080250740051,0.0,0.0003286499995738268
996.0,995.0,-0.4026,0.6144,9.6174,-0.0357,0.0247,-0.1248,-1.7786103687682093,0.0,2.5732250213623047,-2.077162265777588,-0.0,1.771152138710022,5.374802696495809,-0.0,0.272538423538208,-1.6386192480670374,0.0,-0.005638814065605402,0.7882833480834961,-0.0,0.00818000640720129,0.7900757193565369,0.0,-0.003484107553958893
996.0,995.0,-0.4026,0.6144,9.6174,-0.0357,0.0247,-0.1248,-1.7786313496031703,0.0,2.5479769706726074,-2.077169418334961,-0.0,1.6945586204528809,5.374762522965231,-0.0,0.28692910075187683,-1.6385915915118616,0.0,-0.002350253751501441,0.7882795333862305,-0.0,0.0015056845732033253,0.7900716066360474,0.0,0.030296318233013153
996.0,995.0,-0.4026,0.6144,9.6174,-0.0357,0.0247,-0.1248,-1.778647085229391,0.0,2.6011245250701904,-2.0771334171295166,-0.0,1.722665548324585,5.374802696495809,-0.0,0.2818177342414856,-1.638599697743551,0.0,0.0027840854600071907,0.7883036136627197,-0.0,-0.008409742265939713,0.790083646774292,0.0,-0.031728595495224
996.0,995.0,-0.4026,0.6144,9.6174,-0.0357,0.0247,-0.1248,-1.778659006158346,0.0,2.6358585357666016,-2.077125310897827,-0.0,1.7269172668457031,5.374770033150472,-0.0,0.2881961762905121,-1.6386235396014612,0.0,-0.009572682902216911,0.7882673740386963,-0.0,0.0005360899958759546,0.7900633811950684,0.0,0.0027350327000021935
996.0,995.0,-0.4026,0.6144,9.6174,-0.0357,0.0247,-0.1248,-1.7785827122130335,0.0,2.604968309402466,-2.077165365219116,-0.0,1.715389370918274,5.37475465515212,-0.0,0.28135520219802856,-1.6386316458331507,0.0,0.004854309372603893,0.7883114218711853,-0.0,0.00021725207625422627,0.7900875210762024,0.0,0.026478838175535202
1009.0,996.0,-0.454,0.6102,9.6479,-0.0351,0.022,-0.1197,-1.7785827122130335,0.0,2.5856733322143555,-2.0771572589874268,-0.0,1.691456913948059,5.374765980034628,-0.0,0.2856388986110687,-1.638611141835348,0.0,0.004513224121183157,0.7883155345916748,-0.0,0.00198926217854023,0.7901237607002258,0.0,0.002295456826686859
1009.0,996.0,-0.454,0.6102,9.6479,-0.0351,0.022,-0.1197,-1.7786146603026332,0.0,2.6134743690490723,-2.077141761779785,-0.0,1.7076021432876587,5.374738323479452,-0.0,0.27870211005210876,-1.6385749022113245,0.0,-0.0024308275897055864,0.788343608379364,-0.0,-0.0005738380132243037,0.7901157736778259,0.0,-0.06894806027412415
1009.0,996.0,-0.454,0.6102,9.6479,-0.0351,0.022,-0.1197,-1.7786632976927699,0.0,2.5806827545166016,-2.077129364013672,-0.0,1.7405751943588257,5.374762522965231,-0.0,0.285433828830719,-1.6386154333697718,0.0,-0.006504306569695473,0.7883033752441406,-0.0,0.004026148468255997,0.7901076078414917,0.0,0.054717130959033966
1009.0,996.0,-0.454,0.6102,9.6479,-0.0351,0.022,-0.1197,-1.778630872766012,0.0,2.588259696960449,-2.0771901607513428,-0.0,1.686525821685791,5.374778914242544,-0.0,0.2812967896461487,-1.638611141835348,0.0,-0.009469101205468178,0.7883074283599854,-0.0,-0.007153885439038277,0.7900716066360474,0.0,0.013117346912622452
1009.0,996.0,-0.454,0.6102,9.6479,-0.0351,0.022,-0.1197,-1.7786270580687464,0.0,2.5992860794067383,-2.0771777629852295,-0.0,1.6755363941192627,5.374750602036276,-0.0,0.2744024395942688,-1.6386192480670374,0.0,-0.007729302626103163,0.788343071937561,-0.0,0.004677451681345701,0.7900795340538025,0.0,0.013272862881422043
1009.0,996.0,-0.454,0.6102,9.6479,-0.0351,0.022,-0.1197,-1.7786551914610804,0.0,2.55104398727417,-2.0771334171295166,-0.0,1.7168508768081665,5.374750602036276,-0.0,0.28042709827423096,-1.6386192480670374,0.0,0.007690382190048695,0.788383424282074,-0.0,-0.002803757321089506,0.7900956869125366,0.0,-0.056011151522397995
1009.0,996.0,-0.454,0.6102,9.6479,-0.0351,0.022,-0.1197,-1.7786227665343226,0.0,2.6528310775756836,-2.077129364013672,-0.0,1.7580969333648682,5.374714243202963,-0.0,0.2666146755218506,-1.638627831135885,0.0,0.0026677127461880445,0.7883113622665405,-0.0,-0.004900820087641478,0.7900959253311157,0.0,0.00023978110402822495
1009.0,996.0,-0.454,0.6102,9.6479,-0.0351,0.022,-0.1197,-1.7786146603026332,0.0,2.584946632385254,-2.0772016048431396,-0.0,1.662995457649231,5.374750602036276,-0.0,0.2895128130912781,-1.638627831135885,0.0,-0.0020455066114664078,0.7882833480834961,-0.0,0.0029336533043533564,0.7901080250740051,0.0,-0.005539784207940102
1009.0,996.0,-0.454,0.6102,9.6479,-0.0351,0.022,-0.1197,-1.778618951837057,0.0,2.6465063095092773,-2.0771219730377197,-0.0,1.6860196590423584,5.374754714756765,-0.0,0.27718842029571533,-1.6385753790484827,0.0,-0.01622150093317032,0.7883236408233643,-0.0,-0.004345503635704517,0.7900674939155579,0.0,0.017297351732850075
1009.0,996.0,-0.454,0.6102,9.6479,-0.0351,0.022,-0.1197,-1.778618951837057,0.0,2.5771536827087402,-2.07714581489563,-0.0,1.7277607917785645,5.374778198986807,-0.0,0.28065168857574463,-1.6386316458331507,0.0,-0.002563221612945199,0.7883276343345642,-0.0,-0.000252473633736372,0.7900552153587341,0.0,-0.026940643787384033
1009.0,996.0,-0.454,0.6102,9.6479,-0.0351,0.022,-0.1197,-1.7786270580687464,0.0,2.6093807220458984,-2.0771334171295166,-0.0,1.6775639057159424,5.374794530659475,-0.0,0.2803837060928345,-1.6386154333697718,0.0,-0.004789914935827255,0.7882555723190308,-0.0,0.006195404566824436,0.7901198863983154,0.0,-0.02675265446305275
1009.0,996.0,-0.454,0.6102,9.6479,-0.0351,0.022,-0.1197,-1.778574129144186,0.0,2.615652561187744,-2.0771334171295166,-0.0,1.7120987176895142,5.374762522965231,-0.0,0.2799752652645111,-1.638627831135885,0.0,0.007661536335945129,0.7882595062255859,-0.0,-0.004269652999937534,0.7900795340538025,0.0,-0.015058193355798721
1009.0,996.0,-0.454,0.6102,9.6479,-0.0351,0.022,-0.1197,-1.7786632976927699,0.0,2.5959460735321045,-2.07714581489563,-0.0,1.7093300819396973,5.3747469065483,-0.0,0.28236716985702515,-1.638611141835348,0.0,0.006517696660012007,0.788327693939209,-0.0,-0.004210314713418484,0.7901239395141602,0.0,0.028818152844905853
1009.0,996.0,-0.454,0.6102,9.6479,-0.0351,0.022,-0.1197,-1.7786022625365199,0.0,2.6022400856018066,-2.077141523361206,-0.0,1.7007404565811157,5.374830591469564,-0.0,0.28397703170776367,-1.638599697743551,0.0,0.011731263250112534,0.7883155345916748,-0.0,0.009708886034786701,0.7901116609573364,0.0,0.016627594828605652
1009.0,996.0,-0.454,0.6102,9.6479,-0.0351,0.022,-0.1197,-1.7786346874632777,0.0,2.5620851516723633,-2.077158212661743,-0.0,1.7511708736419678,5.374778198986807,-0.0,0.2728576362133026,-1.6385706106769007,0.0,-0.007042113225907087,0.7883113622665405,-0.0,-0.0006394302472472191,0.7901278138160706,0.0,-0.0336928516626358
1009.0,996.0,-0.454,0.6102,9.6479,-0.0351,0.022,-0.1197,-1.7786833248534144,0.0,2.586634635925293,-2.0772223472595215,-0.0,1.6735451221466064,5.374770033150472,-0.0,0.2775355577468872,-1.6385915915118616,0.0,0.006490112282335758,0.7883113622665405,-0.0,0.005743764340877533,0.7900997996330261,0.0,-0.010826187208294868
1009.0,996.0,-0.454,0.6102,9.6479,-0.0351,0.022,-0.1197,-1.7786146603026332,0.0,2.573011875152588,-2.0771737098693848,-0.0,1.7210156917572021,5.374782252102651,-0.0,0.2717185616493225,-1.6386068503009241,0.0,0.00208274950273335,0.7883236408233643,-0.0,0.00099721341393888,0.7900513410568237,0.0,-0.01926874741911888
1010.0,8190.0,-0.3655,0.594,9.6072,-0.0409,0.0212,-0.1275,-1.778675218621725,0.0,2.604726791381836,-2.077185869216919,-0.0,1.7056639194488525,5.374778198986807,-0.0,0.27411916851997375,-1.6386192480670374,0.0,-0.0013048048131167889,0.7882992625236511,-0.0,-0.012128379195928574,0.7900514006614685,0.0,0.037361159920692444
1010.0,8190.0,-0.3655,0.594,9.6072,-0.0409,0.0212,-0.1275,-1.7786103687682093,0.0,2.583244800567627,-2.077130079269409,-0.0,1.725456953048706,5.374734627991476,-0.0,0.2811756134033203,-1.6386235396014612,0.0,0.00782784167677164,0.7882715463638306,-0.0,0.009367131628096104,0.7901034951210022,0.0,-0.021427366882562637
1010.0,8190.0,-0.3655,0.594,9.6072,-0.0409,0.0212,-0.1275,-1.778618951837057,0.0,2.5775022506713867,-2.077169418334961,-0.0,1.6694797277450562,5.374810504704275,-0.0,0.275354266166687,-1.6386192480670374,0.0,-0.007775922305881977,0.788343071937561,-0.0,0.004867918323725462,0.7900795340538025,0.0,-0.014347503893077374
1010.0,8190.0,-0.3655,0.594,9.6072,-0.0409,0.0212,-0.1275,-1.7786513767638148,0.0,2.599778175354004,-2.077129364013672,-0.0,1.7175123691558838,5.37475465515212,-0.0,0.29059839248657227,-1.638599697743551,0.0,0.0006488659419119358,0.788347065448761,-0.0,0.002804287476465106,0.7900472283363342,0.0,0.0016356074484065175
1010.0,8190.0,-0.3655,0.594,9.6072,-0.0409,0.0212,-0.1275,-1.778659006158346,0.0,2.6076431274414062,-2.077181816101074,-0.0,1.705730676651001,5.374782252102651,-0.0,0.2602207660675049,-1.6385954062091272,0.0,-0.003384427633136511,0.7882954478263855,-0.0,0.004831318743526936,0.7900716066360474,0.0,-0.0028749406337738037
1010.0,8190.0,-0.3655,0.594,9.6072,-0.0409,0.0212,-0.1275,-1.7786103687682093,0.0,2.595630168914795,-2.077162027359009,-0.0,1.6833139657974243,5.374730515270986,-0.0,0.2792498767375946,-1.6386435667621058,0.0,0.0047853318974375725,0.7883672714233398,-0.0,-0.005585557781159878,0.7900956869125366,0.0,-0.02161397412419319
1010.0,8190.0,-0.3655,0.594,9.6072,-0.0409,0.0212,-0.1275,-1.7786551914610804,0.0,2.603625535964966,-2.0771613121032715,-0.0,1.6961109638214111,5.374770033150472,-0.0,0.2744401693344116,-1.6385954062091272,0.0,0.007978476583957672,0.7883076071739197,-0.0,0.0031562657095491886,0.7900916337966919,0.0,-0.05492059513926506
1010.0,8190.0,-0.3655,0.594,9.6072,-0.0409,0.0212,-0.1275,-1.778586050073141,0.0,2.6054482460021973,-2.0771737098693848,-0.0,1.774714708328247,5.37475465515212,-0.0,0.2987053394317627,-1.638566795979635,0.0,0.0026339786127209663,0.7882674336433411,-0.0,-0.0075676096603274345,0.7901039123535156,0.0,0.02609323523938656
1010.0,8190.0,-0.3655,0.594,9.6072,-0.0409,0.0212,-0.1275,-1.7786270580687464,0.0,2.5818729400634766,-2.07716965675354,-0.0,1.7010314464569092,5.374766576081075,-0.0,0.28476089239120483,-1.6386154333697718,0.0,0.007909991778433323,0.7882274389266968,-0.0,-0.009892947971820831,0.7901157736778259,0.0,0.018520740792155266
1010.0,8190.0,-0.3655,0.594,9.6072,-0.0409,0.0212,-0.1275,-1.7786146603026332,0.0,2.6119472980499268,-2.0771613121032715,-0.0,1.7107545137405396,5.374730515270986,-0.0,0.27225780487060547,-1.6385791937457483,0.0,0.0014402486849576235,0.7883591651916504,-0.0,-0.006991370115429163,0.7901278138160706,0.0,0.019522348418831825
1010.0,8190.0,-0.3655,0.594,9.6072,-0.0409,0.0212,-0.1275,-1.7786065540709437,0.0,2.5887722969055176,-2.0771498680114746,-0.0,1.7324752807617188,5.374730515270986,-0.0,0.2627638578414917,-1.6386030356036585,0.0,-0.001280933152884245,0.7882954478263855,-0.0,0.006905147805809975,0.7900350689888,0.0,0.010245321318507195
1010.0,8190.0,-0.3655,0.594,9.6072,-0.0409,0.0212,-0.1275,-1.7786394558348597,0.0,2.571563243865967,-2.0772058963775635,-0.0,1.7185041904449463,5.374742853432455,-0.0,0.28032609820365906,-1.6386435667621058,0.0,-0.0051399110816419125,0.7883310317993164,-0.0,-0.004077267833054066,0.7900997996330261,0.0,-0.02550988644361496
1010.0,8190.0,-0.3655,0.594,9.6072,-0.0409,0.0212,-0.1275,-1.778630872766012,0.0,2.6257596015930176,-2.077209949493408,-0.0010567974532023072,1.7079379558563232,5.374710547714987,-5.918606493793277e-09,0.2945770025253296,-1.6386154333697718,0.0,-0.01095834281295538,0.788275420665741,-0.0,-0.005467664450407028,0.790083646774292,0.0,0.06489799916744232
1010.0,8190.0,-0.3655,0.594,9.6072,-0.0409,0.0212,-0.1275,-1.7786432705321253,0.0,2.5966897010803223,-2.07719349861145,-0.0015404305886477232,1.713665246963501,5.374750959664144,-0.0008256537257693708,0.28023698925971985,-1.6385906378375452,0.0,-0.010199040174484253,0.7883551716804504,-0.0,0.0022310540080070496,0.790071427822113,0.0,-0.035282738506793976
1010.0,8190.0,-0.3655,0.594,9.6072,-0.0409,0.0212,-0.1275,-1.778670450250143,-0.0013920830097049475,2.5445590019226074,-2.0772461891174316,-0.0011176079278811812,1.7337396144866943,5.374706792622366,-0.0016721535939723253,0.2884214222431183,-1.6386273542987269,0.0,0.0026096536312252283,0.7883589863777161,-0.0,0.0002713568974286318,0.7900997996330261,0.0,0.01245275791734457
1010.0,8190.0,-0.3655,0.594,9.6072,-0.0409,0.0212,-0.1275,-1.778703352014059,-0.0026706603821367025,2.5705738067626953,-2.0771572589874268,-0.0007682328578084707,1.6429898738861084,5.3746662614639185,-0.0022660724353045225,0.27985668182373047,-1.6386550108539026,0.0,-0.016421908512711525,0.7882992625236511,-0.0,0.003701763227581978,0.7901114225387573,0.0,0.007325132843106985
1010.0,8190.0,-0.3655,0.594,9.6072,-0.0409,0.0212,-0.1275,-1.778670450250143,-0.0031590491998940706,2.5957353115081787,-2.077181100845337,-0.0005979523994028568,1.731574296951294,5.3746986267860315,-0.0020096467342227697,0.28851568698883057,-1.6386473814593714,0.0,-0.006453445181250572,0.7883115410804749,-0.0,0.001456551719456911,0.7900754809379578,0.0,-0.004775813315063715
999.0,8190.0,-0.5456,0.652,9.5659,-0.0437,0.0211,-0.115,-1.7787109814085902,-0.0035242729354649782,2.5849547386169434,-2.077221393585205,-0.0004487977421376854,1.714697241783142,5.3746989844139,-0.0014246519422158599,0.281644731760025,-1.638639275227682,0.0,-0.014226822182536125,0.7882555723190308,-0.0,-0.009606096893548965,0.7901116609573364,0.0003931288665626198,-0.0144874919205904
999.0,8190.0,-0.5456,0.652,9.5659,-0.0437,0.0211,-0.115,-1.778759618798727,-0.003270129207521677,2.6029372215270996,-2.077197551727295,-0.00032005668617784977,1.6633102893829346,5.374658453255453,-0.0007401769980788231,0.28121742606163025,-1.6386836210833948,0.0,0.0025304765440523624,0.7883314490318298,-0.0,-0.0016125007532536983,0.7901315689086914,0.0003114919818472117,0.00975293293595314
999.0,8190.0,-0.5456,0.652,9.5659,-0.0437,0.0211,-0.115,-1.778715272943014,-0.002466038800776005,2.6176528930664062,-2.0772461891174316,-0.00026419194182381034,1.637973427772522,5.374690758972921,-0.0005563807208091021,0.2802621126174927,-1.6386717001544397,0.0,-0.009597714059054852,0.7883355021476746,-0.0,-0.009741897694766521,0.7901397347450256,0.0002736058959271759,-0.023821186274290085
999.0,8190.0,-0.5456,0.652,9.5659,-0.0437,0.0211,-0.115,-1.778759618798727,-0.0015374996000900865,2.6048223972320557,-2.077253580093384,-0.00022462107881437987,1.7564525604248047,5.374690758972921,-0.0004056576290167868,0.26377129554748535,-1.6386068503009241,0.0,0.0002021327381953597,0.7883115410804749,-0.0,0.009003875777125359,0.7901076078414917,0.00023139335098676383,0.006931616924703121
999.0,8190.0,-0.5456,0.652,9.5659,-0.0437,0.0211,-0.115,-1.7787348232665003,-0.0007678325055167079,2.5959320068359375,-2.077221393585205,-0.00019536365289241076,1.7199070453643799,5.374650704651632,-0.0003192453586962074,0.2832087278366089,-1.6386516729937952,0.0,0.0001350189559161663,0.7883235216140747,-0.0,0.0020153061486780643,0.7901034951210022,0.00020046657300554216,0.02915971353650093
999.0,8190.0,-0.5456,0.652,9.5659,-0.0437,0.0211,-0.115,-1.778726717034811,-0.0006845502066425979,2.56148624420166,-2.077221393585205,-0.00017975486116483808,1.682513952255249,5.374690699368276,-0.000327891408232972,0.2786377966403961,-1.638667408620016,0.0,0.0017971424385905266,0.788295328617096,-0.0,0.0048843864351511,0.7901401519775391,0.0001599083043402061,0.04155827686190605
999.0,8190.0,-0.5456,0.652,9.5659,-0.0437,0.0211,-0.115,-1.7787391148009242,-0.000850191805511713,2.6038522720336914,-2.077214002609253,-0.00016051814600359648,1.7564244270324707,5.374670791416921,-0.0003705445269588381,0.2691677212715149,-1.6386435667621058,0.0,-0.0014318377943709493,0.7883391976356506,-0.0,0.00212341221049428,0.7901237607002258,0.00013115738693159074,-0.014324547722935677
999.0,8190.0,-0.5456,0.652,9.5659,-0.0437,0.0211,-0.115,-1.7787753544249476,-0.0015783145790919662,2.6256651878356934,-2.077214002609253,-0.00014500059478450567,1.73992919921875,5.374670731812277,-0.0003671973536256701,0.2740100026130676,-1.6386359373675745,0.0,-0.008766665123403072,0.7882755398750305,-0.0,-0.005377814639359713,0.7900875210762024,0.00011823426029877737,0.007293734699487686
999.0,8190.0,-0.5456,0.652,9.5659,-0.0437,0.0211,-0.115,-1.7787634334959925,-0.002161814132705331,2.632599353790283,-2.0772459506988525,-0.00013622170081362128,1.7246257066726685,5.374694931298055,-0.0015235745813697577,0.2728832960128784,-1.6386397520648401,0.0,-0.009804211556911469,0.7882793545722961,-0.0,0.014479627832770348,0.7901519536972046,0.00011094646470155567,-0.025988824665546417
999.0,8190.0,-0.5456,0.652,9.5659,-0.0437,0.0211,-0.115,-1.778811594048971,-0.0021417674142867327,2.5834622383117676,-2.077197551727295,-0.000124880883959122,1.724161982536316,5.374662923603811,-0.002620710525661707,0.27800852060317993,-1.6385915915118616,0.0,-0.00030401069670915604,0.7883155345916748,-0.0,-0.006903929635882378,0.7901196479797363,8.48687268444337e-05,-0.02587667666375637
999.0,8190.0,-0.5456,0.652,9.5659,-0.0437,0.0211,-0.115,-1.77879061321401,-0.0018854752415791154,2.6176586151123047,-2.0772335529327393,-0.00011528313189046457,1.7149467468261719,5.374670970230856,-0.003173012286424637,0.2745068669319153,-1.6386359373675745,0.0,0.0010968911228701472,0.7883033752441406,-0.0,-0.005706345662474632,0.7901196479797363,7.022448698990047e-05,0.016560329124331474
999.0,8190.0,-0.5456,0.652,9.5659,-0.0437,0.0211,-0.115,-1.7788030109801234,-0.0015612124698236585,2.627606153488159,-2.0772223472595215,-0.00010966422269120812,1.7242872714996338,5.374590742378988,-0.004118797369301319,0.2869125306606293,-1.6386635939227503,0.0,-0.012772055342793465,0.788251519203186,-0.0,0.0009340683463960886,0.7900997996330261,6.67520725983195e-05,0.03822930157184601
999.0,8190.0,-0.5456,0.652,9.5659,-0.0437,0.0211,-0.115,-1.7788111172118128,-0.0012008340563625097,2.541060447692871,-2.077165365219116,-8.2034821389243e-05,1.7227057218551636,5.374559151917257,-0.006321204826235771,0.27687573432922363,-1.6386435667621058,0.0,0.00566184101626277,0.7883115410804749,-0.0,0.007687116973102093,0.7900755405426025,-1.3233150639280211e-05,0.03490286320447922
999.0,8190.0,-0.5456,0.652,9.5659,-0.0437,0.0211,-0.115,-1.7788111172118128,-0.0012572270352393389,2.6041293144226074,-2.0771656036376953,-7.820254541002214e-05,1.677411675453186,5.374531197338857,-0.007142070680856705,0.2756245732307434,-1.638611141835348,0.0,0.00039103091694414616,0.7882874608039856,-0.0,0.00578969344496727,0.7900716066360474,-4.966315464116633e-05,-0.03841274976730347
999.0,8190.0,-0.5456,0.652,9.5659,-0.0437,0.0211,-0.115,-1.7788392506041468,-0.0015898128040134907,2.6044163703918457,-2.0772058963775635,-7.341792661463842e-05,1.6972191333770752,5.37453572729186,-0.006213882006704807,0.27779194712638855,-1.6386068503009241,0.0,0.0026232553645968437,0.7882993221282959,-0.0,-0.009118365123867989,0.7900997996330261,-4.587270086631179e-05,-0.04312092810869217
999.0,8190.0,-0.5456,0.652,9.5659,-0.0437,0.0211,-0.115,-1.778863092462057,-0.001905033248476684,2.601195812225342,-2.07719349861145,-6.918513827258721e-05,1.732762098312378,5.374451625138082,-0.004068909678608179,0.2697821259498596,-1.6386192480670374,0.0,-0.005747693590819836,0.7883391380310059,-0.0,-0.008507545106112957,0.7901116609573364,-4.261461799615063e-05,-0.023450888693332672
999.0,8190.0,-0.5456,0.652,9.5659,-0.0437,0.0211,-0.115,-1.7788387737669886,-0.0021773739717900753,2.628844738006592,-2.0772294998168945,-6.66243868181482e-05,1.6804277896881104,5.374403345375814,-0.0024476065300405025,0.2777778208255768,-1.6385749022113245,0.0,0.009605754166841507,0.7883113622665405,-0.0,0.0034657390788197517,0.7901039123535156,-4.068800626555458e-05,-0.012076999992132187
1027.0,1004.0,-0.1561,0.5025,9.3003,-0.0542,0.0078,-0.1284,-1.7788549862303675,-0.0022589843720197678,2.6198081970214844,-2.0772056579589844,-6.311998004093766e-05,1.7182269096374512,5.374407398491659,-0.0009416317916475236,0.29096391797065735,-1.6386068503009241,0.0,-0.0018086051568388939,0.7883195877075195,-0.0,-0.0061444006860256195,0.7901116609573364,-3.8104084524093196e-05,-0.03280043601989746
1027.0,1004.0,-0.1561,0.5025,9.3003,-0.0542,0.0078,-0.1284,-1.778875013391012,-0.0023085307329893112,2.5927186012268066,-2.0771613121032715,-4.4998250814387575e-05,1.6770243644714355,5.374423730164327,-0.0005773910088464618,0.2734106779098511,-1.6386678854571741,0.0,-0.015371953137218952,0.7883551120758057,-0.0,0.0006634310120716691,0.7901034951210022,-3.582868885132484e-05,-0.013139985501766205
1027.0,1004.0,-0.1561,0.5025,9.3003,-0.0542,0.0078,-0.1284,-1.77893128017568,-0.0019431926775723696,2.5982439517974854,-2.0771572589874268,-4.3524374632397667e-05,1.7145699262619019,5.374419617443838,-0.0005506546585820615,0.28432780504226685,-1.6386235396014612,0.0,-0.007308447267860174,0.788362979888916,-0.0,-0.007296615280210972,0.7900513410568237,-3.445700349402614e-05,0.026084640994668007
1027.0,1004.0,-0.1561,0.5025,9.3003,-0.0542,0.0078,-0.1284,-1.7789150677123011,-0.0016345157055184245,2.6153736114501953,-2.0771737098693848,4.322416862123646e-05,1.760221242904663,5.3745160577590845,-0.0004871603741776198,0.28673070669174194,-1.6386192480670374,0.0,0.0012462770100682974,0.788343071937561,-0.0,-0.0052271378226578236,0.7900956869125366,-4.887745308224112e-05,-0.02103113941848278
1027.0,1004.0,-0.1561,0.5025,9.3003,-0.0542,0.0078,-0.1284,-1.7789150677123011,-0.0013437701854854822,2.585099935531616,-2.0771572589874268,4.142352190683596e-05,1.7025814056396484,5.374451625138082,-0.0004405707586556673,0.26863113045692444,-1.638611141835348,0.0,0.005905449390411377,0.7882555723190308,-0.0,-0.005789896473288536,0.7901198863983154,-4.6360717533389106e-05,-0.017372416332364082
1027.0,1004.0,-0.1561,0.5025,9.3003,-0.0542,0.0078,-0.1284,-1.7789069614806117,-0.0010620290413498878,2.6163887977600098,-2.07716965675354,5.358469934435561e-05,1.688076376914978,5.374415623932638,-0.00040433547110296786,0.2847770154476166,-1.6385954062091272,0.0,-0.00788338202983141,0.7883355021476746,-0.0,-0.017086882144212723,0.7900716066360474,-4.482150689000264e-05,0.024958625435829163
1027.0,1004.0,-0.1561,0.5025,9.3003,-0.0542,0.0078,-0.1284,-1.7789398632445277,-0.0008092941134236753,2.627436876296997,-2.077209711074829,6.411362119251862e-05,1.696995496749878,5.374423730164327,-0.00024367614241782576,0.26859408617019653,-1.6385749022113245,0.0,0.01300128549337387,0.7883351445198059,-0.0,-0.020791344344615936,0.7900997996330261,-4.269526471034624e-05,0.013337082229554653
1027.0,1004.0,-0.1561,0.5025,9.3003,-0.0542,0.0078,-0.1284,-1.7789074383177699,-0.0006675496115349233,2.581684112548828,-2.0771901607513428,0.00032624928280711174,1.695801019668579,5.374427783280172,-0.00020926182332914323,0.2828417420387268,-1.6385472456561487,0.0,-0.007452931255102158,0.7882834076881409,-0.0,0.005175331607460976,0.7901076078414917,-4.0761588024906814e-05,0.0034301590640097857
1027.0,1004.0,-0.1561,0.5025,9.3003,-0.0542,0.0078,-0.1284,-1.7789231739439906,-0.0005692914128303528,2.603975772857666,-2.0771539211273193,0.00034202798269689083,1.7011687755584717,5.374447989254751,-0.00021017833205405623,0.2923824191093445,-1.6385954062091272,0.0,-0.009484367445111275,0.7883076071739197,-0.0,0.011280020698904991,0.7901076078414917,-3.9566912164445966e-05,0.00023291585966944695
1027.0,1004.0,-0.1561,0.5025,9.3003,-0.0542,0.0078,-0.1284,-1.7789679966368617,-0.0003651595616247505,2.5993666648864746,-2.077113628387451,0.00038536294596269727,1.7825374603271484,5.374423730164327,-0.00020372790459077805,0.2756269872188568,-1.638599697743551,0.0,0.0008765510283410549,0.7883314490318298,-0.0,-0.008159766905009747,0.7900956273078918,-3.790069240494631e-05,-0.005071475636214018
1027.0,1004.0,-0.1561,0.5025,9.3003,-0.0542,0.0078,-0.1284,-1.7789150677123011,-0.00029365430236794055,2.5934019088745117,-2.0770931243896484,0.0006284049013629556,1.7016777992248535,5.374443757324972,-0.00018301617819815874,0.2820403277873993,-1.638611141835348,0.0,-0.01477421261370182,0.7883274555206299,-0.0,-0.0016955732135102153,0.7901116609573364,-3.636913243099116e-05,-0.03581898286938667
1027.0,1004.0,-0.1561,0.5025,9.3003,-0.0542,0.0078,-0.1284,-1.7789560757079066,-0.00025974807795137167,2.5742697715759277,-2.077117919921875,0.0006071499665267766,1.7175614833831787,5.374423730164327,-0.0001713965175440535,0.28888535499572754,-1.638611141835348,0.0,-0.0027999754529446363,0.7883274555206299,-0.0,-2.6192981749773026e-05,0.7901319265365601,-3.541507976478897e-05,-0.0009547844529151917
1027.0,1004.0,-0.1561,0.5025,9.3003,-0.0542,0.0078,-0.1284,-1.7789317570128382,-0.0002214041305705905,2.570411205291748,-2.0771260261535645,0.0007454093429259956,1.706281304359436,5.374411451607504,-0.0001564935955684632,0.2819506824016571,-1.6386030356036585,0.0,-0.008002758026123047,0.7883351445198059,-0.0,0.006451609544456005,0.7900795340538025,-2.2716201783623546e-05,-0.03298409283161163
1027.0,1004.0,-0.1561,0.5025,9.3003,-0.0542,0.0078,-0.1284,-1.7789074383177699,-0.00020156861864961684,2.589787006378174,-2.0771217346191406,0.0007224842556752264,1.7011020183563232,5.374427783280172,-0.00014791960711590946,0.287272572517395,-1.6386316458331507,0.0,-0.003473046235740185,0.7883195281028748,-0.0,0.012811174616217613,0.7901359796524048,-2.215694621554576e-05,-0.0632537454366684
1027.0,1004.0,-0.1561,0.5025,9.3003,-0.0542,0.0078,-0.1284,-1.7788831196227015,-0.00017768917314242572,2.579021453857422,-2.0771260261535645,0.0009249050635844469,1.717970848083496,5.3744356510932825,-0.000136686532641761,0.2872670888900757,-1.638583008443014,0.0,-0.007099417503923178,0.7883310914039612,-0.0,0.007895803079009056,0.7900794744491577,-2.1367892259149812e-05,0.0007916651666164398
1027.0,1004.0,-0.1561,0.5025,9.3003,-0.0542,0.0078,-0.1284,-1.7789074383177699,-0.00015886880282778293,2.628602981567383,-2.0771381855010986,0.0009041391895152628,1.7355449199676514,5.374395477562704,-0.0001586066500749439,0.28352969884872437,-1.6385954062091272,0.0,-0.010463401675224304,0.7882793545722961,-0.0,-0.004128393717110157,0.7900875210762024,-2.063308420474641e-05,-0.014600548893213272
1027.0,1004.0,-0.1561,0.5025,9.3003,-0.0542,0.0078,-0.1284,-1.7788831196227015,-0.00014839089999441057,2.5856881141662598,-2.077061176300049,0.0008985536405816674,1.6975131034851074,5.374452042370596,-0.00016127807612065226,0.27007412910461426,-1.6386078039752405,2.1112949610824217e-08,0.003409150755032897,0.7883235216140747,-0.0,0.013393424451351166,0.7901278138160706,-2.0170673451502807e-05,0.013980524614453316
1034.0,1028.0,-0.4265,0.6245,9.5581,-0.0273,0.0188,-0.1199,-1.778886457482809,-0.00013503202353604138,2.5310635566711426,-2.0771052837371826,0.0009489261428825557,1.7116515636444092,5.374411451607504,-0.00021717429626733065,0.2746724784374237,-1.638599697743551,5.8768667016151355e-12,-0.01196920033544302,0.7883274555206299,-0.0,0.007769826799631119,0.7900675535202026,-4.603117531587486e-08,-0.06264109909534454
1034.0,1028.0,-0.4265,0.6245,9.5581,-0.0273,0.0188,-0.1199,-1.7788955173888148,-0.00014865466800983995,2.592573642730713,-2.077089786529541,0.0022975155152380466,1.7308688163757324,5.374383914261617,-0.0015135676367208362,0.2703036367893219,-1.6385629812823694,1.6358474142196813e-15,0.011528425849974155,0.7883430123329163,-0.0,0.006343794986605644,0.7900795340538025,-1.1115988094194049e-13,-0.04332106560468674
1034.0,1028.0,-0.4265,0.6245,9.5581,-0.0273,0.0188,-0.1199,-1.7789150677123011,-0.0001851040724432096,2.5318832397460938,-2.0770411491394043,0.0036160596646368504,1.7534682750701904,5.374440002232351,-0.0022407358046621084,0.25235211849212646,-1.63855487505068,0.0004489673301577568,0.010480587370693684,0.7883391380310059,-0.0,-0.0015980618773028255,0.7900593876838684,-2.0008385632553243e-17,-0.10050886124372482
1034.0,1028.0,-0.4265,0.6245,9.5581,-0.0273,0.0188,-0.1199,-1.7789317570128382,-0.00015873924712650478,2.5833733081817627,-2.077021360397339,0.006244666408747435,1.741787314414978,5.374363827496328,-0.0024382127448916435,0.2563633322715759,-1.6385396162616175,0.0015042992308735847,0.010728726163506508,0.7883235812187195,-0.0,-0.004670725669711828,0.7901039123535156,-6.343865243252367e-05,-0.0894702896475792
1034.0,1028.0,-0.4265,0.6245,9.5581,-0.0273,0.0188,-0.1199,-1.778947492639059,-0.00017944710270967335,2.582916736602783,-2.0769779682159424,0.008585235103964806,1.81949782371521,5.374367999821462,-0.0027375828940421343,0.25670933723449707,-1.638503376637594,0.0031246980652213097,0.027805697172880173,0.7883871793746948,-0.0,-0.0013791152741760015,0.7900634407997131,-9.07891517272219e-05,-0.03755754604935646
1034.0,1028.0,-0.4265,0.6245,9.5581,-0.0273,0.0188,-0.1199,-1.7789393864073695,-0.0001938184432219714,2.5279488563537598,-2.076941728591919,0.010051739402115345,1.7701501846313477,5.374311792641439,-0.003168186405673623,0.2563122510910034,-1.6385114828692835,0.0039676036685705185,0.035985950380563736,0.7882794737815857,-0.0,0.007786288391798735,0.7900514006614685,-0.0007283711456693709,-0.10305733978748322
1034.0,1028.0,-0.4265,0.6245,9.5581,-0.0273,0.0188,-0.1199,-1.7788788280882777,-0.00047076516784727573,2.5428926944732666,-2.076889753341675,0.013116208836436272,1.8111538887023926,5.374336290150442,-0.005303455051034689,0.24700164794921875,-1.6384919325457972,0.007340799551457167,0.02113332971930504,0.7883551120758057,-0.0,0.000567691633477807,0.7900476455688477,-0.0008113629301078618,-0.12020153552293777
1034.0,1028.0,-0.4265,0.6245,9.5581,-0.0273,0.0188,-0.1199,-1.778947492639059,-0.0004931009607389569,2.473304033279419,-2.076754093170166,0.015708956867456436,1.8135946989059448,5.374248075276174,-0.007946295663714409,0.2354714423418045,-1.6384199301349085,0.011848985217511654,0.04959414526820183,0.7883115410804749,-0.0,0.010887684300541878,0.7900595664978027,-0.0009659211500547826,-0.09046082943677902
1034.0,1028.0,-0.4265,0.6245,9.5581,-0.0273,0.0188,-0.1199,-1.778903146783346,-0.0004937304765917361,2.468885898590088,-2.0767500400543213,0.01815381646156311,1.831179141998291,5.374264526158132,-0.009212394244968891,0.22476617991924286,-1.6383560339557093,0.011272281408309937,0.04992981255054474,0.7883430123329163,-0.0,0.014901869930326939,0.7900356650352478,-0.001305683166719973,-0.18137042224407196
1034.0,1028.0,-0.4265,0.6245,9.5581,-0.0273,0.0188,-0.1199,-1.7789069614806117,-0.0006481696618720889,2.494143009185791,-2.0765864849090576,0.022419603541493416,1.8190851211547852,5.3742127297218225,-0.009312791749835014,0.22207337617874146,-1.638360325490133,0.009214119985699654,0.05050480365753174,0.7883629202842712,-0.0,0.001572317210957408,0.7900194525718689,-0.001901160110719502,-0.1674724817276001
1034.0,1028.0,-0.4265,0.6245,9.5581,-0.0273,0.0188,-0.1199,-1.7788988552489222,-0.001112315570935607,2.443695068359375,-2.0764992237091064,0.02443227730691433,1.8565101623535156,5.374164807587423,-0.008602804504334927,0.20269775390625,-1.638320271168844,0.00811100471764803,0.06095129996538162,0.7883155345916748,-0.0,-8.78586433827877e-05,0.7900235652923584,-0.003102432005107403,-0.19638565182685852
1034.0,1028.0,-0.4265,0.6245,9.5581,-0.0273,0.0188,-0.1199,-1.7789513073363246,-0.0012950527016073465,2.471567392349243,-2.076291084289551,0.02816571667790413,1.8521358966827393,5.3740970371063135,-0.006899884901940823,0.2262013852596283,-1.6382601896869105,0.0039309244602918625,0.06614191085100174,0.7882914543151855,-0.0,-0.001309072133153677,0.7899593710899353,-0.008121449500322342,-0.22518616914749146
1034.0,1028.0,-0.4265,0.6245,9.5581,-0.0273,0.0188,-0.1199,-1.7789393864073695,-0.0014280877076089382,2.424184560775757,-2.0760910511016846,0.032232701778411865,1.8643481731414795,5.3740813610847376,-0.005350152030587196,0.1903483271598816,-1.6382806936847132,0.0012570632388815284,0.0656973272562027,0.7883831858634949,-0.0,0.0005145476898178458,0.7899312973022461,-0.01228004414588213,-0.22835054993629456
1034.0,1028.0,-0.4265,0.6245,9.5581,-0.0273,0.0188,-0.1199,-1.7789751491942347,-0.001678938278928399,2.41685152053833,-2.0759875774383545,0.03553573042154312,1.8977376222610474,5.374065387039938,-0.0042512668296694756,0.21230915188789368,-1.6383007208453577,0.0008031830657273531,0.05852856859564781,0.7883910536766052,-0.0,-0.0011564174201339483,0.7898914813995361,-0.012038236483931541,-0.2743958830833435
1034.0,1028.0,-0.4265,0.6245,9.5581,-0.0273,0.0188,-0.1199,-1.7789832554259242,-0.0018408121541142464,2.427382469177246,-2.0758204460144043,0.03967456892132759,1.8674941062927246,5.374045359879293,-0.004213190171867609,0.20950238406658173,-1.6382444540606897,0.0007165916613303125,0.0775485709309578,0.7883155345916748,-0.0,0.013133466243743896,0.7898637652397156,-0.011188228614628315,-0.26704806089401245
1034.0,1028.0,-0.4265,0.6245,9.5581,-0.0273,0.0188,-0.1199,-1.7789751491942347,-0.0019730261992663145,2.428483486175537,-2.075472354888916,0.0430566631257534,1.9384552240371704,5.374049412995138,-0.0029567345045506954,0.19488640129566193,-1.6382606665240687,0.000509817386046052,0.060439810156822205,0.7883351445198059,-0.0,0.008082857355475426,0.7897511720657349,-0.010795005597174168,-0.2947579026222229
1034.0,1028.0,-0.4265,0.6245,9.5581,-0.0273,0.0188,-0.1199,-1.7789389095702113,-0.0017408319981768727,2.412044048309326,-2.075284957885742,0.044850099831819534,1.948906421661377,5.374049472599783,-0.00236877566203475,0.18845109641551971,-1.6382163206683558,0.0005962029099464417,0.08500097692012787,0.7883313894271851,-0.0,-0.0028000841848552227,0.7897476553916931,-0.01076962798833847,-0.327355295419693
1002.0,1015.0,-0.4666,0.801,9.8088,-0.0487,0.0392,-0.1321,-1.7790194950499476,-0.0020654150284826756,2.379024028778076,-2.075016736984253,0.0489986389875412,1.969685673713684,5.374013352185049,-0.0017106046434491873,0.17618799209594727,-1.6382043997394007,0.0022102054208517075,0.09092589467763901,0.7883391380310059,-0.0,0.004663500469177961,0.78968346118927,-0.010242789052426815,-0.3061605989933014
1002.0,1015.0,-0.4666,0.801,9.8088,-0.0487,0.0392,-0.1321,-1.7790314159789027,-0.003285912564024329,2.427553415298462,-2.0747263431549072,0.0531826876103878,1.927466869354248,5.374029326229849,-0.0022176257334649563,0.18022385239601135,-1.638155762349264,0.0028840196318924427,0.10588052868843079,0.7883351445198059,-0.0,0.012201718986034393,0.7896232008934021,-0.008947036229074001,-0.3227059245109558
1002.0,1015.0,-0.4666,0.801,9.8088,-0.0487,0.0392,-0.1321,-1.7790600262083949,-0.004312366712838411,2.351931571960449,-2.0745749473571777,0.06031739339232445,2.0077757835388184,5.373985755234518,-0.0029209209606051445,0.17308539152145386,-1.6381967703448694,0.003586406819522381,0.09752511978149414,0.7883391380310059,-0.0,0.00443842401728034,0.7895551919937134,-0.008015615865588188,-0.34509140253067017
1002.0,1015.0,-0.4666,0.801,9.8088,-0.0487,0.0392,-0.1321,-1.7790714703001917,-0.005140368361026049,2.3386521339416504,-2.074094533920288,0.06970369815826416,1.9631495475769043,5.373929667263784,-0.00497524905949831,0.16838817298412323,-1.6381080786334437,0.005162399727851152,0.10522633790969849,0.7883831858634949,-0.0,0.014778614975512028,0.7895312309265137,-0.007444985210895538,-0.32572346925735474
1002.0,1015.0,-0.4666,0.801,9.8088,-0.0487,0.0392,-0.1321,-1.7791153393187464,-0.006220917217433453,2.3352527618408203,-2.0736758708953857,0.08330557495355606,1.9796066284179688,5.373881983547964,-0.00860792025923729,0.1719127595424652,-1.6380966345416468,0.0054917349480092525,0.1168149933218956,0.788295328617096,-0.0,0.006782518699765205,0.789486825466156,-0.007245143875479698,-0.3845481872558594
1002.0,1015.0,-0.4666,0.801,9.8088,-0.0487,0.0392,-0.1321,-1.7791277370848597,-0.006577411666512489,2.3598594665527344,-2.073300838470459,0.09264208376407623,2.0142598152160645,5.373813855438986,-0.011365772224962711,0.15881559252738953,-1.638092343007223,0.004517665132880211,0.10868041962385178,0.7883155345916748,-0.0,0.0004403676139190793,0.7894551157951355,-0.007301209028810263,-0.35713404417037964
1002.0,1015.0,-0.4666,0.801,9.8088,-0.0487,0.0392,-0.1321,-1.7791553936400355,-0.007784523069858551,2.355809211730957,-2.072662591934204,0.11010849475860596,2.0352401733398438,5.373734700470724,-0.01644020527601242,0.15036173164844513,-1.6380727926837366,0.002775294939056039,0.11761897057294846,0.7883510589599609,-0.0,-0.004334674216806889,0.7893991470336914,-0.008312663063406944,-0.3619038760662079
1002.0,1015.0,-0.4666,0.801,9.8088,-0.0487,0.0392,-0.1321,-1.7791992626585902,-0.008509105071425438,2.340907573699951,-2.071946620941162,0.1282382756471634,2.030473470687866,5.37363080957488,-0.02077838033437729,0.14477244019508362,-1.6381047407733362,0.0013982101809233427,0.11618830263614655,0.7883115410804749,-0.0,-0.014136098325252533,0.7893389463424683,-0.009551896713674068,-0.40841594338417053
1002.0,1015.0,-0.4666,0.801,9.8088,-0.0487,0.0392,-0.1321,-1.7792235813536585,-0.008130361326038837,2.3554179668426514,-2.071392297744751,0.14085717499256134,2.0718960762023926,5.373503553658285,-0.024068038910627365,0.1547607183456421,-1.638080898915426,0.0009251480223610997,0.10741305351257324,0.7883155345916748,-0.0,-0.0015710063744336367,0.789307177066803,-0.010333933867514133,-0.37602078914642334
1002.0,1015.0,-0.4666,0.801,9.8088,-0.0487,0.0392,-0.1321,-1.7792755566039027,-0.007488875184208155,2.381317138671875,-2.0705175399780273,0.15310202538967133,2.0631511211395264,5.373416232853689,-0.02551901713013649,0.15113699436187744,-1.638080898915426,0.0007479643682017922,0.12251106649637222,0.7883629202842712,-0.0,-0.0007323695463128388,0.7892467975616455,-0.01139251422137022,-0.3991522192955017
1002.0,1015.0,-0.4666,0.801,9.8088,-0.0487,0.0392,-0.1321,-1.779299875298971,-0.006105510983616114,2.3217933177948,-2.0698020458221436,0.16136452555656433,2.055663585662842,5.373276638775625,-0.026242660358548164,0.14471827447414398,-1.6380489508258265,0.0006094371783547103,0.10877978801727295,0.7883910536766052,-0.0,-0.00014154869131743908,0.7891826033592224,-0.011975513771176338,-0.40237802267074585
1002.0,1015.0,-0.4666,0.801,9.8088,-0.0487,0.0392,-0.1321,-1.7793523273863734,-0.004039436113089323,2.3276424407958984,-2.068788528442383,0.17811082303524017,2.1282873153686523,5.373097288399496,-0.024723395705223083,0.14712819457054138,-1.6380208174334925,0.0004453560686670244,0.12026327848434448,0.7883470058441162,-0.0,-0.0044903261587023735,0.7890983819961548,-0.01268040295690298,-0.40921321511268616
1002.0,1015.0,-0.4666,0.801,9.8088,-0.0487,0.0392,-0.1321,-1.7793156109251917,-0.0019020149484276772,2.3707275390625,-2.0677151679992676,0.19662435352802277,2.1194372177124023,5.372913884907522,-0.022460348904132843,0.13734778761863708,-1.63810903230776,0.000335073156747967,0.11974380910396576,0.7883470058441162,-0.0,0.00653730146586895,0.7890549302101135,-0.013258523307740688,-0.3985050320625305
1002.0,1015.0,-0.4666,0.801,9.8088,-0.0487,0.0392,-0.1321,-1.779367586175436,-0.0014255802379921079,2.359015464782715,-2.0669126510620117,0.20951643586158752,2.1443374156951904,5.372797834664144,-0.022956158965826035,0.15008622407913208,-1.6380088965045374,0.0003478403959888965,0.1195792406797409,0.7883195877075195,-0.0,-0.005959948990494013,0.7889663577079773,-0.014539855532348156,-0.4003944993019104
1002.0,1015.0,-0.4666,0.801,9.8088,-0.0487,0.0392,-0.1321,-1.7793599567809046,-0.0009504685294814408,2.3311593532562256,-2.0655670166015625,0.22719085216522217,2.206023693084717,5.372699248581686,-0.02500327304005623,0.1451932191848755,-1.6380489508258265,0.00031675968784838915,0.10432107746601105,0.7883550524711609,-0.0,0.0035441035870462656,0.78885418176651,-0.017346255481243134,-0.4138401448726654
1002.0,1015.0,-0.4666,0.801,9.8088,-0.0487,0.0392,-0.1321,-1.7794038257994593,-0.002933833748102188,2.3504366874694824,-2.0640978813171387,0.23630009591579437,2.1796042919158936,5.372583913594045,-0.030180536210536957,0.1497631072998047,-1.6380170027362269,0.000293921388220042,0.10228833556175232,0.7883310914039612,-0.0,0.015136826783418655,0.7887903451919556,-0.019690459594130516,-0.4146581292152405
1030.0,1019.0,-0.4295,0.7908,10.3807,-0.0449,0.1327,-0.1405,-1.7794200382628382,-0.0032084686681628227,2.3701486587524414,-2.0631163120269775,0.2486722618341446,2.1675326824188232,5.372363853245535,-0.033508241176605225,0.13826505839824677,-1.6380294005023401,0.0003068912192247808,0.11968210339546204,0.7883351445198059,-0.0,0.012227225117385387,0.7886860370635986,-0.02039654366672039,-0.39450374245643616
1030.0,1019.0,-0.4295,0.7908,10.3807,-0.0449,0.1327,-0.1405,-1.7793919048705042,-0.002281520515680313,2.3722095489501953,-2.061523199081421,0.2694648206233978,2.2274765968322754,5.372197019844808,-0.04337264969944954,0.12945178151130676,-1.6380170027362269,0.0003128995012957603,0.12435838580131531,0.7883712649345398,-0.0,0.021389730274677277,0.788590669631958,-0.021536553278565407,-0.3961559236049652
1030.0,1019.0,-0.4295,0.7908,10.3807,-0.0449,0.1327,-0.1405,-1.779424329797262,-0.0009182842331938446,2.370924234390259,-2.0598340034484863,0.2864782214164734,2.253889560699463,5.371838378697195,-0.06412197649478912,0.11534903943538666,-1.638057057057516,0.00027694759774021804,0.121627077460289,0.7883115410804749,-0.0,0.004200114868581295,0.7884138822555542,-0.02497352473437786,-0.4470890760421753
1030.0,1019.0,-0.4295,0.7908,10.3807,-0.0449,0.1327,-0.1405,-1.779379507104391,-0.0006518086302094162,2.4043521881103516,-2.0586602687835693,0.29046571254730225,2.2314345836639404,5.371539222985067,-0.08301623165607452,0.12335263937711716,-1.6380446592914026,0.0002922923304140568,0.12750257551670074,0.7883632183074951,-0.0,0.01246173121035099,0.7882735729217529,-0.02651631459593773,-0.4288923740386963
1030.0,1019.0,-0.4295,0.7908,10.3807,-0.0449,0.1327,-0.1405,-1.7794157467284144,-0.0005451111355796456,2.3936514854431152,-2.056851863861084,0.30250853300094604,2.3144891262054443,5.3709096787269495,-0.11655322462320328,0.10268520563840866,-1.6380327383624476,0.00025715044466778636,0.1101161390542984,0.7883430123329163,-0.0,0.015739064663648605,0.7882101535797119,-0.026877200230956078,-0.42360177636146545
1030.0,1019.0,-0.4295,0.7908,10.3807,-0.0449,0.1327,-0.1405,-1.779396196404928,-0.0004938506754115224,2.3456881046295166,-2.0548510551452637,0.3251526951789856,2.292609214782715,5.370156991272726,-0.13552334904670715,0.08692041039466858,-1.638068977986471,0.00022909307153895497,0.11457345634698868,0.7883712649345398,-0.0,0.015541959553956985,0.7880622148513794,-0.027466941624879837,-0.39612460136413574
1030.0,1019.0,-0.4295,0.7908,10.3807,-0.0449,0.1327,-0.1405,-1.7794000111021937,-0.00014008248399477452,2.349107503890991,-2.0536258220672607,0.33588680624961853,2.2614192962646484,5.3695154068763635,-0.14010265469551086,0.07202135771512985,-1.638040844594137,0.0002439279924146831,0.12094669044017792,0.7883711457252502,-0.0,0.021770749241113663,0.787865400314331,-0.027480831369757652,-0.39492905139923096
1030.0,1019.0,-0.4295,0.7908,10.3807,-0.0449,0.1327,-0.1405,-1.7793880901732386,-0.0001135244601755403,2.4031760692596436,-2.0515663623809814,0.35152262449264526,2.3604178428649902,5.368594932347097,-0.1483774036169052,0.08389444649219513,-1.6380651632892054,0.00022153563622850925,0.1187928169965744,0.7883433103561401,-0.0,0.01223509106785059,0.7876935005187988,-0.02857295423746109,-0.4258521795272827
1030.0,1019.0,-0.4295,0.7908,10.3807,-0.0449,0.1327,-0.1405,-1.7794362507262171,-0.00010080666106659919,2.374647617340088,-2.050144910812378,0.36007222533226013,2.3191170692443848,5.36802630403594,-0.17375466227531433,0.07655751705169678,-1.6380489508258265,0.00020869201398454607,0.11955879628658295,0.7883952260017395,0.00014024635311216116,0.021071085706353188,0.7876056432723999,-0.029426051303744316,-0.36689335107803345
1030.0,1019.0,-0.4295,0.7908,10.3807,-0.0449,0.1327,-0.1405,-1.7794281444945277,-0.00012945685011800379,2.391200065612793,-2.047952890396118,0.37271687388420105,2.3570640087127686,5.366718578129568,-0.21498402953147888,0.04416029900312424,-1.6380565802203577,0.00019199587404727936,0.12271459400653839,0.7883751392364502,0.00017106438463088125,0.019363872706890106,0.7873809337615967,-0.029618211090564728,-0.41063421964645386
1030.0,1019.0,-0.4295,0.7908,10.3807,-0.0449,0.1327,-0.1405,-1.7793880901732386,-0.0001978654763661325,2.394505262374878,-2.0457146167755127,0.3938038647174835,2.384669303894043,5.365396249085226,-0.22725318372249603,0.037847451865673065,-1.6380651632892054,0.00017777369066607207,0.12092001736164093,0.788331151008606,0.00017247274809051305,0.021559229120612144,0.7872449159622192,-0.02860417030751705,-0.38033992052078247
1030.0,1019.0,-0.4295,0.7908,10.3807,-0.0449,0.1327,-0.1405,-1.7794643841185511,-0.0002954215742647648,2.370924472808838,-2.0440962314605713,0.40191650390625,2.383345603942871,5.364408063679495,-0.2405276596546173,0.03609560802578926,-1.6380327383624476,0.0001694073434919119,0.12431114912033081,0.7884271144866943,0.0001755767734721303,0.024403192102909088,0.7871410846710205,-0.02708645537495613,-0.40485718846321106
1030.0,1019.0,-0.4295,0.7908,10.3807,-0.0449,0.1327,-0.1405,-1.7794443569579066,-0.0017662064637988806,2.3903422355651855,-2.0416605472564697,0.4133140742778778,2.4004592895507812,5.362810539990225,-0.2722424566745758,0.028852298855781555,-1.6380208174334925,0.00015823761350475252,0.12139724940061569,0.7883791327476501,0.00018444238230586052,0.02078092098236084,0.7869969010353088,-0.02489500865340233,-0.4215463399887085
1030.0,1019.0,-0.4295,0.7908,10.3807,-0.0449,0.1327,-0.1405,-1.7794481716551722,-0.0017089474713429809,2.3902382850646973,-2.0391788482666016,0.4298956096172333,2.3953609466552734,5.361099409848013,-0.29582205414772034,0.01838456280529499,-1.638080898915426,0.0001484495005570352,0.13273164629936218,0.7883632183074951,0.00017195944383274764,0.036139100790023804,0.7868688106536865,-0.021843282505869865,-0.3813443183898926
1030.0,1019.0,-0.4295,0.7908,10.3807,-0.0449,0.1327,-0.1405,-1.7795125446715296,-0.001358584500849247,2.4048964977264404,-2.0373823642730713,0.4361380636692047,2.4210562705993652,5.359795737057485,-0.32924091815948486,0.011280033737421036,-1.6381128470050257,0.0001425705850124359,0.12301138043403625,0.788371205329895,0.0002705476654227823,0.03830607980489731,0.786708414554596,-0.021069228649139404,-0.3717458248138428
1030.0,1019.0,-0.4295,0.7908,10.3807,-0.0449,0.1327,-0.1405,-1.7794600925841273,-0.0011757590109482408,2.419940233230591,-2.0347676277160645,0.45404040813446045,2.479144334793091,5.357724892884054,-0.35690027475357056,-0.016108322888612747,-1.638097111378805,0.000134575879201293,0.11942893266677856,0.7884310483932495,0.00025243902928195894,0.025013476610183716,0.786640465259552,-0.019021693617105484,-0.3659732937812805
1030.0,1019.0,-0.4295,0.7908,10.3807,-0.0449,0.1327,-0.1405,-1.7794801197447718,-0.0013145441189408302,2.3915271759033203,-2.0319907665252686,0.4597306549549103,2.4804022312164307,5.355378556042471,-0.40046560764312744,-0.027625134214758873,-1.638080898915426,0.00012743030674755573,0.12301066517829895,0.7883350253105164,0.00023928580048959702,0.02525884285569191,0.7865608334541321,-0.017719503492116928,-0.39921271800994873
986.0,1012.0,-1.4937,0.4828,10.3137,-0.0417,0.1813,-0.1604,-1.779492040673727,-0.001387698925100267,2.4237256050109863,-2.030120849609375,0.46658623218536377,2.524221897125244,5.353753018170156,-0.42278531193733215,-0.03692451864480972,-1.638040844594137,0.00012307378347031772,0.11684323847293854,0.7884309887886047,0.0002198073489125818,0.03481253609061241,0.7864925265312195,-0.01602848619222641,-0.36836233735084534
986.0,1012.0,-1.4937,0.4828,10.3137,-0.0417,0.1813,-0.1604,-1.7795845470824183,-0.0021186014637351036,2.4439377784729004,-2.0272374153137207,0.47929224371910095,2.459482431411743,5.351104903012075,-0.4549567401409149,-0.049759432673454285,-1.6380608717547815,0.00010244498844258487,0.12710537016391754,0.7883710861206055,0.00022823589097242802,0.04751185327768326,0.7864165902137756,-0.013046626932919025,-0.3762149214744568
986.0,1012.0,-1.4937,0.4828,10.3137,-0.0417,0.1813,-0.1604,-1.7795163593687953,-0.001886089681647718,2.4049572944641113,-2.024303913116455,0.48980090022087097,2.5147805213928223,5.348235773831167,-0.49723193049430847,-0.07004109770059586,-1.6380727926837366,9.767209849087521e-05,0.12867829203605652,0.7883750796318054,0.00020609839702956378,0.044234056025743484,0.786344587802887,-0.011191082186996937,-0.397996187210083
986.0,1012.0,-1.4937,0.4828,10.3137,-0.0417,0.1813,-0.1604,-1.7795359096922816,-0.0018157318700104952,2.418360710144043,-2.022321939468384,0.4945482313632965,2.4882888793945312,5.346280622273245,-0.5304144024848938,-0.08563504368066788,-1.6380565802203577,9.473464160691947e-05,0.1155693382024765,0.7884389758110046,0.00019344051543157548,0.04787268862128258,0.7863166332244873,-0.010036480613052845,-0.3449975848197937
986.0,1012.0,-1.4937,0.4828,10.3137,-0.0417,0.1813,-0.1604,-1.7794839344420375,-0.0012376976665109396,2.441955089569092,-2.019258975982666,0.5086863040924072,2.5595600605010986,5.342945921211996,-0.5662325024604797,-0.08031370490789413,-1.6380489508258265,9.064538608072326e-05,0.11008333414793015,0.7884032726287842,0.0002015614736592397,0.033170584589242935,0.7862245440483093,-0.00895917508751154,-0.3258296847343445
986.0,1012.0,-1.4937,0.4828,10.3137,-0.0417,0.1813,-0.1604,-1.7795363865294398,-0.0004308806383050978,2.448965549468994,-2.017324447631836,0.5147672891616821,2.4921040534973145,5.340599465161123,-0.5844281911849976,-0.06392950564622879,-1.6380484739886683,8.811002771835774e-05,0.11752557754516602,0.7883910536766052,0.0001916462351800874,0.025768205523490906,0.7862047553062439,-0.00802065059542656,-0.3423565626144409
986.0,1012.0,-1.4937,0.4828,10.3137,-0.0417,0.1813,-0.1604,-1.7795363865294398,-0.0003355806693434715,2.4672794342041016,-2.014186143875122,0.5276764631271362,2.528348207473755,5.3368722079093835,-0.6280255317687988,-0.06701996922492981,-1.6380770842181605,8.456208161078393e-05,0.10948152840137482,0.7883910536766052,0.00017747656966093928,0.04099615290760994,0.7861525416374207,-0.006531269755214453,-0.3343878984451294
986.0,1012.0,-1.4937,0.4828,10.3137,-0.0417,0.1813,-0.1604,-1.7796007595457972,-0.00031934736762195826,2.4876914024353027,-2.010953664779663,0.5301970839500427,2.514761447906494,5.332984375744619,-0.6653158068656921,-0.08760059624910355,-1.6380928198443812,8.128881017910317e-05,0.11635955423116684,0.7883791327476501,0.00016525578394066542,0.04572836309671402,0.7861125469207764,-0.005969862453639507,-0.3225727379322052
986.0,1012.0,-1.4937,0.4828,10.3137,-0.0417,0.1813,-0.1604,-1.7795845470824183,-0.00030379981035366654,2.484713554382324,-2.0088489055633545,0.5397316217422485,2.5556793212890625,5.330260741501608,-0.6835209131240845,-0.06106535717844963,-1.6380484739886683,7.924378587631509e-05,0.11492478847503662,0.7883270978927612,0.00015800241089891642,0.03840737044811249,0.7860601544380188,-0.005554059986025095,-0.2903170883655548
986.0,1012.0,-1.4937,0.4828,10.3137,-0.0417,0.1813,-0.1604,-1.779572149316305,-0.0017548849573358893,2.492180109024048,-2.0055341720581055,0.5488991141319275,2.4885094165802,5.325922596245565,-0.7188302278518677,-0.06664127111434937,-1.6380685011493128,7.63623247621581e-05,0.09780067950487137,0.78835529088974,0.00014824268873780966,0.032585542649030685,0.7860522270202637,-0.004318903665989637,-0.28298425674438477
986.0,1012.0,-1.4937,0.4828,10.3137,-0.0417,0.1813,-0.1604,-1.7795683346190394,-0.0020900852978229523,2.5174005031585693,-2.0022928714752197,0.5580621361732483,2.467179298400879,5.3214730499084375,-0.7499237060546875,-0.07576815783977509,-1.6380770842181605,7.368296064669266e-05,0.10303789377212524,0.7883670926094055,0.00013961851072963327,0.04286224767565727,0.7860725522041321,-0.003162431763485074,-0.32791656255722046
986.0,1012.0,-1.4937,0.4828,10.3137,-0.0417,0.1813,-0.1604,-1.779572149316305,-0.0022471577394753695,2.5089874267578125,-1.9999817609786987,0.5558447241783142,2.4961049556732178,5.318369674473562,-0.7712170481681824,-0.07955779135227203,-1.6380565802203577,7.19987801858224e-05,0.11988823860883713,0.7884191870689392,0.00013440576731227338,0.04406007006764412,0.7860162258148193,-0.003469781018793583,-0.3020302355289459
986.0,1012.0,-1.4937,0.4828,10.3137,-0.0417,0.1813,-0.1604,-1.7796203098692835,-0.002687026048079133,2.518259048461914,-1.9966055154800415,0.5611217617988586,2.500147819519043,5.313809382706442,-0.7995642423629761,-0.061929453164339066,-1.6380651632892054,6.961219332879409e-05,0.10458090901374817,0.7884072661399841,0.0001272777299163863,0.04820458963513374,0.7860203385353088,-0.003982417285442352,-0.3076596260070801
986.0,1012.0,-1.4937,0.4828,10.3137,-0.0417,0.1813,-0.1604,-1.779612203637594,-0.002337479731068015,2.494546890258789,-1.9930384159088135,0.567715585231781,2.5576510429382324,5.308873402863302,-0.8218199014663696,-0.07240418344736099,-1.63810903230776,1.9376807713911148e-08,0.09209442138671875,0.7883949875831604,0.00012086773494957015,0.03818856179714203,0.7859925031661987,-0.0037220262456685305,-0.3373278081417084
986.0,1012.0,-1.4937,0.4828,10.3137,-0.0417,0.1813,-0.1604,-1.7795878849425257,-0.0014722910709679127,2.511652946472168,-1.9907279014587402,0.5746116042137146,2.4639463424682617,5.305519330292501,-0.8419768214225769,-0.0776352658867836,-1.638040844594137,8.26063731307336e-11,0.1151915192604065,0.7883831858634949,0.0001169414899777621,0.03432337939739227,0.7860288619995117,-0.0038646382745355368,-0.3333891034126282
986.0,1012.0,-1.4937,0.4828,10.3137,-0.0417,0.1813,-0.1604,-1.7795959911742152,-0.0006753153284080327,2.5129666328430176,-1.9873380661010742,0.5856961011886597,2.560194969177246,5.300399887352743,-0.8635536432266235,-0.06866547465324402,-1.638028923665182,2.2993785085060996e-14,0.09940773248672485,0.7883949875831604,0.00011150824138894677,0.029952751472592354,0.7859445214271545,-0.0036758859641849995,-0.27937865257263184
986.0,1012.0,-1.4937,0.4828,10.3137,-0.0417,0.1813,-0.1604,-1.7796045742430628,-0.0004655265947803855,2.5251705646514893,-1.9838401079177856,0.5912113189697266,2.5053811073303223,5.295020329743185,-0.8853623867034912,-0.06739036738872528,-1.6380446592914026,6.400404288218883e-18,0.08994521200656891,0.7883909940719604,0.0001065573378582485,0.04570930451154709,0.785940408706665,-0.004823841620236635,-0.2998000979423523
912.0,927.0,-1.4644,0.7735,9.3224,-0.0157,-0.179,-0.119,-1.779612203637594,-0.0003856896364595741,2.5306344032287598,-1.9814696311950684,0.5923126935958862,2.4603688716888428,5.291369128018179,-0.9012404084205627,-0.0726630687713623,-1.6380651632892054,2.7285928985299694e-20,0.11719530075788498,0.7883949875831604,0.00010349397780373693,0.038301318883895874,0.7858679890632629,-0.005935958120971918,-0.2823777496814728
912.0,927.0,-1.4644,0.7735,9.3224,-0.0157,-0.179,-0.119,-1.779616495172018,-0.000368036882719025,2.5524275302886963,-1.9779679775238037,0.6002541780471802,2.5587539672851562,5.285911726742544,-0.9239599108695984,-0.04843297600746155,-1.6380532423602503,7.595139384832513e-24,0.10207447409629822,0.7883790731430054,9.921559831127524e-05,0.043572984635829926,0.7858603000640869,-0.008273527026176453,-0.324118971824646
912.0,927.0,-1.4644,0.7735,9.3224,-0.0157,-0.179,-0.119,-1.7796646557249964,-0.0004067712288815528,2.556675910949707,-1.9744017124176025,0.6070697903633118,2.4793059825897217,5.280294167786398,-0.9405904412269592,-0.057838693261146545,-1.6380928198443812,2.114135092633662e-27,0.09367826581001282,0.7883991003036499,9.527682414045557e-05,0.0406290739774704,0.7858003973960876,-0.008263693191111088,-0.30609309673309326
912.0,927.0,-1.4644,0.7735,9.3224,-0.0157,-0.179,-0.119,-1.7796288929381312,-0.00030363863334059715,2.5413219928741455,-1.9719804525375366,0.6132615208625793,2.536799430847168,5.276422786503591,-0.9538971781730652,-0.06490302085876465,-1.638040844594137,9.01288946515578e-30,0.0988941565155983,0.7883631587028503,9.282032260671258e-05,0.03103451617062092,0.7857682108879089,-0.008766323328018188,-0.3165714740753174
912.0,927.0,-1.4644,0.7735,9.3224,-0.0157,-0.179,-0.119,-1.7796927891173304,-0.0010347850620746613,2.550443172454834,-1.9682632684707642,0.6079168915748596,2.529454231262207,5.270708131581106,-0.9716472029685974,-0.055027756839990616,-1.6380446592914026,2.5087707165806428e-33,0.09531544893980026,0.7884150743484497,8.936414815252647e-05,0.032712556421756744,0.7857850193977356,-0.010427411645650864,-0.25910723209381104
912.0,927.0,-1.4644,0.7735,9.3224,-0.0157,-0.179,-0.119,-1.7796441517271937,-0.0010570310987532139,2.536760091781616,-1.965798020362854,0.6093559861183167,2.529977321624756,5.266867267876425,-0.9785447716712952,-0.06456105411052704,-1.638080898915426,1.0695283851577991e-35,0.08566939830780029,0.7883232235908508,8.71996016940102e-05,0.02837926149368286,0.7856881618499756,-0.01106923446059227,-0.28776341676712036
912.0,927.0,-1.4644,0.7735,9.3224,-0.0157,-0.179,-0.119,-1.779628416100973,-0.0010882597416639328,2.5352025032043457,-1.9621063470840454,0.6124659776687622,2.54407000541687,5.260952877789297,-0.9909040927886963,-0.05055468529462814,-1.6380170027362269,2.977071199144253e-39,0.08808618038892746,0.7884030938148499,7.364789780694991e-05,0.02528940699994564,0.7855719327926636,-0.012756193056702614,-0.3151225447654724
912.0,927.0,-1.4644,0.7735,9.3224,-0.0157,-0.179,-0.119,-1.7796322307982386,-0.0003170902782585472,2.5619616508483887,-1.9583826065063477,0.6191273331642151,2.514904737472534,5.25510852315978,-1.0017591714859009,-0.05293536186218262,-1.6380446592914026,8.281673924159669e-43,0.08731897920370102,0.7882997393608093,7.11308530298993e-05,0.023311782628297806,0.7855321168899536,-0.013239431194961071,-0.2965394854545593
912.0,927.0,-1.4644,0.7735,9.3224,-0.0157,-0.179,-0.119,-1.779656549493307,-0.00011736033047782257,2.5530972480773926,-1.9559818506240845,0.6237345933914185,2.5301010608673096,5.2510713813598535,-0.9992612600326538,-0.04000716656446457,-1.638012711201803,4.203895392974451e-45,0.08335097134113312,0.7883711457252502,6.956016295589507e-05,0.03571537137031555,0.7854679226875305,-0.013685735873878002,-0.28922516107559204
912.0,927.0,-1.4644,0.7735,9.3224,-0.0157,-0.179,-0.119,-1.7795640430846156,-6.53528076099974e-09,2.572437286376953,-1.952211856842041,0.6299408078193665,2.598325729370117,5.244920718460836,-1.0069047212600708,-0.05126720666885376,-1.638097111378805,0.0,0.07463500648736954,0.7883076667785645,1.9362326852956357e-08,0.02253814786672592,0.7853635549545288,-0.014492079615592957,-0.2912067770957947
912.0,927.0,-1.4644,0.7735,9.3224,-0.0157,-0.179,-0.119,-1.7796489200987757,-1.578193481390107e-14,2.600863456726074,-1.9484537839889526,0.6268989443778992,2.547189474105835,5.238836276322164,-1.0140329599380493,-0.042042654007673264,-1.6380608717547815,0.0,0.08370918035507202,0.7883631587028503,5.3895742035958705e-12,0.016428114846348763,0.7852675318717957,-0.015195006504654884,-0.3096882402896881
912.0,927.0,-1.4644,0.7735,9.3224,-0.0157,-0.179,-0.119,-1.7796765766539515,-2.8406926994864913e-18,2.6229190826416016,-1.9459682703018188,0.6327149868011475,2.516625165939331,5.234822559147634,-1.0176098346710205,-0.0560142882168293,-1.6380565802203577,0.0,0.08285641670227051,0.7883632183074951,2.297660386875889e-14,0.03973079472780228,0.7852235436439514,-0.015046568587422371,-0.30894172191619873
912.0,927.0,-1.4644,0.7735,9.3224,-0.0157,-0.179,-0.119,-1.779684682885641,-6.859939953828255e-24,2.5959575176239014,-1.9421483278274536,0.6384839415550232,2.56038498878479,5.228624450951376,-1.0168472528457642,-0.05204140767455101,-1.6380727926837366,1.2903123902674452e-08,0.0800417959690094,0.7883510589599609,6.39562277068802e-18,0.02238624542951584,0.785115122795105,-0.013560360297560692,-0.2993125021457672
912.0,927.0,-1.4644,0.7735,9.3224,-0.0157,-0.179,-0.119,-1.7796803913512171,-1.656594961122311e-29,2.5779662132263184,-1.9383454322814941,0.635367214679718,2.521897315979004,5.222697782307424,-1.0178472995758057,-0.039925359189510345,-1.6380565802203577,3.5916321999840406e-12,0.08443441241979599,0.7883592247962952,1.7802451492498767e-21,0.007450099103152752,0.7851079702377319,-0.011379989795386791,-0.2627638876438141
912.0,927.0,-1.4644,0.7735,9.3224,-0.0157,-0.179,-0.119,-1.7796522579588832,-2.9818120512125938e-33,2.6014480590820312,-1.9357439279556274,0.6315432190895081,2.551887273788452,5.218625235348501,-1.0237840414047241,-0.05429910868406296,-1.6380365530597132,1.5311690920705688e-14,0.0808795839548111,0.7883232235908508,7.589465108341258e-24,0.009863005019724369,0.7850720286369324,-0.009753345511853695,-0.28749626874923706
912.0,927.0,-1.4644,0.7735,9.3224,-0.0157,-0.179,-0.119,-1.7796765766539515,-7.200724900465684e-39,2.574364423751831,-1.9318989515304565,0.6268454194068909,2.553051471710205,5.212445604592123,-1.0230762958526611,-0.034960031509399414,-1.6380365530597132,4.262065476972339e-18,0.08402138948440552,0.7883232831954956,2.11255563748627e-27,0.019137557595968246,0.7849432826042175,-0.00796264037489891,-0.26471519470214844
912.0,927.0,-1.4644,0.7735,9.3224,-0.0157,-0.179,-0.119,-1.7796560726561488,-0.0003329883620608598,2.6032662391662598,-1.9281011819839478,0.6316638588905334,2.51985764503479,5.206400769739904,-1.0191504955291748,-0.0162982065230608,-1.6380365530597132,1.1863613772826972e-21,0.07073123753070831,0.78839111328125,3.0809694351319195e-08,0.01706705242395401,0.7849639058113098,-0.006179797928780317,-0.2329135239124298
711.0,869.0,-0.2841,0.792,10.1665,-0.026,-0.3662,-0.1216,-1.7795797787108363,-0.00011682930926326662,2.6369848251342773,-1.9255672693252563,0.637554407119751,2.5239806175231934,5.202291089087286,-1.0088310241699219,-0.03052915632724762,-1.6380608717547815,5.057644826457461e-24,0.09158143401145935,0.7883509993553162,1.3134654475166485e-10,0.017408102750778198,0.7848792672157288,-0.005361421499401331,-0.2850930094718933
711.0,869.0,-0.2841,0.792,10.1665,-0.026,-0.3662,-0.1216,-1.779616495172018,-2.821290423504763e-10,2.629683256149292,-1.9218639135360718,0.6420196890830994,2.5347580909729004,5.196207928448477,-1.0052344799041748,-0.011198028922080994,-1.6380847136126917,1.4078143448182373e-27,0.07665640115737915,0.7883510589599609,3.656080158672553e-14,0.002086478751152754,0.784895658493042,-0.004270254168659449,-0.2557167708873749
711.0,869.0,-0.2841,0.792,10.1665,-0.026,-0.3662,-0.1216,-1.7795716724791468,0.0018575406866148114,2.6184206008911133,-1.9192780256271362,0.6386852264404297,2.5435192584991455,5.192217635899343,-0.9994413256645203,-0.007159203290939331,-1.6380446592914026,6.0017333559764096e-30,0.07348733395338058,0.7883592844009399,1.5586441197861553e-16,0.016721129417419434,0.7848352789878845,-0.004234868101775646,-0.21957266330718994
711.0,869.0,-0.2841,0.792,10.1665,-0.026,-0.3662,-0.1216,-1.7796608410277308,0.00048237096052616835,2.6750411987304688,-1.9154253005981445,0.6399803757667542,2.5726099014282227,5.186302441149511,-0.9973989129066467,-0.027787799015641212,-1.6380770842181605,1.6706046735359654e-33,0.06739160418510437,0.7883950471878052,4.338543572029877e-20,-1.3533979654312134e-05,0.7848636507987976,-0.0041639916598796844,-0.2277238368988037
711.0,869.0,-0.2841,0.792,10.1665,-0.026,-0.3662,-0.1216,-1.779628416100973,1.1376504183147063e-08,2.646721363067627,-1.9115580320358276,0.6452950239181519,2.5417826175689697,5.180352020054617,-0.9883318543434143,-0.028267700225114822,-1.638068977986471,4.650189447787282e-37,0.07375601679086685,0.7883632779121399,1.20764948931857e-23,-0.0004863025387749076,0.7848595380783081,-0.0022559938952326775,-0.2409266084432602
711.0,869.0,-0.2841,0.792,10.1665,-0.026,-0.3662,-0.1216,-1.7796365223326625,2.0477306916094618e-12,2.6600615978240967,-1.909072995185852,0.6476762294769287,2.4842400550842285,5.176398056536474,-0.9827471375465393,-0.024608001112937927,-1.6380651632892054,1.9824491673449982e-39,0.06738123297691345,0.7883750796318054,5.14839900882387e-26,0.0026903259567916393,0.7848880887031555,-0.0014799486380070448,-0.21908850967884064
711.0,869.0,-0.2841,0.792,10.1665,-0.026,-0.3662,-0.1216,-1.7796927891173304,-0.0005527487373910844,2.63250732421875,-1.9051589965820312,0.6395283341407776,2.5367019176483154,5.1704232571418665,-0.9823721647262573,-0.04177111014723778,-1.638028923665182,5.521115949439779e-43,0.07355357706546783,0.7883669137954712,1.4330757447484817e-29,-0.0049604750238358974,0.7848397493362427,-0.0009918244322761893,-0.2546413838863373
711.0,869.0,-0.2841,0.792,10.1665,-0.026,-0.3662,-0.1216,-1.7796803913512171,-0.002129053231328726,2.6550140380859375,-1.9012199640274048,0.6303719282150269,2.567584991455078,5.164564716606893,-0.9842829704284668,-0.0070317150093615055,-1.6380251089679163,0.0,0.05496830865740776,0.78838711977005,3.989018773680324e-33,0.015670400112867355,0.7848559021949768,-0.0005268885288387537,-0.25120973587036133
711.0,869.0,-0.2841,0.792,10.1665,-0.026,-0.3662,-0.1216,-1.779684682885641,-0.001898276968859136,2.6305184364318848,-1.8987030982971191,0.6291476488113403,2.503617286682129,5.160673874407568,-0.980923593044281,-0.02734442800283432,-1.638028923665182,0.0,0.05945945531129837,0.7883672714233398,1.7005813062470574e-35,0.004950297065079212,0.7848275899887085,-0.000426681392127648,-0.2549011707305908
711.0,869.0,-0.2841,0.792,10.1665,-0.026,-0.3662,-0.1216,-1.7796522579588832,-0.00029500480741262436,2.6567840576171875,-1.8948782682418823,0.6365228295326233,2.550285816192627,5.154841649323263,-0.9743539690971375,-0.0032174165826290846,-1.6380489508258265,0.0,0.06957721710205078,0.7883116006851196,4.7336310540400905e-39,-0.0034850803203880787,0.7848396897315979,-0.00033216370502486825,-0.2373264580965042
711.0,869.0,-0.2841,0.792,10.1665,-0.026,-0.3662,-0.1216,-1.779640337029928,-4.1242449455580754e-09,2.6310231685638428,-1.891117811203003,0.6401094198226929,2.547110080718994,5.148899572878637,-0.9665840864181519,-0.026134949177503586,-1.6380327383624476,0.0,0.064175084233284,0.7882875204086304,1.317220556465328e-42,0.006091134622693062,0.7847710847854614,-0.00032622614526189864,-0.26989254355430603
711.0,869.0,-0.2841,0.792,10.1665,-0.026,-0.3662,-0.1216,-1.779600282708639,0.00173685303889215,2.679924964904785,-1.8886514902114868,0.6410757303237915,2.5930252075195312,5.145121383457937,-0.9651773571968079,-0.022294484078884125,-1.638057057057516,0.0,0.0754244476556778,0.788303792476654,5.605193857299268e-45,-0.010310671292245388,0.7847995758056641,-0.00038614822551608086,-0.27040615677833557
711.0,869.0,-0.2841,0.792,10.1665,-0.026,-0.3662,-0.1216,-1.7796603641905726,0.0005928392056375742,2.651381731033325,-1.884852409362793,0.6355413198471069,2.5884580612182617,5.1393354413803,-0.9548371434211731,-0.0462789461016655,-1.6380088965045374,0.0,0.0622020959854126,0.7883077263832092,0.0,0.005694339983165264,0.7848073244094849,-0.0004963802639394999,-0.2429017722606659
711.0,869.0,-0.2841,0.792,10.1665,-0.026,-0.3662,-0.1216,-1.7796646557249964,1.0303308783932152e-07,2.673661470413208,-1.8810378313064575,0.6411805152893066,2.58632493019104,5.133703279286184,-0.9474825859069824,-0.008354552090168,-1.6380651632892054,0.0,0.0634644478559494,0.7883391380310059,0.0,0.012826858088374138,0.7847872376441956,-0.0009811731288209558,-0.26787900924682617
711.0,869.0,-0.2841,0.792,10.1665,-0.026,-0.3662,-0.1216,-1.7796927891173304,1.8545592145313705e-11,2.6555137634277344,-1.878451943397522,0.649216890335083,2.5712673664093018,5.129908579378881,-0.9417476654052734,-0.02694857120513916,-1.638024632130758,0.0,0.07304319739341736,0.7882915139198303,0.0,0.0049417270347476006,0.7848235368728638,-0.0007195918005891144,-0.30664533376693726
711.0,869.0,-0.2841,0.792,10.1665,-0.026,-0.3662,-0.1216,-1.7797285519041957,-0.001359393005259335,2.736116409301758,-1.8746014833450317,0.6435781121253967,2.5635581016540527,5.124172436981954,-0.9463045597076416,-0.02922993153333664,-1.6380170027362269,0.0,0.06776278465986252,0.7883155345916748,0.0,-0.005407086573541164,0.7848397493362427,-0.0005983705632388592,-0.2390756905078888
711.0,869.0,-0.2841,0.792,10.1665,-0.026,-0.3662,-0.1216,-1.779792924920553,-0.003210413036867976,2.646186590194702,-1.8707267045974731,0.6329944133758545,2.544795274734497,5.118344533234396,-0.9461849927902222,-0.047648802399635315,-1.638012711201803,0.0,0.07561267167329788,0.7883313894271851,0.0,-0.003096420783549547,0.7848358750343323,-0.0004835558938793838,-0.2598273754119873
574.0,782.0,0.1161,0.6903,9.5743,-0.0254,-0.3221,-0.0999,-1.779752870599264,-0.0031589996069669724,2.648087978363037,-1.8681156635284424,0.6312490701675415,2.6071903705596924,5.11460621932105,-0.948263943195343,-0.029666859656572342,-1.638012711201803,0.0,0.08415067195892334,0.7883790135383606,0.0,0.0004961484228260815,0.7848197221755981,-0.00043120645568706095,-0.26818540692329407
574.0,782.0,0.1161,0.6903,9.5743,-0.0254,-0.3221,-0.0999,-1.7797204456725062,-0.001348997000604868,2.627739429473877,-1.8642358779907227,0.6361188888549805,2.579491138458252,5.108911114722051,-0.9384433031082153,-0.011653469875454903,-1.6380370298968714,0.0,0.07551567256450653,0.7883712649345398,0.0,-0.008156686089932919,0.7847793102264404,-0.00034785756724886596,-0.2865440547466278
574.0,782.0,0.1161,0.6903,9.5743,-0.0254,-0.3221,-0.0999,-1.77972473720693,-0.0005195765988901258,2.694826602935791,-1.8617408275604248,0.6418471932411194,2.523787021636963,5.105236458569326,-0.932721734046936,-0.011075017973780632,-1.6380208174334925,0.0,0.06592912971973419,0.7883430123329163,0.0,0.0046246238052845,0.7847591042518616,-0.00035877784830518067,-0.2498074471950531
574.0,782.0,0.1161,0.6903,9.5743,-0.0254,-0.3221,-0.0999,-1.7797285519041957,0.0011748671531677246,2.7014498710632324,-1.8579305410385132,0.6436874866485596,2.6158554553985596,5.0998189626033685,-0.92563396692276,-0.008285514079034328,-1.6380208174334925,0.0,0.07157935202121735,0.7883313894271851,0.0,0.0013759711291640997,0.7847995758056641,-0.00035073087201453745,-0.26950162649154663
574.0,782.0,0.1161,0.6903,9.5743,-0.0254,-0.3221,-0.0999,-1.779668470422262,0.0010484716622158885,2.6601853370666504,-1.854143500328064,0.6383398771286011,2.5931396484375,5.094329285412588,-0.9234906435012817,-0.035817816853523254,-1.638000790272848,0.0,0.06394068151712418,0.78831547498703,0.0,0.005565216764807701,0.7848278880119324,-0.00047089203144423664,-0.26527872681617737
574.0,782.0,0.1161,0.6903,9.5743,-0.0254,-0.3221,-0.0999,-1.7797609768309535,0.00016965730173978955,2.715392827987671,-1.8515524864196777,0.6399093270301819,2.569520950317383,5.090677964478292,-0.9190599918365479,-0.03920004516839981,-1.6380413214312952,0.0,0.06567917764186859,0.7883669137954712,0.0,0.008068477734923363,0.7847954630851746,-0.0009330317843705416,-0.27645403146743774
574.0,782.0,0.1161,0.6903,9.5743,-0.0254,-0.3221,-0.0999,-1.779696603814596,1.1445190351011547e-09,2.6359217166900635,-1.847722053527832,0.6527968049049377,2.6050209999084473,5.085049170046606,-0.9098801612854004,-0.012796612456440926,-1.6380370298968714,0.0,0.07494872808456421,0.7882993817329407,0.0,0.00552022410556674,0.7848197221755981,-0.0004686451284214854,-0.26789572834968567
574.0,782.0,0.1161,0.6903,9.5743,-0.0254,-0.3221,-0.0999,-1.779752870599264,2.7638784595279122e-15,2.7161455154418945,-1.8437732458114624,0.6464700698852539,2.5715699195861816,5.079471695214071,-0.9060037732124329,-0.008640339598059654,-1.63808519044985,0.0,0.06391013413667679,0.7883549928665161,0.0,0.0009399810805916786,0.7847751975059509,-0.0003366329474374652,-0.23497983813285828
574.0,782.0,0.1161,0.6903,9.5743,-0.0254,-0.3221,-0.0999,-1.7797767124571742,-0.0025306609459221363,2.6659512519836426,-1.8411991596221924,0.639735758304596,2.569063901901245,5.075800406723776,-0.9140649437904358,-0.028522338718175888,-1.638012711201803,0.0,0.08455580472946167,0.7883672714233398,0.0,0.0033641629852354527,0.7847349047660828,-0.00010234786896035075,-0.252658873796463
574.0,782.0,0.1161,0.6903,9.5743,-0.0254,-0.3221,-0.0999,-1.7797886333861292,-0.004078785423189402,2.7060654163360596,-1.8373655080795288,0.6325144171714783,2.61035418510437,5.0704282996948145,-0.9106869101524353,-0.032826509326696396,-1.6380327383624476,0.0,0.06256704777479172,0.7883708477020264,0.0,0.008000684902071953,0.7848479747772217,-7.624307909281924e-05,-0.26151445508003235
574.0,782.0,0.1161,0.6903,9.5743,-0.0254,-0.3221,-0.0999,-1.7797686062254847,-0.0029047871939837933,2.7184414863586426,-1.8335260152816772,0.6346664428710938,2.5791313648223877,5.065048712282934,-0.9126457571983337,-0.02548704668879509,-1.6380732695208948,0.0,0.07804371416568756,0.788347065448761,0.0,-0.013354314491152763,0.7848399877548218,-6.078970181988552e-05,-0.23044627904891968
574.0,782.0,0.1161,0.6903,9.5743,-0.0254,-0.3221,-0.0999,-1.7797523937621058,-0.0016530625289306045,2.6928718090057373,-1.8308743238449097,0.6396071314811707,2.5660903453826904,5.061516600638189,-0.9075250029563904,-0.0003905431367456913,-1.6380170027362269,0.0,0.07716022431850433,0.7883391380310059,0.0,-0.0010389945236966014,0.7847793102264404,-5.355383109417744e-05,-0.2610798180103302
574.0,782.0,0.1161,0.6903,9.5743,-0.0254,-0.3221,-0.0999,-1.7797447643675746,-4.01283529072316e-07,2.7297348976135254,-1.8271721601486206,0.6439175009727478,2.6170847415924072,5.0559130785758875,-0.9046642184257507,-0.03478299453854561,-1.6379802862750452,0.0,0.06514310836791992,0.7883077263832092,0.0,-0.013263554312288761,0.7847834229469299,-8.548206824343652e-05,-0.27428603172302246
574.0,782.0,0.1161,0.6903,9.5743,-0.0254,-0.3221,-0.0999,-1.7797447643675746,-9.690524207725537e-13,2.704228401184082,-1.8233592510223389,0.6352019309997559,2.577073097229004,5.050474154740133,-0.8992749452590942,-0.011019149795174599,-1.638068977986471,0.0,0.07381455600261688,0.7883470058441162,0.0,-0.004644332453608513,0.7847754955291748,-0.00015729560982435942,-0.27696675062179565
574.0,782.0,0.1161,0.6903,9.5743,-0.0254,-0.3221,-0.0999,-1.7796880207457484,0.0002484251162968576,2.6763718128204346,-1.820716142654419,0.6333248615264893,2.5970516204833984,5.046820568829336,-0.9022757411003113,0.002207184210419655,-1.6380732695208948,0.0,0.0773083046078682,0.7883628010749817,0.0,-0.014791486784815788,0.7848196625709534,-0.0003015309339389205,-0.2744128704071045
574.0,782.0,0.1161,0.6903,9.5743,-0.0254,-0.3221,-0.0999,-1.7797485790648402,1.739830963742861e-06,2.6884894371032715,-1.8169161081314087,0.644801914691925,2.6419806480407715,5.041439491301336,-0.9002744555473328,-0.027256429195404053,-1.6380732695208948,0.0,0.07208605110645294,0.7883430123329163,0.0,-0.0011724494397640228,0.7847713828086853,-0.00025983789237216115,-0.2630937695503235
574.0,782.0,0.1161,0.6903,9.5743,-0.0254,-0.3221,-0.0999,-1.7797447643675746,3.131634118691551e-10,2.7080655097961426,-1.814331293106079,0.6438704133033752,2.53583025932312,5.037829923420706,-0.895486056804657,-0.02783280424773693,-1.6380489508258265,0.0,0.06574538350105286,0.7883116006851196,0.0,-0.006428541149944067,0.7848078012466431,-0.00023702539328951389,-0.3185168504714966
413.0,475.0,0.5276,0.1316,9.877,-0.0533,-0.2639,-0.1067,-1.7798286877074183,7.562528793465903e-16,2.7273571491241455,-1.8105511665344238,0.6359979510307312,2.6205930709838867,5.032461780100622,-0.904122531414032,-0.02543959766626358,-1.6380613485919397,0.0,0.07651904225349426,0.7883235812187195,0.0,0.003614158369600773,0.7847875356674194,-0.0002438636583974585,-0.30025768280029297
413.0,475.0,0.5276,0.1316,9.877,-0.0533,-0.2639,-0.1067,-1.7798449001707972,-0.0036082619335502386,2.709846019744873,-1.8067094087600708,0.6246846914291382,2.612666606903076,5.026959615736761,-0.9092520475387573,-0.020048970356583595,-1.6380613485919397,0.0,0.07511850446462631,0.7883155941963196,0.0,-0.005085136741399765,0.7847552299499512,-0.00021888130868319422,-0.24802659451961517
413.0,475.0,0.5276,0.1316,9.877,-0.0533,-0.2639,-0.1067,-1.7798449001707972,-0.004175282549113035,2.730302095413208,-1.8042184114456177,0.6252720355987549,2.6087915897369385,5.023379641562261,-0.912016749382019,-0.026078375056385994,-1.6380489508258265,0.0,0.06705451011657715,0.7883509993553162,0.0,0.0027396902441978455,0.7847995758056641,-0.00020465970737859607,-0.25852838158607483
413.0,475.0,0.5276,0.1316,9.877,-0.0533,-0.2639,-0.1067,-1.7798243961729945,-0.0017308229580521584,2.6908373832702637,-1.8004366159439087,0.6311330795288086,2.5839881896972656,5.017977762013235,-0.9048137068748474,-0.023920567706227303,-1.6380532423602503,0.0,0.06199667975306511,0.7883628010749817,0.0,-0.008716273121535778,0.7847672700881958,-0.00018648522382136434,-0.2787030041217804
