ramyac6/ROB537/final_project/csv/bad/bad_166.csv
tof_0,tof_1,accelx,accely,accelz,gyrox,gyroy,gyroz,shoulder_lift_joint_position,shoulder_lift_joint_velocity,shoulder_lift_joint_effort,elbow_joint_position,elbow_joint_velocity,elbow_joint_effort,wrist_1_joint_position,wrist_1_joint_velocity,wrist_1_joint_effort,wrist_2_joint_position,wrist_2_joint_velocity,wrist_2_joint_effort,wrist_3_joint_position,wrist_3_joint_velocity,wrist_3_joint_effort,shoulder_pan_joint_position,shoulder_pan_joint_velocity,shoulder_pan_joint_effort
1053.0,995.0,-0.3541,0.5007,9.5521,-0.0325,0.0244,-0.118,-1.6687599621214808,0.0,2.1286416053771973,-2.2053401470184326,0.0003554669674485922,1.6959896087646484,5.349901306420126,0.0,0.2664279639720917,-1.6220405737506312,-0.0,-0.0038992927875369787,0.6391768455505371,-0.0,0.005569330416619778,0.929566502571106,-4.3960134124333836e-38,0.0042411088943481445
1053.0,995.0,-0.3541,0.5007,9.5521,-0.0325,0.0244,-0.118,-1.668835779229635,0.0,2.144007444381714,-2.2054083347320557,0.00041667631012387574,1.7010422945022583,5.349893557816305,0.0,0.2878374457359314,-1.622016731892721,-0.0,0.004063005559146404,0.6391449570655823,-0.0,0.025879353284835815,0.9295464158058167,-7.913132428042242e-42,0.02255035936832428
1053.0,995.0,-0.3541,0.5007,9.5521,-0.0325,0.0244,-0.118,-1.6687919102110804,0.0,2.0876588821411133,-2.2053961753845215,0.0006269434234127402,1.7157092094421387,5.34990547874526,0.00013574141485150903,0.26842451095581055,-1.622068230305807,-0.0,-0.005742705427110195,0.6391251087188721,-0.0,0.0062791211530566216,0.9295870065689087,-0.0,-0.010193626396358013
1053.0,995.0,-0.3541,0.5007,9.5521,-0.0325,0.0244,-0.118,-1.6687680683531703,0.0,2.1177845001220703,-2.205348491668701,0.000620704609900713,1.6956367492675781,5.349953996926107,0.00012459307617973536,0.2798280715942383,-1.6220806280719202,-0.0,-0.001821617130190134,0.6392125487327576,-0.0,0.008173998445272446,0.929574728012085,0.0,-0.0022230902686715126
1053.0,995.0,-0.3541,0.5007,9.5521,-0.0325,0.0244,-0.118,-1.6687876186766566,0.0,2.103656530380249,-2.2053401470184326,0.000879914325196296,1.6655563116073608,5.34992145279006,0.0001350148522760719,0.28498977422714233,-1.6220887343036097,-0.0,-0.0022385288029909134,0.639113187789917,-0.0,0.0017240457236766815,0.9295624494552612,0.0,0.014460659585893154
1053.0,995.0,-0.3541,0.5007,9.5521,-0.0325,0.0244,-0.118,-1.6687962017455042,0.0,2.110471248626709,-2.2053565979003906,0.0014087280724197626,1.7272241115570068,5.3499255059059045,0.0001313169050263241,0.28652656078338623,-1.6221006552325647,-0.0,-0.009572288952767849,0.6391529440879822,-0.0,0.021173637360334396,0.9295706748962402,0.0,0.08294516056776047
1053.0,995.0,-0.3541,0.5007,9.5521,-0.0325,0.0244,-0.118,-1.6687680683531703,0.00010497432231204584,2.0890722274780273,-2.2053444385528564,0.00362546369433403,1.705296516418457,5.349877583771505,0.00012239902571309358,0.26861676573753357,-1.6220644156085413,-0.0,-0.01623755320906639,0.6391330361366272,-0.0,0.015830906108021736,0.929566502571106,0.0,0.04735708609223366
1053.0,995.0,-0.3541,0.5007,9.5521,-0.0325,0.0244,-0.118,-1.668755670587057,7.849799294490367e-05,2.082876682281494,-2.2052438259124756,0.004835210274904966,1.6385948657989502,5.3499499438102625,0.00011460562382126227,0.2893928587436676,-1.6220405737506312,-0.0,-0.002730078063905239,0.6391569375991821,-0.0,0.010180763900279999,0.92955082654953,0.0,0.014271199703216553
1053.0,995.0,-0.3541,0.5007,9.5521,-0.0325,0.0244,-0.118,-1.668755670587057,4.424592134455452e-06,2.0774595737457275,-2.2052199840545654,0.006326919887214899,1.6703095436096191,5.349877583771505,0.0001077453198377043,0.276909738779068,-1.6220486799823206,-0.0,-0.00997232273221016,0.6391171216964722,-0.0,0.0016649123281240463,0.9295789003372192,0.0,-0.0045219650492072105
1051.0,1045.0,-0.4068,0.3769,9.7161,-0.0437,0.0302,-0.1251,-1.6687756977477015,1.0684869655719353e-11,2.1057467460632324,-2.205143690109253,0.006139124743640423,1.7209725379943848,5.349909531861105,0.00010166003630729392,0.28701233863830566,-1.6220925490008753,-0.0,-0.006109321489930153,0.6391052007675171,-0.0,0.00995791144669056,0.9295424818992615,0.0,0.03604264557361603
1051.0,1045.0,-0.4068,0.3769,9.7161,-0.0437,0.0302,-0.1251,-1.6687756977477015,1.9232389169594874e-15,2.089468002319336,-2.205193042755127,0.005702199414372444,1.7393180131912231,5.34988163688735,9.79711112449877e-05,0.2712936997413635,-1.6220606009112757,-0.0,-0.011672746390104294,0.6391410231590271,-0.0,-0.010989109054207802,0.9295505285263062,0.0,0.03322449326515198
1051.0,1045.0,-0.4068,0.3769,9.7161,-0.0437,0.0302,-0.1251,-1.6687962017455042,4.64439578456399e-21,2.0886895656585693,-2.2051682472229004,0.005109275691211224,1.7354060411453247,5.3498615501220605,9.291386959375814e-05,0.28146734833717346,-1.622044865285055,-0.0,-0.030150314792990685,0.6391330361366272,-0.0,0.006509035360068083,0.9295260906219482,0.0,-0.017886247485876083
1051.0,1045.0,-0.4068,0.3769,9.7161,-0.0437,0.0302,-0.1251,-1.6687518558897914,1.1215671520066534e-26,2.063603162765503,-2.205137014389038,0.004941535647958517,1.7237532138824463,5.34988163688735,8.835316839395091e-05,0.2779967486858368,-1.6220524946795862,-0.0,-0.028516709804534912,0.6391529440879822,-0.0,0.0010454985313117504,0.9295507669448853,0.0,0.008725278079509735
1051.0,1045.0,-0.4068,0.3769,9.7161,-0.0437,0.0302,-0.1251,-1.6687680683531703,2.7084527133729925e-32,2.0370664596557617,-2.205085277557373,0.00432189553976059,1.7188931703567505,5.349909531861105,7.024446676950902e-05,0.2656171917915344,-1.622044865285055,-0.0,-0.03380107879638672,0.6391569375991821,-0.0,0.008881628513336182,0.9295220375061035,0.0,0.11865919828414917
1051.0,1045.0,-0.4068,0.3769,9.7161,-0.0437,0.0302,-0.1251,-1.6688000164427699,6.540594213399227e-38,2.102121353149414,-2.205080986022949,0.004224993288516998,1.7313991785049438,5.349869358330526,6.704573752358556e-05,0.2579556703567505,-1.62205678621401,-0.0,-0.012535742484033108,0.6391088962554932,-0.0,-0.004288230091333389,0.9295828342437744,0.0,0.08798644691705704
1051.0,1045.0,-0.4068,0.3769,9.7161,-0.0437,0.0302,-0.1251,-1.668783803979391,1.1772308398792788e-41,2.0526580810546875,-2.205009698867798,0.004357260651886463,1.7114686965942383,5.349897253304281,6.51057343930006e-05,0.25655969977378845,-1.6220563093768519,-0.0,-0.026774954050779343,0.6391009092330933,-0.0,0.00043859868310391903,0.9295018911361694,0.0,0.06272473186254501
1051.0,1045.0,-0.4068,0.3769,9.7161,-0.0437,0.0302,-0.1251,-1.6687876186766566,0.0,2.055773973464966,-2.2050211429595947,0.00409364141523838,1.7028621435165405,5.349877583771505,5.013056943425909e-05,0.265007346868515,-1.6220606009112757,-0.0,-0.02535124123096466,0.6390774250030518,-0.0,-0.006195478141307831,0.929574728012085,0.0,0.17131011188030243
1051.0,1045.0,-0.4068,0.3769,9.7161,-0.0437,0.0302,-0.1251,-1.668771883050436,0.0,2.0239639282226562,-2.205009698867798,0.004122786223888397,1.7138421535491943,5.349933671742239,3.604678568080999e-05,0.24869121611118317,-1.6221006552325647,-0.0,-0.03709409758448601,0.6391331553459167,-0.0,-0.009042201563715935,0.9295910596847534,7.54955253796652e-05,0.09727518260478973
1051.0,1045.0,-0.4068,0.3769,9.7161,-0.0437,0.0302,-0.1251,-1.6688200436034144,0.0,2.0212907791137695,-2.205005407333374,0.003203560598194599,1.7076072692871094,5.34985779502944,-3.315069989184849e-05,0.2527787685394287,-1.6220329443561,-0.0,-0.03283965587615967,0.6391088962554932,-0.00018240249482914805,-0.0013832257827743888,0.9295547008514404,8.623080066172406e-05,0.10277645289897919
1051.0,1045.0,-0.4068,0.3769,9.7161,-0.0437,0.0302,-0.1251,-1.6687923870482386,0.0,2.011413097381592,-2.2049694061279297,0.003131949109956622,1.7089296579360962,5.3498737690742395,-3.6412980989553034e-05,0.2683987021446228,-1.6220329443561,-0.0,-0.033822789788246155,0.6390854716300964,-0.00017142074648290873,-0.006162347737699747,0.9295624494552612,9.275467891711742e-05,0.13814187049865723
1051.0,1045.0,-0.4068,0.3769,9.7161,-0.0437,0.0302,-0.1251,-1.6688438854613246,0.0,1.9828308820724487,-2.204929828643799,0.003461248241364956,1.7589753866195679,5.349917638092794,-3.434777681832202e-05,0.23811763525009155,-1.622028652821676,-0.0,-0.05594964697957039,0.6390854716300964,-0.00020735120051540434,-0.010312577709555626,0.9295587539672852,0.00010195201321039349,0.12035903334617615
1051.0,1045.0,-0.4068,0.3769,9.7161,-0.0437,0.0302,-0.1251,-1.6687799892821253,0.0,2.003122329711914,-2.204913377761841,0.003886854276061058,1.7522296905517578,5.34989761093215,-4.869548138231039e-05,0.23705369234085083,-1.6220205465899866,-0.0,-0.04867663234472275,0.6390973329544067,-0.00022229613387025893,0.009192035533487797,0.9295423626899719,0.00010197444498771802,0.14927075803279877
1051.0,1045.0,-0.4068,0.3769,9.7161,-0.0437,0.0302,-0.1251,-1.6688038311400355,0.0,1.998645305633545,-2.2048966884613037,0.004847165197134018,1.7621145248413086,5.3498979089553735,-4.622873166226782e-05,0.23243705928325653,-1.6220806280719202,1.0063285316164183e-07,-0.04650241136550903,0.6390970349311829,-0.00034924500505439937,0.0014662877656519413,0.929566502571106,0.0003240482183173299,0.1681927740573883
1051.0,1045.0,-0.4068,0.3769,9.7161,-0.0437,0.0302,-0.1251,-1.6687919102110804,0.0,1.997946858406067,-2.204845905303955,0.005771571304649115,1.7527186870574951,5.349893557816305,-5.8133184211328626e-05,0.23752525448799133,-1.622028652821676,2.801152539089191e-11,-0.060269471257925034,0.639049232006073,-0.000377432384993881,0.0010687928879633546,0.9295706748962402,0.0003664018586277962,0.18392044305801392
1051.0,1045.0,-0.4068,0.3769,9.7161,-0.0437,0.0302,-0.1251,-1.6687799892821253,0.0,1.984783411026001,-2.2048499584198,0.006753856781870127,1.7283215522766113,5.3499135849769495,-5.6775556004140526e-05,0.2323746383190155,-1.6220529715167444,1.1941753738208688e-13,-0.04310782626271248,0.6390692591667175,-0.0003606095851864666,0.0064004226587712765,0.9295664429664612,0.0005911928601562977,0.17678487300872803
1035.0,1032.0,-0.3924,0.6467,9.7167,-0.0386,0.0328,-0.124,-1.6688081226744593,0.0,1.9462997913360596,-2.204725980758667,0.007949156686663628,1.7894749641418457,5.3499135849769495,-5.421258174465038e-05,0.23632104694843292,-1.6220405737506312,3.324031247244752e-17,-0.061237633228302,0.6390295028686523,-0.0005859900265932083,-0.002414907328784466,0.9296190142631531,0.000594580196775496,0.19596776366233826
1035.0,1032.0,-0.3924,0.6467,9.7167,-0.0386,0.0328,-0.124,-1.6687756977477015,0.0,2.0323359966278076,-2.204770088195801,0.010555675253272057,1.7321395874023438,5.34986566284255,-5.186929047340527e-05,0.23786413669586182,-1.6220524946795862,9.252565258824705e-21,-0.06696035712957382,0.6390056610107422,-0.0013847211375832558,-0.020155133679509163,0.9295910596847534,0.0006134799332357943,0.2066042721271515
1035.0,1032.0,-0.3924,0.6467,9.7167,-0.0386,0.0328,-0.124,-1.6687919102110804,0.0,2.001115322113037,-2.2046706676483154,0.011559177190065384,1.7801008224487305,5.34988950470046,-4.972019451088272e-05,0.22665199637413025,-1.6220486799823206,2.5754855079248166e-24,-0.06941482424736023,0.6390136480331421,-0.0011945228325203061,-0.02601778134703636,0.9295828342437744,0.000442537828348577,0.2405335009098053
1035.0,1032.0,-0.3924,0.6467,9.7167,-0.0386,0.0328,-0.124,-1.6688162289061488,0.0,2.015477180480957,-2.204606533050537,0.014501894824206829,1.826521635055542,5.349869715958395,-4.7742076276335865e-05,0.2320861518383026,-1.6220248381244105,7.168959809918064e-28,-0.07323478907346725,0.6389937400817871,-0.0011676597641780972,-0.015994815155863762,0.9295865893363953,0.00034169357968494296,0.26728498935699463
1035.0,1032.0,-0.3924,0.6467,9.7167,-0.0386,0.0328,-0.124,-1.6687919102110804,0.0,1.9504051208496094,-2.2045390605926514,0.01669517159461975,1.8009966611862183,5.349857735424795,-4.650849587051198e-05,0.22719386219978333,-1.6220367590533655,3.0562397969966837e-30,-0.07516928017139435,0.6389977335929871,-0.0015774345956742764,-0.03352685645222664,0.9296026229858398,0.00029663380701094866,0.1683025360107422
1035.0,1032.0,-0.3924,0.6467,9.7167,-0.0386,0.0328,-0.124,-1.6687680683531703,0.0,1.9657211303710938,-2.2044191360473633,0.019626500084996223,1.828855276107788,5.349885690003195,-4.477324546314776e-05,0.2335919439792633,-1.622016731892721,8.507155472656592e-34,-0.06709013134241104,0.6389418840408325,-0.0034647583961486816,-0.03662053868174553,0.929598867893219,0.0002152082888642326,0.17922398447990417
1035.0,1032.0,-0.3924,0.6467,9.7167,-0.0386,0.0328,-0.124,-1.6687680683531703,0.0,1.963517665863037,-2.2042832374572754,0.02347431518137455,1.8489488363265991,5.349905776768484,-5.395036714617163e-05,0.22596928477287292,-1.622028652821676,2.3679982229239354e-37,-0.06248626112937927,0.6388978958129883,-0.009821554645895958,-0.040554579347372055,0.9296026229858398,0.00017004368419293314,0.18619053065776825
1035.0,1032.0,-0.3924,0.6467,9.7167,-0.0386,0.0328,-0.124,-1.668772359887594,0.0,2.0180718898773193,-2.2041351795196533,0.028089212253689766,1.900681972503662,5.349893855839529,-5.2080249588470906e-05,0.21322748064994812,-1.62205678621401,6.591427716491075e-41,-0.07573166489601135,0.638850212097168,-0.01655871607363224,-0.05201851204037666,0.9295220375061035,0.00011188229109393433,0.17532138526439667
1035.0,1032.0,-0.3924,0.6467,9.7167,-0.0386,0.0328,-0.124,-1.6687680683531703,0.0,1.9867122173309326,-2.2040159702301025,0.031524933874607086,1.8347687721252441,5.3498979089553735,-0.00010373590339440852,0.2274674028158188,-1.6220367590533655,2.8166099132928823e-43,-0.0436280183494091,0.638826847076416,-0.01604931242763996,-0.05811740830540657,0.9295910596847534,0.00010316622501704842,0.16488057374954224
1035.0,1032.0,-0.3924,0.6467,9.7167,-0.0386,0.0328,-0.124,-1.6687962017455042,0.0,1.9657026529312134,-2.20379638671875,0.034996017813682556,1.8766636848449707,5.349861848145284,-0.00012009325291728601,0.21600395441055298,-1.622044865285055,0.0,-0.05828893929719925,0.6386866569519043,-0.011652722954750061,-0.053094618022441864,0.9296190142631531,-8.040323882596567e-05,0.16874565184116364
1035.0,1032.0,-0.3924,0.6467,9.7167,-0.0386,0.0328,-0.124,-1.6688281498351039,0.0,1.960158348083496,-2.2036056518554688,0.04003237560391426,1.9088650941848755,5.349861848145284,-0.0001501864317106083,0.2299124002456665,-1.6220410505877894,0.0,-0.061430223286151886,0.6387069225311279,-0.004561865236610174,-0.0711291953921318,0.929607093334198,-7.090240978868678e-05,0.12118987739086151
1035.0,1032.0,-0.3924,0.6467,9.7167,-0.0386,0.0328,-0.124,-1.66882385830068,0.0,1.9335718154907227,-2.203338384628296,0.0448785200715065,1.9189894199371338,5.34984581449584,-0.0005281125195324421,0.2298847734928131,-1.6220129171954554,0.0,-0.05785775184631348,0.6386592388153076,-0.000930017267819494,-0.047386787831783295,0.9295341968536377,-6.340911204461008e-05,0.11151227355003357
1035.0,1032.0,-0.3924,0.6467,9.7167,-0.0386,0.0328,-0.124,-1.6687962017455042,0.0,1.9544456005096436,-2.203111171722412,0.04875877499580383,1.9118151664733887,5.34985779502944,-0.0004849512770306319,0.21797284483909607,-1.6220372358905237,0.0,-0.04540563002228737,0.6386628746986389,-0.000515512190759182,-0.04632323980331421,0.9295870065689087,-8.601678564446047e-05,0.10830546915531158
1035.0,1032.0,-0.3924,0.6467,9.7167,-0.0386,0.0328,-0.124,-1.668755670587057,0.0,1.9190982580184937,-2.202871084213257,0.05216386914253235,1.9239420890808105,5.349877822190084,-0.0004802510666195303,0.20629286766052246,-1.6219642798053187,0.0,-0.06728695333003998,0.6386989951133728,-0.0004005063674412668,-0.054595284163951874,0.9295988082885742,-8.086929301498458e-05,0.18430444598197937
1035.0,1032.0,-0.3924,0.6467,9.7167,-0.0386,0.0328,-0.124,-1.6687795124449671,0.0,1.885422945022583,-2.2025198936462402,0.05649958550930023,1.941441297531128,5.349849927216329,-0.0005264679784886539,0.19131223857402802,-1.6219928900348108,0.0,-0.030232049524784088,0.6386830806732178,-0.0003001806326210499,-0.052855201065540314,0.9296227097511292,-7.420175825245678e-05,0.11062229424715042
1035.0,1032.0,-0.3924,0.6467,9.7167,-0.0386,0.0328,-0.124,-1.6688081226744593,0.0,1.9011985063552856,-2.2021777629852295,0.05936345085501671,1.9056007862091064,5.349886047631063,-0.0005443479167297482,0.19910266995429993,-1.6219804922686976,0.0,-0.03939831629395485,0.6386112570762634,-0.0002400781086180359,-0.07278057932853699,0.9295947551727295,-6.855000538052991e-05,0.06640516221523285
1066.0,1042.0,-0.5127,0.4863,9.798,-0.0418,0.0864,-0.1182,-1.668811937371725,0.0,1.8805477619171143,-2.201826333999634,0.06351380050182343,1.9475153684616089,5.349833595543661,-0.0007819080492481589,0.18758563697338104,-1.6219804922686976,0.0,-0.028115591034293175,0.6387069225311279,-0.00020003702957183123,-0.055348172783851624,0.9295787811279297,-6.369825132424012e-05,0.1288144588470459
1066.0,1042.0,-0.5127,0.4863,9.798,-0.0418,0.0864,-0.1182,-1.66882385830068,0.0,1.853934407234192,-2.201343536376953,0.06764373928308487,1.9736461639404297,5.34984581449584,-0.0011731382692232728,0.186287522315979,-1.6219843069659632,0.0,-0.030424386262893677,0.638683021068573,-0.00012935581617057323,-0.06782102584838867,0.9295828342437744,-5.948793113930151e-05,0.11552876234054565
1066.0,1042.0,-0.5127,0.4863,9.798,-0.0418,0.0864,-0.1182,-1.6688081226744593,-0.00017263423069380224,1.8720083236694336,-2.201104164123535,0.07142598927021027,1.9449635744094849,5.349814164429464,-0.0012558931484818459,0.17291107773780823,-1.622004810963766,0.0,-0.021986454725265503,0.6386910080909729,-0.00011740377522073686,-0.05617522448301315,0.9295947551727295,-5.6977227359311655e-05,0.08229793608188629
1066.0,1042.0,-0.5127,0.4863,9.798,-0.0418,0.0864,-0.1182,-1.6688438854613246,-0.00021334580378606915,1.830639362335205,-2.2006378173828125,0.07455934584140778,2.0091700553894043,5.349822389870443,-0.0014622940216213465,0.1588231325149536,-1.6220329443561,0.0,-0.016893459483981133,0.638731062412262,6.606657552765682e-05,-0.05135086551308632,0.9295583367347717,-5.358488851925358e-05,0.10379418730735779
1066.0,1042.0,-0.5127,0.4863,9.798,-0.0418,0.0864,-0.1182,-1.6688157520689906,-0.00022479495964944363,1.82509183883667,-2.2002511024475098,0.07765519618988037,1.9914228916168213,5.349822389870443,-0.0018866509199142456,0.15904781222343445,-1.6219847838031214,0.0,-0.02287575602531433,0.6387824416160583,9.55368741415441e-05,-0.05010734498500824,0.9295827746391296,-5.057384623796679e-05,0.12997236847877502
1066.0,1042.0,-0.5127,0.4863,9.798,-0.0418,0.0864,-0.1182,-1.6687995396056117,-0.0004247644974384457,1.819841980934143,-2.199720859527588,0.08029846101999283,1.9922271966934204,5.349781858711996,-0.002421770943328738,0.16270330548286438,-1.6219847838031214,0.00020270264940336347,-0.010131096467375755,0.6387069225311279,0.00011440683738328516,-0.04511876404285431,0.9296153783798218,-4.788312071468681e-05,0.1314556896686554
1066.0,1042.0,-0.5127,0.4863,9.798,-0.0418,0.0864,-0.1182,-1.668767591516012,-0.00035730242962017655,1.8394944667816162,-2.1993579864501953,0.08348313719034195,2.0355710983276367,5.349769937783041,-0.003077498869970441,0.15304771065711975,-1.621972386037008,0.00018727767746895552,-0.028280947357416153,0.6387069225311279,0.0001347804063698277,-0.052721887826919556,0.9295947551727295,-4.624300709110685e-05,0.1329975724220276
1066.0,1042.0,-0.5127,0.4863,9.798,-0.0418,0.0864,-0.1182,-1.6687795124449671,-0.00028855379787273705,1.84377121925354,-2.1989195346832275,0.08819866925477982,2.0391862392425537,5.349774467736044,-0.005619063973426819,0.1455099880695343,-1.6220253149615687,0.00019949117267969996,-0.029176630079746246,0.6386790871620178,0.0003607575490605086,-0.03933723643422127,0.92958664894104,-4.398307282826863e-05,0.10971666872501373
1066.0,1042.0,-0.5127,0.4863,9.798,-0.0418,0.0864,-0.1182,-1.6688038311400355,-0.00024204206420108676,1.873337984085083,-2.1982932090759277,0.09870215505361557,2.0853395462036133,5.349746155529775,-0.00826044101268053,0.16120700538158417,-1.6219967047320765,0.00017982836288865656,-0.022112326696515083,0.638698935508728,0.00035586487501859665,-0.024304140359163284,0.9295870065689087,-4.1933781176339835e-05,0.12355485558509827
1066.0,1042.0,-0.5127,0.4863,9.798,-0.0418,0.0864,-0.1182,-1.6688157520689906,-0.00020837750344071537,1.8379034996032715,-2.197718620300293,0.10830316692590714,2.0884668827056885,5.349642145424642,-0.0081230653449893,0.1547015756368637,-1.6219967047320765,0.00016349311044905335,-0.030712345615029335,0.6387310028076172,0.00038971175672486424,-0.031170234084129333,0.9296029806137085,-4.00669923692476e-05,0.12924954295158386
1066.0,1042.0,-0.5127,0.4863,9.798,-0.0418,0.0864,-0.1182,-1.66882385830068,-0.00021903609740547836,1.8703804016113281,-2.197000503540039,0.12246524542570114,2.09956431388855,5.34961889961318,-0.006010729353874922,0.16516375541687012,-1.6220091024981897,0.00014987857139203697,-0.02549419179558754,0.6387150883674622,0.0004403314960654825,-0.014097969979047775,0.9295547008514404,-2.608230715850368e-05,0.10780015587806702
1066.0,1042.0,-0.5127,0.4863,9.798,-0.0418,0.0864,-0.1182,-1.6688276729979457,-0.00026670098304748535,1.8791685104370117,-2.1965012550354004,0.13164028525352478,2.1550910472869873,5.3496665237243555,-0.0046079386956989765,0.15628410875797272,-1.6220372358905237,0.00014199578436091542,-0.022352557629346848,0.6387505531311035,0.0004432140267454088,-0.017043132334947586,0.9296148419380188,-2.486640732968226e-05,0.1550906002521515
1066.0,1042.0,-0.5127,0.4863,9.798,-0.0418,0.0864,-0.1182,-1.6688276729979457,-0.00025335134705528617,1.8030617237091064,-2.1956443786621094,0.1444823145866394,2.1257593631744385,5.3495951173599146,-0.0030490600038319826,0.16358481347560883,-1.6220329443561,0.00013161273091100156,-0.030068328604102135,0.6387984752655029,0.00047363556222990155,-0.024735180661082268,0.9296107888221741,-2.3876789782661945e-05,0.15728087723255157
1066.0,1042.0,-0.5127,0.4863,9.798,-0.0418,0.0864,-0.1182,-1.6688443622984828,-0.00025928349350579083,1.845590353012085,-2.1947717666625977,0.1505269855260849,2.1652724742889404,5.34956722238616,-0.0020750092808157206,0.16580814123153687,-1.6219685713397425,0.00012264474935363978,-0.03018159791827202,0.6387545466423035,0.0005608214414678514,-0.021547354757785797,0.9295947551727295,-2.2963002265896648e-05,0.1515136957168579
1066.0,1042.0,-0.5127,0.4863,9.798,-0.0418,0.0864,-0.1182,-1.6688319645323695,-0.0002308193506905809,1.8444058895111084,-2.193802833557129,0.15794940292835236,2.171092987060547,5.349575269013204,-0.0013728823978453875,0.1466183215379715,-1.6219928900348108,0.00011482100671855733,-0.022342879325151443,0.6387032866477966,0.000507193966768682,-0.012936457991600037,0.9296107888221741,-1.1060325050493702e-05,0.13501495122909546
1066.0,1042.0,-0.5127,0.4863,9.798,-0.0418,0.0864,-0.1182,-1.6688481769957484,-0.00016267258615698665,1.8548120260238647,-2.1927926540374756,0.17133720219135284,2.1949543952941895,5.349627125054159,-0.0008351160795427859,0.15584878623485565,-1.621972386037008,0.00010793560068123043,-0.008341334760189056,0.6387505531311035,0.00046727407607249916,-0.016611462458968163,0.9296026229858398,-2.670938123450206e-11,0.15991976857185364
1048.0,1051.0,-0.3398,0.4756,9.9577,-0.0605,0.1802,-0.124,-1.668840070764059,-6.881976150907576e-05,1.8605602979660034,-2.192042589187622,0.18152646720409393,2.1914570331573486,5.34956310966567,-0.0006598098552785814,0.15356089174747467,-1.6220253149615687,0.00010378650767961517,-0.03822460025548935,0.6388065218925476,0.0004734829708468169,0.0027822190895676613,0.929598867893219,-4.807593837190694e-15,0.19384631514549255
1048.0,1051.0,-0.3398,0.4756,9.9577,-0.0605,0.1802,-0.124,-1.668835779229635,-5.596670598606579e-05,1.8469067811965942,-2.1909542083740234,0.19863508641719818,2.1976161003112793,5.34959094503478,-0.0005064923316240311,0.14969201385974884,-1.6219928900348108,9.812836651690304e-05,-0.02756894752383232,0.6387466192245483,0.00046050254604779184,-0.00742331612855196,0.929566502571106,-1.1609773934040112e-20,0.17966419458389282
1048.0,1051.0,-0.3398,0.4756,9.9577,-0.0605,0.1802,-0.124,-1.668863912621969,-0.00013588446017820388,1.8912734985351562,-2.189702272415161,0.20888271927833557,2.296649932861328,5.349555301457205,-0.0016524147940799594,0.1733793169260025,-1.6219843069659632,9.305540152126923e-05,-0.028978988528251648,0.6387708187103271,0.0004383604391478002,0.0005290084518492222,0.9296349287033081,-2.80362398310712e-26,0.21744319796562195
1048.0,1051.0,-0.3398,0.4756,9.9577,-0.0605,0.1802,-0.124,-1.6688233814635218,-0.00021001756249461323,1.8397247791290283,-2.1883254051208496,0.21607457101345062,2.22054386138916,5.34960691907958,-0.002012569224461913,0.16974732279777527,-1.6219685713397425,8.84810506249778e-05,-0.02982327714562416,0.6387588381767273,0.00041943605174310505,-0.021629128605127335,0.9295984506607056,-6.770421344034203e-32,0.2261030375957489
1048.0,1051.0,-0.3398,0.4756,9.9577,-0.0605,0.1802,-0.124,-1.6688233814635218,-0.0002917617093771696,1.8334925174713135,-2.187476396560669,0.22651952505111694,2.259653329849243,5.349579381733694,-0.0016062959330156446,0.1515628695487976,-1.6220133940326136,9.988956298911944e-05,-0.022191572934389114,0.6387746930122375,0.0004230309568811208,-0.006502015516161919,0.9295583367347717,-1.2186517247769217e-35,0.2415153682231903
1048.0,1051.0,-0.3398,0.4756,9.9577,-0.0605,0.1802,-0.124,-1.6688152752318324,-0.0002593659737613052,1.8384236097335815,-2.1860692501068115,0.24194380640983582,2.327695846557617,5.349571275502004,-0.0008296819287352264,0.14738357067108154,-1.621988598500387,9.541113104205579e-05,-0.017786191776394844,0.6388342976570129,0.0004004441434517503,-0.02104002609848976,0.929582417011261,0.0005204059998504817,0.2143973410129547
1048.0,1051.0,-0.3398,0.4756,9.9577,-0.0605,0.1802,-0.124,-1.6688033543028773,-0.00017697473231237382,1.9044554233551025,-2.184521198272705,0.25658202171325684,2.327958106994629,5.349531161576071,-0.0010990826413035393,0.15304845571517944,-1.6219762007342737,9.126463555730879e-05,-0.02720734477043152,0.6387667655944824,0.0003867315244860947,-0.001377770910039544,0.9295706152915955,0.00040393852395936847,0.23648996651172638
1048.0,1051.0,-0.3398,0.4756,9.9577,-0.0605,0.1802,-0.124,-1.668851991693014,-0.00015417109534610063,1.8673069477081299,-2.1829304695129395,0.26211613416671753,2.364147186279297,5.349559414177694,-0.0033211782574653625,0.15201766788959503,-1.6220091024981897,8.746356616029516e-05,-0.03438567742705345,0.6388065218925476,0.0003752337070181966,-0.027669765055179596,0.9296066761016846,0.0002749118139036,0.1710122525691986
1048.0,1051.0,-0.3398,0.4756,9.9577,-0.0605,0.1802,-0.124,-1.6688276729979457,-0.0001707717019598931,1.8589224815368652,-2.1811916828155518,0.2793865203857422,2.294968843460083,5.3494711993034265,-0.002320888452231884,0.1444646120071411,-1.6219404379474085,8.396639896091074e-05,-0.020614219829440117,0.6388105154037476,0.00033422306296415627,-0.013450105674564838,0.9296226501464844,0.0002787898702081293,0.2114591896533966
1048.0,1051.0,-0.3398,0.4756,9.9577,-0.0605,0.1802,-0.124,-1.6687914333739222,-0.0001587253500474617,1.8462905883789062,-2.1800312995910645,0.29447507858276367,2.438990354537964,5.34953527429656,-0.0015485513722524047,0.1542779505252838,-1.6219967047320765,8.178633288480341e-05,-0.02312159165740013,0.6387985944747925,0.000343542720656842,-0.0016204441199079156,0.9295865893363953,0.00029480268131010234,0.21329975128173828
1048.0,1051.0,-0.3398,0.4756,9.9577,-0.0605,0.1802,-0.124,-1.668851991693014,-0.00011482949048513547,1.8595378398895264,-2.1783320903778076,0.31201988458633423,2.429374933242798,5.349531519203939,-0.0008188053616322577,0.138559490442276,-1.621972386037008,7.87204917287454e-05,-0.019658222794532776,0.6388382911682129,0.0002977539843413979,-0.011775684542953968,0.9296226501464844,0.0002585164620541036,0.22420921921730042
1048.0,1051.0,-0.3398,0.4756,9.9577,-0.0605,0.1802,-0.124,-1.668851991693014,-0.00013099718489684165,1.8933393955230713,-2.1764442920684814,0.32220736145973206,2.457505464553833,5.349503922253408,-0.0024388888850808144,0.14210906624794006,-1.621988598500387,7.587624713778496e-05,-0.02968817576766014,0.6387906670570374,0.0003086004580836743,0.007858156226575375,0.9296026229858398,0.0002301792846992612,0.1871473789215088
1048.0,1051.0,-0.3398,0.4756,9.9577,-0.0605,0.1802,-0.124,-1.668807169000143,-0.00020294463320169598,1.8794455528259277,-2.1744396686553955,0.33910897374153137,2.4859189987182617,5.349471556931295,-0.004538333974778652,0.1454918533563614,-1.6219847838031214,7.323034515138716e-05,-0.018400415778160095,0.6388144493103027,0.0003145597002003342,0.006648916285485029,0.9296267032623291,0.00020744070934597403,0.20269373059272766
1048.0,1051.0,-0.3398,0.4756,9.9577,-0.0605,0.1802,-0.124,-1.6688438854613246,-0.0014270730316638947,1.8549314737319946,-2.1723577976226807,0.3568791449069977,2.4754528999328613,5.349431502610006,-0.003160276683047414,0.13613757491111755,-1.6219967047320765,8.020417590159923e-05,-0.025060296058654785,0.6388303637504578,0.0003146700037177652,0.0012892225058749318,0.9295783638954163,0.00018879138224292547,0.24071958661079407
1048.0,1051.0,-0.3398,0.4756,9.9577,-0.0605,0.1802,-0.124,-1.6688477001585902,-0.0036173155531287193,1.890672206878662,-2.170950412750244,0.37091419100761414,2.493892192840576,5.349447834282675,-0.002491776365786791,0.14612151682376862,-1.6219447294818323,2.0319484974606894e-05,-0.02778434380888939,0.638850212097168,0.0003222395898774266,0.008825619705021381,0.9296185970306396,0.00017811608267948031,0.21526417136192322
1048.0,1051.0,-0.3398,0.4756,9.9577,-0.0605,0.1802,-0.124,-1.6689039669432582,-0.006553910672664642,1.8722127676010132,-2.168672800064087,0.3835441768169403,2.559887409210205,5.349407899170675,-0.0031787187326699495,0.13038523495197296,-1.621988598500387,5.656004109511059e-09,-0.018896102905273438,0.6388184428215027,0.0002883382549043745,0.007429382763803005,0.9296307563781738,0.00018764541891869158,0.22980374097824097
1013.0,991.0,-0.874,0.5689,10.1545,-0.0878,0.4163,-0.1465,-1.6689678631224574,-0.008842594921588898,1.8832111358642578,-2.1662914752960205,0.4005897343158722,2.527855634689331,5.3493796465690515,-0.004023201763629913,0.13382384181022644,-1.6219847838031214,1.5743696494055492e-12,-0.017969662323594093,0.6387787461280823,0.0003114589781034738,0.002715327078476548,0.9296185970306396,0.00017403815581928939,0.27774685621261597
1013.0,991.0,-0.874,0.5689,10.1545,-0.0878,0.4163,-0.1465,-1.6689673862852992,-0.006385064218193293,1.855828046798706,-2.1638638973236084,0.4284036457538605,2.5877761840820312,5.349343585758962,-0.0020988842006772757,0.13197755813598633,-1.6219647566424769,4.382315535033255e-16,-0.027941588312387466,0.6388422846794128,0.00026442322996445,0.011625166051089764,0.9296307563781738,0.0001622708368813619,0.21788713335990906
1013.0,991.0,-0.874,0.5689,10.1545,-0.0878,0.4163,-0.1465,-1.6690722904601039,-0.00479473453015089,1.9202699661254883,-2.162112236022949,0.437349408864975,2.5856776237487793,5.349319922714987,-0.001213596435263753,0.1425343006849289,-1.621972386037008,1.8682498655872608e-18,-0.02656160295009613,0.6388184428215027,0.00023660749138798565,0.0067664459347724915,0.9296389818191528,0.00015527187497355044,0.19582204520702362
1013.0,991.0,-0.874,0.5689,10.1545,-0.0878,0.4163,-0.1465,-1.6691042385497035,-0.004826704040169716,1.8510041236877441,-2.1594247817993164,0.453346848487854,2.6453428268432617,5.349308180599966,-0.0033456163946539164,0.13290652632713318,-1.6219924131976526,5.200342238478907e-22,-0.02765103057026863,0.6387985944747925,0.00020436185877770185,0.008500110357999802,0.9295947551727295,0.00014583684969693422,0.24265305697917938
1013.0,991.0,-0.874,0.5689,10.1545,-0.0878,0.4163,-0.1465,-1.6690837345519007,-0.00794220995157957,1.858310341835022,-2.1566267013549805,0.46117067337036133,2.613086462020874,5.349304187088766,-0.008719008415937424,0.12455040961503983,-1.6219609419452112,1.4475342463606534e-25,-0.016074225306510925,0.6388698816299438,0.00017985324666369706,0.016027523204684258,0.9296144247055054,0.00010280192509526387,0.20654404163360596
1013.0,991.0,-0.874,0.5689,10.1545,-0.0878,0.4163,-0.1465,-1.6691914997496546,-0.010965674184262753,1.8353271484375,-2.153715133666992,0.4794204533100128,2.6579298973083496,5.349204468518057,-0.012858815491199493,0.12334495782852173,-1.6220091024981897,4.029263916336164e-29,-0.014853515662252903,0.6387748718261719,0.00016059409244917333,0.010525715537369251,0.9296430945396423,0.00011393734894227237,0.22945396602153778
1013.0,991.0,-0.874,0.5689,10.1545,-0.0878,0.4163,-0.1465,-1.669255872766012,-0.010685482062399387,1.8324949741363525,-2.1507272720336914,0.4963386356830597,2.6173582077026367,5.349169003754415,-0.012391265481710434,0.10453365743160248,-1.6219847838031214,4.05778291678871e-06,-0.0191439688205719,0.6387747526168823,0.00014506158186122775,0.011365894228219986,0.9296185970306396,0.00010715776443248615,0.25081539154052734
1013.0,991.0,-0.874,0.5689,10.1545,-0.0878,0.4163,-0.1465,-1.6692234478392542,-0.008894223719835281,1.8772653341293335,-2.148746967315674,0.5081977248191833,2.6812524795532227,5.349100696831503,-0.012823767960071564,0.1150873526930809,-1.621920410786764,1.7298965815371048e-08,-0.009853816591203213,0.6388382315635681,0.0001362748007522896,0.0035702220629900694,0.9295865893363953,0.00010306729382136837,0.201274573802948
1013.0,991.0,-0.874,0.5689,10.1545,-0.0878,0.4163,-0.1465,-1.6692639789977015,-0.006135616451501846,1.8557896614074707,-2.1456308364868164,0.5232304334640503,2.678016185760498,5.349017011910238,-0.012471359223127365,0.10662158578634262,-1.6219804922686976,4.815231113147744e-12,-0.011493952013552189,0.6388580799102783,0.0001249244378414005,0.009363825432956219,0.9296267628669739,9.748530283104628e-05,0.21604393422603607
1013.0,991.0,-0.874,0.5689,10.1545,-0.0878,0.4163,-0.1465,-1.6693273983397425,-0.004535123240202665,1.8720930814743042,-2.1424667835235596,0.5393814444541931,2.6357550621032715,5.348957347660818,-0.009251204319298267,0.1065366268157959,-1.6219609419452112,1.340337418317798e-15,-0.023755576461553574,0.6387747526168823,0.00013241349370218813,0.016764067113399506,0.9296307563781738,0.00010788877989398316,0.26367199420928955
1013.0,991.0,-0.874,0.5689,10.1545,-0.0878,0.4163,-0.1465,-1.6693507633604945,-0.007155712228268385,1.7991046905517578,-2.1391761302948,0.5525140762329102,2.705012798309326,5.348865556507864,-0.011119387112557888,0.10743860900402069,-1.6219447294818323,3.7308784702255526e-19,-0.009854905307292938,0.6388224363327026,0.0001285020844079554,0.012242332100868225,0.9296426773071289,0.00010261777060804889,0.23720917105674744
1013.0,991.0,-0.874,0.5689,10.1545,-0.0878,0.4163,-0.1465,-1.669438978234762,-0.010678605176508427,1.7596312761306763,-2.135784149169922,0.5580517053604126,2.596099376678467,5.348762440472402,-0.018028073012828827,0.10286609828472137,-1.6219890753375452,0.000331049261149019,-0.008010758087038994,0.6388342380523682,0.00011994069791398942,0.0058059245347976685,0.9296430349349976,0.00010703835869207978,0.17980121076107025
1013.0,991.0,-0.874,0.5689,10.1545,-0.0878,0.4163,-0.1465,-1.6694265804686488,-0.013273054733872414,1.7651586532592773,-2.133582592010498,0.5704664587974548,2.6338343620300293,5.348698246269979,-0.020330987870693207,0.0862773060798645,-1.621932331715719,0.00034970155684277415,-0.00831671990454197,0.638850212097168,0.00011483897105790675,0.004991925321519375,0.9296266436576843,0.0001084445757442154,0.17932359874248505
1013.0,991.0,-0.874,0.5689,10.1545,-0.0878,0.4163,-0.1465,-1.669551511804098,-0.01498007494956255,1.7745336294174194,-2.1301164627075195,0.5817030072212219,2.607285976409912,5.348559009819784,-0.02658223547041416,0.08093619346618652,-1.6219609419452112,0.0006114491843618453,-0.0009917613351717591,0.6388343572616577,0.00010795162961585447,0.009809693321585655,0.9296427369117737,0.0001745702320476994,0.18977013230323792
1013.0,991.0,-0.874,0.5689,10.1545,-0.0878,0.4163,-0.1465,-1.6696554623045863,-0.015501423738896847,1.792665958404541,-2.1266298294067383,0.5906696319580078,2.6281816959381104,5.348372149258413,-0.04084620252251625,0.059775643050670624,-1.6219490210162562,0.0006691946182399988,-0.014547081664204597,0.6388664245605469,0.0001187792731798254,0.004398132674396038,0.9296390414237976,0.0001365555654047057,0.243024542927742
1013.0,991.0,-0.874,0.5689,10.1545,-0.0878,0.4163,-0.1465,-1.6697312794127406,-0.01677531935274601,1.7766928672790527,-2.123077869415283,0.5931158661842346,2.6901803016662598,5.348073112755575,-0.06757604330778122,0.04630836099386215,-1.621897045766012,0.0010342895984649658,0.0016469170805066824,0.6388422250747681,0.00011245478526689112,0.015283923596143723,0.929546058177948,0.00011383260425645858,0.19598758220672607
623.0,562.0,-2.6566,0.3194,9.6425,-0.1171,0.6075,-0.1413,-1.66984285930776,-0.01878114603459835,1.7303776741027832,-2.1206161975860596,0.5995285511016846,2.64957594871521,5.347758400231161,-0.09093309193849564,0.025316720828413963,-1.6219127813922327,0.002619118895381689,0.008138428442180157,0.6388343572616577,0.00010857851157197729,0.01859218254685402,0.9295865893363953,0.00010706169268814847,0.1625169962644577
623.0,562.0,-2.6566,0.3194,9.6425,-0.1171,0.6075,-0.1413,-1.6699191532530726,-0.02080676518380642,1.7864750623703003,-2.1169705390930176,0.610856294631958,2.6607675552368164,5.347024428635397,-0.13409630954265594,0.017529556527733803,-1.6218574682818812,0.00898598600178957,0.014758149161934853,0.6388742923736572,0.00011773687583627179,0.015288598835468292,0.9296103119850159,9.829215559875593e-05,0.1369105875492096
623.0,562.0,-2.6566,0.3194,9.6425,-0.1171,0.6075,-0.1413,-1.670018812219137,-0.021545402705669403,1.726982831954956,-2.1132924556732178,0.625913679599762,2.6314916610717773,5.34608422496871,-0.16127365827560425,-0.021842151880264282,-1.6217406431781214,0.024355201050639153,0.02923077717423439,0.638850212097168,9.502463217359036e-05,0.010959688574075699,0.9296627640724182,9.085051715373993e-05,0.09179641306400299
623.0,562.0,-2.6566,0.3194,9.6425,-0.1171,0.6075,-0.1413,-1.6700860462584437,-0.020585650578141212,1.7581064701080322,-2.109549045562744,0.6326012015342712,2.6163792610168457,5.345053183823385,-0.17895600199699402,-0.01963753253221512,-1.6216414610492151,0.025053439661860466,0.041353486478328705,0.638830304145813,8.398805221077055e-05,0.006326600909233093,0.9296307563781738,6.418943667085841e-05,0.11694924533367157
623.0,562.0,-2.6566,0.3194,9.6425,-0.1171,0.6075,-0.1413,-1.6702619991698207,-0.022497951984405518,1.7493135929107666,-2.10575008392334,0.632466733455658,2.619826316833496,5.343873846321859,-0.20463483035564423,-0.028762217611074448,-1.6215255896197718,0.017080971971154213,0.029666738584637642,0.6388541460037231,9.438257256988436e-05,0.013335038907825947,0.9296509027481079,-8.582744339946657e-05,0.14847368001937866
623.0,562.0,-2.6566,0.3194,9.6425,-0.1171,0.6075,-0.1413,-1.6703902683653773,-0.025416327640414238,1.7579407691955566,-2.1032235622406006,0.6386407017707825,2.670224666595459,5.342981445580282,-0.23142960667610168,-0.020051511004567146,-1.6215055624591272,0.011070089414715767,0.05287910997867584,0.6388105154037476,9.217690239893273e-05,0.002279158914461732,0.9296550154685974,-7.842299237381667e-05,0.05264686793088913
623.0,562.0,-2.6566,0.3194,9.6425,-0.1171,0.6075,-0.1413,-1.6705581150450648,-0.028304241597652435,1.7504446506500244,-2.0993943214416504,0.6490116715431213,2.6095433235168457,5.341475653439321,-0.2508743107318878,-0.04439642280340195,-1.621474568043844,0.003402368864044547,0.045853447169065475,0.6388742923736572,0.00010039454355137423,0.01999526470899582,0.9296390414237976,-0.00010386920621385798,0.044755350798368454
623.0,562.0,-2.6566,0.3194,9.6425,-0.1171,0.6075,-0.1413,-1.670757909814352,-0.029739055782556534,1.7460136413574219,-2.0954620838165283,0.6542029976844788,2.600804328918457,5.3397631523902795,-0.3025922179222107,-0.09406092017889023,-1.6214583555804651,0.0010164021514356136,0.0535275861620903,0.6388025879859924,9.755262726685032e-05,0.0221173707395792,0.9296066164970398,-0.00012390852498356253,0.09335058927536011
623.0,562.0,-2.6566,0.3194,9.6425,-0.1171,0.6075,-0.1413,-1.6709581814207972,-0.03034628927707672,1.735944151878357,-2.091533899307251,0.645953893661499,2.668073892593384,5.337679075985708,-0.3473024368286133,-0.09739796817302704,-1.62144643465151,0.0007214171928353608,0.06701654940843582,0.6388461589813232,0.00010642471897881478,0.02157241851091385,0.9295947551727295,-0.00042039353866130114,0.07968822866678238
623.0,562.0,-2.6566,0.3194,9.6425,-0.1171,0.6075,-0.1413,-1.6711136303343714,-0.03083893284201622,1.7305002212524414,-2.08750057220459,0.6467192769050598,2.6822400093078613,5.335480201035299,-0.3985233008861542,-0.10775356739759445,-1.6214583555804651,0.0005345373647287488,0.047739461064338684,0.6389176249504089,0.00010201155964750797,-0.0005427193827927113,0.9296267032623291,-0.00039994376129470766,-0.013110228814184666
623.0,562.0,-2.6566,0.3194,9.6425,-0.1171,0.6075,-0.1413,-1.6712819538512171,-0.030470112338662148,1.769520878791809,-2.0848922729492188,0.6524336338043213,2.6389639377593994,5.333823847561636,-0.4223502278327942,-0.1133141964673996,-1.6214144865619105,0.0006075220298953354,0.07781284302473068,0.6388623714447021,9.920055163092911e-05,0.017660925164818764,0.9295947551727295,-0.00035488296998664737,-0.03803577274084091
623.0,562.0,-2.6566,0.3194,9.6425,-0.1171,0.6075,-0.1413,-1.6713572941222132,-0.02698465622961521,1.7450623512268066,-2.081028699874878,0.6649075746536255,2.661595344543457,5.3310707090194605,-0.47041162848472595,-0.1541837453842163,-1.6214144865619105,0.0021119064185768366,0.05894381180405617,0.6388461589813232,9.526306530460715e-05,0.008255630731582642,0.9296267628669739,-0.0003469434450380504,-0.040847063064575195
623.0,562.0,-2.6566,0.3194,9.6425,-0.1171,0.6075,-0.1413,-1.6715694866576136,-0.024071620777249336,1.7315192222595215,-2.0771231651306152,0.6639195680618286,2.6481146812438965,5.32782809713439,-0.5285646319389343,-0.14777150750160217,-1.6214068571673792,0.0022735395468771458,0.0633164569735527,0.6388580799102783,9.162610513158143e-05,0.010062310844659805,0.9295705556869507,-0.00030366433202289045,-0.011295320466160774
623.0,562.0,-2.6566,0.3194,9.6425,-0.1171,0.6075,-0.1413,-1.67161287883901,-0.020910149440169334,1.8039672374725342,-2.073150873184204,0.6520034670829773,2.6311392784118652,5.324449765473165,-0.5930972099304199,-0.16780143976211548,-1.621310059224264,0.002120701130479574,0.06378348171710968,0.6388541460037231,0.00014192868547979742,0.019326118752360344,0.9296349287033081,-0.00034414083347655833,0.0034162113443017006
623.0,562.0,-2.6566,0.3194,9.6425,-0.1171,0.6075,-0.1413,-1.6717807255186976,-0.021848617121577263,1.776771068572998,-2.0705673694610596,0.6564413905143738,2.6530888080596924,5.321928488999166,-0.629010021686554,-0.16196629405021667,-1.621399227772848,0.001996861770749092,0.06742748618125916,0.6388185024261475,0.00013438897440209985,0.0004879289772361517,0.9295947551727295,-0.00025651740725152194,-0.10666303336620331
623.0,562.0,-2.6566,0.3194,9.6425,-0.1171,0.6075,-0.1413,-1.6718923054137171,-0.02312309853732586,1.7805383205413818,-2.066561460494995,0.6645443439483643,2.6637654304504395,5.318040060787954,-0.6813061237335205,-0.1685182750225067,-1.6213544050799769,0.002314341487362981,0.06981898099184036,0.6388541460037231,0.00012334140774328262,0.003406299278140068,0.9296144247055054,-0.0001757972640916705,-0.07076370716094971
428.0,402.0,-3.14,0.134,10.1785,-0.013,-0.1055,-0.1148,-1.6720968685545863,-0.024522142484784126,1.838010549545288,-2.06266188621521,0.6582587957382202,2.6307497024536133,5.3137704012687585,-0.7347093224525452,-0.16460074484348297,-1.6213544050799769,0.0027250901330262423,0.08739045262336731,0.6388026475906372,0.00011396950867492706,0.0066023641265928745,0.9296144247055054,-0.00013597786892205477,-0.10395897179841995
428.0,402.0,-3.14,0.134,10.1785,-0.013,-0.1055,-0.1148,-1.6722246609129847,-0.02637307532131672,1.7752249240875244,-2.058638572692871,0.6504058837890625,2.621809720993042,5.309151041298666,-0.7863674163818359,-0.15944164991378784,-1.6213911215411585,0.0028800740838050842,0.07430964708328247,0.6388541460037231,0.00010592114267637953,0.014477428048849106,0.9296349287033081,-0.00012918080028612167,-0.062431447207927704
428.0,402.0,-3.14,0.134,10.1785,-0.013,-0.1055,-0.1148,-1.6723324261107386,-0.026823081076145172,1.799525499343872,-2.0546703338623047,0.6484982371330261,2.667299509048462,5.3042558310325525,-0.8456002473831177,-0.1617422103881836,-1.6212943235980433,0.003288125619292259,0.09034665673971176,0.6388382911682129,7.915352762211114e-05,0.013268743641674519,0.9296185970306396,-0.00010629164171405137,-0.08032093942165375
428.0,402.0,-3.14,0.134,10.1785,-0.013,-0.1055,-0.1148,-1.6724845371642054,-0.025953708216547966,1.7681632041931152,-2.0521061420440674,0.6546037197113037,2.63704252243042,5.300838041096487,-0.8706351518630981,-0.15088003873825073,-1.6213186422931116,0.003757890546694398,0.08087891340255737,0.6387866735458374,7.58138921810314e-05,-0.0036490822676569223,0.9296144247055054,-5.318632611306384e-05,-0.0787636935710907
428.0,402.0,-3.14,0.134,10.1785,-0.013,-0.1055,-0.1148,-1.6725598774352015,-0.022550636902451515,1.7916057109832764,-2.0482728481292725,0.6627852916717529,2.6520416736602783,5.295290100365438,-0.9104467034339905,-0.14050227403640747,-1.6212623755084437,0.004488687496632338,0.08745238929986954,0.6388105154037476,7.130857557058334e-05,0.01574929617345333,0.9296107292175293,-8.038587839109823e-05,-0.12035203725099564
428.0,402.0,-3.14,0.134,10.1785,-0.013,-0.1055,-0.1148,-1.6727644405760707,-0.020533772185444832,1.814624547958374,-2.0443387031555176,0.6566113233566284,2.680481433868408,5.2895792601402185,-0.9611952304840088,-0.1509433090686798,-1.6212790648089808,0.004793915897607803,0.08593794703483582,0.6388505697250366,6.730877794325352e-05,0.0012041130103170872,0.9295623898506165,-0.0002604816691018641,-0.13295209407806396
428.0,402.0,-3.14,0.134,10.1785,-0.013,-0.1055,-0.1148,-1.6728717289366664,-0.02200191840529442,1.8441524505615234,-2.0404164791107178,0.6492071151733398,2.6969738006591797,5.283676075726309,-1.0121326446533203,-0.16795098781585693,-1.6211984793292444,0.004111298359930515,0.09505894780158997,0.6388182044029236,6.373373616952449e-05,0.020173124969005585,0.9296430945396423,-0.000367804488632828,-0.1305999904870987
428.0,402.0,-3.14,0.134,10.1785,-0.013,-0.1055,-0.1148,-1.6730557880797328,-0.027102118358016014,1.8538509607315063,-2.036487102508545,0.6512718796730042,2.652825117111206,5.277452039509573,-1.0462924242019653,-0.16574376821517944,-1.6211631933795374,0.003751892363652587,0.1076728031039238,0.6388542652130127,6.051945092622191e-05,-0.0017969812033697963,0.9295501112937927,-0.00028441473841667175,-0.1342126876115799
428.0,402.0,-3.14,0.134,10.1785,-0.013,-0.1055,-0.1148,-1.6731234989561976,-0.029371459037065506,1.9159836769104004,-2.033872365951538,0.6537349224090576,2.655107021331787,5.273126172810354,-1.0764446258544922,-0.1371176689863205,-1.6211870352374476,0.0039029724430292845,0.08800168335437775,0.6388706564903259,5.855081690242514e-05,0.013932284899055958,0.9296308159828186,-0.00030919990967959166,-0.13442328572273254
428.0,402.0,-3.14,0.134,10.1785,-0.013,-0.1055,-0.1148,-1.673262735406393,-0.031616780906915665,1.8875837326049805,-2.030036211013794,0.6427022814750671,2.6671652793884277,5.266542660980978,-1.1160329580307007,-0.14289551973342896,-1.6211469809161585,0.003922963049262762,0.10225676000118256,0.6388423442840576,5.582688390859403e-05,0.0022154650650918484,0.9295828342437744,-0.000686493469402194,-0.16310809552669525
428.0,402.0,-3.14,0.134,10.1785,-0.013,-0.1055,-0.1148,-1.6734668217101039,-0.032811831682920456,1.8558621406555176,-2.026097536087036,0.6319054365158081,2.6357884407043457,5.259653675347128,-1.157933235168457,-0.14430607855319977,-1.6211312452899378,0.0031522519420832396,0.0954144299030304,0.638830304145813,4.0038590668700635e-05,-0.005438687279820442,0.929574728012085,-0.001578522496856749,-0.14941389858722687
428.0,402.0,-3.14,0.134,10.1785,-0.013,-0.1055,-0.1148,-1.673654695550436,-0.031959086656570435,1.8792667388916016,-2.0223498344421387,0.631475567817688,2.656338691711426,5.25281439998702,-1.193835735321045,-0.1385001242160797,-1.6211150328265589,0.0030986012425273657,0.09318898618221283,0.6388222575187683,3.83059486921411e-05,0.01300247386097908,0.9296029806137085,-0.001399277476593852,-0.19480210542678833
428.0,402.0,-3.14,0.134,10.1785,-0.013,-0.1055,-0.1148,-1.6737829647459925,-0.030919549986720085,1.893568515777588,-2.0197629928588867,0.6376040577888489,2.6081416606903076,5.24788265207366,-1.212846040725708,-0.13285046815872192,-1.6211150328265589,0.00278098089620471,0.10025697946548462,0.6388185620307922,3.724901034729555e-05,0.003188887843862176,0.9296190142631531,-0.0009098008740693331,-0.15986314415931702
428.0,402.0,-3.14,0.134,10.1785,-0.013,-0.1055,-0.1148,-1.6739264927306117,-0.027803899720311165,1.834769368171692,-2.0160140991210938,0.6416707038879395,2.5972084999084473,5.240300404816427,-1.242258906364441,-0.1179203987121582,-1.6210911909686487,0.002558443695306778,0.10169185698032379,0.6388025283813477,3.576864401111379e-05,0.0052049970254302025,0.929546594619751,-0.0010241796262562275,-0.16563160717487335
428.0,402.0,-3.14,0.134,10.1785,-0.013,-0.1055,-0.1148,-1.674138685266012,-0.025662507861852646,1.9341620206832886,-2.01225209236145,0.6298567056655884,2.6168785095214844,5.232722270279684,-1.2705259323120117,-0.14776301383972168,-1.62109882036318,0.001933712512254715,0.113592728972435,0.6388263702392578,3.440138607402332e-05,-0.0014313720166683197,0.9295465350151062,-0.004380449652671814,-0.21681520342826843
428.0,402.0,-3.14,0.134,10.1785,-0.013,-0.1055,-0.1148,-1.674330850640768,-0.026948144659399986,1.9203413724899292,-2.0084519386291504,0.6260864734649658,2.6717171669006348,5.2251019952590845,-1.3060598373413086,-0.1358211785554886,-1.6210430304156702,0.0011039430974051356,0.10252377390861511,0.6387423276901245,-3.445963011472486e-05,0.0002532866783440113,0.9295225143432617,-0.005522995721548796,-0.2244609147310257
397.0,382.0,-1.8849,0.7238,8.7894,0.0814,-0.7057,-0.0976,-1.6744333706297816,-0.028965871781110764,1.9308443069458008,-2.0046815872192383,0.6283434629440308,2.633329391479492,5.217340338021078,-1.3310999870300293,-0.12510034441947937,-1.6211074034320276,0.0009468533680774271,0.09810994565486908,0.6388106942176819,-3.3116757549578324e-05,0.005079533439129591,0.9295269846916199,-0.003870321437716484,-0.2621651589870453
397.0,382.0,-1.8849,0.7238,8.7894,0.0814,-0.7057,-0.0976,-1.6746140919127406,-0.029756711795926094,1.9217486381530762,-2.0021018981933594,0.630258321762085,2.6310958862304688,5.211811679392614,-1.3446611166000366,-0.13741903007030487,-1.6210830847369593,0.0009418292320333421,0.10399074852466583,0.6387303471565247,-3.194157034158707e-05,0.004854475613683462,0.929478645324707,-0.0030042261350899935,-0.23299822211265564
397.0,382.0,-1.8849,0.7238,8.7894,0.0814,-0.7057,-0.0976,-1.674786230126852,-0.029717188328504562,1.8872921466827393,-1.9983761310577393,0.619529664516449,2.654296398162842,5.203712451248922,-1.3702510595321655,-0.11792649328708649,-1.6210554281817835,0.0014013343024998903,0.11102350056171417,0.6388025283813477,-3.0327035346999764e-05,0.005545856896787882,0.9294226169586182,-0.005207349080592394,-0.26984691619873047
397.0,382.0,-1.8849,0.7238,8.7894,0.0814,-0.7057,-0.0976,-1.6749535999693812,-0.02862144634127617,1.9312018156051636,-1.9945244789123535,0.609493613243103,2.6607725620269775,5.195259469538488,-1.3908772468566895,-0.1068972647190094,-1.6210315863238733,0.0016897701425477862,0.11223046481609344,0.6387381553649902,-4.3293497583363205e-05,-0.004632739350199699,0.9293583035469055,-0.007674035616219044,-0.29508084058761597
397.0,382.0,-1.8849,0.7238,8.7894,0.0814,-0.7057,-0.0976,-1.675056596795553,-0.027408553287386894,1.9614105224609375,-1.9907667636871338,0.611952543258667,2.5626797676086426,5.187077301531591,-1.4097623825073242,-0.12780022621154785,-1.6209877173053187,0.001893840846605599,0.10708009451627731,0.6387946605682373,-4.1314022382721305e-05,0.0010366945061832666,0.9293791651725769,-0.007967177778482437,-0.27730560302734375
397.0,382.0,-1.8849,0.7238,8.7894,0.0814,-0.7057,-0.0976,-1.6752492390074671,-0.024660687893629074,1.9929964542388916,-1.9871464967727661,0.6209180355072021,2.6087136268615723,5.17845048287467,-1.4198417663574219,-0.10243476182222366,-1.6210554281817835,0.002389733912423253,0.11043162643909454,0.6387869119644165,-5.2225019317120314e-05,0.00877215526998043,0.9293349385261536,-0.008080476894974709,-0.3452184498310089
397.0,382.0,-1.8849,0.7238,8.7894,0.0814,-0.7057,-0.0976,-1.6752931080260218,-0.02146444469690323,2.024660110473633,-1.9847439527511597,0.6224645972251892,2.5723824501037598,5.172876047879019,-1.4288665056228638,-0.12570969760417938,-1.6209834257708948,0.0029063678812235594,0.12852968275547028,0.638750433921814,-5.1168608479201794e-05,-0.0013347987551242113,0.9292226433753967,-0.00942036509513855,-0.3552573025226593
397.0,382.0,-1.8849,0.7238,8.7894,0.0814,-0.7057,-0.0976,-1.675464769402975,-0.018993543460965157,1.9791784286499023,-1.9810901880264282,0.6112579703330994,2.6111841201782227,5.163980084448614,-1.4417260885238647,-0.09875071048736572,-1.6209715048419397,0.002736888360232115,0.11076527833938599,0.6387705206871033,-5.819035868626088e-05,-0.00522143580019474,0.9292190670967102,-0.010837986133992672,-0.3477597236633301
397.0,382.0,-1.8849,0.7238,8.7894,0.0814,-0.7057,-0.0976,-1.6756211719908656,-0.020621923729777336,1.9877902269363403,-1.9774444103240967,0.612087070941925,2.6360785961151123,5.155505406647482,-1.4603521823883057,-0.11394987255334854,-1.6209633986102503,0.002094080438837409,0.12436774373054504,0.6387587189674377,-0.0001609726168680936,-0.013090117834508419,0.9291510581970215,-0.010843174532055855,-0.40368008613586426
397.0,382.0,-1.8849,0.7238,8.7894,0.0814,-0.7057,-0.0976,-1.6757446728148402,-0.021529024466872215,1.990084171295166,-1.9737582206726074,0.6161996722221375,2.631802558898926,5.14652909615592,-1.4603993892669678,-0.10195799916982651,-1.6209238211261194,0.0020464283879846334,0.12878170609474182,0.6387869119644165,-0.00018150692631024867,-0.012024621479213238,0.929070770740509,-0.009192612953484058,-0.434585839509964
397.0,382.0,-1.8849,0.7238,8.7894,0.0814,-0.7057,-0.0976,-1.6757966480650843,-0.021394850686192513,2.023228406906128,-1.9713054895401,0.618066668510437,2.584132671356201,5.140863227635183,-1.4659900665283203,-0.07999709993600845,-1.6209638754474085,0.0022945981472730637,0.13278600573539734,0.6387667655944824,-0.00019856741710100323,-0.017657645046710968,0.9289945363998413,-0.008442683145403862,-0.3854430019855499
397.0,382.0,-1.8849,0.7238,8.7894,0.0814,-0.7057,-0.0976,-1.6759606800475062,-0.02115112915635109,2.0320751667022705,-1.9676401615142822,0.6089127063751221,2.633903980255127,5.131862360029974,-1.4687496423721313,-0.10785123705863953,-1.6209319273578089,0.002387783257290721,0.14337679743766785,0.6387345194816589,-0.00020733549899887294,-0.027896646410226822,0.9290114045143127,-0.00994165800511837,-0.4201965034008026
397.0,382.0,-1.8849,0.7238,8.7894,0.0814,-0.7057,-0.0976,-1.6760641537108363,-0.020745137706398964,2.0213842391967773,-1.9638514518737793,0.6046137809753418,2.5586330890655518,5.123238462000646,-1.4843047857284546,-0.08348312973976135,-1.6208909193622034,0.0021149185486137867,0.11840569972991943,0.6387709379196167,-0.0003814197552856058,-0.02043921872973442,0.9289591312408447,-0.010261613875627518,-0.37417352199554443
397.0,382.0,-1.8849,0.7238,8.7894,0.0814,-0.7057,-0.0976,-1.6761442623534144,-0.016673672944307327,2.049722671508789,-1.9601925611495972,0.6090585589408875,2.599100112915039,5.114036071091451,-1.4770313501358032,-0.07148431241512299,-1.6209161917315882,0.002478944603353739,0.12061361968517303,0.6387426853179932,-0.00036471011117100716,-0.01714702509343624,0.9288588762283325,-0.008332417346537113,-0.46173691749572754
397.0,382.0,-1.8849,0.7238,8.7894,0.0814,-0.7057,-0.0976,-1.6762238941588343,-0.01227590348571539,2.1162662506103516,-1.9566532373428345,0.6170691847801208,2.6336286067962646,5.105366128474035,-1.4760916233062744,-0.08555132895708084,-1.6209238211261194,0.0027070341166108847,0.14051343500614166,0.6387587189674377,-0.00035377356107346714,-0.025752319023013115,0.9288468956947327,-0.006969164125621319,-0.42511606216430664
397.0,382.0,-1.8849,0.7238,8.7894,0.0814,-0.7057,-0.0976,-1.6762720547118128,-0.009076920337975025,2.0825490951538086,-1.9542195796966553,0.6164853572845459,2.57212233543396,5.0994406817253015,-1.4718410968780518,-0.066266268491745,-1.6208794752704065,0.0022758347913622856,0.1273270696401596,0.6387709379196167,-0.00036078141420148313,-0.024137256667017937,0.9288796782493591,-0.006540616974234581,-0.43120789527893066
397.0,382.0,-1.8849,0.7238,8.7894,0.0814,-0.7057,-0.0976,-1.676324029962057,-0.005413249135017395,2.141878843307495,-1.9506117105484009,0.6110369563102722,2.5743236541748047,5.09078990200118,-1.4743984937667847,-0.10266821086406708,-1.620875660573141,0.0014757162425667048,0.12711761891841888,0.6387190818786621,-0.00032829330302774906,-0.031006643548607826,0.9288032054901123,-0.007882189005613327,-0.461662232875824
346.0,381.0,0.4493,0.9416,9.7292,0.1075,-0.8925,-0.0921,-1.67639221767568,-0.004676819778978825,2.1306962966918945,-1.946855902671814,0.6079979538917542,2.635127544403076,5.081774908095159,-1.4666202068328857,-0.055275678634643555,-1.620864216481344,0.0010293234372511506,0.11485741287469864,0.638739287853241,-0.00033064084709621966,-0.022754734382033348,0.9287393093109131,-0.006259273737668991,-0.40983790159225464
346.0,381.0,0.4493,0.9416,9.7292,0.1075,-0.8925,-0.0921,-1.6763674221434535,-0.004386520478874445,2.137050151824951,-1.9432036876678467,0.6108797192573547,2.5391311645507812,5.073084223061361,-1.4506595134735107,-0.06749281287193298,-1.620880428944723,0.0007247188477776945,0.13072872161865234,0.6387310028076172,-0.0003050096274819225,-0.03326612710952759,0.9287515878677368,-0.003979937173426151,-0.4941787123680115
346.0,381.0,0.4493,0.9416,9.7292,0.1075,-0.8925,-0.0921,-1.6764236889281214,-0.0031558836344629526,2.1371636390686035,-1.9395958185195923,0.6101755499839783,2.611281633377075,5.06448249795989,-1.4424630403518677,-0.04972057789564133,-1.6208837668048304,0.0004221954441163689,0.1467134952545166,0.6386502981185913,-0.00028448854573071003,-0.03932623192667961,0.9286431074142456,-0.004483479540795088,-0.49533942341804504
346.0,381.0,0.4493,0.9416,9.7292,0.1075,-0.8925,-0.0921,-1.6763793430724085,-0.002799299778416753,2.1732919216156006,-1.9371546506881714,0.6022695899009705,2.545596122741699,5.058842497854986,-1.4323606491088867,-0.056005023419857025,-1.6208604017840784,0.00035532208858057857,0.14212897419929504,0.638679027557373,-0.0002975362294819206,-0.04823129624128342,0.9286713600158691,-0.005690811667591333,-0.4820605516433716
346.0,381.0,0.4493,0.9416,9.7292,0.1075,-0.8925,-0.0921,-1.676427503625387,-0.0023555688094347715,2.1925647258758545,-1.9334535598754883,0.5924669504165649,2.614058494567871,5.050169276982107,-1.424837350845337,-0.0487917885184288,-1.6208236853228968,0.00028723309515044093,0.12588320672512054,0.6386666893959045,-0.000316253601340577,-0.03385908901691437,0.928655743598938,-0.006347660906612873,-0.4748128652572632
346.0,381.0,0.4493,0.9416,9.7292,0.1075,-0.8925,-0.0921,-1.6763955555357875,-0.0014999344712123275,2.1701912879943848,-1.929849624633789,0.5920973420143127,2.5642220973968506,5.041625427990713,-1.4033541679382324,-0.06031356751918793,-1.6208480040179651,0.00024105331976898015,0.12822803854942322,0.6387310028076172,-0.0003066158969886601,-0.02992282807826996,0.9286515712738037,-0.004428614396601915,-0.4661303460597992
346.0,381.0,0.4493,0.9416,9.7292,0.1075,-0.8925,-0.0921,-1.676387449304098,-2.2790378352510743e-05,2.159054756164551,-1.926326870918274,0.597099244594574,2.6493849754333496,5.03338913896636,-1.3886528015136719,-0.040904756635427475,-1.6208685080157679,0.0002076696982840076,0.13974708318710327,0.6387190818786621,-0.00026711003738455474,-0.03595864027738571,0.9286115169525146,-0.004293970298022032,-0.3920832574367523
346.0,381.0,0.4493,0.9416,9.7292,0.1075,-0.8925,-0.0921,-1.6763717136778773,-4.102187478594033e-09,2.1895196437835693,-1.9239928722381592,0.5968012809753418,2.55808687210083,5.02797211983756,-1.3596423864364624,-0.049203064292669296,-1.620875660573141,0.00019011800759471953,0.11311705410480499,0.6387069225311279,-0.00028284339350648224,-0.04720010608434677,0.9285553097724915,-0.00524285901337862,-0.4319751262664795
346.0,381.0,0.4493,0.9416,9.7292,0.1075,-0.8925,-0.0921,-1.6763516865172328,0.0012965390924364328,2.2035584449768066,-1.9205089807510376,0.5956457257270813,2.6445913314819336,5.019854891091146,-1.3373253345489502,-0.024854354560375214,-1.6208604017840784,0.00016872832202352583,0.117078498005867,0.6387507319450378,-0.00026729333330877125,-0.050688035786151886,0.9285115599632263,-0.0068032448180019855,-0.4048011004924774
346.0,381.0,0.4493,0.9416,9.7292,0.1075,-0.8925,-0.0921,-1.6763917408385218,0.0009214557940140367,2.1783335208892822,-1.9168936014175415,0.5878103375434875,2.590970993041992,5.0119560835655115,-1.3060840368270874,-0.03371202200651169,-1.62091571489443,0.00012140317994635552,0.11164860427379608,0.6386666893959045,-0.00027590402169153094,-0.048966314643621445,0.9284957051277161,-0.007931329309940338,-0.4667755365371704
346.0,381.0,0.4493,0.9416,9.7292,0.1075,-0.8925,-0.0921,-1.6763998470702113,0.00015011457435321063,2.2206921577453613,-1.9133728742599487,0.5924031734466553,2.581099510192871,5.004396456270971,-1.2780452966690063,-0.04952695965766907,-1.620875660573141,0.00011019001976819709,0.11240240931510925,0.6386429667472839,-0.00023919972591102123,-0.05306655541062355,0.9284273386001587,-0.007538204081356525,-0.38345134258270264
346.0,381.0,0.4493,0.9416,9.7292,0.1075,-0.8925,-0.0921,-1.6763798199095667,9.231612057192251e-05,2.246513843536377,-1.909861445426941,0.5948601365089417,2.664442777633667,4.996735381871023,-1.241965889930725,-0.01799987629055977,-1.6208604017840784,0.00010092195589095354,0.10786084085702896,0.6386749148368835,-0.0002474540378898382,-0.054754436016082764,0.9283877015113831,-0.00778943719342351,-0.393670916557312
346.0,381.0,0.4493,0.9416,9.7292,0.1075,-0.8925,-0.0921,-1.6763998470702113,7.659596303710714e-05,2.2311344146728516,-1.9075459241867065,0.5854256749153137,2.595086097717285,4.991676080017843,-1.2327362298965454,-0.02089979313313961,-1.6208685080157679,9.556362056173384e-05,0.09087982773780823,0.638683021068573,-0.0002632334071677178,-0.04656687378883362,0.9283674955368042,-0.007884422317147255,-0.39924144744873047
346.0,381.0,0.4493,0.9416,9.7292,0.1075,-0.8925,-0.0921,-1.6764079533019007,5.321412199776887e-10,2.251636028289795,-1.904011845588684,0.574627161026001,2.6286816596984863,4.984443205385961,-1.208249568939209,-0.02454478107392788,-1.6208961645709437,8.851420716382563e-05,0.10515882819890976,0.6386867761611938,-0.0002349464630242437,-0.06609597057104111,0.9282754063606262,-0.008256961591541767,-0.34603166580200195
346.0,381.0,0.4493,0.9416,9.7292,0.1075,-0.8925,-0.0921,-1.676427503625387,1.2850584599932062e-15,2.275535821914673,-1.9004894495010376,0.5690435767173767,2.618917942047119,4.977366405516424,-1.1822547912597656,-0.023217223584651947,-1.6208117643939417,8.243344200309366e-05,0.10238020122051239,0.6387032866477966,-0.00024121826572809368,-0.0598517544567585,0.9282717704772949,-0.007707625161856413,-0.4156153202056885
346.0,381.0,0.4493,0.9416,9.7292,0.1075,-0.8925,-0.0921,-1.6763955555357875,-0.0002877733495552093,2.2599892616271973,-1.8970619440078735,0.5680991411209106,2.6137425899505615,4.970499175577917,-1.1529587507247925,-0.0293730478733778,-1.6208236853228968,7.713454397162423e-05,0.08781367540359497,0.6386392116546631,-0.000219409164856188,-0.0664030984044075,0.9282320737838745,-0.0064944312907755375,-0.39183539152145386
345.0,404.0,1.4871,0.5067,8.4066,0.033,-0.557,-0.102,-1.6763798199095667,-5.146955572854495e-07,2.3013463020324707,-1.8936338424682617,0.5681692957878113,2.5953965187072754,4.963745343476095,-1.1243717670440674,-0.025693871080875397,-1.6208398977862757,2.1905301764491014e-05,0.09249798953533173,0.6387109160423279,-0.00022209077724255621,-0.07205928862094879,0.928187906742096,-0.006610792595893145,-0.388873815536499
345.0,404.0,1.4871,0.5067,8.4066,0.033,-0.557,-0.102,-1.67639221767568,-9.264338601822075e-11,2.2354354858398438,-1.8914626836776733,0.5664274096488953,2.60365629196167,4.959161105542936,-1.1053332090377808,-0.028485048562288284,-1.62083608308901,2.078499528579414e-05,0.10372327268123627,0.6386272311210632,-0.0002422101388219744,-0.07256808876991272,0.9281517863273621,-0.007152893580496311,-0.36620229482650757
345.0,404.0,1.4871,0.5067,8.4066,0.033,-0.557,-0.102,-1.676359315911764,-2.237228948308973e-16,2.276623249053955,-1.8880940675735474,0.5604308247566223,2.568983554840088,4.952654692321577,-1.081558108329773,-0.048785027116537094,-1.6208198706256312,1.9437769879004918e-05,0.09662946313619614,0.6386026740074158,-0.00026674626860767603,-0.07115665823221207,0.9281277060508728,-0.006433113012462854,-0.4119744598865509
345.0,404.0,1.4871,0.5067,8.4066,0.033,-0.557,-0.102,-1.6763917408385218,7.327888056352094e-07,2.294663429260254,-1.8847488164901733,0.560285210609436,2.6399765014648438,4.946234914451399,-1.0573837757110596,-0.03395448997616768,-1.6208317915545862,2.723505167523399e-05,0.10220612585544586,0.6386350989341736,-0.0004918345366604626,-0.05810585245490074,0.9281162619590759,-0.00498565100133419,-0.45486390590667725
345.0,404.0,1.4871,0.5067,8.4066,0.033,-0.557,-0.102,-1.676415582696432,-0.0013792990939691663,2.2303597927093506,-1.8814613819122314,0.5614886283874512,2.6185302734375,4.939967858582296,-1.0363422632217407,-0.0062247710302472115,-1.6208160559283655,4.7181409172480926e-05,0.10359770804643631,0.6386313438415527,-0.000735549081582576,-0.09120237827301025,0.9280843138694763,-0.0032980702817440033,-0.41551774740219116
345.0,404.0,1.4871,0.5067,8.4066,0.033,-0.557,-0.102,-1.6764880619444789,-0.002113330876454711,2.241621494293213,-1.8792781829833984,0.5646342039108276,2.6769943237304688,4.935837644129553,-1.0206384658813477,-0.006020315457135439,-1.6208317915545862,6.410641071852297e-05,0.10374441742897034,0.638631284236908,-0.0009438110864721239,-0.06552745401859283,0.9280678629875183,-0.0027965763583779335,-0.4227920472621918
345.0,404.0,1.4871,0.5067,8.4066,0.033,-0.557,-0.102,-1.6764513454832972,-0.0036427597515285015,2.2564775943756104,-1.8759353160858154,0.551326334476471,2.6307032108306885,4.929628956108846,-1.0131011009216309,-0.008182868361473083,-1.6208160559283655,0.0002407205174677074,0.10086817294359207,0.6386108994483948,-0.001294620567932725,-0.07996553182601929,0.9280117154121399,-0.0028494475409388542,-0.47452425956726074
345.0,404.0,1.4871,0.5067,8.4066,0.033,-0.557,-0.102,-1.676495214501852,-0.006027460563927889,2.2638661861419678,-1.8725765943527222,0.5414753556251526,2.6399359703063965,4.923640402942457,-1.0064972639083862,-0.015794847160577774,-1.6208122412311,0.00032821836066432297,0.0978408008813858,0.6385754942893982,-0.0019121314398944378,-0.07451775670051575,0.9280039668083191,-0.002891174051910639,-0.4340410828590393
345.0,404.0,1.4871,0.5067,8.4066,0.033,-0.557,-0.102,-1.6765839062132777,-0.00826780591160059,2.2421884536743164,-1.8692606687545776,0.5393789410591125,2.688762664794922,4.917679685145178,-0.9876989722251892,-0.039595529437065125,-1.620767895375387,0.0009688095888122916,0.12998509407043457,0.6385877132415771,-0.0030154434498399496,-0.07462666928768158,0.9280240535736084,-0.0030899725388735533,-0.5064126253128052
345.0,404.0,1.4871,0.5067,8.4066,0.033,-0.557,-0.102,-1.6765638790526332,-0.005943847820162773,2.2287707328796387,-1.8659493923187256,0.5403340458869934,2.65594482421875,4.911860334664144,-0.9680542349815369,-0.01706640236079693,-1.6207636038409632,0.002269208198413253,0.10256586968898773,0.6385111808776855,-0.004699746612459421,-0.08140213042497635,0.9279838800430298,-0.003566212486475706,-0.49847573041915894
345.0,404.0,1.4871,0.5067,8.4066,0.033,-0.557,-0.102,-1.6765514812865199,-0.0038275220431387424,2.3143458366394043,-1.8638213872909546,0.5399120450019836,2.606013298034668,4.908023091941633,-0.9590160846710205,-0.03604494035243988,-1.6207440535174769,0.0020227397326380014,0.11624915897846222,0.6384917497634888,-0.007221816573292017,-0.10999619215726852,0.9279802441596985,-0.004325385205447674,-0.4547617435455322
345.0,404.0,1.4871,0.5067,8.4066,0.033,-0.557,-0.102,-1.6766640148558558,-0.0018355961656197906,2.2247395515441895,-1.8606503009796143,0.5357605814933777,2.554694414138794,4.902260082751074,-0.9440996646881104,-0.016222789883613586,-1.6207564512835901,0.0015175900189206004,0.12159061431884766,0.6384799480438232,-0.008802558295428753,-0.10883688926696777,0.9279159307479858,-0.00600407924503088,-0.502148449420929
345.0,404.0,1.4871,0.5067,8.4066,0.033,-0.557,-0.102,-1.676587244073385,-0.0012135123834013939,2.234429359436035,-1.8574628829956055,0.5322520136833191,2.6729414463043213,4.896591293602743,-0.9339143633842468,-0.03268717974424362,-1.6207760016070765,0.0009955372661352158,0.12859629094600677,0.638444185256958,-0.00806543231010437,-0.0936519056558609,0.927899956703186,-0.005547838751226664,-0.456000417470932
345.0,404.0,1.4871,0.5067,8.4066,0.033,-0.557,-0.102,-1.6766354046263636,-0.004570778459310532,2.256669521331787,-1.8542687892913818,0.527850866317749,2.618109703063965,4.891111123352804,-0.9161583781242371,-0.044698722660541534,-1.620760742818014,0.0008620595326647162,0.12454607337713242,0.6382759809494019,-0.007044926751405001,-0.10159823298454285,0.9278721213340759,-0.005710924044251442,-0.5206106901168823
345.0,404.0,1.4871,0.5067,8.4066,0.033,-0.557,-0.102,-1.6767317257323207,-0.008628751151263714,2.227670192718506,-1.8511978387832642,0.5269765853881836,2.6105451583862305,4.8856302974517725,-0.909476101398468,-0.0340915247797966,-1.620716396962301,0.0008363621891476214,0.1244981437921524,0.6382966041564941,-0.005751995835453272,-0.12030278146266937,0.9278724193572998,-0.005537261255085468,-0.5051645040512085
345.0,404.0,1.4871,0.5067,8.4066,0.033,-0.557,-0.102,-1.6767269573607386,-0.009893585927784443,2.206010580062866,-1.849100947380066,0.5262628197669983,2.6544265747070312,4.882090392499723,-0.9026848673820496,-0.03955743834376335,-1.6207521597491663,0.0012033741222694516,0.1346704661846161,0.6383370161056519,-0.005368916317820549,-0.11997373402118683,0.9278202056884766,-0.006053201854228973,-0.5188851952552795
326.0,359.0,1.5511,0.9416,9.5049,0.0128,-0.3743,-0.13,-1.6767951450743617,-0.010439046658575535,2.208920955657959,-1.8459631204605103,0.5157665610313416,2.6273880004882812,4.8766647455985925,-0.8954830169677734,-0.029200654476881027,-1.6207440535174769,0.0015028059715405107,0.1267911195755005,0.6382049322128296,-0.005366569850593805,-0.11921608448028564,0.927760124206543,-0.00734131271019578,-0.482402503490448
326.0,359.0,1.5511,0.9416,9.5049,0.0128,-0.3743,-0.13,-1.6768790684142054,-0.010736142285168171,2.2093663215637207,-1.8428155183792114,0.5077493786811829,2.667107582092285,4.871252733259954,-0.8954928517341614,-0.027276767417788506,-1.6206920782672327,0.0012660764623433352,0.1293567568063736,0.6382172107696533,-0.005897343158721924,-0.12461228668689728,0.927776575088501,-0.009164432063698769,-0.5395367741584778
326.0,359.0,1.5511,0.9416,9.5049,0.0128,-0.3743,-0.13,-1.67689909557485,-0.012069093994796276,2.2344322204589844,-1.8397552967071533,0.5036160945892334,2.577335834503174,4.865813913732328,-0.8938629627227783,-0.03214531019330025,-1.6207321325885218,0.0012103194603696465,0.11330465227365494,0.6381897330284119,-0.00747486250475049,-0.13780997693538666,0.9276240468025208,-0.01077666413038969,-0.5136470794677734
326.0,359.0,1.5511,0.9416,9.5049,0.0128,-0.3743,-0.13,-1.6769911251463832,-0.012356779538094997,2.213432788848877,-1.8377785682678223,0.5044774413108826,2.6399106979370117,4.862268912583151,-0.8899315595626831,-0.03878391161561012,-1.6207006613360804,0.0011990014463663101,0.12321625649929047,0.63809734582901,-0.008975162170827389,-0.13435053825378418,0.9276446104049683,-0.011464563198387623,-0.5447844862937927
326.0,359.0,1.5511,0.9416,9.5049,0.0128,-0.3743,-0.13,-1.6770593128600062,-0.01141619123518467,2.2009353637695312,-1.8346917629241943,0.4977569282054901,2.64400315284729,4.856950956373968,-0.8863613605499268,-0.02756771631538868,-1.6206920782672327,0.0012632757425308228,0.12629659473896027,0.6380773186683655,-0.010332247242331505,-0.13747252523899078,0.9275201559066772,-0.013742211274802685,-0.5639670491218567
326.0,359.0,1.5511,0.9416,9.5049,0.0128,-0.3743,-0.13,-1.6770583591856898,-0.00965513288974762,2.2330899238586426,-1.8317047357559204,0.4955331087112427,2.635344982147217,4.851721334248342,-0.8861138224601746,-0.019142888486385345,-1.620676342641012,0.000926206586882472,0.12618429958820343,0.6380337476730347,-0.012408608570694923,-0.14464081823825836,0.9274566173553467,-0.015070163644850254,-0.639441192150116
326.0,359.0,1.5511,0.9416,9.5049,0.0128,-0.3743,-0.13,-1.6771227322020472,-0.008111769333481789,2.227832317352295,-1.8288153409957886,0.49232444167137146,2.6560139656066895,4.846441897540846,-0.8850003480911255,-0.01939929649233818,-1.6206887404071253,0.0007155117928050458,0.12444625794887543,0.6379023790359497,-0.015059598721563816,-0.1517840027809143,0.9273808598518372,-0.016183745115995407,-0.5902036428451538
326.0,359.0,1.5511,0.9416,9.5049,0.0128,-0.3743,-0.13,-1.6771828136839808,-0.009448527358472347,2.2318272590637207,-1.8258988857269287,0.48818841576576233,2.644972324371338,4.841181877046385,-0.8876460790634155,-0.035743989050388336,-1.6207082907306116,0.0006096605793572962,0.1262756586074829,0.6378749012947083,-0.019620642066001892,-0.15579789876937866,0.9272323846817017,-0.017178677022457123,-0.5430161952972412
326.0,359.0,1.5511,0.9416,9.5049,0.0128,-0.3743,-0.13,-1.677218576470846,-0.010197603143751621,2.2856616973876953,-1.823912262916565,0.4842383563518524,2.6642074584960938,4.8375451294477365,-0.8859302997589111,-0.04025942087173462,-1.6206758658038538,0.0005234470008872449,0.11171683669090271,0.6377469301223755,-0.02356766164302826,-0.15084385871887207,0.927208662033081,-0.01810492016375065,-0.5918080806732178
326.0,359.0,1.5511,0.9416,9.5049,0.0128,-0.3743,-0.13,-1.677331110040182,-0.011816230602562428,2.2097878456115723,-1.8210618495941162,0.4809647500514984,2.6070237159729004,4.832194614201345,-0.8805816769599915,-0.03648465871810913,-1.6206887404071253,0.00033402678673155606,0.1138501912355423,0.6375117301940918,-0.03460225462913513,-0.174279123544693,0.9270644783973694,-0.017810553312301636,-0.5755136013031006
326.0,359.0,1.5511,0.9416,9.5049,0.0128,-0.3743,-0.13,-1.677410741845602,-0.01302411686629057,2.2187767028808594,-1.8182663917541504,0.47735595703125,2.6088905334472656,4.826873670309343,-0.8832800984382629,-0.03110063448548317,-1.620704476033346,0.0003277359064668417,0.126532644033432,0.6372969746589661,-0.05240529030561447,-0.17348480224609375,0.9269604682922363,-0.017878403887152672,-0.6124537587165833
326.0,359.0,1.5511,0.9416,9.5049,0.0128,-0.3743,-0.13,-1.6774703464903773,-0.015512388199567795,2.234158515930176,-1.8153678178787231,0.4707382619380951,2.6669859886169434,4.821629184275427,-0.8768124580383301,-0.017857396975159645,-1.6206844488727015,0.00027726247208192945,0.12776488065719604,0.6369106769561768,-0.08401276171207428,-0.1787063479423523,0.9268732070922852,-0.0198687594383955,-0.6150780916213989
326.0,359.0,1.5511,0.9416,9.5049,0.0128,-0.3743,-0.13,-1.6775948009886683,-0.01703040674328804,2.2187111377716064,-1.812544584274292,0.4587642550468445,2.6353049278259277,4.816373991757192,-0.8860743045806885,-0.025768542662262917,-1.6206367651568812,0.00028023775666952133,0.12187425792217255,0.6361891031265259,-0.12470543384552002,-0.19863754510879517,0.926761269569397,-0.021653344854712486,-0.5776230096817017
326.0,359.0,1.5511,0.9416,9.5049,0.0128,-0.3743,-0.13,-1.6776305637755335,-0.019766878336668015,2.1641957759857178,-1.8106802701950073,0.45467138290405273,2.613408088684082,4.8128720475132845,-0.8870193958282471,-0.024354249238967896,-1.6207125822650355,0.0002573799283709377,0.11647719144821167,0.6356432437896729,-0.1342484951019287,-0.20912030339241028,0.9266448616981506,-0.022737687453627586,-0.5611856579780579
326.0,359.0,1.5511,0.9416,9.5049,0.0128,-0.3743,-0.13,-1.6778065166869105,-0.022814571857452393,2.2125487327575684,-1.8079800605773926,0.44732874631881714,2.642941951751709,4.8075692979391,-0.8840924501419067,-0.03637867793440819,-1.6207001844989222,0.0002292749413754791,0.12236921489238739,0.6348952651023865,-0.1242646872997284,-0.2012367844581604,0.9265532493591309,-0.02478347346186638,-0.5865784883499146
326.0,359.0,1.5511,0.9416,9.5049,0.0128,-0.3743,-0.13,-1.6779304943480433,-0.02313324809074402,2.2213516235351562,-1.8052698373794556,0.44567814469337463,2.6073708534240723,4.802181045501985,-0.8798119425773621,-0.012670723721385002,-1.6206963698016565,0.00020670407684519887,0.11665968596935272,0.634209930896759,-0.11294817924499512,-0.19895997643470764,0.9263651967048645,-0.026373572647571564,-0.5945181846618652
293.0,320.0,0.7017,1.2766,8.8307,0.0458,-0.4624,-0.2668,-1.6779900989928187,-0.023526951670646667,2.164882183074951,-1.8027031421661377,0.4369771480560303,2.5548906326293945,4.796838070243158,-0.8808841705322266,-0.029958683997392654,-1.6206682364093226,9.319899254478514e-05,0.12139967828989029,0.633517861366272,-0.13220587372779846,-0.20753417909145355,0.9262257218360901,-0.03003503568470478,-0.5560571551322937
293.0,320.0,0.7017,1.2766,8.8307,0.0458,-0.4624,-0.2668,-1.6781140766539515,-0.023328999057412148,2.2041616439819336,-1.8009330034255981,0.4341757893562317,2.6073555946350098,4.793303596764364,-0.8807172775268555,-0.011831576004624367,-1.6207125822650355,7.25208519725129e-05,0.10163234919309616,0.6328684091567993,-0.1686045080423355,-0.2179519534111023,0.9261135458946228,-0.03231681510806084,-0.5405082702636719
293.0,320.0,0.7017,1.2766,8.8307,0.0458,-0.4624,-0.2668,-1.6782943210997523,-0.025086525827646255,2.236332416534424,-1.7983859777450562,0.42784687876701355,2.5827548503875732,4.788110899716177,-0.8810128569602966,0.000845215399749577,-1.6206963698016565,6.465057958848774e-05,0.1052781194448471,0.6316413283348083,-0.21576954424381256,-0.2405284345149994,0.9258776307106018,-0.03597389906644821,-0.5434277057647705
293.0,320.0,0.7017,1.2766,8.8307,0.0458,-0.4624,-0.2668,-1.6784130535521449,-0.0289952140301466,2.278383731842041,-1.7957910299301147,0.4257304072380066,2.565455436706543,4.782936128764906,-0.8798587918281555,-0.009226715192198753,-1.620704476033346,5.836128184455447e-05,0.10942277312278748,0.6303112506866455,-0.2256670445203781,-0.22936055064201355,0.9256818890571594,-0.03914058953523636,-0.5308334231376648
293.0,320.0,0.7017,1.2766,8.8307,0.0458,-0.4624,-0.2668,-1.6786333523192347,-0.03408027067780495,2.2736968994140625,-1.7933118343353271,0.41735562682151794,2.5518293380737305,4.77764059880332,-0.8765391707420349,-0.008219180628657341,-1.620716396962301,3.3490814530523494e-05,0.102507583796978,0.6288824081420898,-0.2595106363296509,-0.23506002128124237,0.9254422187805176,-0.04233130067586899,-0.55219966173172
293.0,320.0,0.7017,1.2766,8.8307,0.0458,-0.4624,-0.2668,-1.6788536510863246,-0.03798004239797592,2.2273857593536377,-1.7908844947814941,0.41690289974212646,2.5961012840270996,4.772345433920183,-0.8803457021713257,-0.005985951516777277,-1.6207283178912562,2.442992990836501e-05,0.09293109178543091,0.6272889375686646,-0.247669979929924,-0.23055696487426758,0.9251579642295837,-0.04697283357381821,-0.4980021119117737
293.0,320.0,0.7017,1.2766,8.8307,0.0458,-0.4624,-0.2668,-1.679009576837057,-0.039662182331085205,2.253753423690796,-1.789203405380249,0.4096262753009796,2.560077667236328,4.768875724613228,-0.8712694048881531,-0.011109134182333946,-1.6207001844989222,1.1788151823566295e-05,0.11403824388980865,0.6262571811676025,-0.2606009244918823,-0.2261766493320465,0.9250021576881409,-0.046542201191186905,-0.5259612202644348
293.0,320.0,0.7017,1.2766,8.8307,0.0458,-0.4624,-0.2668,-1.6792365513243617,-0.041415467858314514,2.2717063426971436,-1.78681218624115,0.4099368453025818,2.5302934646606445,4.763588204025783,-0.8672221899032593,0.010010261088609695,-1.620688263569967,3.2812754735545013e-09,0.09349372982978821,0.6246249079704285,-0.3017284870147705,-0.24508529901504517,0.9246746301651001,-0.04921635240316391,-0.503689169883728
293.0,320.0,0.7017,1.2766,8.8307,0.0458,-0.4624,-0.2668,-1.6795455418028773,-0.042010001838207245,2.2460827827453613,-1.7843965291976929,0.4031986892223358,2.536837100982666,4.758457980095901,-0.862938404083252,-0.0004929817514494061,-1.6207321325885218,9.133552204484974e-13,0.09120108187198639,0.62281733751297,-0.31011635065078735,-0.24768252670764923,0.924386739730835,-0.05089254304766655,-0.49845969676971436
293.0,320.0,0.7017,1.2766,8.8307,0.0458,-0.4624,-0.2668,-1.679812570611471,-0.04518575966358185,2.2860326766967773,-1.7819387912750244,0.3916427195072174,2.542738676071167,4.753308194666662,-0.8546408414840698,0.01080611813813448,-1.620676342641012,2.5423577444807577e-16,0.09039975702762604,0.6209216713905334,-0.3147469460964203,-0.24429258704185486,0.924083411693573,-0.05112079158425331,-0.5126972794532776
293.0,320.0,0.7017,1.2766,8.8307,0.0458,-0.4624,-0.2668,-1.6800838909544886,-0.04791444540023804,2.2381067276000977,-1.7796090841293335,0.38670697808265686,2.4989593029022217,4.748202620982685,-0.8490265011787415,0.0010749048087745905,-1.620720688496725,7.076746629067093e-20,0.08854396641254425,0.6189268827438354,-0.3331069052219391,-0.24851346015930176,0.92377108335495,-0.051659442484378815,-0.4859730303287506
293.0,320.0,0.7017,1.2766,8.8307,0.0458,-0.4624,-0.2668,-1.6803041897215785,-0.05059574171900749,2.251307249069214,-1.7780368328094482,0.3811066448688507,2.467135429382324,4.744798562466659,-0.847927987575531,-0.0037335369270294905,-1.6207082907306116,3.0169282287338864e-22,0.08774242550134659,0.6175611019134521,-0.3566719591617584,-0.251334011554718,0.9235756993293762,-0.05212467536330223,-0.4302181601524353
293.0,320.0,0.7017,1.2766,8.8307,0.0458,-0.4624,-0.2668,-1.6806117496886195,-0.05292602628469467,2.2883172035217285,-1.775694489479065,0.37759146094322205,2.544100761413574,4.739767710655489,-0.8331635594367981,0.007495241239666939,-1.620692555104391,8.397730019678444e-26,0.09007570147514343,0.6152991652488708,-0.36873120069503784,-0.2616044878959656,0.9232155680656433,-0.05351569876074791,-0.43936872482299805
293.0,320.0,0.7017,1.2766,8.8307,0.0458,-0.4624,-0.2668,-1.6809030971922816,-0.05296935513615608,2.2757010459899902,-1.7734564542770386,0.3683089315891266,2.4965786933898926,4.734799762233653,-0.8255690932273865,-0.002513787243515253,-1.6207240263568323,2.3375387893220145e-29,0.08694460242986679,0.6132135987281799,-0.35425060987472534,-0.23656219244003296,0.9228761792182922,-0.05168178305029869,-0.4468638598918915
293.0,320.0,0.7017,1.2766,8.8307,0.0458,-0.4624,-0.2668,-1.6812063656248988,-0.05138310045003891,2.2883353233337402,-1.7713232040405273,0.36114490032196045,2.4936938285827637,4.7299854689981125,-0.8159154653549194,0.020738501101732254,-1.6207321325885218,6.506624983346327e-33,0.08379606902599335,0.6109942197799683,-0.3886393904685974,-0.24060605466365814,0.9225564002990723,-0.04971145838499069,-0.5011390447616577
293.0,320.0,0.7017,1.2766,8.8307,0.0458,-0.4624,-0.2668,-1.6814028225340785,-0.04788215085864067,2.3185782432556152,-1.769898533821106,0.35973381996154785,2.5563926696777344,4.726817394583978,-0.8072602152824402,-0.011091277934610844,-1.620676342641012,2.773876238183999e-35,0.08280013501644135,0.6094183921813965,-0.390526682138443,-0.25353753566741943,0.9223364591598511,-0.04728914052248001,-0.45420295000076294
262.0,305.0,2.0997,0.9009,9.061,0.0492,-0.5066,-0.5435,-1.6817099056639613,-0.046675097197294235,2.254093885421753,-1.7677912712097168,0.3553028702735901,2.4415857791900635,4.7220107521633885,-0.7920911312103271,0.012806343846023083,-1.6207321325885218,7.721185366995957e-39,0.07988043129444122,0.6070858836174011,-0.3957023322582245,-0.23236365616321564,0.9220848679542542,-0.04252837598323822,-0.4341375231742859
262.0,305.0,2.0997,0.9009,9.061,0.0492,-0.5066,-0.5435,-1.6819654903807582,-0.04308372735977173,2.299863815307617,-1.7656971216201782,0.34951215982437134,2.522470235824585,4.7173610962699435,-0.7803752422332764,-0.0014692298136651516,-1.620716396962301,2.1495918442742694e-42,0.07559817284345627,0.6047248244285583,-0.4074721336364746,-0.24127474427223206,0.9218575954437256,-0.037243910133838654,-0.4198262691497803
262.0,305.0,2.0997,0.9009,9.061,0.0492,-0.5066,-0.5435,-1.6822334728636683,-0.042581841349601746,2.298919200897217,-1.763655185699463,0.3375697731971741,2.481553792953491,4.712592268427162,-0.767142117023468,0.013521065004169941,-1.6206243673907679,0.0,0.059525057673454285,0.6022234559059143,-0.41326096653938293,-0.24363914132118225,0.9216816425323486,-0.03243701159954071,-0.4082162380218506
262.0,305.0,2.0997,0.9009,9.061,0.0492,-0.5066,-0.5435,-1.682565828362936,-0.04366772621870041,2.319458246231079,-1.761623501777649,0.3326270580291748,2.481930732727051,4.708126707667969,-0.7444822192192078,0.01560230366885662,-1.6206844488727015,0.0,0.07906897366046906,0.5997040271759033,-0.4050869643688202,-0.21535959839820862,0.9214895963668823,-0.027566060423851013,-0.4107067584991455
262.0,305.0,2.0997,0.9009,9.061,0.0492,-0.5066,-0.5435,-1.68272127727651,-0.04443799704313278,2.2925987243652344,-1.7603029012680054,0.33261826634407043,2.4744205474853516,4.705168886775635,-0.7347833514213562,0.009670022875070572,-1.6206963698016565,0.0,0.08004757761955261,0.598089873790741,-0.41741716861724854,-0.2308909296989441,0.9214179515838623,-0.02560424618422985,-0.38164669275283813
262.0,305.0,2.0997,0.9009,9.061,0.0492,-0.5066,-0.5435,-1.6829682789244593,-0.044133469462394714,2.3248085975646973,-1.7583718299865723,0.32573074102401733,2.4581918716430664,4.700802965755127,-0.7176669836044312,0.003885534591972828,-1.6207001844989222,0.0,0.056061647832393646,0.5955298542976379,-0.42183905839920044,-0.2311059832572937,0.9212538003921509,-0.02230205200612545,-0.3637232184410095
262.0,305.0,2.0997,0.9009,9.061,0.0492,-0.5066,-0.5435,-1.6832286320128382,-0.04153286665678024,2.324244499206543,-1.7564610242843628,0.32287341356277466,2.4651589393615723,4.696600123042725,-0.7017683386802673,0.007395854685455561,-1.6206682364093226,0.0,0.08321065455675125,0.5930091142654419,-0.4101281464099884,-0.1999582052230835,0.9211128354072571,-0.02008908987045288,-0.3722163736820221
262.0,305.0,2.0997,0.9009,9.061,0.0492,-0.5066,-0.5435,-1.6834718189635218,-0.03984983265399933,2.405381917953491,-1.7545547485351562,0.3226677477359772,2.4532904624938965,4.692501707667969,-0.6832524538040161,-0.004225125536322594,-1.620676342641012,0.0,0.07998113334178925,0.5905007123947144,-0.4202463924884796,-0.22012397646903992,0.9210217595100403,-0.01795538142323494,-0.32321929931640625
262.0,305.0,2.0997,0.9009,9.061,0.0492,-0.5066,-0.5435,-1.6837402782835902,-0.041361987590789795,2.3370490074157715,-1.7526272535324097,0.3115536570549011,2.452611207962036,4.688544912929199,-0.6661656498908997,0.029783740639686584,-1.6206963698016565,0.0,0.08146539330482483,0.5880242586135864,-0.41918763518333435,-0.21075177192687988,0.9209943413734436,-0.016384603455662727,-0.32042092084884644
262.0,305.0,2.0997,0.9009,9.061,0.0492,-0.5066,-0.5435,-1.6839119396605433,-0.046566497534513474,2.3511159420013428,-1.7513227462768555,0.3093254268169403,2.47554349899292,4.685860319728516,-0.653471827507019,0.013767419382929802,-1.6207240263568323,0.0,0.0706556960940361,0.5863987803459167,-0.4077736735343933,-0.19203665852546692,0.9208824634552002,-0.01520820613950491,-0.3650694191455841
262.0,305.0,2.0997,0.9009,9.061,0.0492,-0.5066,-0.5435,-1.6841761074461878,-0.050696518272161484,2.319958209991455,-1.749467372894287,0.3097710907459259,2.4639673233032227,4.681942625636719,-0.6412901282310486,-0.002078703138977289,-1.6207202116595667,0.0,0.06784765422344208,0.5839747786521912,-0.4033478796482086,-0.1760322004556656,0.9207903742790222,-0.013438900001347065,-0.35784000158309937
262.0,305.0,2.0997,0.9009,9.061,0.0492,-0.5066,-0.5435,-1.6844831905760707,-0.054952092468738556,2.375379800796509,-1.7475841045379639,0.30368754267692566,2.420522689819336,4.678116007442139,-0.6176404356956482,0.021512139588594437,-1.6206682364093226,0.0,0.07542285323143005,0.5815614461898804,-0.3919186294078827,-0.18699416518211365,0.9206904768943787,-0.013509811833500862,-0.29808926582336426
262.0,305.0,2.0997,0.9009,9.061,0.0492,-0.5066,-0.5435,-1.6848193607726039,-0.05899542570114136,2.3232955932617188,-1.7457643747329712,0.30052581429481506,2.4841344356536865,4.674482031459473,-0.6062782406806946,0.027598926797509193,-1.620704476033346,0.0,0.059715524315834045,0.5793336033821106,-0.3720192611217499,-0.1704512983560562,0.9206425547599792,-0.01268747914582491,-0.30044111609458923
262.0,305.0,2.0997,0.9009,9.061,0.0492,-0.5066,-0.5435,-1.6850744686522425,-0.060090526938438416,2.3688511848449707,-1.7445567846298218,0.30168354511260986,2.4482665061950684,4.6720496851154785,-0.5937741994857788,0.02267913520336151,-1.6207202116595667,0.0,0.060882676392793655,0.5778720378875732,-0.3601006269454956,-0.17157089710235596,0.9205702543258667,-0.012607654556632042,-0.26356810331344604
262.0,305.0,2.0997,0.9009,9.061,0.0492,-0.5066,-0.5435,-1.6854626140990199,-0.06229411065578461,2.324120283126831,-1.7426894903182983,0.29865530133247375,2.4264731407165527,4.668599768275879,-0.5769925117492676,0.02028849348425865,-1.620676342641012,0.0,0.06477592140436172,0.5756711363792419,-0.3619523346424103,-0.15783709287643433,0.920510470867157,-0.012660864740610123,-0.32315269112586975
262.0,305.0,2.0997,0.9009,9.061,0.0492,-0.5066,-0.5435,-1.685862203637594,-0.06303443759679794,2.3587048053741455,-1.7408809661865234,0.2968418300151825,2.458949565887451,4.6652723985859375,-0.5588647723197937,0.02515336684882641,-1.6206844488727015,0.0,0.06970848143100739,0.5735701322555542,-0.35114914178848267,-0.15297052264213562,0.9204707145690918,-0.011905957944691181,-0.2620205879211426
267.0,296.0,1.7611,1.6672,8.9354,0.0777,-0.2966,-0.4615,-1.6862698994078578,-0.0658189207315445,2.3248276710510254,-1.7391668558120728,0.2968037724494934,2.4371378421783447,4.662009878749512,-0.5507773756980896,0.012810368090867996,-1.6207440535174769,0.0,0.07250950485467911,0.5716937184333801,-0.30574101209640503,-0.13425609469413757,0.9204109907150269,-0.010554349981248379,-0.303725928068161
267.0,296.0,1.7611,1.6672,8.9354,0.0777,-0.2966,-0.4615,-1.686648508111471,-0.06755607575178146,2.376882553100586,-1.7373987436294556,0.2952026128768921,2.443955421447754,4.6586901384541015,-0.5321758985519409,0.021657736971974373,-1.6207202116595667,0.0,0.06614302843809128,0.569787859916687,-0.31349509954452515,-0.1279231756925583,0.9203548431396484,-0.00895107164978981,-0.3049657344818115
267.0,296.0,1.7611,1.6672,8.9354,0.0777,-0.2966,-0.4615,-1.6869684658446253,-0.06784463673830032,2.3356499671936035,-1.7362499237060547,0.293089896440506,2.466740608215332,4.656643553371094,-0.5205296874046326,0.03223341703414917,-1.6207082907306116,0.0,0.06373751163482666,0.5685741901397705,-0.30021488666534424,-0.13442225754261017,0.9202946424484253,-0.008372130803763866,-0.28583207726478577
267.0,296.0,1.7611,1.6672,8.9354,0.0777,-0.2966,-0.4615,-1.6873718700804652,-0.0677972361445427,2.3818435668945312,-1.7345187664031982,0.2907954752445221,2.434638023376465,4.653407736415527,-0.5193091630935669,0.033246804028749466,-1.6207001844989222,0.0,0.058922939002513885,0.5667764544487,-0.2924096882343292,-0.11281071603298187,0.9202508926391602,-0.007658523973077536,-0.24242432415485382
267.0,296.0,1.7611,1.6672,8.9354,0.0777,-0.2966,-0.4615,-1.6878119907774867,-0.06813006848096848,2.4048261642456055,-1.7327381372451782,0.2836809456348419,2.44830060005188,4.650284453029297,-0.5144395232200623,0.028230637311935425,-1.6207125822650355,0.0,0.08031060546636581,0.5651715397834778,-0.24272896349430084,-0.10308215022087097,0.9201829433441162,-0.00782494992017746,-0.258212685585022
267.0,296.0,1.7611,1.6672,8.9354,0.0777,-0.2966,-0.4615,-1.6882349453368128,-0.06953701376914978,2.3764710426330566,-1.7311034202575684,0.27990448474884033,2.398308277130127,4.6471778589436035,-0.5099675059318542,0.017975078895688057,-1.6207001844989222,0.0,0.06222396343946457,0.5638212561607361,-0.23029322922229767,-0.10855899751186371,0.9200870394706726,-0.00795687735080719,-0.272078275680542
267.0,296.0,1.7611,1.6672,8.9354,0.0777,-0.2966,-0.4615,-1.6886793575682582,-0.07332795858383179,2.3575589656829834,-1.7293956279754639,0.2828577160835266,2.472180128097534,4.644194765681885,-0.5053451657295227,0.019730694591999054,-1.6207001844989222,0.0,0.07092501223087311,0.5624878406524658,-0.22605042159557343,-0.11051924526691437,0.9200674891471863,-0.008127686567604542,-0.3001905083656311
267.0,296.0,1.7611,1.6672,8.9354,0.0777,-0.2966,-0.4615,-1.688974519769186,-0.07828634977340698,2.3594236373901367,-1.7283031940460205,0.2802557349205017,2.424755096435547,4.64218728124585,-0.5007484555244446,0.01006273366510868,-1.6206563154803675,0.0,0.08249976485967636,0.5616570711135864,-0.19823485612869263,-0.08847621083259583,0.9200591444969177,-0.007812010124325752,-0.30428245663642883
267.0,296.0,1.7611,1.6672,8.9354,0.0777,-0.2966,-0.4615,-1.6894985638060511,-0.08421526104211807,2.359057664871216,-1.7265855073928833,0.2766018211841583,2.425060510635376,4.639216108913086,-0.4982488751411438,0.02590446174144745,-1.6207001844989222,0.0,0.08054540306329727,0.5605510473251343,-0.18140943348407745,-0.07686760276556015,0.9200229048728943,-0.008520982228219509,-0.3062124252319336
267.0,296.0,1.7611,1.6672,8.9354,0.0777,-0.2966,-0.4615,-1.690019269982809,-0.08834559470415115,2.326186418533325,-1.724959135055542,0.28195858001708984,2.4553472995758057,4.636273069972656,-0.4881199896335602,0.01677565649151802,-1.6207321325885218,0.0,0.07859550416469574,0.5595759749412537,-0.15332581102848053,-0.05297081917524338,0.9199671745300293,-0.008527313359081745,-0.2885245382785797
267.0,296.0,1.7611,1.6672,8.9354,0.0777,-0.2966,-0.4615,-1.6905566654601039,-0.09609249979257584,2.393136739730835,-1.7232595682144165,0.2841968238353729,2.416346311569214,4.633357687587402,-0.49686166644096375,0.02031935378909111,-1.6207082907306116,0.0,0.08825437724590302,0.5588983297348022,-0.09395546466112137,-0.06142095476388931,0.9198951721191406,-0.009509791620075703,-0.33694809675216675
267.0,296.0,1.7611,1.6672,8.9354,0.0777,-0.2966,-0.4615,-1.6910168133177699,-0.10211609303951263,2.3261451721191406,-1.722194790840149,0.27934426069259644,2.425769090652466,4.631378336543701,-0.49684709310531616,0.012078655883669853,-1.620704476033346,0.0,0.07527763396501541,0.558590829372406,-0.05908270925283432,-0.05029073357582092,0.9198833107948303,-0.010883232578635216,-0.31743526458740234
267.0,296.0,1.7611,1.6672,8.9354,0.0777,-0.2966,-0.4615,-1.6916443310179652,-0.1133367121219635,2.325974225997925,-1.720473289489746,0.27314507961273193,2.417069911956787,4.628475828761719,-0.4918358325958252,0.01524653285741806,-1.6206963698016565,0.0,0.07187581062316895,0.558358907699585,-0.0172270555049181,-0.003358660265803337,0.9198517203330994,-0.011508223600685596,-0.3881613612174988
267.0,296.0,1.7611,1.6672,8.9354,0.0777,-0.2966,-0.4615,-1.6923514805235804,-0.11580826342105865,2.326169490814209,-1.7188913822174072,0.27744361758232117,2.382291555404663,4.625536127681396,-0.48699232935905457,0.03602053225040436,-1.620692555104391,0.0,0.07769857347011566,0.5583832263946533,0.010058273561298847,-0.004618640523403883,0.9197394847869873,-0.012794895097613335,-0.3458113670349121
267.0,296.0,1.7611,1.6672,8.9354,0.0777,-0.2966,-0.4615,-1.6930586300291957,-0.1126834973692894,2.388413429260254,-1.717146873474121,0.27420297265052795,2.423356771469116,4.622484369868896,-0.488153338432312,0.029546674340963364,-1.6207001844989222,0.0,0.08262279629707336,0.5585038065910339,0.019725343212485313,-0.013279405422508717,0.9196434020996094,-0.01402695570141077,-0.3833988904953003
267.0,296.0,1.7611,1.6672,8.9354,0.0777,-0.2966,-0.4615,-1.6937533817686976,-0.11168918758630753,2.324411392211914,-1.7155183553695679,0.2669801712036133,2.415506601333618,4.619512243861816,-0.49875617027282715,0.01638547144830227,-1.6207125822650355,0.0,0.07016291469335556,0.558599591255188,0.02472725883126259,-0.014606286771595478,0.9195716381072998,-0.016303757205605507,-0.3625093400478363
270.0,312.0,1.864,0.7555,8.2846,0.0257,-0.3717,-0.0834,-1.6942092380919398,-0.1146007552742958,2.3353586196899414,-1.7144616842269897,0.2633553445339203,2.3893513679504395,4.61744944631543,-0.4968494474887848,0.011390998028218746,-1.6206806341754358,0.0,0.07898660749197006,0.5586716532707214,0.026472058147192,0.00031085964292287827,0.9194387793540955,-0.016775084659457207,-0.34698331356048584
270.0,312.0,1.864,0.7555,8.2846,0.0257,-0.3717,-0.0834,-1.694944520989889,-0.12404847890138626,2.3442978858947754,-1.7128992080688477,0.2588430345058441,2.3826911449432373,4.614394350642822,-0.4959465563297272,0.02235257998108864,-1.6207283178912562,0.0,0.09354671090841293,0.5587391257286072,0.02934783138334751,-0.017345072701573372,0.91934734582901,-0.017938677221536636,-0.35030102729797363
270.0,312.0,1.864,0.7555,8.2846,0.0257,-0.3717,-0.0834,-1.695684095422262,-0.1367136538028717,2.3009042739868164,-1.7114070653915405,0.24918697774410248,2.3483755588531494,4.611414595241211,-0.5030248761177063,0.011035876348614693,-1.6207402388202112,0.0,0.07654549181461334,0.558991014957428,0.029395105317234993,-0.006714129354804754,0.9192836284637451,-0.020045775920152664,-0.3698645234107971
270.0,312.0,1.864,0.7555,8.2846,0.0257,-0.3717,-0.0834,-1.6964813671507777,-0.139833003282547,2.291937828063965,-1.7099355459213257,0.2459687739610672,2.3946356773376465,4.608381434077881,-0.5037431716918945,0.017971832305192947,-1.6206844488727015,0.0,0.07658335566520691,0.5591151118278503,0.02339658886194229,-0.019945912063121796,0.9191033840179443,-0.024092353880405426,-0.37910398840904236
270.0,312.0,1.864,0.7555,8.2846,0.0257,-0.3717,-0.0834,-1.6972705326476039,-0.13856440782546997,2.2800662517547607,-1.7083946466445923,0.2497285157442093,2.3888282775878906,4.605435057277344,-0.5039603114128113,0.03361174091696739,-1.6207001844989222,-2.7761957426264416e-06,0.07868801057338715,0.5591986775398254,0.012299620546400547,-0.04239894077181816,0.9189722537994385,-0.027456289157271385,-0.36522775888442993
270.0,312.0,1.864,0.7555,8.2846,0.0257,-0.3717,-0.0834,-1.6978537044920863,-0.13312819600105286,2.3078484535217285,-1.707454800605774,0.24975022673606873,2.369720220565796,4.603471918697021,-0.5034058094024658,0.0045317914336919785,-1.6206963698016565,-1.183535669468938e-08,0.08586429059505463,0.5591905117034912,0.004950610920786858,-0.034431878477334976,0.9188238382339478,-0.02999415248632431,-0.3776985704898834
270.0,312.0,1.864,0.7555,8.2846,0.0257,-0.3717,-0.0834,-1.6986972294249476,-0.12907196581363678,2.3631484508514404,-1.7060267925262451,0.2513376474380493,2.379615545272827,4.6004320818134765,-0.5057400465011597,0.0032661515288054943,-1.6206920782672327,-3.2944150879510303e-12,0.08801235258579254,0.5591785907745361,5.370381404645741e-05,-0.06290635466575623,0.9186838865280151,-0.03399839997291565,-0.40045928955078125
270.0,312.0,1.864,0.7555,8.2846,0.0257,-0.3717,-0.0834,-1.6995321712889613,-0.13156422972679138,2.352604389190674,-1.7045422792434692,0.24721504747867584,2.3818225860595703,4.597419424647949,-0.5047959685325623,0.02189890295267105,-1.620676342641012,-9.170124800158457e-16,0.0889013260602951,0.559210479259491,-0.001430426025763154,-0.06255629658699036,0.9184925556182861,-0.036119863390922546,-0.376492440700531
