ramyac6/ROB537/final_project/csv/bad/bad_47.csv
tof_0,tof_1,accelx,accely,accelz,gyrox,gyroy,gyroz,shoulder_lift_joint_position,shoulder_lift_joint_velocity,shoulder_lift_joint_effort,elbow_joint_position,elbow_joint_velocity,elbow_joint_effort,wrist_1_joint_position,wrist_1_joint_velocity,wrist_1_joint_effort,wrist_2_joint_position,wrist_2_joint_velocity,wrist_2_joint_effort,wrist_3_joint_position,wrist_3_joint_velocity,wrist_3_joint_effort,shoulder_pan_joint_position,shoulder_pan_joint_velocity,shoulder_pan_joint_effort
718.0,779.0,-0.4062,0.9009,9.6239,-0.033,0.0267,-0.1216,-1.9183632336058558,0.0,3.3741793632507324,-1.775451898574829,-0.0,1.8777492046356201,5.180463301926412,-0.0,0.271713525056839,-1.6211345831500452,-0.0,-0.0008659552549943328,0.3804018497467041,0.0,0.004224647767841816,1.1841930150985718,0.0,0.04070647433400154
718.0,779.0,-0.4062,0.9009,9.6239,-0.033,0.0267,-0.1216,-1.9183632336058558,0.0,3.3809545040130615,-1.7755115032196045,-0.0,1.887439489364624,5.180507647782125,-0.0,0.2771255373954773,-1.6211264769183558,-0.0,-0.00789937935769558,0.3804212808609009,0.0,-0.0029418841004371643,1.1842294931411743,0.0,-0.0022960160858929157
718.0,779.0,-0.4062,0.9009,9.6239,-0.033,0.0267,-0.1216,-1.9183675251402796,0.0,3.375185966491699,-1.7754796743392944,-0.0,1.9023230075836182,5.180463301926412,-0.0,0.2833423912525177,-1.6211274305926722,-0.0,-0.006553890649229288,0.3804539144039154,0.0,0.006978400982916355,1.1841812133789062,0.0,-0.009002024307847023
718.0,779.0,-0.4062,0.9009,9.6239,-0.033,0.0267,-0.1216,-1.9183794460692347,0.0,3.3710575103759766,-1.7754875421524048,-0.0,1.921526312828064,5.180495577841558,-0.0,0.2809353172779083,-1.6210830847369593,-0.0,-0.006618039682507515,0.3803814649581909,0.0,-0.0032906781416386366,1.184165120124817,0.0,0.021226532757282257
718.0,779.0,-0.4062,0.9009,9.6239,-0.033,0.0267,-0.1216,-1.9183675251402796,0.0,3.3904948234558105,-1.775463342666626,-0.0,1.895803451538086,5.180503505259313,-0.0,0.2729237377643585,-1.6211345831500452,-0.0,0.0008289430988952518,0.38049015402793884,0.0,-0.008862502872943878,1.1841812133789062,0.0,0.002519951667636633
718.0,779.0,-0.4062,0.9009,9.6239,-0.033,0.0267,-0.1216,-1.9183994732298792,0.0,3.3774478435516357,-1.7754796743392944,-0.0,1.8330118656158447,5.180471527367391,-0.0,0.2750813364982605,-1.6211150328265589,-0.0,-0.0008032568730413914,0.38041308522224426,0.0,-0.009884023107588291,1.184156894683838,0.0,0.012588661164045334
718.0,779.0,-0.4062,0.9009,9.6239,-0.033,0.0267,-0.1216,-1.9183632336058558,0.0,3.3971128463745117,-1.7754796743392944,-0.0,1.9391100406646729,5.1804551658924005,-0.0,0.2747204899787903,-1.6211193243609827,-0.0,-0.012339125387370586,0.38040947914123535,0.0,0.00279353279620409,1.184197187423706,0.0,0.0032967545557767153
718.0,779.0,-0.4062,0.9009,9.6239,-0.033,0.0267,-0.1216,-1.918375154534811,0.0,3.3566699028015137,-1.775439977645874,-0.0,1.8536649942398071,5.180475222855367,-0.0,0.2743840515613556,-1.6210950056659144,-0.0,-0.009966764599084854,0.3804417848587036,0.0,0.004237559624016285,1.1842454671859741,0.0,-0.00014137744437903166
718.0,779.0,-0.4062,0.9009,9.6239,-0.033,0.0267,-0.1216,-1.9183265171446742,0.0,3.347735643386841,-1.7755074501037598,-0.0,1.8939340114593506,5.180446970253744,-0.0,0.27579203248023987,-1.6211469809161585,-0.0,-0.011401340365409851,0.38042953610420227,0.0,-0.0013279778650030494,1.1842454671859741,0.0,0.0035235995892435312
718.0,779.0,-0.4062,0.9009,9.6239,-0.033,0.0267,-0.1216,-1.9183670483031214,0.0,3.3610944747924805,-1.7754909992218018,-0.0,1.8747267723083496,5.180434989720144,-0.0,0.2807396650314331,-1.6211231390582483,-0.0,-0.006520875729620457,0.38043323159217834,0.0,-0.0061124456115067005,1.1842294931411743,0.0,-0.0323936752974987
718.0,779.0,-0.4062,0.9009,9.6239,-0.033,0.0267,-0.1216,-1.9183794460692347,0.0,3.3374319076538086,-1.775534749031067,-0.0,1.892914056777954,5.180427628546514,-0.0,0.27734676003456116,-1.6211593786822718,-0.0,-0.007660941686481237,0.38041722774505615,0.0,-0.009996242821216583,1.184185266494751,0.0,0.04712270572781563
723.0,774.0,-0.3039,0.9434,9.4026,-0.0418,0.0278,-0.1139,-1.9184032879271449,0.0,3.357503890991211,-1.7755714654922485,-0.0,1.9152805805206299,5.180459248810568,-0.0,0.2782537341117859,-1.621138874684469,-0.0,-0.0035443890374153852,0.3804696202278137,0.0,-0.008753003552556038,1.184197187423706,0.0,0.07724800705909729
723.0,774.0,-0.3039,0.9434,9.4026,-0.0418,0.0278,-0.1139,-1.9183675251402796,0.0,3.3260653018951416,-1.7755635976791382,-0.0,1.8912432193756104,5.180467414646902,-0.0,0.2791280150413513,-1.621086899434225,-0.0,0.005756007041782141,0.38036954402923584,0.0,-0.0010132142342627048,1.1842172145843506,0.0,0.04018888995051384
723.0,774.0,-0.3039,0.9434,9.4026,-0.0418,0.0278,-0.1139,-1.9184032879271449,0.0,3.3439221382141113,-1.7754796743392944,-0.0,1.8895833492279053,5.180483358889379,-0.0,0.276277631521225,-1.621138874684469,-0.0,0.0005108520854264498,0.38039305806159973,0.0,0.009366092272102833,1.1841729879379272,0.0,-0.011710332706570625
723.0,774.0,-0.3039,0.9434,9.4026,-0.0418,0.0278,-0.1139,-1.9183627567686976,0.0,3.3752601146698,-1.7754677534103394,-0.0,1.9593992233276367,5.180487501412191,-0.0,0.2798018753528595,-1.6210907141314905,-0.0,-0.005161042790859938,0.38042131066322327,0.0,0.0013250877382233739,1.184185266494751,0.0,-0.027827799320220947
723.0,774.0,-0.3039,0.9434,9.4026,-0.0418,0.0278,-0.1139,-1.918375154534811,0.0,3.374601125717163,-1.7754274606704712,-0.0,1.9062881469726562,5.180442827730932,-0.0,0.2735897898674011,-1.6211231390582483,-0.0,-0.0011574197560548782,0.3804295063018799,0.0,-0.0012877362314611673,1.184185266494751,0.0,0.012861762195825577
723.0,774.0,-0.3039,0.9434,9.4026,-0.0418,0.0278,-0.1139,-1.9183632336058558,0.0,3.3861474990844727,-1.7755268812179565,-0.0,1.8509540557861328,5.18046327212409,-0.0,0.2835352420806885,-1.621138874684469,-0.0,-0.004324446432292461,0.3804498016834259,0.0,-0.006440082099288702,1.184188961982727,0.0,0.020352115854620934
723.0,774.0,-0.3039,0.9434,9.4026,-0.0418,0.0278,-0.1139,-1.9184071026244105,0.0,3.32602596282959,-1.7755154371261597,-0.0,1.923945665359497,5.180459219008245,-0.0,0.27693602442741394,-1.6211069265948694,-0.0,-0.016137484461069107,0.3804212808609009,0.0,0.0010356134735047817,1.1842495203018188,0.0,-0.008604800328612328
723.0,774.0,-0.3039,0.9434,9.4026,-0.0418,0.0278,-0.1139,-1.918375631371969,0.0,3.3463988304138184,-1.7754558324813843,-0.0,1.9071667194366455,5.180438774615087,-0.0,0.2871534526348114,-1.6211231390582483,-0.0,-0.019598262384533882,0.3804577589035034,0.0,0.0068473415449261665,1.1842131614685059,0.0,-0.010670192539691925
723.0,774.0,-0.3039,0.9434,9.4026,-0.0418,0.0278,-0.1139,-1.918358942071432,0.0,3.3944592475891113,-1.7754955291748047,-0.0,1.887373447418213,5.180471527367391,-0.0,0.2671240270137787,-1.6211231390582483,-0.0,-0.00806538388133049,0.38049760460853577,0.0,-0.012957373633980751,1.1842089891433716,0.0,-0.02528197504580021
723.0,774.0,-0.3039,0.9434,9.4026,-0.0418,0.0278,-0.1139,-1.9183508358397425,0.0,3.34397029876709,-1.7754712104797363,-0.0,1.8952739238739014,5.1804793057735345,-0.0,0.278149276971817,-1.6211593786822718,-0.0,-0.0016115705948323011,0.38038185238838196,0.0,0.00010578334331512451,1.1842131614685059,0.0,0.015576137229800224
723.0,774.0,-0.3039,0.9434,9.4026,-0.0418,0.0278,-0.1139,-1.9183632336058558,0.0,3.3439245223999023,-1.7755154371261597,-0.0,1.903381109237671,5.1804993627365015,-0.0,0.2706286311149597,-1.6211755911456507,-0.0,-0.0072950697503983974,0.38042548298835754,0.0,-0.009129148907959461,1.1842012405395508,0.0,0.023092640563845634
723.0,774.0,-0.3039,0.9434,9.4026,-0.0418,0.0278,-0.1139,-1.918370863000387,0.0,3.352463722229004,-1.7754433155059814,-0.0,1.8978581428527832,5.180467355042257,-0.0,0.28162041306495667,-1.621131722127096,-0.0,-0.0030810325406491756,0.3804417848587036,0.0,-0.003910932689905167,1.1842495203018188,0.0,0.012300488539040089
723.0,774.0,-0.3039,0.9434,9.4026,-0.0418,0.0278,-0.1139,-1.9183794460692347,0.0,3.381648540496826,-1.7754950523376465,-0.0,1.8734002113342285,5.180446970253744,-0.0,0.276123970746994,-1.621138874684469,-0.0,-0.0006169824628159404,0.3804818391799927,0.0,-0.007425482384860516,1.1841930150985718,0.0,-0.023107025772333145
723.0,774.0,-0.3039,0.9434,9.4026,-0.0418,0.0278,-0.1139,-1.9183064899840296,0.0,3.379852294921875,-1.7754950523376465,-0.0,1.9336018562316895,5.1804711399372,-0.0,0.27481576800346375,-1.6211274305926722,-0.0,-0.0024514151737093925,0.3804376423358917,0.0,0.0017283762572333217,1.1842172145843506,0.0,-0.010003202594816685
723.0,774.0,-0.3039,0.9434,9.4026,-0.0418,0.0278,-0.1139,-1.9184314213194789,0.0,3.3717613220214844,-1.7754712104797363,-0.0,1.8728280067443848,5.180479275971212,-0.0,0.26589736342430115,-1.621138874684469,-0.0,-0.0005153431557118893,0.3804737329483032,0.0,-0.0014839328359812498,1.1842294931411743,0.0,-0.02611071988940239
723.0,774.0,-0.3039,0.9434,9.4026,-0.0418,0.0278,-0.1139,-1.9183632336058558,0.0,3.3416695594787598,-1.7754155397415161,-0.0,1.893446445465088,5.180430906801977,-0.0,0.2732195556163788,-1.621138874684469,-0.0,0.005652700550854206,0.3804900646209717,0.0,-0.006779311690479517,1.1841729879379272,0.0,-0.03617464751005173
723.0,774.0,-0.3039,0.9434,9.4026,-0.0418,0.0278,-0.1139,-1.918375154534811,0.0,3.3345746994018555,-1.7755035161972046,-0.0,1.884857177734375,5.180475550680914,-0.0,0.28641384840011597,-1.62109882036318,-0.0,-0.0006427564658224583,0.38045734167099,0.0,0.0023039840161800385,1.1842294931411743,0.0,-0.009306007996201515
723.0,774.0,-0.3039,0.9434,9.4026,-0.0418,0.0278,-0.1139,-1.9183632336058558,0.0,3.3964061737060547,-1.7755115032196045,-0.0,1.8756322860717773,5.180515366583624,-0.0,0.28161728382110596,-1.6211069265948694,-0.0,-0.007731336168944836,0.3804135322570801,0.0,-0.004544840659946203,1.184253215789795,0.0,0.01592489331960678
723.0,774.0,-0.3039,0.9434,9.4026,-0.0418,0.0278,-0.1139,-1.9183389149107875,0.0,3.3887248039245605,-1.7754875421524048,-0.0,1.886715292930603,5.180479275971212,-0.0,0.2818276584148407,-1.6211307684527796,-0.0,-0.0017807036638259888,0.3804495334625244,0.0,-0.0035995375365018845,1.1842093467712402,0.0,0.005726155824959278
723.0,774.0,-0.3039,0.9434,9.4026,-0.0418,0.0278,-0.1139,-1.9183227024474085,0.0,3.4019246101379395,-1.7754558324813843,-0.0,1.840846300125122,5.180451023369589,-0.0,0.2645184397697449,-1.6211555639850062,-0.0,-0.016697393730282784,0.3804859220981598,0.0,0.010029995813965797,1.1842131614685059,0.0,0.01727605238556862
723.0,774.0,-0.3039,0.9434,9.4026,-0.0418,0.0278,-0.1139,-1.918358942071432,0.0,3.353302001953125,-1.775538682937622,-0.0,1.9207568168640137,5.180446970253744,-0.0,0.2689584791660309,-1.6211345831500452,-0.0,-0.010961879976093769,0.38041722774505615,0.0,3.7835678085684776e-05,1.184261441230774,0.0,-0.006565962918102741
714.0,791.0,-0.454,0.8656,9.6257,-0.0356,0.0283,-0.1168,-1.9183551273741664,0.0,3.3599581718444824,-1.7754756212234497,-0.0,1.896138310432434,5.1805075881774805,-0.0,0.2793126106262207,-1.6211712996112269,-0.0,-0.0014699917519465089,0.38040944933891296,0.0,-0.007476925849914551,1.1842131614685059,0.0,0.025021754205226898
714.0,791.0,-0.454,0.8656,9.6257,-0.0356,0.0283,-0.1168,-1.918358942071432,0.0,3.368480682373047,-1.7754870653152466,-0.0,1.9153354167938232,5.180455195694723,-0.0,0.28553202748298645,-1.6211712996112269,-0.0,-0.010048303753137589,0.3804335594177246,0.0,0.0013902736827731133,1.1842412948608398,0.0,-0.034089621156454086
714.0,791.0,-0.454,0.8656,9.6257,-0.0356,0.0283,-0.1168,-1.9183913669981898,0.0,3.390333652496338,-1.7754592895507812,-0.0,1.9442064762115479,5.18046327212409,-0.0,0.27610254287719727,-1.621131722127096,-0.0,-0.010723959654569626,0.38042953610420227,0.0,-0.008967369794845581,1.1841610670089722,0.0,0.04873921722173691
714.0,791.0,-0.454,0.8656,9.6257,-0.0356,0.0283,-0.1168,-1.918358942071432,0.0,3.3827080726623535,-1.7754712104797363,-0.0,1.8903260231018066,5.18047525265769,-0.0,0.28190457820892334,-1.6211794058429163,-0.0,0.004222754389047623,0.3804212808609009,0.0,-0.004250142257660627,1.184197187423706,0.0,-0.038591936230659485
714.0,791.0,-0.454,0.8656,9.6257,-0.0356,0.0283,-0.1168,-1.9183064899840296,0.0,3.368656873703003,-1.7754672765731812,-0.0,1.8857059478759766,5.180479275971212,-0.0,0.2739216387271881,-1.6211431662188929,-0.0,-0.0032115729991346598,0.38040125370025635,0.0,0.010794444940984249,1.1842012405395508,0.0,-0.03562019392848015
714.0,791.0,-0.454,0.8656,9.6257,-0.0356,0.0283,-0.1168,-1.918358942071432,0.0,3.365936279296875,-1.7755308151245117,-0.0,1.9025580883026123,5.180446970253744,-0.0,0.2703097462654114,-1.6211345831500452,-0.0,0.009155468083918095,0.3804655373096466,0.0,0.002968725748360157,1.1842454671859741,0.0,0.02738976664841175
714.0,791.0,-0.454,0.8656,9.6257,-0.0356,0.0283,-0.1168,-1.9183632336058558,0.0,3.402482748031616,-1.7754672765731812,-0.0,1.8949819803237915,5.180471497565069,-0.0,0.2751806974411011,-1.621138874684469,-0.0,-0.006673639640212059,0.3803896903991699,0.0,0.0014220060547813773,1.1842336654663086,0.0,-0.0053443023934960365
714.0,791.0,-0.454,0.8656,9.6257,-0.0356,0.0283,-0.1168,-1.9183465443053187,0.0,3.3933136463165283,-1.7754989862442017,-0.0,1.888823390007019,5.180487501412191,-0.0,0.27865612506866455,-1.621138874684469,-0.0,-0.0093608433380723,0.3804052770137787,0.0,-0.013993138447403908,1.184233546257019,0.0,-0.019608281552791595
714.0,791.0,-0.454,0.8656,9.6257,-0.0356,0.0283,-0.1168,-1.9183341465392054,0.0,3.3490612506866455,-1.7754637002944946,-0.0,1.9008994102478027,5.180398958712377,-0.0,0.2768896818161011,-1.6211674849139612,-0.0,0.0022344395983964205,0.3804696500301361,0.0,0.0043066684156656265,1.1841812133789062,0.0,-0.03783278912305832
714.0,791.0,-0.454,0.8656,9.6257,-0.0356,0.0283,-0.1168,-1.918358942071432,0.0,3.338345527648926,-1.7754950523376465,-0.0,1.9119666814804077,5.180475163250723,-0.0,0.271960973739624,-1.621138874684469,-0.0,-5.0933798775076866e-05,0.38041308522224426,0.0,0.003127679228782654,1.184177041053772,0.0,-0.07036194205284119
714.0,791.0,-0.454,0.8656,9.6257,-0.0356,0.0283,-0.1168,-1.9183508358397425,0.0,3.3551526069641113,-1.7754995822906494,-0.0,1.9175615310668945,5.180455195694723,-0.0,0.2874463200569153,-1.621138874684469,-0.0,-0.0037259580567479134,0.38044583797454834,0.0,-8.727633394300938e-05,1.1841610670089722,0.0,0.06183088198304176
714.0,791.0,-0.454,0.8656,9.6257,-0.0356,0.0283,-0.1168,-1.9183632336058558,0.0,3.401676654815674,-1.7755074501037598,-0.0,1.9183452129364014,5.180455195694723,-0.0,0.2791454493999481,-1.6211236158954065,-0.0,-0.0009833136573433876,0.38042545318603516,0.0,-0.0019865462090820074,1.1842131614685059,0.0,-0.00898668635636568
714.0,791.0,-0.454,0.8656,9.6257,-0.0356,0.0283,-0.1168,-1.9183465443053187,0.0,3.365274429321289,-1.7754989862442017,-0.0,1.9132592678070068,5.180467355042257,-0.0,0.26518672704696655,-1.6211674849139612,-0.0,-0.004511666484177113,0.3804335296154022,0.0,-0.0004595325153786689,1.1842131614685059,0.0,0.04130358621478081
714.0,791.0,-0.454,0.8656,9.6257,-0.0356,0.0283,-0.1168,-1.9183222256102503,0.0,3.3726353645324707,-1.775435447692871,-0.0,1.8936424255371094,5.180507528572836,-0.0,0.2678561210632324,-1.6211307684527796,-0.0,-0.008826194331049919,0.3804655373096466,0.0,-0.005027851555496454,1.184185266494751,0.0,0.009081970900297165
714.0,791.0,-0.454,0.8656,9.6257,-0.0356,0.0283,-0.1168,-1.918387075463766,0.0,3.4037232398986816,-1.7755471467971802,-0.0,1.908125638961792,5.180435019522466,-0.0,0.2676417827606201,-1.6211345831500452,-0.0,-0.002408175263553858,0.3804696202278137,0.0,0.0018299442017450929,1.1842172145843506,0.0,-0.004972146824002266
714.0,791.0,-0.454,0.8656,9.6257,-0.0356,0.0283,-0.1168,-1.918375154534811,0.0,3.3896827697753906,-1.7754950523376465,-0.0,1.9043292999267578,5.18045927861289,-0.0,0.2809741199016571,-1.6211307684527796,-0.0,-0.002051718533039093,0.3804454505443573,0.0,0.006981374695897102,1.1842294931411743,0.0,0.02153579145669937
714.0,791.0,-0.454,0.8656,9.6257,-0.0356,0.0283,-0.1168,-1.9183794460692347,0.0,3.3869690895080566,-1.7754672765731812,-0.0,1.8955278396606445,5.180495250016012,-0.0,0.2763654291629791,-1.6211431662188929,-0.0,-0.0006931873504072428,0.38041722774505615,0.0,-0.0014485225547105074,1.18422532081604,0.0,-0.030138002708554268
714.0,791.0,-0.454,0.8656,9.6257,-0.0356,0.0283,-0.1168,-1.918370863000387,0.0,3.389418601989746,-1.7755308151245117,-0.0,1.8511394262313843,5.180495160609045,-0.0,0.27327874302864075,-1.6211069265948694,-0.0,-0.014019344002008438,0.3804212510585785,0.0,4.26475889980793e-05,1.1842131614685059,0.0,0.030855219811201096
714.0,791.0,-0.454,0.8656,9.6257,-0.0356,0.0283,-0.1168,-1.918387075463766,0.0,3.3554763793945312,-1.7754597663879395,-0.0,1.9016485214233398,5.180442946940222,-0.0,0.28577861189842224,-1.621138874684469,-0.0,-0.0004266535979695618,0.38043761253356934,0.0,-0.009549014270305634,1.1842049360275269,0.0,-0.018057862296700478
714.0,791.0,-0.454,0.8656,9.6257,-0.0356,0.0283,-0.1168,-1.9183670483031214,0.0,3.344088554382324,-1.7755074501037598,-0.0,1.922058343887329,5.18046327212409,-0.0,0.28615373373031616,-1.6211231390582483,-0.0,-0.005535564385354519,0.38042134046554565,0.0,0.010535355657339096,1.1841930150985718,0.0,-0.015317361801862717
714.0,791.0,-0.454,0.8656,9.6257,-0.0356,0.0283,-0.1168,-1.9183465443053187,0.0,3.4092211723327637,-1.7754989862442017,-0.0,1.8989558219909668,5.180495279818334,-0.0,0.27154481410980225,-1.6211431662188929,-0.0,-0.005560591816902161,0.38047781586647034,0.0,-0.0001155482605099678,1.1842131614685059,0.0,-0.00927517656236887
743.0,780.0,-0.4445,0.8979,9.5575,-0.0322,0.0171,-0.1122,-1.918342729608053,0.0,3.373530387878418,-1.7754915952682495,-0.0,1.8598880767822266,5.180471527367391,-0.0,0.2739625573158264,-1.62109882036318,-0.0,-0.00016357912681996822,0.3804458975791931,0.0,-0.0062341755256056786,1.1841447353363037,0.0,-0.0313945896923542
743.0,780.0,-0.4445,0.8979,9.5575,-0.0322,0.0171,-0.1122,-1.918342729608053,0.0,3.3668298721313477,-1.7754271030426025,-0.0,1.9155514240264893,5.180499303131857,-0.0,0.2771330177783966,-1.6211231390582483,-0.0,-0.00019182008691132069,0.3804376721382141,0.0,-0.00154193677008152,1.184233546257019,0.0,0.002228318713605404
743.0,780.0,-0.4445,0.8979,9.5575,-0.0322,0.0171,-0.1122,-1.9183508358397425,0.0,3.3536295890808105,-1.7755154371261597,-0.0,1.8689833879470825,5.180451023369589,-0.0,0.2877426743507385,-1.6211345831500452,-0.0,0.0016155210323631763,0.38042953610420227,0.0,-0.003655527951195836,1.1841930150985718,0.0,-0.035526469349861145
743.0,780.0,-0.4445,0.8979,9.5575,-0.0322,0.0171,-0.1122,-1.918379922906393,0.0,3.312561511993408,-1.77552330493927,-0.0,1.9096107482910156,5.18047924616889,-0.0,0.27654320001602173,-1.621138874684469,-0.0,-0.019456809386610985,0.3804495334625244,0.0,0.004840287379920483,1.1842372417449951,0.0,0.007274747826159
743.0,780.0,-0.4445,0.8979,9.5575,-0.0322,0.0171,-0.1122,-1.9183632336058558,0.0,3.358309507369995,-1.7754796743392944,-0.0,1.9036225080490112,5.180503505259313,-0.0,0.28043678402900696,-1.621131722127096,-0.0,-0.004972938448190689,0.38043761253356934,0.0,-0.0048457863740623,1.184188961982727,0.0,0.049019183963537216
743.0,780.0,-0.4445,0.8979,9.5575,-0.0322,0.0171,-0.1122,-1.9183346233763636,0.0,3.420234203338623,-1.7755074501037598,-0.0,1.869863510131836,5.180455195694723,-0.0,0.27759459614753723,-1.6210907141314905,-0.0,-0.018126094713807106,0.38040122389793396,0.0,-0.0009593574795871973,1.1842454671859741,0.0,0.03569174185395241
743.0,780.0,-0.4445,0.8979,9.5575,-0.0322,0.0171,-0.1122,-1.9183994732298792,0.0,3.3242619037628174,-1.7754989862442017,-0.0,1.8846783638000488,5.180487501412191,-0.0,0.2899298667907715,-1.6211712996112269,-0.0,0.012274084612727165,0.3803655803203583,0.0,0.00941240694373846,1.1842049360275269,0.0,-0.027617694810032845
743.0,780.0,-0.4445,0.8979,9.5575,-0.0322,0.0171,-0.1122,-1.918370863000387,0.0,3.397533893585205,-1.77552330493927,-0.0,1.9103648662567139,5.180471527367391,-0.0,0.271517276763916,-1.6211274305926722,-0.0,-0.007724510505795479,0.38039717078208923,0.0,-0.002101380378007889,1.184233546257019,0.0,0.019361287355422974
743.0,780.0,-0.4445,0.8979,9.5575,-0.0322,0.0171,-0.1122,-1.9183632336058558,0.0,3.3727922439575195,-1.7754875421524048,-0.0,1.9261749982833862,5.180475580483236,-0.0,0.28686055541038513,-1.6211431662188929,-0.0,0.002626032568514347,0.380449503660202,0.0,0.0161075871437788,1.1842212677001953,0.0,0.013969204388558865
743.0,780.0,-0.4445,0.8979,9.5575,-0.0322,0.0171,-0.1122,-1.918358942071432,0.0,3.3654839992523193,-1.7755154371261597,-0.0,1.8772714138031006,5.180471527367391,-0.0,0.29098621010780334,-1.6211755911456507,-0.0,-0.006841238588094711,0.38040122389793396,0.0,0.0015286647249013186,1.1842577457427979,0.0,-0.010895091108977795
743.0,780.0,-0.4445,0.8979,9.5575,-0.0322,0.0171,-0.1122,-1.9183508358397425,0.0,3.3711321353912354,-1.7755308151245117,-0.0,1.8977077007293701,5.180455136090078,-0.0,0.27650800347328186,-1.621138874684469,-0.0,-0.0015068510547280312,0.38044583797454834,0.0,0.007607270032167435,1.184253215789795,0.0,0.0006218935595825315
743.0,780.0,-0.4445,0.8979,9.5575,-0.0322,0.0171,-0.1122,-1.9183794460692347,0.0,3.3606784343719482,-1.7755154371261597,-0.0,1.9348201751708984,5.180491584330358,-0.0,0.2824438810348511,-1.621110741292135,-0.0,-0.006723691243678331,0.38040900230407715,0.0,0.009075992740690708,1.1842012405395508,0.0,-0.013346063904464245
743.0,780.0,-0.4445,0.8979,9.5575,-0.0322,0.0171,-0.1122,-1.9183794460692347,0.0,3.3854236602783203,-1.7754909992218018,-0.0,1.8619763851165771,5.180479573994436,-0.0,0.2751163840293884,-1.6211345831500452,-0.0,-0.016730759292840958,0.38042953610420227,0.0,-0.009764577262103558,1.1842012405395508,0.0,-0.03169965744018555
743.0,780.0,-0.4445,0.8979,9.5575,-0.0322,0.0171,-0.1122,-1.9183632336058558,0.0,3.3796372413635254,-1.77549147605896,-0.0,1.924218773841858,5.180471527367391,-0.0,0.26727941632270813,-1.6211512724505823,-0.0,0.0013121259398758411,0.3804498612880707,0.0,-0.003816797398030758,1.184197187423706,0.0,-0.015979500487446785
743.0,780.0,-0.4445,0.8979,9.5575,-0.0322,0.0171,-0.1122,-1.9183875523009242,0.0,3.3392364978790283,-1.7754989862442017,-0.0,1.8952109813690186,5.180471497565069,-0.0,0.2725841999053955,-1.6211069265948694,-0.0,-0.001153260818682611,0.3804332911968231,0.0,-0.009584535844624043,1.184188961982727,0.0,0.03093896061182022
743.0,780.0,-0.4445,0.8979,9.5575,-0.0322,0.0171,-0.1122,-1.9184071026244105,0.0,3.335420608520508,-1.7754796743392944,-0.0,1.8761825561523438,5.180471527367391,-0.0,0.28530704975128174,-1.6211026350604456,-0.0,-0.007289803586900234,0.3804131746292114,0.0,-0.0013844323111698031,1.1841967105865479,0.0,-0.06632646173238754
743.0,780.0,-0.4445,0.8979,9.5575,-0.0322,0.0171,-0.1122,-1.9183951816954554,0.0,3.3856418132781982,-1.7754716873168945,-0.0,1.919924259185791,5.180487501412191,-0.0,0.27358436584472656,-1.6211398283587855,-0.0,0.006421925965696573,0.3804417550563812,0.0,0.0035363694187253714,1.1842535734176636,0.0,-0.019097518175840378
743.0,780.0,-0.4445,0.8979,9.5575,-0.0322,0.0171,-0.1122,-1.9183675251402796,0.0,3.3782243728637695,-1.7755228281021118,-0.0,1.874955415725708,5.1804793057735345,-0.0,0.2872340977191925,-1.621138874684469,-0.0,-0.015399209223687649,0.38042545318603516,0.0,-0.0018097150605171919,1.1842172145843506,0.0,-0.06326765567064285
743.0,780.0,-0.4445,0.8979,9.5575,-0.0322,0.0171,-0.1122,-1.9183713398375453,0.0,3.3791468143463135,-1.7754909992218018,-0.0,1.8867887258529663,5.1804993627365015,-0.0,0.2798289656639099,-1.6211431662188929,-0.0,-0.007964596152305603,0.3804454803466797,0.0,0.007849067449569702,1.1842172145843506,0.0,0.0014968214090913534
743.0,780.0,-0.4445,0.8979,9.5575,-0.0322,0.0171,-0.1122,-1.9183832607665003,0.0,3.3939599990844727,-1.7754875421524048,-0.0,1.8973478078842163,5.180455195694723,-0.0,0.27315691113471985,-1.6210911909686487,-0.0,-0.015418818220496178,0.3804577589035034,0.0,0.014826357364654541,1.184233546257019,0.0,-0.006210749968886375
701.0,787.0,-0.4217,0.8614,9.5737,-0.0397,0.026,-0.1174,-1.9183465443053187,0.0,3.2978920936584473,-1.7754558324813843,-0.0,1.8838047981262207,5.180483358889379,-0.0,0.27737733721733093,-1.6211469809161585,-0.0,-0.004187147598713636,0.38040944933891296,0.0,-0.007220201659947634,1.1842131614685059,0.0,0.008167627267539501
701.0,787.0,-0.4217,0.8614,9.5737,-0.0397,0.026,-0.1174,-1.9183832607665003,0.0,3.390970230102539,-1.775451898574829,-0.0,1.8732062578201294,5.180515336781301,-0.0,0.2835940718650818,-1.6211431662188929,-0.0,0.0031490037217736244,0.3804335296154022,0.0,0.0005084900185465813,1.1842130422592163,0.0,0.03278997540473938
701.0,787.0,-0.4217,0.8614,9.5737,-0.0397,0.026,-0.1174,-1.9183465443053187,0.0,3.346837043762207,-1.7754836082458496,-0.0,1.9267919063568115,5.180519598513403,-0.0,0.27953803539276123,-1.6211193243609827,-0.0,-0.004537952598184347,0.3804294466972351,0.0,-0.006357664242386818,1.1842737197875977,0.0,0.025105826556682587
701.0,787.0,-0.4217,0.8614,9.5737,-0.0397,0.026,-0.1174,-1.918370863000387,0.0,3.373657464981079,-1.7754791975021362,-0.0,1.8607380390167236,5.180483358889379,-0.0,0.2785283923149109,-1.6211231390582483,-0.0,-0.006085209548473358,0.38039708137512207,0.0,-0.0006530577084049582,1.1842131614685059,0.0,0.002072358038276434
701.0,787.0,-0.4217,0.8614,9.5737,-0.0397,0.026,-0.1174,-1.9183913669981898,0.0,3.352811574935913,-1.775538682937622,-0.0,1.8765968084335327,5.180419373303213,-0.0,0.27703410387039185,-1.621138874684469,-0.0,-0.003795480355620384,0.38042545318603516,0.0,-0.005959449335932732,1.184180736541748,0.0,-0.001595502719283104
701.0,787.0,-0.4217,0.8614,9.5737,-0.0397,0.026,-0.1174,-1.918358942071432,0.0,3.3575308322906494,-1.7754756212234497,-0.0,1.8462300300598145,5.180479275971212,-0.0,0.2821153700351715,-1.6211593786822718,-0.0,-0.00709856441244483,0.38049426674842834,0.0,-0.0011770357377827168,1.184185266494751,0.0,0.010183707810938358
701.0,787.0,-0.4217,0.8614,9.5737,-0.0397,0.026,-0.1174,-1.918375154534811,0.0,3.337667942047119,-1.7755228281021118,-0.0,1.9253778457641602,5.180435049324789,-0.0,0.27896010875701904,-1.6211231390582483,-0.0,0.002795704873278737,0.38039785623550415,0.0,-0.005671230144798756,1.1842049360275269,0.0,-0.02059275656938553
701.0,787.0,-0.4217,0.8614,9.5737,-0.0397,0.026,-0.1174,-1.9183508358397425,0.0,3.348926067352295,-1.7754796743392944,-0.0,1.971343755722046,5.180439191847601,-0.0,0.2765265107154846,-1.621131722127096,-0.0,-0.009481271728873253,0.3804498314857483,0.0,-0.006850755773484707,1.1842131614685059,0.0,0.00116784090641886
701.0,787.0,-0.4217,0.8614,9.5737,-0.0397,0.026,-0.1174,-1.9183384380736292,0.0,3.357173204421997,-1.7755154371261597,-0.0,1.9047551155090332,5.180487501412191,-0.0,0.27433696389198303,-1.621138874684469,-0.0,-0.002439166186377406,0.38049009442329407,0.0,-0.017284013330936432,1.1842089891433716,0.0,0.04706196114420891
701.0,787.0,-0.4217,0.8614,9.5737,-0.0397,0.026,-0.1174,-1.918347021142477,0.0,3.4010725021362305,-1.775451898574829,-0.0,1.9422839879989624,5.180495279818334,-0.0,0.27806973457336426,-1.621138874684469,-0.0,-0.006692604161798954,0.3804417848587036,0.0,-0.002609712304547429,1.184197187423706,0.0,-0.02556389942765236
701.0,787.0,-0.4217,0.8614,9.5737,-0.0397,0.026,-0.1174,-1.9183913669981898,0.0,3.3257875442504883,-1.7755154371261597,-0.0,1.8878233432769775,5.180471527367391,-0.0,0.27403849363327026,-1.6211593786822718,-0.0,0.0023486362770199776,0.38040533661842346,0.0,-9.931507520377636e-05,1.1842491626739502,0.0,-0.029884500429034233
701.0,787.0,-0.4217,0.8614,9.5737,-0.0397,0.026,-0.1174,-1.9183632336058558,0.0,3.4013290405273438,-1.7754875421524048,-0.0,1.8947306871414185,5.180479573994436,-0.0,0.2827637195587158,-1.621138874684469,-0.0,-0.011720146983861923,0.38049009442329407,0.0,-0.003920825198292732,1.1842412948608398,0.0,0.034888844937086105
701.0,787.0,-0.4217,0.8614,9.5737,-0.0397,0.026,-0.1174,-1.9183832607665003,0.0,3.378737449645996,-1.775435447692871,-0.0,1.8581023216247559,5.1805235026176355,-0.0,0.27182406187057495,-1.6211150328265589,-0.0,0.0073238518089056015,0.3804212808609009,0.0,-0.004785266704857349,1.1842172145843506,0.0,0.0010328944772481918
701.0,787.0,-0.4217,0.8614,9.5737,-0.0397,0.026,-0.1174,-1.918387075463766,0.0,3.3164448738098145,-1.7754756212234497,-0.0,1.8901443481445312,5.180459189205923,-0.0,0.28057244420051575,-1.6211026350604456,-0.0,-0.0031781482975929976,0.3804696202278137,0.0,-0.005569566041231155,1.18422532081604,0.0,0.014344959519803524
701.0,787.0,-0.4217,0.8614,9.5737,-0.0397,0.026,-0.1174,-1.9184113941588343,0.0,3.3687045574188232,-1.77549147605896,-0.0,1.8936433792114258,5.180467355042257,-0.0,0.2778170704841614,-1.621131722127096,-0.0,-0.007160814944654703,0.3804171681404114,0.0,-0.0022881629411131144,1.1841769218444824,0.0,0.03325766697525978
701.0,787.0,-0.4217,0.8614,9.5737,-0.0397,0.026,-0.1174,-1.9183632336058558,0.0,3.313123941421509,-1.7754796743392944,-0.0,1.9071316719055176,5.180479275971212,-0.0,0.28849273920059204,-1.6211345831500452,-0.0,-0.0015711630694568157,0.38042545318603516,0.0,0.002024955814704299,1.184188961982727,0.0,-0.02424931898713112
701.0,787.0,-0.4217,0.8614,9.5737,-0.0397,0.026,-0.1174,-1.918358942071432,0.0,3.345242977142334,-1.7754989862442017,-0.0,1.8936259746551514,5.180439162045278,-0.0,0.2645144462585449,-1.6211193243609827,-0.0,-0.0015524467453360558,0.3804614245891571,0.0,-0.002794587519019842,1.1842254400253296,0.0,0.002650883048772812
701.0,787.0,-0.4217,0.8614,9.5737,-0.0397,0.026,-0.1174,-1.9183222256102503,0.0,3.357189416885376,-1.7754796743392944,-0.0,1.8767926692962646,5.180503564863958,-0.0,0.27766263484954834,-1.6211274305926722,-0.0,-0.005132772494107485,0.38043761253356934,0.0,-0.00016002962365746498,1.1842089891433716,0.0,0.013908904045820236
701.0,787.0,-0.4217,0.8614,9.5737,-0.0397,0.026,-0.1174,-1.918370863000387,0.0,3.4220032691955566,-1.7754672765731812,-0.0,1.9046037197113037,5.180463212519445,-0.0,0.2749505639076233,-1.6211431662188929,-0.0,-0.011385591700673103,0.3804294466972351,0.0,0.0005843968829140067,1.184241771697998,0.0,-0.04321172088384628
701.0,787.0,-0.4217,0.8614,9.5737,-0.0397,0.026,-0.1174,-1.9184156856932582,0.0,3.335765838623047,-1.7754796743392944,-0.0,1.8910226821899414,5.180442887335577,-0.0,0.268628865480423,-1.6211345831500452,-0.0,0.0069117858074605465,0.38049349188804626,0.0,-0.008189811371266842,1.18422532081604,0.0,-0.026099948212504387
701.0,787.0,-0.4217,0.8614,9.5737,-0.0397,0.026,-0.1174,-1.9183551273741664,0.0,3.346041202545166,-1.7754875421524048,-0.0,1.8734533786773682,5.180426913290777,-0.0,0.28331512212753296,-1.6211069265948694,-0.0,0.0049360995180904865,0.3804130554199219,0.0,0.0032264774199575186,1.1841812133789062,0.0,-0.004068928305059671
709.0,791.0,-0.3942,0.8518,9.67,-0.0312,0.0279,-0.1129,-1.9183832607665003,0.0,3.385739803314209,-1.7754989862442017,-0.0,1.9032459259033203,5.180483358889379,-0.0,0.2804953157901764,-1.6211431662188929,-0.0,0.002113546011969447,0.3804572820663452,0.0,0.005822998471558094,1.1841888427734375,0.0,0.02333625592291355
709.0,791.0,-0.3942,0.8518,9.67,-0.0312,0.0279,-0.1129,-1.9183832607665003,0.0,3.3824405670166016,-1.775463342666626,-0.0,1.914417028427124,5.180479275971212,-0.0,0.27886584401130676,-1.6211193243609827,-0.0,-0.009185421280562878,0.38045361638069153,0.0,0.005686665419489145,1.184185266494751,0.0,-0.00017764419317245483
709.0,791.0,-0.3942,0.8518,9.67,-0.0312,0.0279,-0.1129,-1.9183632336058558,0.0,3.372076988220215,-1.7754191160202026,-0.0,1.8953851461410522,5.1804469404514215,-0.0,0.28139349818229675,-1.6211469809161585,-0.0,-0.010166958905756474,0.38050577044487,0.0,0.011152369901537895,1.184233546257019,0.0,-0.0065071433782577515
709.0,791.0,-0.3942,0.8518,9.67,-0.0312,0.0279,-0.1129,-1.9183508358397425,0.0,3.358569383621216,-1.7754558324813843,-0.0,1.9229607582092285,5.180451023369589,-0.0,0.2902446687221527,-1.6211307684527796,-0.0,-0.005401294212788343,0.3804578185081482,0.0,0.0005453302292153239,1.1842454671859741,0.0,-0.0068295737728476524
709.0,791.0,-0.3942,0.8518,9.67,-0.0312,0.0279,-0.1129,-1.9183875523009242,0.0,3.375399351119995,-1.7755635976791382,-0.0,1.913668155670166,5.1804469404514215,-0.0,0.27228671312332153,-1.6211069265948694,-0.0,-0.009707154706120491,0.38040944933891296,0.0,0.00591298146173358,1.1842172145843506,0.0,-0.014896972104907036
709.0,791.0,-0.3942,0.8518,9.67,-0.0312,0.0279,-0.1129,-1.918358942071432,0.0,3.387094020843506,-1.7754756212234497,-0.0,1.9070284366607666,5.180438744812765,-0.0,0.29172590374946594,-1.6211469809161585,-0.0,-0.005156630650162697,0.38041722774505615,0.0,-0.0017018807120621204,1.1842172145843506,0.0,0.0451509952545166
709.0,791.0,-0.3942,0.8518,9.67,-0.0312,0.0279,-0.1129,-1.918375154534811,0.0,3.412956714630127,-1.775506854057312,-0.0,1.8679949045181274,5.1805035946662805,-0.0,0.27108871936798096,-1.6211512724505823,-0.0,0.006007201969623566,0.3804941475391388,0.0,-0.006611851043999195,1.1841930150985718,0.0,-0.012585229240357876
709.0,791.0,-0.3942,0.8518,9.67,-0.0312,0.0279,-0.1129,-1.918370863000387,0.0,3.326444625854492,-1.7755154371261597,-0.0,1.911272644996643,5.180499422341146,-0.0,0.2877148389816284,-1.6211193243609827,-0.0,-0.0018245865358039737,0.38040944933891296,0.0,-0.01831640489399433,1.1841851472854614,0.0,0.03247148543596268
709.0,791.0,-0.3942,0.8518,9.67,-0.0312,0.0279,-0.1129,-1.9183713398375453,0.0,3.3720788955688477,-1.7754751443862915,-0.0,1.908623218536377,5.180471497565069,-0.0,0.2748287618160248,-1.621138874684469,-0.0,-0.008594940416514874,0.3804577887058258,0.0,9.474685066379607e-05,1.1842131614685059,0.0,-0.028049221262335777
709.0,791.0,-0.3942,0.8518,9.67,-0.0312,0.0279,-0.1129,-1.9183508358397425,0.0,3.368236780166626,-1.7754836082458496,-0.0,1.8838279247283936,5.180483358889379,-0.0,0.2788771986961365,-1.6211674849139612,-0.0,0.0033763707615435123,0.38047364354133606,0.0,-0.0060857501812279224,1.1842294931411743,0.0,0.010699761100113392
709.0,791.0,-0.3942,0.8518,9.67,-0.0312,0.0279,-0.1129,-1.918342729608053,0.0,3.388136386871338,-1.775423526763916,-0.0,1.8733110427856445,5.180499452143469,-0.0,0.28181108832359314,-1.6211231390582483,-0.0,-0.012686388567090034,0.3804053068161011,0.0,0.006695886608213186,1.1842089891433716,0.0,0.002624986693263054
709.0,791.0,-0.3942,0.8518,9.67,-0.0312,0.0279,-0.1129,-1.9184152088561,0.0,3.3779492378234863,-1.7755308151245117,-0.0,1.9327914714813232,5.18047924616889,-0.0,0.27863073348999023,-1.6211398283587855,-0.0,-0.005955715198069811,0.38041722774505615,0.0,-0.010357356630265713,1.1842131614685059,0.0,-0.00021294597536325455
709.0,791.0,-0.3942,0.8518,9.67,-0.0312,0.0279,-0.1129,-1.9183465443053187,0.0,3.355909824371338,-1.7755557298660278,-0.0,1.8827465772628784,5.180423486023702,-0.0,0.2707015573978424,-1.621131722127096,-0.0,-0.005060764495283365,0.38042545318603516,0.0,-0.0072493040934205055,1.1842212677001953,0.0,0.045759979635477066
709.0,791.0,-0.3942,0.8518,9.67,-0.0312,0.0279,-0.1129,-1.918375154534811,0.0,3.345362901687622,-1.7754439115524292,-0.0,1.91878342628479,5.180507230549612,-0.0,0.26643991470336914,-1.6211431662188929,-0.0,-0.0008643196779303253,0.3804212808609009,0.0,0.0031480579636991024,1.184197187423706,0.0,-0.03293435275554657
709.0,791.0,-0.3942,0.8518,9.67,-0.0312,0.0279,-0.1129,-1.9183508358397425,0.0,3.3431153297424316,-1.7754836082458496,-0.0,1.9017143249511719,5.180503564863958,-0.0,0.2933172583580017,-1.6211150328265589,-0.0,0.007789465133100748,0.3804696202278137,0.0,-0.008071737363934517,1.1842049360275269,0.0,0.010543981567025185
709.0,791.0,-0.3942,0.8518,9.67,-0.0312,0.0279,-0.1129,-1.9183551273741664,0.0,3.3633198738098145,-1.7754437923431396,-0.0,1.9140434265136719,5.180471557169714,-0.0,0.2718539834022522,-1.621110741292135,-0.0,0.0026354570873081684,0.3803859353065491,0.0,-0.011147438548505306,1.1842412948608398,0.0,-0.003548682201653719
709.0,791.0,-0.3942,0.8518,9.67,-0.0312,0.0279,-0.1129,-1.9183508358397425,0.0,3.4071807861328125,-1.7754592895507812,-0.0,1.8911035060882568,5.1804469404514215,-0.0,0.29072269797325134,-1.6211231390582483,-0.0,-0.010152578353881836,0.3804053068161011,0.0,-0.00760810449719429,1.184253215789795,0.0,-0.03162110969424248
709.0,791.0,-0.3942,0.8518,9.67,-0.0312,0.0279,-0.1129,-1.918375154534811,0.0,3.362189292907715,-1.7755069732666016,-0.0,1.916717529296875,5.180446970253744,-0.0,0.2693038284778595,-1.6211355368243616,-0.0,-0.0006288552540354431,0.3804052770137787,0.0,-0.0002164742909371853,1.1842131614685059,0.0,0.005814398638904095
709.0,791.0,-0.3942,0.8518,9.67,-0.0312,0.0279,-0.1129,-1.9183913669981898,0.0,3.3837568759918213,-1.7755268812179565,-0.0,1.8651758432388306,5.180446970253744,-0.0,0.2744799554347992,-1.6211150328265589,-0.0,0.0046051982790231705,0.38036540150642395,0.0,-0.0009363418212160468,1.1842089891433716,0.0,-0.01269473321735859
709.0,791.0,-0.3942,0.8518,9.67,-0.0312,0.0279,-0.1129,-1.9183551273741664,0.0,3.390958309173584,-1.7754637002944946,-0.0,1.9493448734283447,5.180439191847601,-0.0,0.2790442705154419,-1.6211345831500452,-0.0,-0.0027880992274731398,0.38041722774505615,0.0,-0.00034852558746933937,1.1841689348220825,0.0,0.008853464387357235
709.0,791.0,-0.3942,0.8518,9.67,-0.0312,0.0279,-0.1129,-1.918358942071432,0.0,3.3898990154266357,-1.775506854057312,-0.0,1.938232183456421,5.180459219008245,-0.0,0.26938071846961975,-1.6211231390582483,-0.0,-0.006277955137193203,0.38040128350257874,0.0,-0.0030687821563333273,1.1842089891433716,0.0,0.007438020780682564
726.0,792.0,-0.4445,0.8818,9.5898,-0.038,0.0208,-0.1168,-1.9183832607665003,0.0,3.340614080429077,-1.7755074501037598,-0.0,1.8654736280441284,5.180435049324789,-0.0,0.2831156849861145,-1.6211264769183558,-0.0,-0.0026519442908465862,0.3804417550563812,0.0,0.0018786494620144367,1.1842131614685059,0.0,-0.029921449720859528
726.0,792.0,-0.4445,0.8818,9.5898,-0.038,0.0208,-0.1168,-1.918358942071432,0.0,3.3197648525238037,-1.7755035161972046,-0.0,1.92256498336792,5.180439162045278,-0.0,0.28254908323287964,-1.6211231390582483,-0.0,-0.0028147799894213676,0.3804372549057007,0.0,-0.007111769635230303,1.1842254400253296,0.0,-0.008062888868153095
726.0,792.0,-0.4445,0.8818,9.5898,-0.038,0.0208,-0.1168,-1.918358942071432,0.0,3.4006876945495605,-1.7754398584365845,-0.0,1.872249960899353,5.1804551658924005,-0.0,0.2692996561527252,-1.6211274305926722,-0.0,0.0017856506165117025,0.3804577589035034,0.0,0.0013522440567612648,1.184148907661438,0.0,-0.01479092426598072
726.0,792.0,-0.4445,0.8818,9.5898,-0.038,0.0208,-0.1168,-1.9183832607665003,0.0,3.3636837005615234,-1.7755193710327148,-0.0,1.84788179397583,5.180467355042257,-0.0,0.2798030376434326,-1.6211231390582483,-0.0,-0.004767269361764193,0.38042131066322327,0.0,0.0034822297748178244,1.1842052936553955,0.0,-0.021106766536831856
726.0,792.0,-0.4445,0.8818,9.5898,-0.038,0.0208,-0.1168,-1.9183875523009242,0.0,3.337977886199951,-1.775463342666626,-0.0,1.9167547225952148,5.180430966406622,-0.0,0.2814917266368866,-1.6211636702166956,-0.0,-0.00045116362161934376,0.3804212808609009,0.0,-0.004273376893252134,1.1842131614685059,0.0,-0.005613037385046482
726.0,792.0,-0.4445,0.8818,9.5898,-0.038,0.0208,-0.1168,-1.9184233150877894,0.0,3.353743553161621,-1.7755188941955566,-0.0,1.8784232139587402,5.180519479304113,-0.0,0.29368358850479126,-1.6211193243609827,-0.0,-0.006006887182593346,0.3804737627506256,0.0,0.006156294606626034,1.1841812133789062,0.0,-0.002750373911112547
726.0,792.0,-0.4445,0.8818,9.5898,-0.038,0.0208,-0.1168,-1.918375154534811,0.0,3.4000015258789062,-1.77552330493927,-0.0,1.924933910369873,5.1804673848445795,-0.0,0.28067123889923096,-1.6211512724505823,-0.0,-0.011299093253910542,0.3804577589035034,0.0,0.0011821131920441985,1.1842131614685059,0.0,0.037873536348342896
726.0,792.0,-0.4445,0.8818,9.5898,-0.038,0.0208,-0.1168,-1.9184032879271449,0.0,3.347550630569458,-1.7754989862442017,-0.0,1.87110435962677,5.180495279818334,-0.0,0.28526464104652405,-1.6211274305926722,-0.0,0.0015373132191598415,0.3804417848587036,0.0,-0.0016917632892727852,1.184185266494751,0.0,0.025808440521359444
726.0,792.0,-0.4445,0.8818,9.5898,-0.038,0.0208,-0.1168,-1.918342729608053,0.0,3.3564164638519287,-1.77549147605896,-0.0,1.8793132305145264,5.1804469404514215,-0.0,0.27741074562072754,-1.621110741292135,-0.0,-0.005692165344953537,0.3803814649581909,0.0,0.008059358224272728,1.1842131614685059,0.0,-0.017941705882549286
726.0,792.0,-0.4445,0.8818,9.5898,-0.038,0.0208,-0.1168,-1.9183465443053187,0.0,3.3990015983581543,-1.7754909992218018,-0.0,1.8819488286972046,5.180463242321768,-0.0,0.2739737629890442,-1.6211274305926722,-0.0,-0.013400567695498466,0.38041314482688904,0.0,-0.00522819347679615,1.1842131614685059,0.0,-0.027711641043424606
726.0,792.0,-0.4445,0.8818,9.5898,-0.038,0.0208,-0.1168,-1.9183465443053187,0.0,3.358377695083618,-1.7754398584365845,-0.0,1.8470708131790161,5.180439191847601,-0.0,0.28288108110427856,-1.6211307684527796,-0.0,-0.0016221171244978905,0.3804577887058258,0.0,-0.002362190280109644,1.184177041053772,0.0,-0.0017960346303880215
726.0,792.0,-0.4445,0.8818,9.5898,-0.038,0.0208,-0.1168,-1.9183875523009242,0.0,3.3655216693878174,-1.775535225868225,-0.0,1.876783847808838,5.180507200747289,-0.0,0.2807210087776184,-1.6211345831500452,-0.0,-0.002436831360682845,0.3804577589035034,0.0,-0.001752443378791213,1.1842131614685059,0.0,0.012633314356207848
726.0,792.0,-0.4445,0.8818,9.5898,-0.038,0.0208,-0.1168,-1.9183508358397425,0.0,3.4011735916137695,-1.7755228281021118,-0.0,1.9026086330413818,5.180471497565069,-0.0,0.27583152055740356,-1.6211593786822718,-0.0,-0.0028788968920707703,0.38045772910118103,0.0,0.0034618398640304804,1.1842372417449951,0.0,0.014659713953733444
726.0,792.0,-0.4445,0.8818,9.5898,-0.038,0.0208,-0.1168,-1.9183632336058558,0.0,3.3840322494506836,-1.775455355644226,-0.0,1.8953793048858643,5.180475222855367,-0.0,0.27046626806259155,-1.621110741292135,-0.0,-0.0016559541691094637,0.38047778606414795,0.0,-0.004841647110879421,1.1842496395111084,0.0,-0.03523636609315872
726.0,792.0,-0.4445,0.8818,9.5898,-0.038,0.0208,-0.1168,-1.918342729608053,0.0,3.38722562789917,-1.775463342666626,-0.0,1.9008662700653076,5.180467355042257,-0.0,0.2677575349807739,-1.6211555639850062,-0.0,-0.019978756085038185,0.3804171681404114,0.0,-0.00021811120677739382,1.1842294931411743,0.0,0.02279321663081646
726.0,792.0,-0.4445,0.8818,9.5898,-0.038,0.0208,-0.1168,-1.9183632336058558,0.0,3.388831615447998,-1.7754836082458496,-0.0,1.903937578201294,5.1804793057735345,-0.0,0.26794201135635376,-1.6211469809161585,-0.0,-0.0032611717469990253,0.3804577589035034,0.0,0.003336487803608179,1.1842172145843506,0.0,0.014218583703041077
726.0,792.0,-0.4445,0.8818,9.5898,-0.038,0.0208,-0.1168,-1.918358942071432,0.0,3.3905580043792725,-1.775534749031067,-0.0,1.9127384424209595,5.180430936604299,-0.0,0.27643677592277527,-1.621155087147848,-0.0,-0.009308243170380592,0.38040122389793396,0.0,-0.004091586917638779,1.184233546257019,0.0,-0.04652082920074463
726.0,792.0,-0.4445,0.8818,9.5898,-0.038,0.0208,-0.1168,-1.9183875523009242,0.0,3.3921844959259033,-1.7754478454589844,-0.0,1.9092243909835815,5.18046327212409,-0.0,0.27490031719207764,-1.6211231390582483,-0.0,-0.010725722648203373,0.38042545318603516,0.0,-0.008196265436708927,1.1842131614685059,0.0,0.01988193206489086
726.0,792.0,-0.4445,0.8818,9.5898,-0.038,0.0208,-0.1168,-1.918358942071432,0.0,3.356806755065918,-1.7754716873168945,-0.0,1.8918612003326416,5.180483358889379,-0.0,0.27728450298309326,-1.6211555639850062,-0.0,-0.004522177390754223,0.38046184182167053,0.0,-0.013296384364366531,1.184197187423706,0.0,0.004130765795707703
726.0,792.0,-0.4445,0.8818,9.5898,-0.038,0.0208,-0.1168,-1.9183994732298792,0.0,3.3854751586914062,-1.7754638195037842,-0.0,1.9175934791564941,5.180439191847601,-0.0,0.2891627252101898,-1.6211593786822718,-0.0,-0.0076764714904129505,0.3804577589035034,0.0,0.005229396745562553,1.1841810941696167,0.0,-0.014769562520086765
726.0,792.0,-0.4445,0.8818,9.5898,-0.038,0.0208,-0.1168,-1.9183832607665003,0.0,3.3933815956115723,-1.77552330493927,-0.0,1.9228672981262207,5.180435049324789,-0.0,0.2745775878429413,-1.6211026350604456,-0.0,-0.0015130083775147796,0.3804212808609009,0.0,0.000796183361671865,1.1842093467712402,0.0,-0.027041874825954437
730.0,800.0,-0.4134,0.9027,9.6491,-0.0412,0.0195,-0.1239,-1.918330808679098,0.0,3.3339571952819824,-1.775463342666626,-0.0,1.871755599975586,5.180515336781301,-0.0,0.2784481644630432,-1.6210907141314905,-0.0,-0.01503690704703331,0.3804212808609009,0.0,-0.0055639599449932575,1.1842212677001953,0.0,0.006884381175041199
730.0,800.0,-0.4134,0.9027,9.6491,-0.0412,0.0195,-0.1239,-1.9183832607665003,0.0,3.340282678604126,-1.775415062904358,-0.0,1.8981646299362183,5.180455195694723,-0.0,0.27670812606811523,-1.6211193243609827,-0.0,-0.002034595003351569,0.3803814649581909,0.0,-0.0112916836515069,1.1841810941696167,0.0,0.02824672870337963
730.0,800.0,-0.4134,0.9027,9.6491,-0.0412,0.0195,-0.1239,-1.9183675251402796,0.0,3.3186697959899902,-1.7754836082458496,-0.0,1.9143410921096802,5.180471497565069,-0.0,0.2824956178665161,-1.6211345831500452,-0.0,-0.006809978745877743,0.38049009442329407,0.0,0.0002531078062020242,1.184177041053772,0.0,0.004502120893448591
730.0,800.0,-0.4134,0.9027,9.6491,-0.0412,0.0195,-0.1239,-1.918398996392721,0.0,3.3888630867004395,-1.7754716873168945,-0.0,1.8830316066741943,5.180487501412191,-0.0,0.2859475016593933,-1.6211593786822718,-0.0,-0.010582567192614079,0.3804899752140045,0.0,-0.007260420359671116,1.18422532081604,0.0,0.03065653145313263
730.0,800.0,-0.4134,0.9027,9.6491,-0.0412,0.0195,-0.1239,-1.9183794460692347,0.0,3.3671703338623047,-1.7754712104797363,-0.0,1.8893344402313232,5.18046327212409,-0.0,0.2790966033935547,-1.6211031118976038,-0.0,0.013829486444592476,0.38038957118988037,0.0,-0.005156303755939007,1.1842089891433716,0.0,0.005607789382338524
730.0,800.0,-0.4134,0.9027,9.6491,-0.0412,0.0195,-0.1239,-1.918375154534811,0.0,3.379202365875244,-1.7754433155059814,-0.0,1.895992636680603,5.180487501412191,-0.0,0.2760595977306366,-1.6211345831500452,-0.0,-0.001085035502910614,0.38036561012268066,0.0,0.001492073992267251,1.18422532081604,0.0,-0.0329061858355999
730.0,800.0,-0.4134,0.9027,9.6491,-0.0412,0.0195,-0.1239,-1.9183875523009242,0.0,3.3531479835510254,-1.7755035161972046,-0.0,1.8577861785888672,5.180499332934179,-0.0,0.27150893211364746,-1.6210950056659144,-0.0,-0.0012502468889579177,0.3804577589035034,0.0,-0.006087524350732565,1.1842173337936401,0.0,0.006703442893922329
730.0,800.0,-0.4134,0.9027,9.6491,-0.0412,0.0195,-0.1239,-1.9183875523009242,0.0,3.34376859664917,-1.7754439115524292,-0.0,1.9106556177139282,5.180467355042257,-0.0,0.28668713569641113,-1.6211755911456507,-0.0,-0.0028581751976162195,0.38043761253356934,0.0,0.010114889591932297,1.1842007637023926,0.0,-0.027132529765367508
730.0,800.0,-0.4134,0.9027,9.6491,-0.0412,0.0195,-0.1239,-1.9183794460692347,0.0,3.377255916595459,-1.7755194902420044,-0.0,1.9080402851104736,5.180495250016012,-0.0,0.28561240434646606,-1.621138874684469,-0.0,-0.014139372855424881,0.38042545318603516,0.0,0.007594922557473183,1.1841812133789062,0.0,-0.010916372761130333
730.0,800.0,-0.4134,0.9027,9.6491,-0.0412,0.0195,-0.1239,-1.9183384380736292,0.0,3.39432954788208,-1.775447964668274,-0.0,1.9053707122802734,5.180511253863134,-0.0,0.2811630070209503,-1.6211150328265589,-0.0,-0.00409855367615819,0.38044583797454834,0.0,-0.006903521716594696,1.1841810941696167,0.0,0.013905511237680912
730.0,800.0,-0.4134,0.9027,9.6491,-0.0412,0.0195,-0.1239,-1.9183832607665003,0.0,3.391376495361328,-1.7755035161972046,-0.0,1.908478021621704,5.180467355042257,-0.0,0.27651339769363403,-1.6211231390582483,-0.0,-0.005428279750049114,0.3804495334625244,0.0,-0.006470410153269768,1.1842372417449951,0.0,-0.010433523915708065
730.0,800.0,-0.4134,0.9027,9.6491,-0.0412,0.0195,-0.1239,-1.9183384380736292,0.0,3.360093116760254,-1.7754836082458496,-0.0,1.8562309741973877,5.1804469404514215,-0.0,0.2814716100692749,-1.6211593786822718,-0.0,-0.016821056604385376,0.3804176151752472,0.0,-0.01218243595212698,1.1842213869094849,0.0,-0.03245633840560913
730.0,800.0,-0.4134,0.9027,9.6491,-0.0412,0.0195,-0.1239,-1.9183465443053187,0.0,3.390730381011963,-1.7754558324813843,-0.0,1.8894286155700684,5.180407213955679,-0.0,0.2758151590824127,-1.6211193243609827,-0.0,-0.012071803212165833,0.3804335594177246,0.0,0.005909064318984747,1.184233546257019,0.0,0.01959437131881714
730.0,800.0,-0.4134,0.9027,9.6491,-0.0412,0.0195,-0.1239,-1.9183222256102503,0.0,3.317946195602417,-1.7754712104797363,-0.0,1.8960027694702148,5.1804469404514215,-0.0,0.2746071219444275,-1.6211593786822718,-0.0,0.0014232286484912038,0.3804052770137787,0.0,0.0043363021686673164,1.1842294931411743,0.0,-0.02336534671485424
730.0,800.0,-0.4134,0.9027,9.6491,-0.0412,0.0195,-0.1239,-1.918330808679098,0.0,3.3649048805236816,-1.7755074501037598,-0.0,1.9246554374694824,5.180495279818334,-0.0,0.28335657715797424,-1.6211431662188929,-0.0,-0.005283220671117306,0.3804212808609009,0.0,-0.010290393605828285,1.1842372417449951,0.0,0.012461199425160885
730.0,800.0,-0.4134,0.9027,9.6491,-0.0412,0.0195,-0.1239,-1.9183465443053187,0.0,3.3816373348236084,-1.7755154371261597,-0.0,1.8780243396759033,5.180459189205923,-0.0,0.2862253189086914,-1.621138874684469,-0.0,-0.0023948196321725845,0.3804417550563812,0.0,-0.006525896489620209,1.1842212677001953,0.0,0.006328887771815062
730.0,800.0,-0.4134,0.9027,9.6491,-0.0412,0.0195,-0.1239,-1.9183465443053187,0.0,3.3988699913024902,-1.7754989862442017,-0.0,1.8739700317382812,5.180479275971212,-0.0,0.2809186577796936,-1.6211631933795374,-0.0,-0.008775964379310608,0.38044580817222595,0.0,-0.0030075288377702236,1.1842172145843506,0.0,-0.008331308141350746
730.0,800.0,-0.4134,0.9027,9.6491,-0.0412,0.0195,-0.1239,-1.9183794460692347,0.0,3.376361846923828,-1.7754716873168945,-0.0,1.9031507968902588,5.180451053171911,-0.0,0.2691834270954132,-1.6211150328265589,-0.0,-0.008899981155991554,0.38042953610420227,0.0,-0.0022576828487217426,1.184233546257019,0.0,-0.003772641997784376
730.0,800.0,-0.4134,0.9027,9.6491,-0.0412,0.0195,-0.1239,-1.9183913669981898,0.0,3.3416998386383057,-1.7754756212234497,-0.0,1.889244794845581,5.180446970253744,-0.0,0.2747557759284973,-1.6211593786822718,-0.0,0.002180322539061308,0.38042542338371277,0.0,0.002175268717110157,1.18422532081604,0.0,0.035927921533584595
730.0,800.0,-0.4134,0.9027,9.6491,-0.0412,0.0195,-0.1239,-1.9183832607665003,0.0,3.3522024154663086,-1.7755228281021118,-0.0,1.9056298732757568,5.180435108929434,-0.0,0.283704549074173,-1.6211150328265589,-0.0,-0.011410580947995186,0.3804018497467041,0.0,-0.001592437271028757,1.1841888427734375,0.0,0.06637993454933167
730.0,800.0,-0.4134,0.9027,9.6491,-0.0412,0.0195,-0.1239,-1.9183713398375453,0.0,3.370716094970703,-1.7754672765731812,-0.0,1.868217945098877,5.180471527367391,-0.0,0.2717050611972809,-1.62109882036318,-0.0,0.010562683455646038,0.38040891289711,0.0,0.0020706020295619965,1.1841610670089722,0.0,0.009198058396577835
721.0,789.0,-0.4164,0.9093,9.5647,-0.0308,0.0212,-0.1139,-1.918358942071432,0.0,3.354384422302246,-1.7755035161972046,-0.0,1.9554349184036255,5.180431592255392,-0.0,0.2712551951408386,-1.6211274305926722,-0.0,0.0016144760884344578,0.3804696500301361,0.0,0.0023230810184031725,1.1842012405395508,0.0,-0.04886765405535698
721.0,789.0,-0.4164,0.9093,9.5647,-0.0308,0.0212,-0.1139,-1.9183551273741664,0.0,3.337240695953369,-1.7755029201507568,-0.0,1.8698976039886475,5.180475580483236,-0.0,0.27744045853614807,-1.621138874684469,-0.0,-0.008475134149193764,0.38041722774505615,0.0,-0.010831238701939583,1.1841610670089722,0.0,-0.0002318788319826126
721.0,789.0,-0.4164,0.9093,9.5647,-0.0308,0.0212,-0.1139,-1.9183632336058558,0.0,3.349271059036255,-1.775546669960022,-0.0,1.8922760486602783,5.180467355042257,-0.0,0.26838940382003784,-1.6210950056659144,-0.0,0.002549957949668169,0.38042953610420227,0.0,-0.001632491359487176,1.184185266494751,0.0,0.002934044227004051
721.0,789.0,-0.4164,0.9093,9.5647,-0.0308,0.0212,-0.1139,-1.918375154534811,0.0,3.3387107849121094,-1.7754478454589844,-0.0,1.9321234226226807,5.180487501412191,-0.0,0.28705382347106934,-1.621131722127096,-0.0,-0.009094118140637875,0.38040122389793396,0.0,-0.00101810647174716,1.1842213869094849,0.0,-0.042048897594213486
721.0,789.0,-0.4164,0.9093,9.5647,-0.0308,0.0212,-0.1139,-1.9183994732298792,0.0,3.3530335426330566,-1.7755273580551147,-0.0,1.9027655124664307,5.180483358889379,-0.0,0.2799427807331085,-1.6211674849139612,-0.0,-0.004935063421726227,0.38042953610420227,0.0,-0.007947125472128391,1.1842052936553955,0.0,-0.035461992025375366
721.0,789.0,-0.4164,0.9093,9.5647,-0.0308,0.0212,-0.1139,-1.9183632336058558,0.0,3.387848377227783,-1.7754716873168945,-0.0,1.9262001514434814,5.180439191847601,-0.0,0.2783481478691101,-1.621131722127096,-0.0,-0.008432718925178051,0.38043761253356934,0.0,-0.009822018444538116,1.1842294931411743,0.0,-0.0318482369184494
721.0,789.0,-0.4164,0.9093,9.5647,-0.0308,0.0212,-0.1139,-1.9183951816954554,0.0,3.3192694187164307,-1.7755035161972046,-0.0,1.9047725200653076,5.1805112836654565,-0.0,0.27525588870048523,-1.6211274305926722,-0.0,-0.003095442894846201,0.3804975152015686,0.0,0.009087765589356422,1.1842454671859741,0.0,0.017656169831752777
721.0,789.0,-0.4164,0.9093,9.5647,-0.0308,0.0212,-0.1139,-1.918342729608053,0.0,3.362548351287842,-1.7754796743392944,-0.0,1.867610216140747,5.180495279818334,-0.0,0.28175002336502075,-1.6211231390582483,-0.0,-0.004507449455559254,0.38041314482688904,0.0,0.005334836896508932,1.1841893196105957,0.0,0.006187103688716888
721.0,789.0,-0.4164,0.9093,9.5647,-0.0308,0.0212,-0.1139,-1.918358942071432,0.0,3.347865104675293,-1.7754751443862915,-0.0,1.8832659721374512,5.1805195091064355,-0.0,0.27764055132865906,-1.6211431662188929,-0.0,-0.005035129841417074,0.38044583797454834,0.0,0.004373864270746708,1.1841851472854614,0.0,-0.021404888480901718
721.0,789.0,-0.4164,0.9093,9.5647,-0.0308,0.0212,-0.1139,-1.9183713398375453,0.0,3.3768157958984375,-1.7754558324813843,-0.0,1.9154757261276245,5.180442857533254,-0.0,0.2809062600135803,-1.6211231390582483,-0.0,0.0027101824525743723,0.38042545318603516,0.0,-0.007749857846647501,1.1842131614685059,0.0,-0.004509872756898403
721.0,789.0,-0.4164,0.9093,9.5647,-0.0308,0.0212,-0.1139,-1.9183508358397425,0.0,3.3477623462677,-1.775463342666626,-0.0,1.8569166660308838,5.180419373303213,-0.0,0.27837619185447693,-1.6211231390582483,-0.0,-0.013640660792589188,0.3804335296154022,0.0,0.0047042532823979855,1.1841691732406616,0.0,-0.007869764231145382
721.0,789.0,-0.4164,0.9093,9.5647,-0.0308,0.0212,-0.1139,-1.918358942071432,0.0,3.3475985527038574,-1.7754472494125366,-0.0,1.9017319679260254,5.18046327212409,-0.0,0.275515079498291,-1.6211150328265589,-0.0,-0.008143278770148754,0.3804212808609009,0.0,-0.0020166514441370964,1.184269666671753,0.0,0.010675318539142609
721.0,789.0,-0.4164,0.9093,9.5647,-0.0308,0.0212,-0.1139,-1.9184071026244105,0.0,3.3673768043518066,-1.7755234241485596,-0.0,1.8779401779174805,5.180471497565069,-0.0,0.2706632912158966,-1.6210950056659144,-0.0,-0.004093347117304802,0.3804458677768707,0.0,0.003585930448025465,1.1841893196105957,0.0,-0.049716707319021225
721.0,789.0,-0.4164,0.9093,9.5647,-0.0308,0.0212,-0.1139,-1.9183551273741664,0.0,3.332688331604004,-1.7755074501037598,-0.0,1.9224860668182373,5.180475193053045,-0.0,0.2858680784702301,-1.6211431662188929,-0.0,0.002293696627020836,0.38042548298835754,0.0,0.004949111491441727,1.1842455863952637,0.0,0.004013664089143276
721.0,789.0,-0.4164,0.9093,9.5647,-0.0308,0.0212,-0.1139,-1.918387075463766,0.0,3.3818130493164062,-1.7754875421524048,-0.0,1.9159972667694092,5.180471527367391,-0.0,0.2775842845439911,-1.6211231390582483,-0.0,-0.006671743933111429,0.38042131066322327,0.0,0.0071490006521344185,1.1842052936553955,0.0,0.010747664608061314
721.0,789.0,-0.4164,0.9093,9.5647,-0.0308,0.0212,-0.1139,-1.9183675251402796,0.0,3.3311586380004883,-1.7754989862442017,-0.0,1.8899215459823608,5.180439191847601,-0.0,0.27961671352386475,-1.621138874684469,-0.0,-0.007641762029379606,0.38041719794273376,0.0,-0.005406482145190239,1.1842455863952637,0.0,0.017676161602139473
721.0,789.0,-0.4164,0.9093,9.5647,-0.0308,0.0212,-0.1139,-1.9183632336058558,0.0,3.436340808868408,-1.7755154371261597,-0.0,1.9025213718414307,5.180426883488455,-0.0,0.276828795671463,-1.6211593786822718,-0.0,0.00046792032662779093,0.38043761253356934,0.0,-0.01191036682575941,1.1842173337936401,0.0,0.0047287242487072945
721.0,789.0,-0.4164,0.9093,9.5647,-0.0308,0.0212,-0.1139,-1.9183632336058558,0.0,3.3527188301086426,-1.7755029201507568,-0.0,1.8795278072357178,5.1804551658924005,-0.0,0.2719845175743103,-1.6211555639850062,-0.0,-0.022432880476117134,0.38045361638069153,0.0,0.00978744775056839,1.1842131614685059,0.0,-0.0077671511098742485
721.0,789.0,-0.4164,0.9093,9.5647,-0.0308,0.0212,-0.1139,-1.9184032879271449,0.0,3.3563804626464844,-1.7755154371261597,-0.0,1.8844467401504517,5.180503505259313,-0.0,0.27916914224624634,-1.6211150328265589,-0.0,0.0004431172274053097,0.3804094195365906,0.0,0.00541753089055419,1.184197187423706,0.0,-0.004260685294866562
721.0,789.0,-0.4164,0.9093,9.5647,-0.0308,0.0212,-0.1139,-1.9183632336058558,0.0,3.3684592247009277,-1.7755069732666016,-0.0,1.8663394451141357,5.180446970253744,-0.0,0.272020161151886,-1.6211069265948694,-0.0,-0.0011870528105646372,0.3804577589035034,0.0,-0.00626426562666893,1.1842008829116821,0.0,-0.04067122936248779
721.0,789.0,-0.4164,0.9093,9.5647,-0.0308,0.0212,-0.1139,-1.918370863000387,0.0,3.3864831924438477,-1.7754398584365845,-0.0,1.8858139514923096,5.180467355042257,-0.0,0.2822716236114502,-1.6211307684527796,-0.0,-0.0055940886959433556,0.38042953610420227,0.0,-0.0025527440011501312,1.1842254400253296,0.0,-0.012882303446531296
733.0,776.0,-0.4421,0.9027,9.6096,-0.038,0.0228,-0.1217,-1.918375154534811,0.0,3.3419575691223145,-1.7754672765731812,-0.0,1.908773422241211,5.1804993627365015,-0.0,0.27859020233154297,-1.6211274305926722,-0.0,-0.006537372246384621,0.3804376423358917,0.0,-0.008086606860160828,1.1842172145843506,0.0,0.016397573053836823
733.0,776.0,-0.4421,0.9027,9.6096,-0.038,0.0228,-0.1217,-1.9183794460692347,0.0,3.374774932861328,-1.7754393815994263,-0.0,1.8923723697662354,5.180475193053045,-0.0,0.2839682102203369,-1.6211069265948694,-0.0,-0.002218745881691575,0.38037776947021484,0.0,0.01705949380993843,1.1842294931411743,0.0,-0.012022741138935089
733.0,776.0,-0.4421,0.9027,9.6096,-0.038,0.0228,-0.1217,-1.9183632336058558,0.0,3.359185218811035,-1.7755590677261353,-0.0,1.8964987993240356,5.18046327212409,-0.0,0.2759251296520233,-1.62109882036318,-0.0,-0.0076433466747403145,0.38045358657836914,0.0,-0.009563412517309189,1.1842454671859741,0.0,0.027454417198896408
733.0,776.0,-0.4421,0.9027,9.6096,-0.038,0.0228,-0.1217,-1.9183994732298792,0.0,3.3426566123962402,-1.7755228281021118,-0.0,1.9084546566009521,5.180483358889379,-0.0,0.2764602303504944,-1.6211345831500452,-0.0,-0.006123165134340525,0.3804011344909668,0.0,-0.0027391337789595127,1.1842294931411743,0.0,-0.002446809085085988
733.0,776.0,-0.4421,0.9027,9.6096,-0.038,0.0228,-0.1217,-1.9183632336058558,0.0,3.364818811416626,-1.7754950523376465,-0.0,1.9203377962112427,5.1804993627365015,-0.0,0.29094457626342773,-1.621138874684469,-0.0,-0.0027722276281565428,0.38037770986557007,0.0,-0.003596147522330284,1.1842294931411743,0.0,-0.016560308635234833
733.0,776.0,-0.4421,0.9027,9.6096,-0.038,0.0228,-0.1217,-1.918375154534811,0.0,3.3903541564941406,-1.7755074501037598,-0.0,1.884772539138794,5.180479275971212,-0.0,0.27822667360305786,-1.6211193243609827,-0.0,-0.0006960302125662565,0.38040944933891296,0.0,0.002743760123848915,1.184197187423706,0.0,-0.013166286051273346
733.0,776.0,-0.4421,0.9027,9.6096,-0.038,0.0228,-0.1217,-1.9183632336058558,0.0,3.35813307762146,-1.7755029201507568,-0.0,1.9026983976364136,5.1804993627365015,-0.0,0.27434197068214417,-1.6211636702166956,-0.0,-0.009312848560512066,0.38039785623550415,0.0,0.0017064299900084734,1.1842008829116821,0.0,-0.04137438163161278
733.0,776.0,-0.4421,0.9027,9.6096,-0.038,0.0228,-0.1217,-1.9183551273741664,0.0,3.3605308532714844,-1.7755115032196045,-0.0,1.8714607954025269,5.1804875312145136,-0.0,0.27698010206222534,-1.6211264769183558,-0.0,-0.007417319808155298,0.3804655373096466,0.0,0.0031782875303179026,1.1842454671859741,0.0,-0.025079136714339256
733.0,776.0,-0.4421,0.9027,9.6096,-0.038,0.0228,-0.1217,-1.9184352360167445,0.0,3.3510637283325195,-1.7755193710327148,-0.0,1.8874584436416626,5.180459248810568,-0.0,0.27476322650909424,-1.6211231390582483,-0.0,-0.010010063648223877,0.3803771734237671,0.0,0.006169509142637253,1.1842777729034424,0.0,0.030103612691164017
733.0,776.0,-0.4421,0.9027,9.6096,-0.038,0.0228,-0.1217,-1.9183994732298792,0.0,3.351613998413086,-1.7754836082458496,-0.0,1.9127345085144043,5.180471527367391,-0.0,0.2811911106109619,-1.6211193243609827,-0.0,-0.0004262498114258051,0.38038137555122375,0.0,0.004258844535797834,1.1842012405395508,0.0,0.026964910328388214
733.0,776.0,-0.4421,0.9027,9.6096,-0.038,0.0228,-0.1217,-1.9183713398375453,0.0,3.3567333221435547,-1.7754229307174683,-0.0,1.919777274131775,5.180507558375158,-0.0,0.2716095447540283,-1.6211150328265589,-0.0,-0.015035690739750862,0.3804498314857483,0.0,0.0032148794271051884,1.1842131614685059,0.0,0.05221813544631004
733.0,776.0,-0.4421,0.9027,9.6096,-0.038,0.0228,-0.1217,-1.9184156856932582,0.0,3.3799877166748047,-1.7754672765731812,-0.0,1.9273550510406494,5.180442887335577,-0.0,0.2852542996406555,-1.6211593786822718,-0.0,-0.008732691407203674,0.3804417848587036,0.0,0.00045288409455679357,1.184197187423706,0.0,-0.0029201307334005833
733.0,776.0,-0.4421,0.9027,9.6096,-0.038,0.0228,-0.1217,-1.918370863000387,0.0,3.410339593887329,-1.7755348682403564,-0.0,1.9435765743255615,5.180487561016836,-0.0,0.28167957067489624,-1.6211469809161585,-0.0,0.0006981702172197402,0.38044583797454834,0.0,-0.006310966797173023,1.1842577457427979,0.0,-0.0312747098505497
733.0,776.0,-0.4421,0.9027,9.6096,-0.038,0.0228,-0.1217,-1.9183875523009242,0.0,3.3452277183532715,-1.7754909992218018,-0.0,1.88765287399292,5.180446910649099,-0.0,0.2843402922153473,-1.6211193243609827,-0.0,-0.017269302159547806,0.3804212808609009,0.0,-0.0019118086202070117,1.1842172145843506,0.0,-0.004936446435749531
733.0,776.0,-0.4421,0.9027,9.6096,-0.038,0.0228,-0.1217,-1.9183670483031214,0.0,3.3655924797058105,-1.7754875421524048,-0.0,1.913346529006958,5.180459248810568,-0.0,0.2734626829624176,-1.6211345831500452,-0.0,-0.003127350937575102,0.3804655075073242,0.0,0.006438633892685175,1.1842131614685059,0.0,-0.006681942380964756
733.0,776.0,-0.4421,0.9027,9.6096,-0.038,0.0228,-0.1217,-1.918398996392721,0.0,3.367865562438965,-1.7755193710327148,-0.0,1.9201040267944336,5.180503505259313,-0.0,0.2833784818649292,-1.6211264769183558,-0.0,-0.01595296338200569,0.38043349981307983,0.0,0.010337586514651775,1.184233546257019,0.0,0.013677699491381645
733.0,776.0,-0.4421,0.9027,9.6096,-0.038,0.0228,-0.1217,-1.9183508358397425,0.0,3.3876333236694336,-1.7755274772644043,-0.0,1.9259066581726074,5.180495637446203,-0.0,0.28634586930274963,-1.6211913267718714,-3.3441699542891e-07,-0.01704835705459118,0.3804859220981598,0.0,-0.017343390733003616,1.1842049360275269,0.0,0.039630990475416183
733.0,776.0,-0.4421,0.9027,9.6096,-0.038,0.0228,-0.1217,-1.9183551273741664,0.0,3.3654251098632812,-1.7754950523376465,-0.0,1.916344404220581,5.180442887335577,-0.0,0.2693425714969635,-1.621155087147848,-1.4256719138572294e-09,-0.006334658712148666,0.3804577887058258,0.0,0.008603034541010857,1.1842049360275269,0.0,0.027388259768486023
733.0,776.0,-0.4421,0.9027,9.6096,-0.038,0.0228,-0.1217,-1.918358942071432,0.0,3.4022326469421387,-1.7754989862442017,-0.0,1.8641690015792847,5.1804673848445795,-0.0,0.27201682329177856,-1.6211989561664026,-6.077862605563533e-12,-0.0005181815940886736,0.3804577887058258,0.0,0.0015490498626604676,1.184253215789795,0.0,-0.07847456634044647
733.0,776.0,-0.4421,0.9027,9.6096,-0.038,0.0228,-0.1217,-1.918375154534811,0.0,3.359065294265747,-1.7754433155059814,-0.0,1.8903191089630127,5.180471527367391,-0.0,0.27919086813926697,-1.6211751143084925,-1.691795528572604e-15,-0.005548103246837854,0.380473792552948,0.0,-0.010618000291287899,1.1842772960662842,0.0013444473734125495,0.04776247218251228
718.0,771.0,-0.2764,2.2893,8.7583,0.0053,0.0315,-0.1515,-1.918330808679098,0.0,3.381913661956787,-1.7755188941955566,2.8546555341790736e-08,1.890851616859436,5.180443274765768,-0.0,0.2761164903640747,-1.6211989561664026,-7.212388765738699e-18,0.0008077365346252918,0.38039717078208923,0.0,0.001377832842990756,1.1842772960662842,0.0014235525159165263,-0.07196929305791855
718.0,771.0,-0.2764,2.2893,8.7583,0.0053,0.0315,-0.1515,-1.9183794460692347,0.0,3.302776336669922,-1.775400161743164,5.138279125099787e-12,1.9026381969451904,5.1804275689418695,-0.0,0.28305187821388245,-1.6211469809161585,-3.07475409083406e-20,-0.007182300090789795,0.3804655373096466,0.0,0.007407559081912041,1.1842970848083496,0.0010658222017809749,0.034902192652225494
718.0,771.0,-0.2764,2.2893,8.7583,0.0053,0.0315,-0.1515,-1.9183222256102503,0.0,3.382495641708374,-1.775446891784668,0.0020802828948944807,1.9118469953536987,5.180451023369589,-0.0,0.28138434886932373,-1.6212032477008265,-1.310815961196905e-22,-0.011946736834943295,0.3804095387458801,0.0,-0.005026794970035553,1.1842530965805054,0.0007638449314981699,0.035811617970466614
718.0,771.0,-0.2764,2.2893,8.7583,0.0053,0.0315,-0.1515,-1.918342729608053,0.0,3.3541789054870605,-1.7754120826721191,0.0038461838848888874,1.8692355155944824,5.180439191847601,-0.0,0.2897169589996338,-1.621178929005758,-0.00020631209190469235,-0.009773563593626022,0.38042545318603516,0.0,-0.004214904271066189,1.1842491626739502,0.0005361521034501493,0.016380582004785538
718.0,771.0,-0.2764,2.2893,8.7583,0.0053,0.0315,-0.1515,-1.9183341465392054,0.0,3.396031379699707,-1.775343894958496,0.00731181213632226,1.9263358116149902,5.180439191847601,-0.0,0.2786254584789276,-1.6212309042560022,-0.00029154412914067507,-0.0012080438900738955,0.38039717078208923,0.0,-0.001922735245898366,1.1842974424362183,0.00044729269575327635,-0.017292246222496033
718.0,771.0,-0.2764,2.2893,8.7583,0.0053,0.0315,-0.1515,-1.918370863000387,0.0,3.333982467651367,-1.7752759456634521,0.011928997002542019,1.9199501276016235,5.18045141079978,-0.0,0.27891722321510315,-1.6211989561664026,-0.00031052035046741366,0.00492662051692605,0.38041314482688904,0.0,0.0053720735013484955,1.1842772960662842,0.0003419122367631644,0.03235973045229912
718.0,771.0,-0.2764,2.2893,8.7583,0.0053,0.0315,-0.1515,-1.9183670483031214,0.0,3.361618757247925,-1.7751960754394531,0.01722331903874874,1.913210153579712,5.180471557169714,-0.0,0.27774691581726074,-1.6212108770953577,-0.0002852097968570888,0.004663528874516487,0.3804212510585785,0.0,-0.003937680274248123,1.1842814683914185,0.0002799662761390209,-0.00045330729335546494
718.0,771.0,-0.2764,2.2893,8.7583,0.0053,0.0315,-0.1515,-1.918427129785055,-1.0213600631914233e-07,3.391507148742676,-1.775128960609436,0.021475207060575485,1.9276683330535889,5.180395173817434,-6.408269541680056e-07,0.2764630913734436,-1.6211708227740687,-0.00029759775497950613,-0.0011360828066244721,0.38039377331733704,0.0,-0.01069701462984085,1.1842290163040161,0.0002489786420483142,0.037236232310533524
718.0,771.0,-0.2764,2.2893,8.7583,0.0053,0.0315,-0.1515,-1.9183985195555628,-0.001497540040872991,3.3420417308807373,-1.775036096572876,0.025249550119042397,1.8978018760681152,5.180447268276968,-1.7837654964214522e-10,0.27464571595191956,-1.621178929005758,-0.0002657902950886637,-0.0056650214828550816,0.380389928817749,0.0,-0.003898346796631813,1.1842572689056396,0.00012872055231127888,-0.009774464182555676
718.0,771.0,-0.2764,2.2893,8.7583,0.0053,0.0315,-0.1515,-1.9184309444823207,-0.0015143650816753507,3.3887243270874023,-1.7749212980270386,0.02393735758960247,1.918074607849121,5.180431592255392,-7.604472065068923e-13,0.2794817388057709,-1.6211827437030237,-0.0002475137880537659,-0.0036161376629024744,0.38044583797454834,0.0,0.006046914961189032,1.184244990348816,0.00011701328912749887,0.002151413355022669
718.0,771.0,-0.2764,2.2893,8.7583,0.0053,0.0315,-0.1515,-1.91843905071401,-0.0012820637784898281,3.3812179565429688,-1.7747530937194824,0.021640444174408913,1.9041101932525635,5.180387812643804,-0.0006597547326236963,0.2850543260574341,-1.6211865584002894,-0.00023158927797339857,-0.011234326288104057,0.38037776947021484,0.0,0.0028328378684818745,1.1842650175094604,0.00014373908925335854,0.04777359217405319
718.0,771.0,-0.2764,2.2893,8.7583,0.0053,0.0315,-0.1515,-1.918467184106344,-0.0009151467238552868,3.3378286361694336,-1.7747377157211304,0.020680805668234825,1.9617319107055664,5.1803955910499475,-0.001167645095847547,0.2798352837562561,-1.6211913267718714,-0.00019051478011533618,0.009391272440552711,0.3804053068161011,0.0,-0.0016560957301408052,1.184269666671753,7.293585076695308e-05,0.007630973123013973
718.0,771.0,-0.2764,2.2893,8.7583,0.0053,0.0315,-0.1515,-1.9184066257872523,-0.0003348828759044409,3.416431427001953,-1.7746338844299316,0.018926767632365227,1.938401460647583,5.180439847498693,-0.0010495631722733378,0.2793046236038208,-1.6211627165423792,-0.00017953909991774708,-0.02137313224375248,0.3803532123565674,0.0,-0.0039600408636033535,1.1842409372329712,6.789117469452322e-05,-0.011961787939071655
718.0,771.0,-0.2764,2.2893,8.7583,0.0053,0.0315,-0.1515,-1.918427129785055,-0.00010758838470792398,3.401667594909668,-1.7745057344436646,0.019969601184129715,1.9510257244110107,5.1804034290607355,-0.0005835517658852041,0.28135597705841064,-1.6211708227740687,-0.00016539706848561764,-0.015408388338983059,0.38039377331733704,0.0,-0.0034347022883594036,1.1842613220214844,5.062092256480355e-08,0.03586577624082565
718.0,771.0,-0.2764,2.2893,8.7583,0.0053,0.0315,-0.1515,-1.918370863000387,-1.1643484185697162e-06,3.3416385650634766,-1.7743983268737793,0.020019037649035454,1.959455132484436,5.180383282690801,-0.00046315640793181956,0.26600131392478943,-1.6211794058429163,-0.00015714515757281333,0.00808565504848957,0.38044583797454834,0.0,-0.003991091623902321,1.1842049360275269,9.111586485310852e-12,0.037159234285354614
718.0,771.0,-0.2764,2.2893,8.7583,0.0053,0.0315,-0.1515,-1.918387075463766,-2.0957860447090582e-10,3.383063554763794,-1.7743706703186035,0.021100351586937904,1.912855863571167,5.18039150813178,-0.00020824371313210577,0.2866728901863098,-1.6211264769183558,-8.93577525857836e-05,-0.008887137286365032,0.3804417848587036,0.0,-0.0050311218947172165,1.1842535734176636,-0.0013275567907840014,0.02696683071553707
718.0,771.0,-0.2764,2.2893,8.7583,0.0053,0.0315,-0.1515,-1.9184071026244105,-3.7723408516940685e-14,3.3891372680664062,-1.7742702960968018,0.020224155858159065,1.9361798763275146,5.180439966707983,-8.163302118191496e-05,0.28465956449508667,-1.6211345831500452,-6.364231376210228e-05,-0.00765751488506794,0.38042953610420227,0.0,0.004313720855861902,1.1842254400253296,-0.0024111478123813868,-0.014389840885996819
718.0,771.0,-0.2764,2.2893,8.7583,0.0053,0.0315,-0.1515,-1.9183627567686976,-9.109761411796661e-20,3.3467578887939453,-1.7741506099700928,0.017817120999097824,1.9220610857009888,5.180407541781225,-6.3871375459712e-05,0.2808800935745239,-1.621138874684469,-5.7465378631604835e-05,-0.014780882745981216,0.38042953610420227,0.0,-0.01124975923448801,1.1841331720352173,-0.00419230991974473,0.00515406671911478
718.0,771.0,-0.2764,2.2893,8.7583,0.0053,0.0315,-0.1515,-1.9184595547118128,-1.6397246998705847e-23,3.360647201538086,-1.7740626335144043,0.017120694741606712,1.9634101390838623,5.180407511978903,-0.00010985483095282689,0.28126972913742065,-1.6211345831500452,-2.7130548915010877e-05,-0.0004702585283666849,0.3804621696472168,0.0,-0.0017707468941807747,1.1841049194335938,-0.006648039445281029,-0.028092332184314728
718.0,771.0,-0.2764,2.2893,8.7583,0.0053,0.0315,-0.1515,-1.918427129785055,-2.9514462322796346e-27,3.3587775230407715,-1.774086594581604,0.015648791566491127,1.9309628009796143,5.180375474482336,-0.0001841273478930816,0.2726527154445648,-1.621138874684469,-2.5479252144577913e-05,-0.018930556252598763,0.38040944933891296,0.0,-0.01108738873153925,1.1841094493865967,-0.008807872422039509,-0.015259564854204655
718.0,771.0,-0.2764,2.2893,8.7583,0.0053,0.0315,-0.1515,-1.918410440484518,-5.312499076450865e-31,3.3616597652435303,-1.7739907503128052,0.013768235221505165,1.9099624156951904,5.1803471622760675,-0.0005080617847852409,0.2945678234100342,-1.6211150328265589,-4.191542188891617e-07,-0.017361164093017578,0.38039785623550415,0.0,0.0008085634326562285,1.1840380430221558,-0.010881110094487667,-0.022963620722293854
723.0,782.0,-0.2584,0.6939,9.7041,-0.0195,0.0075,-0.1475,-1.9184514484801234,-9.56231019643463e-35,3.3966307640075684,-1.77394700050354,0.01050733495503664,1.936527967453003,5.180391925364294,-0.0016753937816247344,0.2649395763874054,-1.6211431662188929,-1.786920389434954e-09,-0.007527199573814869,0.38041722774505615,0.0,0.00788863655179739,1.1839978694915771,-0.013138798996806145,-0.06181053817272186
723.0,782.0,-0.2584,0.6939,9.7041,-0.0195,0.0075,-0.1475,-1.9184471569456996,-0.0012507614446803927,3.367642641067505,-1.7738919258117676,0.0069395797327160835,1.9366388320922852,5.180303442269125,-0.002681074198335409,0.2753676772117615,-1.6211274305926722,-4.973959070141143e-13,-0.007634280249476433,0.3804655075073242,0.0,-0.0012534278212115169,1.1838897466659546,-0.015106432139873505,-0.029152175411581993
723.0,782.0,-0.2584,0.6939,9.7041,-0.0195,0.0075,-0.1475,-1.9184590778746546,-0.0011412558378651738,3.352660655975342,-1.7739073038101196,0.005849839653819799,1.9126007556915283,5.180319416313925,-0.0031429859809577465,0.27141138911247253,-1.6211274305926722,-2.1204768914747556e-15,-0.004337625578045845,0.3803858458995819,0.0,-0.0013087978586554527,1.1838135719299316,-0.015220973640680313,0.015925908461213112
723.0,782.0,-0.2584,0.6939,9.7041,-0.0195,0.0075,-0.1475,-1.9184471569456996,-0.0008700379403308034,3.396085500717163,-1.7738596200942993,0.004703144542872906,1.8419780731201172,5.180279660015859,-0.004277237690985203,0.2846335470676422,-1.6211674849139612,-9.039925215166406e-18,-0.004740308038890362,0.3804417848587036,0.0,0.002639288082718849,1.1837458610534668,-0.016095362603664398,-0.04638976603746414
723.0,782.0,-0.2584,0.6939,9.7041,-0.0195,0.0075,-0.1475,-1.9184428654112757,-0.0006130909896455705,3.338822841644287,-1.7738155126571655,0.004305399488657713,1.8615014553070068,5.180291998177328,-0.005759913008660078,0.27649208903312683,-1.6211031118976038,-3.8538625851006857e-20,-0.01108473539352417,0.3804941475391388,0.0,0.005961058661341667,1.1836861371994019,-0.01735224574804306,-0.06099971756339073
723.0,782.0,-0.2584,0.6939,9.7041,-0.0195,0.0075,-0.1475,-1.9184309444823207,-0.0005131346406415105,3.3758230209350586,-1.7738075256347656,0.004713770002126694,1.8951621055603027,5.180271494179525,-0.00800243392586708,0.2723640203475952,-1.6211555639850062,-1.6429619956989945e-22,-0.004739964846521616,0.38038140535354614,0.0,-0.0016940321074798703,1.183593988418579,-0.017581934109330177,-0.015087801963090897
723.0,782.0,-0.2584,0.6939,9.7041,-0.0195,0.0075,-0.1475,-1.9184228382506312,-0.0001473491865908727,3.3517417907714844,-1.7738159894943237,0.0062425751239061356,1.8745689392089844,5.180191981583395,-0.012621362693607807,0.2763718366622925,-1.6211355368243616,-4.5732448369103056e-26,-0.003406230825930834,0.38046589493751526,0.0,-0.010826552286744118,1.1835025548934937,-0.0172941405326128,-0.042173564434051514
723.0,782.0,-0.2584,0.6939,9.7041,-0.0195,0.0075,-0.1475,-1.9184428654112757,-0.0001264976162929088,3.3777384757995605,-1.7737642526626587,0.00764358788728714,1.9022743701934814,5.180095988302984,-0.01188572309911251,0.26534315943717957,-1.6211593786822718,-1.9496459660930418e-28,0.0005491070915013552,0.3804417550563812,0.0,0.013791974633932114,1.1834509372711182,-0.016998637467622757,-0.02427922748029232
723.0,782.0,-0.2584,0.6939,9.7041,-0.0195,0.0075,-0.1475,-1.9184428654112757,-0.00015973200788721442,3.3746490478515625,-1.773675799369812,0.008162574842572212,1.9177016019821167,5.180047619133749,-0.008241260424256325,0.2726033926010132,-1.621131722127096,-8.311646899579524e-31,-0.006642875261604786,0.3804735541343689,0.0,-0.00023595936363562942,1.1834152936935425,-0.01567695662379265,-0.02387096919119358
723.0,782.0,-0.2584,0.6939,9.7041,-0.0195,0.0075,-0.1475,-1.9184028110899867,-0.0001481049257563427,3.3989081382751465,-1.773675799369812,0.008664799854159355,1.9331756830215454,5.180064129620352,-0.004285838920623064,0.2767401337623596,-1.6210950056659144,-3.5433851918637485e-33,-0.01790032535791397,0.38042134046554565,0.0,0.004506395198404789,1.1833791732788086,-0.014107300899922848,-0.026486489921808243
723.0,782.0,-0.2584,0.6939,9.7041,-0.0195,0.0075,-0.1475,-1.9184910259642542,-0.0001694962993497029,3.358445167541504,-1.7735682725906372,0.00879926048219204,1.9118831157684326,5.18007646778182,-0.0011977182002738118,0.2681933641433716,-1.6211150328265589,-9.86314394617148e-37,0.007781809661537409,0.38040536642074585,0.0,0.005479676183313131,1.183279275894165,-0.01164211891591549,0.010235919617116451
723.0,782.0,-0.2584,0.6939,9.7041,-0.0195,0.0075,-0.1475,-1.9184633694090785,-0.0001453259465051815,3.368673324584961,-1.7736326456069946,0.008670407347381115,1.8835275173187256,5.180072414665975,-0.0006640975479967892,0.2824389934539795,-1.6210830847369593,-4.204813243468584e-39,-0.003985751420259476,0.3804577887058258,0.0,0.011297620832920074,1.1832194328308105,-0.00995301827788353,-0.019481658935546875
723.0,782.0,-0.2584,0.6939,9.7041,-0.0195,0.0075,-0.1475,-1.9185148678221644,-0.0001812735863495618,3.3966798782348633,-1.7735646963119507,0.008236492052674294,1.952440857887268,5.180060136109152,-0.00024861926794983447,0.27475878596305847,-1.6210549513446253,-1.792540995564306e-41,-0.008880267851054668,0.3805057406425476,0.0,-0.004239034838974476,1.1832157373428345,-0.008713227696716785,-0.04853229224681854
723.0,782.0,-0.2584,0.6939,9.7041,-0.0195,0.0075,-0.1475,-1.91843905071401,-0.00075458426726982,3.3737058639526367,-1.773564100265503,0.00736006535589695,1.9048361778259277,5.180024015694418,-0.0003569596156012267,0.27484071254730225,-1.62109882036318,-7.707141553786494e-44,0.0040028514340519905,0.38041719794273376,0.0,0.0020932061597704887,1.1831592321395874,-0.00713021494448185,0.021823324263095856
723.0,782.0,-0.2584,0.6939,9.7041,-0.0195,0.0075,-0.1475,-1.918478628198141,-0.001114073907956481,3.3456454277038574,-1.773472785949707,0.00790723692625761,1.9176596403121948,5.180028128414907,-0.0008572188089601696,0.27829697728157043,-1.6210630575763147,-0.0,-0.012769957073032856,0.38042131066322327,0.0,-0.01470676064491272,1.1831153631210327,-0.005429347511380911,-0.04447624087333679
723.0,782.0,-0.2584,0.6939,9.7041,-0.0195,0.0075,-0.1475,-1.9184705219664515,-0.0011968722101300955,3.344085931777954,-1.7734763622283936,0.007259256672114134,1.9445018768310547,5.180044549494543,-0.00211268849670887,0.27251553535461426,-1.6210911909686487,-0.0,-0.008865593932569027,0.38041722774505615,0.0,-0.0007121238159015775,1.1831034421920776,-0.0028745951130986214,-0.014530378393828869
723.0,782.0,-0.2584,0.6939,9.7041,-0.0195,0.0075,-0.1475,-1.918511529962057,-0.0009918729774653912,3.3868350982666016,-1.7733848094940186,0.008438687771558762,1.9152206182479858,5.180012213974752,-0.0024247874971479177,0.28601303696632385,-1.6210592428790491,-0.0,-0.006617062725126743,0.38045361638069153,0.0,-0.020578846335411072,1.1831235885620117,-0.001917350571602583,-0.019619878381490707
723.0,782.0,-0.2584,0.6939,9.7041,-0.0195,0.0075,-0.1475,-1.9184752903380335,-0.0007779058068990707,3.3523364067077637,-1.7734603881835938,0.00956189539283514,1.9128305912017822,5.180000561266699,-0.0025730931665748358,0.27800533175468445,-1.621115509663717,-0.0,-0.01011221669614315,0.3804696202278137,0.0,0.0007096080807968974,1.1830956935882568,-0.0009770195465534925,-0.023664362728595734
723.0,782.0,-0.2584,0.6939,9.7041,-0.0195,0.0075,-0.1475,-1.9185029468932093,-0.0006396261742338538,3.360347270965576,-1.7733209133148193,0.011151053011417389,1.971677303314209,5.17996038773612,-0.0022402359172701836,0.2723844051361084,-1.621087376271383,-0.0,-0.007528939284384251,0.38047361373901367,0.0,-0.006338988896459341,1.183135747909546,-0.0006807922036387026,0.004966141656041145
723.0,782.0,-0.2584,0.6939,9.7041,-0.0195,0.0075,-0.1475,-1.918466707269186,-0.000543096917681396,3.3403217792510986,-1.773289442062378,0.012756606563925743,1.900184154510498,5.1800004718597314,-0.002070354763418436,0.2741052806377411,-1.6210673491107386,-0.0,0.010807343758642673,0.3804212510585785,0.0,-0.006030100863426924,1.1831153631210327,-0.00041805050568655133,0.017425566911697388
723.0,782.0,-0.2584,0.6939,9.7041,-0.0195,0.0075,-0.1475,-1.9184829197325648,-0.00044286123011261225,3.3654227256774902,-1.773233413696289,0.015802942216396332,1.943748116493225,5.179964560061254,-0.0019471686100587249,0.2707047164440155,-1.6210792700396937,-0.0,0.005076149478554726,0.3804417848587036,0.0,0.0027712834998965263,1.183119535446167,-0.00023362640058621764,-0.0165494903922081
714.0,781.0,-0.4845,0.917,9.9308,-0.0568,0.0706,-0.1156,-1.9184867344298304,-0.0002911814081016928,3.3315658569335938,-1.7731777429580688,0.017359813675284386,1.94464111328125,5.180016982346334,-0.0016416336875408888,0.2756474018096924,-1.6210711638080042,0.00013574070180766284,-0.002537989988923073,0.3804498314857483,0.0,-0.012490964494645596,1.1831034421920776,-0.00019961418001912534,-0.01244797371327877
714.0,781.0,-0.4845,0.917,9.9308,-0.0568,0.0706,-0.1156,-1.9184748135008753,-0.0003582497010938823,3.326447010040283,-1.7730695009231567,0.018522925674915314,1.9355632066726685,5.17991657832221,-0.0015478190034627914,0.27777037024497986,-1.6210954825030726,0.0001304698525927961,-0.000889692862983793,0.3805176019668579,0.0,-0.007474277168512344,1.1831837892532349,0.00020434908219613135,-0.033149391412734985
714.0,781.0,-0.4845,0.917,9.9308,-0.0568,0.0706,-0.1156,-1.9184948406615199,-0.0009269639267586172,3.3419198989868164,-1.773041844367981,0.020165082067251205,1.9272598028182983,5.1799727258975885,-0.001438602339476347,0.2781490981578827,-1.6211112181292933,0.00012332854385022074,-0.00016224337741732597,0.3804655373096466,0.0,-0.00290688150562346,1.1830912828445435,0.0002393053291598335,-0.0371275469660759
714.0,781.0,-0.4845,0.917,9.9308,-0.0568,0.0706,-0.1156,-1.9185229740538539,-0.0014226785860955715,3.3529052734375,-1.7728908061981201,0.021505512297153473,1.922316551208496,5.179936605482855,-0.0009771256009116769,0.27498486638069153,-1.621075455342428,0.00011395870387787,-0.00875231996178627,0.3804737627506256,0.0,-0.016210351139307022,1.1831194162368774,0.0002496461383998394,0.04145082086324692
714.0,781.0,-0.4845,0.917,9.9308,-0.0568,0.0706,-0.1156,-1.9184948406615199,-0.001302641467191279,3.3469555377960205,-1.7727391719818115,0.022369561716914177,1.9813750982284546,5.179924326926031,-0.0008167281630448997,0.27151477336883545,-1.6210792700396937,0.00010846482473425567,-0.0019597243517637253,0.38042953610420227,0.0,0.007136637344956398,1.1831071376800537,0.00022471319243777543,-0.05967037379741669
714.0,781.0,-0.4845,0.917,9.9308,-0.0568,0.0706,-0.1156,-1.9185110531248988,-0.0013025043299421668,3.3343348503112793,-1.7727025747299194,0.02364226058125496,1.9711382389068604,5.179952996760168,-0.0007309825159609318,0.28220608830451965,-1.621075455342428,0.00010347637726226822,-0.008982491679489613,0.38046184182167053,0.0,0.0031276806257665157,1.183127522468567,0.0002043067361228168,0.0007656224770471454
714.0,781.0,-0.4845,0.917,9.9308,-0.0568,0.0706,-0.1156,-1.9184948406615199,-0.0010971403680741787,3.367851972579956,-1.7725504636764526,0.024321334436535835,2.01364803314209,5.179896461754598,-0.000676260853651911,0.2793848514556885,-1.621087376271383,9.892658999888226e-05,-0.0020084967836737633,0.3804696202278137,0.0,0.001469677546992898,1.1831796169281006,0.00018729863222688437,-0.028124211356043816
714.0,781.0,-0.4845,0.917,9.9308,-0.0568,0.0706,-0.1156,-1.9185143909850062,-0.000887276662979275,3.325136423110962,-1.7724593877792358,0.025302277877926826,1.9351123571395874,5.179936605482855,-0.00052538892487064,0.284721314907074,-1.6210511366473597,0.00011306966916890815,0.015129311010241508,0.3804417848587036,0.0,0.001370826386846602,1.1831517219543457,0.00017290454707108438,0.017160922288894653
714.0,781.0,-0.4845,0.917,9.9308,-0.0568,0.0706,-0.1156,-1.9185024700560511,-0.0006927744834683836,3.315756320953369,-1.7723160982131958,0.027630310505628586,1.923790454864502,5.179948913842001,-0.0004624723515007645,0.26804304122924805,-1.6210430304156702,0.00012359335960354656,0.011740794405341148,0.38038963079452515,0.0,0.005631854757666588,1.183139443397522,0.00024596459115855396,0.0033918193075805902
714.0,781.0,-0.4845,0.917,9.9308,-0.0568,0.0706,-0.1156,-1.9185267887511195,-0.0005681829643435776,3.36199951171875,-1.7721799612045288,0.029684720560908318,1.9956276416778564,5.1799529669578455,-0.00039686387754045427,0.271345853805542,-1.6210630575763147,0.00012002116272924468,0.019254306331276894,0.38043761253356934,0.0,-0.00043369969353079796,1.1831395626068115,0.0002249572571599856,0.04507818818092346
714.0,781.0,-0.4845,0.917,9.9308,-0.0568,0.0706,-0.1156,-1.9184862575926722,-0.0005472180200740695,3.3118832111358643,-1.7720404863357544,0.03154920041561127,2.008086919784546,5.179912435799398,-0.0003459867148194462,0.2630903720855713,-1.6210792700396937,0.00011562054714886472,0.011265333741903305,0.38039785623550415,0.0,-0.005302810575813055,1.1831636428833008,0.00024374127679038793,-0.07195934653282166
714.0,781.0,-0.4845,0.917,9.9308,-0.0568,0.0706,-0.1156,-1.9185143909850062,-0.00047716364497318864,3.4085326194763184,-1.7719242572784424,0.036332327872514725,1.9624427556991577,5.179904299765386,-0.0003573029243852943,0.2821384072303772,-1.6210630575763147,0.00012537374277599156,0.017295261844992638,0.38041752576828003,0.0,-0.000700011383742094,1.1831353902816772,0.00022496175370179117,-0.05815736949443817
714.0,781.0,-0.4845,0.917,9.9308,-0.0568,0.0706,-0.1156,-1.918501993218893,-0.00032978272065520287,3.33888578414917,-1.7717772722244263,0.03799819201231003,1.9651399850845337,5.179940688401022,-0.0003212746523786336,0.2744705379009247,-1.6210716406451624,0.00012309194426052272,0.008142082951962948,0.3804696202278137,0.0,0.006865519564598799,1.1831637620925903,0.00023818107729312032,-0.02978544682264328
714.0,781.0,-0.4845,0.917,9.9308,-0.0568,0.0706,-0.1156,-1.9185310802855433,-0.0004122836980968714,3.3385472297668457,-1.7714701890945435,0.044541072100400925,1.999891757965088,5.179928767472067,-0.0002786363766063005,0.29330718517303467,-1.6210716406451624,0.00011709469254128635,0.004341226536780596,0.3804212808609009,0.0,0.0004065311513841152,1.183151364326477,0.0002478080859873444,-0.07281970977783203
714.0,781.0,-0.4845,0.917,9.9308,-0.0568,0.0706,-0.1156,-1.9185792408385218,-0.0008896203944459558,3.3489065170288086,-1.771254062652588,0.04806903377175331,2.026127338409424,5.1799246845538995,-0.0002559878630563617,0.2804136872291565,-1.6210430304156702,0.00011340608034515753,0.017510952427983284,0.38040947914123535,0.0,0.000568784074857831,1.1831914186477661,0.00036917487159371376,-0.04159865528345108
714.0,781.0,-0.4845,0.917,9.9308,-0.0568,0.0706,-0.1156,-1.9185387096800746,-0.001525182044133544,3.3290693759918213,-1.7711145877838135,0.05193062871694565,1.994415283203125,5.179952639132299,-0.0002367452543694526,0.2699340879917145,-1.621047321950094,0.00010994266631314531,0.023438485339283943,0.3804655373096466,0.0,-0.0045676641166210175,1.183151364326477,0.0003425804025027901,-0.04102408140897751
714.0,781.0,-0.4845,0.917,9.9308,-0.0568,0.0706,-0.1156,-1.9185711346068324,-0.0019814136903733015,3.3145899772644043,-1.7708872556686401,0.05593585595488548,2.0054094791412354,5.179960745363989,-0.0002201936877099797,0.27149638533592224,-1.6210835615741175,0.00010668458708096296,0.023070627823472023,0.3804941177368164,0.0,-0.0063054501079022884,1.1831915378570557,0.00035466410918161273,-0.07153461128473282
714.0,781.0,-0.4845,0.917,9.9308,-0.0568,0.0706,-0.1156,-1.9185830555357875,-0.0021366022992879152,3.309001922607422,-1.770655870437622,0.05996999517083168,2.036538600921631,5.179964947491445,-0.00020580545242410153,0.28899985551834106,-1.6210630575763147,0.0001036139510688372,0.02102009207010269,0.3804413080215454,0.0,-0.010501259937882423,1.1831955909729004,0.0003636720357462764,-0.11179958283901215
714.0,781.0,-0.4845,0.917,9.9308,-0.0568,0.0706,-0.1156,-1.9185544453062953,-0.0024256950709968805,3.357512950897217,-1.770280361175537,0.06419768929481506,2.0723764896392822,5.179940688401022,-0.00018743466353043914,0.2774529457092285,-1.6210511366473597,9.93258654489182e-05,0.02115585282444954,0.3804212808609009,0.0,-0.0034053814597427845,1.1831592321395874,0.00031629850855097175,-0.045887745916843414
714.0,781.0,-0.4845,0.917,9.9308,-0.0568,0.0706,-0.1156,-1.9185744724669398,-0.0021839537657797337,3.3213515281677246,-1.7700254917144775,0.06710264831781387,2.0231375694274902,5.179960357933798,-0.00017690693493932486,0.27910852432250977,-1.621047321950094,9.665889956522733e-05,0.020287273451685905,0.38036954402923584,0.0,-0.01034834049642086,1.1831715106964111,0.00029075099155306816,-0.04068288579583168
714.0,781.0,-0.4845,0.917,9.9308,-0.0568,0.0706,-0.1156,-1.9185706577696742,-0.00204153498634696,3.3133115768432617,-1.7697418928146362,0.0702642872929573,2.0036399364471436,5.179956692248144,-0.000167499587405473,0.28065764904022217,-1.6210511366473597,9.413153020432219e-05,0.010533718392252922,0.3804614245891571,0.0,-0.003201739862561226,1.1831673383712769,0.0002690232649911195,-0.09084925055503845
676.0,751.0,-0.3308,0.3625,9.5264,-0.0965,0.1118,-0.1362,-1.9186068973936976,-0.0018568143714219332,3.330317497253418,-1.7694792747497559,0.07252311706542969,2.053760051727295,5.179896074324407,-0.0001590422325534746,0.2848120331764221,-1.6210554281817835,9.173295984510332e-05,0.01849554106593132,0.3805176317691803,0.0,0.0013126166304573417,1.1831713914871216,0.00025031634140759706,-0.08904613554477692
676.0,751.0,-0.3308,0.3625,9.5264,-0.0965,0.1118,-0.1362,-1.9186107120909632,-0.0012208853149786592,3.3095953464508057,-1.769020438194275,0.07585854828357697,2.033625602722168,5.179912435799398,-0.000147844577440992,0.2848414182662964,-1.6210716406451624,8.835582411848009e-05,0.026836205273866653,0.3804655373096466,0.0,0.013567198067903519,1.1831271648406982,0.00022667396115139127,-0.07607854157686234
676.0,751.0,-0.3308,0.3625,9.5264,-0.0965,0.1118,-0.1362,-1.9186107120909632,-0.0009501284221187234,3.311659336090088,-1.7686964273452759,0.08005248010158539,2.0864906311035156,5.179964917689123,-0.00015113488188944757,0.2810595631599426,-1.6210716406451624,8.623924077255651e-05,0.00712184701114893,0.3805098533630371,0.0,-0.004523968789726496,1.1831591129302979,0.0001865959056885913,-0.038621433079242706
676.0,751.0,-0.3308,0.3625,9.5264,-0.0965,0.1118,-0.1362,-1.9186269245543421,-0.0009224602254107594,3.3503546714782715,-1.7684016227722168,0.08531053364276886,2.0443966388702393,5.179920601635732,-0.0001547106949146837,0.27465248107910156,-1.6210954825030726,8.42216977616772e-05,0.022074691951274872,0.38049009442329407,0.0,-0.002644381020218134,1.1831592321395874,0.0001761559979058802,-0.0567723847925663
676.0,751.0,-0.3308,0.3625,9.5264,-0.0965,0.1118,-0.1362,-1.918615003625387,-0.0007662813877686858,3.3753862380981445,-1.7680546045303345,0.09053559601306915,2.0412404537200928,5.17986826875762,-0.0001477204350521788,0.2754426896572113,-1.621047321950094,8.229642116930336e-05,0.01638161577284336,0.3804737627506256,0.0,0.013173230923712254,1.1831915378570557,0.00016682661953382194,-0.0784158855676651
676.0,751.0,-0.3308,0.3625,9.5264,-0.0965,0.1118,-0.1362,-1.9186345539488734,-0.001232900540344417,3.338132381439209,-1.7676630020141602,0.0963851660490036,2.0665602684020996,5.179924773960867,-0.001549416221678257,0.2731946110725403,-1.6211074034320276,8.045717549975961e-05,-0.0013973414897918701,0.38045734167099,0.0,-0.0043039177544415,1.1831632852554321,0.00015843549044802785,-0.09087695181369781
676.0,751.0,-0.3308,0.3625,9.5264,-0.0965,0.1118,-0.1362,-1.9186793766417445,-0.0029246376361697912,3.329338788986206,-1.767040729522705,0.10417736321687698,2.124221086502075,5.17984031417922,-0.003839476965367794,0.2823144793510437,-1.621035401021139,3.3921108411050227e-07,0.018928106874227524,0.38045328855514526,0.0,0.004889600910246372,1.1831796169281006,0.00014732089766766876,-0.03753448277711868
676.0,751.0,-0.3308,0.3625,9.5264,-0.0965,0.1118,-0.1362,-1.9187551937498988,-0.004265922121703625,3.3030388355255127,-1.7666095495224,0.10881959646940231,2.0872738361358643,5.179849016457357,-0.00517590157687664,0.2631308138370514,-1.6210554281817835,1.4461101205398563e-09,0.018196266144514084,0.3804455101490021,0.0,-0.0023667782079428434,1.1831955909729004,8.496981172356755e-05,-0.09208013117313385
676.0,751.0,-0.3308,0.3625,9.5264,-0.0965,0.1118,-0.1362,-1.918706556359762,-0.0057649267837405205,3.337719678878784,-1.7661961317062378,0.11428600549697876,2.0938122272491455,5.179840761214056,-0.006729066837579012,0.28017228841781616,-1.6210592428790491,6.164993862634027e-12,0.01812853291630745,0.3804655373096466,0.0,0.01010990422219038,1.1831473112106323,2.7414374926593155e-05,-0.05523386597633362
676.0,751.0,-0.3308,0.3625,9.5264,-0.0965,0.1118,-0.1362,-1.9187590084471644,-0.0064551145769655704,3.3088107109069824,-1.7657644748687744,0.11951302736997604,2.05419921875,5.179820763855734,-0.008571842685341835,0.2784888744354248,-1.6210392157184046,6.657450285274535e-05,0.016119595617055893,0.3804655373096466,0.0,-0.003829361405223608,1.1831436157226562,4.054480129411786e-08,-0.0842432975769043
676.0,751.0,-0.3308,0.3625,9.5264,-0.0965,0.1118,-0.1362,-1.9187590084471644,-0.0073327901773154736,3.31526517868042,-1.7652345895767212,0.12233518809080124,2.13480544090271,5.179768997221746,-0.010266007855534554,0.27505433559417725,-1.6210716406451624,6.516254507005215e-05,0.012585481628775597,0.3804335296154022,0.0,0.005048046819865704,1.1831352710723877,7.297920948112768e-12,-0.12493276596069336
676.0,751.0,-0.3308,0.3625,9.5264,-0.0965,0.1118,-0.1362,-1.9188066921629847,-0.008597631007432938,3.293520927429199,-1.7644996643066406,0.12458763271570206,2.090994119644165,5.179680901556768,-0.010676375590264797,0.2721923887729645,-1.6210477987872522,7.492804434150457e-05,0.022329390048980713,0.380449503660202,0.0,-0.009680305607616901,1.1832038164138794,1.7623620617840414e-17,-0.12055744230747223
676.0,751.0,-0.3308,0.3625,9.5264,-0.0965,0.1118,-0.1362,-1.9188748798766078,-0.008313716389238834,3.2694954872131348,-1.7639447450637817,0.127126544713974,2.1343655586242676,5.179665314942159,-0.010346094146370888,0.26047301292419434,-1.6210516134845179,8.194456313503906e-05,0.028687190264463425,0.38047778606414795,0.0,0.011452313512563705,1.1831796169281006,3.172189585423628e-21,-0.15252545475959778
676.0,751.0,-0.3308,0.3625,9.5264,-0.0965,0.1118,-0.1362,-1.9188829861082972,-0.008049414493143559,3.3212780952453613,-1.7634148597717285,0.12725241482257843,2.0952744483947754,5.179613309889593,-0.009364437311887741,0.2752751111984253,-1.6210477987872522,8.282074850285426e-05,0.03626582771539688,0.38045328855514526,0.0,-0.006645879242569208,1.1831878423690796,-0.0005657923757098615,-0.1577451378107071
676.0,751.0,-0.3308,0.3625,9.5264,-0.0965,0.1118,-0.1362,-1.918922563592428,-0.006663072854280472,3.331744432449341,-1.7629315853118896,0.13105015456676483,2.143345594406128,5.17952926734046,-0.008206882514059544,0.26669198274612427,-1.6209991613971155,9.073813271243125e-05,0.02931807190179825,0.38047361373901367,0.0,0.004758927971124649,1.1831395626068115,-0.0004523354582488537,-0.13056978583335876
676.0,751.0,-0.3308,0.3625,9.5264,-0.0965,0.1118,-0.1362,-1.918950696984762,-0.00568967591971159,3.3071908950805664,-1.7621420621871948,0.13633137941360474,2.0933589935302734,5.179497706681051,-0.008361093699932098,0.26744160056114197,-1.6210477987872522,8.88274735189043e-05,0.02886059507727623,0.3804892897605896,0.0,0.0025252527557313442,1.1831715106964111,-0.0004166525905020535,-0.18161419034004211
676.0,751.0,-0.3308,0.3625,9.5264,-0.0965,0.1118,-0.1362,-1.919018884698385,-0.006699352990835905,3.285047769546509,-1.7616156339645386,0.14123846590518951,2.1383869647979736,5.179449784546652,-0.009150699712336063,0.26019230484962463,-1.6210358778582972,8.668894588481635e-05,0.039470598101615906,0.3804655373096466,0.0,0.0038540801033377647,1.1831436157226562,-0.0003612034488469362,-0.1877356320619583
676.0,751.0,-0.3308,0.3625,9.5264,-0.0965,0.1118,-0.1362,-1.9190989933409632,-0.008356375619769096,3.316725254058838,-1.7610290050506592,0.14624129235744476,2.159022092819214,5.179425704270162,-0.010127690620720387,0.27023908495903015,-1.621023956929342,8.467234147246927e-05,0.039284851402044296,0.3804655373096466,0.0,0.004267232026904821,1.1831715106964111,-0.0003185760579071939,-0.1724501997232437
676.0,751.0,-0.3308,0.3625,9.5264,-0.0965,0.1118,-0.1362,-1.9190660915770472,-0.010416793636977673,3.231309652328491,-1.760457992553711,0.1509578973054886,2.15751576423645,5.179353523045339,-0.01120082475244999,0.25750279426574707,-1.6210435072528284,0.00021061212464701384,0.036765314638614655,0.3804454505443573,0.0,-0.002020800020545721,1.183111310005188,-0.00028495030710473657,-0.15475177764892578
676.0,751.0,-0.3308,0.3625,9.5264,-0.0965,0.1118,-0.1362,-1.9191109142699183,-0.01231212355196476,3.2811973094940186,-1.7598360776901245,0.15498065948486328,2.1605117321014404,5.179309922247686,-0.011393347755074501,0.2611514925956726,-1.6210358778582972,0.00019310727657284588,0.0464937686920166,0.3804696202278137,0.0,-0.006120182573795319,1.183135747909546,-0.0002577461418695748,-0.18144184350967407
676.0,751.0,-0.3308,0.3625,9.5264,-0.0965,0.1118,-0.1362,-1.9191867313780726,-0.013824287801980972,3.221597194671631,-1.7589099407196045,0.15181386470794678,2.180345296859741,5.179225998907842,-0.01230430044233799,0.2649214267730713,-1.6210435072528284,0.00020513909112196416,0.026073694229125977,0.3804577589035034,0.0,-0.007013201713562012,1.1831194162368774,-0.0002990758221130818,-0.21901479363441467
526.0,723.0,-0.9272,0.5109,9.6766,-0.1069,0.1387,-0.1526,-1.919218202630514,-0.014174534939229488,3.284586191177368,-1.7583354711532593,0.15330959856510162,2.186826229095459,5.1792310056980035,-0.01219762209802866,0.2618420422077179,-1.6210153738604944,0.00022148787684272975,0.05057103559374809,0.3803774118423462,0.0,-0.0037516963202506304,1.1831276416778564,-0.0003080796741414815,-0.24000805616378784
526.0,723.0,-0.9272,0.5109,9.6766,-0.1069,0.1387,-0.1526,-1.9193226299681605,-0.013583741150796413,3.2485713958740234,-1.7576850652694702,0.1547185331583023,2.2194085121154785,5.1791543243225,-0.010923041962087154,0.2623465359210968,-1.621063534413473,0.00020788933034054935,0.0462024062871933,0.38041314482688904,0.0,0.007269467227160931,1.183159589767456,-0.001139613101258874,-0.2511143684387207
526.0,723.0,-0.9272,0.5109,9.6766,-0.1069,0.1387,-0.1526,-1.9193507633604945,-0.012911553494632244,3.261475086212158,-1.7571147680282593,0.16036805510520935,2.200566291809082,5.1790866432483575,-0.010733344592154026,0.2590060234069824,-1.6209877173053187,0.00022263337450567633,0.054883070290088654,0.3804495334625244,0.0,-0.006615757942199707,1.1831517219543457,-0.0012763974955305457,-0.20501022040843964
526.0,723.0,-0.9272,0.5109,9.6766,-0.1069,0.1387,-0.1526,-1.9194184742369593,-0.012414858676493168,3.2713489532470703,-1.756496787071228,0.16475464403629303,2.2309186458587646,5.179026800185003,-0.011648477986454964,0.260530024766922,-1.6210477987872522,0.0003006526385433972,0.0574643611907959,0.38045361638069153,0.0,0.009618697687983513,1.1831715106964111,-0.0011776152532547712,-0.275177538394928
