ramyac6/ROB537/final_project/csv/bad/bad_33.csv
tof_0,tof_1,accelx,accely,accelz,gyrox,gyroy,gyroz,shoulder_lift_joint_position,shoulder_lift_joint_velocity,shoulder_lift_joint_effort,elbow_joint_position,elbow_joint_velocity,elbow_joint_effort,wrist_1_joint_position,wrist_1_joint_velocity,wrist_1_joint_effort,wrist_2_joint_position,wrist_2_joint_velocity,wrist_2_joint_effort,wrist_3_joint_position,wrist_3_joint_velocity,wrist_3_joint_effort,shoulder_pan_joint_position,shoulder_pan_joint_velocity,shoulder_pan_joint_effort
206.0,238.0,4.2903,-2.4281,7.9143,-0.0316,0.0283,-0.126,-1.6230083904662074,0.0,2.4121506214141846,-1.5995564460754395,-0.0,2.20180606842041,4.2612902361103515,0.0,0.28120940923690796,-1.3202860991107386,-0.0,-0.025286119431257248,0.8987652063369751,-0.0,-0.0093462485820055,1.1964502334594727,0.0,0.0073652565479278564
206.0,238.0,4.2903,-2.4281,7.9143,-0.0316,0.0283,-0.126,-1.623045106927389,0.0,2.435666561126709,-1.5995564460754395,-0.0,2.17773699760437,4.261277838344238,0.0,0.27310794591903687,-1.3203380743609827,-0.0,-0.045088015496730804,0.8988256454467773,-0.0,0.0018178396858274937,1.196485996246338,0.0,-0.022461311891674995
206.0,238.0,4.2903,-2.4281,7.9143,-0.0316,0.0283,-0.126,-1.6230131588377894,0.0,2.387315273284912,-1.5995043516159058,-0.0,2.1821014881134033,4.261301680202148,0.0,0.2779180407524109,-1.320306126271383,-0.0,-0.031713951379060745,0.898760974407196,-0.0,-0.00033393222838640213,1.196446180343628,0.0,-0.04028727114200592
206.0,238.0,4.2903,-2.4281,7.9143,-0.0316,0.0283,-0.126,-1.6230532131590785,0.0,2.5042195320129395,-1.5995162725448608,-0.0,2.166057586669922,4.261261149043701,0.0,0.28894737362861633,-1.3203304449664515,-0.0,-0.024330757558345795,0.8987691402435303,-0.0,0.00012733414769172668,1.1964941024780273,0.0,-0.07152017951011658
206.0,238.0,4.2903,-2.4281,7.9143,-0.0316,0.0283,-0.126,-1.6230207882323207,0.0,2.4025957584381104,-1.5995718240737915,-0.0,2.138472080230713,4.261333628291748,0.0,0.2886783480644226,-1.3202937285052698,-0.0,-0.02125971019268036,0.898760974407196,-0.0,-0.0039039473049342632,1.1964941024780273,0.0,-0.052738990634679794
206.0,238.0,4.2903,-2.4281,7.9143,-0.0316,0.0283,-0.126,-1.6230408153929652,0.0,2.4091432094573975,-1.599548578262329,-0.0,2.182804584503174,4.26125351964917,0.0,0.2919641435146332,-1.3202698866473597,-0.0,-0.03138171136379242,0.8987650871276855,-0.0,-0.007459329441189766,1.1964819431304932,0.0,0.028559144586324692
206.0,238.0,4.2903,-2.4281,7.9143,-0.0316,0.0283,-0.126,-1.6230608425536097,0.0,2.402876138687134,-1.5995604991912842,-0.0,2.2169723510742188,4.261261149043701,0.0,0.2886981666088104,-1.3202818075763147,-0.0,-0.021219203248620033,0.8987851738929749,-0.0,-0.0019938675686717033,1.1964502334594727,0.0,0.0007365653291344643
200.0,246.0,4.3005,-2.4688,7.9101,-0.0377,0.0237,-0.1254,-1.6230246029295863,0.0,2.455838918685913,-1.5996240377426147,1.0044405411580026e-11,2.2191383838653564,4.261249228114746,0.0,0.2804388403892517,-1.320294205342428,-0.0,-0.032410141080617905,0.8987770676612854,-0.0,-0.005133525468409061,1.1964540481567383,0.0,0.04147913306951523
200.0,246.0,4.3005,-2.4688,7.9101,-0.0377,0.0237,-0.1254,-1.6230246029295863,0.0,2.422168731689453,-1.5995758771896362,3.254260103199795e-19,2.224478006362915,4.261329336757324,0.0,0.28162717819213867,-1.320282284413473,-0.0,-0.03155829384922981,0.8988178372383118,-0.0,-0.012926572933793068,1.1964421272277832,0.0,-0.008208772167563438
200.0,246.0,4.3005,-2.4688,7.9101,-0.0377,0.0237,-0.1254,-1.6230126820006312,0.0,2.4162445068359375,-1.5995525121688843,7.858656003638876e-25,2.189072608947754,4.261309786433838,0.0,0.28522059321403503,-1.320294205342428,-0.0,-0.024281514808535576,0.8988133072853088,-0.0,-0.01538008637726307,1.1964939832687378,0.0,-0.024303387850522995
200.0,246.0,4.3005,-2.4688,7.9101,-0.0377,0.0237,-0.1254,-1.623045106927389,0.0,2.410055637359619,-1.5995525121688843,1.8977733752217636e-30,2.1985421180725098,4.261277838344238,0.0,0.2943476140499115,-1.320294205342428,-0.0,-0.02793017588555813,0.8988178372383118,-0.0,0.0016899802722036839,1.1964380741119385,0.0,-0.004969848319888115
200.0,246.0,4.3005,-2.4688,7.9101,-0.0377,0.0237,-0.1254,-1.6230770550169886,0.0,2.44584059715271,-1.5995683670043945,6.148545094763673e-38,2.1854348182678223,4.261249704951904,0.0,0.27836114168167114,-1.3202899138080042,-0.0,-0.01997888833284378,0.8987772464752197,-0.0,-0.0003273088950663805,1.1964380741119385,0.0,-0.0093082869425416
200.0,246.0,4.3005,-2.4688,7.9101,-0.0377,0.0237,-0.1254,-1.6230327091612757,0.0,2.4084415435791016,-1.599560022354126,1.485376372184306e-43,2.2016654014587402,4.261282129878662,0.0,0.2972361445426941,-1.320306126271383,-0.0,-0.034840378910303116,0.8987929821014404,-0.0,0.010365166701376438,1.196458101272583,0.0,-0.006607036106288433
200.0,246.0,4.3005,-2.4688,7.9101,-0.0377,0.0237,-0.1254,-1.6230045757689417,0.0,2.4157798290252686,-1.5995564460754395,-0.0,2.1884775161743164,4.261285944575928,0.0,0.2833068370819092,-1.320306126271383,-0.0,-0.02617751806974411,0.8988340497016907,-0.0,-0.01452589314430952,1.196498155593872,0.0,-0.03854526951909065
200.0,246.0,4.3005,-2.4688,7.9101,-0.0377,0.0237,-0.1254,-1.6230246029295863,0.0,2.3814940452575684,-1.5995122194290161,-0.0,2.185368061065674,4.261289282436035,0.0,0.29591837525367737,-1.3202865759478968,-0.0,-0.02996649779379368,0.8987690806388855,-0.0,-0.012614203616976738,1.1964941024780273,0.0,0.03128749504685402
200.0,246.0,4.3005,-2.4688,7.9101,-0.0377,0.0237,-0.1254,-1.6230246029295863,0.0,2.4535326957702637,-1.5995604991912842,-0.0,2.202700614929199,4.261269255275391,0.0,0.29463306069374084,-1.320338551198141,-0.0,-0.022829964756965637,0.8988010883331299,-0.0,-0.01152078341692686,1.1964821815490723,0.0,0.009662746451795101
200.0,246.0,4.3005,-2.4688,7.9101,-0.0377,0.0237,-0.1254,-1.623045106927389,0.0,2.4177589416503906,-1.5995961427688599,-0.0,2.1870851516723633,4.261253042812012,0.0,0.28279414772987366,-1.3203261534320276,-0.0,-0.03934725373983383,0.898797333240509,-0.0,-0.00670306570827961,1.1964821815490723,0.0,0.019109664484858513
200.0,246.0,4.3005,-2.4688,7.9101,-0.0377,0.0237,-0.1254,-1.6230126820006312,0.0,2.451296329498291,-1.5995718240737915,-0.0,2.231536388397217,4.261305494899414,0.0,0.2826952338218689,-1.3203380743609827,-0.0,-0.01886804588139057,0.8987687230110168,-0.0,-0.010139222256839275,1.196458101272583,0.0,-0.02487778104841709
200.0,246.0,4.3005,-2.4688,7.9101,-0.0377,0.0237,-0.1254,-1.623045106927389,0.0,2.4067201614379883,-1.599608302116394,-0.0,2.1707122325897217,4.261274023646973,0.0,0.2845669090747833,-1.3203142325030726,-0.0,-0.021284345537424088,0.898692786693573,-0.0,-0.008460203185677528,1.1964342594146729,0.0,-0.014410181902348995
200.0,246.0,4.3005,-2.4688,7.9101,-0.0377,0.0237,-0.1254,-1.623016973535055,0.0,2.413902997970581,-1.5995724201202393,-0.0,2.1882715225219727,4.261297388667725,0.0,0.26810508966445923,-1.3202741781817835,-0.0,-0.027522828429937363,0.8987930417060852,-0.0,-0.0041363779455423355,1.1964702606201172,0.0,-0.03617967665195465
200.0,246.0,4.3005,-2.4688,7.9101,-0.0377,0.0237,-0.1254,-1.6230126820006312,0.0,2.4401936531066895,-1.5995644330978394,-0.0,2.164524555206299,4.261265440578125,0.0,0.2893456220626831,-1.3202460447894495,-0.0,-0.024924378842115402,0.8987770676612854,-0.0,-0.005260783713310957,1.196486234664917,0.0,0.015583855099976063
205.0,248.0,4.2114,-2.5125,8.0076,-0.042,0.0235,-0.1203,-1.6230126820006312,0.0,2.403693437576294,-1.5995484590530396,-0.0,2.226746082305908,4.261269732112549,0.0,0.29462704062461853,-1.3202741781817835,-0.0,-0.019831866025924683,0.8987526297569275,-0.0,-0.010331027209758759,1.196458101272583,0.0,-0.04205397889018059
205.0,248.0,4.2114,-2.5125,8.0076,-0.042,0.0235,-0.1203,-1.6230126820006312,0.0,2.4094960689544678,-1.5994963645935059,-0.0,2.199310302734375,4.261274023646973,0.0,0.29112303256988525,-1.3202980200396937,-0.0,-0.03128666430711746,0.8987129926681519,-0.0,0.002372270217165351,1.1964261531829834,0.0,-0.08208358287811279
205.0,248.0,4.2114,-2.5125,8.0076,-0.042,0.0235,-0.1203,-1.623073240319723,0.0,2.452171802520752,-1.5995200872421265,-0.0,2.2739574909210205,4.2612292009541015,0.0,0.2872016429901123,-1.3203099409686487,-0.0,-0.016304614022374153,0.8988133072853088,-0.0,-0.0068263402208685875,1.1964781284332275,0.0,-0.009388761594891548
205.0,248.0,4.2114,-2.5125,8.0076,-0.042,0.0235,-0.1203,-1.6230365238585414,0.0,2.3844287395477295,-1.5995724201202393,-0.0,2.172762870788574,4.261301680202148,0.0,0.28105422854423523,-1.320306126271383,-0.0,-0.027981262654066086,0.8987170457839966,-0.0,-0.004643905907869339,1.1964781284332275,0.0,0.012637609615921974
205.0,248.0,4.2114,-2.5125,8.0076,-0.042,0.0235,-0.1203,-1.6230246029295863,0.0,2.3999009132385254,-1.5995724201202393,-0.0,2.173025608062744,4.261282129878662,0.0,0.2824021279811859,-1.320322338734762,-0.0,-0.019694160670042038,0.8987691402435303,-0.0,-0.008580438792705536,1.1964502334594727,0.0,-0.020727558061480522
205.0,248.0,4.2114,-2.5125,8.0076,-0.042,0.0235,-0.1203,-1.6230246029295863,0.0,2.4324586391448975,-1.5995399951934814,-0.0,2.2040421962738037,4.261233492488525,0.0,0.28340598940849304,-1.3203142325030726,-0.0,-0.031070856377482414,0.8988011479377747,-0.0,0.0040538921020925045,1.1965022087097168,0.0,-0.018763236701488495
205.0,248.0,4.2114,-2.5125,8.0076,-0.042,0.0235,-0.1203,-1.623085161248678,0.0,2.4204607009887695,-1.5995962619781494,-0.0,2.2051024436950684,4.261314077968262,0.0,0.3042334020137787,-1.3203380743609827,-0.0,-0.03047456219792366,0.8987929821014404,-0.0,-0.004417295567691326,1.1964621543884277,0.0,0.03817470744252205
205.0,248.0,4.2114,-2.5125,8.0076,-0.042,0.0235,-0.1203,-1.6230088673033656,0.0,2.3875317573547363,-1.5995644330978394,-0.0,2.206801414489746,4.261301680202148,0.0,0.29001039266586304,-1.320322338734762,-0.0,-0.025209825485944748,0.8987932801246643,-0.0,0.0014608531491830945,1.1964621543884277,0.0,-0.010189762338995934
205.0,248.0,4.2114,-2.5125,8.0076,-0.042,0.0235,-0.1203,-1.6230045757689417,0.0,2.466672420501709,-1.5995604991912842,-1.1874893061758485e-05,2.233604907989502,4.261217280025146,0.0,0.29021525382995605,-1.3203142325030726,-0.0,-0.03987184166908264,0.8987534642219543,-0.0,0.007450110279023647,1.1964342594146729,0.0,0.05748479440808296
205.0,248.0,4.2114,-2.5125,8.0076,-0.042,0.0235,-0.1203,-1.623045106927389,0.0,2.403582811355591,-1.5995718240737915,-1.14250087790424e-05,2.1938564777374268,4.261333628291748,0.0,0.2730284333229065,-1.3203099409686487,-0.0,-0.029564589262008667,0.8988096117973328,-0.0,-0.0016248460160568357,1.196418046951294,0.0,0.024788782000541687
205.0,248.0,4.2114,-2.5125,8.0076,-0.042,0.0235,-0.1203,-1.6230408153929652,0.0,2.4253013134002686,-1.5995320081710815,-1.4948594184716057e-07,2.179511070251465,4.26124541341748,0.0,0.27704375982284546,-1.320334259663717,-0.0,-0.030948713421821594,0.8987691402435303,-0.0,-0.004004685208201408,1.1964821815490723,0.0,0.038094501942396164
205.0,248.0,4.2114,-2.5125,8.0076,-0.042,0.0235,-0.1203,-1.6230527363219203,0.0,2.384678840637207,-1.599532127380371,-4.8431548214152714e-15,2.1657209396362305,4.261249704951904,0.0,0.28182119131088257,-1.3203380743609827,-0.0,-0.02784464880824089,0.8988133668899536,-0.0,-0.01738850586116314,1.1964659690856934,0.0,0.006431996822357178
205.0,248.0,4.2114,-2.5125,8.0076,-0.042,0.0235,-0.1203,-1.6230408153929652,0.0,2.3865554332733154,-1.5995479822158813,-1.1695648852555041e-20,2.2290151119232178,4.261233492488525,0.0,0.28495901823043823,-1.3203180472003382,-0.0,-0.031098688021302223,0.8987130522727966,-0.0,-0.02103838510811329,1.1964941024780273,0.0,0.012843247503042221
205.0,248.0,4.2114,-2.5125,8.0076,-0.042,0.0235,-0.1203,-1.623057027856344,0.0,2.406193971633911,-1.5995042324066162,-2.8243620885994907e-26,2.1592953205108643,4.261293097133301,0.0,0.2956322133541107,-1.3203299681292933,-0.0,-0.01982538029551506,0.8988011479377747,-0.0,-0.008008544333279133,1.196418046951294,0.0,0.016771145164966583
206.0,242.0,4.2395,-2.5178,7.9974,-0.0338,0.0264,-0.1176,-1.6230246029295863,0.0,2.3950133323669434,-1.5995604991912842,-6.820502693103811e-32,2.179722785949707,4.261277838344238,0.0,0.2763797342777252,-1.3202741781817835,-0.0,-0.02617412433028221,0.8987772464752197,-0.0,0.0015290116425603628,1.1964900493621826,0.0,-0.0022253943607211113
206.0,242.0,4.2395,-2.5178,7.9974,-0.0338,0.0264,-0.1176,-1.6230212650694789,0.0,2.399387836456299,-1.5995842218399048,-2.2097565938400554e-39,2.1796698570251465,4.261284990901611,0.0,0.2765946388244629,-1.3203142325030726,-0.0,-0.03129223361611366,0.8987173438072205,-0.0,-0.000979830278083682,1.1964662075042725,0.0,0.012471443973481655
206.0,242.0,4.2395,-2.5178,7.9974,-0.0338,0.0264,-0.1176,-1.6230770550169886,0.0,2.4310741424560547,-1.5995280742645264,-5.605193857299268e-45,2.182415723800659,4.261269732112549,0.0,0.2828575074672699,-1.3202984968768519,-0.0,-0.028941620141267776,0.8987452983856201,-0.0,-0.007526312954723835,1.1964740753173828,0.0,-0.017873981967568398
206.0,242.0,4.2395,-2.5178,7.9974,-0.0338,0.0264,-0.1176,-1.623057027856344,0.0,2.4203853607177734,-1.5995599031448364,-0.0,2.1599998474121094,4.261282129878662,0.0,0.2871500849723816,-1.3202741781817835,-0.0,-0.028206178918480873,0.8988337516784668,-0.0,-0.00017208512872457504,1.1964540481567383,0.0,-0.024459924548864365
206.0,242.0,4.2395,-2.5178,7.9974,-0.0338,0.0264,-0.1176,-1.6230088673033656,0.0,2.4469377994537354,-1.5995564460754395,-0.0,2.2225399017333984,4.261274023646973,0.0,0.28761714696884155,-1.3202984968768519,-0.0,-0.03177565336227417,0.8987973928451538,-0.0,-0.0016227728920057416,1.196486234664917,0.0,0.02656520903110504
206.0,242.0,4.2395,-2.5178,7.9974,-0.0338,0.0264,-0.1176,-1.6230207882323207,0.0,2.402010679244995,-1.599532127380371,-0.0,2.2115964889526367,4.261265440578125,0.0,0.281348317861557,-1.320282284413473,-0.0,-0.025219395756721497,0.8987610340118408,-0.0,-0.014341925270855427,1.1964302062988281,0.0,0.0011092955246567726
206.0,242.0,4.2395,-2.5178,7.9974,-0.0338,0.0264,-0.1176,-1.6230370006956996,0.0,2.4020678997039795,-1.599608302116394,-0.0,2.21134614944458,4.261277838344238,0.0,0.3022189736366272,-1.3202698866473597,-0.0,-0.026385802775621414,0.8987811207771301,-0.0,0.007176851853728294,1.1964821815490723,0.0,0.008062105625867844
206.0,242.0,4.2395,-2.5178,7.9974,-0.0338,0.0264,-0.1176,-1.62302889446401,0.0,2.42870831489563,-1.5995440483093262,-0.0,2.2350430488586426,4.26124541341748,0.0,0.28148800134658813,-1.3202903906451624,-0.0,-0.031492121517658234,0.898826003074646,-0.0,-0.0003832681104540825,1.1965299844741821,0.0,-0.018835462629795074
206.0,242.0,4.2395,-2.5178,7.9974,-0.0338,0.0264,-0.1176,-1.6230365238585414,0.0,2.405306816101074,-1.5995479822158813,-0.0,2.186537742614746,4.261269732112549,0.0,0.2736431658267975,-1.3202903906451624,-0.0,-0.030071744695305824,0.8988215923309326,-0.0,-0.0038929167203605175,1.1964621543884277,0.0,-0.003674926236271858
206.0,242.0,4.2395,-2.5178,7.9974,-0.0338,0.0264,-0.1176,-1.6230365238585414,0.0,2.4164938926696777,-1.5995280742645264,-0.0,2.184209108352661,4.261297388667725,0.0,0.28312209248542786,-1.320350472127096,-0.0,-0.027158290147781372,0.8987371921539307,-0.0,-0.004011842422187328,1.1964821815490723,0.0,-0.024167705327272415
206.0,242.0,4.2395,-2.5178,7.9974,-0.0338,0.0264,-0.1176,-1.6230408153929652,0.0,2.4593183994293213,-1.5995644330978394,-0.0,2.1995885372161865,4.261293573970459,0.0,0.28602755069732666,-1.3202903906451624,-0.0,-0.03080044873058796,0.8987330198287964,-0.0,-0.005907480139285326,1.1964662075042725,0.0,0.04418010637164116
206.0,242.0,4.2395,-2.5178,7.9974,-0.0338,0.0264,-0.1176,-1.6230246029295863,0.0,2.3763792514801025,-1.5995564460754395,-0.0,2.205253839492798,4.261317892665527,0.0,0.28171226382255554,-1.320294205342428,-0.0,-0.03897088021039963,0.8987330794334412,-0.0,-0.010633977130055428,1.1964740753173828,0.0,-0.041983313858509064
206.0,242.0,4.2395,-2.5178,7.9974,-0.0338,0.0264,-0.1176,-1.62302889446401,0.0,2.4336435794830322,-1.5995564460754395,-0.0,2.2223079204559326,4.261321230525635,0.0,0.2956651449203491,-1.3203261534320276,-0.0,-0.019059423357248306,0.8987813591957092,-0.0,0.004589928314089775,1.196485996246338,0.0,-0.0032136966474354267
194.0,254.0,4.2479,-2.4915,7.8257,-0.0321,0.0218,-0.1234,-1.62302889446401,0.0,2.39465594291687,-1.5995444059371948,-0.0,2.2062301635742188,4.261285944575928,0.0,0.28302788734436035,-1.320294205342428,-0.0,-0.0339142382144928,0.8987770676612854,-0.0,0.006447625812143087,1.1964781284332275,0.0,0.03208114579319954
194.0,254.0,4.2479,-2.4915,7.8257,-0.0321,0.0218,-0.1234,-1.62302889446401,0.0,2.4505748748779297,-1.5994963645935059,-0.0,2.180691719055176,4.261277838344238,0.0,0.28754740953445435,-1.3202899138080042,-0.0,-0.026774747297167778,0.8987211585044861,-0.0,0.00043628551065921783,1.1964941024780273,0.0,0.001353191677480936
194.0,254.0,4.2479,-2.4915,7.8257,-0.0321,0.0218,-0.1234,-1.6230408153929652,0.0,2.387566566467285,-1.5995564460754395,-0.0,2.215254783630371,4.261261149043701,0.0,0.2837361991405487,-1.320294205342428,-0.0,-0.024956338107585907,0.8988011479377747,-0.0,-0.007289166562259197,1.1964662075042725,0.0,0.03387265279889107
194.0,254.0,4.2479,-2.4915,7.8257,-0.0321,0.0218,-0.1234,-1.623045106927389,0.0,2.456529140472412,-1.599571943283081,-0.0,2.194446563720703,4.261265440578125,0.0,0.287060022354126,-1.3202903906451624,-0.0,-0.030133992433547974,0.8987170457839966,-0.0,-0.0020360935013741255,1.1964941024780273,0.0,0.044836848974227905
194.0,254.0,4.2479,-2.4915,7.8257,-0.0321,0.0218,-0.1234,-1.6230164966978968,0.0,2.4342968463897705,-1.5995599031448364,-0.0,2.2281155586242676,4.261282129878662,0.0,0.2949780225753784,-1.3203142325030726,-0.0,-0.023795630782842636,0.8987691402435303,-0.0,0.0037601308431476355,1.1964900493621826,0.0,0.002013695891946554
194.0,254.0,4.2479,-2.4915,7.8257,-0.0321,0.0218,-0.1234,-1.623089452783102,0.0,2.391467571258545,-1.5995399951934814,-0.0,2.209624767303467,4.261261149043701,0.0,0.2925294041633606,-1.3203261534320276,-0.0,-0.018823588266968727,0.8988011479377747,-0.0,-0.00969785638153553,1.1964900493621826,0.0,0.06013438105583191
194.0,254.0,4.2479,-2.4915,7.8257,-0.0321,0.0218,-0.1234,-1.6230126820006312,0.0,2.423783302307129,-1.5995718240737915,-0.0,2.1726181507110596,4.261285944575928,0.0,0.2799493670463562,-1.3203099409686487,-0.0,-0.02524472028017044,0.8988011479377747,-0.0,-0.011886834166944027,1.1964941024780273,0.0,-0.011275844648480415
194.0,254.0,4.2479,-2.4915,7.8257,-0.0321,0.0218,-0.1234,-1.6230651340880335,0.0,2.3846824169158936,-1.5995479822158813,-0.0,2.232438564300537,4.261225386256836,0.0,0.2732596695423126,-1.3203099409686487,-0.0,-0.027549102902412415,0.8987650871276855,-0.0,-0.007123251911252737,1.196458101272583,0.0,-0.041838616132736206
194.0,254.0,4.2479,-2.4915,7.8257,-0.0321,0.0218,-0.1234,-1.6230651340880335,0.0,2.424419403076172,-1.5995081663131714,-0.0,2.231358051300049,4.261285944575928,0.0,0.28027817606925964,-1.3203380743609827,-0.0,-0.03770013526082039,0.898817777633667,-0.0,-0.005188523326069117,1.1964740753173828,0.0,0.014977704733610153
194.0,254.0,4.2479,-2.4915,7.8257,-0.0321,0.0218,-0.1234,-1.623045106927389,0.0,2.4385058879852295,-1.5995484590530396,-0.0,2.208975076675415,4.261233492488525,0.0,0.2826247811317444,-1.3203423658954065,-0.0,-0.024389436468482018,0.8987895250320435,-0.0,3.223773092031479e-06,1.1964502334594727,0.0,-0.010874925181269646
194.0,254.0,4.2479,-2.4915,7.8257,-0.0321,0.0218,-0.1234,-1.6230408153929652,0.0,2.406156539916992,-1.5995241403579712,-0.0,2.2123770713806152,4.261277838344238,0.0,0.2811107039451599,-1.320322338734762,-0.0,-0.026451032608747482,0.8987851738929749,-0.0,0.004765554331243038,1.1964383125305176,0.0,-0.013934493064880371
194.0,254.0,4.2479,-2.4915,7.8257,-0.0321,0.0218,-0.1234,-1.6230164966978968,0.0,2.402522087097168,-1.5995678901672363,-0.0,2.181528091430664,4.26124541341748,0.0,0.2956734299659729,-1.3202899138080042,-0.0,-0.02962728962302208,0.8987011313438416,-0.0,-0.0033539438154548407,1.1964540481567383,0.0,-0.020031465217471123
194.0,254.0,4.2479,-2.4915,7.8257,-0.0321,0.0218,-0.1234,-1.62302889446401,0.0,2.413017988204956,-1.5995678901672363,-0.0,2.2353146076202393,4.261301680202148,0.0,0.28948432207107544,-1.3203099409686487,-0.0,-0.027996528893709183,0.8987772464752197,-0.0,0.00309573276899755,1.1964900493621826,0.0,-0.04429492726922035
194.0,254.0,4.2479,-2.4915,7.8257,-0.0321,0.0218,-0.1234,-1.623045106927389,0.0,2.423081874847412,-1.599528193473816,-0.0,2.1780319213867188,4.261285944575928,0.0,0.27921250462532043,-1.320322338734762,-0.0,-0.033485297113657,0.8987691402435303,-0.0,-0.008041072636842728,1.1964941024780273,0.0,-0.04671252891421318
202.0,247.0,4.2407,-2.4921,7.9364,-0.0426,0.0229,-0.1173,-1.6230608425536097,0.0,2.398019790649414,-1.5995399951934814,-0.0,2.217141628265381,4.261322184199951,0.0,0.28906816244125366,-1.320294205342428,-0.0,-0.0412045419216156,0.8988096117973328,-0.0,-0.0018037715926766396,1.196446180343628,0.0,-0.010121768340468407
202.0,247.0,4.2407,-2.4921,7.9364,-0.0426,0.0229,-0.1173,-1.6230527363219203,0.0,2.4303598403930664,-1.5995484590530396,-0.0,2.1692774295806885,4.261277838344238,0.0,0.2817921042442322,-1.3202903906451624,-0.0,-0.01545715145766735,0.8987813591957092,-0.0,-0.012528457678854465,1.1964941024780273,0.0,0.0029286029748618603
202.0,247.0,4.2407,-2.4921,7.9364,-0.0426,0.0229,-0.1173,-1.6230408153929652,0.0,2.40710186958313,-1.5995644330978394,-0.0,2.166926622390747,4.2612573343464355,0.0,0.28430765867233276,-1.3203142325030726,-0.0,-0.04222870618104935,0.8987371325492859,-0.0,-0.00817178376019001,1.196446180343628,0.0,0.012959808111190796
202.0,247.0,4.2407,-2.4921,7.9364,-0.0426,0.0229,-0.1173,-1.62302889446401,0.0,2.474012613296509,-1.599528193473816,-0.0,2.172173500061035,4.26124541341748,0.0,0.29478758573532104,-1.3203304449664515,-0.0,-0.014961588196456432,0.8987691402435303,-0.0,0.0012282037641853094,1.1964662075042725,0.0,0.016855111345648766
202.0,247.0,4.2407,-2.4921,7.9364,-0.0426,0.0229,-0.1173,-1.6230527363219203,0.0,2.363738536834717,-1.5995161533355713,-0.0,2.1977970600128174,4.261297388667725,0.0,0.28365451097488403,-1.3202903906451624,-0.0,-0.03584245592355728,0.8987130522727966,-0.0,-0.005983774550259113,1.1964621543884277,0.0,0.001817731186747551
202.0,247.0,4.2407,-2.4921,7.9364,-0.0426,0.0229,-0.1173,-1.62302889446401,0.0,2.4205434322357178,-1.599532127380371,-0.0,2.2297778129577637,4.261261149043701,0.0,0.287129670381546,-1.3202579657184046,-0.0,-0.032513659447431564,0.8987650871276855,-0.0,0.0013061047066003084,1.1964502334594727,0.0,0.007560530677437782
202.0,247.0,4.2407,-2.4921,7.9364,-0.0426,0.0229,-0.1173,-1.623045106927389,0.0,2.4511377811431885,-1.5995839834213257,-0.0,2.2225394248962402,4.261261149043701,0.0,0.28345316648483276,-1.3202980200396937,-0.0,-0.028003694489598274,0.8987006545066833,-0.0,-0.011455658823251724,1.1964621543884277,0.0,-0.007500668987631798
202.0,247.0,4.2407,-2.4921,7.9364,-0.0426,0.0229,-0.1173,-1.6230484447874964,0.0,2.435189723968506,-1.5995360612869263,-0.0,2.2151288986206055,4.261249704951904,0.0,0.29591894149780273,-1.3202741781817835,-0.0,-0.029777321964502335,0.8987170457839966,-0.0,-0.009607357904314995,1.1964781284332275,0.0,0.0062982565723359585
202.0,247.0,4.2407,-2.4921,7.9364,-0.0426,0.0229,-0.1173,-1.6230365238585414,0.0,2.41688871383667,-1.599608302116394,-0.0,2.1896309852600098,4.261241121883057,0.0,0.2878211736679077,-1.3202779928790491,-0.0,-0.042338162660598755,0.8987211585044861,-0.0,-0.004230779595673084,1.1964502334594727,0.0,0.020917966961860657
202.0,247.0,4.2407,-2.4921,7.9364,-0.0426,0.0229,-0.1173,-1.623057027856344,0.0,2.39170241355896,-1.5995081663131714,-0.0,2.2020187377929688,4.261274023646973,0.0,0.296470582485199,-1.3203142325030726,-0.0,-0.04182014241814613,0.8987610340118408,-0.0,0.0034925942309200764,1.1964740753173828,0.0,0.009615456685423851
202.0,247.0,4.2407,-2.4921,7.9364,-0.0426,0.0229,-0.1173,-1.623045106927389,0.0,2.421416759490967,-1.5995440483093262,-0.0,2.1504571437835693,4.26124541341748,0.0,0.2791806161403656,-1.3203142325030726,-0.0,-0.023583997040987015,0.8987566828727722,-0.0,-0.009228391572833061,1.1964502334594727,0.0,0.021334465593099594
202.0,247.0,4.2407,-2.4921,7.9364,-0.0426,0.0229,-0.1173,-1.6230088673033656,0.0,2.4243004322052,-1.5995399951934814,-0.0,2.179621458053589,4.261305971736572,0.0,0.2929782271385193,-1.3202984968768519,-0.0,-0.03407743573188782,0.8988096117973328,-0.0,-0.002751753432676196,1.1964702606201172,0.0,0.01951257511973381
202.0,247.0,4.2407,-2.4921,7.9364,-0.0426,0.0229,-0.1173,-1.6230527363219203,0.0,2.4413180351257324,-1.5995440483093262,-0.0,2.189434051513672,4.261277838344238,0.0,0.2706407308578491,-1.3203099409686487,-0.0,-0.02989901229739189,0.898697018623352,-0.0,-0.0018166721565648913,1.1964740753173828,0.0,-0.052738744765520096
202.0,247.0,4.2407,-2.4921,7.9364,-0.0426,0.0229,-0.1173,-1.6230327091612757,0.0,2.4248690605163574,-1.5995479822158813,-0.0,2.2024946212768555,4.261273546809814,0.0,0.28200551867485046,-1.320254151021139,-0.0,-0.02104008197784424,0.8987330794334412,-0.0,-0.0063095130026340485,1.196485996246338,0.0,0.03320132568478584
201.0,253.0,4.2251,-2.4832,7.9615,-0.0376,0.0269,-0.1184,-1.6229921780028285,0.0,2.422262668609619,-1.5995923280715942,-0.0,2.1881563663482666,4.261265440578125,0.0,0.28752732276916504,-1.3202903906451624,-0.0,-0.027700334787368774,0.8987970352172852,-0.0,-0.007039177231490612,1.1964821815490723,0.0,0.024495195597410202
201.0,253.0,4.2251,-2.4832,7.9615,-0.0376,0.0269,-0.1184,-1.6230246029295863,0.0,2.38748836517334,-1.5995525121688843,-0.0,2.231394052505493,4.261261149043701,0.0,0.2733702063560486,-1.3202860991107386,-0.0,-0.027298498898744583,0.8987770080566406,-0.0,0.006562632508575916,1.196486234664917,0.0,0.012478960677981377
201.0,253.0,4.2251,-2.4832,7.9615,-0.0376,0.0269,-0.1184,-1.6230408153929652,0.0,2.425755023956299,-1.5995320081710815,-0.0,2.19175124168396,4.261265440578125,0.0,0.294558048248291,-1.3202698866473597,-0.0,-0.031259726732969284,0.8987247347831726,-0.0,-0.0034548731055110693,1.1964542865753174,0.0,0.02223600074648857
201.0,253.0,4.2251,-2.4832,7.9615,-0.0376,0.0269,-0.1184,-1.6229964695372523,0.0,2.3764708042144775,-1.5994962453842163,-0.0,2.1911842823028564,4.2613255220600585,0.0,0.27677321434020996,-1.320282284413473,-0.0,-0.02748234011232853,0.8987493515014648,-0.0,0.010908548720180988,1.1964542865753174,0.0,-0.02725321054458618
201.0,253.0,4.2251,-2.4832,7.9615,-0.0376,0.0269,-0.1184,-1.6230489216246546,0.0,2.391963005065918,-1.5995762348175049,-0.0,2.2484495639801025,4.2612573343464355,0.0,0.291547030210495,-1.3203423658954065,-0.0,-0.011980010196566582,0.8987813591957092,-0.0,-0.00510312058031559,1.1964421272277832,0.0,-0.015702422708272934
201.0,253.0,4.2251,-2.4832,7.9615,-0.0376,0.0269,-0.1184,-1.623033185998434,0.0,2.384784460067749,-1.5995241403579712,-0.0,2.203399658203125,4.261237307185791,0.0,0.30243703722953796,-1.320294205342428,-0.0,-0.03092961758375168,0.8988011479377747,-0.0,0.0032259044237434864,1.1964621543884277,0.0,0.009223062545061111
201.0,253.0,4.2251,-2.4832,7.9615,-0.0376,0.0269,-0.1184,-1.6229964695372523,0.0,2.400944948196411,-1.5995081663131714,-0.0,2.211456060409546,4.261309786433838,0.0,0.2932918667793274,-1.320282284413473,-0.0,-0.026137374341487885,0.898801326751709,-0.0,-0.002981393365189433,1.1965062618255615,0.0,0.04421696066856384
201.0,253.0,4.2251,-2.4832,7.9615,-0.0376,0.0269,-0.1184,-1.6229921780028285,0.0,2.419161319732666,-1.5996042490005493,-0.0,2.2189056873321533,4.261265440578125,0.0,0.3041026294231415,-1.320306126271383,-0.0,-0.0424763448536396,0.8988011479377747,-0.0,0.003485719673335552,1.1964540481567383,0.0,0.01553922239691019
201.0,253.0,4.2251,-2.4832,7.9615,-0.0376,0.0269,-0.1184,-1.6230088673033656,0.0,2.4327473640441895,-1.599564552307129,-0.0,2.2074501514434814,4.261265440578125,0.0,0.2898569703102112,-1.3203142325030726,-0.0,-0.028846174478530884,0.8987851142883301,-0.0,-0.0019631797913461924,1.196446180343628,0.0,-0.003040713258087635
201.0,253.0,4.2251,-2.4832,7.9615,-0.0376,0.0269,-0.1184,-1.623016973535055,0.0,2.426356554031372,-1.5995564460754395,-0.0,2.200900077819824,4.261249228114746,0.0,0.2789264917373657,-1.3202665487872522,-0.0,-0.030301053076982498,0.8988093137741089,-0.0,0.0018983454210683703,1.1964542865753174,0.0,-0.011738233268260956
201.0,253.0,4.2251,-2.4832,7.9615,-0.0376,0.0269,-0.1184,-1.6231094799437464,0.0,2.3977034091949463,-1.599532127380371,-0.0,2.162484884262085,4.261269732112549,0.0,0.29470670223236084,-1.320306126271383,-0.0,-0.023221343755722046,0.8987930417060852,-0.0,-0.0014475358184427023,1.1964740753173828,0.0,-0.003537936368957162
201.0,253.0,4.2251,-2.4832,7.9615,-0.0376,0.0269,-0.1184,-1.6230489216246546,0.0,2.4337496757507324,-1.5995678901672363,-0.0,2.256077766418457,4.261289282436035,0.0,0.29343730211257935,-1.3202818075763147,-0.0,-0.03235972300171852,0.8988053798675537,-0.0,-0.013977663591504097,1.196498155593872,0.0,0.0015746322460472584
201.0,253.0,4.2251,-2.4832,7.9615,-0.0376,0.0269,-0.1184,-1.623057027856344,0.0,2.393803119659424,-1.599523901939392,-0.0,2.159351348876953,4.261273546809814,0.0,0.2946760654449463,-1.3202980200396937,-0.0,-0.04064793139696121,0.8987371921539307,-0.0,-0.012733455747365952,1.1964821815490723,0.0,0.004526405595242977
201.0,253.0,4.2251,-2.4832,7.9615,-0.0376,0.0269,-0.1184,-1.6230088673033656,0.0,2.449031352996826,-1.5995564460754395,-0.0,2.174370288848877,4.261273546809814,0.0,0.27753710746765137,-1.3202698866473597,-0.0,-0.03929189220070839,0.8987691402435303,-0.0,-0.0037255187053233385,1.1964941024780273,0.0,0.005462831351906061
209.0,234.0,4.2706,-2.4724,8.0399,-0.0345,0.0261,-0.1194,-1.623045106927389,0.0,2.389251232147217,-1.5995444059371948,-0.0,2.1965551376342773,4.2612573343464355,0.0,0.27807730436325073,-1.320366684590475,-0.0,-0.027246583253145218,0.8987566828727722,-0.0,-0.01251053623855114,1.196458101272583,3.392492398113234e-10,-0.010256820358335972
209.0,234.0,4.2706,-2.4724,8.0399,-0.0345,0.0261,-0.1194,-1.6230489216246546,0.0,2.4075515270233154,-1.5995718240737915,-0.0,2.238851308822632,4.261314077968262,0.0,0.27126267552375793,-1.320322338734762,-0.0,-0.0141440499573946,0.8987929821014404,-0.0,0.005090469494462013,1.1964740753173828,8.192470372712479e-16,-0.0352402925491333
209.0,234.0,4.2706,-2.4724,8.0399,-0.0345,0.0261,-0.1194,-1.623033185998434,0.0,2.450265884399414,-1.5995604991912842,-0.0,2.198326349258423,4.261249228114746,0.0,0.29355478286743164,-1.3203180472003382,-0.0,-0.030188560485839844,0.8988177180290222,-0.0,0.005372605752199888,1.196458101272583,2.654256621969982e-23,-0.013566208072006702
209.0,234.0,4.2706,-2.4724,8.0399,-0.0345,0.0261,-0.1194,-1.6230532131590785,0.0,2.376882791519165,-1.599568486213684,-0.0,2.1989753246307373,4.2612292009541015,0.0,0.28645896911621094,-1.3203018347369593,-0.0,-0.018844477832317352,0.8988010883331299,-0.0,-0.0007205605506896973,1.1964340209960938,6.409717540570541e-29,0.0121079720556736
209.0,234.0,4.2706,-2.4724,8.0399,-0.0345,0.0261,-0.1194,-1.6230527363219203,0.0,2.431748628616333,-1.5995639562606812,-0.0,2.187042713165283,4.261265440578125,0.0,0.30203545093536377,-1.3203142325030726,-0.0,-0.03919601812958717,0.8988177180290222,-0.0,-0.004896887578070164,1.1964621543884277,1.5478713313254844e-34,0.030604129657149315
209.0,234.0,4.2706,-2.4724,8.0399,-0.0345,0.0261,-0.1194,-1.6230207882323207,0.0,2.447765350341797,-1.5995678901672363,-0.0,2.1699771881103516,4.2612292009541015,0.0,0.27952682971954346,-1.3202903906451624,-0.0,-0.02162395790219307,0.8987691402435303,-0.0,0.0068662939593195915,1.1964540481567383,3.73792161463252e-40,-0.013870454393327236
209.0,234.0,4.2706,-2.4724,8.0399,-0.0345,0.0261,-0.1194,-1.6230408153929652,0.0,2.451115846633911,-1.5995360612869263,-0.0,2.196802854537964,4.2612573343464355,0.0,0.28051039576530457,-1.3203261534320276,-0.0,-0.020281508564949036,0.8987371921539307,-0.0,-0.012306593358516693,1.196497917175293,-3.840735007543117e-05,0.004809937439858913
209.0,234.0,4.2706,-2.4724,8.0399,-0.0345,0.0261,-0.1194,-1.6230813465514125,0.0,2.4412083625793457,-1.5995839834213257,-0.0,2.1698694229125977,4.2612902361103515,0.0,0.299177885055542,-1.3203018347369593,-0.0,-0.02544369548559189,0.8987810611724854,-0.0,-0.008167674764990807,1.196485996246338,-4.194593202555552e-06,0.0029505665879696608
209.0,234.0,4.2706,-2.4724,8.0399,-0.0345,0.0261,-0.1194,-1.6230088673033656,0.0,2.4211466312408447,-1.5995240211486816,-0.0,2.163283109664917,4.261241121883057,0.0,0.29885536432266235,-1.320334259663717,-0.0,-0.02898532897233963,0.8987691402435303,-0.0,-0.0069085704162716866,1.1964781284332275,-1.0129448495266313e-11,0.03263368830084801
209.0,234.0,4.2706,-2.4724,8.0399,-0.0345,0.0261,-0.1194,-1.6230207882323207,0.0,2.3861243724823,-1.599564552307129,-0.0,2.2243430614471436,4.261237307185791,0.0,0.29067474603652954,-1.3202903906451624,-0.0,-0.032129932194948196,0.8987810611724854,-0.0,0.0011830239091068506,1.196446180343628,-3.281811938440288e-19,-0.017497774213552475
209.0,234.0,4.2706,-2.4724,8.0399,-0.0345,0.0261,-0.1194,-1.623085161248678,0.0,2.3974738121032715,-1.5995440483093262,-0.0,2.2027125358581543,4.261269732112549,0.0,0.27907463908195496,-1.320306126271383,-0.0,-0.0193890742957592,0.8987770080566406,-0.0,0.0019377029966562986,1.1964380741119385,-7.925189518461348e-25,-0.037621740251779556
209.0,234.0,4.2706,-2.4724,8.0399,-0.0345,0.0261,-0.1194,-1.623016973535055,0.0,2.452526092529297,-1.5995604991912842,-0.0,2.2327029705047607,4.261277838344238,0.0,0.2857407331466675,-1.3203261534320276,-0.0,-0.02117779105901718,0.8988011479377747,-0.0,0.00104556605219841,1.196470022201538,-1.9138400320088027e-30,0.04958774149417877
209.0,234.0,4.2706,-2.4724,8.0399,-0.0345,0.0261,-0.1194,-1.6230408153929652,0.0,2.434802532196045,-1.5995160341262817,-0.0,2.186009407043457,4.261265440578125,0.0,0.2839360237121582,-1.3202980200396937,-0.0,-0.040648605674505234,0.8988256454467773,-0.0,0.010973313823342323,1.1964662075042725,-4.621698471618384e-36,-0.006118574179708958
205.0,251.0,4.1934,-2.5041,7.995,-0.0318,0.0249,-0.1187,-1.6230365238585414,0.0,2.445528507232666,-1.5995399951934814,-0.0,2.1579692363739014,4.261273546809814,0.0,0.2945554852485657,-1.320294205342428,-0.0,-0.026196768507361412,0.8987293243408203,-0.0,0.014134075492620468,1.196446180343628,-1.4993893568275543e-43,-0.018708258867263794
205.0,251.0,4.1934,-2.5041,7.995,-0.0318,0.0249,-0.1187,-1.623089452783102,0.0,2.418473958969116,-1.5995718240737915,-0.0,2.203819990158081,4.261314077968262,0.0,0.29705941677093506,-1.3203099409686487,-0.0,-0.03127137944102287,0.8987810611724854,-0.0,-0.004762089811265469,1.1964421272277832,0.0,0.0028645419515669346
205.0,251.0,4.1934,-2.5041,7.995,-0.0318,0.0249,-0.1187,-1.6230164966978968,0.0,2.3962244987487793,-1.599548101425171,-0.0,2.2004761695861816,4.261217280025146,0.0,0.29671257734298706,-1.320322338734762,-0.0,-0.034495867788791656,0.8987813591957092,-0.0,-0.005615178495645523,1.1965019702911377,0.0,0.01221703551709652
205.0,251.0,4.1934,-2.5041,7.995,-0.0318,0.0249,-0.1187,-1.6230727634825648,0.0,2.414803981781006,-1.5995440483093262,-0.0,2.2010350227355957,4.2612902361103515,0.0,0.2802998423576355,-1.320322338734762,-0.0,-0.027826212346553802,0.898785412311554,-0.0,-0.01100289449095726,1.1964139938354492,0.0,0.01810801774263382
205.0,251.0,4.1934,-2.5041,7.995,-0.0318,0.0249,-0.1187,-1.6230689487852992,0.0,2.405470848083496,-1.5994961261749268,-0.0,2.204634189605713,4.261233015651367,0.0,0.27127814292907715,-1.3203180472003382,-0.0,-0.02593166194856167,0.8987650871276855,-0.0,0.0018654046580195427,1.1964659690856934,0.0,0.026559703052043915
205.0,251.0,4.1934,-2.5041,7.995,-0.0318,0.0249,-0.1187,-1.6230126820006312,0.0,2.3922410011291504,-1.5995842218399048,-0.0,2.198796510696411,4.261333628291748,0.0,0.288333535194397,-1.3203099409686487,-0.0,-0.020791633054614067,0.8986891508102417,-0.0,-0.0027134495321661234,1.196446180343628,0.0,-0.03284338116645813
205.0,251.0,4.1934,-2.5041,7.995,-0.0318,0.0249,-0.1187,-1.6230808697142542,0.0,2.4000558853149414,-1.5995525121688843,-0.0,2.1872222423553467,4.261281176204346,0.0,0.28286802768707275,-1.3203337828265589,-0.0,-0.019307855516672134,0.8987973928451538,-0.0,0.0001974825281649828,1.196470022201538,0.0,0.00013379554729908705
205.0,251.0,4.1934,-2.5041,7.995,-0.0318,0.0249,-0.1187,-1.6230327091612757,0.0,2.4488680362701416,-1.5995320081710815,-0.0,2.1866116523742676,4.261314077968262,0.0,0.2866404354572296,-1.3203142325030726,-0.0,-0.03244930878281593,0.8988010883331299,-0.0,-0.0029774936847388744,1.1965022087097168,0.0,-0.0420578271150589
205.0,251.0,4.1934,-2.5041,7.995,-0.0318,0.0249,-0.1187,-1.6230608425536097,0.0,2.3805112838745117,-1.5995280742645264,-0.0,2.205578565597534,4.261289282436035,0.0,0.28363582491874695,-1.3203423658954065,-0.0,-0.030204027891159058,0.8988136649131775,-0.0,-0.013595572672784328,1.1964662075042725,0.0,0.02649114280939102
205.0,251.0,4.1934,-2.5041,7.995,-0.0318,0.0249,-0.1187,-1.6230808697142542,0.0,2.4030871391296387,-1.5995882749557495,-0.0,2.221792697906494,4.2612902361103515,0.0,0.29172101616859436,-1.320294205342428,-0.0,-0.02337956428527832,0.898760974407196,-0.0,-0.0006829097401350737,1.196458101272583,0.0,-0.0018985290080308914
205.0,251.0,4.1934,-2.5041,7.995,-0.0318,0.0249,-0.1187,-1.6230088673033656,0.0,2.451960563659668,-1.599568486213684,-0.0,2.172524929046631,4.261265440578125,0.0,0.2871113419532776,-1.3203299681292933,-0.0,-0.028775019571185112,0.8987130522727966,-0.0,-0.00537414476275444,1.1964740753173828,0.0,-0.02661265805363655
205.0,251.0,4.1934,-2.5041,7.995,-0.0318,0.0249,-0.1187,-1.6230484447874964,0.0,2.4182591438293457,-1.5995604991912842,-0.0,2.1870999336242676,4.261293573970459,0.0,0.2811557352542877,-1.3203218618976038,-0.0,-0.022185463458299637,0.8987810015678406,-0.0,-0.012767065316438675,1.1965019702911377,0.0,0.03034108877182007
205.0,251.0,4.1934,-2.5041,7.995,-0.0318,0.0249,-0.1187,-1.62302889446401,0.0,2.4502553939819336,-1.5995122194290161,-0.0,2.2001781463623047,4.2612573343464355,0.0,0.2815486788749695,-1.3203180472003382,-0.0,-0.020516887307167053,0.8987772464752197,-0.0,0.0010976451449096203,1.1964819431304932,0.0,0.014999587088823318
205.0,251.0,4.1934,-2.5041,7.995,-0.0318,0.0249,-0.1187,-1.6230727634825648,0.0,2.4892168045043945,-1.5995882749557495,-0.0,2.231976270675659,4.261261149043701,0.0,0.28804445266723633,-1.3203099409686487,-0.0,-0.022617090493440628,0.8987932801246643,-0.0,0.009672549553215504,1.1964740753173828,0.0,0.029347050935029984
203.0,235.0,4.2162,-2.5167,7.9119,-0.0412,0.0226,-0.1147,-1.623028417626852,0.0,2.4394421577453613,-1.5995718240737915,-0.0,2.16180157661438,4.261305971736572,0.0,0.2873854339122772,-1.3202698866473597,-0.0,-0.0236669834703207,0.8987932801246643,-0.0,-0.00013973831664770842,1.1964900493621826,0.0,-0.043892305344343185
203.0,235.0,4.2162,-2.5167,7.9119,-0.0412,0.0226,-0.1147,-1.6230327091612757,0.0,2.4135618209838867,-1.5995564460754395,-0.0,2.189269542694092,4.261269732112549,0.0,0.27975207567214966,-1.3203099409686487,-0.0,-0.03277933597564697,0.8988092541694641,-0.0,-0.007592093199491501,1.196498155593872,0.0,-0.01835160329937935
203.0,235.0,4.2162,-2.5167,7.9119,-0.0412,0.0226,-0.1147,-1.6230446300902308,0.0,2.3988349437713623,-1.5995160341262817,-0.0,2.2136871814727783,4.261297388667725,0.0,0.3000717759132385,-1.3202860991107386,-0.0,-0.032453782856464386,0.8987691402435303,-0.0,0.0015055364929139614,1.1964781284332275,0.0,-0.009568426758050919
203.0,235.0,4.2162,-2.5167,7.9119,-0.0412,0.0226,-0.1147,-1.6230131588377894,0.0,2.4570913314819336,-1.5995802879333496,-0.0,2.158513069152832,4.261297388667725,0.0,0.29004713892936707,-1.320282284413473,-0.0,-0.029073894023895264,0.8987493515014648,-0.0,0.01033211499452591,1.1964821815490723,0.0,0.009102165699005127
203.0,235.0,4.2162,-2.5167,7.9119,-0.0412,0.0226,-0.1147,-1.623033185998434,0.0,2.430579900741577,-1.5995280742645264,-0.0,2.165922164916992,4.261261149043701,0.0,0.3033983111381531,-1.320322338734762,-0.0,-0.023145653307437897,0.8988011479377747,-0.0,0.00833670049905777,1.1964900493621826,0.0,-0.002966230269521475
203.0,235.0,4.2162,-2.5167,7.9119,-0.0412,0.0226,-0.1147,-1.62302889446401,0.0,2.3446571826934814,-1.59954833984375,-0.0,2.21067214012146,4.261269732112549,0.0,0.30027079582214355,-1.3202984968768519,-0.0,-0.03695715218782425,0.898785412311554,-0.0,0.0009439517743885517,1.1965060234069824,0.0,0.03469722345471382
203.0,235.0,4.2162,-2.5167,7.9119,-0.0412,0.0226,-0.1147,-1.6230489216246546,0.0,2.4251246452331543,-1.599571943283081,-0.0,2.1850876808166504,4.261277838344238,0.0,0.29350996017456055,-1.3202984968768519,-0.0,-0.029985792934894562,0.8987936973571777,-0.0,-0.004175933077931404,1.1964380741119385,0.0,0.006440021097660065
203.0,235.0,4.2162,-2.5167,7.9119,-0.0412,0.0226,-0.1147,-1.623033185998434,0.0,2.3967583179473877,-1.5995843410491943,-0.0,2.2067320346832275,4.2612573343464355,0.0,0.2904312312602997,-1.3203418890582483,-0.0,-0.026906060054898262,0.8988137245178223,-0.0,-0.004645239096134901,1.1964740753173828,0.0,-0.02158956602215767
203.0,235.0,4.2162,-2.5167,7.9119,-0.0412,0.0226,-0.1147,-1.6230045757689417,0.0,2.4039430618286133,-1.5995523929595947,-0.0,2.201061487197876,4.261281176204346,0.0,0.29692140221595764,-1.320266071950094,-0.0,-0.02553427591919899,0.8987371325492859,-0.0,0.010370227508246899,1.1964261531829834,0.0,-0.015562308020889759
203.0,235.0,4.2162,-2.5167,7.9119,-0.0412,0.0226,-0.1147,-1.6229883633055628,0.0,2.4468586444854736,-1.5995882749557495,-0.0,2.1771974563598633,4.261277838344238,0.0,0.2896002233028412,-1.3202584425555628,-0.0,-0.030136462301015854,0.8987087607383728,-0.0,-0.01634264923632145,1.1965060234069824,0.0,0.009794875979423523
203.0,235.0,4.2162,-2.5167,7.9119,-0.0412,0.0226,-0.1147,-1.623028417626852,0.0,2.4113802909851074,-1.5995678901672363,-0.0,2.2179059982299805,4.261248751277588,0.0,0.2859641909599304,-1.3203304449664515,-0.0,-0.029425011947751045,0.898760974407196,-0.0,-0.005134314298629761,1.1964740753173828,0.0,-0.03178880363702774
203.0,235.0,4.2162,-2.5167,7.9119,-0.0412,0.0226,-0.1147,-1.6230408153929652,0.0,2.4118216037750244,-1.5995399951934814,-0.0,2.1457719802856445,4.261277838344238,0.0,0.2952364981174469,-1.3202698866473597,-0.0,-0.029724711552262306,0.8987970352172852,-0.0,-0.005416376516222954,1.1964821815490723,0.0,-0.008628401905298233
203.0,235.0,4.2162,-2.5167,7.9119,-0.0412,0.0226,-0.1147,-1.6230207882323207,0.0,2.376802921295166,-1.599532127380371,-0.0,2.171229362487793,4.261249228114746,0.0,0.2870853841304779,-1.3203142325030726,-0.0,-0.03441127762198448,0.8987650871276855,-0.0,-0.010294110514223576,1.1964502334594727,0.0,-0.03608863800764084
203.0,235.0,4.2162,-2.5167,7.9119,-0.0412,0.0226,-0.1147,-1.623057027856344,0.0,2.4394402503967285,-1.5995523929595947,-0.0,2.181276321411133,4.261293573970459,0.0,0.2895325720310211,-1.3202860991107386,-0.0,-0.029200633987784386,0.8987851142883301,-0.0,-0.015762917697429657,1.1964740753173828,0.0,0.03621934354305267
201.0,248.0,4.2006,-2.5023,7.9304,-0.0405,0.0272,-0.118,-1.6230207882323207,0.0,2.373490333557129,-1.5994921922683716,-0.0,2.2167606353759766,4.261297388667725,0.0,0.2922040820121765,-1.3203304449664515,-0.0,-0.033645883202552795,0.8987770080566406,-0.0,0.004742461256682873,1.1964781284332275,0.0,-0.028202742338180542
201.0,248.0,4.2006,-2.5023,7.9304,-0.0405,0.0272,-0.118,-1.62302889446401,0.0,2.391322374343872,-1.5995280742645264,-0.0,2.1974446773529053,4.261225386256836,0.0,0.29021164774894714,-1.3202741781817835,-0.0,-0.025354940444231033,0.8987929821014404,-0.0,-0.010253984481096268,1.1965179443359375,0.0,0.009980252012610435
201.0,248.0,4.2006,-2.5023,7.9304,-0.0405,0.0272,-0.118,-1.6230246029295863,0.0,2.4628796577453613,-1.599564552307129,-0.0,2.2002220153808594,4.261269732112549,0.0,0.2956840693950653,-1.3202903906451624,-0.0,-0.04377593472599983,0.8987770080566406,-0.0,-0.014227084815502167,1.196485996246338,0.0,0.03338174521923065
201.0,248.0,4.2006,-2.5023,7.9304,-0.0405,0.0272,-0.118,-1.6229921780028285,0.0,2.4664711952209473,-1.599548101425171,-0.0,2.2011260986328125,4.261321230525635,0.0,0.27937716245651245,-1.3203018347369593,-0.0,-0.02968219667673111,0.8987887501716614,-0.0,-0.008112254552543163,1.196498155593872,0.0,-0.043537359684705734
201.0,248.0,4.2006,-2.5023,7.9304,-0.0405,0.0272,-0.118,-1.623033185998434,0.0,2.4136452674865723,-1.5995240211486816,-0.0,2.1478805541992188,4.261297388667725,0.0,0.29077959060668945,-1.3202860991107386,-0.0,-0.04020467773079872,0.8987686038017273,-0.0,-0.00527315866202116,1.1965023279190063,0.0,-0.037781018763780594
201.0,248.0,4.2006,-2.5023,7.9304,-0.0405,0.0272,-0.118,-1.62302889446401,0.0,2.42329740524292,-1.5995160341262817,-0.0,2.2253236770629883,4.261265440578125,0.0,0.28504815697669983,-1.3202579657184046,-0.0,-0.03232350945472717,0.8987772464752197,-0.0,0.0005625428166240454,1.1964740753173828,0.0,0.020105313509702682
201.0,248.0,4.2006,-2.5023,7.9304,-0.0405,0.0272,-0.118,-1.623045106927389,0.0,2.4282538890838623,-1.5995843410491943,-0.0,2.220245122909546,4.261277838344238,0.0,0.2788853049278259,-1.3203337828265589,-0.0,-0.02936352789402008,0.8987290263175964,-0.0,-0.0021694875322282314,1.1964502334594727,0.0,-0.013317134231328964
201.0,248.0,4.2006,-2.5023,7.9304,-0.0405,0.0272,-0.118,-1.6230808697142542,0.0,2.3946375846862793,-1.5995560884475708,-0.0,2.186734437942505,4.2612292009541015,0.0,0.28784286975860596,-1.320322338734762,-0.0,-0.026290858164429665,0.8987650871276855,-0.0,-0.003268911736086011,1.196498155593872,0.0,-0.016146793961524963
201.0,248.0,4.2006,-2.5023,7.9304,-0.0405,0.0272,-0.118,-1.6230045757689417,0.0,2.4099338054656982,-1.5995161533355713,-0.0,2.1328110694885254,4.261309786433838,0.0,0.3002789318561554,-1.3203099409686487,-0.0,-0.03588545322418213,0.8987210988998413,-0.0,-0.005566400475800037,1.1964900493621826,0.0,0.029125003144145012
201.0,248.0,4.2006,-2.5023,7.9304,-0.0405,0.0272,-0.118,-1.6230212650694789,0.0,2.4503936767578125,-1.599532127380371,-0.0,2.1818013191223145,4.2612292009541015,0.0,0.29888999462127686,-1.3202903906451624,-0.0,-0.03580528125166893,0.8987769484519958,-0.0,0.005781478248536587,1.196498155593872,0.0,0.04688479006290436
201.0,248.0,4.2006,-2.5023,7.9304,-0.0405,0.0272,-0.118,-1.6230126820006312,0.0,2.401036024093628,-1.5995280742645264,-0.0,2.1595711708068848,4.261261149043701,0.0,0.28284952044487,-1.320306126271383,-0.0,-0.02995877154171467,0.8987812995910645,-0.0,-0.004389300011098385,1.1964380741119385,0.0,0.01277995016425848
201.0,248.0,4.2006,-2.5023,7.9304,-0.0405,0.0272,-0.118,-1.6230608425536097,0.0,2.427516222000122,-1.599579930305481,-0.0,2.176642417907715,4.261261149043701,0.0,0.28878045082092285,-1.3202899138080042,-0.0,-0.02538997493684292,0.8988092541694641,-0.0,-0.010998443700373173,1.1964662075042725,0.0,0.013975296169519424
201.0,248.0,4.2006,-2.5023,7.9304,-0.0405,0.0272,-0.118,-1.6230370006956996,0.0,2.429107189178467,-1.599532127380371,-0.0,2.1733832359313965,4.261277838344238,0.0,0.29182419180870056,-1.3203337828265589,-0.0,-0.019086141139268875,0.8987452983856201,-0.0,-0.006692173890769482,1.1965142488479614,0.0,0.031756047159433365
209.0,249.0,4.1719,-2.4634,7.9723,-0.0325,0.0357,-0.12,-1.6230045757689417,0.0,2.4031894207000732,-1.5994962453842163,-0.0,2.214270830154419,4.261314077968262,0.0,0.30436158180236816,-1.3203099409686487,-0.0,-0.03100624307990074,0.8987929821014404,-0.0,-0.006098651327192783,1.196470022201538,0.0,0.006562502589076757
209.0,249.0,4.1719,-2.4634,7.9723,-0.0325,0.0357,-0.12,-1.6230207882323207,0.0,2.3784422874450684,-1.5995923280715942,-0.0,2.2072198390960693,4.261237307185791,0.0,0.29439324140548706,-1.3203380743609827,-0.0,-0.029720287770032883,0.8988137245178223,-0.0,0.0007336330600082874,1.1964941024780273,0.0,-0.0373285748064518
209.0,249.0,4.1719,-2.4634,7.9723,-0.0325,0.0357,-0.12,-1.6230207882323207,0.0,2.4472270011901855,-1.5995484590530396,-0.0,2.192427635192871,4.261277838344238,0.0,0.3010832667350769,-1.3202417532550257,-0.0,-0.022139592096209526,0.8987929821014404,-0.0,-0.0010129010770469904,1.1964380741119385,0.0,-0.001167507842183113
209.0,249.0,4.1719,-2.4634,7.9723,-0.0325,0.0357,-0.12,-1.6230408153929652,0.0,2.4000344276428223,-1.599568486213684,-0.0,2.2181954383850098,4.261284990901611,0.0,0.28633996844291687,-1.3203018347369593,-0.0,-0.028853710740804672,0.8987813591957092,-0.0,-0.012575443834066391,1.1964900493621826,0.0,0.029143132269382477
209.0,249.0,4.1719,-2.4634,7.9723,-0.0325,0.0357,-0.12,-1.6230527363219203,0.0,2.445115327835083,-1.599548101425171,0.00012311077443882823,2.207406520843506,4.261333628291748,7.369631987996783e-11,0.27662432193756104,-1.320266071950094,-0.0,-0.0314214825630188,0.8987691402435303,-0.0,-0.0015654948074370623,1.1964821815490723,0.0,-0.006461608223617077
209.0,249.0,4.1719,-2.4634,7.9723,-0.0325,0.0357,-0.12,-1.623033185998434,0.0,2.392463445663452,-1.5994842052459717,0.001004414283670485,2.1781458854675293,4.261301680202148,2.0513643816380198e-14,0.30858951807022095,-1.3203337828265589,-0.0,-0.029993506148457527,0.8987930417060852,-0.0,-0.009344789199531078,1.1964619159698486,0.0,-0.05191631615161896
209.0,249.0,4.1719,-2.4634,7.9723,-0.0325,0.0357,-0.12,-1.6230408153929652,0.0,2.4922783374786377,-1.5995242595672607,0.0007628020248375833,2.2348313331604004,4.261305971736572,5.71004886155917e-18,0.28141358494758606,-1.3203337828265589,-0.0,-0.039041560143232346,0.8987813591957092,-0.0,-0.003325672587379813,1.1964740753173828,0.0,0.05586637929081917
209.0,249.0,4.1719,-2.4634,7.9723,-0.0325,0.0357,-0.12,-1.6230045757689417,0.0,2.4080278873443604,-1.5994882583618164,0.00063946726731956,2.1948466300964355,4.261301680202148,1.5894131077106335e-21,0.28232085704803467,-1.320305649434225,-1.543807393034058e-08,-0.023510649800300598,0.8987929821014404,-0.0,-0.0020682907197624445,1.1964941024780273,0.0,0.05210919678211212
209.0,249.0,4.1719,-2.4634,7.9723,-0.0325,0.0357,-0.12,-1.623028417626852,0.0,2.3904645442962646,-1.599508285522461,0.00038967918953858316,2.1649909019470215,4.261313124293945,0.00027141213649883866,0.2956200838088989,-1.320350472127096,-2.805793791749167e-13,-0.025318462401628494,0.8988092541694641,-0.0,-0.0012385635636746883,1.1964778900146484,0.0,0.009570094756782055
209.0,249.0,4.1719,-2.4634,7.9723,-0.0325,0.0357,-0.12,-1.623056551019186,0.0,2.441490411758423,-1.599520206451416,0.00037114930455572903,2.170748233795166,4.261317415828369,0.00023075344506651163,0.29073604941368103,-1.3203824202166956,-7.810030232466834e-17,-0.013227222487330437,0.8988010883331299,-0.0,0.0020446968264877796,1.1965179443359375,0.0010215174406766891,0.021042317152023315
209.0,249.0,4.1719,-2.4634,7.9723,-0.0325,0.0357,-0.12,-1.6230365238585414,0.0,2.416083335876465,-1.5995042324066162,0.00030769637669436634,2.192171812057495,4.261289282436035,0.00019998067000415176,0.2919592261314392,-1.3203466574298304,-2.173950687913405e-20,-0.041290413588285446,0.8988014459609985,-0.0,-0.023099767044186592,1.1965700387954712,0.0019327033078297973,0.006760234013199806
209.0,249.0,4.1719,-2.4634,7.9723,-0.0325,0.0357,-0.12,-1.6230889759459437,-8.986939664668014e-12,2.429238796234131,-1.5994638204574585,0.0002921381965279579,2.192528486251831,4.261333628291748,0.00016979212523438036,0.28619709610939026,-1.3203018347369593,-3.9510475612114685e-25,-0.030220840126276016,0.8987812995910645,-0.0,-0.017567481845617294,1.1965495347976685,0.003918318077921867,0.002200974151492119
209.0,249.0,4.1719,-2.4634,7.9723,-0.0325,0.0357,-0.12,-1.6231290302672328,-0.004497980698943138,2.393112897872925,-1.5995123386383057,0.0002932532806880772,2.206944465637207,4.261293573970459,0.00015252464800141752,0.2839703857898712,-1.3203585783587855,-1.0997886928620988e-28,-0.02735941857099533,0.8987970948219299,-0.0,-0.009805848821997643,1.1966379880905151,0.0069143883883953094,0.025779202580451965
209.0,249.0,4.1719,-2.4634,7.9723,-0.0325,0.0357,-0.12,-1.6231733761229457,-0.007791057229042053,2.415043354034424,-1.5995042324066162,0.00026133822393603623,2.165909767150879,4.261281176204346,0.00011794206511694938,0.2801665663719177,-1.3203981558429163,-3.0613020281536693e-32,-0.028933096677064896,0.898760974407196,-0.0,-0.005958757363259792,1.1966776847839355,0.0086763771250844,-0.03521846607327461
204.0,249.0,4.1581,-2.6237,7.7994,-0.0348,0.0319,-0.1097,-1.6231523952879847,-0.008911943063139915,2.423340320587158,-1.5995084047317505,0.00023567414609715343,2.183722972869873,4.261297388667725,0.00010139901132788509,0.28347715735435486,-1.3203585783587855,-0.00018489104695618153,-0.03202106058597565,0.8988136649131775,-0.0,0.004783932119607925,1.196685552597046,0.009263796731829643,0.015434006229043007
204.0,249.0,4.1581,-2.6237,7.7994,-0.0348,0.0319,-0.1097,-1.623300691644186,-0.006136719603091478,2.4028072357177734,-1.59950852394104,0.000283441215287894,2.2201027870178223,4.2612573343464355,9.112937550526112e-05,0.29339799284935,-1.3203585783587855,-0.00015895407705102116,-0.03232716768980026,0.8987813591957092,-0.0,-0.006238468922674656,1.1967933177947998,0.009541290812194347,0.04179278761148453
204.0,249.0,4.1581,-2.6237,7.7994,-0.0348,0.0319,-0.1097,-1.6232606373228968,-0.0036311987787485123,2.4152631759643555,-1.5994521379470825,0.0038132513873279095,2.199272632598877,4.261309786433838,6.352912896545604e-05,0.2986510992050171,-1.32037860551943,-0.00014372216537594795,-0.03452753648161888,0.8988133072853088,-0.0,-0.004750747233629227,1.196857213973999,0.009014308452606201,0.007200926076620817
204.0,249.0,4.1581,-2.6237,7.7994,-0.0348,0.0319,-0.1097,-1.6233450374998988,-0.0025573023594915867,2.3659510612487793,-1.5994117259979248,0.004575811792165041,2.1796178817749023,4.2612292009541015,-5.7830180594464764e-05,0.29548782110214233,-1.3203380743609827,-0.00015648672706447542,-0.03485291451215744,0.8987727165222168,-0.0,-0.007558593526482582,1.1969095468521118,0.007116993889212608,0.06540998071432114
204.0,249.0,4.1581,-2.6237,7.7994,-0.0348,0.0319,-0.1097,-1.623392721215719,-0.006805002223700285,2.4505646228790283,-1.599412441253662,0.003914467990398407,2.175903558731079,4.261277838344238,-7.748303323751315e-05,0.2841799855232239,-1.3203981558429163,-0.00014095146616455168,-0.030896086245775223,0.8987813591957092,-0.0,-0.010844691656529903,1.1969330310821533,0.004653917625546455,0.03541355952620506
204.0,249.0,4.1581,-2.6237,7.7994,-0.0348,0.0319,-0.1097,-1.6234647236266078,-0.009868916124105453,2.3834145069122314,-1.5994164943695068,0.0018526409985497594,2.189060926437378,4.261289282436035,-7.13473345967941e-05,0.28774333000183105,-1.3203743139850062,-0.00013071521243546158,-0.021415702998638153,0.898756742477417,-0.0,-0.00808710977435112,1.196937084197998,0.002803297946229577,-0.021837156265974045
204.0,249.0,4.1581,-2.6237,7.7994,-0.0348,0.0319,-0.1097,-1.6235248051085414,-0.012211771681904793,2.3664917945861816,-1.5994564294815063,0.000848275376483798,2.1917295455932617,4.261297388667725,-4.409656685311347e-05,0.2837938070297241,-1.3203261534320276,-0.00012186500680400059,-0.0416533425450325,0.8987851142883301,-0.0,0.0077449786476790905,1.196937084197998,0.0014411447336897254,0.00045444327406585217
204.0,249.0,4.1581,-2.6237,7.7994,-0.0348,0.0319,-0.1097,-1.623608728448385,-0.012484496459364891,2.424342632293701,-1.5993881225585938,0.00042654399294406176,2.1694374084472656,4.261297388667725,-4.105530751985498e-05,0.2875020503997803,-1.320350472127096,-0.00011413727042963728,-0.020162876695394516,0.8988178372383118,-0.0,0.0033925557509064674,1.196945309638977,0.0008586627664044499,0.015851108357310295
204.0,249.0,4.1581,-2.6237,7.7994,-0.0348,0.0319,-0.1097,-1.6236840687193812,-0.011349962092936039,2.3346810340881348,-1.5994164943695068,0.00021693954477086663,2.1945204734802246,4.261340780849121,-3.7622725358232856e-05,0.2919658422470093,-1.32037860551943,-0.00010523947275942191,-0.02803845889866352,0.8988096117973328,-0.0,0.0013556275516748428,1.1969010829925537,3.259348159190267e-05,0.0004486091202124953
204.0,249.0,4.1581,-2.6237,7.7994,-0.0348,0.0319,-0.1097,-1.6238123379149378,-0.012144560925662518,2.4561524391174316,-1.5994443893432617,-0.0001310444058617577,2.217874526977539,4.261269732112549,-3.5402739740675315e-05,0.2776970863342285,-1.320362393056051,-9.942625183612108e-05,-0.030901240184903145,0.8987330198287964,-0.0,0.010263204574584961,1.1968891620635986,7.870944174204197e-11,0.0035894978791475296
204.0,249.0,4.1581,-2.6237,7.7994,-0.0348,0.0319,-0.1097,-1.623880525628561,-0.012451497837901115,2.404203176498413,-1.5993919372558594,-0.00015911349328234792,2.2326488494873047,4.261305971736572,-3.3430194889660925e-05,0.29025793075561523,-1.320350472127096,-9.422165021533147e-05,-0.022642765194177628,0.898760974407196,-0.0,-0.002226087497547269,1.1969051361083984,-0.00047793518751859665,0.028755228966474533
204.0,249.0,4.1581,-2.6237,7.7994,-0.0348,0.0319,-0.1097,-1.6239363155760707,-0.013209682889282703,2.419586658477783,-1.5994644165039062,-0.00018233178707305342,2.1980156898498535,4.261289282436035,-3.166582973790355e-05,0.2980227470397949,-1.3203142325030726,-7.486773392884061e-05,-0.023140937089920044,0.898760974407196,-0.0,0.013329628854990005,1.1968450546264648,-0.0023547171149402857,0.028104979544878006
204.0,249.0,4.1581,-2.6237,7.7994,-0.0348,0.0319,-0.1097,-1.6240798435606898,-0.014515945687890053,2.3660807609558105,-1.5994198322296143,-0.00035681811277754605,2.165693998336792,4.261329336757324,-2.958402910735458e-05,0.29787594079971313,-1.3203423658954065,-6.997166929068044e-05,-0.025764020159840584,0.8988256454467773,-0.0,-0.007879774086177349,1.1968413591384888,-0.0024952716194093227,-0.014594325795769691
204.0,249.0,4.1581,-2.6237,7.7994,-0.0348,0.0319,-0.1097,-1.6241566143431605,-0.014171444810926914,2.4223177433013916,-1.5994644165039062,-0.0002883080451283604,2.2267792224884033,4.261253042812012,-2.819389192154631e-05,0.29710376262664795,-1.3203299681292933,-6.685313564958051e-05,-0.030930712819099426,0.8987929821014404,-0.0,0.0007519617211073637,1.196752905845642,-0.0028944986406713724,0.021130187436938286
209.0,258.0,4.2616,-2.6363,7.8808,-0.0625,0.0283,-0.1177,-1.624240060845846,-0.011479970067739487,2.3892412185668945,-1.5994198322296143,-0.00024182087508961558,2.195927143096924,4.2612854677387695,-2.6928522856906056e-05,0.290742963552475,-1.3203380743609827,-6.400072015821934e-05,-0.02464279904961586,0.8987810611724854,-0.0,-0.0060267881490290165,1.1967692375183105,-0.0037222362589091063,0.02113620936870575
209.0,258.0,4.2616,-2.6363,7.8808,-0.0625,0.0283,-0.1177,-1.624324461022848,-0.008083940483629704,2.4021551609039307,-1.599412441253662,-0.00019903459178749472,2.212423324584961,4.261317415828369,-1.2732313734886702e-05,0.28818005323410034,-1.3203099409686487,-6.0555728850886226e-05,-0.024543432518839836,0.8988416194915771,-0.0,-0.0037165931425988674,1.196725606918335,-0.005409542471170425,-0.06362961232662201
209.0,258.0,4.2616,-2.6363,7.8808,-0.0625,0.0283,-0.1177,-1.6243678532042445,-0.005980476271361113,2.4498813152313232,-1.5994043350219727,-0.00017571714124642313,2.218876600265503,4.261313124293945,-1.2187929314677604e-05,0.2762349247932434,-1.3203142325030726,-5.820595470140688e-05,-0.030862532556056976,0.8988137245178223,-0.0,0.0008281008340418339,1.1967136859893799,-0.005239224527031183,-0.010761074721813202
209.0,258.0,4.2616,-2.6363,7.8808,-0.0625,0.0283,-0.1177,-1.6243835888304652,-0.004506621975451708,2.3727736473083496,-1.5994644165039062,-0.00015729086589999497,2.210568428039551,4.261313124293945,-1.8680455468711443e-05,0.2893221974372864,-1.3203466574298304,-5.603171666734852e-05,-0.026588978245854378,0.8988013863563538,-0.0,-0.00021296273916959763,1.1966253519058228,-0.003898520488291979,-0.03384704142808914
209.0,258.0,4.2616,-2.6363,7.8808,-0.0625,0.0283,-0.1177,-1.6244121990599574,-0.003545677987858653,2.410158395767212,-1.5994004011154175,-0.00011389516294002533,2.2108700275421143,4.261313124293945,-1.7695709175313823e-05,0.29713720083236694,-1.3203261534320276,-5.4014064517105e-05,-0.041096851229667664,0.898817777633667,-0.0,-0.0011875599157065153,1.1966817378997803,-0.0021187704987823963,-0.006783070974051952
209.0,258.0,4.2616,-2.6363,7.8808,-0.0625,0.0283,-0.1177,-1.624439378777975,-0.0021279589273035526,2.3895246982574463,-1.5994197130203247,7.181066030170768e-05,2.2172300815582275,4.261293573970459,-1.6405474525527097e-05,0.28179967403411865,-1.3203099409686487,-5.153956590220332e-05,-0.026066016405820847,0.8988256454467773,-0.0,-0.004167175851762295,1.1967178583145142,-0.0009048558422364295,-0.0330684632062912
209.0,258.0,4.2616,-2.6363,7.8808,-0.0625,0.0283,-0.1177,-1.6244398556151332,-0.0014565668534487486,2.4041502475738525,-1.5994043350219727,0.00012808581232093275,2.1696438789367676,4.261337919826172,-1.555485141579993e-05,0.2866590917110443,-1.3203423658954065,-4.982751124771312e-05,-0.03499332070350647,0.8987929821014404,-0.0,-0.003999724052846432,1.1966776847839355,-0.00045125422184355557,0.002117253839969635
209.0,258.0,4.2616,-2.6363,7.8808,-0.0625,0.0283,-0.1177,-1.6244036159911097,-0.0007639003451913595,2.4352383613586426,-1.5994040966033936,0.00014636873675044626,2.157231330871582,4.261293573970459,-1.4788067346671596e-05,0.2946942150592804,-1.320362393056051,-2.7361965138084088e-08,-0.014682561159133911,0.8988010883331299,-0.0,-0.013472337275743484,1.1966859102249146,-0.0003278766234871,0.007293170318007469
209.0,258.0,4.2616,-2.6363,7.8808,-0.0625,0.0283,-0.1177,-1.6244274578490199,-0.0006253337487578392,2.4374637603759766,-1.5993638038635254,0.0006182895740494132,2.165966272354126,4.261284990901611,-1.3876064258511178e-05,0.29027485847473145,-1.3203585783587855,-4.972902515124056e-13,-0.02263529598712921,0.8988053798675537,-0.0,0.0015657999319955707,1.1967054605484009,-0.00018118481966666877,0.016149375587701797
209.0,258.0,4.2616,-2.6363,7.8808,-0.0625,0.0283,-0.1177,-1.6244193516173304,-0.0005517067620530725,2.420212745666504,-1.599344253540039,0.0007707335171289742,2.1500487327575684,4.261313124293945,-1.326263645751169e-05,0.2894732356071472,-1.320366684590475,-1.384225477567714e-16,-0.03621748462319374,0.8988053798675537,-0.0,-0.004950564820319414,1.196669578552246,0.00028301222482696176,0.06603635102510452
209.0,258.0,4.2616,-2.6363,7.8808,-0.0625,0.0283,-0.1177,-1.624439378777975,-0.001022579031996429,2.4010276794433594,-1.5994120836257935,0.0009315608185715973,2.154634475708008,4.261349363917969,-1.2701132618531119e-05,0.3047149181365967,-1.320362393056051,-3.8530428361889485e-20,-0.029866252094507217,0.8988296389579773,-0.0,-0.003008481813594699,1.1967378854751587,0.0011472334153950214,0.0181474257260561
209.0,258.0,4.2616,-2.6363,7.8808,-0.0625,0.0283,-0.1177,-1.6244555912413539,-0.0015796390362083912,2.3899667263031006,-1.5993123054504395,0.0011013027979061007,2.1647024154663086,4.261308832759521,-5.339342479260267e-08,0.2951887845993042,-1.3203423658954065,-1.0725086232398912e-23,-0.03892524912953377,0.8987887501716614,-0.0,-0.007712355814874172,1.1966732740402222,0.0012030068319290876,-0.0031696204096078873
209.0,258.0,4.2616,-2.6363,7.8808,-0.0625,0.0283,-0.1177,-1.6244880161681117,-0.002402818063274026,2.4405221939086914,-1.599335789680481,0.0011798194609582424,2.201151132583618,4.261337919826172,-9.70399108290998e-13,0.29066866636276245,-1.320350472127096,-1.9492316504137555e-28,-0.0336463525891304,0.8988053798675537,-0.0,-0.005925970617681742,1.1967016458511353,0.001015413785353303,0.0011721912305802107
203.0,239.0,4.2425,-3.0909,8.0626,-0.0444,0.0495,-0.1202,-1.6245199642577113,-0.0038639905396848917,2.4518322944641113,-1.5993359088897705,0.0009866312611848116,2.177255868911743,4.2613417345234375,-2.701141481981865e-16,0.2797711491584778,-1.320334259663717,-5.425758074702028e-32,-0.03632616996765137,0.8988258838653564,-0.0,-0.003757186233997345,1.196717619895935,0.0007912173750810325,-0.002843056805431843
203.0,239.0,4.2425,-3.0909,8.0626,-0.0444,0.0495,-0.1202,-1.624551912347311,-0.005245676264166832,2.413395643234253,-1.5992802381515503,0.000735159614123404,2.1691250801086426,4.261305018062256,-7.518727971164929e-20,0.28050827980041504,-1.3203461805926722,-1.5102795041225425e-35,-0.03504612296819687,0.8987887501716614,-0.0,-0.0034754606895148754,1.196709394454956,0.0006212851731106639,-0.013546445406973362
203.0,239.0,4.2425,-3.0909,8.0626,-0.0444,0.0495,-0.1202,-1.624632020989889,-0.00613764114677906,2.432924509048462,-1.5993603467941284,0.0004946992266923189,2.1951403617858887,4.261377497310303,-1.3664912868641616e-24,0.2962556481361389,-1.3203700224505823,-2.7448634319194517e-40,-0.027471501380205154,0.8988136649131775,-0.0,-0.002905377186834812,1.1967294216156006,0.0005429257871583104,-0.015144910663366318
203.0,239.0,4.2425,-3.0909,8.0626,-0.0444,0.0495,-0.1202,-1.6245953045287074,-0.006347409449517727,2.4150943756103516,-1.5992798805236816,0.00038802213384769857,2.1551570892333984,4.261317415828369,-3.8036791400969793e-28,0.29851633310317993,-1.3203142325030726,-7.707141553786494e-44,-0.03871699050068855,0.8987970352172852,-0.0,-0.0031848885118961334,1.1967294216156006,0.00041155738290399313,0.008153680711984634
203.0,239.0,4.2425,-3.0909,8.0626,-0.0444,0.0495,-0.1202,-1.624683519402975,-0.006964586675167084,2.4075734615325928,-1.5993483066558838,0.0003192000731360167,2.1898794174194336,4.261345072383545,-1.0587681144339396e-31,0.2956799566745758,-1.320305649434225,-0.0,-0.036045536398887634,0.8987770080566406,-0.0,-0.005791865289211273,1.1967215538024902,0.0003861651639454067,0.021936533972620964
203.0,239.0,4.2425,-3.0909,8.0626,-0.0444,0.0495,-0.1202,-1.6247755489745082,-0.008167349733412266,2.4154653549194336,-1.5993560552597046,0.0002711157430894673,2.2056386470794678,4.261293573970459,-2.9471204578549434e-35,0.2952175736427307,-1.3203380743609827,-0.0,-0.03379862755537033,0.8987610340118408,-0.0,-0.014458887279033661,1.1967973709106445,0.0003179688355885446,-0.019894002005457878
203.0,239.0,4.2425,-3.0909,8.0626,-0.0444,0.0495,-0.1202,-1.624807973901266,-0.00867709144949913,2.4308948516845703,-1.599344253540039,0.0002257717278553173,2.1585006713867188,4.261317415828369,-5.356239172127321e-40,0.2883550524711609,-1.3203218618976038,-0.0,-0.05505097657442093,0.8987888097763062,-0.0,-0.005403841845691204,1.1967092752456665,0.00029848518897779286,-0.004457567818462849
203.0,239.0,4.2425,-3.0909,8.0626,-0.0444,0.0495,-0.1202,-1.6248389683165492,-0.008539174683392048,2.4051027297973633,-1.5993205308914185,0.0002340364590054378,2.1973934173583984,4.2613536554523925,-1.485376372184306e-43,0.30255305767059326,-1.3203585783587855,-0.0,-0.05151635408401489,0.8988137245178223,-0.0,-0.009222753345966339,1.1967613697052002,0.00026268031797371805,-0.0035587558522820473
203.0,239.0,4.2425,-3.0909,8.0626,-0.0444,0.0495,-0.1202,-1.6249481640257777,-0.008368386887013912,2.4172253608703613,-1.5993366241455078,0.00021057350386399776,2.171881675720215,4.261353178615234,-0.0,0.29991406202316284,-1.3203180472003382,-0.0,-0.039214830845594406,0.8988054394721985,-0.0,0.0004670770140364766,1.1967215538024902,0.00023347465321421623,-0.03913106396794319
203.0,239.0,4.2425,-3.0909,8.0626,-0.0444,0.0495,-0.1202,-1.625035902062887,-0.00829521007835865,2.466292142868042,-1.599327802658081,0.00021120485325809568,2.199672222137451,4.261357470149658,-0.0,0.29566648602485657,-1.3203099409686487,-0.0,-0.03926409035921097,0.8987929821014404,-0.0,-0.005582477431744337,1.1967893838882446,0.00020333222346380353,0.02854420617222786
203.0,239.0,4.2425,-3.0909,8.0626,-0.0444,0.0495,-0.1202,-1.6250635586180628,-0.008499949239194393,2.4315528869628906,-1.5993603467941284,0.00019502462237142026,2.2217516899108887,4.261381312007568,-0.0,0.30857598781585693,-1.3203585783587855,-0.0,-0.044101282954216,0.8987769484519958,-0.0,-0.008619221858680248,1.1967134475708008,0.00018538229051046073,-0.02986932545900345
203.0,239.0,4.2425,-3.0909,8.0626,-0.0444,0.0495,-0.1202,-1.625103612939352,-0.00852771196514368,2.41916561126709,-1.59934401512146,0.0001803679479053244,2.1969776153564453,4.261317415828369,-0.0,0.31108590960502625,-1.3203423658954065,-0.0,-0.05828674137592316,0.8988213539123535,-0.0,0.0022851163521409035,1.1968177556991577,0.0001703446905594319,0.019033843651413918
203.0,239.0,4.2425,-3.0909,8.0626,-0.0444,0.0495,-0.1202,-1.6251594028868617,-0.008551090955734253,2.425339698791504,-1.5993560552597046,0.00011648312647594139,2.194793224334717,4.261336966151855,-0.0,0.30678391456604004,-1.3203743139850062,-0.0,-0.04122530296444893,0.8987446427345276,-0.0,-0.010754026472568512,1.1967532634735107,0.00015756342327222228,0.024814413860440254
203.0,239.0,4.2425,-3.0909,8.0626,-0.0444,0.0495,-0.1202,-1.625223299066061,-0.00957073550671339,2.400280475616455,-1.59934401512146,0.00010548628051765263,2.2182929515838623,4.2613569933125,-0.0,0.30903637409210205,-1.3203218618976038,-0.0,-0.030928347259759903,0.8987686038017273,-0.0,0.00081759033491835,1.196793556213379,5.376618355512619e-05,-0.02693394385278225
205.0,239.0,4.2102,-2.54,7.9155,-0.0458,0.0214,-0.1266,-1.625303407708639,-0.010217390023171902,2.455531120300293,-1.5993717908859253,9.855546522885561e-05,2.1950490474700928,4.261273069972656,-0.0,0.3091994822025299,-1.3202856222735804,-0.0,-0.0353696346282959,0.8988213539123535,-0.0,-0.0015127466758713126,1.1967369318008423,4.8988349590217695e-05,0.03771103173494339
205.0,239.0,4.2102,-2.54,7.9155,-0.0458,0.0214,-0.1266,-1.6253510914244593,-0.011258960701525211,2.4297990798950195,-1.59929621219635,9.24791966099292e-05,2.158660888671875,4.261332674617432,-0.0,0.3141225278377533,-1.320305649434225,-0.0,-0.018381230533123016,0.8988292217254639,-0.0,-0.002068439731374383,1.1967933177947998,4.52905151178129e-05,0.012136771343648434
205.0,239.0,4.2102,-2.54,7.9155,-0.0458,0.0214,-0.1266,-1.6254149876036585,-0.011989125981926918,2.3480613231658936,-1.5993285179138184,8.545457239961252e-05,2.1822214126586914,4.261313124293945,-0.0,0.2977111339569092,-1.3203380743609827,-0.0,-0.02120186761021614,0.8988296389579773,-0.0,0.006497738882899284,1.1967613697052002,4.114906914765015e-05,-0.03884035348892212
205.0,239.0,4.2102,-2.54,7.9155,-0.0458,0.0214,-0.1266,-1.6255032024779261,-0.013696192763745785,2.3955559730529785,-1.5993164777755737,8.084879664238542e-05,2.19581937789917,4.261385603541992,-0.0,0.29963529109954834,-1.3203704992877405,-0.0,-0.031260546296834946,0.8988173007965088,-0.0,-0.006410436704754829,1.1967655420303345,3.8508100260514766e-05,0.0072145648300647736
205.0,239.0,4.2102,-2.54,7.9155,-0.0458,0.0214,-0.1266,-1.6256233654417933,-0.015882130712270737,2.34934663772583,-1.5993406772613525,7.671399362152442e-05,2.2152209281921387,4.261345072383545,-0.0,0.3028632402420044,-1.3203743139850062,-0.0,-0.021462472155690193,0.8988132476806641,-0.0,-0.004354344215244055,1.19677734375,3.618567643570714e-05,-0.059091344475746155
205.0,239.0,4.2102,-2.54,7.9155,-0.0458,0.0214,-0.1266,-1.6257106266417445,-0.018684905022382736,2.329049825668335,-1.5993399620056152,7.298160198843107e-05,2.1698896884918213,4.261321707362793,-0.0,0.3134271204471588,-1.320305649434225,-0.0,-0.01727675274014473,0.8987727165222168,-0.0,-0.00557293277233839,1.1967450380325317,3.412751902942546e-05,-0.03836941346526146
205.0,239.0,4.2102,-2.54,7.9155,-0.0458,0.0214,-0.1266,-1.625878473321432,-0.023562351241707802,2.2820279598236084,-1.5992960929870605,6.853556988062337e-05,2.1854326725006104,4.261297388667725,-0.0,0.3060848116874695,-1.3203542868243616,-0.0,-0.030851203948259354,0.8988096117973328,-0.0,-0.008794886991381645,1.19677734375,3.172176730004139e-05,-0.017863590270280838
205.0,239.0,4.2102,-2.54,7.9155,-0.0458,0.0214,-0.1266,-1.626031061212057,-0.02821376547217369,2.275546073913574,-1.5993684530258179,6.554102583322674e-05,2.1841602325439453,4.2613536554523925,-0.0,0.2982819080352783,-1.320350472127096,-0.0,-0.017684750258922577,0.8987887501716614,-0.0,-0.0062999725341796875,1.19677734375,3.0128907383186743e-05,-0.060710154473781586
205.0,239.0,4.2102,-2.54,7.9155,-0.0458,0.0214,-0.1266,-1.6262504063048304,-0.03208891302347183,2.355802297592163,-1.5993521213531494,6.279718945734203e-05,2.171231269836426,4.261301680202148,-0.0,0.29125797748565674,-1.3203099409686487,-0.0,-0.016138847917318344,0.8988292217254639,-0.0,0.0005537205142900348,1.1967573165893555,2.8688366001006216e-05,0.020088689401745796
205.0,239.0,4.2102,-2.54,7.9155,-0.0458,0.0214,-0.1266,-1.626542707482809,-0.03823655843734741,2.3311986923217773,-1.5993521213531494,5.9477239119587466e-05,2.1640048027038574,4.261340780849121,1.6109022908494808e-05,0.29831671714782715,-1.3203585783587855,-0.0,-0.02499714121222496,0.8988096117973328,-0.0,-0.008349495008587837,1.1967613697052002,2.696905539778527e-05,-0.02916698157787323
205.0,239.0,4.2102,-2.54,7.9155,-0.0458,0.0214,-0.1266,-1.6267906628050746,-0.04474295675754547,2.2561326026916504,-1.5993164777755737,5.720889748772606e-05,2.1674301624298096,4.261353178615234,2.8623342586797662e-05,0.30638715624809265,-1.3203704992877405,-0.0,-0.02273651398718357,0.8988332748413086,-0.0,0.0001376601867377758,1.1967369318008423,1.2904777577205095e-05,-0.07289155572652817
205.0,239.0,4.2102,-2.54,7.9155,-0.0458,0.0214,-0.1266,-1.627054353753561,-0.052463140338659286,2.250948667526245,-1.5993205308914185,5.510718619916588e-05,2.1808950901031494,4.261313124293945,2.7323549147695303e-05,0.3087323307991028,-1.3203466574298304,-0.0,-0.013598157092928886,0.8988255858421326,-0.0,-0.0006958541343919933,1.1967450380325317,1.2372309356578626e-05,0.007790273055434227
205.0,239.0,4.2102,-2.54,7.9155,-0.0458,0.0214,-0.1266,-1.6274224720396937,-0.05951383709907532,2.241692543029785,-1.5992881059646606,5.315445378073491e-05,2.1462552547454834,4.261357470149658,1.317978876613779e-05,0.2940944731235504,-1.3202937285052698,-0.0,-0.02753077633678913,0.8988053202629089,-0.0,-0.006369478069245815,1.1967450380325317,8.748744090292249e-11,0.0055845389142632484
205.0,239.0,4.2102,-2.54,7.9155,-0.0458,0.0214,-0.1266,-1.6279298267760218,-0.06960359215736389,2.214589834213257,-1.5993520021438599,5.0756345444824547e-05,2.1494951248168945,4.261284990901611,1.234954470419325e-05,0.2971450388431549,-1.3203542868243616,-0.0,-0.016696730628609657,0.8987846970558167,-0.0,0.006535549648106098,1.19673752784729,2.8344814002668306e-18,-0.048528917133808136
201.0,241.0,3.7759,-2.5137,7.8371,-0.0318,0.0136,-0.1261,-1.628430028954977,-0.07932542264461517,2.2103395462036133,-1.5992761850357056,6.659390123786579e-07,2.123159646987915,4.261340780849121,1.1861264283652417e-05,0.2966824471950531,-1.3203466574298304,-0.0,-0.015750933438539505,0.8987846970558167,-0.0,0.0043425243347883224,1.1967296600341797,6.844938974854572e-24,-0.025697827339172363
201.0,241.0,3.7759,-2.5137,7.8371,-0.0318,0.0136,-0.1261,-1.6288649044432582,-0.08858922123908997,2.1550426483154297,-1.5993366241455078,1.6081645563825742e-12,2.171250104904175,4.261308832759521,1.9405652551540697e-07,0.2950006127357483,-1.3203466574298304,-0.0,-0.0235750749707222,0.8988251686096191,-0.0,0.016523677855730057,1.1967335939407349,1.65297240726754e-29,-0.02629961259663105
201.0,241.0,3.7759,-2.5137,7.8371,-0.0318,0.0136,-0.1261,-1.6296326122679652,-0.09595782309770584,2.2556416988372803,-1.5992920398712158,5.210249442875559e-20,2.113863229751587,4.2613255220600585,3.5268816946792958e-12,0.2866348922252655,-1.3203180472003382,-0.0,-0.02860688418149948,0.8987846970558167,-0.0,0.0038927337154746056,1.1967296600341797,-8.268442616099492e-05,-0.018681254237890244
201.0,241.0,3.7759,-2.5137,7.8371,-0.0318,0.0136,-0.1261,-1.630232950250143,-0.0911782905459404,2.2298851013183594,-1.5993366241455078,1.258213915342949e-25,2.137171983718872,4.261301680202148,9.817203973510355e-16,0.28936368227005005,-1.3203547636615198,-0.0,-0.02652202546596527,0.8987932205200195,-0.0,-0.004462591838091612,1.1967134475708008,-0.0003640626964624971,-0.013593336567282677
201.0,241.0,3.7759,-2.5137,7.8371,-0.0318,0.0136,-0.1261,-1.63078035930776,-0.08673856407403946,2.217796802520752,-1.5993684530258179,3.0384387218048934e-31,2.158080816268921,4.261317415828369,2.732654743078517e-19,0.28486430644989014,-1.3203218618976038,-0.0,-0.03831210732460022,0.898801326751709,-0.0,0.01096680574119091,1.1967337131500244,-0.00040176257607527077,-0.07728999853134155
201.0,241.0,3.7759,-2.5137,7.8371,-0.0318,0.0136,-0.1261,-1.6313072643675746,-0.09039212018251419,2.2291641235351562,-1.5993678569793701,7.827539505456116e-09,2.128063201904297,4.261284990901611,7.606444866009597e-23,0.2730902433395386,-1.3203218618976038,-0.0,-0.007436999119818211,0.8987887501716614,-0.0,0.013300327584147453,1.1967498064041138,-0.00034566965769045055,-0.024437470361590385
201.0,241.0,3.7759,-2.5137,7.8371,-0.0318,0.0136,-0.1261,-1.632127424279684,-0.10275162756443024,2.212707757949829,-1.599380373954773,-0.0017055169446393847,2.150014638900757,4.261305971736572,1.382433862232119e-27,0.285304993391037,-1.3203380743609827,-0.0,-0.025999683886766434,0.8987892866134644,-0.0,0.0015711034648120403,1.1967136859893799,-0.00028997857589274645,-0.09884397685527802
201.0,241.0,3.7759,-2.5137,7.8371,-0.0318,0.0136,-0.1261,-1.6326824627318324,-0.11434812843799591,2.179826259613037,-1.599416732788086,-0.0006644831737503409,2.104356288909912,4.261297388667725,3.84805504865973e-31,0.2800937294960022,-1.320350472127096,-0.0,-0.02243628166615963,0.8988132476806641,-0.0,-0.008592472411692142,1.1966813802719116,-0.00028342081350274384,-0.042015209794044495
201.0,241.0,3.7759,-2.5137,7.8371,-0.0318,0.0136,-0.1261,-1.633334299127096,-0.123151995241642,2.1357715129852295,-1.599360466003418,0.0019310131901875138,2.127751350402832,4.261349363917969,-0.0001617552770767361,0.285441517829895,-1.3203018347369593,-0.0,-0.02003045193850994,0.8988729119300842,-0.0,-0.00014234171248972416,1.1967055797576904,-0.00028602409292943776,-0.01784481108188629
201.0,241.0,3.7759,-2.5137,7.8371,-0.0318,0.0136,-0.1261,-1.6343018017210902,-0.12384707480669022,2.210540294647217,-1.5992763042449951,0.0039080604910850525,2.0902462005615234,4.261317415828369,-1.5418818577472848e-07,0.27961617708206177,-1.3203337828265589,-0.0,-0.020453032106161118,0.8988053798675537,-0.0,-0.002355303382501006,1.1967055797576904,-0.0004637761740013957,-0.057936545461416245
201.0,241.0,3.7759,-2.5137,7.8371,-0.0318,0.0136,-0.1261,-1.6350122890868128,-0.12152177095413208,2.164444923400879,-1.5992364883422852,0.006287099793553352,2.132333755493164,4.261317415828369,-4.291883515250561e-11,0.2817384600639343,-1.3203180472003382,-0.0,-0.013439853675663471,0.8987929821014404,-0.0,0.007221475709229708,1.1966813802719116,-0.00043718493543565273,-0.05070413649082184
201.0,241.0,3.7759,-2.5137,7.8371,-0.0318,0.0136,-0.1261,-1.6358009777464808,-0.11758879572153091,2.1587719917297363,-1.5992001295089722,0.006825808901339769,2.1476755142211914,4.2613536554523925,-1.1946614521479802e-14,0.28295379877090454,-1.3202975432025355,-0.0,-0.013752883300185204,0.8987886905670166,-0.0,0.01305773202329874,1.1967096328735352,-0.00035372530692256987,-0.05438155680894852
201.0,241.0,3.7759,-2.5137,7.8371,-0.0318,0.0136,-0.1261,-1.6365720234312953,-0.12015935778617859,2.1705217361450195,-1.5992000102996826,0.005285198334604502,2.1306705474853516,4.261324568385742,-3.3253843492907663e-18,0.2768322825431824,-1.320305649434225,-0.0,-0.028421150520443916,0.8987851142883301,-0.0,0.010189149528741837,1.1967219114303589,-0.000246351701207459,-0.05507814139127731
201.0,241.0,3.7759,-2.5137,7.8371,-0.0318,0.0136,-0.1261,-1.6375428638853968,-0.12555624544620514,2.16898512840271,-1.599184513092041,0.0008443846018053591,2.1199514865875244,4.261349363917969,-6.043722141275084e-23,0.30037644505500793,-1.3203023115741175,-0.0,-0.018326904624700546,0.8987686634063721,-0.0,-0.014205117709934711,1.196685552597046,-0.00020209321519359946,-0.10407137125730515
207.0,254.0,4.7611,-2.8313,8.0255,-0.0696,-0.1358,-0.1552,-1.6383072338499964,-0.13292734324932098,2.1997570991516113,-1.5992165803909302,-0.001994399121031165,2.1337618827819824,4.261389418239258,0.00022952044673729688,0.2900087833404541,-1.3202899138080042,-0.0,-0.036189813166856766,0.8988132476806641,-0.0,-0.006114490330219269,1.1966813802719116,-0.0002095070231007412,-0.07228922843933105
207.0,254.0,4.7611,-2.8313,8.0255,-0.0696,-0.1358,-0.1552,-1.6390539608397425,-0.1378583014011383,2.1822752952575684,-1.599224328994751,-0.001341977738775313,2.1427693367004395,4.261409445399902,0.00029764874489046633,0.29087284207344055,-1.3203337828265589,-0.0,-0.026372043415904045,0.898801326751709,-0.0,-0.006422189064323902,1.196621298789978,-0.00022158300271257758,-0.08169303089380264
207.0,254.0,4.7611,-2.8313,8.0255,-0.0696,-0.1358,-0.1552,-1.640125413934225,-0.13985353708267212,2.154585838317871,-1.5991764068603516,-6.234210559341591e-06,2.156691312789917,4.2614051538654785,0.0003231425944250077,0.30324217677116394,-1.3203180472003382,-0.0,-0.045032989233732224,0.898801326751709,-0.0,-0.0010090633295476437,1.1966776847839355,-0.00021598853345494717,-0.05538812652230263
207.0,254.0,4.7611,-2.8313,8.0255,-0.0696,-0.1358,-0.1552,-1.6409012279906214,-0.12898285686969757,2.2326388359069824,-1.5991761684417725,0.002552228979766369,2.1618072986602783,4.261377497310303,0.0006895711412653327,0.2938632071018219,-1.3203380743609827,-0.0,-0.030220501124858856,0.8987248539924622,-0.0,0.004646711982786655,1.1966654062271118,-0.00027036803658120334,-0.034886520355939865
207.0,254.0,4.7611,-2.8313,8.0255,-0.0696,-0.1358,-0.1552,-1.6416360340514125,-0.12377054989337921,2.216794490814209,-1.5991318225860596,0.0033293466549366713,2.197300434112549,4.261445685023926,0.000976759591139853,0.29181113839149475,-1.3203299681292933,-7.404542312627882e-09,-0.036678995937108994,0.898760974407196,-0.0,0.0152483144775033,1.1966899633407593,-0.0008623669273220003,-0.04747041314840317
207.0,254.0,4.7611,-2.8313,8.0255,-0.0696,-0.1358,-0.1552,-1.642407556573385,-0.12508568167686462,2.2268121242523193,-1.5991644859313965,0.0021899256389588118,2.1041202545166016,4.261413736934326,0.0006356812664307654,0.29994091391563416,-1.3203299681292933,-2.0610815571614483e-12,-0.025740906596183777,0.898833692073822,-0.0,0.0044997637160122395,1.1966899633407593,-0.0007016829331405461,-0.09987662732601166
207.0,254.0,4.7611,-2.8313,8.0255,-0.0696,-0.1358,-0.1552,-1.6433984241881312,-0.12967902421951294,2.214958906173706,-1.5991203784942627,0.00033285623067058623,2.1469712257385254,4.261417551631592,0.00043198346975259483,0.28885331749916077,-1.3203218618976038,-3.7459142045982325e-17,-0.027622662484645844,0.898760974407196,-0.0,0.0044507114216685295,1.1966859102249146,-0.00046642671804875135,-0.04611317813396454
207.0,254.0,4.7611,-2.8313,8.0255,-0.0696,-0.1358,-0.1552,-1.64422669033193,-0.13262449204921722,2.2299511432647705,-1.5991284847259521,2.410216382031649e-08,2.1922459602355957,4.261417551631592,0.0003483286709524691,0.29567497968673706,-1.3203337828265589,-1.0426891925598644e-20,-0.03337655961513519,0.8987887501716614,-0.0,-0.0028472086414694786,1.1966736316680908,-0.00042690447298809886,-0.05551590025424957
207.0,254.0,4.7611,-2.8313,8.0255,-0.0696,-0.1358,-0.1552,-1.6449338398375453,-0.12913839519023895,2.202789068222046,-1.599139928817749,5.820388929936998e-14,2.1695590019226074,4.261420889491699,0.00029182815342210233,0.30050069093704224,-1.3203142325030726,-2.902363631853758e-24,-0.047163669019937515,0.8987486958503723,-0.0,6.122421473264694e-05,1.1966817378997803,-0.0004597839724738151,-0.04894725978374481
207.0,254.0,4.7611,-2.8313,8.0255,-0.0696,-0.1358,-0.1552,-1.6459247074522914,-0.12129785865545273,2.2347521781921387,-1.5991079807281494,0.0017926718574017286,2.1556835174560547,4.261372728938721,0.0003198286867700517,0.29050445556640625,-1.3203542868243616,-5.274903043145465e-29,-0.0392083041369915,0.8988096117973328,-0.0,-0.0081935441121459,1.1966536045074463,-0.00045997253619134426,-0.09467557072639465
207.0,254.0,4.7611,-2.8313,8.0255,-0.0696,-0.1358,-0.1552,-1.646649023095602,-0.11438930779695511,2.3156981468200684,-1.5990962982177734,0.0021956099662929773,2.1006486415863037,4.261469526881836,0.0002384166291449219,0.31247463822364807,-1.3203581015216272,-1.4682886877770107e-32,-0.04342419654130936,0.8988256454467773,-0.0,-0.0064491224475204945,1.1966376304626465,-0.0004314671386964619,-0.10110969841480255
207.0,254.0,4.7611,-2.8313,8.0255,-0.0696,-0.1358,-0.1552,-1.647311349908346,-0.11565622687339783,2.266806125640869,-1.5991127490997314,0.002326853573322296,2.140725612640381,4.26141278326001,0.00028367916820570827,0.301175594329834,-1.3203142325030726,-4.087036159043035e-36,-0.043899066746234894,0.8987526893615723,-0.0,-0.0042099179700016975,1.1966536045074463,-0.00046520953765138984,-0.06633051484823227
207.0,254.0,4.7611,-2.8313,8.0255,-0.0696,-0.1358,-0.1552,-1.6480432949461878,-0.12101157009601593,2.3095109462738037,-1.5991047620773315,0.0017484549898654222,2.1569252014160156,4.261465235347412,0.0006279930821619928,0.31132999062538147,-1.3203299681292933,-1.1376413556651741e-39,-0.05081186443567276,0.8987805843353271,-0.0,-0.009950350970029831,1.1966056823730469,-0.00042605819180607796,-0.052312225103378296
208.0,281.0,4.5105,-2.7607,8.1254,-0.0571,-0.104,-0.1542,-1.6490422687926234,-0.12522819638252258,2.2861905097961426,-1.5990564823150635,0.001038934919051826,2.1450107097625732,4.261469050044678,0.0006379713886417449,0.29970303177833557,-1.320362393056051,-2.1019476964872256e-44,-0.06273043155670166,0.898760974407196,-0.0,-0.0050107818096876144,1.1966416835784912,-0.00043288752203807235,-0.025640513747930527
208.0,281.0,4.5105,-2.7607,8.1254,-0.0571,-0.104,-0.1542,-1.6498142681517542,-0.12520627677440643,2.2168426513671875,-1.599036455154419,0.0014815677423030138,2.1882126331329346,4.261432333583496,0.0011057248339056969,0.30999743938446045,-1.3203461805926722,-0.0,-0.052023936063051224,0.8988177180290222,-0.0,0.006269614212214947,1.1966137886047363,-0.0004822327755391598,-0.02620217762887478
208.0,281.0,4.5105,-2.7607,8.1254,-0.0571,-0.104,-0.1542,-1.6505409679808558,-0.1186499297618866,2.3424949645996094,-1.5990240573883057,0.0030333874747157097,2.1864161491394043,4.261472864741943,0.0018738498911261559,0.3030204176902771,-1.3203099409686487,-0.0,-0.06303426623344421,0.8987650871276855,-0.0,-0.000197479035705328,1.1966056823730469,-0.0008512086351402104,-0.11529478430747986
208.0,281.0,4.5105,-2.7607,8.1254,-0.0571,-0.104,-0.1542,-1.6514717541136683,-0.10762570053339005,2.2912304401397705,-1.5989959239959717,0.005123932845890522,2.2269821166992188,4.261472864741943,0.006523760035634041,0.3138176500797272,-1.3203256765948694,-0.0,-0.046594806015491486,0.8987686634063721,-0.0,-0.0012620496563613415,1.1966581344604492,-0.001035151770338416,-0.07669714093208313
208.0,281.0,4.5105,-2.7607,8.1254,-0.0571,-0.104,-0.1542,-1.652130743066305,-0.10699378699064255,2.2939059734344482,-1.5989519357681274,0.004245735239237547,2.159919500350952,4.261528654689453,0.01602860540151596,0.32067450881004333,-1.32037860551943,-0.0,-0.051028117537498474,0.8988213539123535,-0.0,-0.00921300332993269,1.1966015100479126,-0.0007973340107128024,-0.05660201981663704
208.0,281.0,4.5105,-2.7607,8.1254,-0.0571,-0.104,-0.1542,-1.652846475640768,-0.11577977985143661,2.300715446472168,-1.598940134048462,0.002222045324742794,2.21240234375,4.261660261745117,0.011305778287351131,0.3162318170070648,-1.3203023115741175,-0.0,-0.058723852038383484,0.8988096117973328,-0.0,-0.004205299075692892,1.196617841720581,-0.0006335262442007661,0.0010678730905056
208.0,281.0,4.5105,-2.7607,8.1254,-0.0571,-0.104,-0.1542,-1.6535583935179652,-0.1258171945810318,2.286372661590576,-1.5988836288452148,0.0009907521307468414,2.1608505249023438,4.261700792903564,0.0042100208811461926,0.3055906295776367,-1.3203423658954065,-0.0,-0.04978343844413757,0.8987247347831726,-0.0,-0.015361128374934196,1.1966379880905151,-0.0004968817811459303,-0.07461922615766525
208.0,281.0,4.5105,-2.7607,8.1254,-0.0571,-0.104,-0.1542,-1.6545168362059535,-0.13237501680850983,2.313849449157715,-1.5988645553588867,0.003397346707060933,2.170675277709961,4.2617079454609375,0.0013276670360937715,0.30966246128082275,-1.3203256765948694,-0.0,-0.05866008996963501,0.8987769484519958,-0.0,-0.008001470938324928,1.1965655088424683,-0.0005100616835989058,-0.01279138308018446
208.0,281.0,4.5105,-2.7607,8.1254,-0.0571,-0.104,-0.1542,-1.655311723748678,-0.1257336586713791,2.359365463256836,-1.598824143409729,0.007962511852383614,2.1248984336853027,4.2617761331745605,0.0008615937549620867,0.3114011883735657,-1.3203743139850062,-0.0,-0.050136834383010864,0.8987887501716614,-0.0,0.007745177485048771,1.1965937614440918,-0.0007043798686936498,-0.03169818967580795
208.0,281.0,4.5105,-2.7607,8.1254,-0.0571,-0.104,-0.1542,-1.6560584507384242,-0.11017821729183197,2.3132128715515137,-1.5987721681594849,0.012504874728620052,2.216179132461548,4.261736078853271,0.0027599954046308994,0.3132580518722534,-1.32031757036318,-0.0,-0.07363403588533401,0.8988255858421326,-0.0,0.004642651416361332,1.1966502666473389,-0.000986407045274973,-0.01080099307000637
208.0,281.0,4.5105,-2.7607,8.1254,-0.0571,-0.104,-0.1542,-1.6567861042418421,-0.098340705037117,2.364123582839966,-1.5987240076065063,0.013475697487592697,2.195899248123169,4.261784716243408,0.00427018478512764,0.3143821358680725,-1.3203619162188929,-7.671966886846349e-05,-0.0693422257900238,0.8988053798675537,-0.0,-0.005552627611905336,1.1966097354888916,-0.00036882542190141976,-0.05514223128557205
208.0,281.0,4.5105,-2.7607,8.1254,-0.0571,-0.104,-0.1542,-1.6576572857298792,-0.10540658235549927,2.358928918838501,-1.598632574081421,0.007448852062225342,2.174114465713501,4.261787577266357,0.0023433805909007788,0.3064683973789215,-1.3203581015216272,-9.123070049099624e-05,-0.06508535146713257,0.8988457322120667,-0.0,-0.01440068706870079,1.1965855360031128,-9.410960046807304e-05,-0.017361432313919067
208.0,281.0,4.5105,-2.7607,8.1254,-0.0571,-0.104,-0.1542,-1.658288141290182,-0.11946787685155869,2.3101139068603516,-1.59866464138031,0.0023947807494550943,2.1797263622283936,4.261755629176758,0.0007330341613851488,0.33190757036209106,-1.3203542868243616,-8.823267853586003e-05,-0.07096941769123077,0.8987805843353271,-0.0,-0.008933493867516518,1.196589708328247,-0.00014023302355781198,0.019678451120853424
208.0,281.0,4.5105,-2.7607,8.1254,-0.0571,-0.104,-0.1542,-1.6589833698668421,-0.12828364968299866,2.3426647186279297,-1.598628282546997,0.0005158268613740802,2.1487865447998047,4.261840506190918,0.0001996051869355142,0.32276925444602966,-1.3203700224505823,-8.467527368338779e-05,-0.06224428862333298,0.8988137245178223,-0.0,-0.0057126726023852825,1.196529507637024,-0.0001710441429167986,-0.010604451410472393
268.0,369.0,4.5589,-3.1364,7.0624,-0.0817,-0.0956,-0.152,-1.659898420373434,-0.12418016046285629,2.327352523803711,-1.598576545715332,0.004664980806410313,2.1817209720611572,4.261871500606201,0.0032834885641932487,0.3145659565925598,-1.320350472127096,-8.035522478166968e-05,-0.06172580271959305,0.8988337516784668,-0.0,0.0032518976368010044,1.1965737342834473,-0.001316758687607944,-0.01894987002015114
268.0,369.0,4.5589,-3.1364,7.0624,-0.0817,-0.0956,-0.152,-1.6606666050352992,-0.11650978773832321,2.3454370498657227,-1.598479151725769,0.009908082894980907,2.131535768508911,4.261892004604004,0.007486493792384863,0.328285813331604,-1.3203542868243616,-7.739380816929042e-05,-0.056670915335416794,0.8988296985626221,-0.0,-0.0025437234435230494,1.1965134143829346,-0.0023117060773074627,-0.022409291937947273
268.0,369.0,4.5589,-3.1364,7.0624,-0.0817,-0.0956,-0.152,-1.6613289318480433,-0.09909475594758987,2.4037880897521973,-1.59846830368042,0.013794060796499252,2.199632167816162,4.2619358736225585,0.008990338072180748,0.3332674503326416,-1.320390526448385,-8.530310878995806e-05,-0.08016689866781235,0.8987770080566406,-0.0,0.0024104679469019175,1.1965458393096924,-0.001817405573092401,-0.02435101382434368
268.0,369.0,4.5589,-3.1364,7.0624,-0.0817,-0.0956,-0.152,-1.661952634850973,-0.08582451939582825,2.421444892883301,-1.5983805656433105,0.014655105769634247,2.2256853580474854,4.262003584499023,0.007407166995108128,0.3245199918746948,-1.3203662077533167,-0.00015151957632042468,-0.06645847111940384,0.8987929821014404,-0.0,-0.015542772598564625,1.1965537071228027,-0.0006559532484970987,-0.004535816144198179
268.0,369.0,4.5589,-3.1364,7.0624,-0.0817,-0.0956,-0.152,-1.662715574304098,-0.08837314695119858,2.404918670654297,-1.598312258720398,0.007322036195546389,2.2107677459716797,4.261967344875,0.0018573778215795755,0.3279154300689697,-1.3203862349139612,-0.00015239583444781601,-0.07014377415180206,0.8988173007965088,-0.0,0.0007684810552746058,1.1965577602386475,-0.00011028839071514085,-0.02669532597064972
268.0,369.0,4.5589,-3.1364,7.0624,-0.0817,-0.0956,-0.152,-1.6632629833617152,-0.09795396775007248,2.3908863067626953,-1.598364233970642,0.0019270963966846466,2.1636741161346436,4.262003584499023,-0.0001296688278671354,0.3251880407333374,-1.3203619162188929,-0.00016597485227975994,-0.07608868926763535,0.8987846374511719,-0.0,-0.004899905063211918,1.196577787399292,-8.059034735197201e-05,-0.028612788766622543
268.0,369.0,4.5589,-3.1364,7.0624,-0.0817,-0.0956,-0.152,-1.6638385258116664,-0.10286073386669159,2.3738276958465576,-1.5983161926269531,-0.0009041106095537543,2.186859607696533,4.262023611659668,-6.315275982160529e-07,0.31585055589675903,-1.3203380743609827,-0.0001519888755865395,-0.06270371377468109,0.8987851142883301,-0.0,-0.01030635554343462,1.1965458393096924,-0.00012693167082034051,-0.0349666066467762
268.0,369.0,4.5589,-3.1364,7.0624,-0.0817,-0.0956,-0.152,-1.6644932232298792,-0.10018821060657501,2.344770908355713,-1.5982999801635742,0.0030773570761084557,2.143839120864868,4.2620836931416015,0.0006179798510856926,0.3272649347782135,-1.3203662077533167,-0.0001366078940918669,-0.06464982032775879,0.8987770080566406,-0.0,-0.0062776412814855576,1.1965175867080688,-0.0001351006212644279,-0.040223054587841034
268.0,369.0,4.5589,-3.1364,7.0624,-0.0817,-0.0956,-0.152,-1.6650854549803675,-0.09175791591405869,2.3361527919769287,-1.598292589187622,0.008663779124617577,2.2020697593688965,4.262055082912109,0.0036526373587548733,0.3292829394340515,-1.3203862349139612,-0.0001269711647182703,-0.060662537813186646,0.8988214135169983,-0.0,-0.0023706257343292236,1.1965057849884033,-0.0009202215587720275,0.011865095235407352
268.0,369.0,4.5589,-3.1364,7.0624,-0.0817,-0.0956,-0.152,-1.6655599079527796,-0.08180291950702667,2.414950370788574,-1.5981932878494263,0.013859342783689499,2.209911346435547,4.262139006251953,0.007937767542898655,0.3354341983795166,-1.3203461805926722,-0.00015680797514505684,-0.07045142352581024,0.898821234703064,-0.0,0.0007923347875475883,1.1965700387954712,-0.0008385262335650623,-0.02058340795338154
268.0,369.0,4.5589,-3.1364,7.0624,-0.0817,-0.0956,-0.152,-1.6661116085448207,-0.0776042565703392,2.4066696166992188,-1.5980687141418457,0.01927308365702629,2.214359760284424,4.2621795374104,0.010221203789114952,0.33686453104019165,-1.3203819433795374,-0.0002642458421178162,-0.09325610101222992,0.8988136649131775,-0.0,-0.008799715898931026,1.1965458393096924,-0.0003929405938833952,-1.7874641343951225e-05
268.0,369.0,4.5589,-3.1364,7.0624,-0.0817,-0.0956,-0.152,-1.6667429409422816,-0.08020447939634323,2.4215176105499268,-1.5978912115097046,0.02015269547700882,2.2218177318573,4.262206717128418,0.00927928276360035,0.31804946064949036,-1.3203900496112269,-0.001308907987549901,-0.08173322677612305,0.8987887501716614,-0.0,0.0026502928230911493,1.1965094804763794,-0.000267790601355955,-0.03530291095376015
268.0,369.0,4.5589,-3.1364,7.0624,-0.0817,-0.0956,-0.152,-1.6672588787474574,-0.08370526134967804,2.3869025707244873,-1.5977877378463745,0.018360260874032974,2.2550957202911377,4.262294455165527,0.006460510194301605,0.3288424015045166,-1.3203938643084925,-0.0011530481278896332,-0.08210377395153046,0.8987770080566406,-0.0,-0.0057758609764277935,1.1965175867080688,-0.00021892445511184633,0.0327693372964859
268.0,369.0,4.5589,-3.1364,7.0624,-0.0817,-0.0956,-0.152,-1.6677705250182093,-0.08524728566408157,2.3935346603393555,-1.5977444648742676,0.015573183074593544,2.2015554904937744,4.262278242702148,0.002657913602888584,0.32132798433303833,-1.3203900496112269,-0.0007500411011278629,-0.08709406107664108,0.8988213539123535,-0.0,-0.005069961305707693,1.1965258121490479,-5.573666567215696e-05,0.006170523352921009
409.0,628.0,5.7278,-3.7047,6.996,-0.0713,-0.1168,-0.1645,-1.6683932743468226,-0.081642284989357,2.4103734493255615,-1.5975486040115356,0.016315031796693802,2.1728451251983643,4.262306852931641,0.001267127227038145,0.3275754749774933,-1.3204105536090296,-0.00044317456195130944,-0.07576902955770493,0.8988333344459534,-0.0,-0.007739652879536152,1.1965339183807373,-0.00012870081991422921,0.0034916771110147238
409.0,628.0,5.7278,-3.7047,6.996,-0.0713,-0.1168,-0.1645,-1.668800493279928,-0.0751362293958664,2.378612518310547,-1.597488522529602,0.019057951867580414,2.1918532848358154,4.262358828181885,0.0008302469504997134,0.3384546637535095,-1.3203581015216272,-0.0004100749792996794,-0.07970818132162094,0.8988013863563538,-0.0,0.0018627610988914967,1.1965258121490479,-0.0005357650807127357,0.004006566014140844
409.0,628.0,5.7278,-3.7047,6.996,-0.0713,-0.1168,-0.1645,-1.6691953144469203,-0.06770250201225281,2.415882110595703,-1.597303867340088,0.023321028798818588,2.2609646320343018,4.262330694789551,0.0006881174631416798,0.32888174057006836,-1.3204062620746058,-0.0003341738192830235,-0.09508934617042542,0.8988457322120667,-0.0,-0.009684574790298939,1.1965298652648926,-0.0008849381119944155,0.0008591064251959324
409.0,628.0,5.7278,-3.7047,6.996,-0.0713,-0.1168,-0.1645,-1.6696316204466761,-0.06346821784973145,2.446800708770752,-1.5971810817718506,0.027308160439133644,2.2033653259277344,4.262354536647461,0.001220832928083837,0.3165437877178192,-1.3204024473773401,-0.00032857610494829714,-0.08292637765407562,0.8987686634063721,-0.0,0.0018805016297847033,1.1965380907058716,-0.000627739354968071,0.013740262016654015
409.0,628.0,5.7278,-3.7047,6.996,-0.0713,-0.1168,-0.1645,-1.670199533502096,-0.06809588521718979,2.3501453399658203,-1.5969735383987427,0.03009631298482418,2.195671796798706,4.262354536647461,0.0008176504634320736,0.33843401074409485,-1.3203662077533167,-0.00026681512827053666,-0.09146565943956375,0.898801326751709,-0.0,0.0033212502021342516,1.1964815855026245,-0.00032225812901742756,-0.002706564497202635
409.0,628.0,5.7278,-3.7047,6.996,-0.0713,-0.1168,-0.1645,-1.6705504856505335,-0.07469206303358078,2.406916379928589,-1.5967340469360352,0.03186925873160362,2.201953172683716,4.2623864847370605,0.0007421586778946221,0.3311452567577362,-1.320406738911764,-0.0002876758517231792,-0.07861083000898361,0.8988132476806641,-0.0,-0.008584806695580482,1.196501612663269,-0.0002540192217566073,0.02793840877711773
409.0,628.0,5.7278,-3.7047,6.996,-0.0713,-0.1168,-0.1645,-1.6709982357420863,-0.07719586044549942,2.4159576892852783,-1.5965298414230347,0.03338456153869629,2.1809003353118896,4.262435122127197,0.0015143282944336534,0.32203635573387146,-1.3204057852374476,-0.00030786439310759306,-0.0925079733133316,0.8988011479377747,-0.0,-0.00707497913390398,1.196509838104248,-0.00015722980606369674,0.052118007093667984
409.0,628.0,5.7278,-3.7047,6.996,-0.0713,-0.1168,-0.1645,-1.6715814075865687,-0.0707697868347168,2.452472686767578,-1.5962302684783936,0.03874639421701431,2.231884479522705,4.262474699611328,0.004623518791049719,0.3367181420326233,-1.3204386870013636,-0.0006662629311904311,-0.09088058024644852,0.8988646864891052,-0.0,-0.004347610287368298,1.1965217590332031,5.230756141827442e-05,0.06405176222324371
409.0,628.0,5.7278,-3.7047,6.996,-0.0713,-0.1168,-0.1645,-1.6720453701415003,-0.06277213990688324,2.3870208263397217,-1.596043586730957,0.045633427798748016,2.266895055770874,4.2624780374714355,0.008139061741530895,0.33214372396469116,-1.3204343954669397,-0.0013680927222594619,-0.0781879872083664,0.8988256454467773,-0.0,-0.00046719698002561927,1.1964938640594482,3.6577810225146834e-10,0.06811515986919403
