ramyac6/ROB537/final_project/csv/bad/bad_108.csv
tof_0,tof_1,accelx,accely,accelz,gyrox,gyroy,gyroz,shoulder_lift_joint_position,shoulder_lift_joint_velocity,shoulder_lift_joint_effort,elbow_joint_position,elbow_joint_velocity,elbow_joint_effort,wrist_1_joint_position,wrist_1_joint_velocity,wrist_1_joint_effort,wrist_2_joint_position,wrist_2_joint_velocity,wrist_2_joint_effort,wrist_3_joint_position,wrist_3_joint_velocity,wrist_3_joint_effort,shoulder_pan_joint_position,shoulder_pan_joint_velocity,shoulder_pan_joint_effort
381.0,365.0,-2.6925,0.2064,9.393,-0.0371,0.0244,-0.1196,-1.9219967327513636,0.0,3.258664608001709,-1.8971385955810547,-0.0,1.7435777187347412,5.5682003972824,-0.0,0.24628399312496185,-1.6040938536273401,-0.0,-0.0052351378835737705,0.7149714231491089,0.0,-6.35441392660141e-05,0.802453339099884,0.0,0.027809809893369675
381.0,365.0,-2.6925,0.2064,9.393,-0.0371,0.0244,-0.1196,-1.9220086536803187,0.0,3.232499599456787,-1.8971149921417236,-0.0,1.7581636905670166,5.568220543652334,-0.0,0.2376989722251892,-1.6041019598590296,-0.0,-0.004118112847208977,0.7149349451065063,0.0,-0.003695431863889098,0.8024371862411499,0.0,-0.01923985593020916
381.0,365.0,-2.6925,0.2064,9.393,-0.0371,0.0244,-0.1196,-1.9219519100584925,0.0,3.2277231216430664,-1.897107720375061,-0.0,1.7325338125228882,5.56817256191329,-0.0,0.25827842950820923,-1.6040895620929163,-0.0,-0.009805962443351746,0.714975118637085,0.0,0.0026241724845021963,0.8024251461029053,0.0,-0.01478567160665989
381.0,365.0,-2.6925,0.2064,9.393,-0.0371,0.0244,-0.1196,-1.9220010242857875,0.0,3.2266440391540527,-1.8971426486968994,-0.0,1.734342336654663,5.568144309311666,-0.0,0.2644546627998352,-1.6040814558612269,-0.0,-0.004298222251236439,0.7148543000221252,0.0,-0.004678576253354549,0.8024090528488159,0.0,0.020003335550427437
381.0,365.0,-2.6925,0.2064,9.393,-0.0371,0.0244,-0.1196,-1.9220167599120082,0.0,3.24338436126709,-1.8971835374832153,-0.0,1.7403132915496826,5.568184363632955,-0.0,0.23669253289699554,-1.6041019598590296,-0.0,0.008772308938205242,0.7149791717529297,0.0,-0.006556046195328236,0.8024052381515503,0.0,0.0249481238424778
381.0,365.0,-2.6925,0.2064,9.393,-0.0371,0.0244,-0.1196,-1.9220448933043421,0.0,3.266894578933716,-1.897119164466858,-0.0,1.751609444618225,5.568212318211355,-0.0,0.2480383664369583,-1.6040695349322718,-0.0,-0.0067672086879611015,0.7149512767791748,0.0,-0.00417983066290617,0.8024051785469055,0.0,-0.0012258309870958328
381.0,365.0,-2.6925,0.2064,9.393,-0.0371,0.0244,-0.1196,-1.9219924412169398,0.0,3.158102035522461,-1.8971469402313232,-0.0,1.7518267631530762,5.568139779358663,-0.0,0.2559555172920227,-1.6040614287005823,-0.0,-0.013179413042962551,0.7149391174316406,0.0,0.008044419810175896,0.8024372458457947,0.0,-0.044186122715473175
381.0,365.0,-2.6925,0.2064,9.393,-0.0371,0.0244,-0.1196,-1.9219924412169398,0.0,3.197812557220459,-1.897171139717102,-0.0,1.740231990814209,5.568240928440847,-0.0,0.2520301043987274,-1.6041062513934534,-0.0,0.0016257378738373518,0.7149631977081299,0.0,0.009181826375424862,0.8024896383285522,0.0,0.011414218693971634
381.0,365.0,-2.6925,0.2064,9.393,-0.0371,0.0244,-0.1196,-1.9220129452147425,0.0,3.2525768280029297,-1.8972269296646118,-0.0,1.7356927394866943,5.568143892079153,-0.0,0.24317055940628052,-1.604098145161764,-0.0,-0.00467807287350297,0.7149874567985535,0.0,0.0050467224791646,0.8024332523345947,0.0,0.020073018968105316
381.0,365.0,-2.6925,0.2064,9.393,-0.0371,0.0244,-0.1196,-1.922004838983053,0.0,3.2140185832977295,-1.8971917629241943,-0.0,1.7049623727798462,5.568156170635977,-0.0,0.24227823317050934,-1.6040495077716272,-0.0,0.0016334960237145424,0.7149755954742432,0.0,0.005932929925620556,0.8024652600288391,0.0,0.011957547627389431
370.0,354.0,-2.6943,0.1723,9.4205,-0.0342,0.0139,-0.1129,-1.9219886265196742,0.0,3.232048511505127,-1.89713454246521,-0.0,1.7482986450195312,5.568164276867666,-0.0,0.26270899176597595,-1.6040614287005823,-0.0,-0.0034794271923601627,0.7148744463920593,0.0,0.003400858025997877,0.8024011850357056,0.0,-0.021482259035110474
370.0,354.0,-2.6943,0.1723,9.4205,-0.0342,0.0139,-0.1129,-1.921960016290182,0.0,3.1986348628997803,-1.8972147703170776,-0.0,1.7135117053985596,5.568128216057577,-0.0,0.2439132183790207,-1.6040695349322718,-0.0,-0.005839040968567133,0.7149309515953064,0.0,-0.00020225654589012265,0.8024131059646606,0.0,-0.02549057826399803
370.0,354.0,-2.6943,0.1723,9.4205,-0.0342,0.0139,-0.1129,-1.9219843349852503,0.0,3.1915032863616943,-1.897123098373413,-0.0,1.6829860210418701,5.568188178330221,-0.0,0.24716530740261078,-1.604098145161764,-0.0,-0.008486218750476837,0.7149596214294434,0.0,0.006349538452923298,0.8023889660835266,0.0,0.02150200679898262
370.0,354.0,-2.6943,0.1723,9.4205,-0.0342,0.0139,-0.1129,-1.9219924412169398,0.0,3.2381553649902344,-1.897191047668457,-0.0,1.6991071701049805,5.568212675839224,-0.0,0.24757684767246246,-1.604077164326803,-0.0,0.005691481754183769,0.7149672508239746,0.0,-0.003152094315737486,0.8024332523345947,0.0,-0.020529478788375854
370.0,354.0,-2.6943,0.1723,9.4205,-0.0342,0.0139,-0.1129,-1.9219523868956507,0.0,3.2250235080718994,-1.8971151113510132,-0.0,1.7619783878326416,5.5681360242660425,-0.0,0.25732532143592834,-1.6041019598590296,-0.0,0.0013002060586586595,0.7149026393890381,0.0,0.006175871938467026,0.80242520570755,0.0,-0.012744241394102573
370.0,354.0,-2.6943,0.1723,9.4205,-0.0342,0.0139,-0.1129,-1.9219562015929164,0.0,3.2098886966705322,-1.8971590995788574,-0.0,1.7867567539215088,5.568152057915487,-0.0,0.2588909864425659,-1.6040857473956507,-0.0,-0.0034920924808830023,0.7149874567985535,0.0,0.007691489066928625,0.8024452924728394,0.0,0.025601865723729134
370.0,354.0,-2.6943,0.1723,9.4205,-0.0342,0.0139,-0.1129,-1.9219643078246058,0.0,3.172414541244507,-1.897123098373413,-0.0,1.7295465469360352,5.568143951683798,-0.0,0.25234881043434143,-1.6040614287005823,-0.0,-0.001198550220578909,0.7149714231491089,0.0,0.004981873091310263,0.8024454116821289,0.0,-0.04267989844083786
370.0,354.0,-2.6943,0.1723,9.4205,-0.0342,0.0139,-0.1129,-1.9220167599120082,0.0,3.216779947280884,-1.897167444229126,-0.0,1.739551305770874,5.5681683895881555,-0.0,0.25228649377822876,-1.6040814558612269,-0.0,-0.009108523838222027,0.7149673104286194,0.0,0.005624307319521904,0.8024452924728394,0.0,-0.016793381422758102
370.0,354.0,-2.6943,0.1723,9.4205,-0.0342,0.0139,-0.1129,-1.9219924412169398,0.0,3.2028074264526367,-1.8971272706985474,-0.0,1.7426936626434326,5.5681683895881555,-0.0,0.2566507160663605,-1.6040614287005823,-0.0,0.0041102031245827675,0.7149714827537537,0.0,-0.004477009642869234,0.8024131059646606,0.0,0.007651364430785179
370.0,354.0,-2.6943,0.1723,9.4205,-0.0342,0.0139,-0.1129,-1.9220129452147425,0.0,3.188718318939209,-1.897199034690857,-0.0,1.7343456745147705,5.568136083870687,-0.0,0.2462317794561386,-1.6041019598590296,-0.0,-0.006937188562005758,0.7149227261543274,0.0,0.002477779285982251,0.802453339099884,0.0,0.017825249582529068
370.0,354.0,-2.6943,0.1723,9.4205,-0.0342,0.0139,-0.1129,-1.9220010242857875,0.0,3.2017130851745605,-1.8971714973449707,-0.0,1.7382547855377197,5.568164336472311,-0.0,0.22921843826770782,-1.6041138807879847,-0.0,-0.010103583335876465,0.7149875164031982,0.0,0.008449956774711609,0.8024452924728394,0.0,0.026821931824088097
370.0,354.0,-2.6943,0.1723,9.4205,-0.0342,0.0139,-0.1129,-1.9220248661436976,0.0,3.1946630477905273,-1.8971714973449707,-0.0,1.6937179565429688,5.5682003972824,-0.0,0.25399261713027954,-1.6041062513934534,-0.0,0.004480366129428148,0.7149145603179932,0.0,-0.0005581211298704147,0.80242919921875,0.0,-0.001978547777980566
370.0,354.0,-2.6943,0.1723,9.4205,-0.0342,0.0139,-0.1129,-1.9220010242857875,0.0,3.2054061889648438,-1.8971788883209229,-0.0,1.735700011253357,5.568212318211355,-0.0,0.24256470799446106,-1.6040690580951136,-0.0,-0.0034016757272183895,0.7149432897567749,0.0,-0.009766986593604088,0.8024090528488159,0.0,0.02567065879702568
370.0,354.0,-2.6943,0.1723,9.4205,-0.0342,0.0139,-0.1129,-1.9220129452147425,0.0,3.175232410430908,-1.897123098373413,-0.0,1.743185043334961,5.568164336472311,-0.0,0.23385939002037048,-1.6040695349322718,-0.0,-7.661426207050681e-05,0.7149755954742432,0.0,-0.001482721883803606,0.8024171590805054,0.0,0.0021266560070216656
370.0,354.0,-2.6943,0.1723,9.4205,-0.0342,0.0139,-0.1129,-1.9220167599120082,0.0,3.2091212272644043,-1.897115707397461,-0.0,1.7352242469787598,5.568160223751821,-0.0,0.26089155673980713,-1.6041019598590296,-0.0,-0.008564942516386509,0.7149512767791748,0.0,0.003192613832652569,0.80242919921875,0.0,-0.020110366865992546
370.0,354.0,-2.6943,0.1723,9.4205,-0.0342,0.0139,-0.1129,-1.9220010242857875,0.0,3.2334084510803223,-1.8971590995788574,-0.0,1.7263097763061523,5.5682164309318445,-0.0,0.2531096637248993,-1.6040895620929163,-0.0,0.005883324891328812,0.714995265007019,0.0,-0.009515885263681412,0.80242919921875,0.0,-0.03450896218419075
370.0,354.0,-2.6943,0.1723,9.4205,-0.0342,0.0139,-0.1129,-1.9219800434508265,0.0,3.2415106296539307,-1.8971352577209473,-0.0,1.7335734367370605,5.568212318211355,-0.0,0.25484803318977356,-1.604065243397848,-0.0,0.008360056206583977,0.7149150371551514,0.0,-0.004157023970037699,0.802481472492218,0.0,0.003297592978924513
370.0,354.0,-2.6943,0.1723,9.4205,-0.0342,0.0139,-0.1129,-1.9219843349852503,0.0,3.178339958190918,-1.8971868753433228,-0.0,1.7183300256729126,5.568172204285421,-0.0,0.24680492281913757,-1.6040733496295374,-0.0,-0.01845693774521351,0.7149186134338379,0.0,-0.006578813306987286,0.80242919921875,0.0,0.010206583887338638
370.0,354.0,-2.6943,0.1723,9.4205,-0.0342,0.0139,-0.1129,-1.9220010242857875,0.0,3.2235360145568848,-1.8971631526947021,-0.0,1.7794499397277832,5.568148004799642,-0.0,0.25005292892456055,-1.604077164326803,-0.0,-0.0025676104705780745,0.7149348855018616,0.0,-0.0020490321330726147,0.8024494647979736,0.0,0.04861545190215111
371.0,367.0,-2.6937,0.2004,9.4325,-0.0389,0.0264,-0.1145,-1.9220129452147425,0.0,3.2152156829833984,-1.8971507549285889,-0.0,1.7224977016448975,5.568164276867666,-0.0,0.239615797996521,-1.6040938536273401,-0.0,-0.0030485698953270912,0.7149473428726196,0.0,0.00269313040189445,0.8024571537971497,0.0,-0.049428511410951614
371.0,367.0,-2.6937,0.2004,9.4325,-0.0389,0.0264,-0.1145,-1.9220129452147425,0.0,3.229593515396118,-1.8971304893493652,-0.0,1.750150442123413,5.568139838963308,-0.0,0.24782703816890717,-1.6041181723224085,-0.0,-0.007354733068495989,0.7149512767791748,0.0,0.007098430767655373,0.8023890852928162,0.0,-0.03681632876396179
371.0,367.0,-2.6937,0.2004,9.4325,-0.0389,0.0264,-0.1145,-1.9219886265196742,0.0,3.2072598934173584,-1.8971917629241943,-0.0,1.747579574584961,5.56821225860671,-0.0,0.23119711875915527,-1.6040614287005823,-0.0,-0.012359515763819218,0.7149672508239746,0.0,0.003221072256565094,0.8024012446403503,0.0,0.02221081405878067
371.0,367.0,-2.6937,0.2004,9.4325,-0.0389,0.0264,-0.1145,-1.921971937219137,0.0,3.2299482822418213,-1.897150993347168,-0.0,1.7113921642303467,5.5682003972824,-0.0,0.25765272974967957,-1.6040733496295374,-0.0,0.0038266147021204233,0.7149874567985535,0.0,0.004348220303654671,0.8024372458457947,0.0,-0.0014547561295330524
371.0,367.0,-2.6937,0.2004,9.4325,-0.0389,0.0264,-0.1145,-1.9219967327513636,0.0,3.1992995738983154,-1.897131323814392,-0.0,1.7157481908798218,5.568184363632955,-0.0,0.24733513593673706,-1.6040571371661585,-0.0,0.0020066637080162764,0.7149631977081299,0.0,0.01041983999311924,0.8024211525917053,0.0,-0.017261020839214325
371.0,367.0,-2.6937,0.2004,9.4325,-0.0389,0.0264,-0.1145,-1.921960016290182,0.0,3.2234716415405273,-1.8971797227859497,-0.0,1.7802882194519043,5.568192231446066,-0.0,0.2523401975631714,-1.6040938536273401,-0.0,-0.010611014440655708,0.7149105072021484,0.0,-0.005560589954257011,0.8024331331253052,0.0,0.03512965887784958
371.0,367.0,-2.6937,0.2004,9.4325,-0.0389,0.0264,-0.1145,-1.9219924412169398,0.0,3.2057111263275146,-1.8971550464630127,-0.0,1.729222059249878,5.5682003972824,-0.0,0.23817770183086395,-1.6040776411639612,-0.0,0.004897862207144499,0.7149832248687744,0.0,-0.014075294137001038,0.8024733662605286,0.0,-0.01584034226834774
371.0,367.0,-2.6937,0.2004,9.4325,-0.0389,0.0264,-0.1145,-1.9220248661436976,0.0,3.230018138885498,-1.8971714973449707,-0.0,1.775402545928955,5.568232762604513,-0.0,0.2573437988758087,-1.6040938536273401,-0.0,0.005002444609999657,0.7149109840393066,0.0,-0.003950722049921751,0.8024331331253052,0.0,-0.004665842745453119
371.0,367.0,-2.6937,0.2004,9.4325,-0.0389,0.0264,-0.1145,-1.9219523868956507,0.0,3.1897778511047363,-1.8971385955810547,-0.0,1.7357559204101562,5.568180310517111,-0.0,0.24589228630065918,-1.604077164326803,-0.0,-0.0126494737342,0.7149391174316406,0.0,0.005192576441913843,0.8023931384086609,0.0,-0.008340282365679741
371.0,367.0,-2.6937,0.2004,9.4325,-0.0389,0.0264,-0.1145,-1.9220367870726527,0.0,3.1640801429748535,-1.897150993347168,-0.0,1.7672724723815918,5.568200456887045,-0.0,0.2472875714302063,-1.6040857473956507,-0.0,-0.008281020447611809,0.7149186134338379,0.0,0.004089462570846081,0.8023971915245056,0.0,0.007832123897969723
371.0,367.0,-2.6937,0.2004,9.4325,-0.0389,0.0264,-0.1145,-1.9220129452147425,0.0,3.228837490081787,-1.8971272706985474,-0.0,1.7541584968566895,5.568152117520132,-0.0,0.23547261953353882,-1.6040414015399378,-0.0,0.012216204777359962,0.7149596810340881,0.0,-0.001973537728190422,0.8024171590805054,0.0,-0.017379937693476677
371.0,367.0,-2.6937,0.2004,9.4325,-0.0389,0.0264,-0.1145,-1.9219681225218714,0.0,3.1912264823913574,-1.8971550464630127,-0.0,1.7083309888839722,5.568176257401266,-0.0,0.2541767656803131,-1.6041224638568323,-0.0,-0.020710280165076256,0.7149677872657776,0.0,0.00735721318051219,0.8024332523345947,0.0,-0.021560512483119965
371.0,367.0,-2.6937,0.2004,9.4325,-0.0389,0.0264,-0.1145,-1.9219643078246058,0.0,3.1970410346984863,-1.8971829414367676,-0.0,1.6925444602966309,5.568131971150198,-0.0,0.24594849348068237,-1.6040533224688929,-0.0,-0.013161001726984978,0.7149063348770142,0.0,-0.007729410659521818,0.8024571537971497,0.0,-0.009528953582048416
371.0,367.0,-2.6937,0.2004,9.4325,-0.0389,0.0264,-0.1145,-1.921976228753561,0.0,3.2087206840515137,-1.8971714973449707,-0.0,1.738839864730835,5.568143892079153,-0.0,0.24437803030014038,-1.6040938536273401,-0.0,-0.004195404704660177,0.7149832248687744,0.0,0.01927926577627659,0.8024250268936157,0.0,0.002869158983230591
371.0,367.0,-2.6937,0.2004,9.4325,-0.0389,0.0264,-0.1145,-1.9219843349852503,0.0,3.2213432788848877,-1.8971550464630127,-0.0,1.7522504329681396,5.568148004799642,-0.0,0.2471175193786621,-1.6040495077716272,-0.0,-0.02171885408461094,0.7149554491043091,0.0,0.0055499328300356865,0.8024171590805054,0.0,0.013753470964729786
371.0,367.0,-2.6937,0.2004,9.4325,-0.0389,0.0264,-0.1145,-1.921976228753561,0.0,3.192636489868164,-1.8971796035766602,-0.0,1.7703434228897095,5.5681766150291345,-0.0,0.24636965990066528,-1.6040733496295374,-0.0,-0.0043027098290622234,0.7149308323860168,0.0,-0.010357328690588474,0.8024652600288391,0.0,-0.014444570057094097
371.0,367.0,-2.6937,0.2004,9.4325,-0.0389,0.0264,-0.1145,-1.9220129452147425,0.0,3.237269878387451,-1.8971835374832153,-0.0,1.721477746963501,5.5681683895881555,-0.0,0.2562241554260254,-1.6040452162372034,-0.0,0.00011337734758853912,0.7149228453636169,0.0,0.006362013518810272,0.8024372458457947,0.0,0.011583296582102776
371.0,367.0,-2.6937,0.2004,9.4325,-0.0389,0.0264,-0.1145,-1.9219924412169398,0.0,3.2300596237182617,-1.8971796035766602,-0.0,1.7180182933807373,5.568212318211355,-0.0,0.24898076057434082,-1.6040814558612269,-0.0,-0.0069299014285206795,0.7149186134338379,0.0,0.0068260361440479755,0.8024571537971497,0.0,-0.01703556999564171
371.0,367.0,-2.6937,0.2004,9.4325,-0.0389,0.0264,-0.1145,-1.9220043621458949,0.0,3.209074020385742,-1.897154688835144,-0.0,1.7293577194213867,5.568151998310842,-0.0,0.24606026709079742,-1.6040895620929163,-0.0,-0.009198790416121483,0.7149145603179932,0.0,-0.008434943854808807,0.8024171590805054,0.0,-0.03061709925532341
371.0,367.0,-2.6937,0.2004,9.4325,-0.0389,0.0264,-0.1145,-1.9219681225218714,0.0,3.2372288703918457,-1.897123098373413,-0.0,1.7441542148590088,5.5681683895881555,-0.0,0.24770474433898926,-1.604077164326803,-0.0,0.0005822565872222185,0.7148944139480591,0.0,0.008137864992022514,0.8024412393569946,0.0,-0.03150061517953873
387.0,370.0,-2.741,0.2094,9.4301,-0.0295,0.0249,-0.1188,-1.9220010242857875,0.0,3.2131853103637695,-1.8971835374832153,-0.0,1.7678594589233398,5.56820826509551,-0.0,0.2551697790622711,-1.6040576140033167,-0.0,-0.007943022064864635,0.714975118637085,0.0,-0.0023976992815732956,0.8024615049362183,0.0,0.0022422149777412415
387.0,370.0,-2.741,0.2094,9.4301,-0.0295,0.0249,-0.1188,-1.9220043621458949,0.0,3.2231760025024414,-1.8971550464630127,-0.0,1.692089557647705,5.568184363632955,-0.0,0.24877604842185974,-1.6041377226458948,-0.0,-0.007950076833367348,0.7148543000221252,0.0,0.010006317868828773,0.8024251461029053,0.0,0.025869939476251602
387.0,370.0,-2.741,0.2094,9.4301,-0.0295,0.0249,-0.1188,-1.9220010242857875,0.0,3.2260243892669678,-1.8971590995788574,-0.0,1.7440768480300903,5.568220603256979,-0.0,0.25567033886909485,-1.6041181723224085,-0.0,-0.0016014236025512218,0.7149186134338379,0.0,-0.011884979903697968,0.8024052977561951,0.0,0.02622475102543831
387.0,370.0,-2.741,0.2094,9.4301,-0.0295,0.0249,-0.1188,-1.9220043621458949,0.0,3.218019962310791,-1.8971836566925049,-0.0,1.768357753753662,5.568176197796621,-0.0,0.25544899702072144,-1.6040614287005823,-0.0,-0.0054700737819075584,0.7148985862731934,0.0,0.004994315095245838,0.8024211525917053,0.0,0.006992249749600887
387.0,370.0,-2.741,0.2094,9.4301,-0.0295,0.0249,-0.1188,-1.921971937219137,0.0,3.255767345428467,-1.8971426486968994,-0.0,1.7253750562667847,5.568180310517111,-0.0,0.24871239066123962,-1.604077164326803,-0.0,-0.010587936267256737,0.7149109244346619,0.0,0.005122235510498285,0.8024452924728394,0.0,0.014387212693691254
387.0,370.0,-2.741,0.2094,9.4301,-0.0295,0.0249,-0.1188,-1.921943803826803,0.0,3.2086544036865234,-1.8971755504608154,-0.0,1.7412171363830566,5.568228649884023,-0.0,0.2575932741165161,-1.6040733496295374,-0.0,-0.008783038705587387,0.7149874567985535,0.0,-0.0004216718953102827,0.8024452924728394,0.0,0.011192471720278263
387.0,370.0,-2.741,0.2094,9.4301,-0.0295,0.0249,-0.1188,-1.9220010242857875,0.0,3.2313249111175537,-1.8971755504608154,-0.0,1.7111527919769287,5.568176257401266,-0.0,0.2450486421585083,-1.6040533224688929,-0.0,-0.00019839443848468363,0.7149631977081299,0.0,-0.001627996563911438,0.8024412393569946,0.0,-0.011574027128517628
387.0,370.0,-2.741,0.2094,9.4301,-0.0295,0.0249,-0.1188,-1.9220487080016078,0.0,3.2090301513671875,-1.8971507549285889,-0.0,1.7338764667510986,5.568164276867666,-0.0,0.2509494125843048,-1.6040857473956507,-0.0,-0.006668888032436371,0.7149596214294434,0.0,0.00867978110909462,0.8024332523345947,0.0,-0.031491681933403015
387.0,370.0,-2.741,0.2094,9.4301,-0.0295,0.0249,-0.1188,-1.9220205746092738,0.0,3.2253823280334473,-1.8971271514892578,-0.0,1.7555530071258545,5.5681922910507105,-0.0,0.2591802179813385,-1.6040814558612269,-0.0,-0.0069147441536188126,0.7149672508239746,0.0,0.0041459365747869015,0.8024373054504395,0.0,-0.01258034072816372
387.0,370.0,-2.741,0.2094,9.4301,-0.0295,0.0249,-0.1188,-1.9220248661436976,0.0,3.2193446159362793,-1.8971590995788574,-0.0,1.7171385288238525,5.56818853595809,-0.0,0.24596118927001953,-1.6041219870196741,-0.0,-0.009697523899376392,0.7149349451065063,0.0,0.010147947818040848,0.8024252653121948,0.0,-0.03886709362268448
387.0,370.0,-2.741,0.2094,9.4301,-0.0295,0.0249,-0.1188,-1.9219967327513636,0.0,3.2028567790985107,-1.8971271514892578,-0.0,1.741458535194397,5.568220603256979,-0.0,0.2620202898979187,-1.604065243397848,-0.0,-0.0027213760185986757,0.7149631977081299,0.0,0.0030141870956867933,0.8024252653121948,0.0,-0.020706921815872192
387.0,370.0,-2.741,0.2094,9.4301,-0.0295,0.0249,-0.1188,-1.9219604931273402,0.0,3.1625359058380127,-1.8971631526947021,-0.0,1.7336325645446777,5.568123745709219,-0.0,0.2581207752227783,-1.6041300932513636,-0.0,-0.009720992296934128,0.7148662209510803,0.0,-0.005490818992257118,0.8024413585662842,0.0,0.03605014830827713
387.0,370.0,-2.741,0.2094,9.4301,-0.0295,0.0249,-0.1188,-1.922021051446432,0.0,3.182328939437866,-1.8971829414367676,-0.0,1.7445521354675293,5.5682003972824,-0.0,0.25032714009284973,-1.6040614287005823,-0.0,0.00028259865939617157,0.7149026393890381,0.0,-0.01225382462143898,0.8024412393569946,0.0,0.006119025871157646
387.0,370.0,-2.741,0.2094,9.4301,-0.0295,0.0249,-0.1188,-1.9219562015929164,0.0,3.1985387802124023,-1.8971714973449707,-0.0,1.73183012008667,5.568184363632955,-0.0,0.2437427043914795,-1.6040695349322718,-0.0,-0.00270900409668684,0.7149267792701721,0.0,-0.0037238355726003647,0.8024131059646606,0.0,-0.0036197295412421227
387.0,370.0,-2.741,0.2094,9.4301,-0.0295,0.0249,-0.1188,-1.9220205746092738,0.0,3.1956582069396973,-1.897191047668457,-0.0,1.726670265197754,5.568176257401266,-0.0,0.25028666853904724,-1.6040452162372034,-0.0,0.006347506307065487,0.7149349451065063,0.0,0.006625765934586525,0.8024131059646606,0.0,-0.024631798267364502
387.0,370.0,-2.741,0.2094,9.4301,-0.0295,0.0249,-0.1188,-1.9220086536803187,0.0,3.229240894317627,-1.897123098373413,-0.0,1.722456455230713,5.56817256191329,-0.0,0.26118117570877075,-1.6040938536273401,-0.0,-0.011634409427642822,0.7149631381034851,0.0,0.006537747569382191,0.8024251461029053,0.0,0.025178968906402588
387.0,370.0,-2.741,0.2094,9.4301,-0.0295,0.0249,-0.1188,-1.9219800434508265,0.0,3.1959261894226074,-1.8971590995788574,-0.0,1.7448735237121582,5.568204510002889,-0.0,0.24391818046569824,-1.6040695349322718,-0.0,0.006878458894789219,0.7149308919906616,0.0,0.008833492174744606,0.8024211525917053,0.0,-0.01926499232649803
387.0,370.0,-2.741,0.2094,9.4301,-0.0295,0.0249,-0.1188,-1.9219886265196742,0.0,3.211721897125244,-1.8971467018127441,-0.0,1.7377407550811768,5.568212795048513,-0.0,0.2557271420955658,-1.6040695349322718,-0.0,-0.026231225579977036,0.7148991227149963,0.0,0.002969983033835888,0.8023971915245056,0.0,-0.0387914702296257
387.0,370.0,-2.741,0.2094,9.4301,-0.0295,0.0249,-0.1188,-1.9220010242857875,0.0,3.200498580932617,-1.8971312046051025,-0.0,1.7149276733398438,5.56818853595809,-0.0,0.24576705694198608,-1.6040733496295374,-0.0,-0.00643074419349432,0.7149269580841064,0.0,-0.0024148859083652496,0.802453339099884,0.0,0.02182980813086033
370.0,346.0,-2.6889,0.2154,9.3739,-0.0342,0.0246,-0.1187,-1.921976228753561,0.0,3.210137367248535,-1.897191047668457,-0.0,1.7240500450134277,5.568152057915487,-0.0,0.24015407264232635,-1.6040814558612269,-0.0,0.0015746679855510592,0.7149507999420166,0.0,0.008421126753091812,0.8024250268936157,0.0,-0.017510686069726944
370.0,346.0,-2.6889,0.2154,9.3739,-0.0342,0.0246,-0.1187,-1.9220205746092738,0.0,3.2234840393066406,-1.8971232175827026,-0.0,1.7623584270477295,5.568164276867666,-0.0,0.24330046772956848,-1.6040938536273401,-0.0,-0.014333849772810936,0.7149792313575745,0.0,0.0007637081434950233,0.802405059337616,0.0,0.05615765228867531
370.0,346.0,-2.6889,0.2154,9.3739,-0.0342,0.0246,-0.1187,-1.9219681225218714,0.0,3.223324775695801,-1.8971197605133057,-0.0,1.7163887023925781,5.568244981556692,-0.0,0.23158657550811768,-1.604081932698385,-0.0,-0.0018230222631245852,0.7149631977081299,0.0,-0.007097427733242512,0.8024332523345947,0.0,0.024446401745080948
370.0,346.0,-2.6889,0.2154,9.3739,-0.0342,0.0246,-0.1187,-1.9219967327513636,0.0,3.2362523078918457,-1.8971714973449707,-0.0,1.7355105876922607,5.5681683895881555,-0.0,0.23980429768562317,-1.604065243397848,-0.0,-0.0031270065810531378,0.7148944735527039,0.0,0.0013203768758103251,0.802376925945282,0.0,-0.01886165142059326
370.0,346.0,-2.6889,0.2154,9.3739,-0.0342,0.0246,-0.1187,-1.9220286808409632,0.0,3.216510534286499,-1.897171139717102,-0.0,1.7415151596069336,5.5681683895881555,-0.0,0.24459180235862732,-1.6041062513934534,-0.0,-0.020501073449850082,0.7149631977081299,0.0,-0.008941463194787502,0.8024372458457947,0.0,-0.01575913093984127
370.0,346.0,-2.6889,0.2154,9.3739,-0.0342,0.0246,-0.1187,-1.921976228753561,0.0,3.22403883934021,-1.8971304893493652,-0.0,1.7514749765396118,5.568156230240621,-0.0,0.24829769134521484,-1.6040814558612269,-0.0,-0.004047182854264975,0.7149472236633301,0.0,-0.0031045530922710896,0.8024532794952393,0.0,-0.035713568329811096
370.0,346.0,-2.6889,0.2154,9.3739,-0.0342,0.0246,-0.1187,-1.922032972375387,0.0,3.2098336219787598,-1.8971507549285889,-0.0,1.7311358451843262,5.568123864918508,-0.0,0.24864040315151215,-1.6040533224688929,-0.0,0.009603306651115417,0.7149026393890381,0.0,-0.007019979413598776,0.8024211525917053,0.0,0.03255441412329674
370.0,346.0,-2.6889,0.2154,9.3739,-0.0342,0.0246,-0.1187,-1.9220687351622523,0.0,3.1704912185668945,-1.897107720375061,-0.0,1.728907585144043,5.568152057915487,-0.0,0.2491990327835083,-1.6041343847857874,-0.0,-0.013323895633220673,0.7149145603179932,0.0,-0.0019055986776947975,0.8024211525917053,0.0,0.024661095812916756
370.0,346.0,-2.6889,0.2154,9.3739,-0.0342,0.0246,-0.1187,-1.9219643078246058,0.0,3.1733851432800293,-1.8971796035766602,-0.0,1.7393059730529785,5.5681766150291345,-0.0,0.2342238426208496,-1.604110066090719,-0.0,-0.027655018493533134,0.7149710655212402,0.0,-0.0009172972058877349,0.80242919921875,0.0,-0.0070611173287034035
370.0,346.0,-2.6889,0.2154,9.3739,-0.0342,0.0246,-0.1187,-1.9219924412169398,0.0,3.238471508026123,-1.8971590995788574,-0.0,1.7372102737426758,5.568220543652334,-0.0,0.23824377357959747,-1.604077164326803,-0.0,0.001908288337290287,0.7149714231491089,0.0,0.013677632436156273,0.8024049997329712,0.0,-0.01713036745786667
370.0,346.0,-2.6889,0.2154,9.3739,-0.0342,0.0246,-0.1187,-1.9220010242857875,0.0,3.2225887775421143,-1.8971036672592163,-0.0,1.7186970710754395,5.5681360242660425,-0.0,0.23397311568260193,-1.6040695349322718,-0.0,-0.003540066070854664,0.7149267792701721,0.0,-0.0032714949920773506,0.8024332523345947,0.0,0.021813854575157166
370.0,346.0,-2.6889,0.2154,9.3739,-0.0342,0.0246,-0.1187,-1.9220043621458949,0.0,3.194175958633423,-1.8971635103225708,-0.0,1.7374353408813477,5.568176197796621,-0.0,0.25210973620414734,-1.604077164326803,-0.0,-0.018143130466341972,0.7149145603179932,0.0,-0.001332318177446723,0.8024373054504395,0.0,0.002275095321238041
370.0,346.0,-2.6889,0.2154,9.3739,-0.0342,0.0246,-0.1187,-1.9219967327513636,0.0,3.2327959537506104,-1.8971714973449707,-0.0,1.7287625074386597,5.56818853595809,-0.0,0.2642033100128174,-1.6040533224688929,-0.0,-0.018751027062535286,0.714999258518219,0.0,-0.005237607751041651,0.8024090528488159,0.0,-0.013212746940553188
370.0,346.0,-2.6889,0.2154,9.3739,-0.0342,0.0246,-0.1187,-1.9219924412169398,0.0,3.2243459224700928,-1.8971467018127441,-0.0,1.72031831741333,5.568131971150198,-0.0,0.2489873468875885,-1.6040290037738245,-0.0,0.000178156653419137,0.7149267792701721,0.0,0.009862680919468403,0.8024171590805054,0.0,0.007744652684777975
370.0,346.0,-2.6889,0.2154,9.3739,-0.0342,0.0246,-0.1187,-1.9219681225218714,0.0,3.208937168121338,-1.8971951007843018,-0.0,1.7018314599990845,5.568176674633779,-0.0,0.2623199224472046,-1.604138199483053,-0.0,-0.004213502164930105,0.7149348855018616,0.0,0.011399359442293644,0.8023892045021057,0.0,-0.02828868478536606
370.0,346.0,-2.6889,0.2154,9.3739,-0.0342,0.0246,-0.1187,-1.922032972375387,0.0,3.2389090061187744,-1.8971951007843018,-0.0,1.7330126762390137,5.568184363632955,-0.0,0.23129677772521973,-1.6040895620929163,-0.0,-0.01650075614452362,0.7150115370750427,0.0,0.012126649729907513,0.8024332523345947,0.0,-0.006502978969365358
370.0,346.0,-2.6889,0.2154,9.3739,-0.0342,0.0246,-0.1187,-1.9219924412169398,0.0,3.2456891536712646,-1.8971796035766602,-0.0,1.7398761510849,5.568204569607534,-0.0,0.2615469694137573,-1.6041019598590296,-0.0,-0.004590409807860851,0.7149832844734192,0.0,-0.011369085870683193,0.8024412989616394,0.0,0.041574545204639435
370.0,346.0,-2.6889,0.2154,9.3739,-0.0342,0.0246,-0.1187,-1.921976228753561,0.0,3.2338292598724365,-1.8971714973449707,-0.0,1.6976234912872314,5.56817256191329,-0.0,0.24665889143943787,-1.6040614287005823,-0.0,-0.014008080586791039,0.7149432301521301,0.0,0.002739898394793272,0.8024372458457947,0.0,-0.00201386958360672
370.0,346.0,-2.6889,0.2154,9.3739,-0.0342,0.0246,-0.1187,-1.9220010242857875,0.0,3.2377264499664307,-1.897150993347168,-0.0,1.7504945993423462,5.5681118843849084,-0.0,0.24003076553344727,-1.6040452162372034,-0.0,-0.0043762074783444405,0.714975118637085,0.0,-0.0026365576777607203,0.8024012446403503,0.0,0.007382191717624664
361.0,349.0,-2.6674,0.2094,9.4475,-0.0331,0.02,-0.1124,-1.921976228753561,0.0,3.2017085552215576,-1.8971796035766602,-0.0,1.714172601699829,5.568192231446066,-0.0,0.24206538498401642,-1.6040938536273401,-0.0,-0.008970262482762337,0.7149832844734192,0.0,0.005466712638735771,0.8024049997329712,0.0,0.0195382758975029
361.0,349.0,-2.6674,0.2094,9.4475,-0.0331,0.02,-0.1124,-1.9220086536803187,0.0,3.182420253753662,-1.8971755504608154,-0.0,1.7414729595184326,5.568160283356466,-0.0,0.24003711342811584,-1.6040614287005823,-0.0,0.005076816771179438,0.7149636745452881,0.0,0.0029578343965113163,0.8024333715438843,0.0,0.01580009236931801
361.0,349.0,-2.6674,0.2094,9.4475,-0.0331,0.02,-0.1124,-1.9220129452147425,0.0,3.2210662364959717,-1.8971467018127441,-0.0,1.7423839569091797,5.568172144680776,-0.0,0.24516455829143524,-1.6040895620929163,-0.0,-0.004020641557872295,0.7149431109428406,0.0,0.005106397904455662,0.8024692535400391,0.0,0.005521304439753294
361.0,349.0,-2.6674,0.2094,9.4475,-0.0331,0.02,-0.1124,-1.9220010242857875,0.0,3.243999481201172,-1.8971631526947021,-0.0,1.725426435470581,5.568204569607534,-0.0,0.245163232088089,-1.6040938536273401,-0.0,-0.006035890895873308,0.7149512767791748,0.0,-0.00011997297406196594,0.8024211525917053,0.0,-0.035099782049655914
361.0,349.0,-2.6674,0.2094,9.4475,-0.0331,0.02,-0.1124,-1.9220568142332972,0.0,3.1493310928344727,-1.8971951007843018,-0.0,1.7382228374481201,5.568212318211355,-0.0,0.24466189742088318,-1.6040814558612269,-0.0,-0.00984618254005909,0.7149391174316406,0.0,-0.0009126493241637945,0.8024012446403503,0.0,0.022722793743014336
361.0,349.0,-2.6674,0.2094,9.4475,-0.0331,0.02,-0.1124,-1.9219924412169398,0.0,3.2477078437805176,-1.8971426486968994,-0.0,1.7267835140228271,5.568160223751821,-0.0,0.24388369917869568,-1.604077164326803,-0.0,-0.013854964636266232,0.7149391174316406,0.0,-0.0029184729792177677,0.8024372458457947,0.0,0.009643260389566422
361.0,349.0,-2.6674,0.2094,9.4475,-0.0331,0.02,-0.1124,-1.9219886265196742,0.0,3.201763153076172,-1.8972032070159912,-0.0,1.7885942459106445,5.5682003972824,-0.0,0.2458711862564087,-1.6040895620929163,-0.0,-0.00393447931855917,0.7149631977081299,0.0,0.005274205002933741,0.8024611473083496,0.0,0.030020534992218018
361.0,349.0,-2.6674,0.2094,9.4475,-0.0331,0.02,-0.1124,-1.9219724140562953,0.0,3.1747801303863525,-1.8971590995788574,-0.0,1.7085158824920654,5.568176197796621,-0.0,0.2526758313179016,-1.6040409247027796,-0.0,-0.0030053816735744476,0.7149349451065063,0.0,0.0009841086575761437,0.8024052381515503,0.0,-0.018575824797153473
361.0,349.0,-2.6674,0.2094,9.4475,-0.0331,0.02,-0.1124,-1.922032972375387,0.0,3.1727867126464844,-1.897083044052124,-0.0,1.7670562267303467,5.568143892079153,-0.0,0.25194165110588074,-1.6040733496295374,-0.0,0.0019850698299705982,0.7148825526237488,0.0,0.005109074525535107,0.8024293184280396,0.0,0.0008762781508266926
361.0,349.0,-2.6674,0.2094,9.4475,-0.0331,0.02,-0.1124,-1.9220043621458949,0.0,3.2338457107543945,-1.8971991539001465,-0.0,1.7001367807388306,5.568139898567953,-0.0,0.25817495584487915,-1.6041057745562952,-0.0,0.004372176248580217,0.7149591445922852,0.0,0.005377057008445263,0.8023809194564819,0.0,-0.015573251992464066
361.0,349.0,-2.6674,0.2094,9.4475,-0.0331,0.02,-0.1124,-1.921976228753561,0.0,3.221832036972046,-1.8971507549285889,-0.0,1.700648546218872,5.5682082054908655,-0.0,0.2540742754936218,-1.604098145161764,-0.0,-0.00696231285110116,0.7148379683494568,0.0,0.006461231503635645,0.8024090528488159,0.0,0.0014894769992679358
361.0,349.0,-2.6674,0.2094,9.4475,-0.0331,0.02,-0.1124,-1.9219924412169398,0.0,3.171584367752075,-1.8971426486968994,-0.0,1.7443050146102905,5.568172144680776,-0.0,0.24542704224586487,-1.6040814558612269,-0.0,-0.007773595862090588,0.7149672508239746,0.0,-0.0034980792552232742,0.8024171590805054,0.0,-0.018284650519490242
361.0,349.0,-2.6674,0.2094,9.4475,-0.0331,0.02,-0.1124,-1.9219843349852503,0.0,3.2104344367980957,-1.8971385955810547,-0.0,1.7596991062164307,5.568176257401266,-0.0,0.25180554389953613,-1.604077164326803,-0.0,-0.018556423485279083,0.7150076031684875,0.0,0.005964336916804314,0.8023971915245056,0.0,0.004652606323361397
361.0,349.0,-2.6674,0.2094,9.4475,-0.0331,0.02,-0.1124,-1.9219562015929164,0.0,3.235567331314087,-1.8971590995788574,-0.0,1.7370120286941528,5.568184363632955,-0.0,0.2492244839668274,-1.604065243397848,-0.0,1.7745885998010635e-05,0.714975118637085,0.0,-0.0014704763889312744,0.8024492859840393,0.0,0.018475234508514404
361.0,349.0,-2.6674,0.2094,9.4475,-0.0331,0.02,-0.1124,-1.9219843349852503,0.0,3.256293773651123,-1.8971550464630127,-0.0,1.7099435329437256,5.56819628456191,-0.0,0.24724216759204865,-1.6041062513934534,-0.0,-0.01271478645503521,0.7149145603179932,0.0,0.011032038368284702,0.8024251461029053,0.0,-0.03539171442389488
361.0,349.0,-2.6674,0.2094,9.4475,-0.0331,0.02,-0.1124,-1.9220129452147425,0.0,3.2030725479125977,-1.8970993757247925,-0.0,1.7318997383117676,5.5681683895881555,-0.0,0.25098639726638794,-1.604065243397848,-0.0,-0.009050852619111538,0.7149596214294434,0.0,0.008062860928475857,0.8023691177368164,0.0,0.016635481268167496
361.0,349.0,-2.6674,0.2094,9.4475,-0.0331,0.02,-0.1124,-1.9220167599120082,0.0,3.1911613941192627,-1.8971272706985474,-0.0,1.7745237350463867,5.568188595562734,-0.0,0.26102763414382935,-1.6040528456317347,-0.0,-0.009174664504826069,0.7149186134338379,0.0,-0.003919119015336037,0.8024131059646606,0.0,-0.0022072892170399427
361.0,349.0,-2.6674,0.2094,9.4475,-0.0331,0.02,-0.1124,-1.9219967327513636,0.0,3.2274720668792725,-1.8972269296646118,-0.0,1.6882613897323608,5.568188178330221,-0.0,0.2541288733482361,-1.604077164326803,-0.0,-0.005123144015669823,0.7149391174316406,0.0,-0.009433609433472157,0.8024091124534607,0.0,-0.016848042607307434
361.0,349.0,-2.6674,0.2094,9.4475,-0.0331,0.02,-0.1124,-1.922021051446432,0.0,3.211625576019287,-1.8971190452575684,-0.0,1.7195141315460205,5.5681683895881555,-0.0,0.24694138765335083,-1.6040938536273401,-0.0,-0.002458257135003805,0.7149105072021484,0.0,0.0013484351802617311,0.8024211525917053,0.0,-0.01558941975235939
380.0,355.0,-2.8708,0.207,9.5695,-0.0365,0.0295,-0.1171,-1.9220010242857875,0.0,3.201984167098999,-1.8971590995788574,-0.0,1.7320094108581543,5.56817256191329,-0.0,0.26233261823654175,-1.6041019598590296,-0.0,0.00041120732203125954,0.7149596214294434,0.0,0.005881085991859436,0.8024454116821289,0.0,-0.017835404723882675
380.0,355.0,-2.8708,0.207,9.5695,-0.0365,0.0295,-0.1171,-1.9220286808409632,0.0,3.211230516433716,-1.8971672058105469,-0.0,1.765824556350708,5.568139838963308,-0.0,0.25321733951568604,-1.604098145161764,-0.0,-0.003938637673854828,0.7149349451065063,0.0,0.0020352276042103767,0.8024612069129944,0.0,0.026978179812431335
380.0,355.0,-2.8708,0.207,9.5695,-0.0365,0.0295,-0.1171,-1.9219886265196742,0.0,3.2051291465759277,-1.8971796035766602,-0.0,1.700939416885376,5.568131971150198,-0.0,0.24267426133155823,-1.604110066090719,-0.0,-0.001723705674521625,0.7149596214294434,0.0,0.010565581731498241,0.8024332523345947,0.0,0.008548902347683907
380.0,355.0,-2.8708,0.207,9.5695,-0.0365,0.0295,-0.1171,-1.9219681225218714,0.0,3.2274229526519775,-1.8971796035766602,-0.0,1.7696584463119507,5.568148004799642,-0.0,0.2313293218612671,-1.6041181723224085,-0.0,-0.004561829846352339,0.7150156497955322,0.0,0.0034189713187515736,0.8023892045021057,0.0,0.0011920798569917679
380.0,355.0,-2.8708,0.207,9.5695,-0.0365,0.0295,-0.1171,-1.9220005474486292,0.0,3.239525318145752,-1.8971755504608154,-0.0,1.7817103862762451,5.568196701794424,-0.0,0.2530243396759033,-1.6041019598590296,-0.0,0.006978807505220175,0.7149673104286194,0.0,0.010735099203884602,0.8024292588233948,0.0,-0.018075592815876007
380.0,355.0,-2.8708,0.207,9.5695,-0.0365,0.0295,-0.1171,-1.9219643078246058,0.0,3.251448631286621,-1.8971549272537231,-0.0,1.6956344842910767,5.568160223751821,-0.0,0.24520635604858398,-1.6041343847857874,-0.0,0.006881742738187313,0.7149796485900879,0.0,0.016402926295995712,0.802361011505127,0.0,-0.004890022799372673
380.0,355.0,-2.8708,0.207,9.5695,-0.0365,0.0295,-0.1171,-1.9220043621458949,0.0,3.194199562072754,-1.897171139717102,-0.0,1.7486954927444458,5.568160283356466,-0.0,0.25250357389450073,-1.6040528456317347,-0.0,-0.0038438886404037476,0.7149874567985535,0.0,0.01654268614947796,0.8024774193763733,0.0,0.03294796869158745
380.0,355.0,-2.8708,0.207,9.5695,-0.0365,0.0295,-0.1171,-1.9220010242857875,0.0,3.190239906311035,-1.897167444229126,-0.0,1.7330307960510254,5.568136083870687,-0.0,0.24863234162330627,-1.6040495077716272,-0.0,0.0005988324410282075,0.7150076031684875,0.0,-0.011788414791226387,0.8024652004241943,0.0,0.018184615299105644
380.0,355.0,-2.8708,0.207,9.5695,-0.0365,0.0295,-0.1171,-1.921976228753561,0.0,3.230634927749634,-1.897150993347168,-0.0,1.7285947799682617,5.568192231446066,-0.0,0.25324517488479614,-1.6040895620929163,-0.0,-0.006852759048342705,0.7149631977081299,0.0,-0.01016303151845932,0.80242919921875,0.0,-0.026013150811195374
380.0,355.0,-2.8708,0.207,9.5695,-0.0365,0.0295,-0.1171,-1.9220010242857875,0.0,3.226111650466919,-1.8971552848815918,-0.0,1.7045001983642578,5.568180727749624,-0.0,0.24889032542705536,-1.6041138807879847,-0.0,0.0024246806278824806,0.7149710655212402,0.0,0.004665568470954895,0.8024211525917053,0.0,0.04187234491109848
380.0,355.0,-2.8708,0.207,9.5695,-0.0365,0.0295,-0.1171,-1.9219843349852503,0.0,3.1917004585266113,-1.897207498550415,-0.0,1.7300728559494019,5.568164276867666,-0.0,0.24398279190063477,-1.6040895620929163,-0.0,0.0017510121688246727,0.7149554491043091,0.0,0.010744981467723846,0.8024412393569946,0.0,-0.014879906550049782
380.0,355.0,-2.8708,0.207,9.5695,-0.0365,0.0295,-0.1171,-1.9220286808409632,0.0,3.184964179992676,-1.8971271514892578,-0.0,1.7602038383483887,5.568123864918508,-0.0,0.25079283118247986,-1.6040495077716272,-0.0,0.0015950496308505535,0.7149710059165955,0.0,0.0039666928350925446,0.8023971915245056,0.0,0.05216783285140991
380.0,355.0,-2.8708,0.207,9.5695,-0.0365,0.0295,-0.1171,-1.9219557247557582,0.0,3.164443016052246,-1.897150993347168,-0.0,1.712790846824646,5.5682163713272,-0.0,0.23512017726898193,-1.6041176954852503,-0.0,0.006860862951725721,0.7148867845535278,0.0,0.004478069953620434,0.8024091124534607,0.0,-0.010276226326823235
380.0,355.0,-2.8708,0.207,9.5695,-0.0365,0.0295,-0.1171,-1.9220367870726527,0.0,3.2072510719299316,-1.8971469402313232,-0.0,1.7289135456085205,5.5681402561958215,-0.0,0.25202956795692444,-1.6040776411639612,-0.0,-0.020095160230994225,0.7149308919906616,0.0,0.002458592876791954,0.8024129867553711,0.0,-0.04471985995769501
380.0,355.0,-2.8708,0.207,9.5695,-0.0365,0.0295,-0.1171,-1.9220129452147425,0.0,3.223114490509033,-1.8971829414367676,-0.0,1.7377432584762573,5.568188178330221,-0.0,0.245822474360466,-1.6041258017169397,-0.0,0.0012114495038986206,0.7149432897567749,0.0,0.013477525673806667,0.8024693727493286,0.0,0.012503158301115036
380.0,355.0,-2.8708,0.207,9.5695,-0.0365,0.0295,-0.1171,-1.9219962559142054,0.0,3.215221881866455,-1.8971272706985474,-0.0,1.7675085067749023,5.56817256191329,-0.0,0.2405489832162857,-1.6040895620929163,-0.0,-0.0002761636860668659,0.7149791717529297,0.0,-0.004911951255053282,0.8024328351020813,0.0007506042602472007,-0.009643416851758957
380.0,355.0,-2.8708,0.207,9.5695,-0.0365,0.0295,-0.1171,-1.9219924412169398,0.0,3.2971010208129883,-1.8971951007843018,-0.0,1.7707918882369995,5.56817256191329,-0.0,0.25686460733413696,-1.60414964357485,-0.0,-0.004524627234786749,0.7149672508239746,0.0,-0.013793927617371082,0.8024412393569946,0.001089576631784439,-0.03988293558359146
380.0,355.0,-2.8708,0.207,9.5695,-0.0365,0.0295,-0.1171,-1.9220086536803187,0.0,3.230278253555298,-1.8971304893493652,-0.0,1.7510517835617065,5.568152057915487,-0.0,0.25169140100479126,-1.6040852705584925,-0.0,-0.004266564734280109,0.7148949503898621,0.0,0.0014157317345961928,0.8024612069129944,0.001731727970764041,-0.050490476191043854
380.0,355.0,-2.8708,0.207,9.5695,-0.0365,0.0295,-0.1171,-1.9220367870726527,0.0,3.215327501296997,-1.8971550464630127,-0.0,1.7124197483062744,5.568131971150198,-0.0,0.24060282111167908,-1.6041539351092737,-0.0,-0.01069304533302784,0.7148907780647278,0.0,0.00208265776745975,0.8025420308113098,0.002028863877058029,0.008299820125102997
380.0,355.0,-2.8708,0.207,9.5695,-0.0365,0.0295,-0.1171,-1.92201628307485,0.0,3.251793622970581,-1.8971878290176392,-0.0,1.7428687810897827,5.568136083870687,-0.0,0.24516239762306213,-1.6041253248797815,-0.0,-8.05896706879139e-05,0.7149591445922852,0.0,-0.009683795273303986,0.8025215864181519,0.0030868914909660816,-0.011184542439877987
357.0,364.0,-2.8008,0.3057,9.4469,-0.0431,0.0087,-0.1074,-1.9220086536803187,0.0,3.2117152214050293,-1.897191047668457,-0.0,1.744942307472229,5.568124282151022,-0.0,0.2627663314342499,-1.6041539351092737,-0.0,-0.005962586961686611,0.7149791717529297,0.0,-0.0006123876664787531,0.8025655150413513,0.005668547935783863,0.038505107164382935
357.0,364.0,-2.8008,0.3057,9.4469,-0.0431,0.0087,-0.1074,-1.9220448933043421,0.0,3.2461423873901367,-1.8971590995788574,-0.0,1.723893642425537,5.568136083870687,-0.0,0.25969958305358887,-1.6041129271136683,-0.00014889982412569225,-0.010818388313055038,0.7149308919906616,0.0,0.0033971979282796383,0.8025733232498169,0.010257547721266747,0.012253044173121452
357.0,364.0,-2.8008,0.3057,9.4469,-0.0431,0.0087,-0.1074,-1.9220086536803187,0.0,3.2151646614074707,-1.8971385955810547,-0.0,1.6933954954147339,5.568160283356466,-0.0,0.2372366189956665,-1.6041582266436976,-0.00014428784197662026,-0.009258285164833069,0.7149672508239746,0.0,0.007518391590565443,0.802669882774353,0.014565261080861092,0.023837951943278313
357.0,364.0,-2.8008,0.3057,9.4469,-0.0431,0.0087,-0.1074,-1.922032972375387,0.0,3.2264363765716553,-1.8971272706985474,-0.0,1.704503059387207,5.568160283356466,-0.0,0.2593510150909424,-1.6041658560382288,-0.00013559429498855025,-0.006205334328114986,0.7150034308433533,0.0,0.0028998919297009706,0.8027580976486206,0.015643369406461716,0.08237121999263763
357.0,364.0,-2.8008,0.3057,9.4469,-0.0431,0.0087,-0.1074,-1.9220205746092738,0.0,3.208340644836426,-1.8971271514892578,-0.0,1.7338480949401855,5.568192708283224,-0.0,0.254381000995636,-1.6041858831988733,-0.0001243523001903668,-0.01104659866541624,0.7149631977081299,0.0,0.0005913511849939823,0.8028140068054199,0.01619030348956585,-0.002923812950029969
357.0,364.0,-2.8008,0.3057,9.4469,-0.0431,0.0087,-0.1074,-1.9219843349852503,0.0,3.197744846343994,-1.897139310836792,-0.0,1.793038010597229,5.56817256191329,-0.0,0.24749985337257385,-1.6041582266436976,-0.00011783927766373381,-0.007311208173632622,0.7149710059165955,0.0,-0.004584591835737228,0.8028740882873535,0.015625961124897003,0.013581061735749245
357.0,364.0,-2.8008,0.3057,9.4469,-0.0431,0.0087,-0.1074,-1.9219643078246058,0.0,3.200523853302002,-1.8971991539001465,-0.0,1.7246854305267334,5.5681402561958215,-0.0,0.2386595904827118,-1.6041372458087366,-0.00011197449202882126,-0.014467762783169746,0.7149792313575745,0.0,0.002751830965280533,0.8029216527938843,0.016308754682540894,0.013979960232973099
357.0,364.0,-2.8008,0.3057,9.4469,-0.0431,0.0087,-0.1074,-1.9220043621458949,0.0,3.1977624893188477,-1.8971548080444336,-0.0,1.7643628120422363,5.568164396076956,-0.0,0.2651160657405853,-1.60414964357485,-0.00010419575846754014,-0.010177385993301868,0.7149063944816589,0.0,0.0056797512806952,0.8030256032943726,0.01716608554124832,-0.0003290313179604709
357.0,364.0,-2.8008,0.3057,9.4469,-0.0431,0.0087,-0.1074,-1.9220124683775843,0.0,3.202558755874634,-1.8971549272537231,-0.0,1.7428847551345825,5.568116354733267,-1.0083551842399174e-06,0.24816522002220154,-1.6041372458087366,-8.099699334707111e-05,-0.0026100478135049343,0.7150156497955322,0.0,-0.008421509526669979,0.8030698299407959,0.017214054241776466,0.006195074878633022
357.0,364.0,-2.8008,0.3057,9.4469,-0.0431,0.0087,-0.1074,-1.9220763645567835,0.0,3.226917266845703,-1.8971631526947021,-0.0,1.7253522872924805,5.568120467453756,-0.0029402936343103647,0.24015411734580994,-1.60414964357485,-7.470755372196436e-05,-0.008109885267913342,0.7149390578269958,0.0,0.008242042735219002,0.8032141327857971,0.01737413927912712,0.024034284055233
357.0,364.0,-2.8008,0.3057,9.4469,-0.0431,0.0087,-0.1074,-1.9220687351622523,-2.760876327556616e-08,3.215705394744873,-1.897150993347168,-0.0,1.7806602716445923,5.568048047810354,-0.0035602126736193895,0.24455995857715607,-1.60414964357485,-7.173000631155446e-05,-0.0007299403077922761,0.7149631977081299,0.0,0.011508867144584656,0.8032656908035278,0.01746870018541813,0.005199362523853779
357.0,364.0,-2.8008,0.3057,9.4469,-0.0431,0.0087,-0.1074,-1.9220363102354945,-4.969480122546388e-12,3.229672908782959,-1.8971869945526123,-0.0,1.736944317817688,5.568052100926199,-0.003257528878748417,0.24352005124092102,-1.6041134039508265,-6.898106221342459e-05,0.0015860458370298147,0.7150074243545532,0.0,-0.0012218151241540909,0.8033016920089722,0.017507528886198997,0.026876648887991905
357.0,364.0,-2.8008,0.3057,9.4469,-0.0431,0.0087,-0.1074,-1.9220639667906703,-0.0005098184337839484,3.217477321624756,-1.8971508741378784,-0.0,1.7665319442749023,5.568036663323202,-0.005238014739006758,0.2617414593696594,-1.604105297719137,-6.523116462631151e-05,-0.0091017447412014,0.7149910926818848,0.0,-0.007752226199954748,0.8034541606903076,0.015749623998999596,0.007438392844051123
357.0,364.0,-2.8008,0.3057,9.4469,-0.0431,0.0087,-0.1074,-1.922100683251852,-0.0008133244118653238,3.2293758392333984,-1.8971467018127441,-0.0,1.7537225484848022,5.568040895252981,-0.00825862679630518,0.24849776923656464,-1.604133431111471,-6.294991908362135e-05,-0.004338585771620274,0.7150111198425293,0.0,0.004722964018583298,0.8035064339637756,0.014737439341843128,0.0035138889215886593
357.0,364.0,-2.8008,0.3057,9.4469,-0.0431,0.0087,-0.1074,-1.922068258325094,-0.0010248509934172034,3.22011399269104,-1.8971426486968994,-0.0,1.7734761238098145,5.567840504437246,-0.013327935710549355,0.23660854995250702,-1.6041176954852503,-5.2448980568442494e-05,-0.002913768170401454,0.7149991989135742,0.0,0.009023550897836685,0.8035941123962402,0.012569958344101906,-5.775783210992813e-05
357.0,364.0,-2.8008,0.3057,9.4469,-0.0431,0.0087,-0.1074,-1.9220882854857386,-0.0009905092883855104,3.221972942352295,-1.8971312046051025,-0.0,1.7329893112182617,5.567857014923849,-0.015049925073981285,0.24168601632118225,-1.6041176954852503,-4.344884291640483e-05,-0.012301137670874596,0.7149751782417297,0.0,0.010537872090935707,0.8036870956420898,0.011166032403707504,0.01831648126244545
357.0,364.0,-2.8008,0.3057,9.4469,-0.0431,0.0087,-0.1074,-1.9220601520934046,-0.0009190661367028952,3.191337823867798,-1.8971877098083496,-0.0,1.6815853118896484,5.567737090378561,-0.015315963886678219,0.23112624883651733,-1.6041415373431605,-4.1418395994696766e-05,-0.00729963555932045,0.7150311470031738,0.0,0.012032254599034786,0.803662121295929,0.008395778946578503,0.02577073872089386
357.0,364.0,-2.8008,0.3057,9.4469,-0.0431,0.0087,-0.1074,-1.9220434627928675,-0.0008446309948340058,3.2489004135131836,-1.8971385955810547,-0.0,1.7157255411148071,5.567677247315206,-0.013273406773805618,0.23146191239356995,-1.6040614287005823,-4.018550316686742e-05,-0.022892234846949577,0.7149991393089294,0.0,0.006916153244674206,0.8037021160125732,0.0070258863270282745,0.06596842408180237
357.0,364.0,-2.8008,0.3057,9.4469,-0.0431,0.0087,-0.1074,-1.9221326313414515,-0.0008051685872487724,3.1798043251037598,-1.8971869945526123,-0.0,1.7357861995697021,5.567585217743673,-0.010630624368786812,0.23572967946529388,-1.6041219870196741,-3.9023849240038544e-05,-0.00740358792245388,0.7150115370750427,0.0,0.016211124137043953,0.8036895990371704,0.004758546128869057,0.07585518062114716
371.0,355.0,-2.787,0.0455,9.3458,-0.0339,0.0092,-0.0944,-1.9221040211119593,-0.000769054691772908,3.1586720943450928,-1.8971391916275024,-0.0,1.7578940391540527,5.567561018257894,-0.0059903571382164955,0.23378130793571472,-1.604110066090719,-3.7402092857519165e-05,-0.011344614438712597,0.7149627804756165,0.0,0.006863403134047985,0.8037261962890625,0.002960205776616931,0.07370969653129578
371.0,355.0,-2.787,0.0455,9.3458,-0.0339,0.0092,-0.0944,-1.9221564731993617,-0.0009312840411439538,3.204540491104126,-1.8971714973449707,-0.0,1.7442491054534912,5.567545401840963,-0.003970767371356487,0.24064072966575623,-1.6041420141803187,2.8566826586029492e-05,-0.02309921197593212,0.7150115370750427,0.0,0.026227710768580437,0.8037461042404175,0.0019233678467571735,0.11750611662864685
371.0,355.0,-2.787,0.0455,9.3458,-0.0339,0.0092,-0.0944,-1.9221397838988246,-0.0013541693333536386,3.166201114654541,-1.8971238136291504,-0.0,1.7395626306533813,5.567504930287161,-0.0018322054529562593,0.22508198022842407,-1.6041176954852503,1.810285175452009e-05,-0.01337626576423645,0.7150033712387085,0.0,0.028276121243834496,0.8037909269332886,0.0014794992748647928,0.1439211070537567
371.0,355.0,-2.787,0.0455,9.3458,-0.0339,0.0092,-0.0944,-1.9221445522704066,-0.0016771266236901283,3.1442723274230957,-1.8971076011657715,0.00044852058636024594,1.8022152185440063,5.567569601326742,-0.0014344173250719905,0.2282894253730774,-1.6040647665606897,1.733160752337426e-05,-0.016636747866868973,0.7150394320487976,0.0,0.01500209141522646,0.8038024306297302,0.0017980425618588924,0.12424348294734955
371.0,355.0,-2.787,0.0455,9.3458,-0.0339,0.0092,-0.0944,-1.9221402607359828,-0.0019878651946783066,3.1632492542266846,-1.8971467018127441,0.0006353824865072966,1.7467846870422363,5.567541348725118,-0.0010083239758387208,0.23762153089046478,-1.604077164326803,1.668851837166585e-05,-0.02456234209239483,0.7150074243545532,0.0,0.02236582711338997,0.8037621378898621,0.002641551662236452,0.16692227125167847
371.0,355.0,-2.787,0.0455,9.3458,-0.0339,0.0092,-0.0944,-1.9222084484496058,-0.0027836295776069164,3.196660041809082,-1.8970787525177002,0.0005481952102854848,1.8308513164520264,5.5674770949180505,-0.00139482447411865,0.23137949407100677,-1.6041176954852503,1.5809075193828903e-05,-0.019442152231931686,0.714966893196106,0.0,0.03433838486671448,0.8037821054458618,0.004595561418682337,0.17113235592842102
371.0,355.0,-2.787,0.0455,9.3458,-0.0339,0.0092,-0.0944,-1.9221354923644007,-0.00343148922547698,3.1569526195526123,-1.8971631526947021,0.0005255916039459407,1.795837163925171,5.567476975708761,-0.0021201169583946466,0.21967652440071106,-1.6040857473956507,1.5272527889464982e-05,-0.03149575740098953,0.71499103307724,0.0,0.018880639225244522,0.8038347959518433,0.005255649797618389,0.19904759526252747
371.0,355.0,-2.787,0.0455,9.3458,-0.0339,0.0092,-0.0944,-1.922220369378561,-0.00501204701140523,3.2216410636901855,-1.8971073627471924,0.0004361926985438913,1.7925134897232056,5.567521798401632,-0.003423761809244752,0.22037756443023682,-1.604150120412008,1.453267759643495e-05,-0.0313740149140358,0.7149910926818848,0.0,0.02806253358721733,0.8038547039031982,0.008891334757208824,0.23201805353164673
371.0,355.0,-2.787,0.0455,9.3458,-0.0339,0.0092,-0.0944,-1.922265192071432,-0.005144204944372177,3.1376185417175293,-1.8971426486968994,0.00043554097646847367,1.8352172374725342,5.56747333982543,-0.004328771494328976,0.22501569986343384,-1.6041339079486292,1.4078022104513366e-05,-0.019700700417160988,0.7149828672409058,0.0,0.027801329270005226,0.803930938243866,0.010681599378585815,0.24029704928398132
371.0,355.0,-2.787,0.0455,9.3458,-0.0339,0.0092,-0.0944,-1.9222923717894496,-0.005309070460498333,3.135955333709717,-1.8971588611602783,0.0004498335183598101,1.7874597311019897,5.567409503250875,-0.005803542677313089,0.21839073300361633,-1.6041377226458948,1.3446991033561062e-05,-0.04054052755236626,0.7149747610092163,0.0,0.04004614055156708,0.8040067553520203,0.014440033584833145,0.23003047704696655
371.0,355.0,-2.787,0.0455,9.3458,-0.0339,0.0092,-0.0944,-1.9223085842528285,-0.0048711360432207584,3.110145092010498,-1.8971033096313477,0.0006669340655207634,1.8543798923492432,5.567401635437765,-0.006688054651021957,0.22757424414157867,-1.604077164326803,1.3056824172963388e-05,-0.028877347707748413,0.7149910926818848,0.0,0.031172070652246475,0.8040223717689514,0.01712135039269924,0.27243658900260925
371.0,355.0,-2.787,0.0455,9.3458,-0.0339,0.0092,-0.0944,-1.9223324261107386,-0.0049952734261751175,3.1513261795043945,-1.8970754146575928,0.0007310211076401174,1.8338696956634521,5.567361581116476,-0.007871083915233612,0.21209204196929932,-1.6041176954852503,1.2688673450611532e-05,-0.025852449238300323,0.714978814125061,0.0,0.03443953022360802,0.8041548728942871,0.01974615268409252,0.29273954033851624
371.0,355.0,-2.787,0.0455,9.3458,-0.0339,0.0092,-0.0944,-1.9223362408080042,-0.005077843088656664,3.1488115787506104,-1.8971033096313477,0.0010574695188552141,1.8072484731674194,5.567345845490255,-0.010855250060558319,0.2058543860912323,-1.6041057745562952,1.21737693916657e-05,-0.027682173997163773,0.7150111198425293,0.0,0.02427004463970661,0.8043110966682434,0.024643773213028908,0.30151769518852234
371.0,355.0,-2.787,0.0455,9.3458,-0.0339,0.0092,-0.0944,-1.9223605595030726,-0.0052775368094444275,3.168402671813965,-1.8970909118652344,0.0009029954089783132,1.844936728477478,5.567257869034567,-0.012588085606694221,0.20313014090061188,-1.6041134039508265,5.18986809083799e-08,-0.032705601304769516,0.71498703956604,0.0,0.023968219757080078,0.8044071793556213,0.027227142825722694,0.3648751378059387
371.0,355.0,-2.787,0.0455,9.3458,-0.0339,0.0092,-0.0944,-1.922408243218893,-0.005877884104847908,3.126943588256836,-1.897111415863037,0.0005750933778472245,1.8542358875274658,5.567153739720144,-0.014867364428937435,0.2072896957397461,-1.6040895620929163,1.4446188169314755e-11,-0.051895879209041595,0.7150430679321289,0.0,0.04445776715874672,0.8045511245727539,0.03215803578495979,0.36695998907089233
371.0,355.0,-2.787,0.0455,9.3458,-0.0339,0.0092,-0.0944,-1.9224325619139613,-0.005668603349477053,3.106724977493286,-1.897087574005127,0.0005998553824611008,1.8544667959213257,5.567105877190389,-0.016083618625998497,0.17793205380439758,-1.6041377226458948,6.158636290829952e-14,-0.04091513901948929,0.7150111794471741,0.0,0.041563499718904495,0.8046832084655762,0.034923020750284195,0.3827707767486572
371.0,355.0,-2.787,0.0455,9.3458,-0.0339,0.0092,-0.0944,-1.922403951684469,-0.005263112485408783,3.1097023487091064,-1.8971197605133057,0.0011620642617344856,1.8453538417816162,5.567050206452169,-0.016604768112301826,0.18189506232738495,-1.6040938536273401,2.625523145011329e-16,-0.045609086751937866,0.7150431275367737,0.00012951470853295177,0.03876757249236107,0.8048717975616455,0.040093474090099335,0.4205440282821655
371.0,355.0,-2.787,0.0455,9.3458,-0.0339,0.0092,-0.0944,-1.9224683247008265,-0.004027123097330332,3.105213165283203,-1.897034764289856,0.003513303119689226,1.8807857036590576,5.56695436218337,-0.016500970348715782,0.1881997436285019,-1.6040857473956507,7.308240878308301e-20,-0.03811289370059967,0.7150030136108398,0.00014443651889450848,0.055295027792453766,0.8050795793533325,0.04367801547050476,0.42649561166763306
371.0,355.0,-2.787,0.0455,9.3458,-0.0339,0.0092,-0.0944,-1.922532697717184,-0.0037241692189127207,3.0815601348876953,-1.8970266580581665,0.00590852415189147,1.929281234741211,5.566910493164816,-0.01562979258596897,0.17978717386722565,-1.6040814558612269,3.115617630985166e-22,-0.03946307301521301,0.7150152325630188,0.00015583352069370449,0.0397394560277462,0.8053041100502014,0.04794132709503174,0.45341265201568604
363.0,347.0,-3.1765,-1.0361,9.8082,-0.062,0.0531,-0.0231,-1.922488351861471,-0.0033246830571442842,3.095254421234131,-1.8969871997833252,0.010157231241464615,1.87641179561615,5.566814648896017,-0.013318386860191822,0.18340009450912476,-1.6041134039508265,8.672435422482106e-26,-0.042087361216545105,0.7150595188140869,0.00014935834042262286,0.04108717292547226,0.8056486248970032,0.04988008365035057,0.41863101720809937
363.0,347.0,-3.1765,-1.0361,9.8082,-0.062,0.0531,-0.0231,-1.9225241146483363,-0.004036035388708115,3.1099185943603516,-1.8969311714172363,0.012413540855050087,1.8835065364837646,5.566771137505331,-0.012458579614758492,0.18552266061306,-1.6041176954852503,3.697195195695538e-28,-0.03675001859664917,0.7150111198425293,0.00014153037045616657,0.051005348563194275,0.8058246374130249,0.05130847916007042,0.4374106526374817
363.0,347.0,-3.1765,-1.0361,9.8082,-0.062,0.0531,-0.0231,-1.922572752038473,-0.0049144551157951355,3.118246078491211,-1.8968428373336792,0.016615429893136024,1.9044890403747559,5.566678929119863,-0.011759947054088116,0.17558468878269196,-1.6040938536273401,1.0291277892790855e-31,-0.03422001749277115,0.7149951457977295,0.0001474247983423993,0.039283908903598785,0.806084156036377,0.052786629647016525,0.4515094757080078
363.0,347.0,-3.1765,-1.0361,9.8082,-0.062,0.0531,-0.0231,-1.9225884876646937,-0.006273536942899227,3.096835136413574,-1.8967995643615723,0.020301543176174164,1.927965521812439,5.566635179310598,-0.010882929898798466,0.1780683547258377,-1.604098145161764,4.387333840595006e-34,-0.029979385435581207,0.7150593996047974,0.00014596259279642254,0.05080555006861687,0.8063573241233826,0.05313430353999138,0.45605796575546265
363.0,347.0,-3.1765,-1.0361,9.8082,-0.062,0.0531,-0.0231,-1.9226767025389613,-0.008263995870947838,3.1064999103546143,-1.8967156410217285,0.022117020562291145,1.9537549018859863,5.566611039429464,-0.010074778459966183,0.18482133746147156,-1.6040695349322718,1.87038915644614e-36,-0.03548535704612732,0.7150390148162842,0.00013952040171716362,0.061394814401865005,0.8065364360809326,0.05621401220560074,0.4205494821071625
363.0,347.0,-3.1765,-1.0361,9.8082,-0.062,0.0531,-0.0231,-1.9227243862547816,-0.011619385331869125,3.0504648685455322,-1.8965396881103516,0.026716703549027443,1.93644118309021,5.566518413811483,-0.009062245488166809,0.17376278340816498,-1.6040938536273401,5.206300236444566e-40,-0.01617087982594967,0.7149988412857056,0.00013082819350529462,0.04147374629974365,0.8068892955780029,0.06075027212500572,0.41438332200050354
363.0,347.0,-3.1765,-1.0361,9.8082,-0.062,0.0531,-0.0231,-1.922772069970602,-0.014696029014885426,3.0687520503997803,-1.8964473009109497,0.030258415266871452,2.0346665382385254,5.566511142044821,-0.008626720868051052,0.16746564209461212,-1.604098145161764,2.2196567674905102e-42,-0.01756349951028824,0.7150148153305054,0.000142359989695251,0.04143721982836723,0.8071415424346924,0.06423081457614899,0.4519030451774597
363.0,347.0,-3.1765,-1.0361,9.8082,-0.062,0.0531,-0.0231,-1.9228960476317347,-0.01914757490158081,3.0200517177581787,-1.8962228298187256,0.03492690622806549,2.01605224609375,5.5664628622825525,-0.006615906022489071,0.15563249588012695,-1.6041062513934534,0.0,-0.010156029835343361,0.71499103307724,0.00013545290858019143,0.051101431250572205,0.8075942397117615,0.07336662709712982,0.44593656063079834
363.0,347.0,-3.1765,-1.0361,9.8082,-0.062,0.0531,-0.0231,-1.9229275188841761,-0.021779492497444153,2.981799602508545,-1.8960871696472168,0.04039663448929787,1.9912675619125366,5.5664750812347314,-0.005507570691406727,0.15062697231769562,-1.6040576140033167,0.0,-0.015937354415655136,0.7149989008903503,0.00013054136070422828,0.04759623110294342,0.8079065680503845,0.07982388138771057,0.42328184843063354
363.0,347.0,-3.1765,-1.0361,9.8082,-0.062,0.0531,-0.0231,-1.9231001339354457,-0.024755585938692093,3.006441831588745,-1.89586341381073,0.04603053629398346,1.9866881370544434,5.566495644837179,-0.005112353712320328,0.1472424864768982,-1.6040499846087855,0.0,0.005323371384292841,0.7150872945785522,0.0001259733398910612,0.05174301564693451,0.8082024455070496,0.08682816475629807,0.3960534334182739
363.0,347.0,-3.1765,-1.0361,9.8082,-0.062,0.0531,-0.0231,-1.9232760868468226,-0.02954011596739292,2.9792275428771973,-1.895566463470459,0.05367103964090347,2.0218210220336914,5.566391098290243,-0.0061368318274617195,0.15141364932060242,-1.6040175596820276,0.00044626049930229783,-0.0027351132594048977,0.7150954008102417,0.00012905358744319528,0.05157354846596718,0.8087592720985413,0.0955149382352829,0.3697243332862854
363.0,347.0,-3.1765,-1.0361,9.8082,-0.062,0.0531,-0.0231,-1.9233561954894007,-0.03253806754946709,2.9781675338745117,-1.8953988552093506,0.05885544419288635,2.0368428230285645,5.566375601082601,-0.008458813652396202,0.14202743768692017,-1.6040657202350062,0.0004893623408861458,0.008485566824674606,0.7151076793670654,0.0001308781502302736,0.05982784181833267,0.8091593980789185,0.10166561603546143,0.3683122992515564
363.0,347.0,-3.1765,-1.0361,9.8082,-0.062,0.0531,-0.0231,-1.9235760174193324,-0.03605964034795761,3.008535385131836,-1.894971489906311,0.06677116453647614,2.0729610919952393,5.566259193211355,-0.01287628524005413,0.1306302696466446,-1.6040218512164515,0.0007522227242588997,0.021862782537937164,0.715087354183197,0.00012041031004628167,0.0539340116083622,0.8098326325416565,0.10707773268222809,0.373980849981308
363.0,347.0,-3.1765,-1.0361,9.8082,-0.062,0.0531,-0.0231,-1.9236637554564417,-0.036908045411109924,2.969750165939331,-1.894707441329956,0.06819438934326172,2.052952289581299,5.566207217961111,-0.017045335844159126,0.14450183510780334,-1.6040499846087855,0.0008301470661535859,0.007650477346032858,0.7150267362594604,0.00013695057714357972,0.05555792152881622,0.8102847933769226,0.11066479980945587,0.3478963077068329
363.0,347.0,-3.1765,-1.0361,9.8082,-0.062,0.0531,-0.0231,-1.923915525475973,-0.03622892126441002,2.971066951751709,-1.8942875862121582,0.07457517087459564,2.036426067352295,5.56610386350707,-0.02434103563427925,0.13944606482982635,-1.6040099302874964,0.0020824081730097532,0.03168518468737602,0.7150390148162842,0.0001472610019845888,0.054457396268844604,0.810985267162323,0.11096572875976562,0.3371179699897766
363.0,347.0,-3.1765,-1.0361,9.8082,-0.062,0.0531,-0.0231,-1.9240757427611292,-0.03454514220356941,2.989814281463623,-1.8939231634140015,0.07841753959655762,2.058798313140869,5.566024052887716,-0.027242032811045647,0.12487288564443588,-1.6040056387530726,0.00367525196634233,0.028588473796844482,0.7150790691375732,0.00014197344717103988,0.06007206439971924,0.8114055395126343,0.11106604337692261,0.3000710606575012
363.0,347.0,-3.1765,-1.0361,9.8082,-0.062,0.0531,-0.0231,-1.924154897729391,-0.03305207937955856,2.9772844314575195,-1.8936266899108887,0.08232123404741287,2.0550646781921387,5.565904128342428,-0.034322671592235565,0.11054112017154694,-1.6039851347552698,0.008530383929610252,0.045284390449523926,0.715054988861084,0.00015492925012949854,0.0647401437163353,0.8118377327919006,0.10906399041414261,0.28050607442855835
363.0,347.0,-3.1765,-1.0361,9.8082,-0.062,0.0531,-0.0231,-1.9243713817992152,-0.032726582139730453,2.970047950744629,-1.8931397199630737,0.08969233930110931,2.14811372756958,5.565640258580007,-0.04807884246110916,0.1149536520242691,-1.6039617697345179,0.018574602901935577,0.05354718863964081,0.7150630950927734,0.00026056187925860286,0.07346285879611969,0.8125106692314148,0.10796238481998444,0.29096919298171997
363.0,347.0,-3.1765,-1.0361,9.8082,-0.062,0.0531,-0.0231,-1.9245196781554164,-0.033890821039676666,2.985750675201416,-1.8927417993545532,0.09648039937019348,2.1118321418762207,5.565363991051473,-0.06067843362689018,0.10976175963878632,-1.6038897673236292,0.01662253774702549,0.038411423563957214,0.7150590419769287,0.0002809076977428049,0.05662993714213371,0.8129510283470154,0.11035868525505066,0.2807418704032898
385.0,346.0,-3.6257,0.8327,9.8231,-0.0206,0.0252,-0.0142,-1.9247147045531214,-0.03682493045926094,2.9810075759887695,-1.8921515941619873,0.1113690659403801,2.1491339206695557,5.564929234772482,-0.08136199414730072,0.0991407036781311,-1.6038220564471644,0.007230091840028763,0.03884771466255188,0.715083122253418,0.0003189618873875588,0.06746098399162292,0.8136481046676636,0.11312204599380493,0.24301597476005554
385.0,346.0,-3.6257,0.8327,9.8231,-0.0206,0.0252,-0.0142,-1.9248630009093226,-0.040865495800971985,2.937504291534424,-1.8916456699371338,0.11690486967563629,2.1601316928863525,5.564613449364462,-0.09746716171503067,0.0881769210100174,-1.6038177649127405,0.0016031600534915924,0.04452598839998245,0.7150514125823975,0.0002988865307997912,0.07209660857915878,0.8140880465507507,0.11558955907821655,0.2811358869075775
385.0,346.0,-3.6257,0.8327,9.8231,-0.0206,0.0252,-0.0142,-1.92503084758901,-0.041675008833408356,2.951235771179199,-1.8911718130111694,0.12515291571617126,2.1556508541107178,5.564181971340933,-0.11008049547672272,0.08515854924917221,-1.60382587114443,8.277183951577172e-06,0.03934301808476448,0.7150627970695496,0.0004196764493826777,0.06478185951709747,0.8144996166229248,0.11571459472179413,0.24368949234485626
385.0,346.0,-3.6257,0.8327,9.8231,-0.0206,0.0252,-0.0142,-1.9252907238402308,-0.044412367045879364,2.940229654312134,-1.8903759717941284,0.13973717391490936,2.223137378692627,5.56347935178832,-0.1192372590303421,0.07837072014808655,-1.6038134733783167,2.303984780738233e-09,0.041120484471321106,0.715107262134552,0.0004422852653078735,0.08366614580154419,0.8152373433113098,0.11893250048160553,0.32446837425231934
385.0,346.0,-3.6257,0.8327,9.8231,-0.0206,0.0252,-0.0142,-1.9254585705199183,-0.04408155754208565,2.917248010635376,-1.8897719383239746,0.1471061110496521,2.2095842361450195,5.563000488072195,-0.11480002105236053,0.06898865103721619,-1.6038463751422327,9.822247182267319e-12,0.040050651878118515,0.7150832414627075,0.00045443818089552224,0.0818486362695694,0.8156895637512207,0.1200983002781868,0.2712753415107727
385.0,346.0,-3.6257,0.8327,9.8231,-0.0206,0.0252,-0.0142,-1.9257265530028285,-0.045522332191467285,2.999591827392578,-1.8888907432556152,0.15515026450157166,2.1832222938537598,5.562329578190603,-0.11725444346666336,0.06510905921459198,-1.6038015524493616,2.7340584528615878e-15,0.04924355074763298,0.7150750160217285,0.00044611169141717255,0.07166749984025955,0.8164342641830444,0.12004096060991287,0.2280198633670807
385.0,346.0,-3.6257,0.8327,9.8231,-0.0206,0.0252,-0.0142,-1.9259106121458949,-0.045670442283153534,2.9510445594787598,-1.888213038444519,0.15937212109565735,2.2152657508850098,5.5617936728294275,-0.13187311589717865,0.08270387351512909,-1.6037810484515589,1.1655720947784683e-17,0.04384271800518036,0.715087354183197,0.00044636870734393597,0.07188260555267334,0.8169108033180237,0.11776673048734665,0.24064871668815613
385.0,346.0,-3.6257,0.8327,9.8231,-0.0206,0.0252,-0.0142,-1.92612948040151,-0.04492052644491196,2.964137077331543,-1.8871800899505615,0.1688297688961029,2.1995797157287598,5.560842144280233,-0.1614815592765808,0.07469089329242706,-1.6038382689105433,3.244412792657164e-21,0.06549942493438721,0.7151032090187073,0.00041907787090167403,0.0798766165971756,0.8176348209381104,0.11540200561285019,0.2995716333389282
385.0,346.0,-3.6257,0.8327,9.8231,-0.0206,0.0252,-0.0142,-1.926377912560934,-0.044690605252981186,2.968505382537842,-1.8865596055984497,0.17874270677566528,2.224693775177002,5.560161936074056,-0.16857628524303436,0.04845687001943588,-1.6037777105914515,0.00011450712190708145,0.0680786520242691,0.7150347828865051,0.0003715269558597356,0.07394836097955704,0.8180547952651978,0.11575115472078323,0.2092544436454773
385.0,346.0,-3.6257,0.8327,9.8231,-0.0206,0.0252,-0.0142,-1.9265219173827113,-0.04459291324019432,2.986773729324341,-1.8857970237731934,0.1912475973367691,2.252441167831421,5.5594738004501245,-0.16961601376533508,0.05295513570308685,-1.6038177649127405,0.00010301073780283332,0.058510683476924896,0.7151269912719727,0.00033232211717404425,0.09379388391971588,0.8185555338859558,0.11512032151222229,0.21491119265556335
385.0,346.0,-3.6257,0.8327,9.8231,-0.0206,0.0252,-0.0142,-1.9268137417235316,-0.04645649343729019,2.9967029094696045,-1.884621500968933,0.20556245744228363,2.2918732166290283,5.558445441513815,-0.17597408592700958,0.05471373349428177,-1.6038015524493616,8.791771688265726e-05,0.0555124431848526,0.7151270508766174,0.0003278792428318411,0.08972517400979996,0.8192276358604431,0.11602316796779633,0.26089948415756226
385.0,346.0,-3.6257,0.8327,9.8231,-0.0206,0.0252,-0.0142,-1.9270173511900843,-0.049010712653398514,2.9963293075561523,-1.883785367012024,0.21080243587493896,2.264331817626953,5.557697045594015,-0.1942875236272812,0.05368683114647865,-1.6037891546832483,8.00917114247568e-05,0.07889212667942047,0.7151110172271729,0.0003003619785886258,0.08875928074121475,0.8197000622749329,0.11561880260705948,0.1989113986492157
385.0,346.0,-3.6257,0.8327,9.8231,-0.0206,0.0252,-0.0142,-1.9272810421385707,-0.05332355573773384,2.9412426948547363,-1.8824918270111084,0.2198261171579361,2.269718885421753,5.556391942292013,-0.21820196509361267,0.03925582021474838,-1.603797737752096,7.06578794051893e-05,0.0663442611694336,0.7150991559028625,0.0002505592710804194,0.09798946976661682,0.8204128742218018,0.11567913740873337,0.2689773738384247
385.0,346.0,-3.6257,0.8327,9.8231,-0.0206,0.0252,-0.0142,-1.9275170765318812,-0.055687688291072845,2.9155211448669434,-1.8815772533416748,0.23471470177173615,2.2856340408325195,5.555507647782125,-0.2203289121389389,0.03293777257204056,-1.6038220564471644,6.551358819706365e-05,0.05509832501411438,0.715095043182373,0.00022544524108525366,0.0919080376625061,0.8208044767379761,0.11708391457796097,0.21691420674324036
385.0,346.0,-3.6257,0.8327,9.8231,-0.0206,0.0252,-0.0142,-1.927697320977682,-0.05732681602239609,2.9698076248168945,-1.8806421756744385,0.24800103902816772,2.334998607635498,5.554631042271414,-0.24180074036121368,0.0353299155831337,-1.603769604359762,6.106749788159505e-05,0.04625272750854492,0.7150586843490601,0.00024308566935360432,0.106867216527462,0.8213039636611938,0.11840707808732986,0.20728722214698792
385.0,346.0,-3.6257,0.8327,9.8231,-0.0206,0.0252,-0.0142,-1.928016801873678,-0.059119969606399536,2.958322525024414,-1.8791099786758423,0.2649422287940979,2.334498882293701,5.553025889187612,-0.2714073657989502,0.021651552990078926,-1.6037891546832483,5.5425662139896303e-05,0.06303292512893677,0.7151511907577515,0.00021632996504195035,0.08296113461256027,0.8220496773719788,0.1176346093416214,0.27735018730163574
385.0,346.0,-3.6257,0.8327,9.8231,-0.0206,0.0252,-0.0142,-1.9282804928221644,-0.06103432923555374,2.958983898162842,-1.8779985904693604,0.2689613997936249,2.332432270050049,5.551913904934683,-0.2740516662597656,0.018627053126692772,-1.603769604359762,5.2210118155926466e-05,0.05181744694709778,0.7151432633399963,0.0002002810506382957,0.11069086194038391,0.8225588798522949,0.11909588426351547,0.21341946721076965
385.0,346.0,-3.6257,0.8327,9.8231,-0.0206,0.0252,-0.0142,-1.928664346734518,-0.06625080853700638,3.008359909057617,-1.876291275024414,0.2818525731563568,2.3002169132232666,5.550220894604482,-0.29689568281173706,0.01314268633723259,-1.6037810484515589,4.803035335498862e-05,0.04110313206911087,0.7151269912719727,0.00019495042215567082,0.08545085787773132,0.8233138918876648,0.12127625197172165,0.2539077699184418
385.0,346.0,-3.6257,0.8327,9.8231,-0.0206,0.0252,-0.0142,-1.928960462609762,-0.07077274471521378,3.027930736541748,-1.875103235244751,0.29664766788482666,2.35455060005188,5.5489603755767725,-0.2991776466369629,0.012896271422505379,-1.603752915059225,4.559677472570911e-05,0.03996777907013893,0.7150990962982178,0.00019703901489265263,0.10003365576267242,0.8237781524658203,0.12440497428178787,0.2890157401561737
346.0,328.0,-4.3364,-0.6401,9.2483,-0.0757,-0.1648,0.0072,-1.9293838940062464,-0.07478336989879608,2.945297956466675,-1.8733150959014893,0.31234657764434814,2.3865065574645996,5.547127234726705,-0.32799455523490906,-0.0032213889062404633,-1.6038177649127405,4.237624671077356e-05,0.05694838613271713,0.7150709629058838,0.00018019023991655558,0.09844771027565002,0.8245157599449158,0.12194057554006577,0.21466973423957825
346.0,328.0,-4.3364,-0.6401,9.2483,-0.0757,-0.1648,0.0072,-1.9296795330443324,-0.07673496752977371,2.9455389976501465,-1.8720757961273193,0.31441670656204224,2.351414442062378,5.5457143662269495,-0.3425848186016083,-0.010568087920546532,-1.6037409941302698,4.047062247991562e-05,0.06237690895795822,0.7150709629058838,0.0001704396854620427,0.09628373384475708,0.825036883354187,0.11781682819128036,0.23366066813468933
346.0,328.0,-4.3364,-0.6401,9.2483,-0.0757,-0.1648,0.0072,-1.9300233326353968,-0.08082379400730133,2.970010757446289,-1.870724081993103,0.3198882043361664,2.3715646266937256,5.54423342922286,-0.3521735668182373,-0.014649314805865288,-1.6037409941302698,3.872902016155422e-05,0.061904050409793854,0.7150828242301941,0.00016169040463864803,0.09361156821250916,0.8254687190055847,0.11428862065076828,0.20969633758068085
346.0,328.0,-4.3364,-0.6401,9.2483,-0.0757,-0.1648,0.0072,-1.930563589135641,-0.08515755832195282,2.9881043434143066,-1.8687562942504883,0.33479124307632446,2.4003758430480957,5.5421162126357935,-0.3759990632534027,-0.02205929160118103,-1.6038101355182093,3.638061389210634e-05,0.0613718219101429,0.7151392698287964,0.00015013047959655523,0.09147803485393524,0.8261778950691223,0.11263921111822128,0.22173619270324707
346.0,328.0,-4.3364,-0.6401,9.2483,-0.0757,-0.1648,0.0072,-1.9308635197081507,-0.08766687661409378,2.954071521759033,-1.867315649986267,0.34409067034721375,2.395451068878174,5.540523874550619,-0.38637158274650574,-0.02333899587392807,-1.603813950215475,3.4967113606398925e-05,0.06425739079713821,0.7151392102241516,0.00014330039266496897,0.08870988339185715,0.8266082406044006,0.11276562511920929,0.19037432968616486
346.0,328.0,-4.3364,-0.6401,9.2483,-0.0757,-0.1648,0.0072,-1.9314590893187464,-0.0891837403178215,2.9736742973327637,-1.865256667137146,0.3531491458415985,2.3726396560668945,5.538158702641287,-0.40626975893974304,-0.027569815516471863,-1.6038220564471644,3.3041491406038404e-05,0.06344206631183624,0.7150909900665283,0.00013414623390417546,0.10020484030246735,0.827292799949646,0.11170387268066406,0.27023422718048096
346.0,328.0,-4.3364,-0.6401,9.2483,-0.0757,-0.1648,0.0072,-1.9317780933775843,-0.09335040301084518,2.9662365913391113,-1.8638290166854858,0.36164718866348267,2.460495710372925,5.536505448609152,-0.4228457510471344,-0.03752288967370987,-1.6038621107684534,3.187135371263139e-05,0.0393979474902153,0.7151147723197937,0.000128666652017273,0.10152272135019302,0.8276819586753845,0.11179938912391663,0.20811785757541656
346.0,328.0,-4.3364,-0.6401,9.2483,-0.0757,-0.1648,0.0072,-1.93219055751943,-0.09945234656333923,3.0289969444274902,-1.8623816967010498,0.36592498421669006,2.424226999282837,5.534768926888265,-0.43422794342041016,-0.03196331113576889,-1.6037934462176722,3.078130248468369e-05,0.05860621854662895,0.7150586843490601,0.00012361712288111448,0.08981473743915558,0.8281731009483337,0.11272773146629333,0.24840888381004333
346.0,328.0,-4.3364,-0.6401,9.2483,-0.0757,-0.1648,0.0072,-1.932777544061178,-0.11118942499160767,3.0266406536102295,-1.8601624965667725,0.3758450448513031,2.4420342445373535,5.532007384091177,-0.47005197405815125,-0.029600631445646286,-1.6038220564471644,2.9279181035235524e-05,0.05540807545185089,0.7151150703430176,0.00011674476263578981,0.09938676655292511,0.8288593888282776,0.11901416629552841,0.21751973032951355
346.0,328.0,-4.3364,-0.6401,9.2483,-0.0757,-0.1648,0.0072,-1.9332496128477992,-0.11838682740926743,2.9991683959960938,-1.8586219549179077,0.3862784802913666,2.388003349304199,5.530150520592489,-0.4765903055667877,-0.043120965361595154,-1.6037934462176722,2.835664236044977e-05,0.0674227625131607,0.7150949835777283,0.00011257261212449521,0.09047935903072357,0.8293072581291199,0.12082609534263611,0.22388705611228943
346.0,328.0,-4.3364,-0.6401,9.2483,-0.0757,-0.1648,0.0072,-1.9339891872801722,-0.1307946741580963,2.96588134765625,-1.856277585029602,0.3943019211292267,2.425128221511841,5.527160155564108,-0.4924471974372864,-0.05363774299621582,-1.6037934462176722,2.707696330617182e-05,0.053517334163188934,0.715103268623352,0.00010684498556656763,0.08102408051490784,0.8300027847290039,0.11722619831562042,0.2341192066669464
346.0,328.0,-4.3364,-0.6401,9.2483,-0.0757,-0.1648,0.0072,-1.9345327816405238,-0.13576282560825348,3.0134544372558594,-1.8547041416168213,0.40611183643341064,2.4496803283691406,5.525171088963308,-0.5132823586463928,-0.053302086889743805,-1.603797737752096,2.628612310218159e-05,0.05407656729221344,0.7150588035583496,0.00010333969112252817,0.08531972765922546,0.8305085897445679,0.1113322302699089,0.2731446325778961
346.0,328.0,-4.3364,-0.6401,9.2483,-0.0757,-0.1648,0.0072,-1.9353887043394984,-0.1407240778207779,2.962371826171875,-1.852211356163025,0.42419618368148804,2.4519200325012207,5.522065984993734,-0.5319397449493408,-0.056295525282621384,-1.603769604359762,2.5182864192174748e-05,0.03918815404176712,0.7150872349739075,9.849292109720409e-05,0.08120572566986084,0.8311206102371216,0.1045265793800354,0.251388818025589
346.0,328.0,-4.3364,-0.6401,9.2483,-0.0757,-0.1648,0.0072,-1.9359399280943812,-0.14227254688739777,2.9735093116760254,-1.8505265712738037,0.43338510394096375,2.4539833068847656,5.519941496640005,-0.5403651595115662,-0.06060723215341568,-1.60382587114443,2.449739804433193e-05,0.05027608945965767,0.7151188850402832,9.550664981361479e-05,0.08710090816020966,0.8315115571022034,0.10402742028236389,0.23017045855522156
346.0,328.0,-4.3364,-0.6401,9.2483,-0.0757,-0.1648,0.0072,-1.9365955791869105,-0.14278243482112885,3.0845212936401367,-1.8487520217895508,0.4437205493450165,2.4964208602905273,5.517724382668295,-0.552033543586731,-0.0547507181763649,-1.6038177649127405,2.3848266209824942e-05,0.04105803370475769,0.7151270508766174,9.269616566598415e-05,0.08919721841812134,0.8319640755653381,0.1033751592040062,0.2375400960445404
346.0,328.0,-4.3364,-0.6401,9.2483,-0.0757,-0.1648,0.0072,-1.9375034771361292,-0.14710193872451782,3.071471691131592,-1.8461145162582397,0.44750115275382996,2.494560480117798,5.514254736691274,-0.5764323472976685,-0.0530923455953598,-1.6038497130023401,1.7283809938817285e-05,0.05821167677640915,0.7150587439537048,8.877742220647633e-05,0.08430717140436172,0.8325293660163879,0.0998258963227272,0.21882042288780212
346.0,328.0,-4.3364,-0.6401,9.2483,-0.0757,-0.1648,0.0072,-1.938183446923727,-0.15937910974025726,2.9697768688201904,-1.8442226648330688,0.4481445252895355,2.4989070892333984,5.511905419617452,-0.5992699265480042,-0.047128722071647644,-1.6037934462176722,1.1208088835701346e-05,0.04382408782839775,0.715095043182373,8.634400728624314e-05,0.0853552594780922,0.8329460620880127,0.10062610357999802,0.2510618269443512
346.0,328.0,-4.3364,-0.6401,9.2483,-0.0757,-0.1648,0.0072,-1.9391261539854945,-0.17942498624324799,2.9644417762756348,-1.8414342403411865,0.4584883749485016,2.514803409576416,5.508315312653341,-0.6164454221725464,-0.0489107109606266,-1.6038015524493616,1.0781407581816893e-05,0.028576016426086426,0.7150667905807495,2.9644328606082126e-05,0.07791537046432495,0.8335140943527222,0.10545793175697327,0.22095665335655212
346.0,328.0,-4.3364,-0.6401,9.2483,-0.0757,-0.1648,0.0072,-1.9399100742735804,-0.19216027855873108,2.987222194671631,-1.839577317237854,0.4645787477493286,2.50211763381958,5.505834746151724,-0.6259714961051941,-0.06325755268335342,-1.6038015524493616,1.0529139217396732e-05,0.04326843470335007,0.7150872349739075,2.8481044864747673e-05,0.07532573491334915,0.8339714407920837,0.10899269580841064,0.26072508096694946
346.0,328.0,-4.3364,-0.6401,9.2483,-0.0757,-0.1648,0.0072,-1.9406453571715296,-0.1984807699918747,2.957063674926758,-1.837700605392456,0.47388821840286255,2.4986748695373535,5.503405737667837,-0.6335169672966003,-0.028435789048671722,-1.6037934462176722,1.0288401426805649e-05,0.036047883331775665,0.7150790691375732,2.760645656962879e-05,0.07494940608739853,0.8344100117683411,0.11019571125507355,0.27921727299690247
326.0,315.0,-2.5561,0.1872,9.7603,-0.0586,-0.3421,0.0104,-1.9417606792845667,-0.19192160665988922,2.968546152114868,-1.8348406553268433,0.4850347638130188,2.5241146087646484,5.499512183457174,-0.6405316591262817,-0.04001661762595177,-1.6037810484515589,9.947267244569957e-06,0.038271963596343994,0.7150390148162842,2.639213744259905e-05,0.06984832137823105,0.8349901437759399,0.10830503702163696,0.24915748834609985
326.0,315.0,-2.5561,0.1872,9.7603,-0.0586,-0.3421,0.0104,-1.9425517521300257,-0.18132472038269043,3.0237369537353516,-1.83285391330719,0.4936601221561432,2.552931785583496,5.49692981222228,-0.6466008424758911,-0.028949523344635963,-1.6037657896624964,4.240676076960881e-08,0.039100125432014465,0.7151150703430176,2.5640230887802318e-05,0.07584947347640991,0.8354640603065491,0.10354286432266235,0.2310023009777069
326.0,315.0,-2.5561,0.1872,9.7603,-0.0586,-0.3421,0.0104,-1.943662782708639,-0.1818096786737442,3.014997720718384,-1.8298622369766235,0.5090934038162231,2.5446412563323975,5.492976772576132,-0.6500867605209351,-0.0317428819835186,-1.6038220564471644,1.1804077680588332e-11,0.02763516828417778,0.7150909900665283,2.4589451641077176e-05,0.07769538462162018,0.8360989689826965,0.10433213412761688,0.25773948431015015
326.0,315.0,-2.5561,0.1872,9.7603,-0.0586,-0.3421,0.0104,-1.9444948635497035,-0.19039110839366913,3.019956588745117,-1.8278632164001465,0.5141881704330444,2.5299625396728516,5.490299033909597,-0.6658997535705566,-0.03217392414808273,-1.6038015524493616,5.0322637360324454e-14,0.029776819050312042,0.7151110172271729,2.3935495846671984e-05,0.08966009318828583,0.8364913463592529,0.10489124059677124,0.26873087882995605
326.0,315.0,-2.5561,0.1872,9.7603,-0.0586,-0.3421,0.0104,-1.9457103214659632,-0.21027176082134247,3.0278377532958984,-1.8247740268707275,0.5107424855232239,2.4999027252197266,5.486259984761038,-0.6732367873191833,-0.03477247431874275,-1.603854004536764,1.4007493036585222e-17,0.03281082212924957,0.7150790691375732,2.3017286366666667e-05,0.08503207564353943,0.8371454477310181,0.10362477600574493,0.27318400144577026
326.0,315.0,-2.5561,0.1872,9.7603,-0.0586,-0.3421,0.0104,-1.9465609989561976,-0.22632017731666565,3.048114776611328,-1.8226394653320312,0.517223596572876,2.5746798515319824,5.483559953957357,-0.6900151371955872,-0.027663838118314743,-1.603776756917135,5.971613297415788e-20,0.018718572333455086,0.7150505781173706,2.244330789835658e-05,0.07276804745197296,0.8375120759010315,0.10111082345247269,0.2567656636238098
326.0,315.0,-2.5561,0.1872,9.7603,-0.0586,-0.3421,0.0104,-1.947456499139303,-0.2335634082555771,3.0599026679992676,-1.8206236362457275,0.5215822458267212,2.5061094760894775,5.480834173947134,-0.6955481767654419,-0.02933592163026333,-1.6038497130023401,2.5457924757965447e-22,0.026713164523243904,0.715107262134552,2.189726183132734e-05,0.06931336224079132,0.8379160761833191,0.09770044684410095,0.2858259677886963
326.0,315.0,-2.5561,0.1872,9.7603,-0.0586,-0.3421,0.0104,-1.9487558803954066,-0.22838613390922546,2.985325813293457,-1.8174587488174438,0.5361552834510803,2.561983108520508,5.476707625180044,-0.6940016150474548,-0.03286483883857727,-1.603797737752096,7.086307313018821e-26,0.01551103126257658,0.7150951027870178,2.1126259525772184e-05,0.07857701927423477,0.8383805155754089,0.09651388227939606,0.26953595876693726
326.0,315.0,-2.5561,0.1872,9.7603,-0.0586,-0.3421,0.0104,-1.9496962032713832,-0.22068263590335846,3.0305323600769043,-1.8152371644973755,0.5408578515052795,2.5108866691589355,5.474009620934286,-0.690144956111908,-0.02451232075691223,-1.603809658681051,3.021003840374853e-28,0.024629758670926094,0.7150709629058838,2.0641718947445042e-05,0.0718117356300354,0.8388428092002869,0.09604482352733612,0.3215603232383728
326.0,315.0,-2.5561,0.1872,9.7603,-0.0586,-0.3421,0.0104,-1.951010366479391,-0.21967126429080963,3.090726852416992,-1.8119466304779053,0.5420453548431396,2.5319020748138428,5.469846415310659,-0.6900052428245544,-0.012344280257821083,-1.6038101355182093,8.409075750507032e-32,0.015268411487340927,0.7150508761405945,1.995520869968459e-05,0.05938974767923355,0.8394215703010559,0.09877339005470276,0.30797311663627625
326.0,315.0,-2.5561,0.1872,9.7603,-0.0586,-0.3421,0.0104,-1.9519292316832484,-0.22062984108924866,3.0888357162475586,-1.8097234964370728,0.5466520190238953,2.5044546127319336,5.467068362026968,-0.6829336881637573,-0.029109902679920197,-1.6038134733783167,3.584920733737077e-34,0.02089061215519905,0.7150790691375732,1.6782917100499617e-07,0.07645995914936066,0.8397623300552368,0.10219753533601761,0.2751046419143677
326.0,315.0,-2.5561,0.1872,9.7603,-0.0586,-0.3421,0.0104,-1.9527727566161097,-0.21974605321884155,3.075747489929199,-1.8076032400131226,0.5539258718490601,2.4904656410217285,5.464336621552267,-0.6784446835517883,-0.022885512560606003,-1.603854004536764,1.5283080317085395e-36,0.013772829435765743,0.7150509357452393,7.1548222901896e-10,0.05739014595746994,0.8402714729309082,0.10653918981552124,0.3381396532058716
326.0,315.0,-2.5561,0.1872,9.7603,-0.0586,-0.3421,0.0104,-1.9541360340514125,-0.22895585000514984,3.096799373626709,-1.804209589958191,0.5592849254608154,2.504127264022827,5.460221457272329,-0.680756688117981,-0.015351243317127228,-1.6038497130023401,4.2541039169512094e-40,0.011827908456325531,0.7150750160217285,1.9915711061638947e-13,0.05962377414107323,0.8408944010734558,0.11181990802288055,0.275321900844574
326.0,315.0,-2.5561,0.1872,9.7603,-0.0586,-0.3421,0.0104,-1.955083509484762,-0.232153981924057,3.066033363342285,-1.8020929098129272,0.5607967376708984,2.5383448600769043,5.457552122860708,-0.6789516806602478,-0.030239710584282875,-1.6037810484515589,1.8132802128363133e-42,0.016672175377607346,0.7150468230247498,8.490379801195697e-16,0.06738582253456116,0.8413429260253906,0.11473135650157928,0.29309746623039246
326.0,315.0,-2.5561,0.1872,9.7603,-0.0586,-0.3421,0.0104,-1.956430574456686,-0.23496019840240479,3.133542537689209,-1.798651933670044,0.5618183612823486,2.4274706840515137,5.453551637917318,-0.6722197532653809,-0.014634214341640472,-1.6038339773761194,-0.000164636701811105,0.01734248176217079,0.7150590419769287,2.3633286808373056e-19,0.06809278577566147,0.8419954776763916,0.11290042102336884,0.2921328544616699
326.0,315.0,-2.5561,0.1872,9.7603,-0.0586,-0.3421,0.0104,-1.9573174915709437,-0.23519806563854218,3.0829055309295654,-1.7963875532150269,0.5682003498077393,2.497173309326172,5.45080994346694,-0.6693259477615356,-0.006064798217266798,-1.6038296858416956,-0.0001404861395712942,0.021208520978689194,0.7150832414627075,1.0075240604706481e-21,0.06867067515850067,0.8424930572509766,0.1093074381351471,0.2344115674495697
326.0,315.0,-2.5561,0.1872,9.7603,-0.0586,-0.3421,0.0104,-1.958728929559225,-0.23416686058044434,3.108283519744873,-1.7929298877716064,0.5717481970787048,2.5010571479797363,5.446802425175466,-0.6626104712486267,-0.017139315605163574,-1.6038339773761194,-0.00016235637303907424,0.012710330076515675,0.7150550484657288,2.8044801437083177e-25,0.05731750279664993,0.8431575894355774,0.10746956616640091,0.2564391791820526
326.0,315.0,-2.5561,0.1872,9.7603,-0.0586,-0.3421,0.0104,-1.9596644840636195,-0.23764993250370026,3.0871381759643555,-1.7906653881072998,0.5768621563911438,2.467024326324463,5.444217967778005,-0.650029718875885,0.0029562017880380154,-1.6038101355182093,-0.00011921205441467464,0.00982537493109703,0.7151150107383728,1.195594005723269e-27,0.06559296697378159,0.8435806035995483,0.10856447368860245,0.31283414363861084
326.0,315.0,-2.5561,0.1872,9.7603,-0.0586,-0.3421,0.0104,-1.9605637989439906,-0.23871369659900665,3.1272974014282227,-1.7883946895599365,0.5797950625419617,2.4342432022094727,5.441669451981344,-0.6480117440223694,0.020474333316087723,-1.6038420836078089,-9.42010447033681e-05,0.010854635387659073,0.71503084897995,5.09700519510897e-30,0.062204454094171524,0.8440544605255127,0.11391386389732361,0.2907571792602539
321.0,335.0,-1.136,0.5204,8.7673,0.0128,-0.2181,0.0034,-1.9620386562743128,-0.23837685585021973,3.134298324584961,-1.7849109172821045,0.5883534550666809,2.483515501022339,5.4378331182296655,-0.630744993686676,0.00999351404607296,-1.6038220564471644,-7.166921568568796e-05,0.007094584871083498,0.7150872349739075,1.418769886222668e-33,0.05489025637507439,0.8447187542915344,0.11871559172868729,0.25129836797714233
321.0,335.0,-1.136,0.5204,8.7673,0.0128,-0.2181,0.0034,-1.962896009484762,-0.2328106015920639,3.142040967941284,-1.782549262046814,0.5845857262611389,2.469027280807495,5.435270952969351,-0.627463698387146,0.007152193691581488,-1.6038578192340296,-6.181650678627193e-05,0.0028834990225732327,0.7150672078132629,6.048438596970627e-36,0.06406230479478836,0.8451778292655945,0.12080598622560501,0.307111918926239
321.0,335.0,-1.136,0.5204,8.7673,0.0128,-0.2181,0.0034,-1.9643823109068812,-0.23770666122436523,3.14774489402771,-1.7790096998214722,0.5848457217216492,2.5241165161132812,5.431551146298208,-0.6133733987808228,0.0031609460711479187,-1.6037934462176722,-0.00010246738384012133,0.006538226269185543,0.7150709629058838,1.683605454246159e-39,0.05847858637571335,0.8459624648094177,0.1250174343585968,0.327610045671463
321.0,335.0,-1.136,0.5204,8.7673,0.0128,-0.2181,0.0034,-1.9654256306090296,-0.2510583996772766,3.166118860244751,-1.7766283750534058,0.5855939984321594,2.397390604019165,5.429194378643789,-0.6121006608009338,0.010212854482233524,-1.6038058439837855,-9.201688226312399e-05,0.0043733506463468075,0.715083122253418,7.177450734271713e-42,0.06488902121782303,0.8464440703392029,0.12959200143814087,0.29425927996635437
321.0,335.0,-1.136,0.5204,8.7673,0.0128,-0.2181,0.0034,-1.9664718113341273,-0.2609758973121643,3.1495308876037598,-1.7742871046066284,0.5885398983955383,2.457219123840332,5.426785874157705,-0.5965920090675354,-0.0008330255514010787,-1.6037934462176722,-8.347945549758151e-05,0.010009240359067917,0.7150627970695496,3.0828566215145976e-44,0.05495772883296013,0.8469670414924622,0.1357874870300293,0.3335413336753845
321.0,335.0,-1.136,0.5204,8.7673,0.0128,-0.2181,0.0034,-1.968013425866598,-0.2591550052165985,3.1398181915283203,-1.7707682847976685,0.588750958442688,2.46694016456604,5.423232900887289,-0.5797020792961121,-0.0064685107208788395,-1.6037686506854456,-7.328099309233949e-05,0.0026440711226314306,0.7150512933731079,0.0,0.05818793177604675,0.8478015065193176,0.137936070561409,0.3497811555862427
321.0,335.0,-1.136,0.5204,8.7673,0.0128,-0.2181,0.0034,-1.969091077844137,-0.2572096288204193,3.143627166748047,-1.7684385776519775,0.5892872214317322,2.4018092155456543,5.4209977863128564,-0.5747987627983093,0.012200134806334972,-1.6037572065936487,-3.418716732994653e-05,0.0169580839574337,0.7150793075561523,0.0,0.05058719962835312,0.8483616709709167,0.13555409014225006,0.2736310660839081
321.0,335.0,-1.136,0.5204,8.7673,0.0128,-0.2181,0.0034,-1.970717569390768,-0.2622690200805664,3.1848530769348145,-1.7648990154266357,0.594754159450531,2.4850707054138184,5.417572068959036,-0.5558704137802124,0.021199818700551987,-1.6038339773761194,-3.0442777642747387e-05,-0.0015254431637004018,0.7150428295135498,0.0,0.0574253611266613,0.8491896986961365,0.13754554092884064,0.2379559725522995
321.0,335.0,-1.136,0.5204,8.7673,0.0128,-0.2181,0.0034,-1.9717914066710414,-0.26774904131889343,3.1635613441467285,-1.7625652551651,0.591539740562439,2.42276668548584,5.415359306126394,-0.5510272979736328,0.00971771776676178,-1.6038497130023401,-2.8513528377516195e-05,0.007649618666619062,0.7150872349739075,0.0,0.0430750697851181,0.8497947454452515,0.13980317115783691,0.2415476143360138
321.0,335.0,-1.136,0.5204,8.7673,0.0128,-0.2181,0.0034,-1.9735051594176234,-0.2719653248786926,3.178751230239868,-1.7589575052261353,0.5954362750053406,2.408775806427002,5.412177610188284,-0.5284276604652405,0.024898797273635864,-1.6038177649127405,-2.6038436772068962e-05,0.011803616769611835,0.7150668501853943,0.0,0.05478963255882263,0.8506032228469849,0.13984790444374084,0.2637023329734802
321.0,335.0,-1.136,0.5204,8.7673,0.0128,-0.2181,0.0034,-1.974590917626852,-0.2737172245979309,3.1759910583496094,-1.7565994262695312,0.5961610674858093,2.4774088859558105,5.410128640919485,-0.5151735544204712,0.020779818296432495,-1.6038177649127405,-2.46140880335588e-05,0.014236917719244957,0.7150547504425049,0.0,0.06330350041389465,0.851203978061676,0.14072129130363464,0.28727787733078003
321.0,335.0,-1.136,0.5204,8.7673,0.0128,-0.2181,0.0034,-1.975713392297262,-0.27891990542411804,3.200634241104126,-1.754290223121643,0.6018334627151489,2.434507369995117,5.408126699715414,-0.5109187364578247,0.021800097078084946,-1.6037810484515589,-2.333750126126688e-05,0.005553917493671179,0.7151034474372864,0.0,0.05385632440447807,0.8517037034034729,0.13985662162303925,0.2263011485338211
321.0,335.0,-1.136,0.5204,8.7673,0.0128,-0.2181,0.0034,-1.9774061642088832,-0.2914186716079712,3.1590685844421387,-1.7506355047225952,0.5921549797058105,2.4590868949890137,5.405016410141744,-0.48980119824409485,0.030669208616018295,-1.6037853399859827,-1.4486377040157095e-06,0.0035294420085847378,0.7150512337684631,0.0,0.05494113638997078,0.8525730967521667,0.13678668439388275,0.22648587822914124
321.0,335.0,-1.136,0.5204,8.7673,0.0128,-0.2181,0.0034,-1.9786368809142054,-0.29725381731987,3.251866340637207,-1.7482942342758179,0.5863670706748962,2.4837446212768555,5.403114306717672,-0.4710969030857086,0.04350729659199715,-1.603813950215475,-6.175770117522461e-09,0.01611666940152645,0.715083122253418,0.0,0.05647183209657669,0.8531451225280762,0.1344076544046402,0.17224514484405518
321.0,335.0,-1.136,0.5204,8.7673,0.0128,-0.2181,0.0034,-1.9803859196104945,-0.29768455028533936,3.219104766845703,-1.7446197271347046,0.586209237575531,2.494743824005127,5.400375354080953,-0.4537620544433594,0.03203488141298294,-1.6038101355182093,-1.7190482978074462e-12,0.017147712409496307,0.7150309085845947,0.0,0.051760248839855194,0.8539858460426331,0.1319618821144104,0.1837688535451889
321.0,335.0,-1.136,0.5204,8.7673,0.0128,-0.2181,0.0034,-1.9815684757628382,-0.29540419578552246,3.2097654342651367,-1.74229896068573,0.591740608215332,2.447990894317627,5.398666429310598,-0.43488797545433044,0.047458499670028687,-1.6037653128253382,-7.328572258324517e-15,0.019104845821857452,0.7150148749351501,0.0,0.04919099062681198,0.8545143604278564,0.1312878131866455,0.1293732076883316
321.0,335.0,-1.136,0.5204,8.7673,0.0128,-0.2181,0.0034,-1.982678552667135,-0.2947394549846649,3.2691943645477295,-1.7399277687072754,0.5923032164573669,2.4801723957061768,5.397032069950857,-0.40839529037475586,0.05718793347477913,-1.6037934462176722,-3.124285327286672e-17,0.017777489498257637,0.7150952816009521,0.0,0.060794152319431305,0.8550630211830139,0.1326255202293396,0.19880583882331848
321.0,335.0,-1.136,0.5204,8.7673,0.0128,-0.2181,0.0034,-1.9844399891295375,-0.2885526120662689,3.23586368560791,-1.73641836643219,0.5904857516288757,2.4582009315490723,5.394703376084127,-0.3790469467639923,0.08018806576728821,-1.603769604359762,-8.69656256228269e-21,0.009116465225815773,0.7150027751922607,0.0,0.05774364620447159,0.8558107018470764,0.12402883917093277,0.15089936554431915
321.0,335.0,-1.136,0.5204,8.7673,0.0128,-0.2181,0.0034,-1.9855863056578578,-0.2863163948059082,3.2316946983337402,-1.7340399026870728,0.5943775177001953,2.488539934158325,5.393283712654867,-0.3428681492805481,0.0868978351354599,-1.6038458983050745,-3.707481224837383e-23,0.019507160410284996,0.71503084897995,0.0,0.04377032816410065,0.8563352823257446,0.11965221166610718,0.1422220766544342
282.0,299.0,-0.3117,-0.2614,8.8086,-0.0567,0.2926,-0.0174,-1.9873272381224574,-0.28798460960388184,3.3271374702453613,-1.7304505109786987,0.590614914894104,2.4759573936462402,5.391350436001577,-0.3122301995754242,0.11719677597284317,-1.6038220564471644,-1.0319910717724342e-26,0.030501730740070343,0.7150349617004395,0.0,0.03560573607683182,0.8570355772972107,0.11708599328994751,0.1481022834777832
282.0,299.0,-0.3117,-0.2614,8.8086,-0.0567,0.2926,-0.0174,-1.9885622463622035,-0.28780144453048706,3.296793222427368,-1.7281551361083984,0.5925070643424988,2.404817819595337,5.390174793988027,-0.2816770076751709,0.10962158441543579,-1.6037614981280726,-4.399539596325408e-29,0.02237502858042717,0.7150228023529053,0.0,0.035513270646333694,0.8575320243835449,0.1154383197426796,0.11309077590703964
282.0,299.0,-0.3117,-0.2614,8.8086,-0.0567,0.2926,-0.0174,-1.9896241627135218,-0.29208776354789734,3.30794095993042,-1.7258284091949463,0.5900169610977173,2.4374914169311523,5.38909016826705,-0.26076847314834595,0.14595498144626617,-1.603813950215475,-1.8755925726480186e-31,0.017781827598810196,0.7150070667266846,0.0,0.03365471959114075,0.8579603433609009,0.11413028091192245,0.10744030773639679
282.0,299.0,-0.3117,-0.2614,8.8086,-0.0567,0.2926,-0.0174,-1.9913894138731898,-0.3039133846759796,3.2996201515197754,-1.7222976684570312,0.5903240442276001,2.472202777862549,5.387682902603903,-0.23267267644405365,0.15044912695884705,-1.603797737752096,-5.220780227903384e-35,0.018053583800792694,0.7150790095329285,0.0,0.031501829624176025,0.8586658835411072,0.10932819545269012,0.14090360701084137
282.0,299.0,-0.3117,-0.2614,8.8086,-0.0567,0.2926,-0.0174,-1.9925514660277308,-0.306907057762146,3.3063278198242188,-1.7199448347091675,0.5849601030349731,2.4829630851745605,5.386829840927877,-0.1988416463136673,0.15522830188274384,-1.6037777105914515,-2.2257005117152046e-37,0.02410551905632019,0.7150952816009521,0.0,0.030971527099609375,0.8590699434280396,0.10645851492881775,0.08719547837972641
282.0,299.0,-0.3117,-0.2614,8.8086,-0.0567,0.2926,-0.0174,-1.9943729839720667,-0.30387961864471436,3.3189728260040283,-1.716317057609558,0.5808252096176147,2.4491209983825684,5.385937738209524,-0.14682510495185852,0.17418451607227325,-1.6037738958941858,-6.195280640626449e-41,0.016917092725634575,0.7150309681892395,0.0,0.043004974722862244,0.8596450686454773,0.10856589674949646,0.07796981930732727
282.0,299.0,-0.3117,-0.2614,8.8086,-0.0567,0.2926,-0.0174,-1.9956118069090785,-0.30353930592536926,3.334847927093506,-1.7139968872070312,0.5818416476249695,2.442291259765625,5.385387289315023,-0.11539746075868607,0.19872693717479706,-1.6037972609149378,-2.634441112930656e-43,0.020863305777311325,0.7150673866271973,0.0,0.03383857011795044,0.8600612282752991,0.10993986576795578,0.09913159161806107
282.0,299.0,-0.3117,-0.2614,8.8086,-0.0567,0.2926,-0.0174,-1.997448583642477,-0.31201133131980896,3.283163547515869,-1.7105605602264404,0.5876341462135315,2.444262981414795,5.384906041413107,-0.06832391768693924,0.22515305876731873,-1.6037862936602991,-0.0,0.012292148545384407,0.7150148749351501,0.0,0.03437554091215134,0.8607421517372131,0.10618198662996292,0.11039191484451294
282.0,299.0,-0.3117,-0.2614,8.8086,-0.0567,0.2926,-0.0174,-1.9987465343871058,-0.31037381291389465,3.2078542709350586,-1.7082613706588745,0.5884023308753967,2.4982287883758545,5.384726512223043,-0.03368157520890236,0.2027154564857483,-1.603797737752096,-0.0,0.028347710147500038,0.71502685546875,0.0,0.03302345797419548,0.8611748218536377,0.10005243122577667,0.13098138570785522
282.0,299.0,-0.3117,-0.2614,8.8086,-0.0567,0.2926,-0.0174,-2.00002445797109,-0.3070865571498871,3.357550621032715,-1.705929160118103,0.5889075398445129,2.4686667919158936,5.384666907578268,-0.004602017812430859,0.2629700303077698,-1.6038015524493616,-0.0,0.014659890905022621,0.7150592803955078,0.0,0.032292697578668594,0.8615263104438782,0.09148731082677841,0.06316640228033066
282.0,299.0,-0.3117,-0.2614,8.8086,-0.0567,0.2926,-0.0174,-2.001885553399557,-0.31614020466804504,3.2570910453796387,-1.7024047374725342,0.5898468494415283,2.4793481826782227,5.384762990265646,0.02999928407371044,0.26436740159988403,-1.6037820021258753,-0.0,0.02502915821969509,0.7150952219963074,0.0,0.02384207770228386,0.8621188998222351,0.08395011723041534,0.04328024014830589
