ramyac6/ROB537/final_project/csv/test/good/good_105.csv
tof_0,tof_1,accelx,accely,accelz,gyrox,gyroy,gyroz,shoulder_lift_joint_position,shoulder_lift_joint_velocity,shoulder_lift_joint_effort,elbow_joint_position,elbow_joint_velocity,elbow_joint_effort,wrist_1_joint_position,wrist_1_joint_velocity,wrist_1_joint_effort,wrist_2_joint_position,wrist_2_joint_velocity,wrist_2_joint_effort,wrist_3_joint_position,wrist_3_joint_velocity,wrist_3_joint_effort,shoulder_pan_joint_position,shoulder_pan_joint_velocity,shoulder_pan_joint_effort
124.0,163.0,-4.3226,2.9486,8.4353,-0.0341,0.0359,-0.1191,-2.6140247784056605,0.0,5.8646159172058105,-0.6508817672729492,-0.0,2.107893466949463,5.200960236578741,0.0,0.2123902142047882,-1.8559225241290491,-0.0,0.011273697949945927,0.9222362041473389,-0.0,0.001794370706193149,1.301776647567749,0.0,0.043806180357933044
124.0,163.0,-4.3226,2.9486,8.4353,-0.0341,0.0359,-0.1191,-2.613980909387106,0.0,5.890227794647217,-0.650877833366394,-0.0,2.105233669281006,5.200984704285421,0.0,0.21074843406677246,-1.8558867613421839,-0.0,0.021787254139780998,0.922325074672699,-0.0,0.01530323177576065,1.301820993423462,0.0,0.014919951558113098
124.0,163.0,-4.3226,2.9486,8.4353,-0.0341,0.0359,-0.1191,-2.6139565906920375,0.0,5.8297295570373535,-0.6509334444999695,-0.0,2.16633939743042,5.201008546143331,0.0,0.21753668785095215,-1.8558991591082972,-0.0,0.02891961671411991,0.9223008155822754,-0.0,0.005482049193233252,1.3018085956573486,0.0,-0.04653915390372276
124.0,163.0,-4.3226,2.9486,8.4353,-0.0341,0.0359,-0.1191,-2.6140085659422816,0.0,5.8858160972595215,-0.6508897542953491,-0.0,2.1070613861083984,5.200984704285421,0.0,0.21807187795639038,-1.8558867613421839,-0.0,0.023085925728082657,0.9222487807273865,-0.0,0.008380351588129997,1.3017724752426147,0.0,0.007238334976136684
124.0,163.0,-4.3226,2.9486,8.4353,-0.0341,0.0359,-0.1191,-2.6140085659422816,0.0,5.815273761749268,-0.650861918926239,-0.0,2.1289336681365967,5.200964319496908,0.0,0.21598073840141296,-1.8558991591082972,-0.0,0.02886952832341194,0.9222766757011414,-0.0,-0.011039040051400661,1.3018008470535278,0.0,0.012743989937007427
129.0,165.0,-4.3561,2.9498,8.479,-0.0385,0.0249,-0.1174,-2.6139689884581507,0.0,5.821518421173096,-0.6509295105934143,-0.0,2.1565754413604736,5.201008546143331,0.0,0.2200685739517212,-1.8559024969684046,-0.0,0.024485040456056595,0.9222280383110046,-0.0,-0.007771120872348547,1.3017926216125488,0.0,-0.024827538058161736
129.0,165.0,-4.3561,2.9498,8.479,-0.0385,0.0249,-0.1174,-2.613980909387106,0.0,5.860093116760254,-0.6508339643478394,-0.0,2.164666175842285,5.200992542296209,0.0,0.22817391157150269,-1.8558867613421839,-0.0,0.014788888394832611,0.9222972393035889,-0.0,0.001167795737273991,1.3017687797546387,0.0,-0.037117935717105865
129.0,165.0,-4.3561,2.9498,8.479,-0.0385,0.0249,-0.1174,-2.6139446697630824,0.0,5.83399772644043,-0.6508698463439941,-0.0,2.161083221435547,5.200996625214376,0.0,0.2176581621170044,-1.8558667341815394,-0.0,0.0045493850484490395,0.9222569465637207,-0.0,-0.0018986451905220747,1.3017807006835938,0.0,-0.05293175205588341
129.0,165.0,-4.3561,2.9498,8.479,-0.0385,0.0249,-0.1174,-2.613992830316061,0.0,5.854822635650635,-0.6508658528327942,-0.0,2.145648241043091,5.200980621367254,0.0,0.22431153059005737,-1.8559072653399866,-0.0,0.018109343945980072,0.9222487807273865,-0.0,-0.0025119734928011894,1.3017524480819702,0.0,0.015540984459221363
129.0,165.0,-4.3561,2.9498,8.479,-0.0385,0.0249,-0.1174,-2.6140085659422816,0.0,5.8528923988342285,-0.6508936285972595,-0.0,2.0821070671081543,5.200996625214376,0.0,0.22000710666179657,-1.8558829466449183,-0.0,0.028482139110565186,0.9223173260688782,-0.0,0.008435013704001904,1.3018007278442383,0.0,0.019718576222658157
129.0,165.0,-4.3561,2.9498,8.479,-0.0385,0.0249,-0.1174,-2.61397709468984,0.0,5.854348182678223,-0.6508737802505493,-0.0,2.1459012031555176,5.2009929297264,0.0,0.21005761623382568,-1.8559230009662073,-0.0,0.027051858603954315,0.9222967624664307,-0.0,0.010128491558134556,1.301776647567749,0.0,-0.03012492135167122
129.0,165.0,-4.3561,2.9498,8.479,-0.0385,0.0249,-0.1174,-2.614004751245016,0.0,5.825498580932617,-0.6508016586303711,-0.0,2.1038856506347656,5.200972485333242,0.0,0.2171241044998169,-1.8558991591082972,-0.0,0.02030426636338234,0.9222652316093445,-0.0,0.012048929929733276,1.3018126487731934,0.0,0.02122540771961212
129.0,165.0,-4.3561,2.9498,8.479,-0.0385,0.0249,-0.1174,-2.6139689884581507,0.0,5.850604057312012,-0.6508777737617493,-0.0,2.062511444091797,5.201008546143331,0.0,0.2178637534379959,-1.855910603200094,-0.0,0.019447578117251396,0.9222528338432312,-0.0,0.009403319098055363,1.3017483949661255,0.0,0.012449093163013458
129.0,165.0,-4.3561,2.9498,8.479,-0.0385,0.0249,-0.1174,-2.6139642200865687,0.0,5.817262649536133,-0.6508817672729492,-0.0,2.0869011878967285,5.200976538449087,0.0,0.20982976257801056,-1.8558629194842737,-0.0,0.023925404995679855,0.9223127365112305,-0.0,-0.0027305150870233774,1.3017966747283936,0.0,-0.0318855382502079
127.0,175.0,-4.2969,2.9432,8.4377,-0.0423,0.02,-0.1126,-2.6139847240843714,0.0,5.900764465332031,-0.6508260369300842,-0.0,2.126911163330078,5.200952428370275,0.0,0.2150241732597351,-1.8559144178973597,-0.0,0.019259268417954445,0.9223292469978333,-0.0,-0.002327965572476387,1.301805019378662,0.0,-0.03103221394121647
127.0,175.0,-4.2969,2.9432,8.4377,-0.0423,0.02,-0.1126,-2.613964696923727,0.0,5.839888572692871,-0.6508817672729492,-0.0,2.157437324523926,5.200996625214376,0.0,0.21301794052124023,-1.8559144178973597,-0.0,0.029766159132122993,0.9222362041473389,-0.0,-0.004832595586776733,1.3017607927322388,0.0,0.030984049662947655
127.0,175.0,-4.2969,2.9432,8.4377,-0.0423,0.02,-0.1126,-2.614040514031881,0.0,5.876715660095215,-0.6508618593215942,-0.0,2.145644187927246,5.200980621367254,0.0,0.22158083319664001,-1.8558948675738733,-0.0,0.014678360894322395,0.9223132133483887,-0.0,-0.006506015080958605,1.3017606735229492,0.0,-0.021280942484736443
127.0,175.0,-4.2969,2.9432,8.4377,-0.0423,0.02,-0.1126,-2.6140128574767054,0.0,5.8621721267700195,-0.6508300304412842,-0.0,2.127750873565674,5.200984704285421,0.0,0.22006553411483765,-1.8559029738055628,-0.0,0.017026707530021667,0.9222967624664307,-0.0,0.0012124408967792988,1.3017765283584595,0.0,0.02351648360490799
127.0,175.0,-4.2969,2.9432,8.4377,-0.0423,0.02,-0.1126,-2.614040514031881,0.0,5.850931167602539,-0.6509335041046143,-0.0,2.1761386394500732,5.200976538449087,0.0,0.2155054211616516,-1.8558991591082972,-0.0,-0.0001767035573720932,0.9222808480262756,-0.0,0.0006537100998684764,1.301793098449707,0.0,0.011189678683876991
127.0,175.0,-4.2969,2.9432,8.4377,-0.0423,0.02,-0.1126,-2.614016672173971,0.0,5.856879234313965,-0.6508937478065491,-0.0,2.0972044467926025,5.201081055193701,0.0,0.21482115983963013,-1.8559349218951624,-0.0,0.0239899642765522,0.9222403168678284,-0.0,-0.007652983069419861,1.301772952079773,0.0,0.03296799212694168
127.0,175.0,-4.2969,2.9432,8.4377,-0.0423,0.02,-0.1126,-2.6139890156187953,0.0,5.844213485717773,-0.6508777737617493,-0.0,2.115722179412842,5.201008546143331,0.0,0.21625137329101562,-1.8558629194842737,-0.0,0.014477330259978771,0.9223132729530334,-0.0,-0.007819895632565022,1.3018085956573486,0.0,-0.027604008093476295
127.0,175.0,-4.2969,2.9432,8.4377,-0.0423,0.02,-0.1126,-2.6139890156187953,0.0,5.832812309265137,-0.6508976817131042,-0.0,2.1491312980651855,5.200984704285421,0.0,0.21883726119995117,-1.8559225241290491,-0.0,0.01790883019566536,0.9222362041473389,-0.0,-0.0017895085038617253,1.3017847537994385,0.0,0.04301751032471657
127.0,175.0,-4.2969,2.9432,8.4377,-0.0423,0.02,-0.1126,-2.613960405389303,0.0,5.890812873840332,-0.6509220600128174,-0.0,2.1468875408172607,5.200996625214376,0.0,0.21402060985565186,-1.8558991591082972,-0.0,0.014697136357426643,0.9222652316093445,-0.0,-0.004315649624913931,1.3017401695251465,0.0,-0.06280948221683502
126.0,170.0,-4.2748,2.9587,8.4102,-0.0316,0.0258,-0.117,-2.613992830316061,0.0,5.821595191955566,-0.6508459448814392,-0.0,2.1370363235473633,5.201020467072286,0.0,0.21740221977233887,-1.8558748404132288,-0.0,0.021587654948234558,0.9222486019134521,-0.0,0.015803204849362373,1.3017524480819702,0.0,0.01499541848897934
126.0,170.0,-4.2748,2.9587,8.4102,-0.0316,0.0258,-0.117,-2.6140128574767054,0.0,5.827033042907715,-0.6509180665016174,-0.0,2.1112780570983887,5.201020496874609,0.0,0.21995694935321808,-1.8559187094317835,-0.0,0.013099756091833115,0.9222766757011414,-0.0,-0.007539617363363504,1.3017164468765259,0.0,0.03232605755329132
126.0,170.0,-4.2748,2.9587,8.4102,-0.0316,0.0258,-0.117,-2.6140128574767054,0.0,5.858785629272461,-0.6508817672729492,-0.0,2.1113598346710205,5.20096834281043,0.0,0.22255076467990875,-1.855910603200094,-0.0,0.026806684210896492,0.9222443699836731,-0.0,-0.009041721001267433,1.301772952079773,0.0,-0.02179592102766037
126.0,170.0,-4.2748,2.9587,8.4102,-0.0316,0.0258,-0.117,-2.6140085659422816,0.0,5.855449676513672,-0.650897741317749,-0.0,2.1320369243621826,5.200980621367254,0.0,0.2172202169895172,-1.8558667341815394,-0.0,0.027439722791314125,0.9222647547721863,-0.0,0.010502847842872143,1.3017807006835938,0.0,-0.001399391796439886
126.0,170.0,-4.2748,2.9587,8.4102,-0.0316,0.0258,-0.117,-2.6140128574767054,0.0,5.808416366577148,-0.6508898138999939,-0.0,2.1140127182006836,5.2009925720985315,0.0,0.22553080320358276,-1.8559349218951624,-0.0,0.027066964656114578,0.9222848415374756,-0.0,0.005919585004448891,1.3017847537994385,0.0,-0.03360682353377342
126.0,170.0,-4.2748,2.9587,8.4102,-0.0316,0.0258,-0.117,-2.6139890156187953,0.0,5.853727340698242,-0.6509374976158142,-0.0,2.107611656188965,5.201024609595098,0.0,0.22942860424518585,-1.8558991591082972,-0.0,0.034367240965366364,0.9222652316093445,-0.0,0.0028928902465850115,1.3017889261245728,0.0,0.010314613580703735
126.0,170.0,-4.2748,2.9587,8.4102,-0.0316,0.0258,-0.117,-2.6139890156187953,0.0,5.817283630371094,-0.650846004486084,-0.0,2.1205217838287354,5.200972485333242,0.0,0.22654905915260315,-1.8558629194842737,-0.0,0.029409565031528473,0.9222812652587891,-0.0,-0.00022989429999142885,1.3017605543136597,0.0,0.02189534157514572
126.0,170.0,-4.2748,2.9587,8.4102,-0.0316,0.0258,-0.117,-2.613992830316061,0.0,5.8199543952941895,-0.6508937478065491,-0.0,2.1066737174987793,5.20103274562911,0.0,0.21727555990219116,-1.8558786551104944,-0.0,0.007405697368085384,0.9222930073738098,-0.0,-0.007975044660270214,1.3017524480819702,0.0,-0.025719065219163895
126.0,170.0,-4.2748,2.9587,8.4102,-0.0316,0.0258,-0.117,-2.6139403782286585,0.0,5.865034103393555,-0.6508817672729492,-0.0,2.1360220909118652,5.200964319496908,0.0,0.22009702026844025,-1.8558786551104944,-0.0,0.04109197482466698,0.9223049283027649,-0.0,0.005754656624048948,1.301793098449707,0.0,-0.03476054593920708
125.0,171.0,-4.3334,2.9145,8.3617,-0.0437,0.0298,-0.1165,-2.6139685116209925,0.0,5.890531539916992,-0.6508658528327942,-0.0,2.110276222229004,5.201004850655355,0.0,0.21652966737747192,-1.8558991591082972,-0.0,0.02218005806207657,0.9223250150680542,-0.0,-0.003219092730432749,1.3018089532852173,0.0,-0.0556180477142334
125.0,171.0,-4.3334,2.9145,8.3617,-0.0437,0.0298,-0.1165,-2.613992830316061,0.0,5.848338603973389,-0.6508539319038391,-0.0,2.152801036834717,5.200964319496908,0.0,0.21424677968025208,-1.855926815663473,-0.0,0.026218842715024948,0.9222967624664307,-0.0,0.001874723588116467,1.3017607927322388,0.0,-0.0040218099020421505
125.0,171.0,-4.3334,2.9145,8.3617,-0.0437,0.0298,-0.1165,-2.613992830316061,0.0,5.866352558135986,-0.6508380174636841,-0.0,2.110959529876709,5.200976568251409,0.0,0.2260826826095581,-1.8558829466449183,-0.0,0.017720729112625122,0.9222321510314941,-0.0,-0.005644726101309061,1.3017287254333496,0.0,-0.03087371587753296
125.0,171.0,-4.3334,2.9145,8.3617,-0.0437,0.0298,-0.1165,-2.6139847240843714,0.0,5.865466594696045,-0.6508419513702393,-0.0,2.1272006034851074,5.200980651169576,0.0,0.22391943633556366,-1.8558867613421839,-0.0,0.017327358946204185,0.9222651720046997,-0.0,-0.0009389225160703063,1.3017847537994385,0.0,-0.0035948939621448517
125.0,171.0,-4.3334,2.9145,8.3617,-0.0437,0.0298,-0.1165,-2.61397709468984,0.0,5.859705924987793,-0.6508498787879944,-0.0,2.1336355209350586,5.201024877816,0.0,0.2237962782382965,-1.8558829466449183,-0.0,0.02358945645391941,0.922268807888031,-0.0,0.008153650909662247,1.3017324209213257,0.0,-0.007913241162896156
125.0,171.0,-4.3334,2.9145,8.3617,-0.0437,0.0298,-0.1165,-2.61397709468984,0.0,5.839987754821777,-0.6508976817131042,-0.0,2.1048800945281982,5.200976598053732,0.0,0.2173261046409607,-1.8558991591082972,-0.0,0.018585368990898132,0.9222525954246521,-0.0,0.006561337038874626,1.3017889261245728,0.0,-0.010031376965343952
125.0,171.0,-4.3334,2.9145,8.3617,-0.0437,0.0298,-0.1165,-2.61403288463735,0.0,5.834156036376953,-0.6508936882019043,-0.0,2.1459298133850098,5.2009925720985315,0.0,0.21471953392028809,-1.8558953444110315,-0.0,0.018726322799921036,0.9222442507743835,-0.0,-0.005702557507902384,1.3017566204071045,0.0,0.0026962137781083584
125.0,171.0,-4.3334,2.9145,8.3617,-0.0437,0.0298,-0.1165,-2.6139890156187953,0.0,5.881455898284912,-0.6508538722991943,-0.0,2.1344900131225586,5.201056796103277,0.0,0.21511895954608917,-1.8559187094317835,-0.0,0.012793448753654957,0.9223049283027649,-0.0,0.015316063538193703,1.301796793937683,0.0,0.017393196001648903
125.0,171.0,-4.3334,2.9145,8.3617,-0.0437,0.0298,-0.1165,-2.614028593102926,0.0,5.844851016998291,-0.6509096622467041,-0.0,2.1452670097351074,5.201008546143331,0.0,0.22367063164710999,-1.8559029738055628,-0.0,0.02079925313591957,0.9222769737243652,-0.0,-0.01150535698980093,1.3017483949661255,0.0,-0.0361865796148777
127.0,167.0,-4.3519,2.9408,8.4766,-0.0405,0.0185,-0.1116,-2.6139890156187953,0.0,5.8886823654174805,-0.6508738398551941,-0.0,2.1634981632232666,5.201000678330221,0.0,0.22277545928955078,-1.8559706846820276,-0.0,0.02870618738234043,0.9222853779792786,-0.0,0.006888920441269875,1.3017606735229492,0.0,0.03769637644290924
127.0,167.0,-4.3519,2.9408,8.4766,-0.0405,0.0185,-0.1116,-2.613964696923727,0.0,5.874407768249512,-0.6508817672729492,-0.0,2.134225845336914,5.200964289694586,0.0,0.2113458812236786,-1.8559230009662073,-0.0,0.024078065529465675,0.9222130179405212,-0.0,0.00013804680202156305,1.3017606735229492,0.0,-0.03028429113328457
127.0,167.0,-4.3519,2.9408,8.4766,-0.0405,0.0185,-0.1116,-2.6139689884581507,0.0,5.834074974060059,-0.6508976817131042,-0.0,2.1638503074645996,5.201044875174322,0.0,0.21662789583206177,-1.8559144178973597,-0.0,0.01831510290503502,0.9222812652587891,-0.0,0.0018324833363294601,1.3017926216125488,0.0,-0.027410846203565598
127.0,167.0,-4.3519,2.9408,8.4766,-0.0405,0.0185,-0.1116,-2.614016672173971,0.0,5.862020492553711,-0.6508539319038391,-0.0,2.1509478092193604,5.201004493027487,0.0,0.21630367636680603,-1.8559430281268519,-0.0,0.016384877264499664,0.9222652316093445,-0.0,0.0068886494264006615,1.3017524480819702,0.0,-0.053055182099342346
127.0,167.0,-4.3519,2.9408,8.4766,-0.0405,0.0185,-0.1116,-2.61397709468984,0.0,5.864197731018066,-0.6509016752243042,-0.0,2.1549787521362305,5.200952130347051,0.0,0.20868241786956787,-1.8559144178973597,-0.0,0.002415333641692996,0.9223049283027649,-0.0,-0.002010890981182456,1.3017687797546387,0.0,0.06050267070531845
127.0,167.0,-4.3519,2.9408,8.4766,-0.0405,0.0185,-0.1116,-2.6140128574767054,0.0,5.853572845458984,-0.6508658528327942,-0.0,2.1386313438415527,5.201056796103277,0.0,0.22097289562225342,-1.855910603200094,-0.0,0.027265258133411407,0.9222812652587891,-0.0,-0.001515024690888822,1.301764726638794,0.0,0.005174379795789719
127.0,167.0,-4.3519,2.9408,8.4766,-0.0405,0.0185,-0.1116,-2.613960405389303,0.0,5.879988670349121,-0.6508698463439941,-0.0,2.1108498573303223,5.201012599259176,0.0,0.22271475195884705,-1.8559144178973597,-0.0,0.036124907433986664,0.9222688674926758,-0.0,-0.0011790769640356302,1.3018168210983276,0.0,-0.026626523584127426
127.0,167.0,-4.3519,2.9408,8.4766,-0.0405,0.0185,-0.1116,-2.6139522991576136,0.0,5.842802047729492,-0.6508379578590393,-0.0,2.1295676231384277,5.201004493027487,0.0,0.22383344173431396,-1.8559067885028284,-2.148180122674148e-08,0.02681078389286995,0.9222967624664307,-0.0,-0.02607819437980652,1.3018008470535278,0.0,0.04504116624593735
127.0,167.0,-4.3519,2.9408,8.4766,-0.0405,0.0185,-0.1116,-2.613960405389303,0.0,5.858673572540283,-0.6509016752243042,-0.0,2.119546890258789,5.201044875174322,0.0,0.23271259665489197,-1.8559468428241175,-3.904211209968672e-13,0.035528987646102905,0.9222528338432312,-0.0,0.010730024427175522,1.301833152770996,0.0,0.040776196867227554
123.0,168.0,-4.3783,2.9474,8.4664,-0.0296,0.0226,-0.121,-2.6139890156187953,0.0,5.820312976837158,-0.6508539319038391,-0.0,2.147472381591797,5.200996625214376,0.0,0.20695975422859192,-1.8559191862689417,-1.0867515431333929e-16,0.025080176070332527,0.9223173260688782,-0.0,-0.00550503097474575,1.3017889261245728,0.0,-0.007638799957931042
123.0,168.0,-4.3783,2.9474,8.4664,-0.0296,0.0226,-0.121,-2.61397709468984,0.0,5.850943565368652,-0.6508340239524841,-0.0,2.120494842529297,5.2009929297264,0.0,0.22240158915519714,-1.855859104787008,-1.975117269340006e-21,0.022944742813706398,0.9222652316093445,-0.0,-0.0014598709531128407,1.3018008470535278,0.0,0.013965478166937828
123.0,168.0,-4.3783,2.9474,8.4664,-0.0296,0.0226,-0.121,-2.61397709468984,0.0,5.863763809204102,-0.6508498787879944,-0.0,2.1734440326690674,5.201012629061498,0.0,0.22506090998649597,-1.8559110800372522,-3.589677960989984e-26,0.0144315455108881,0.9222402572631836,-0.0,-0.005518269259482622,1.301788568496704,0.0,0.011036588810384274
123.0,168.0,-4.3783,2.9474,8.4664,-0.0296,0.0226,-0.121,-2.61397709468984,0.0,5.8699951171875,-0.6509016752243042,-0.0,2.1336240768432617,5.200984376459875,0.0,0.21386387944221497,-1.855910603200094,-6.524062766131524e-31,0.013430953025817871,0.9222769737243652,-0.0,-0.013576582074165344,1.3017359972000122,0.0,-0.015229765325784683
123.0,168.0,-4.3783,2.9474,8.4664,-0.0296,0.0226,-0.121,-2.6140085659422816,0.0,5.890897750854492,-0.6509335041046143,-0.0,2.1615803241729736,5.201000320702352,0.0,0.21687795221805573,-1.8558786551104944,-1.8159967713845e-34,0.016598213464021683,0.9222242832183838,-0.0,0.0024523641914129257,1.301820993423462,0.0,-0.006879478693008423
123.0,168.0,-4.3783,2.9474,8.4664,-0.0296,0.0226,-0.121,-2.6139966450133265,0.0,5.841272830963135,-0.6508340239524841,-0.0,2.1125357151031494,5.200972574740209,0.0,0.21262948215007782,-1.8558748404132288,-3.300483878218099e-39,0.008468753658235073,0.9222888946533203,-0.0,3.578956238925457e-06,1.3017442226409912,0.0,-0.03480754792690277
123.0,168.0,-4.3783,2.9474,8.4664,-0.0296,0.0226,-0.121,-2.613980909387106,0.0,5.863208770751953,-0.6508937478065491,-0.0,2.1111600399017334,5.200988548785009,0.0,0.21584990620613098,-1.8558548132525843,-6.025583396596713e-44,0.013668010011315346,0.9223087430000305,-0.0,0.014107940718531609,1.3017724752426147,0.0,-0.0015448974445462227
123.0,168.0,-4.3783,2.9474,8.4664,-0.0296,0.0226,-0.121,-2.61397709468984,0.0,5.8749895095825195,-0.6508936882019043,-0.0,2.149660348892212,5.201000320702352,0.0,0.22306233644485474,-1.855910603200094,-0.0,0.017727212980389595,0.9223127961158752,-0.0,-0.0043390109203755856,1.3017847537994385,0.0,-0.004460740834474564
123.0,168.0,-4.3783,2.9474,8.4664,-0.0296,0.0226,-0.121,-2.613992830316061,0.0,5.845052719116211,-0.650842010974884,-0.0,2.1418185234069824,5.200996982842245,0.0,0.22235162556171417,-1.8559311071978968,-0.0,0.019407745450735092,0.9222443699836731,-0.0,0.002308443421497941,1.3017847537994385,0.0,0.003437548875808716
129.0,171.0,-4.3633,2.9163,8.4066,-0.0371,0.0287,-0.1145,-2.6139890156187953,0.0,5.840224266052246,-0.6508937478065491,-0.0,2.145707845687866,5.200988489180364,0.0,0.21280717849731445,-1.855887238179342,-0.0,0.022146109491586685,0.9222729206085205,-0.0,-0.010071548633277416,1.3017971515655518,0.0,-0.01788477972149849
129.0,171.0,-4.3633,2.9163,8.4066,-0.0371,0.0287,-0.1145,-2.614004751245016,0.0,5.859508514404297,-0.6508698463439941,-0.0,2.1062402725219727,5.200972544937887,0.0,0.21403972804546356,-1.8558910528766077,-0.0,0.009683331474661827,0.9222525358200073,-0.0,0.01616266742348671,1.3017847537994385,0.0,0.03330475091934204
129.0,171.0,-4.3633,2.9163,8.4066,-0.0371,0.0287,-0.1145,-2.614004751245016,0.0,5.887989521026611,-0.650829553604126,-0.0,2.1164937019348145,5.200996625214376,0.0,0.21466124057769775,-1.8559144178973597,-0.0,0.014017056673765182,0.9222402572631836,-0.0,0.008932884782552719,1.301776647567749,0.0,-0.007603658363223076
129.0,171.0,-4.3633,2.9163,8.4066,-0.0371,0.0287,-0.1145,-2.6140128574767054,0.0,5.833339691162109,-0.6509376168251038,-0.0,2.1614818572998047,5.2010367689426324,0.0,0.21399368345737457,-1.8559187094317835,-0.0,0.02693512849509716,0.9222487807273865,-0.0,0.0038458318449556828,1.3017324209213257,0.0,0.0020218240097165108
129.0,171.0,-4.3633,2.9163,8.4066,-0.0371,0.0287,-0.1145,-2.6139966450133265,0.0,5.887677192687988,-0.6509221196174622,-0.0,2.135544776916504,5.201016682177343,0.0,0.21613095700740814,-1.8558991591082972,-0.0,0.020126143470406532,0.9222807884216309,-0.0,0.007039167452603579,1.3017966747283936,0.0,0.008122413419187069
129.0,171.0,-4.3633,2.9163,8.4066,-0.0371,0.0287,-0.1145,-2.61397709468984,0.0,5.811787128448486,-0.6508817672729492,-0.0,2.120051622390747,5.201072710543432,0.0,0.22132155299186707,-1.8559072653399866,-0.0,0.02467687800526619,0.9222807884216309,-0.0,-0.00435769883915782,1.3017807006835938,0.0,0.03513873368501663
129.0,171.0,-4.3633,2.9163,8.4066,-0.0371,0.0287,-0.1145,-2.6139890156187953,0.0,5.84853458404541,-0.6508898138999939,-0.0,2.088918447494507,5.201020467072286,0.0,0.21172717213630676,-1.8558748404132288,-0.0,0.010919945314526558,0.9223089814186096,-0.0,0.0005269992398098111,1.3017847537994385,0.0,-0.05760885775089264
129.0,171.0,-4.3633,2.9163,8.4066,-0.0371,0.0287,-0.1145,-2.614020963708395,0.0,5.7912983894348145,-0.6508578062057495,-0.0,2.0991039276123047,5.200976568251409,0.0,0.22348932921886444,-1.855910603200094,-0.0,0.025972777977585793,0.9222609996795654,-0.0,-0.007523712702095509,1.3017807006835938,0.0,0.07534762471914291
129.0,171.0,-4.3633,2.9163,8.4066,-0.0371,0.0287,-0.1145,-2.6139890156187953,0.0,5.817138195037842,-0.6508538722991943,-0.0,2.1332640647888184,5.2009925720985315,0.0,0.21053887903690338,-1.8558910528766077,-0.0,0.029828080907464027,0.9223173260688782,-0.0,-0.004071689676493406,1.3018008470535278,0.0,0.0331837423145771
133.0,172.0,-4.3286,2.9384,8.4126,-0.046,0.026,-0.1187,-2.6140486202635707,0.0,5.84581995010376,-0.6508256196975708,-0.0,2.140486717224121,5.200996625214376,0.0,0.23100438714027405,-1.8558991591082972,-0.0,0.016398414969444275,0.9222326278686523,-0.0,-0.0014433185569941998,1.3017966747283936,0.0,-0.058899469673633575
133.0,172.0,-4.3286,2.9384,8.4126,-0.046,0.026,-0.1187,-2.6140009365477503,0.0,5.898441791534424,-0.6508777737617493,-0.0,2.1067988872528076,5.201024877816,0.0,0.22393348813056946,-1.8559187094317835,-0.0,0.01887032762169838,0.9222853183746338,-0.0,-0.0051391152665019035,1.301824927330017,0.0,-0.01046103984117508
133.0,172.0,-4.3286,2.9384,8.4126,-0.046,0.026,-0.1187,-2.6140009365477503,0.0,5.862490653991699,-0.6508976817131042,-0.0,2.0858330726623535,5.201032656222143,0.0,0.2281268835067749,-1.8558829466449183,-0.0,0.018527831882238388,0.9222769737243652,-0.0,0.008869865909218788,1.301772952079773,0.0,-0.023817965760827065
133.0,172.0,-4.3286,2.9384,8.4126,-0.046,0.026,-0.1187,-2.6139890156187953,0.0,5.877904891967773,-0.6508539319038391,-0.0,2.053328275680542,5.201032656222143,0.0,0.2294236570596695,-1.8558991591082972,-0.0,0.014729808084666729,0.9222156405448914,-0.0,0.009530732408165932,1.3017364740371704,0.0,-0.0025427863001823425
133.0,172.0,-4.3286,2.9384,8.4126,-0.046,0.026,-0.1187,-2.6140247784056605,0.0,5.846125602722168,-0.6508817672729492,-0.0,2.1529295444488525,5.200988489180364,0.0,0.21837455034255981,-1.8558786551104944,-0.0,0.02801583707332611,0.9222202301025391,-0.0,-0.0008141074795275927,1.3017807006835938,0.0,-0.011081836186349392
133.0,172.0,-4.3286,2.9384,8.4126,-0.046,0.026,-0.1187,-2.6140009365477503,0.0,5.851205825805664,-0.6508976817131042,-0.0,2.155130386352539,5.200952398567953,0.0,0.2030792087316513,-1.8559024969684046,-0.0,0.012595657259225845,0.9222766757011414,-0.0,0.009671265259385109,1.3017687797546387,0.0,-0.014068173244595528
133.0,172.0,-4.3286,2.9384,8.4126,-0.046,0.026,-0.1187,-2.613992830316061,0.0,5.836460113525391,-0.6508618593215942,-0.0,2.1234078407287598,5.200988489180364,0.0,0.20455366373062134,-1.8559349218951624,-0.0,0.020515836775302887,0.9223369359970093,-0.0,0.004839946515858173,1.3017926216125488,0.0,-0.016049504280090332
133.0,172.0,-4.3286,2.9384,8.4126,-0.046,0.026,-0.1187,-2.6139890156187953,0.0,5.819599151611328,-0.6508658528327942,-0.0,2.101346492767334,5.200944232731619,0.0,0.20900973677635193,-1.8559263388263147,-0.0,0.011462351307272911,0.9222807288169861,-0.0,0.0005160369910299778,1.3017847537994385,0.0,-0.06808674335479736
133.0,172.0,-4.3286,2.9384,8.4126,-0.046,0.026,-0.1187,-2.613980909387106,0.0,5.871991157531738,-0.6508738398551941,-0.0,2.096555709838867,5.200968372612753,0.0,0.2215447872877121,-1.855926815663473,-0.0,0.027885984629392624,0.9222812056541443,-0.0,-0.005520119331777096,1.301812767982483,0.0,0.03607737272977829
126.0,173.0,-4.3591,2.9091,8.3755,-0.0305,0.0286,-0.1107,-2.613992830316061,0.0,5.814107894897461,-0.6508857607841492,-0.0,2.1832501888275146,5.201036798744955,0.0,0.20818696916103363,-1.8558829466449183,-0.0,0.024203861132264137,0.9222891926765442,-0.0,0.010431910865008831,1.3017442226409912,0.0,0.0009685344994068146
126.0,173.0,-4.3591,2.9091,8.3755,-0.0305,0.0286,-0.1107,-2.613988538781637,0.0,5.812750339508057,-0.6508539319038391,-0.0,2.1343092918395996,5.201012629061498,0.0,0.2273692637681961,-1.855926815663473,-0.0,0.032079052180051804,0.9223127961158752,-0.0,0.0006018872372806072,1.3017364740371704,0.0,0.011566190049052238
126.0,173.0,-4.3591,2.9091,8.3755,-0.0305,0.0286,-0.1107,-2.6139565906920375,0.0,5.865161418914795,-0.6508858799934387,-0.0,2.144401788711548,5.2010408518608,0.0,0.21818950772285461,-1.855938736592428,-0.0,0.023439791053533554,0.9223250150680542,-0.0,-0.005110560450702906,1.301756501197815,0.0,0.03574124723672867
126.0,173.0,-4.3591,2.9091,8.3755,-0.0305,0.0286,-0.1107,-2.6139642200865687,0.0,5.846587181091309,-0.6509177088737488,-0.0,2.1345839500427246,5.201004850655355,0.0,0.21121078729629517,-1.8558548132525843,-0.0,0.015558910556137562,0.9223008155822754,-0.0,-0.0009921786841005087,1.3017889261245728,0.0,-0.019036568701267242
126.0,173.0,-4.3591,2.9091,8.3755,-0.0305,0.0286,-0.1107,-2.6139689884581507,0.0,5.84714412689209,-0.6508538126945496,-0.0,2.114302635192871,5.200972515135565,0.0,0.23056724667549133,-1.8559067885028284,-0.0,0.013456689193844795,0.9223008751869202,-0.0,-0.004753848537802696,1.301756501197815,0.0,0.025744514539837837
126.0,173.0,-4.3591,2.9091,8.3755,-0.0305,0.0286,-0.1107,-2.6140009365477503,0.0,5.847996234893799,-0.6508817672729492,-0.0,2.1453161239624023,5.2009684322173975,0.0,0.2133028209209442,-1.8559144178973597,-0.0,0.023285456001758575,0.9222280383110046,-0.0,0.008099500089883804,1.301784873008728,0.0,0.029251839965581894
126.0,173.0,-4.3591,2.9091,8.3755,-0.0305,0.0286,-0.1107,-2.61397709468984,0.0,5.828433036804199,-0.6508737802505493,-0.0,2.157045364379883,5.200976538449087,0.0,0.22290398180484772,-1.8558786551104944,-0.0,0.023174919188022614,0.9222812652587891,-0.0,0.004018709994852543,1.3017966747283936,0.0,-0.008296799845993519
126.0,173.0,-4.3591,2.9091,8.3755,-0.0305,0.0286,-0.1107,-2.613980909387106,0.0,5.802552700042725,-0.6509140729904175,-0.0,2.16821026802063,5.201012629061498,0.0,0.2265804260969162,-1.8559029738055628,-0.0,0.019786961376667023,0.92231684923172,-0.0,-0.0045955125242471695,1.301805019378662,0.0,-0.018998758867383003
126.0,173.0,-4.3591,2.9091,8.3755,-0.0305,0.0286,-0.1107,-2.6140085659422816,0.0,5.887538909912109,-0.6508498787879944,-0.0,2.118269681930542,5.201008933573522,0.0,0.22594089806079865,-1.8558743635760706,-0.0,0.01787748746573925,0.922256588935852,-0.0,-0.0013811113312840462,1.3017971515655518,0.0,-0.008154040202498436
127.0,162.0,-4.3029,2.918,8.4257,-0.0385,0.0231,-0.1174,-2.6140009365477503,0.0,5.867319107055664,-0.6508777737617493,-0.0,2.1301233768463135,5.201000320702352,0.0,0.2279396951198578,-1.8559144178973597,-0.0,0.03265814483165741,0.9222888946533203,-0.0,-0.0009233471937477589,1.3017847537994385,0.0,0.00688245240598917
127.0,162.0,-4.3029,2.918,8.4257,-0.0385,0.0231,-0.1174,-2.6139689884581507,0.0,5.874630928039551,-0.6508976817131042,-0.0,2.1201395988464355,5.2010367689426324,0.0,0.22665366530418396,-1.8559148947345179,-0.0,0.022182688117027283,0.9222930073738098,-0.0,-0.00411655567586422,1.3017847537994385,0.0,-0.001474335789680481
127.0,162.0,-4.3029,2.918,8.4257,-0.0385,0.0231,-0.1174,-2.613992830316061,0.0,5.855527400970459,-0.6508618593215942,-0.0,2.1136045455932617,5.201012629061498,0.0,0.21705931425094604,-1.855950657521383,-0.0,0.0326615609228611,0.9222609996795654,-0.0,0.00021521234884858131,1.3017443418502808,0.0,0.04868073761463165
127.0,162.0,-4.3029,2.918,8.4257,-0.0385,0.0231,-0.1174,-2.6139728031554164,0.0,5.870450973510742,-0.6508938074111938,-0.0,2.1449978351593018,5.200992542296209,0.0,0.21791408956050873,-1.8558991591082972,-0.0,0.025399237871170044,0.9222406148910522,-0.0,0.008816501125693321,1.3018126487731934,0.0,-0.009037477895617485
127.0,162.0,-4.3029,2.918,8.4257,-0.0385,0.0231,-0.1174,-2.613992830316061,0.0,5.845097541809082,-0.6508898138999939,-0.0,2.118765354156494,5.201008546143331,0.0,0.21198976039886475,-1.8559067885028284,-0.0,0.0169810950756073,0.9222609996795654,-0.0,0.00249149976298213,1.301756501197815,0.0,-0.03823888674378395
127.0,162.0,-4.3029,2.918,8.4257,-0.0385,0.0231,-0.1174,-2.614028593102926,0.0,5.847293853759766,-0.6508777737617493,-0.0,2.163445472717285,5.201008546143331,2.7228336918483365e-08,0.2052098512649536,-1.8559144178973597,-0.0,0.025561776012182236,0.9223012328147888,-0.0,0.011218585073947906,1.3018208742141724,0.0,-0.008195191621780396
127.0,162.0,-4.3029,2.918,8.4257,-0.0385,0.0231,-0.1174,-2.6140085659422816,0.0,5.807972431182861,-0.6508618593215942,-0.0,2.122154712677002,5.200972485333242,4.948615844359294e-13,0.2273217886686325,-1.855903450642721,-0.0,0.022033166140317917,0.9223132729530334,-0.0,-0.007260111626237631,1.301764726638794,0.0,-0.012636680155992508
127.0,162.0,-4.3029,2.918,8.4257,-0.0385,0.0231,-0.1174,-2.6140128574767054,0.0,5.886358737945557,-0.6508938074111938,-0.0,2.1097488403320312,5.201004463225164,8.993865317117615e-18,0.22574949264526367,-1.8559311071978968,-0.0,0.014742277562618256,0.9222528338432312,-0.0,-0.002617583144456148,1.301793098449707,0.0,0.005773680750280619
127.0,162.0,-4.3029,2.918,8.4257,-0.0385,0.0231,-0.1174,-2.6140085659422816,0.0,5.873290538787842,-0.6509140729904175,-0.0,2.1096320152282715,5.200956153660574,1.634590603772789e-22,0.22005173563957214,-1.855938736592428,-0.0,0.030500788241624832,0.9222766757011414,-0.0,0.0007414037245325744,1.3017687797546387,0.0,-0.04022092744708061
126.0,169.0,-4.2909,2.9737,8.3527,-0.0322,0.0261,-0.1106,-2.613992830316061,0.0,5.821142196655273,-0.6508737802505493,-0.0,2.154393434524536,5.2010245499904535,4.549943241624758e-26,0.2163631021976471,-1.8558910528766077,-0.0,0.025744521990418434,0.9222322106361389,-0.0,-0.004392427392303944,1.3017926216125488,0.0,-0.024769790470600128
126.0,169.0,-4.2909,2.9737,8.3527,-0.0322,0.0261,-0.1106,-2.6140247784056605,0.0,5.833996772766113,-0.6508817672729492,-0.0,2.1425540447235107,5.201008546143331,8.269296189108098e-31,0.2192198932170868,-1.8558829466449183,-0.0,0.019912129268050194,0.9222325682640076,-0.0,0.012609148398041725,1.3017966747283936,0.0,0.0010304965544492006
126.0,169.0,-4.2909,2.9737,8.3527,-0.0322,0.0261,-0.1106,-2.6140085659422816,0.0,5.8485517501831055,-0.6508817672729492,-0.0,2.142831325531006,5.200944232731619,1.5029036788514283e-35,0.2167842537164688,-1.8558867613421839,-0.0,0.022043908014893532,0.9222487807273865,-0.0,0.0016158930957317352,1.3017889261245728,0.0,-0.048247262835502625
126.0,169.0,-4.2909,2.9737,8.3527,-0.0322,0.0261,-0.1106,-2.6140247784056605,0.0,5.823707580566406,-0.6508578658103943,-0.0,2.1039657592773438,5.200984704285421,2.731453005615863e-40,0.22354023158550262,-1.8559187094317835,-0.0,0.01022952701896429,0.9222848415374756,-0.0,-0.008110281080007553,1.3017364740371704,0.0,-0.05264142155647278
126.0,169.0,-4.2909,2.9737,8.3527,-0.0322,0.0261,-0.1106,-2.6140009365477503,0.0,5.8181843757629395,-0.6508698463439941,-0.0,2.1517300605773926,5.2010245499904535,7.567011707354012e-44,0.2136686146259308,-1.8559191862689417,-0.0,0.022314447909593582,0.9223451614379883,-0.0,0.006537762004882097,1.3017364740371704,0.0,-0.016638634726405144
126.0,169.0,-4.2909,2.9737,8.3527,-0.0322,0.0261,-0.1106,-2.61397709468984,0.0,5.863120079040527,-0.6508856415748596,-0.0,2.1021971702575684,5.200992542296209,0.0,0.21720074117183685,-1.8559144178973597,-0.0,0.009682944044470787,0.9222807884216309,-0.0,-0.0014489119639620185,1.3017847537994385,0.0,0.017953043803572655
126.0,169.0,-4.2909,2.9737,8.3527,-0.0322,0.0261,-0.1106,-2.614040514031881,0.0,5.794465065002441,-0.650885820388794,-0.0,2.1238279342651367,5.201012629061498,0.0,0.21260836720466614,-1.8559187094317835,-0.0,0.03298851102590561,0.9222488403320312,-0.0,0.008705965243279934,1.3017483949661255,0.0,0.03354933112859726
126.0,169.0,-4.2909,2.9737,8.3527,-0.0322,0.0261,-0.1106,-2.6139890156187953,0.0,5.8424882888793945,-0.6508777737617493,-0.0,2.138033151626587,5.200988489180364,0.0,0.22933559119701385,-1.855910603200094,-0.0,0.034918636083602905,0.9222447276115417,-0.0,0.007181599736213684,1.3017606735229492,0.0,0.04262509196996689
126.0,169.0,-4.2909,2.9737,8.3527,-0.0322,0.0261,-0.1106,-2.6140247784056605,0.0,5.823904037475586,-0.6508015990257263,-0.0,2.107421398162842,5.2009847340877435,0.0,0.22789108753204346,-1.8559272925006312,-0.0,0.02467520162463188,0.9222486019134521,-0.0,0.01403916534036398,1.3017323017120361,0.0,0.002192860469222069
128.0,173.0,-4.3412,2.9587,8.3779,-0.0318,0.0192,-0.1112,-2.613960405389303,0.0,5.886569976806641,-0.6508578062057495,-0.0,2.1385724544525146,5.200988876610555,-1.6675423466949724e-05,0.21978706121444702,-1.8558991591082972,-0.0,0.01943221688270569,0.9222726225852966,-0.0,-0.019337480887770653,1.3017323017120361,0.0,0.0010381387546658516
128.0,173.0,-4.3412,2.9587,8.3779,-0.0318,0.0192,-0.1112,-2.6139685116209925,0.0,5.887970924377441,-0.6509060859680176,-0.0,2.1180639266967773,5.201012629061498,-1.6599813534412533e-05,0.22192972898483276,-1.8558948675738733,-0.0,0.026384029537439346,0.9222930073738098,-0.0,-0.01982630416750908,1.3017524480819702,0.0,0.020261604338884354
128.0,173.0,-4.3412,2.9587,8.3779,-0.0318,0.0192,-0.1112,-2.6140247784056605,0.0,5.861975193023682,-0.650846004486084,-0.0,2.1611580848693848,5.201004463225164,-1.5459263522643596e-05,0.22005029022693634,-1.8559230009662073,-0.0,0.02461731992661953,0.9222967624664307,-0.0,0.0007301457226276398,1.3017364740371704,0.0,-0.021611543372273445
128.0,173.0,-4.3412,2.9587,8.3779,-0.0318,0.0192,-0.1112,-2.6139966450133265,0.0,5.834191799163818,-0.6508737802505493,-0.0,2.1245229244232178,5.200984704285421,-1.4465378626482561e-05,0.21960273385047913,-1.855954949055807,-0.0,0.01779147982597351,0.9222688674926758,-0.0,0.01958966813981533,1.301764726638794,0.0,0.01105529349297285
128.0,173.0,-4.3412,2.9587,8.3779,-0.0318,0.0192,-0.1112,-2.6139728031554164,0.0,5.861332893371582,-0.6509060859680176,-0.0,2.1459264755249023,5.200996595412054,-1.3799966836813837e-05,0.2201094776391983,-1.8559349218951624,-0.0,0.03440523520112038,0.9222688674926758,-0.0,0.006480485666543245,1.3017241954803467,0.0,-0.006924268789589405
128.0,173.0,-4.3412,2.9587,8.3779,-0.0318,0.0192,-0.1112,-2.613964696923727,0.0,5.895324230194092,-0.6508498787879944,-0.0,2.1384897232055664,5.201008546143331,-1.3002482774027158e-05,0.20844626426696777,-1.8559115568744105,-0.0,0.02474532276391983,0.9222528338432312,-0.0,-3.2453681342303753e-06,1.3017324209213257,0.0,0.013253833167254925
128.0,173.0,-4.3412,2.9587,8.3779,-0.0318,0.0192,-0.1112,-2.6140009365477503,0.0,5.828707695007324,-0.6508498787879944,-0.0,2.151378631591797,5.200996595412054,-1.2292134670133237e-05,0.22128179669380188,-1.8558791319476526,-0.0,0.02065432444214821,0.9222688674926758,-0.0,0.0164839718490839,1.3017566204071045,0.0,0.003969425801187754
128.0,173.0,-4.3412,2.9587,8.3779,-0.0318,0.0192,-0.1112,-2.6140085659422816,0.0,5.834345817565918,-0.6509097814559937,-0.0,2.093390703201294,5.201012629061498,-1.1655391062959097e-05,0.22228756546974182,-1.8559473196612757,-0.0,0.024516914039850235,0.9222402572631836,-0.0,-0.014070768840610981,1.3017483949661255,0.0,-0.02976464107632637
128.0,173.0,-4.3412,2.9587,8.3779,-0.0318,0.0192,-0.1112,-2.6140529117979945,0.0,5.89092493057251,-0.650865912437439,-0.0,2.1414108276367188,5.200984704285421,-1.1081359843956307e-05,0.22427400946617126,-1.8558991591082972,-0.0,0.02800268679857254,0.9223008155822754,-0.0,-0.004656034521758556,1.301805019378662,0.0,-0.01279439777135849
128.0,168.0,-4.2891,3.2064,8.5537,-0.0281,0.0238,-0.1124,-2.6139522991576136,0.0,5.862695693969727,-0.6508817672729492,-0.0,2.096780300140381,5.200980621367254,-1.068662095349282e-05,0.2123316526412964,-1.8559024969684046,-0.0,0.01632021740078926,0.9222443699836731,-0.0,-0.00487939128652215,1.3017807006835938,0.0,0.016227833926677704
128.0,168.0,-4.2891,3.2064,8.5537,-0.0281,0.0238,-0.1124,-2.6139890156187953,0.0,5.823823928833008,-0.6508618593215942,-0.0,2.1142773628234863,5.201008516341009,-1.020206582325045e-05,0.22435425221920013,-1.8558991591082972,-0.0,0.01383998990058899,0.9222930073738098,-0.0,-0.005936199799180031,1.3017566204071045,0.0,-0.020116742700338364
128.0,168.0,-4.2891,3.2064,8.5537,-0.0281,0.0238,-0.1124,-2.613992830316061,0.0,5.8537983894348145,-0.6508778929710388,-0.0,2.1286239624023438,5.201008546143331,-8.389887540261043e-08,0.21998223662376404,-1.8558948675738733,-0.0,0.029681824147701263,0.9223292469978333,-0.0,0.004184911493211985,1.3017926216125488,0.0,-0.016253748908638954
128.0,168.0,-4.2891,3.2064,8.5537,-0.0281,0.0238,-0.1124,-2.6139689884581507,0.0,5.876258850097656,-0.6508215665817261,-0.0,2.150494337081909,5.201008546143331,-1.524820417500572e-12,0.21288487315177917,-1.8558786551104944,-0.0,0.009234238415956497,0.9222848415374756,-0.0,0.0050141289830207825,1.3017605543136597,0.0,0.0012838058173656464
128.0,168.0,-4.2891,3.2064,8.5537,-0.0281,0.0238,-0.1124,-2.614016672173971,0.0,5.864539623260498,-0.6508579254150391,-0.0,2.167560577392578,5.200984704285421,-4.2443939543252253e-16,0.21325740218162537,-1.8558991591082972,-0.0,0.020662076771259308,0.9222172498703003,-0.0,-0.0003864596365019679,1.3017282485961914,0.0,-0.020928600803017616
128.0,168.0,-4.2891,3.2064,8.5537,-0.0281,0.0238,-0.1124,-2.613964696923727,0.0,5.856287479400635,-0.6508215665817261,-0.0,2.155104637145996,5.201032686024465,-7.713976199939829e-21,0.2265753298997879,-1.8559148947345179,-0.0,0.017858685925602913,0.9222362637519836,-0.0,-0.003514025593176484,1.3017605543136597,0.0,-0.02238812856376171
128.0,168.0,-4.2891,3.2064,8.5537,-0.0281,0.0238,-0.1124,-2.6140204868712367,0.0,5.834867477416992,-0.6508777737617493,-0.0,2.133605718612671,5.2010245499904535,-1.4019769127865578e-25,0.21698346734046936,-1.85588246980776,-0.0,0.02262362465262413,0.9222326278686523,-0.0,-0.0002052567433565855,1.301756501197815,0.0,0.03189234808087349
128.0,168.0,-4.2891,3.2064,8.5537,-0.0281,0.0238,-0.1124,-2.613992830316061,0.0,5.868685722351074,-0.6509342193603516,-0.0,2.105480432510376,5.200980621367254,-2.5480231839384455e-30,0.21287864446640015,-1.8558462301837366,-0.0,0.024341892451047897,0.9222652912139893,-0.0,-0.0008232355467043817,1.3017524480819702,0.0,-0.024654028937220573
128.0,168.0,-4.2891,3.2064,8.5537,-0.0281,0.0238,-0.1124,-2.6139728031554164,0.0,5.827451705932617,-0.6508498787879944,-0.0,2.116546154022217,5.200984704285421,-4.6309064867843316e-35,0.21920424699783325,-1.8558991591082972,-0.0,0.040217794477939606,0.9222729206085205,-0.0,0.0020565451122820377,1.3018087148666382,0.0,0.009178711101412773
126.0,172.0,-4.4285,2.9396,8.3683,-0.0354,0.0195,-0.119,-2.6139966450133265,0.0,5.841716766357422,-0.6508737206459045,-0.0,2.1890079975128174,5.201004463225164,-1.2890296543495807e-38,0.215435191988945,-1.8559072653399866,-0.0,0.02026379480957985,0.9222688674926758,-0.0,0.002550683915615082,1.3017364740371704,0.0,-0.025682158768177032
126.0,172.0,-4.4285,2.9396,8.3683,-0.0354,0.0195,-0.119,-2.613992830316061,0.0,5.873586177825928,-0.6509057283401489,-0.0,2.1623449325561523,5.200992542296209,-2.3401684354224445e-43,0.21293258666992188,-1.8558991591082972,-0.0,0.023511085659265518,0.9223012328147888,-0.0,0.004124951548874378,1.3017687797546387,0.0,0.007362588308751583
126.0,172.0,-4.4285,2.9396,8.3683,-0.0354,0.0195,-0.119,-2.6140572033324183,0.0,5.876343727111816,-0.6508698463439941,-0.0,2.134165048599243,5.201004880457678,-0.0,0.2214227318763733,-1.8558867613421839,-0.0,0.03379121795296669,0.9222847819328308,-0.0,-0.007954043336212635,1.3017606735229492,0.0,-0.0689658597111702
126.0,172.0,-4.4285,2.9396,8.3683,-0.0354,0.0195,-0.119,-2.614004751245016,0.0,5.8626179695129395,-0.6509020924568176,-0.0,2.116349220275879,5.201004880457678,-0.0,0.21643969416618347,-1.8558948675738733,-0.0,0.007220827043056488,0.9223048686981201,-0.0,0.02070275880396366,1.3017287254333496,0.0,0.012082193046808243
126.0,172.0,-4.4285,2.9396,8.3683,-0.0354,0.0195,-0.119,-2.6140009365477503,0.0,5.845775604248047,-0.650861918926239,-0.0,2.096334934234619,5.2010167119796655,-0.0,0.21066594123840332,-1.8559148947345179,-0.0,0.025763703510165215,0.9223132133483887,-0.0,-0.003203383646905422,1.3017606735229492,0.0,-0.03683765232563019
126.0,172.0,-4.4285,2.9396,8.3683,-0.0354,0.0195,-0.119,-2.6139728031554164,0.0,5.878866672515869,-0.6508617997169495,-0.0,2.1235086917877197,5.201032715826788,-0.0,0.2198580801486969,-1.85588246980776,-0.0,0.02368520013988018,0.9222569465637207,-0.0,-0.007779339794069529,1.301788568496704,0.0,-0.01598806492984295
126.0,172.0,-4.4285,2.9396,8.3683,-0.0354,0.0195,-0.119,-2.61397709468984,0.0,5.829604625701904,-0.6508379578590393,-0.0,2.1485681533813477,5.20103274562911,-0.0,0.22310754656791687,-1.8559148947345179,-0.0,0.027816714718937874,0.9222853183746338,-0.0,0.003396813990548253,1.3017324209213257,0.0,-0.04941036179661751
126.0,172.0,-4.4285,2.9396,8.3683,-0.0354,0.0195,-0.119,-2.613960405389303,0.0,5.881936073303223,-0.650885820388794,-0.0,2.1658380031585693,5.200968372612753,-0.0,0.21522283554077148,-1.8559272925006312,-0.0,0.021200500428676605,0.9223089814186096,-0.0,-0.003108796663582325,1.3017687797546387,0.0,0.0049359784461557865
126.0,172.0,-4.4285,2.9396,8.3683,-0.0354,0.0195,-0.119,-2.6139847240843714,0.0,5.803311347961426,-0.6508379578590393,-0.0,2.1732966899871826,5.2010245499904535,-0.0,0.22731447219848633,-1.8559311071978968,-0.0,0.01949705369770527,0.9222130179405212,-0.0,-0.006395304575562477,1.3017847537994385,0.0,-0.01772412471473217
131.0,172.0,-4.3944,2.9695,8.5292,-0.0095,0.0365,-0.111,-2.61397709468984,0.0,5.825174331665039,-0.6508617997169495,-0.0,2.1252853870391846,5.2009401498134515,-0.0,0.2119690477848053,-1.855938736592428,-0.0,0.018846647813916206,0.9222366809844971,-0.0,-0.012794282287359238,1.3017927408218384,0.0,0.006750429980456829
131.0,172.0,-4.3944,2.9695,8.5292,-0.0095,0.0365,-0.111,-2.6139966450133265,0.0,5.8400678634643555,-0.6508657932281494,-0.0,2.1574628353118896,5.201020824700155,-0.0,0.2079307734966278,-1.8559473196612757,-0.0,0.024219010025262833,0.9222321510314941,-0.0,0.0020647714845836163,1.3017966747283936,0.0,0.02981629967689514
131.0,172.0,-4.3944,2.9695,8.5292,-0.0095,0.0365,-0.111,-2.613992830316061,0.0,5.887218475341797,-0.6508896350860596,-0.0,2.143742084503174,5.201008933573522,-0.0,0.2093619853258133,-1.8559148947345179,-0.0,0.013341747224330902,0.9223012924194336,-0.0,0.0071436697617173195,1.301776647567749,0.0,0.02671472728252411
131.0,172.0,-4.3944,2.9695,8.5292,-0.0095,0.0365,-0.111,-2.6139890156187953,0.0,5.885488510131836,-0.650861918926239,-0.0,2.109585762023926,5.2010167119796655,-0.0,0.2215229868888855,-1.8559148947345179,-0.0,0.010933149605989456,0.9222647547721863,-0.0,-0.0003002304583787918,1.301764726638794,0.0,-0.0057129031047225
131.0,172.0,-4.3944,2.9695,8.5292,-0.0095,0.0365,-0.111,-2.6139728031554164,0.0,5.901482582092285,-0.6508458852767944,-0.0,2.115010976791382,5.201000708132543,-0.0,0.21018359065055847,-1.8559272925006312,-0.0,0.014533324167132378,0.9222930073738098,-0.0,0.00248474208638072,1.301764726638794,0.0,-0.0038773994892835617
131.0,172.0,-4.3944,2.9695,8.5292,-0.0095,0.0365,-0.111,-2.61397709468984,0.0,5.850796699523926,-0.6508856415748596,-0.0,2.083501100540161,5.200984704285421,-0.0,0.22604912519454956,-1.8559072653399866,-0.0,0.016374533995985985,0.9223132729530334,-0.0,0.0019069270929321647,1.3017847537994385,0.0,0.05389973521232605
131.0,172.0,-4.3944,2.9695,8.5292,-0.0095,0.0365,-0.111,-2.613960405389303,0.0,5.867032051086426,-0.6508339643478394,-0.0,2.1059725284576416,5.200992542296209,-0.0,0.217113196849823,-1.855910603200094,-0.0,0.02270546741783619,0.9222729206085205,-0.0,-0.00386404013261199,1.301812767982483,0.0,-0.040939271450042725
131.0,172.0,-4.3944,2.9695,8.5292,-0.0095,0.0365,-0.111,-2.614004751245016,0.0,5.846450328826904,-0.650861918926239,-0.0,2.1621837615966797,5.200944232731619,-0.0,0.21731701493263245,-1.8558910528766077,-0.0,0.014114884659647942,0.9222647547721863,-0.0,0.010415459051728249,1.3017364740371704,0.0,-0.0568978413939476
131.0,172.0,-4.3944,2.9695,8.5292,-0.0095,0.0365,-0.111,-2.6140085659422816,0.0,5.8578643798828125,-0.6508936882019043,-0.0,2.1696417331695557,5.200968402415075,-0.0,0.21781620383262634,-1.8558910528766077,-0.0,0.013494663871824741,0.9223086833953857,-0.0,0.00842172559350729,1.3018007278442383,1.0404167527511277e-09,0.02683507651090622
127.0,169.0,-4.2215,3.5288,8.4969,-0.0301,0.0162,-0.1158,-2.6139847240843714,0.0,5.858580112457275,-0.6509215235710144,-0.0,2.127842903137207,5.200980621367254,-0.0,0.2159489393234253,-1.8559473196612757,-0.0,0.021319707855582237,0.9223209023475647,-0.0,-0.0014483439736068249,1.301829218864441,2.5124839512222826e-15,0.0006912738317623734
127.0,169.0,-4.2215,3.5288,8.4969,-0.0301,0.0162,-0.1158,-2.61397709468984,0.0,5.854466438293457,-0.6508538126945496,-0.0,2.1347737312316895,5.2010167119796655,-0.0,0.21568170189857483,-1.8559392134295862,-0.0,0.023446932435035706,0.922292947769165,-0.0,0.014313518069684505,1.3018449544906616,8.140128832142061e-23,-0.01266996655613184
127.0,169.0,-4.2215,3.5288,8.4969,-0.0301,0.0162,-0.1158,-2.613992830316061,0.0,5.87757682800293,-0.6508896350860596,-0.0,2.126527786254883,5.200944262533941,-0.0,0.2251553237438202,-1.8559392134295862,-0.0,0.021234452724456787,0.9223049283027649,-0.0,0.0035655442625284195,1.301824927330017,0.0003405804745852947,0.033165667206048965
127.0,169.0,-4.2215,3.5288,8.4969,-0.0301,0.0162,-0.1158,-2.6139890156187953,0.0,5.877734184265137,-0.650885820388794,-0.0,2.143113613128662,5.201012629061498,-0.0,0.21753162145614624,-1.8559306303607386,-0.0,0.018680434674024582,0.9222362637519836,-0.0,0.012307258322834969,1.301780343055725,0.000323978194501251,-0.0506306067109108
127.0,169.0,-4.2215,3.5288,8.4969,-0.0301,0.0162,-0.1158,-2.61397709468984,0.0,5.831768989562988,-0.6508898735046387,-0.0,2.162895679473877,5.2010167119796655,-0.0,0.22491708397865295,-1.8559430281268519,-0.0,0.017254559323191643,0.9223127365112305,-0.0,-0.008620956912636757,1.3018289804458618,0.00027462159050628543,0.014958247542381287
127.0,169.0,-4.2215,3.5288,8.4969,-0.0301,0.0162,-0.1158,-2.613964696923727,0.0,5.849042892456055,-0.6508657932281494,-0.0,2.0872058868408203,5.201036798744955,-0.0,0.22514446079730988,-1.8559063116656702,-0.0,0.020155608654022217,0.9222609996795654,-0.0,0.0021162331104278564,1.3017926216125488,0.0002281970519106835,0.007569245062768459
127.0,169.0,-4.2215,3.5288,8.4969,-0.0301,0.0162,-0.1158,-2.614004751245016,0.0,5.8710408210754395,-0.6508777737617493,-0.0,2.1210503578186035,5.201016741781988,-0.0,0.2128848433494568,-1.855954949055807,-0.0,0.01503085345029831,0.9222807288169861,-0.0,0.0036884157452732325,1.301812767982483,0.00019519974011927843,-0.03365693613886833
127.0,169.0,-4.2215,3.5288,8.4969,-0.0301,0.0162,-0.1158,-2.613952775994772,2.4196551880184547e-12,5.854980945587158,-0.6508538722991943,-0.0,2.0958728790283203,5.20101677158431,-0.0,0.20849475264549255,-1.8559187094317835,-0.0,0.011213434860110283,0.9222967624664307,-0.0,0.0006036895210854709,1.3018208742141724,0.000170540384715423,-0.014362717047333717
127.0,169.0,-4.2215,3.5288,8.4969,-0.0301,0.0162,-0.1158,-2.61400904277944,5.8431827539689674e-18,5.849070072174072,-0.6508498191833496,-0.0,2.101835012435913,5.200992542296209,-0.0,0.21042080223560333,-1.8559473196612757,-1.6464380223624175e-06,0.028811272233724594,0.9223127365112305,-0.0,-0.001836263807490468,1.301756501197815,0.0001557803770992905,-0.06667158007621765
129.0,167.0,-4.3878,2.5729,8.4969,-0.0467,0.0188,-0.1127,-2.6140204868712367,1.8931166587369857e-25,5.815895080566406,-0.6508938670158386,-0.0,2.152204990386963,5.20103274562911,-0.0,0.23974455893039703,-1.8558743635760706,-2.992319586558878e-11,0.025232497602701187,0.9222241044044495,-0.0,-0.00922335684299469,1.3017725944519043,0.0001396641746396199,0.01968909427523613
129.0,167.0,-4.3878,2.5729,8.4969,-0.0467,0.0188,-0.1127,-2.6139890156187953,6.13345622015413e-33,5.829337120056152,-0.6508818864822388,-0.0,2.1201648712158203,5.200988876610555,-0.0,0.21877610683441162,-1.8559187094317835,-5.438393566691957e-16,0.011848513036966324,0.9222807884216309,-0.0,7.430976256728172e-05,1.301832675933838,0.00012656991020776331,0.019491231068968773
129.0,167.0,-4.3878,2.5729,8.4969,-0.0467,0.0188,-0.1127,-2.61397709468984,1.98716733927438e-40,5.840142250061035,-0.6508538126945496,-0.0,2.149181365966797,5.200992542296209,-0.0,0.21589913964271545,-1.8559024969684046,-9.884008604377404e-21,0.004309212788939476,0.9223132133483887,-0.0,0.0022024603094905615,1.3018007278442383,0.00011545713641680777,-0.024823881685733795
129.0,167.0,-4.3878,2.5729,8.4969,-0.0467,0.0188,-0.1127,-2.6140324078001917,0.0,5.854036808013916,-0.6508538722991943,-0.0,2.106910228729248,5.2010167119796655,-0.0,0.21950538456439972,-1.855938736592428,-1.7963696479850328e-25,0.019251566380262375,0.9222966432571411,-0.0,0.003348936326801777,1.301804542541504,0.00010658418614184484,-0.003335351124405861
129.0,167.0,-4.3878,2.5729,8.4969,-0.0467,0.0188,-0.1127,-2.6140009365477503,0.0,5.864374160766602,-0.6509141325950623,-0.0,2.132650136947632,5.201012658863821,-0.0,0.20674438774585724,-1.8558867613421839,-5.0002615210306456e-29,0.02054375782608986,0.9223089218139648,-0.0,-0.005011319182813168,1.3017724752426147,8.38559353724122e-05,-0.01028040423989296
129.0,167.0,-4.3878,2.5729,8.4969,-0.0467,0.0188,-0.1127,-2.6139408550658167,0.0,5.888216018676758,-0.6508896946907043,-0.0,2.1705985069274902,5.2009602067764185,-0.0,0.21692845225334167,-1.8558624426471155,-9.087729377462835e-34,0.03520280122756958,0.9223209023475647,-0.0,-0.0023486302234232426,1.3017606735229492,7.80381087679416e-05,0.0599568635225296
129.0,167.0,-4.3878,2.5729,8.4969,-0.0467,0.0188,-0.1127,-2.6139565906920375,0.0,5.873371124267578,-0.6508777737617493,-0.0,2.116767644882202,5.201012629061498,-0.0,0.20876803994178772,-1.8559230009662073,-1.6516498236761566e-38,0.038737453520298004,0.9222848415374756,-0.0,0.008335024118423462,1.3017843961715698,5.8383513533044606e-05,-0.013861918821930885
129.0,167.0,-4.3878,2.5729,8.4969,-0.0467,0.0188,-0.1127,-2.6139565906920375,0.0,5.887612342834473,-0.6508817672729492,-0.0,2.1483514308929443,5.200976538449087,-0.0,0.21487417817115784,-1.8559024969684046,-2.9987787136551085e-43,0.02289990708231926,0.9222933053970337,-0.0,0.007799035869538784,1.3017687797546387,5.4824551625642926e-05,0.016538018360733986
129.0,167.0,-4.3878,2.5729,8.4969,-0.0467,0.0188,-0.1127,-2.613964696923727,0.0,5.897660255432129,-0.6508817672729492,-0.0,2.0931382179260254,5.200992482691564,-0.0,0.21611306071281433,-1.8558743635760706,-0.0,0.03566800802946091,0.9222888946533203,-0.0,-0.010130931623280048,1.301728367805481,4.085127147845924e-05,0.03415863215923309
130.0,166.0,-4.7898,2.817,8.6614,-0.0505,0.0677,-0.1113,-2.6140009365477503,0.0,5.845664978027344,-0.6508736610412598,-0.0,2.0843894481658936,5.200984704285421,-0.0,0.22890186309814453,-1.8559230009662073,-0.0,0.023468129336833954,0.9222402572631836,-0.0,0.004419110249727964,1.301820993423462,3.715736966114491e-05,0.016543548554182053
130.0,166.0,-4.7898,2.817,8.6614,-0.0505,0.0677,-0.1113,-2.6139890156187953,0.0,5.817506790161133,-0.6508698463439941,9.113356228517e-14,2.1145806312561035,5.201028632908621,-0.0,0.2210979163646698,-1.8559311071978968,-0.0,0.015739822760224342,0.9222487807273865,-0.0,-0.001043406198732555,1.3017524480819702,-2.779815622488968e-05,0.020125143229961395
130.0,166.0,-4.7898,2.817,8.6614,-0.0505,0.0677,-0.1113,-2.6139966450133265,0.0,5.85598087310791,-0.6508538722991943,2.9526117049336207e-21,2.1220550537109375,5.2009929595287225,-0.0,0.22270578145980835,-1.8558910528766077,-0.0,0.015182029455900192,0.9222406148910522,-0.0,0.009629879146814346,1.301784873008728,-1.3095628673909232e-05,0.02971780300140381
130.0,166.0,-4.7898,2.817,8.6614,-0.0505,0.0677,-0.1113,-2.613980909387106,0.0,5.855812072753906,-0.650861918926239,9.566086209681001e-29,2.1420769691467285,5.200992542296209,-0.0,0.22617509961128235,-1.8558743635760706,-0.0,0.014755943790078163,0.9222888946533203,-0.0,-0.0035709519870579243,1.3017725944519043,-1.2375366168271285e-05,0.026046209037303925
130.0,166.0,-4.7898,2.817,8.6614,-0.0505,0.0677,-0.1113,-2.6139522991576136,0.0,5.884034156799316,-0.6509098410606384,2.3100971102703063e-34,2.1467764377593994,5.201024609595098,-0.0,0.2159844934940338,-1.8559024969684046,-0.0,0.030831655487418175,0.9223452210426331,-0.0,-0.0018559092422947288,1.3017966747283936,-1.1885097592312377e-05,-0.04470549523830414
130.0,166.0,-4.7898,2.817,8.6614,-0.0505,0.0677,-0.1113,-2.6139847240843714,0.0,5.86185359954834,-0.6508339643478394,7.484335097958848e-42,2.1376895904541016,5.200992542296209,-0.0,0.21089518070220947,-1.8559148947345179,-0.0,0.023046936839818954,0.922289252281189,-0.0,0.007243870757520199,1.3017687797546387,-1.1288801943010185e-05,0.007556896656751633
130.0,166.0,-4.7898,2.817,8.6614,-0.0505,0.0677,-0.1113,-2.6139565906920375,0.0,5.855795860290527,-0.6509261727333069,-0.0,2.1069462299346924,5.201012629061498,-0.0,0.2195368856191635,-1.855926815663473,-7.220684346975759e-05,0.01766415685415268,0.9222688674926758,-0.0,0.0003732522018253803,1.3018208742141724,-1.459613798715509e-07,-0.0062122349627316
130.0,166.0,-4.7898,2.817,8.6614,-0.0505,0.0677,-0.1113,-2.6139966450133265,0.0,5.8556318283081055,-0.650825560092926,-0.0,2.0742616653442383,5.201000708132543,-0.0,0.22507533431053162,-1.8559625784503382,-0.0014960954431444407,0.016032185405492783,0.9222967624664307,-0.0,-0.002147707622498274,1.3018003702163696,-4.728962074631183e-15,0.02027401141822338
130.0,166.0,-4.7898,2.817,8.6614,-0.0505,0.0677,-0.1113,-2.614016672173971,0.0,5.8359270095825195,-0.6508379578590393,-0.0,2.164071559906006,5.200980621367254,-0.0,0.20824342966079712,-1.8559635321246546,-0.0015339239034801722,-0.0013006273657083511,0.922292947769165,-0.0,0.009314475581049919,1.301857352256775,0.0011362568475306034,0.011253319680690765
127.0,173.0,-4.809,3.2363,8.3928,-0.0331,-0.1503,-0.0626,-2.6140009365477503,0.0,5.856122970581055,-0.6508458256721497,-0.0,2.129730224609375,5.201008575945654,-0.0,0.21415655314922333,-1.8559554258929651,-0.0010912425350397825,0.025309499353170395,0.9223451018333435,-0.0,-0.005521909799426794,1.3018407821655273,0.0020810733549296856,0.0013208864256739616
127.0,173.0,-4.809,3.2363,8.3928,-0.0331,-0.1503,-0.0626,-2.613992830316061,0.0,5.86602783203125,-0.6508299112319946,-0.0,2.1109910011291504,5.200988459378042,-0.0,0.2183605432510376,-1.855983082448141,-0.000864270725287497,0.01998896524310112,0.9222120642662048,-0.0,0.013981732539832592,1.3018367290496826,0.0014354800805449486,0.015018504112958908
127.0,173.0,-4.809,3.2363,8.3928,-0.0331,-0.1503,-0.0626,-2.6140085659422816,0.0,5.8541059494018555,-0.6508458256721497,-0.0,2.11846661567688,5.2010167119796655,-0.0,0.22737881541252136,-1.8560031096087855,-0.0007759089930914342,0.009274112060666084,0.9223127365112305,-0.0,-0.0043412139639258385,1.3018648624420166,0.0009047899511642754,-8.840067312121391e-05
127.0,173.0,-4.809,3.2363,8.3928,-0.0331,-0.1503,-0.0626,-2.6140486202635707,0.0,5.844510078430176,-0.6508335471153259,-0.0,2.122087001800537,5.200984704285421,-0.0,0.22122588753700256,-1.855983082448141,-0.0010275912936776876,0.01711164601147175,0.9222362637519836,-0.0,0.0005613409448415041,1.30190908908844,0.0020054930355399847,0.017228513956069946
127.0,173.0,-4.809,3.2363,8.3928,-0.0331,-0.1503,-0.0626,-2.6140009365477503,7.702685138610832e-07,5.858169078826904,-0.650846004486084,8.595821418566629e-05,2.1385984420776367,5.200944232731619,-0.0,0.22364124655723572,-1.8560031096087855,-0.0010953875025734305,0.011916706338524818,0.9222447872161865,-0.0,0.01209297776222229,1.301872730255127,0.002936724340543151,0.013758471235632896
127.0,173.0,-4.809,3.2363,8.3928,-0.0331,-0.1503,-0.0626,-2.613948484460348,0.000929489906411618,5.861405372619629,-0.6507897973060608,0.00111491815187037,2.1320881843566895,5.200980621367254,-0.0,0.22503748536109924,-1.855995003377096,-0.0016063686925917864,0.023791762068867683,0.9222280979156494,-0.0,0.003632788546383381,1.3019366264343262,0.0033260283526033163,0.05994482338428497
127.0,173.0,-4.809,3.2363,8.3928,-0.0331,-0.1503,-0.0626,-2.6139408550658167,0.0009640797507017851,5.87385368347168,-0.6508540511131287,0.0010098499478772283,2.1461539268493652,5.201008546143331,-0.0,0.21751993894577026,-1.8560145537005823,-0.002604859648272395,0.018032504245638847,0.9222812056541443,-0.0,0.004234792664647102,1.3019042015075684,0.003991567064076662,-0.007839815691113472
127.0,173.0,-4.809,3.2363,8.3928,-0.0331,-0.1503,-0.0626,-2.613952775994772,0.0007338935392908752,5.8618483543396,-0.6507778763771057,0.0006145585794001818,2.135835647583008,5.200976538449087,-0.0,0.21822063624858856,-1.8560550848590296,-0.003813865827396512,0.012561618350446224,0.9222848415374756,-0.0,0.0088175218552351,1.3020167350769043,0.007667244877666235,-9.802286513149738e-05
127.0,173.0,-4.809,3.2363,8.3928,-0.0331,-0.1503,-0.0626,-2.613920827905172,0.0006214572349563241,5.864184856414795,-0.6508137583732605,0.00043585855746641755,2.111405372619629,5.201048630266943,-0.0,0.20762765407562256,-1.856035057698385,-0.004342515952885151,0.019853882491588593,0.922269344329834,-0.0,0.00640475656837225,1.3020567893981934,0.007663102820515633,0.017635725438594818
129.0,173.0,-4.3322,3.0843,8.604,-0.0579,-0.4027,0.0021,-2.6139565906920375,0.0004619323881343007,5.823716163635254,-0.6507619619369507,0.00031411845702677965,2.133709669113159,5.201004463225164,-0.0,0.21737387776374817,-1.856086556111471,-0.0022152173332870007,0.009468301199376583,0.9222769737243652,-0.0,0.0048388889990746975,1.3021248579025269,0.004982909187674522,0.020022131502628326
129.0,173.0,-4.3322,3.0843,8.604,-0.0579,-0.4027,0.0021,-2.6139971218504847,0.0003216379845980555,5.876029968261719,-0.6508176326751709,0.000245546834776178,2.1400318145751953,5.2010167119796655,-0.0,0.200802743434906,-1.8560951391803187,-0.0009004324092529714,0.017630280926823616,0.9222607016563416,-0.0,-0.004897056147456169,1.3021690845489502,0.004298321437090635,-0.009226454421877861
129.0,173.0,-4.3322,3.0843,8.604,-0.0579,-0.4027,0.0021,-2.6139327488341273,9.230520663550124e-05,5.816711902618408,-0.6508176326751709,0.0002015511126955971,2.133563280105591,5.200988876610555,-0.0,0.22584372758865356,-1.8560546080218714,-0.0005395729676820338,0.021258534863591194,0.9222972393035889,-0.0,0.007590833585709333,1.3021283149719238,0.0029472410678863525,-0.0003762398846447468
129.0,173.0,-4.3322,3.0843,8.604,-0.0579,-0.4027,0.0021,-2.6140204868712367,7.656947855139151e-05,5.916042327880859,-0.6508297324180603,0.00017092650523409247,2.1050658226013184,5.200988876610555,-0.0,0.22574996948242188,-1.8560708204852503,-0.00038538165972568095,0.01914997398853302,0.9222362041473389,-0.0,0.0037267468869686127,1.3021485805511475,0.0012676168698817492,-0.00732977082952857
129.0,173.0,-4.3322,3.0843,8.604,-0.0579,-0.4027,0.0021,-2.613992830316061,6.790338375139982e-05,5.849623680114746,-0.6507938504219055,0.00015344125858973712,2.1340694427490234,5.200944590359487,-0.0,0.21597248315811157,-1.8560507933246058,-0.00031738923280499876,0.02636718563735485,0.9222486019134521,-0.0,0.0015089381486177444,1.302120566368103,0.0005481505650095642,0.045957695692777634
129.0,173.0,-4.3322,3.0843,8.604,-0.0579,-0.4027,0.0021,-2.6139685116209925,5.90002273384016e-05,5.848603248596191,-0.6507498025894165,0.0001350244419882074,2.0950331687927246,5.200968402415075,-0.0,0.21143612265586853,-1.8560469786273401,-0.00025695565273053944,0.01352695096284151,0.9222486019134521,-0.0,0.012150721624493599,1.3020964860916138,-0.00044835012522526085,0.004042550455778837
129.0,173.0,-4.3322,3.0843,8.604,-0.0579,-0.4027,0.0021,-2.613964696923727,5.216105273575522e-05,5.858271598815918,-0.6508135795593262,0.00012055516708642244,2.1403629779815674,5.20096834281043,-0.0,0.2213132679462433,-1.8560870329486292,-0.0002158594725187868,0.025038540363311768,0.922269344329834,-0.0,-0.0008056022925302386,1.302088737487793,-0.002388146473094821,0.009629480540752411
129.0,173.0,-4.3322,3.0843,8.604,-0.0579,-0.4027,0.0021,-2.613924642602438,4.674288720707409e-05,5.83903694152832,-0.6509019732475281,0.00010888678662013263,2.159870147705078,5.200904536038198,-0.00033235797309316695,0.22130824625492096,-1.856079403554098,-0.00018609841936267912,0.030262907966971397,0.9222972393035889,-0.0,-0.004790411330759525,1.3020727634429932,-0.002157675800845027,-0.019092652946710587
129.0,173.0,-4.3322,3.0843,8.604,-0.0579,-0.4027,0.0021,-2.6139408550658167,4.336460551712662e-05,5.8596296310424805,-0.6508097648620605,0.00010151750029763207,2.1269922256469727,5.200900780945577,-0.00036876925150863826,0.22116610407829285,-1.8560469786273401,-0.0001686590549070388,0.016213156282901764,0.9222283363342285,-0.0,-0.004522441420704126,1.30201256275177,-0.002033289521932602,0.004353851545602083
141.0,177.0,-2.6554,2.8702,8.8074,-0.0568,-0.2824,-0.0272,-2.613976617852682,3.955307329306379e-05,5.8327765464782715,-0.6507816910743713,9.311499889008701e-05,2.126476526260376,5.200900780945577,-0.0006473508547060192,0.22677485644817352,-1.8560550848590296,-0.00014992668002378196,0.014230603352189064,0.9222120642662048,-1.8663495193749213e-09,0.004065602086484432,1.3020573854446411,-0.002501091454178095,0.004999857395887375
141.0,177.0,-2.6554,2.8702,8.8074,-0.0568,-0.2824,-0.0272,-2.6139446697630824,3.635739631135948e-05,5.842491149902344,-0.6508178114891052,8.59971551108174e-05,2.179500102996826,5.200868475228109,-0.0005281140329316258,0.2175065577030182,-1.8560307661639612,-0.00013493980804923922,0.030667446553707123,0.9222732782363892,-3.391998325014828e-14,-0.006003348156809807,1.301992654800415,-0.0018842931604012847,0.0179790947586298
141.0,177.0,-2.6554,2.8702,8.8074,-0.0568,-0.2824,-0.0272,-2.613992830316061,5.045015495852567e-05,5.8331804275512695,-0.6508018970489502,9.586827945895493e-05,2.1792478561401367,5.20086099484519,-0.0004009643162135035,0.2243536114692688,-1.8560670057879847,-0.00012267693819012493,0.01748746633529663,0.9222326278686523,-6.164788921768359e-19,0.006660700775682926,1.3020331859588623,-0.0012149597750976682,-0.01200980693101883
141.0,177.0,-2.6554,2.8702,8.8074,-0.0568,-0.2824,-0.0272,-2.6139446697630824,6.274774932535365e-05,5.852349281311035,-0.6507939696311951,0.00011028799053747207,2.127049446105957,5.200888651400366,-0.0003242894308641553,0.21056056022644043,-1.8560388723956507,-0.00011245734640397131,0.026555685326457024,0.9222443699836731,-1.1204200903184893e-23,-0.0017106190789490938,1.3020250797271729,-0.0008317373576574028,0.03786887973546982
141.0,177.0,-2.6554,2.8702,8.8074,-0.0568,-0.2824,-0.0272,-2.6139213047423304,0.00010398570884717628,5.8850626945495605,-0.6507210731506348,0.0030337392818182707,2.131601333618164,5.200828718930044,-0.00029625679599121213,0.2112741768360138,-1.8560469786273401,-0.00010584438859950751,0.02418746054172516,0.9222326278686523,-3.1187301961331767e-27,-0.002503396011888981,1.3020169734954834,-0.0007607221486978233,-0.010232132859528065
141.0,177.0,-2.6554,2.8702,8.8074,-0.0568,-0.2824,-0.0272,-2.613880296746725,0.0027732241433113813,5.82228946685791,-0.6507019996643066,0.009253974072635174,2.153205156326294,5.20084901431159,-0.00032248973730020225,0.2036331444978714,-1.8560431639300745,-8.179144060704857e-05,0.01895112358033657,0.9222366809844971,-5.668137369128303e-32,-0.002491771010681987,1.3020331859588623,-0.0005038364324718714,0.01466494519263506
141.0,177.0,-2.6554,2.8702,8.8074,-0.0568,-0.2824,-0.0272,-2.613885065118307,0.001972431782633066,5.872150897979736,-0.6506222486495972,0.012338688597083092,2.1729793548583984,5.200857239752569,-0.0013164037372916937,0.21043843030929565,-1.856018368397848,-7.624737190781161e-05,0.030730606988072395,0.9222569465637207,-1.0301563376238068e-36,-0.012237911112606525,1.3020373582839966,-0.00027847589808516204,-0.018229257315397263
141.0,177.0,-2.6554,2.8702,8.8074,-0.0568,-0.2824,-0.0272,-2.6139289341368617,0.000943294377066195,5.864804267883301,-0.6505661010742188,0.007933902554214,2.1453468799591064,5.200797009259023,-0.0026864998508244753,0.20209649205207825,-1.8560712973224085,-7.14076595613733e-05,0.030211307108402252,0.9222812056541443,-1.872274878184388e-41,0.0079373549669981,1.3020086288452148,5.748773037339561e-05,0.0036695068702101707
141.0,177.0,-2.6554,2.8702,8.8074,-0.0568,-0.2824,-0.0272,-2.613896986047262,0.0006770254112780094,5.888149261474609,-0.6504824161529541,0.0035460691433399916,2.1861753463745117,5.200753170042791,-0.009120953269302845,0.18427206575870514,-1.8560507933246058,-6.816274981247261e-05,0.0240074023604393,0.9222366809844971,-5.605193857299268e-45,0.0005751366261392832,1.302060842514038,0.0002013752528000623,-0.03755999356508255
136.0,174.0,-4.008,3.4798,9.3799,-0.0134,0.219,-0.1587,-2.613925119439596,0.0004919362254440784,5.877155780792236,-0.6504743695259094,0.0008653867989778519,2.171884775161743,5.200621562987127,-0.02389829233288765,0.1772775650024414,-1.8560712973224085,-6.42687373328954e-05,0.01832924783229828,0.9222283959388733,-0.0,0.004848397336900234,1.302032709121704,0.0008316506282426417,0.015009699389338493
136.0,174.0,-4.008,3.4798,9.3799,-0.0134,0.219,-0.1587,-2.6138326130309046,0.0003687711723614484,5.850612640380859,-0.6504740715026855,0.0005859917146153748,2.172719955444336,5.200417625695028,-0.020282115787267685,0.1693732738494873,-1.8560388723956507,-6.079559534555301e-05,0.026028849184513092,0.9223172664642334,-0.0,0.00948079489171505,1.302105188369751,0.003370551159605384,0.046086374670267105
136.0,174.0,-4.008,3.4798,9.3799,-0.0134,0.219,-0.1587,-2.6138483486571253,0.001587067381478846,5.847114086151123,-0.6504262089729309,0.0004766148922499269,2.1936042308807373,5.200306105404653,-0.01233434397727251,0.1514301598072052,-1.8560507933246058,-6.921414023963735e-05,0.019121713936328888,0.9222242832183838,-0.0,0.00020965049043297768,1.3021206855773926,0.00522998534142971,0.045729536563158035
136.0,174.0,-4.008,3.4798,9.3799,-0.0134,0.219,-0.1587,-2.613816877404684,0.001577038667164743,5.856109142303467,-0.6504181027412415,0.0003308407322037965,2.134197235107422,5.200210469752111,-0.008770806714892387,0.15764573216438293,-1.8559983412372034,-6.58388453302905e-05,0.010203392244875431,0.9223089814186096,-0.0,-0.003427349030971527,1.302140712738037,0.0032916993368417025,0.06765986979007721
136.0,174.0,-4.008,3.4798,9.3799,-0.0134,0.219,-0.1587,-2.6138369045653285,0.0011696579167619348,5.86940336227417,-0.650438129901886,0.0002861079992726445,2.136545181274414,5.2001786706741235,-0.004141627345234156,0.15466634929180145,-1.8560307661639612,-6.351564661599696e-05,0.015831153839826584,0.922269344329834,-0.0,0.0011261808685958385,1.3022209405899048,0.002934088231995702,0.11344920843839645
136.0,174.0,-4.008,3.4798,9.3799,-0.0134,0.219,-0.1587,-2.6138130627074183,0.0007696078973822296,5.882397651672363,-0.6504621505737305,0.0005097748362459242,2.1564714908599854,5.200134742050924,-0.0014944392023608088,0.14275527000427246,-1.856091324483053,-6.0661655879812315e-05,0.014650283381342888,0.9222967624664307,-0.0,-0.0047555044293403625,1.3022085428237915,0.004583071451634169,0.15327808260917664
136.0,174.0,-4.008,3.4798,9.3799,-0.0134,0.219,-0.1587,-2.6138488254942835,0.00041465359390713274,5.83570671081543,-0.6503700017929077,0.0011608831118792295,2.207489013671875,5.200158583908834,-0.001967131393030286,0.13852748274803162,-1.8560550848590296,-6.498621729633669e-08,0.019667230546474457,0.9222528338432312,-0.0,-0.00382122490555048,1.3022569417953491,0.005590679589658976,0.16860857605934143
136.0,174.0,-4.008,3.4798,9.3799,-0.0134,0.219,-0.1587,-2.6138249836363734,0.0004773933032993227,5.856456756591797,-0.650434136390686,0.0015605440130457282,2.213071584701538,5.200086790114202,-0.007166501134634018,0.12530450522899628,-1.8560832182513636,-1.1810923333105405e-12,0.013327622786164284,0.9222487807273865,-0.0,0.006202929187566042,1.3022444248199463,0.005496077239513397,0.1291622817516327
136.0,174.0,-4.008,3.4798,9.3799,-0.0134,0.219,-0.1587,-2.613804956475729,0.000611204537563026,5.850455284118652,-0.6503735184669495,0.0023764572106301785,2.1897096633911133,5.200022744923391,-0.011572121642529964,0.12115280330181122,-1.8560431639300745,-3.2876143891665335e-16,0.009207241237163544,0.9223250150680542,-0.0,-0.005687480792403221,1.3023285865783691,0.005224937107414007,0.10829883813858032
134.0,167.0,-3.9703,2.8439,8.8289,-0.0359,0.1689,-0.1454,-2.613824506799215,0.0009152072016149759,5.840171813964844,-0.6503623127937317,0.0035036480985581875,2.1920156478881836,5.199966716557302,-0.012411522679030895,0.11941748857498169,-1.8560870329486292,-5.9750761468785736e-21,0.01903955265879631,0.9223086833953857,-0.0,-0.0119433319196105,1.3023567199707031,0.005440034903585911,0.0860021710395813
134.0,167.0,-3.9703,2.8439,8.8289,-0.0359,0.1689,-0.1454,-2.613828798333639,0.0007762672612443566,5.847799301147461,-0.650374174118042,0.004118822980672121,2.2301998138427734,5.199855613499441,-0.013695374131202698,0.11217638105154037,-1.856119457875387,-1.0859407452275543e-25,0.010058408603072166,0.922256588935852,-0.0,0.005596992559731007,1.302392601966858,0.00513450987637043,0.13079044222831726
134.0,167.0,-3.9703,2.8439,8.8289,-0.0359,0.1689,-0.1454,-2.6138488254942835,0.0005546783213503659,5.838108062744141,-0.6502977013587952,0.003932250197976828,2.247955083847046,5.1996991513069055,-0.015943851321935654,0.11140010505914688,-1.8560627142535608,-1.9736433541266606e-30,0.0205568578094244,0.9223654866218567,-0.0,0.0014665760099887848,1.3024650812149048,0.0031420541927218437,0.0748862624168396
134.0,167.0,-3.9703,2.8439,8.8289,-0.0359,0.1689,-0.1454,-2.6138206921019496,0.00039334758184850216,5.844943046569824,-0.6502979397773743,0.0035962797701358795,2.229680061340332,5.199547785311498,-0.01911417953670025,0.11972035467624664,-1.8560388723956507,-3.5869994875897983e-35,0.024467160925269127,0.922360897064209,-0.0,-0.002222126116976142,1.3023558855056763,0.0017093890346586704,0.10778184980154037
134.0,167.0,-3.9703,2.8439,8.8289,-0.0359,0.1689,-0.1454,-2.613828321496481,0.00037658956716768444,5.864450454711914,-0.6503229737281799,0.00342192267999053,2.192993640899658,5.199451970845022,-0.025095783174037933,0.10788092017173767,-1.8560550848590296,-9.984544429693366e-39,0.02410404197871685,0.9223122596740723,-0.0,-0.002595418132841587,1.3024687767028809,0.0010073934681713581,0.06854749470949173
134.0,167.0,-3.9703,2.8439,8.8289,-0.0359,0.1689,-0.1454,-2.6138488254942835,0.0003467202477622777,5.930757522583008,-0.6502627730369568,0.002972120651975274,2.1911838054656982,5.199192839651861,-0.041876230388879776,0.09717670828104019,-1.8560226599322718,-1.807675018979014e-43,0.030221812427043915,0.9223005771636963,-0.0,0.0034336682874709368,1.3024324178695679,0.0005931170890107751,0.06401551514863968
134.0,167.0,-3.9703,2.8439,8.8289,-0.0359,0.1689,-0.1454,-2.6138369045653285,0.00023058652004692703,5.874690055847168,-0.650222659111023,0.0027210195548832417,2.2071151733398438,5.1986732361610315,-0.06797052174806595,0.08817363530397415,-1.8560832182513636,-0.0,0.03334406018257141,0.9223325252532959,-0.0,0.0045147547498345375,1.3024729490280151,0.00016833655536174774,0.04039961099624634
134.0,167.0,-3.9703,2.8439,8.8289,-0.0359,0.1689,-0.1454,-2.6138326130309046,0.00030461204005405307,5.861382961273193,-0.6501984596252441,0.0030871485359966755,2.2017359733581543,5.198046552925863,-0.09902667254209518,0.07589612156152725,-1.856107536946432,-0.0,0.03422446548938751,0.9223408699035645,-0.0,0.0089894849807024,1.3024406433105469,5.17124317411799e-05,-0.004273834638297558
134.0,167.0,-3.9703,2.8439,8.8289,-0.0359,0.1689,-0.1454,-2.613840719262594,0.0005826505366712809,5.931207656860352,-0.6501865386962891,0.0033133961260318756,2.222025156021118,5.197336572199621,-0.11560805141925812,0.052574522793293,-1.8560388723956507,-0.0,0.03287726268172264,0.9223005771636963,-0.0,0.018861647695302963,1.3024208545684814,4.408632594277151e-05,0.013934304937720299
115.0,161.0,-4.8897,2.9815,8.6471,-0.0437,0.0994,-0.106,-2.613845010797018,0.0005432155448943377,5.909728050231934,-0.6501467823982239,0.003548066131770611,2.2883505821228027,5.19637884476737,-0.11432810872793198,0.05881138890981674,-1.8560388723956507,-0.0,0.03124873712658882,0.9222607016563416,-0.0,0.006358960643410683,1.3024687767028809,5.156841211828578e-07,-0.032461680471897125
115.0,161.0,-4.8897,2.9815,8.6471,-0.0437,0.0994,-0.106,-2.613828321496481,0.0004174673231318593,5.95919132232666,-0.6501710414886475,0.003779318183660507,2.258143901824951,5.19540502408103,-0.1454935222864151,0.04223623126745224,-1.8559864203082483,-0.0,0.03811228647828102,0.9222922921180725,-0.0,-0.006396457087248564,1.3023600578308105,1.670751312635426e-14,-0.10794293880462646
115.0,161.0,-4.8897,2.9815,8.6471,-0.0437,0.0994,-0.106,-2.6138130627074183,0.0003388657351024449,5.931443691253662,-0.6501592993736267,0.00407509645447135,2.257437229156494,5.194039779692449,-0.1900084912776947,0.036680612713098526,-1.856051270161764,-0.0,0.04622138664126396,0.9222845435142517,-0.0,0.002628625836223364,1.3024691343307495,5.413022672623347e-22,-0.1220209151506424
115.0,161.0,-4.8897,2.9815,8.6471,-0.0437,0.0994,-0.106,-2.6138092480101527,0.00029150917544029653,5.95927619934082,-0.6500383615493774,0.004589710850268602,2.27103590965271,5.192452478199758,-0.20379067957401276,0.024420179426670074,-1.8560627142535608,-0.0,0.05953782796859741,0.9223246574401855,-0.0,0.008867587894201279,1.3024529218673706,1.753750302726248e-29,-0.09226373583078384
115.0,161.0,-4.8897,2.9815,8.6471,-0.0437,0.0994,-0.106,-2.613828321496481,0.00029717726283706725,5.959436893463135,-0.6500226855278015,0.004686111584305763,2.2763352394104004,5.1911668358142755,-0.2313355803489685,0.006325487047433853,-1.8560264746295374,-8.720950972929131e-06,0.04595169052481651,0.922304630279541,-0.0,-0.005082798656076193,1.3024364709854126,-0.00038210602360777557,-0.12481689453125
115.0,161.0,-4.8897,2.9815,8.6471,-0.0437,0.0994,-0.106,-2.6137849293150843,0.0004003200156148523,5.914165019989014,-0.6499943733215332,0.006044314708560705,2.246366500854492,5.189215439348974,-0.24442219734191895,-0.0061363340355455875,-1.856006924306051,-1.5849895007580272e-10,0.0468503013253212,0.9223406910896301,-0.0,0.007411510683596134,1.3024488687515259,-0.0003991176199633628,-0.1650964617729187
115.0,161.0,-4.8897,2.9815,8.6471,-0.0437,0.0994,-0.106,-2.61378874401235,0.00042507649050094187,5.9564127922058105,-0.6499384045600891,0.007578300777822733,2.2601571083068848,5.187088358193197,-0.283347487449646,0.007612050976604223,-1.8560107390033167,-2.88064046899926e-15,0.06499478220939636,0.9223325252532959,-0.0,-0.004996063653379679,1.3024570941925049,-0.0003641098737716675,-0.16464969515800476
115.0,161.0,-4.8897,2.9815,8.6471,-0.0437,0.0994,-0.106,-2.6138211689391078,0.0006015616236254573,5.9874420166015625,-0.6498627662658691,0.009538724087178707,2.2791552543640137,5.184676962881841,-0.30383285880088806,-0.022924117743968964,-1.8560431639300745,-5.235421582891313e-20,0.05992164835333824,0.922328770160675,-0.0,0.006040353327989578,1.302400827407837,-0.0003192847070749849,-0.22909021377563477
115.0,161.0,-4.8897,2.9815,8.6471,-0.0437,0.0994,-0.106,-2.6137925587096156,0.000471682840725407,5.991442680358887,-0.6498189568519592,0.010624269023537636,2.3368847370147705,5.182730215578832,-0.3276258409023285,-0.020004481077194214,-1.8560431639300745,-1.457298564499872e-23,0.07774295657873154,0.9223201274871826,-0.0,-0.0018420289270579815,1.302400827407837,-0.00026925551355816424,-0.1714315116405487
103.0,153.0,-3.9888,3.009,8.4018,-0.0547,-0.2265,-0.0179,-2.6137687168517054,0.0004077815683558583,5.93459415435791,-0.6497026681900024,0.012506459839642048,2.2688887119293213,5.179985242872991,-0.3708563446998596,-0.020540418103337288,-1.8560555616961878,-2.6485687114354647e-28,0.06335710734128952,0.9223246574401855,-0.0,4.942183295497671e-05,1.3024208545684814,-0.00021725232363678515,-0.22530891001224518
103.0,153.0,-3.9888,3.009,8.4018,-0.0547,-0.2265,-0.0179,-2.6137968502440394,0.0003699523804243654,5.999966621398926,-0.6496026515960693,0.014639955013990402,2.3103277683258057,5.176924246340551,-0.3917067050933838,-0.03900761902332306,-1.8560264746295374,-4.813643489145513e-33,0.06956858932971954,0.9222885966300964,-0.0,0.0011797966435551643,1.3024488687515259,-0.00021849718177691102,-0.2128366231918335
103.0,153.0,-3.9888,3.009,8.4018,-0.0547,-0.2265,-0.0179,-2.61381258587026,0.0003070309467148036,5.977351188659668,-0.649479329586029,0.017703888937830925,2.315359354019165,5.173735785275259,-0.4211703836917877,-0.0543905645608902,-1.8559826056109827,-8.748559107022797e-38,0.06456514447927475,0.9223041534423828,-0.0,0.010626482777297497,1.302420973777771,-0.0002194071712438017,-0.21769587695598602
103.0,153.0,-3.9888,3.009,8.4018,-0.0547,-0.2265,-0.0179,-2.6138211689391078,0.00026228977367281914,5.977964401245117,-0.649307370185852,0.022706175222992897,2.292217254638672,5.170187997608938,-0.44609251618385315,-0.06217767670750618,-1.8560188452350062,0.0001452512660762295,0.09598668664693832,0.9222807884216309,-0.0,0.0017655091360211372,1.3023722171783447,-0.00022009074746165425,-0.2999843955039978
103.0,153.0,-3.9888,3.009,8.4018,-0.0547,-0.2265,-0.0179,-2.61381258587026,0.00023644790053367615,5.992144584655762,-0.6491187810897827,0.02701091766357422,2.324216842651367,5.167466270714559,-0.4602571129798889,-0.07125132530927658,-1.8560026327716272,0.00014570847270078957,0.06509667634963989,0.9222967624664307,-0.0,-0.01160985417664051,1.3023762702941895,-0.00020128715550526977,-0.30869802832603455
103.0,153.0,-3.9888,3.009,8.4018,-0.0547,-0.2265,-0.0179,-2.613804956475729,0.0002089937770506367,5.963422775268555,-0.6488668918609619,0.034216344356536865,2.308492660522461,5.163706797152319,-0.4762217402458191,-0.08259512484073639,-1.8560031096087855,0.00014242366887629032,0.08063160628080368,0.9223086833953857,-0.0,0.00575282983481884,1.302392601966858,-0.00020475825294852257,-0.2915939390659332
103.0,153.0,-3.9888,3.009,8.4018,-0.0547,-0.2265,-0.0179,-2.613845010797018,0.0001872522698249668,5.988604545593262,-0.6486040949821472,0.04167225956916809,2.335054874420166,5.159825014858999,-0.4953136146068573,-0.07392771542072296,-1.856051270161764,0.00015030245413072407,0.07584019005298615,0.9222848415374756,-0.0,0.007734904997050762,1.3024570941925049,-0.00017791469872463495,-0.27543485164642334
103.0,153.0,-3.9888,3.009,8.4018,-0.0547,-0.2265,-0.0179,-2.6138369045653285,0.00014850692241452634,5.961461067199707,-0.6482640504837036,0.0478246696293354,2.3570053577423096,5.155880975514211,-0.5013609528541565,-0.06686745584011078,-1.85602313676943,0.0001372089027427137,0.05978797376155853,0.9222766757011414,-0.0,0.006189057137817144,1.3024652004241943,-0.00018339682719670236,-0.3237537741661072
103.0,153.0,-3.9888,3.009,8.4018,-0.0547,-0.2265,-0.0179,-2.613824506799215,0.00013861132902093232,5.987630844116211,-0.6478962898254395,0.052678078413009644,2.3204121589660645,5.152840959816732,-0.5105391144752502,-0.06461049616336823,-1.8560188452350062,0.00012879337009508163,0.05584978312253952,0.92227703332901,-0.0,0.0052980403415858746,1.3023762702941895,-0.00016866666555870324,-0.2873462438583374
97.0,150.0,-2.3587,3.2841,8.5639,-0.0527,-0.2028,-0.0412,-2.613833089868063,0.00012739934027194977,5.968066215515137,-0.6474606990814209,0.05893930047750473,2.343129873275757,5.148723172932424,-0.5183631181716919,-0.06652553379535675,-1.8559907118426722,0.00011912765330635011,0.07690910995006561,0.9223446846008301,-0.0,0.002086407272145152,1.3024208545684814,-0.00015235132013913244,-0.30582165718078613
97.0,150.0,-2.3587,3.2841,8.5639,-0.0527,-0.2028,-0.0412,-2.613840719262594,0.00011786556569859385,5.986567497253418,-0.6469562649726868,0.06497000902891159,2.3747591972351074,5.144660997181692,-0.5143870115280151,-0.06365761905908585,-1.85602313676943,0.0001106899362639524,0.06958787888288498,0.9222927093505859,-0.0,0.0057807969860732555,1.302409052848816,-0.00013891396520193666,-0.3241179585456848
97.0,150.0,-2.3587,3.2841,8.5639,-0.0527,-0.2028,-0.0412,-2.6138206921019496,3.570221088011749e-05,5.934736251831055,-0.6464414000511169,0.07172586768865585,2.3073196411132812,5.140634912043371,-0.5073146820068359,-0.0696638748049736,-1.8559907118426722,0.00011817926861112937,0.0796816423535347,0.9222607016563416,-0.0,0.0020014471374452114,1.302409052848816,-0.0001276549301110208,-0.302207887172699
97.0,150.0,-2.3587,3.2841,8.5639,-0.0527,-0.2028,-0.0412,-2.613880773583883,3.307789302198216e-05,5.980221748352051,-0.6458132863044739,0.07392357289791107,2.3503189086914062,5.136573093920507,-0.5021645426750183,-0.048836201429367065,-1.8560431639300745,0.00010408389789517969,0.06365974247455597,0.9223365783691406,-0.0,0.0017086535226553679,1.3024044036865234,-5.643776967190206e-05,-0.29254913330078125
97.0,150.0,-2.3587,3.2841,8.5639,-0.0527,-0.2028,-0.0412,-2.6138206921019496,3.1349609344033524e-05,5.978582382202148,-0.6453418135643005,0.0753941610455513,2.3666930198669434,5.133671420603552,-0.484048455953598,-0.035833269357681274,-1.8560145537005823,0.00010595736239338294,0.07959748804569244,0.9223208427429199,-0.0,0.0009131991537287831,1.3024406433105469,-5.1585058827186e-05,-0.32992345094680786
97.0,150.0,-2.3587,3.2841,8.5639,-0.0527,-0.2028,-0.0412,-2.613828321496481,4.396150688990019e-05,5.932590484619141,-0.6447315216064453,0.07457760721445084,2.3013341426849365,5.12979747632102,-0.4704837203025818,-0.042605042457580566,-1.8560431639300745,0.00010011706035584211,0.07804904878139496,0.9222967028617859,-0.0,0.008525896817445755,1.3024811744689941,-2.3139884433476254e-05,-0.32013213634490967
97.0,150.0,-2.3587,3.2841,8.5639,-0.0527,-0.2028,-0.0412,-2.6137806377806605,4.127376087126322e-05,5.956683158874512,-0.6440587043762207,0.0724342092871666,2.368460178375244,5.12613810875968,-0.4451839327812195,-0.013363038189709187,-1.8560264746295374,8.303856156999245e-05,0.06719371676445007,0.9222967624664307,-0.0,0.003423551796004176,1.3024569749832153,-2.882193825826107e-07,-0.24221843481063843
97.0,150.0,-2.3587,3.2841,8.5639,-0.0527,-0.2028,-0.0412,-2.613800664941305,5.186066118767485e-05,5.994773864746094,-0.6435208320617676,0.07796654850244522,2.3156023025512695,5.12268545010642,-0.4111795723438263,-0.00043947831727564335,-1.8559868971454065,7.883305079303682e-05,0.06736690551042557,0.9222529530525208,-0.0,-0.0013587442226707935,1.3025012016296387,-9.337943626349689e-15,-0.22633053362369537
97.0,150.0,-2.3587,3.2841,8.5639,-0.0527,-0.2028,-0.0412,-2.6137925587096156,4.971224188921042e-05,5.953813552856445,-0.6429932713508606,0.08477100729942322,2.3412184715270996,5.120286661177435,-0.3868342339992523,0.02109873667359352,-1.8560145537005823,7.598067168146372e-05,0.059821806848049164,0.9222885966300964,-0.0,-0.011282211169600487,1.3024364709854126,-2.255003725068518e-20,-0.3065856397151947
90.0,146.0,-3.7956,3.1017,9.0838,-0.0322,0.1182,-0.1323,-2.613845010797018,-7.933676897664554e-06,5.955545425415039,-0.6422759294509888,0.09592364728450775,2.355940341949463,5.11719240525321,-0.3636089861392975,0.03199935704469681,-1.8560026327716272,7.248400652315468e-05,0.05627484247088432,0.9223247170448303,-0.0,-0.004255892708897591,1.3024808168411255,-7.305925206808079e-28,-0.28308188915252686
90.0,146.0,-3.7956,3.1017,9.0838,-0.0322,0.1182,-0.1323,-2.613852640191549,-0.00010739528806880116,5.910606384277344,-0.6415269374847412,0.09914062172174454,2.3770909309387207,5.114530998259344,-0.3255167305469513,0.04691459611058235,-1.8560388723956507,1.780449201760348e-05,0.068303182721138,0.9223008155822754,-0.0,0.005737942643463612,1.3024406433105469,-2.367026766597829e-35,-0.25572872161865234
90.0,146.0,-3.7956,3.1017,9.0838,-0.0322,0.1182,-0.1323,-2.6139332256712855,-0.0012340510729700327,5.965845108032227,-0.6407183408737183,0.10014507919549942,2.411763906478882,5.1121312258537195,-0.2868591845035553,0.07720404863357544,-1.855950180684225,3.23587850958873e-10,0.06084086373448372,0.9222967624664307,-0.0,-0.008896782994270325,1.302396297454834,-7.66510259985675e-43,-0.24906226992607117
90.0,146.0,-3.7956,3.1017,9.0838,-0.0322,0.1182,-0.1323,-2.6139408550658167,-0.000888912589289248,5.9716949462890625,-0.6399281620979309,0.09320249408483505,2.3490326404571533,5.109958994179525,-0.2525971531867981,0.07952406257390976,-1.8560307661639612,5.88104927915791e-15,0.05224145948886871,0.9223246574401855,-0.0,-0.0021237086039036512,1.3024766445159912,0.00028773784288205206,-0.2295340597629547
90.0,146.0,-3.7956,3.1017,9.0838,-0.0322,0.1182,-0.1323,-2.6138931713499964,-0.000567668757867068,5.94516658782959,-0.6394082307815552,0.08426281809806824,2.3507003784179688,5.108555960446157,-0.22484172880649567,0.09485377371311188,-1.8560026327716272,1.6370114219504853e-18,0.0460997000336647,0.9222927093505859,-0.0,-0.008281521499156952,1.3024766445159912,0.00033628070377744734,-0.2369333952665329
90.0,146.0,-3.7956,3.1017,9.0838,-0.0322,0.1182,-0.1323,-2.613840719262594,-9.193715413857717e-06,5.963492393493652,-0.6387575268745422,0.07808699458837509,2.3267440795898438,5.10706194022254,-0.1773790419101715,0.11087183654308319,-1.8559744993792933,2.9751876418635977e-23,0.055569835007190704,0.9223488569259644,-0.0,-0.001654996769502759,1.3024766445159912,0.0005040006944909692,-0.2539474368095398
90.0,146.0,-3.7956,3.1017,9.0838,-0.0322,0.1182,-0.1323,-2.613824506799215,-2.9786470599063586e-13,5.933632850646973,-0.638085126876831,0.0842353105545044,2.383607864379883,5.10592998841361,-0.12402345985174179,0.146833136677742,-1.8560107390033167,5.4072563193011585e-28,0.044526152312755585,0.9223206043243408,-0.0,0.008087225258350372,1.3024924993515015,0.00043313458445481956,-0.2333623319864273
90.0,146.0,-3.7956,3.1017,9.0838,-0.0322,0.1182,-0.1323,-2.613800664941305,0.0006540676113218069,5.9918975830078125,-0.6373660564422607,0.0933748260140419,2.3669540882110596,5.105092990189352,-0.0920778140425682,0.16419321298599243,-1.8559988180743616,9.827422238358214e-33,0.05858291685581207,0.9223365783691406,-0.0,-0.001528804306872189,1.3024766445159912,0.0005958897527307272,-0.26858898997306824
90.0,146.0,-3.7956,3.1017,9.0838,-0.0322,0.1182,-0.1323,-2.6138092480101527,0.0004665564629249275,5.974018573760986,-0.6368346810340881,0.10166194289922714,2.3704707622528076,5.1047189114387415,-0.0538715235888958,0.18072697520256042,-1.8560145537005823,2.7354990811705915e-36,0.0537278912961483,0.9223369359970093,-0.0,0.004188914317637682,1.3025085926055908,0.0012368353782221675,-0.26155930757522583
85.0,146.0,-3.268,3.21,9.1597,-0.0466,0.0675,-0.1339,-2.613884588281149,0.00020232608949299902,5.927857398986816,-0.6359590888023376,0.1138475313782692,2.372730255126953,5.104515987425604,-0.003212779527530074,0.20383721590042114,-1.856063191090719,4.971666821578018e-41,0.08038197457790375,0.9223209023475647,-0.0,-0.008213432505726814,1.302540898323059,0.0012429014313966036,-0.2729511857032776
85.0,146.0,-3.268,3.21,9.1597,-0.0466,0.0675,-0.1339,-2.613920827905172,-0.001427483162842691,5.943099498748779,-0.6349952220916748,0.11973872035741806,2.444380044937134,5.104704218893804,0.023660331964492798,0.21280279755592346,-1.8560188452350062,1.401298464324817e-45,0.06210022419691086,0.9222927689552307,-0.0,-0.0019553666934370995,1.3025245666503906,0.001096824067644775,-0.30521103739738464
85.0,146.0,-3.268,3.21,9.1597,-0.0466,0.0675,-0.1339,-2.613952775994772,-0.0014361463254317641,5.9966840744018555,-0.6341166496276855,0.11247453838586807,2.3945271968841553,5.10473124960021,0.01817435398697853,0.22938555479049683,-1.8560307661639612,0.0,0.07256573438644409,0.9223325252532959,-0.0,-0.007205221801996231,1.3025768995285034,0.0014589765341952443,-0.27221983671188354
85.0,146.0,-3.268,3.21,9.1597,-0.0466,0.0675,-0.1339,-2.6139327488341273,-0.0007438386674039066,5.962497711181641,-0.6332858800888062,0.09837029874324799,2.4201955795288086,5.104843544750967,0.0017514904029667377,0.21384115517139435,-1.8560107390033167,0.0,0.07706080377101898,0.9223325252532959,-0.0,0.0013409344246611,1.3025890588760376,0.0018550753593444824,-0.29694879055023193
85.0,146.0,-3.268,3.21,9.1597,-0.0466,0.0675,-0.1339,-2.6139213047423304,-0.000300149928079918,5.949331283569336,-0.632674515247345,0.09537789970636368,2.3899097442626953,5.1047551212604425,-0.005695111118257046,0.2083832323551178,-1.8560026327716272,0.0,0.051356635987758636,0.9223005771636963,-0.0,0.0015778685919940472,1.3025848865509033,0.0016658604145050049,-0.3010023832321167
85.0,146.0,-3.268,3.21,9.1597,-0.0466,0.0675,-0.1339,-2.6138011417784632,0.0013464904623106122,5.966553211212158,-0.6319032311439514,0.09721123427152634,2.3833258152008057,5.104734885483541,-0.0006026862538419664,0.1990060806274414,-1.856051270161764,0.0,0.07866563647985458,0.9223247170448303,-0.0,-0.00856491457670927,1.3026005029678345,0.0014445340493693948,-0.2524256706237793
85.0,146.0,-3.268,3.21,9.1597,-0.0466,0.0675,-0.1339,-2.6137806377806605,0.0010445460211485624,5.970981597900391,-0.6309996843338013,0.10737095028162003,2.349560022354126,5.104771542340078,-0.0002470022300258279,0.19390356540679932,-1.856006924306051,0.0,0.06950031220912933,0.922312319278717,-0.0,-0.0035092660691589117,1.3026127815246582,0.0011496335500851274,-0.27784493565559387
85.0,146.0,-3.268,3.21,9.1597,-0.0466,0.0675,-0.1339,-2.613856931725973,0.0008130754576995969,5.99033260345459,-0.6300519108772278,0.12269119918346405,2.3889212608337402,5.104739445238867,-0.000200420428882353,0.19574818015098572,-1.8560188452350062,0.0,0.07115962356328964,0.9223613739013672,-0.0,0.0034847771748900414,1.3026487827301025,0.0014036109205335379,-0.31736791133880615
85.0,146.0,-3.268,3.21,9.1597,-0.0466,0.0675,-0.1339,-2.6137968502440394,0.00042239337926730514,5.9866204261779785,-0.629332959651947,0.13239748775959015,2.4213085174560547,5.10471527555541,-0.00020633815438486636,0.19163630902767181,-1.8559945265399378,0.0,0.07506091892719269,0.9223008751869202,-0.0,0.007666656747460365,1.3026889562606812,0.002037661848589778,-0.37391960620880127
84.0,142.0,-3.3625,2.9192,8.4706,-0.0571,-0.0228,-0.1411,-2.613884588281149,-0.00021327212743926793,5.951723098754883,-0.6283678412437439,0.13339057564735413,2.457763671875,5.104707437544622,-0.0008541597635485232,0.17454448342323303,-1.8560145537005823,0.0,0.05079882591962814,0.9223045706748962,-0.0,0.0012466697953641415,1.302652359008789,0.0038668024353682995,-0.3299145996570587
84.0,142.0,-3.3625,2.9192,8.4706,-0.0571,-0.0228,-0.1411,-2.613884588281149,-0.0003680227673612535,5.940657615661621,-0.6272627115249634,0.13028128445148468,2.3976995944976807,5.1046670255954645,-0.002546879928559065,0.16780325770378113,-1.8560226599322718,0.0,0.06981933861970901,0.9223365783691406,-0.0,0.0011940357508137822,1.3027045726776123,0.005211332812905312,-0.31264597177505493
84.0,142.0,-3.3625,2.9192,8.4706,-0.0571,-0.0228,-0.1411,-2.613924642602438,-0.0006017209379933774,5.902015686035156,-0.6262764930725098,0.1327086091041565,2.4128265380859375,5.104687887221136,-0.00245699193328619,0.17851699888706207,-1.8560431639300745,0.0,0.06707798689603806,0.9223532676696777,-0.0,0.0037737302482128143,1.3027281761169434,0.007349903229624033,-0.23238317668437958
84.0,142.0,-3.3625,2.9192,8.4706,-0.0571,-0.0228,-0.1411,-2.6139408550658167,-0.0004845164075959474,5.951610565185547,-0.625232994556427,0.13180851936340332,2.408362627029419,5.104615258961477,-0.003649381222203374,0.1561344861984253,-1.8559945265399378,1.8656146494322456e-05,0.06494912505149841,0.9223613739013672,-1.3789067665470611e-08,-0.00873770285397768,1.3028324842453003,0.011999893002212048,-0.22271141409873962
84.0,142.0,-3.3625,2.9192,8.4706,-0.0571,-0.0228,-0.1411,-2.613920827905172,-0.0003943332703784108,5.947489261627197,-0.6244506239891052,0.13130535185337067,2.383026361465454,5.104579555779257,-0.006465335842221975,0.16659647226333618,-1.8560431639300745,5.1930064692840006e-09,0.05706354230642319,0.922336757183075,-3.8382378872436895e-12,-0.0064994823187589645,1.3029369115829468,0.014456475153565407,-0.2136191427707672
84.0,142.0,-3.3625,2.9192,8.4706,-0.0571,-0.0228,-0.1411,-2.613884588281149,-0.00012559386959765106,5.966835021972656,-0.6233505010604858,0.1308770626783371,2.4576425552368164,5.104539739876547,-0.007673873566091061,0.1601935774087906,-1.8560388723956507,9.438032766342225e-14,0.06469312310218811,0.9222845435142517,-6.975807335050775e-17,0.0024949375074356794,1.3030047416687012,0.016200318932533264,-0.11968915164470673
84.0,142.0,-3.3625,2.9192,8.4706,-0.0571,-0.0228,-0.1411,-2.6138884029784144,-4.889433694188483e-05,5.888570785522461,-0.6223928332328796,0.13173136115074158,2.4092397689819336,5.104456054955282,-0.006633032578974962,0.14768441021442413,-1.8560269514666956,1.7153158542523583e-18,0.05536861717700958,0.922328770160675,-1.2678185737541926e-21,0.004978083074092865,1.3031368255615234,0.016003018245100975,-0.17383505403995514
84.0,142.0,-3.3625,2.9192,8.4706,-0.0571,-0.0228,-0.1411,-2.6139008007445277,-1.9394235550862504e-07,5.915497779846191,-0.6212528347969055,0.1348959505558014,2.441725969314575,5.104404496937551,-0.006824221927672625,0.1420207917690277,-1.8560107390033167,3.117501935697813e-23,0.058206669986248016,0.9223568439483643,-2.3041975306812574e-26,0.00829782709479332,1.3033007383346558,0.0158991739153862,-0.1442764699459076
84.0,142.0,-3.3625,2.9192,8.4706,-0.0571,-0.0228,-0.1411,-2.613845010797018,-4.683480166189913e-13,5.939975738525391,-0.620437502861023,0.14037321507930756,2.4145426750183105,5.104320394783773,-0.008291807025671005,0.13404667377471924,-1.8560107390033167,8.677681039353035e-27,0.05317290872335434,0.922373354434967,-6.413817664866209e-30,-0.00108019367326051,1.3033647537231445,0.014975092373788357,-0.13177752494812012
82.0,139.0,-3.3637,2.9713,8.6183,0.0099,-0.1414,-0.1617,-2.6138726673521937,-1.51738803204423e-20,5.921457290649414,-0.6192744374275208,0.14570631086826324,2.440443515777588,5.1042410908038995,-0.012928797863423824,0.13742703199386597,-1.8560555616961878,1.5771258583160437e-31,0.05014697462320328,0.9224053025245667,-1.1656796617591426e-34,-0.0007019416079856455,1.303480863571167,0.015051494352519512,-0.10074993968009949
82.0,139.0,-3.3637,2.9713,8.6183,0.0099,-0.1414,-0.1617,-2.6138884029784144,-4.916144664964899e-28,5.9342217445373535,-0.6180958151817322,0.14220261573791504,2.448547601699829,5.104105371027746,-0.01956152357161045,0.12912438809871674,-1.8560593763934534,2.866348161505013e-36,0.05094948410987854,0.9222962856292725,-2.1185656949756536e-39,0.008744322694838047,1.3036689758300781,0.01590042933821678,-0.12783697247505188
82.0,139.0,-3.3637,2.9713,8.6183,0.0099,-0.1414,-0.1617,-2.6139008007445277,-1.5927682991660914e-35,5.930478096008301,-0.617005467414856,0.1440151184797287,2.3971285820007324,5.103878187924185,-0.027310257777571678,0.1029154509305954,-1.8560264746295374,5.20946717097394e-41,0.05096318945288658,0.9223122596740723,-3.783505853677006e-44,0.005732211284339428,1.3038005828857422,0.01820402406156063,-0.10549485683441162
82.0,139.0,-3.3637,2.9713,8.6183,0.0099,-0.1414,-0.1617,-2.6138931713499964,-5.156778348715327e-43,5.846406936645508,-0.6158339381217957,0.1464524269104004,2.450589656829834,5.103578883200445,-0.03673039749264717,0.10630546510219574,-1.8560388723956507,1.401298464324817e-45,0.04905709624290466,0.9223527312278748,-0.0,0.0026877927593886852,1.303940773010254,0.020580777898430824,-0.03573859483003616
82.0,139.0,-3.3637,2.9713,8.6183,0.0099,-0.1414,-0.1617,-2.613908906976217,0.0,5.871889114379883,-0.6149550676345825,0.14459244906902313,2.4014992713928223,5.103335666447439,-0.04113200306892395,0.0885976254940033,-1.8560550848590296,0.0,0.03783049434423447,0.9222963452339172,-0.0,0.014225146733224392,1.3040647506713867,0.02222372591495514,-0.00027325795963406563
82.0,139.0,-3.3637,2.9713,8.6183,0.0099,-0.1414,-0.1617,-2.613924642602438,0.0,5.827040672302246,-0.6137681603431702,0.1366833597421646,2.3984410762786865,5.102992850333013,-0.04815509170293808,0.09686075150966644,-1.8560431639300745,0.0,0.03772967308759689,0.9223768711090088,-0.0,-0.0003472365206107497,1.3042287826538086,0.023436209186911583,0.05182940512895584
82.0,139.0,-3.3637,2.9713,8.6183,0.0099,-0.1414,-0.1617,-2.613885065118307,0.0,5.8456268310546875,-0.6127712726593018,0.12917713820934296,2.377556085586548,5.102533924370565,-0.0612078458070755,0.09034960716962814,-1.8560469786273401,0.0,0.027799490839242935,0.9223928451538086,-0.0,0.005728938616812229,1.3044332265853882,0.025334244593977928,0.013337603770196438
82.0,139.0,-3.3637,2.9713,8.6183,0.0099,-0.1414,-0.1617,-2.6138926945128382,-6.1013834056211635e-05,5.8243207931518555,-0.6116957664489746,0.1300211250782013,2.380664587020874,5.101947861700811,-0.09409110993146896,0.07866697013378143,-1.8560107390033167,0.0,0.019286632537841797,0.9223282933235168,-0.0,0.01448112539947033,1.3046455383300781,0.025615371763706207,0.02081577107310295
82.0,139.0,-3.3637,2.9713,8.6183,0.0099,-0.1414,-0.1617,-2.6138369045653285,-1.473412086783199e-10,5.8155717849731445,-0.6107687950134277,0.1364603340625763,2.395024299621582,5.101265567332067,-0.12984663248062134,0.06790972501039505,-1.8560674826251429,0.0,0.035472575575113297,0.9223201274871826,-0.0,0.004813366569578648,1.3047972917556763,0.026057783514261246,0.036934517323970795
85.0,140.0,-3.3829,3.5964,8.7589,-0.0383,0.0362,-0.14,-2.6138607464232386,-4.773667586849648e-18,5.891307830810547,-0.609705924987793,0.14820434153079987,2.3712847232818604,5.100145536452093,-0.1562931090593338,0.036187201738357544,-1.8560550848590296,0.0,0.03620532900094986,0.9223365783691406,-0.0,-0.004999617580324411,1.305013656616211,0.026450874283909798,-0.01705261319875717
85.0,140.0,-3.3829,3.5964,8.7589,-0.0383,0.0362,-0.14,-2.613852640191549,-1.5466075339663932e-25,5.842694282531738,-0.6085710525512695,0.1497167944908142,2.4068446159362793,5.098765957146444,-0.1825007051229477,0.04270046576857567,-1.8560550848590296,0.0,0.03932715207338333,0.9223769307136536,-0.0,0.009634201414883137,1.305132508277893,0.029004009440541267,0.03137039393186569
85.0,140.0,-3.3829,3.5964,8.7589,-0.0383,0.0362,-0.14,-2.6138488254942835,-5.010811728002828e-33,5.864771842956543,-0.6074284315109253,0.1457291543483734,2.3911421298980713,5.097151088505544,-0.2253095805644989,0.02499869093298912,-1.8560550848590296,0.0,0.026875104755163193,0.922304630279541,-0.0,0.008980009704828262,1.3054211139678955,0.03177269175648689,-0.009703489020466805
