ramyac6/ROB537/final_project/csv/test/good/good_104.csv
tof_0,tof_1,accelx,accely,accelz,gyrox,gyroy,gyroz,shoulder_lift_joint_position,shoulder_lift_joint_velocity,shoulder_lift_joint_effort,elbow_joint_position,elbow_joint_velocity,elbow_joint_effort,wrist_1_joint_position,wrist_1_joint_velocity,wrist_1_joint_effort,wrist_2_joint_position,wrist_2_joint_velocity,wrist_2_joint_effort,wrist_3_joint_position,wrist_3_joint_velocity,wrist_3_joint_effort,shoulder_pan_joint_position,shoulder_pan_joint_velocity,shoulder_pan_joint_effort
127.0,168.0,-3.8548,1.9585,8.8301,-0.0321,0.0202,-0.1092,-2.4568563900389613,0.0,5.435840606689453,-0.9268378019332886,-0.0,2.0990841388702393,5.277561235218801,0.0,0.2219635546207428,-1.7180216948138636,-0.0,0.001843394129537046,1.0120460987091064,-0.0,-0.00718495761975646,1.2157721519470215,0.0,0.020686762407422066
127.0,168.0,-3.8548,1.9585,8.8301,-0.0321,0.0202,-0.1092,-2.456888338128561,0.0,5.435703754425049,-0.9268386960029602,-0.0,2.072211503982544,5.277621912747183,0.0,0.21739685535430908,-1.7180660406695765,-0.0,0.0035914028994739056,1.012078046798706,-0.0,0.003996081650257111,1.2157479524612427,0.0,0.0024489318020641804
127.0,168.0,-3.8548,1.9585,8.8301,-0.0321,0.0202,-0.1092,-2.4569126568236292,0.0,5.387851715087891,-0.9268583655357361,-0.0,2.065544605255127,5.277621912747183,0.0,0.23344866931438446,-1.7180059591876429,-0.0,0.015663322061300278,1.012066125869751,-0.0,0.01071770116686821,1.215752124786377,0.0,0.03031071275472641
127.0,168.0,-3.8548,1.9585,8.8301,-0.0321,0.0202,-0.1092,-2.456832548181051,0.0,5.4157562255859375,-0.9268262982368469,-0.0,2.0682249069213867,5.277605879097738,0.0,0.23272329568862915,-1.7180259863482874,-0.0,0.005940308794379234,1.012054204940796,-0.0,-0.001323504140600562,1.215752124786377,0.0,0.012539602816104889
127.0,168.0,-3.8548,1.9585,8.8301,-0.0321,0.0202,-0.1092,-2.4568196735777796,0.0,5.442963600158691,-0.9268296360969543,-0.0,2.1050453186035156,5.277625548630514,0.0,0.23522302508354187,-1.7180221716510218,-0.0,0.012788167223334312,1.0120861530303955,-0.0,0.0017490095924586058,1.215772271156311,0.0,-0.013731459155678749
127.0,168.0,-3.8548,1.9585,8.8301,-0.0321,0.0202,-0.1092,-2.4568878612914027,0.0,5.416409969329834,-0.9268305897712708,-0.0,2.0630810260772705,5.277605521469869,0.0,0.220219224691391,-1.7180097738849085,-0.0,0.006260773632675409,1.0120460987091064,-0.0,0.010032351128757,1.2157479524612427,0.0,-0.02835266664624214
127.0,168.0,-3.8548,1.9585,8.8301,-0.0321,0.0202,-0.1092,-2.4568282566466273,0.0,5.439846038818359,-0.9268263578414917,-0.0,2.075488567352295,5.277617800026693,0.0,0.2175404280424118,-1.7180536429034632,-0.0,0.0001633530337130651,1.012066125869751,-0.0,-0.010518787428736687,1.215808629989624,0.0,-0.014708985574543476
130.0,170.0,-3.9093,1.8975,8.9043,-0.0299,0.027,-0.1139,-2.4568640194334925,0.0,5.400393486022949,-0.9268336892127991,-0.0,2.125136613845825,5.277581321984091,0.0,0.2202136367559433,-1.7180822531329554,-0.0,-0.0010264433221891522,1.012134075164795,-0.0,0.010226735845208168,1.2158005237579346,0.0,0.03097311034798622
130.0,170.0,-3.9093,1.8975,8.9043,-0.0299,0.027,-0.1139,-2.4568520985045375,0.0,5.411558628082275,-0.9268222451210022,-0.0,2.1464571952819824,5.277577209263601,0.0,0.23572850227355957,-1.7180340925799769,-9.748649745233706e-07,-0.0018155419966205955,1.0120501518249512,-0.0,-0.009847483597695827,1.2157402038574219,0.0,-0.05386890098452568
130.0,170.0,-3.9093,1.8975,8.9043,-0.0299,0.027,-0.1139,-2.4568401775755824,0.0,5.455068111419678,-0.9268296360969543,-0.0,2.097834348678589,5.277593600540914,0.0,0.24763527512550354,-1.718029801045553,-2.713572422319288e-10,0.0003915289416909218,1.0121504068374634,-0.0,0.0009548389352858067,1.2157721519470215,0.0,-0.05262773483991623
130.0,170.0,-3.9093,1.8975,8.9043,-0.0299,0.027,-0.1139,-2.4568244419493617,0.0,5.428533554077148,-0.9268625974655151,-0.0,2.0827407836914062,5.277553069382467,0.0,0.22944533824920654,-1.7180941740619105,-4.931784537367699e-15,0.017487792298197746,1.012054204940796,-0.0,0.007523958571255207,1.2157721519470215,0.0,-0.005353080108761787
130.0,170.0,-3.9093,1.8975,8.9043,-0.0299,0.027,-0.1139,-2.456884046594137,0.0,5.386006832122803,-0.9268786311149597,-0.0,2.104616165161133,5.277617800026693,0.0,0.22740815579891205,-1.7179778257953089,-1.372780465991726e-18,0.01316048577427864,1.012054204940796,-0.0,0.009415204636752605,1.2157680988311768,0.0,0.017084505409002304
130.0,170.0,-3.9093,1.8975,8.9043,-0.0299,0.027,-0.1139,-2.456848283807272,0.0,5.421600341796875,-0.9268743991851807,-0.0,2.0832200050354004,5.277593600540914,0.0,0.24333062767982483,-1.7180541197406214,-2.4949603616568924e-23,0.019568322226405144,1.0120941400527954,-0.0,0.008897852152585983,1.2157279253005981,0.0,-0.00786876305937767
130.0,170.0,-3.9093,1.8975,8.9043,-0.0299,0.027,-0.1139,-2.4568802318968714,0.0,5.457108497619629,-0.9268584251403809,-0.0,2.1107752323150635,5.277581321984091,0.0,0.21743465960025787,-1.7180660406695765,-4.534466757481154e-28,0.011101556941866875,1.0120742321014404,-0.0,-0.005749201402068138,1.2157680988311768,0.0,-0.0009232997545041144
130.0,170.0,-3.9093,1.8975,8.9043,-0.0299,0.027,-0.1139,-2.456884046594137,0.0,5.469126224517822,-0.9268181920051575,-0.0,2.0397791862487793,5.277605879097738,0.0,0.22513380646705627,-1.7180660406695765,-1.2621856486022102e-31,0.018812384456396103,1.0121181011199951,-0.0,0.015598437748849392,1.2157963514328003,0.0,-0.015098942443728447
130.0,170.0,-3.9093,1.8975,8.9043,-0.0299,0.027,-0.1139,-2.456860204736227,0.0,5.422478675842285,-0.9268786311149597,-0.0,2.1109917163848877,5.277561235218801,0.0,0.2229914665222168,-1.7180617491351526,-2.2939604728262934e-36,0.002961942460387945,1.011989951133728,-0.0,-0.007464204449206591,1.2158045768737793,0.0,-0.011682565324008465
130.0,170.0,-3.9093,1.8975,8.9043,-0.0299,0.027,-0.1139,-2.456888338128561,0.0,5.456618309020996,-0.9268667101860046,-0.0,2.0632948875427246,5.277585494309225,0.0,0.2361459881067276,-1.7180059591876429,-6.3853247383581804e-40,0.003975012339651585,1.0120187997817993,-0.0,0.022128146141767502,1.2157800197601318,0.0,0.008235394954681396
130.0,170.0,-3.9093,1.8975,8.9043,-0.0299,0.027,-0.1139,-2.4568282566466273,0.0,5.4079389572143555,-0.9268140196800232,-0.0,2.0796315670013428,5.277549016266622,0.0,0.2306421846151352,-1.7180541197406214,-1.1210387714598537e-44,0.007767240516841412,1.0120902061462402,-0.0,0.0033602286130189896,1.2157800197601318,0.0,-0.031880639493465424
130.0,170.0,-3.9093,1.8975,8.9043,-0.0299,0.027,-0.1139,-2.4568401775755824,0.0,5.438445091247559,-0.926814079284668,-0.0,2.0707180500030518,5.2775935409362695,0.0,0.23014512658119202,-1.718001667653219,-0.0,-0.005763646215200424,1.0120902061462402,-0.0,-0.0049286531284451485,1.215752124786377,0.0,0.0010028248652815819
130.0,170.0,-3.9093,1.8975,8.9043,-0.0299,0.027,-0.1139,-2.4568640194334925,0.0,5.381561279296875,-0.9268543124198914,-0.0,2.117711305618286,5.277613746910848,0.0,0.22540605068206787,-1.7180541197406214,-0.0,0.010877147316932678,1.0121099948883057,-0.0,0.004763245116919279,1.2157557010650635,0.0,0.02453298680484295
132.0,169.0,-3.9099,1.9029,8.8941,-0.0421,0.0308,-0.1129,-2.456860204736227,0.0,5.424129486083984,-0.9268667101860046,-0.0,2.1230645179748535,5.277553188591757,0.0,0.23057031631469727,-1.7180622259723108,-0.0,0.010262539610266685,1.0121222734451294,-0.0,0.01773512177169323,1.2157361507415771,0.0,-0.002471836283802986
132.0,169.0,-3.9099,1.9029,8.8941,-0.0421,0.0308,-0.1129,-2.4568363628783167,0.0,5.414396286010742,-0.9268904328346252,-0.0,2.1390786170959473,5.277601825981893,0.0,0.241714209318161,-1.7180140654193323,-0.0,0.015377361327409744,1.0120861530303955,-0.0,-0.0017849900759756565,1.215752124786377,0.0,-0.00792075414210558
132.0,169.0,-3.9099,1.9029,8.8941,-0.0421,0.0308,-0.1129,-2.4568683109679164,0.0,5.4419708251953125,-0.9268625974655151,-0.0,2.047502040863037,5.277585494309225,0.0,0.22170093655586243,-1.7180221716510218,-0.0,0.01244053989648819,1.012037992477417,-0.0,0.012740517035126686,1.2157922983169556,0.0,-0.0030231215059757233
132.0,169.0,-3.9099,1.9029,8.8941,-0.0421,0.0308,-0.1129,-2.456872125665182,0.0,5.4428181648254395,-0.9268386960029602,-0.0,2.1183435916900635,5.27758954742507,0.0,0.21827512979507446,-1.7180383841144007,-0.0,0.008980757556855679,1.0121222734451294,-0.0,0.0032692858949303627,1.215752124786377,0.0,-0.019255727529525757
132.0,169.0,-3.9099,1.9029,8.8941,-0.0421,0.0308,-0.1129,-2.456815858880514,0.0,5.412535667419434,-0.9268822073936462,-0.0,2.0706839561462402,5.277593600540914,0.0,0.23068328201770782,-1.7180097738849085,-0.0,-0.0006577265448868275,1.0120739936828613,-0.0,-0.001672754529863596,1.2157598733901978,0.0,-0.00410454161465168
132.0,169.0,-3.9099,1.9029,8.8941,-0.0421,0.0308,-0.1129,-2.4568282566466273,0.0,5.401706218719482,-0.9269105792045593,-0.0,2.1046504974365234,5.277597653656759,0.0,0.22928154468536377,-1.7180503050433558,-0.0,-0.004412155132740736,1.0120620727539062,-0.0,0.0015618177130818367,1.2157680988311768,0.0,0.04204808175563812
132.0,169.0,-3.9099,1.9029,8.8941,-0.0421,0.0308,-0.1129,-2.4568759403624476,0.0,5.41011381149292,-0.9268625974655151,-0.0,2.0760159492492676,5.277597653656759,0.0,0.22192761301994324,-1.7180464903460901,-0.0,0.007685949094593525,1.0120580196380615,-0.0,-0.012459613382816315,1.215800404548645,0.0,0.021663621068000793
132.0,169.0,-3.9099,1.9029,8.8941,-0.0421,0.0308,-0.1129,-2.4567843876280726,0.0,5.477288246154785,-0.9268785715103149,-0.0,2.0524630546569824,5.27758954742507,0.0,0.23117196559906006,-1.7180264631854456,-6.970503729775146e-09,0.0032222659792751074,1.0120658874511719,-0.0,0.0019516382599249482,1.2157758474349976,0.0,0.025264635682106018
132.0,169.0,-3.9099,1.9029,8.8941,-0.0421,0.0308,-0.1129,-2.4568520985045375,0.0,5.417747974395752,-0.9268624186515808,-0.0,2.069646120071411,5.277625548630514,0.0,0.21288904547691345,-1.7180383841144007,-1.2668545954028915e-13,0.013162463903427124,1.0119982957839966,-0.0,-0.000972024688962847,1.215752124786377,0.0,0.013108035549521446
132.0,169.0,-3.9099,1.9029,8.8941,-0.0421,0.0308,-0.1129,-2.4568244419493617,0.0,5.424090385437012,-0.9268703460693359,-0.0,2.1022214889526367,5.277557301312246,0.0,0.22738590836524963,-1.7180622259723108,-3.526336464018071e-17,0.011346524581313133,1.0120420455932617,-0.0,-0.007871575653553009,1.215743899345398,0.0,-0.01652238517999649
132.0,169.0,-3.9099,1.9029,8.8941,-0.0421,0.0308,-0.1129,-2.4568363628783167,0.0,5.406095027923584,-0.9268666505813599,-0.0,2.135806083679199,5.277589487820425,0.0,0.2205992341041565,-1.7180541197406214,-6.40894328337579e-22,0.005139660555869341,1.0120899677276611,-0.0,-0.002369193360209465,1.215752124786377,0.0,0.017662152647972107
132.0,169.0,-3.9099,1.9029,8.8941,-0.0421,0.0308,-0.1129,-2.4568520985045375,0.0,5.441830635070801,-0.9268461465835571,-0.0,2.0792622566223145,5.277597653656759,0.0,0.20931093394756317,-1.7180498282061976,-1.7839528540773376e-25,0.01703348383307457,1.0120062828063965,-0.0,-0.002642089733853936,1.215800404548645,0.0,0.0005450528115034103
132.0,169.0,-3.9099,1.9029,8.8941,-0.0421,0.0308,-0.1129,-2.456832548181051,0.0,5.452498435974121,-0.9268584251403809,-0.0,2.1047418117523193,5.277601825981893,0.0,0.22327464818954468,-1.7180102507220667,-3.24224626148888e-30,0.010598620399832726,1.0120823383331299,-0.0,0.003265876555815339,1.2157442569732666,0.0,0.03308575972914696
129.0,167.0,-3.9296,1.9119,8.8552,-0.0365,0.0293,-0.1049,-2.4568401775755824,0.0,5.411778450012207,-0.9269266128540039,-0.0,2.0582103729248047,5.277617800026693,0.0,0.23025119304656982,-1.7180541197406214,-9.024912979735807e-34,0.008279580622911453,1.0120341777801514,-0.0,-0.0013574098702520132,1.215752124786377,0.0,0.008032902143895626
129.0,167.0,-3.9296,1.9119,8.8552,-0.0365,0.0293,-0.1049,-2.456815858880514,0.0,5.398582935333252,-0.9268263578414917,-0.0,2.071444511413574,5.277625608235159,0.0,0.2269434630870819,-1.718086067830221,-1.6402334450873023e-38,0.006494339555501938,1.0121021270751953,-0.0,0.0030423621647059917,1.2158204317092896,0.0,0.02060737833380699
129.0,167.0,-3.9296,1.9119,8.8552,-0.0365,0.0293,-0.1049,-2.4568401775755824,0.0,5.388862133026123,-0.9269063472747803,-0.0,2.0944905281066895,5.277585494309225,0.0,0.24146917462348938,-1.7180584112750452,-4.565430396770254e-42,0.0037756068632006645,1.0120820999145508,-0.0,-0.007710583508014679,1.215752124786377,0.0,0.014516640454530716
129.0,167.0,-3.9296,1.9119,8.8552,-0.0365,0.0293,-0.1049,-2.4568520985045375,0.0,5.476938724517822,-0.9268584847450256,-0.0,2.068631410598755,5.27758543470458,0.0,0.2252468317747116,-1.7180221716510218,-0.0,0.019460976123809814,1.0121506452560425,-0.0,0.007113832049071789,1.2157840728759766,0.0,0.025902748107910156
129.0,167.0,-3.9296,1.9119,8.8552,-0.0365,0.0293,-0.1049,-2.456848283807272,0.0,5.358389854431152,-0.9268945455551147,-0.0,2.133976697921753,5.277577268868246,0.0,0.2313048243522644,-1.7180340925799769,-0.0,0.01247198972851038,1.0120980739593506,-0.0,0.0031126022804528475,1.2157963514328003,0.0,-0.035296306014060974
129.0,167.0,-3.9296,1.9119,8.8552,-0.0365,0.0293,-0.1049,-2.4569083652892054,0.0,5.458592414855957,-0.9268501400947571,-0.0,2.1387500762939453,5.277609574585714,0.0,0.22026187181472778,-1.7180264631854456,-0.0,0.01001849677413702,1.0120460987091064,-0.0,-0.0026174578815698624,1.2157361507415771,0.0,-0.015589704737067223
129.0,167.0,-3.9296,1.9119,8.8552,-0.0365,0.0293,-0.1049,-2.456900259057516,0.0,5.474950790405273,-0.9268667101860046,-0.0,2.0922794342041016,5.2776498077209375,0.0,0.2222241461277008,-1.7180340925799769,-0.0,0.015910940244793892,1.0120899677276611,-0.0,-0.009071558713912964,1.2157680988311768,0.0,-0.02123941294848919
129.0,167.0,-3.9296,1.9119,8.8552,-0.0365,0.0293,-0.1049,-2.4568802318968714,0.0,5.415513515472412,-0.9268662333488464,-0.0,2.118913173675537,5.277597653656759,0.0,0.2236308604478836,-1.7180059591876429,-0.0,0.005941213108599186,1.0120658874511719,-0.0,0.0023135370574891567,1.215800404548645,0.0,-0.061245158314704895
129.0,167.0,-3.9296,1.9119,8.8552,-0.0365,0.0293,-0.1049,-2.456855913201803,0.0,5.434049606323242,-0.9268336892127991,-0.0,2.127289295196533,5.277605879097738,0.0,0.22571232914924622,-1.7180021444903772,-0.0,0.005933754146099091,1.0120189189910889,-0.0,-0.003176733385771513,1.2157922983169556,0.0,0.02173648774623871
129.0,167.0,-3.9296,1.9119,8.8552,-0.0365,0.0293,-0.1049,-2.4568401775755824,0.0,5.431327819824219,-0.9268296360969543,-0.0,2.06691312789917,5.277617800026693,0.0,0.2274547815322876,-1.718029801045553,-0.0,0.002841074950993061,1.0120820999145508,-0.0,-0.0039602238684892654,1.2157763242721558,0.0,-0.025209147483110428
129.0,167.0,-3.9296,1.9119,8.8552,-0.0365,0.0293,-0.1049,-2.456895967523092,0.0,5.444279670715332,-0.9268543720245361,-0.0,2.122256278991699,5.277637946396627,0.0,0.23325304687023163,-1.718017880116598,-0.0,-0.006011424586176872,1.0120301246643066,-0.0,0.0034694792702794075,1.2157881259918213,0.0,-0.012694016098976135
129.0,167.0,-3.9296,1.9119,8.8552,-0.0365,0.0293,-0.1049,-2.456872125665182,0.0,5.4129133224487305,-0.9268625974655151,-0.0,2.0771591663360596,5.2776017663772485,0.0,0.2205808162689209,-1.718029801045553,-0.0,0.010971596464514732,1.0120820999145508,-0.0,0.008629667572677135,1.2157561779022217,0.0,-0.02780034951865673
130.0,175.0,-3.935,1.8861,8.9055,-0.035,0.0255,-0.1161,-2.456872125665182,0.0,5.439353942871094,-0.9268543124198914,-0.0,2.1223087310791016,5.277617800026693,0.0,0.22032761573791504,-1.7180541197406214,-0.0,0.0014916271902620792,1.0120422840118408,-0.0,0.0010708100162446499,1.2157402038574219,0.0,0.009084044024348259
130.0,175.0,-3.935,1.8861,8.9055,-0.035,0.0255,-0.1161,-2.456848283807272,0.0,5.418706893920898,-0.926914632320404,-0.0,2.0455775260925293,5.277569520264425,0.0,0.21896767616271973,-1.7180221716510218,-0.0,0.01217451598495245,1.012038230895996,-0.0,0.0045379167422652245,1.2157721519470215,0.0,0.011571577750146389
130.0,175.0,-3.935,1.8861,8.9055,-0.035,0.0255,-0.1161,-2.456832548181051,0.0,5.434719562530518,-0.9268785715103149,-0.0,2.0894322395324707,5.277605521469869,0.0,0.2318839132785797,-1.7180259863482874,-0.0,0.0019605036359280348,1.0120501518249512,-0.0,0.0004886600072495639,1.2158123254776,0.0,0.0074836784042418
130.0,175.0,-3.935,1.8861,8.9055,-0.035,0.0255,-0.1161,-2.456832071343893,0.0,5.407638072967529,-0.9267861247062683,-0.0,2.1225011348724365,5.277565288334646,0.0,0.2247956097126007,-1.718017880116598,-0.0,0.007606663275510073,1.0120420455932617,-0.0,-0.018217768520116806,1.2157882452011108,0.0,-0.024956628680229187
130.0,175.0,-3.935,1.8861,8.9055,-0.035,0.0255,-0.1161,-2.4568244419493617,0.0,5.415607452392578,-0.9268336892127991,-0.0,2.11434268951416,5.277593600540914,0.0,0.23148399591445923,-1.7179902235614222,-0.0,0.010822942480444908,1.0120189189910889,-0.0,0.02465641126036644,1.2157800197601318,0.0,-0.03908449038863182
130.0,175.0,-3.935,1.8861,8.9055,-0.035,0.0255,-0.1161,-2.4568401775755824,0.0,5.433036804199219,-0.9268743991851807,-0.0,2.068751811981201,5.27757357338027,0.0,0.23416435718536377,-1.7180340925799769,-0.0,-0.0029947434086352587,1.0120460987091064,-0.0,0.0037042482290416956,1.215764045715332,0.0,-0.01570962183177471
130.0,175.0,-3.935,1.8861,8.9055,-0.035,0.0255,-0.1161,-2.4568802318968714,0.0,5.42762565612793,-0.9268826842308044,-0.0,2.0786685943603516,5.277633833676138,0.0,0.23519976437091827,-1.7180383841144007,-0.0,0.0018051187507808208,1.0120899677276611,-0.0,-0.00042489811312407255,1.215743899345398,0.0,0.05862525478005409
130.0,175.0,-3.935,1.8861,8.9055,-0.035,0.0255,-0.1161,-2.4568640194334925,0.0,5.410384178161621,-0.9268418550491333,-0.0,2.0739855766296387,5.277601825981893,1.162963128575889e-10,0.2314731478691101,-1.7180503050433558,-0.0,0.009625867940485477,1.0120067596435547,-0.0,-0.005822767503559589,1.2157762050628662,0.0,0.049897417426109314
130.0,175.0,-3.935,1.8861,8.9055,-0.035,0.0255,-0.1161,-2.456872125665182,0.0,5.426904678344727,-0.9268502593040466,-0.0,2.0985565185546875,5.277593600540914,3.2371508766745535e-14,0.22903695702552795,-1.7180102507220667,-0.0,0.005191106349229813,1.0120503902435303,-0.0,-0.008906184695661068,1.2157922983169556,0.0,0.0259915329515934
130.0,175.0,-3.935,1.8861,8.9055,-0.035,0.0255,-0.1161,-2.4568640194334925,0.0,5.461977958679199,-0.9268666505813599,-0.0,2.1128392219543457,5.277593719750204,5.883361397862506e-19,0.23263156414031982,-1.7180140654193323,-0.0,0.012240228243172169,1.0120902061462402,-0.0,-0.00888855755329132,1.2157561779022217,0.0,0.02364739403128624
130.0,175.0,-3.935,1.8861,8.9055,-0.035,0.0255,-0.1161,-2.4568196735777796,0.0,5.404640197753906,-0.9268946647644043,-0.0,2.1328465938568115,5.277617800026693,1.6376555492706262e-22,0.2304501086473465,-1.7180421988116663,-0.0,0.0036835838109254837,1.0121018886566162,-0.0,-0.001733866287395358,1.215792179107666,0.0,-0.001812824048101902
130.0,175.0,-3.935,1.8861,8.9055,-0.035,0.0255,-0.1161,-2.4568921528258265,0.0,5.416068077087402,-0.9269106388092041,-0.0,2.139427661895752,5.277593600540914,2.9763577509242946e-27,0.22855600714683533,-1.718046013508932,-0.0,0.004876760765910149,1.012037992477417,-0.0,0.013899114914238453,1.215764045715332,0.0,0.009533408097922802
130.0,175.0,-3.935,1.8861,8.9055,-0.035,0.0255,-0.1161,-2.456844469110006,0.0,5.419950008392334,-0.9269070029258728,-0.0,2.076564311981201,5.277617800026693,8.284801429793184e-31,0.22140035033226013,-1.7180221716510218,-0.0,-0.004544726572930813,1.0120699405670166,-0.0,0.005780795123428106,1.215764045715332,0.0,-0.0683920830488205
126.0,175.0,-3.9625,1.9089,8.8014,-0.038,0.026,-0.1101,-2.456848283807272,0.0,5.462358474731445,-0.9268543720245361,-0.0,2.089056968688965,5.277601825981893,1.505721737146814e-35,0.23429957032203674,-1.7180340925799769,-0.0,0.005929258652031422,1.0120739936828613,-0.0,0.017688410356640816,1.215764045715332,0.0,0.02223310060799122
126.0,175.0,-3.9625,1.9089,8.8014,-0.038,0.026,-0.1101,-2.4568640194334925,0.0,5.416229248046875,-0.9268180727958679,-0.0,2.0704946517944336,5.277593600540914,4.191231858752348e-39,0.23398014903068542,-1.7180503050433558,-0.0,0.020536668598651886,1.0121018886566162,-0.0,0.009236468002200127,1.2157762050628662,0.0,0.04167279601097107
126.0,175.0,-3.9625,1.9089,8.8014,-0.038,0.026,-0.1101,-2.4568120441832484,0.0,5.4585418701171875,-0.9268140196800232,-0.0,2.060926675796509,5.277597653656759,7.567011707354012e-44,0.21305157244205475,-1.7179659048663538,-0.0,0.011934129521250725,1.0120701789855957,-0.0,-0.0062427157536149025,1.2157680988311768,0.0,0.016507398337125778
126.0,175.0,-3.9625,1.9089,8.8014,-0.038,0.026,-0.1101,-2.4568282566466273,0.0,5.425972938537598,-0.9268904328346252,-0.0,2.097902536392212,5.277597653656759,0.0,0.23800542950630188,-1.718057934437887,-0.0,0.026562202721834183,1.0121300220489502,-0.0,-0.004614204168319702,1.2157922983169556,0.0,0.042826130986213684
126.0,175.0,-3.9625,1.9089,8.8014,-0.038,0.026,-0.1101,-2.456844469110006,0.0,5.408544540405273,-0.9268904328346252,-0.0,2.130910873413086,5.277589487820425,0.0,0.22901907563209534,-1.7180102507220667,-0.0,0.01929398998618126,1.0120739936828613,-0.0,0.00992400199174881,1.2157598733901978,0.0,0.031673163175582886
126.0,175.0,-3.9625,1.9089,8.8014,-0.038,0.026,-0.1101,-2.456848283807272,0.0,5.40507698059082,-0.9268662929534912,-0.0,2.1353812217712402,5.277577745705404,0.0,0.22839561104774475,-1.718114201222555,-0.0,0.004606831818819046,1.0120460987091064,-0.0,0.002078389283269644,1.215800404548645,0.0,0.01931042969226837
126.0,175.0,-3.9625,1.9089,8.8014,-0.038,0.026,-0.1101,-2.4568683109679164,0.0,5.458863258361816,-0.9268584251403809,-0.0,2.058833599090576,5.277597653656759,0.0,0.22525861859321594,-1.7180340925799769,-0.0,0.00571050401777029,1.0120940208435059,-0.0,0.007592222187668085,1.215792179107666,0.0,-0.01671588234603405
126.0,175.0,-3.9625,1.9089,8.8014,-0.038,0.026,-0.1101,-2.456820150414938,0.0,5.430858612060547,-0.9268378019332886,-0.0,2.0826168060302734,5.277609574585714,0.0,0.23335930705070496,-1.7180059591876429,-0.0,0.011278988793492317,1.0121139287948608,-0.0,0.012143047526478767,1.2157361507415771,0.0,-0.015778694301843643
126.0,175.0,-3.9625,1.9089,8.8014,-0.038,0.026,-0.1101,-2.4568563900389613,0.0,5.4044189453125,-0.9268786311149597,-0.0,2.0772976875305176,5.27758954742507,0.0,0.2240595519542694,-1.718017880116598,-0.0,-0.009231340140104294,1.0120341777801514,-0.0,0.0038349092938005924,1.2157922983169556,0.0,0.006414984818547964
126.0,175.0,-3.9625,1.9089,8.8014,-0.038,0.026,-0.1101,-2.4568401775755824,0.0,5.473310470581055,-0.9269106388092041,-0.0,2.0923233032226562,5.277553128987112,0.0,0.23103561997413635,-1.7180421988116663,-0.0,0.01021847128868103,1.0120460987091064,-0.0,0.0025628944858908653,1.2157680988311768,0.0,0.006786503363400698
126.0,175.0,-3.9625,1.9089,8.8014,-0.038,0.026,-0.1101,-2.4568520985045375,0.0,5.4442315101623535,-0.9268666505813599,-0.0,2.0455172061920166,5.277597653656759,0.0,0.2218889594078064,-1.7180421988116663,-0.0,0.002601353917270899,1.0120660066604614,-0.0,-0.002813444472849369,1.2157437801361084,0.0,0.02364111691713333
126.0,175.0,-3.9625,1.9089,8.8014,-0.038,0.026,-0.1101,-2.4568282566466273,0.0,5.444604873657227,-0.9268703460693359,-0.0,2.12101411819458,5.277561294823446,0.0,0.21796217560768127,-1.7180259863482874,-0.0,0.004055542405694723,1.0121418237686157,-0.0,0.009945389814674854,1.2157881259918213,0.0,-0.0005865665152668953
126.0,175.0,-3.9625,1.9089,8.8014,-0.038,0.026,-0.1101,-2.456820150414938,0.0,5.438878059387207,-0.9268501400947571,-0.0,2.0579705238342285,5.27758543470458,0.0,0.22653305530548096,-1.7180541197406214,-0.0,0.0029620076529681683,1.0120861530303955,-0.0,0.013546057045459747,1.2157840728759766,0.0,0.022268984466791153
130.0,170.0,-3.9583,1.8957,8.9665,-0.0348,0.0275,-0.1156,-2.456844469110006,0.0,5.449678421020508,-0.9267820119857788,-0.0,2.0937371253967285,5.277577268868246,0.0,0.2292715311050415,-1.718017880116598,-0.0,0.009503264911472797,1.0120302438735962,-0.0,0.0029400999192148447,1.2157922983169556,0.0,0.003332135733217001
130.0,170.0,-3.9583,1.8957,8.9665,-0.0348,0.0275,-0.1156,-2.456872125665182,0.0,5.399584770202637,-0.926830530166626,-0.0,2.1482670307159424,5.277581321984091,0.0,0.22532707452774048,-1.7180221716510218,-0.0,0.01472531072795391,1.012038230895996,-0.0,-0.001947705983184278,1.2157480716705322,0.0,-0.006683950312435627
130.0,170.0,-3.9583,1.8957,8.9665,-0.0348,0.0275,-0.1156,-2.4568759403624476,0.0,5.436535835266113,-0.9269064664840698,-0.0,2.1314456462860107,5.27756946065978,0.0,0.22586378455162048,-1.7180259863482874,-0.0,0.008932013995945454,1.0120662450790405,-0.0,0.008884565904736519,1.2157680988311768,0.0,0.07376199960708618
130.0,170.0,-3.9583,1.8957,8.9665,-0.0348,0.0275,-0.1156,-2.4568563900389613,0.0,5.428285121917725,-0.9268502593040466,-0.0,2.1131980419158936,5.277577268868246,0.0,0.22490745782852173,-1.7180541197406214,-0.0,0.007473527919501066,1.0120258331298828,-0.0,-0.0011780194472521544,1.2157360315322876,0.0,-0.04076668620109558
130.0,170.0,-3.9583,1.8957,8.9665,-0.0348,0.0275,-0.1156,-2.456820150414938,0.0,5.4458909034729,-0.9268378019332886,-0.0,2.1057307720184326,5.277601825981893,0.0,0.2231791764497757,-1.7180340925799769,-0.0,-0.0020375042222440243,1.0120820999145508,-0.0,-0.007458173669874668,1.2157803773880005,0.0,0.013724880293011665
130.0,170.0,-3.9583,1.8957,8.9665,-0.0348,0.0275,-0.1156,-2.4568802318968714,0.0,5.39552116394043,-0.9268983006477356,-0.0,2.0497329235076904,5.277561414032736,0.0,0.22803178429603577,-1.7180059591876429,-0.0,-0.004473587032407522,1.012018084526062,-0.0,0.01231546513736248,1.215752124786377,0.0,-0.004864580929279327
130.0,170.0,-3.9583,1.8957,8.9665,-0.0348,0.0275,-0.1156,-2.456832548181051,0.0,5.40557861328125,-0.9268262982368469,-0.0,2.0993082523345947,5.277645695000448,0.0,0.2292933166027069,-1.7180264631854456,-0.0,0.018492316827178,1.012125849723816,-0.0,0.003758353414013982,1.2158246040344238,0.0,-0.03174272179603577
130.0,170.0,-3.9583,1.8957,8.9665,-0.0348,0.0275,-0.1156,-2.4568640194334925,0.0,5.43889045715332,-0.9268304705619812,-0.0,2.076040744781494,5.277593600540914,0.0,0.21982619166374207,-1.7180622259723108,-0.0,0.01261003129184246,1.0121179819107056,-0.0,0.003892623819410801,1.2157680988311768,0.0,0.015027674846351147
130.0,170.0,-3.9583,1.8957,8.9665,-0.0348,0.0275,-0.1156,-2.456844469110006,0.0,5.420590400695801,-0.9268336892127991,-0.0,2.130484104156494,5.277601825981893,0.0,0.23124048113822937,-1.718017880116598,-0.0,0.005802913568913937,1.012054204940796,-0.0,-0.0006193640874698758,1.215764045715332,0.0,0.024203190580010414
130.0,170.0,-3.9583,1.8957,8.9665,-0.0348,0.0275,-0.1156,-2.4568120441832484,0.0,5.416640281677246,-0.9268181324005127,-0.0,2.1130142211914062,5.277577268868246,0.0,0.22926831245422363,-1.7180541197406214,-0.0,0.018346792086958885,1.0120819807052612,-0.0,-0.006207791157066822,1.2157721519470215,0.0,-0.02644260972738266
130.0,170.0,-3.9583,1.8957,8.9665,-0.0348,0.0275,-0.1156,-2.456848283807272,0.0,5.415928840637207,-0.9269064664840698,-0.0,2.0733237266540527,5.277597713261404,0.0,0.21620091795921326,-1.718046013508932,-0.0,0.00602914160117507,1.0120582580566406,-0.0,0.0010361153399571776,1.215800404548645,0.0,0.010378362610936165
130.0,170.0,-3.9583,1.8957,8.9665,-0.0348,0.0275,-0.1156,-2.4568282566466273,0.0,5.408164024353027,-0.9268662333488464,-0.0,2.100543975830078,5.277549016266622,0.0,0.22010710835456848,-1.7180383841144007,-0.0,0.01079703401774168,1.012078046798706,-0.0,0.008082539774477482,1.2157963514328003,0.0,-0.01332760974764824
130.0,170.0,-3.9583,1.8957,8.9665,-0.0348,0.0275,-0.1156,-2.4568759403624476,0.0,5.440093040466309,-0.9268460273742676,-0.0,2.0938072204589844,5.277557122498312,0.0,0.22332382202148438,-1.7180340925799769,-0.0,0.022394107654690742,1.012078046798706,-0.0,-0.005894445348531008,1.2157520055770874,0.0,-0.012569115497171879
128.0,171.0,-3.9655,1.8598,8.9486,-0.0421,0.0322,-0.1066,-2.4568401775755824,0.0,5.420561790466309,-0.9268418550491333,-0.0,2.039510726928711,5.27758543470458,0.0,0.21688082814216614,-1.7180541197406214,-0.0,0.008157789707183838,1.0120741128921509,-0.0,0.0033741737715899944,1.215752124786377,0.0,-0.01829749345779419
128.0,171.0,-3.9655,1.8598,8.9486,-0.0421,0.0322,-0.1066,-2.456832548181051,0.0,5.438933372497559,-0.9268667101860046,-0.0,2.115548849105835,5.277569520264425,0.0,0.2262371927499771,-1.7180421988116663,-0.0,0.02166394703090191,1.0120501518249512,-0.0,0.016112634912133217,1.2157721519470215,0.0,-0.001541227102279663
128.0,171.0,-3.9655,1.8598,8.9486,-0.0421,0.0322,-0.1066,-2.456848283807272,0.0,5.425004959106445,-0.9268826842308044,-0.0,2.1230289936065674,5.277614283352651,0.0,0.22865960001945496,-1.7179978529559534,-0.0,-0.00016660266555845737,1.0120820999145508,-0.0,0.003998376429080963,1.2157680988311768,0.0,-0.00901912059634924
128.0,171.0,-3.9655,1.8598,8.9486,-0.0421,0.0322,-0.1066,-2.456816335717672,0.0,5.45565128326416,-0.9268904328346252,-0.0,2.0855422019958496,5.27758954742507,0.0,0.2305861860513687,-1.7180059591876429,-0.0,0.02318221889436245,1.0120899677276611,-0.0,0.015026926063001156,1.215752124786377,0.0,0.005791862495243549
128.0,171.0,-3.9655,1.8598,8.9486,-0.0421,0.0322,-0.1066,-2.456895967523092,0.0,5.400347709655762,-0.9268584251403809,-0.0,2.1119542121887207,5.277617800026693,0.0,0.22068658471107483,-1.718046013508932,-0.0,0.0048329755663871765,1.012078046798706,-0.0,0.0060492269694805145,1.2157721519470215,0.0,0.04699715971946716
128.0,171.0,-3.9655,1.8598,8.9486,-0.0421,0.0322,-0.1066,-2.4568640194334925,0.0,5.428928375244141,-0.9268625974655151,-0.0,2.079221487045288,5.277565288334646,0.0,0.23140257596969604,-1.7180221716510218,-0.0,0.009838221594691277,1.012058138847351,-0.0,-0.004992091562598944,1.2157680988311768,0.0,-0.06839940696954727
128.0,171.0,-3.9655,1.8598,8.9486,-0.0421,0.0322,-0.1066,-2.456872125665182,0.0,5.452457427978516,-0.9268743991851807,-0.0,2.0896735191345215,5.277581321984091,0.0,0.2287972867488861,-1.7180259863482874,-0.0,0.00930794794112444,1.012066125869751,-0.0,0.004141204059123993,1.2157397270202637,0.0,-0.001855016453191638
128.0,171.0,-3.9655,1.8598,8.9486,-0.0421,0.0322,-0.1066,-2.4568077526488246,0.0,5.417498588562012,-0.9268662929534912,-0.0,2.062933921813965,5.277565347939291,0.0,0.21551501750946045,-1.7180503050433558,-0.0,0.015591667965054512,1.0120820999145508,-0.0,0.00923852063715458,1.2157840728759766,0.0,-0.04555578529834747
128.0,171.0,-3.9655,1.8598,8.9486,-0.0421,0.0322,-0.1066,-2.456844469110006,0.0,5.393362045288086,-0.9268460273742676,-0.0,2.047233819961548,5.277561235218801,0.0,0.2289470136165619,-1.7180383841144007,-0.0,0.011807171627879143,1.012097954750061,-0.0,0.0059019215404987335,1.2157882452011108,0.0,-0.0276284608989954
128.0,171.0,-3.9655,1.8598,8.9486,-0.0421,0.0322,-0.1066,-2.456872125665182,0.0,5.430056571960449,-0.9268667101860046,-0.0,2.1079325675964355,5.277589607029714,0.0,0.22341907024383545,-1.7179821173297327,-0.0,0.009176339954137802,1.012086033821106,-0.0,0.007570198271423578,1.2157437801361084,0.0,-0.027490556240081787
128.0,171.0,-3.9655,1.8598,8.9486,-0.0421,0.0322,-0.1066,-2.456848283807272,0.0,5.470903396606445,-0.9268946051597595,-0.0,2.1314210891723633,5.277621912747183,0.0,0.23487722873687744,-1.718006436024801,-0.0,0.013108617626130581,1.0121060609817505,-0.0,0.004659528844058514,1.2157800197601318,0.0,0.0005884631536900997
128.0,171.0,-3.9655,1.8598,8.9486,-0.0421,0.0322,-0.1066,-2.456895967523092,0.0,5.438617706298828,-0.9268625974655151,-0.0,2.0936551094055176,5.277573215752401,0.0,0.22339347004890442,-1.7180584112750452,-0.0,0.013180579990148544,1.012046217918396,-0.0,0.0045821708627045155,1.215800404548645,0.0,-0.04269317537546158
128.0,171.0,-3.9655,1.8598,8.9486,-0.0421,0.0322,-0.1066,-2.456832071343893,0.0,5.4642744064331055,-0.926830530166626,-0.0,2.1147053241729736,5.277565347939291,0.0,0.22352385520935059,-1.7180221716510218,-0.0,0.023887353017926216,1.012046217918396,-0.0,0.005308654624968767,1.2157680988311768,0.0,-0.0033649972174316645
130.0,166.0,-3.8716,1.9023,8.8469,-0.0315,0.0186,-0.1124,-2.4568363628783167,0.0,5.462883472442627,-0.9268502593040466,-0.0,2.143904685974121,5.277597653656759,0.0,0.2169235348701477,-1.7180584112750452,-0.0,0.005278265103697777,1.0120582580566406,-0.0,0.0071096704341471195,1.2157680988311768,0.0,0.005764152854681015
130.0,166.0,-3.8716,1.9023,8.8469,-0.0315,0.0186,-0.1124,-2.456860204736227,0.0,5.434750080108643,-0.9268621206283569,-0.0,2.1408958435058594,5.277613627701559,0.0,0.22007347643375397,-1.7180021444903772,-0.0,0.008119968697428703,1.0120580196380615,-0.0,0.005431570112705231,1.2157721519470215,0.0,0.003737282007932663
130.0,166.0,-3.8716,1.9023,8.8469,-0.0315,0.0186,-0.1124,-2.4568282566466273,0.0,5.415466785430908,-0.9268057942390442,-0.0,2.0870108604431152,5.277617800026693,0.0,0.2337060570716858,-1.7180340925799769,-0.0,0.011638639494776726,1.0120701789855957,-0.0,0.004747395403683186,1.215800404548645,0.0,0.012807161547243595
130.0,166.0,-3.8716,1.9023,8.8469,-0.0315,0.0186,-0.1124,-2.4568802318968714,0.0,5.409808158874512,-0.9268743395805359,-0.0,2.078773260116577,5.277646231442251,0.0,0.22675281763076782,-1.718029801045553,-0.0,0.0002122365403920412,1.012078046798706,-0.0,-0.005494012963026762,1.2157560586929321,0.0,0.018940255045890808
130.0,166.0,-3.8716,1.9023,8.8469,-0.0315,0.0186,-0.1124,-2.456872125665182,0.0,5.4312052726745605,-0.9268785715103149,-0.0,2.132899284362793,5.277581321984091,0.0,0.20224928855895996,-1.7180221716510218,-0.0,0.007525160443037748,1.0120819807052612,-0.0,0.013145774602890015,1.215752124786377,0.0,-0.02854049950838089
130.0,166.0,-3.8716,1.9023,8.8469,-0.0315,0.0186,-0.1124,-2.4568640194334925,0.0,5.471553802490234,-0.9268946647644043,-0.0,2.0977320671081543,5.2775489566619775,0.0,0.22102752327919006,-1.7180584112750452,-0.0,0.016756998375058174,1.012066125869751,-0.0,0.006115737371146679,1.2157840728759766,0.0,-0.010187072679400444
130.0,166.0,-3.8716,1.9023,8.8469,-0.0315,0.0186,-0.1124,-2.456848283807272,0.0,5.459450721740723,-0.9268543720245361,-0.0,2.0833845138549805,5.27758954742507,0.0,0.22781051695346832,-1.7180340925799769,-0.0,0.00302408030256629,1.012125849723816,-0.0,-0.006483106873929501,1.2157763242721558,0.0,0.026965739205479622
130.0,166.0,-3.8716,1.9023,8.8469,-0.0315,0.0186,-0.1124,-2.456832071343893,0.0,5.438189506530762,-0.9268386960029602,-0.0,2.0535998344421387,5.277601825981893,0.0,0.23413550853729248,-1.7179859320269983,-0.0,0.0059811146929860115,1.0120341777801514,-0.0,-0.0012182859936729074,1.215715765953064,0.0,0.019561387598514557
130.0,166.0,-3.8716,1.9023,8.8469,-0.0315,0.0186,-0.1124,-2.4568683109679164,0.0,5.467296600341797,-0.9268863201141357,-0.0,2.102860927581787,5.277581321984091,0.0,0.21558916568756104,-1.7180059591876429,-0.0,0.010294241830706596,1.0121098756790161,-0.0,0.007418871391564608,1.2157721519470215,0.0,0.018968168646097183
130.0,166.0,-3.8716,1.9023,8.8469,-0.0315,0.0186,-0.1124,-2.4568640194334925,0.0,5.46437406539917,-0.9268500804901123,-0.0,2.112363815307617,5.277536856919088,0.0,0.2425006628036499,-1.7180784384356897,-0.0,-0.005766111426055431,1.0120502710342407,-0.0,-0.0033120703883469105,1.2157402038574219,0.0,-0.007832955569028854
130.0,166.0,-3.8716,1.9023,8.8469,-0.0315,0.0186,-0.1124,-2.4568563900389613,0.0,5.430656433105469,-0.9268377423286438,-0.0,2.1398041248321533,5.277613627701559,0.0,0.23499464988708496,-1.718057934437887,-0.0,0.014148510992527008,1.0120501518249512,-0.0,-0.0010718866251409054,1.2157680988311768,0.0,0.016024095937609673
130.0,166.0,-3.8716,1.9023,8.8469,-0.0315,0.0186,-0.1124,-2.4568759403624476,0.0,5.442290782928467,-0.9268502593040466,-0.0,2.0976407527923584,5.277593600540914,0.0,0.2159346342086792,-1.7179902235614222,-0.0,0.011546013876795769,1.0120899677276611,-0.0,0.00155269680544734,1.2158164978027344,0.0,0.0015730224549770355
130.0,169.0,-3.8668,1.9065,8.8971,-0.0371,0.0254,-0.1106,-2.4568520985045375,0.0,5.451961040496826,-0.9268867373466492,-0.0,2.0964670181274414,5.277621912747183,0.0,0.21669405698776245,-1.7180102507220667,-0.0,0.018882784992456436,1.0120701789855957,-0.0,-0.002895910991355777,1.2157840728759766,0.0,-0.052708785980939865
130.0,169.0,-3.8668,1.9065,8.8971,-0.0371,0.0254,-0.1106,-2.456884046594137,0.0,5.424872398376465,-0.9268666505813599,-0.0,2.0940918922424316,5.277605879097738,0.0,0.2291153371334076,-1.7180059591876429,-0.0,0.009805363602936268,1.0120779275894165,-0.0,0.00842782761901617,1.2157680988311768,0.0,-0.02665170468389988
130.0,169.0,-3.8668,1.9065,8.8971,-0.0371,0.0254,-0.1106,-2.456860204736227,0.0,5.401773452758789,-0.9268584251403809,-0.0,2.0504791736602783,5.277637886791982,0.0,0.22519299387931824,-1.718017880116598,-0.0,0.007589317392557859,1.0120940208435059,-0.0,0.011370150372385979,1.2157360315322876,0.0,-0.00812075287103653
130.0,169.0,-3.8668,1.9065,8.8971,-0.0371,0.0254,-0.1106,-2.4568401775755824,0.0,5.427472114562988,-0.9268625974655151,-0.0,2.077038288116455,5.277589487820425,0.0,0.21996082365512848,-1.7180383841144007,-0.0,-0.012397940270602703,1.0120270252227783,-0.0,0.00902419351041317,1.2157442569732666,0.0,-0.009754794649779797
130.0,169.0,-3.8668,1.9065,8.8971,-0.0371,0.0254,-0.1106,-2.456884046594137,0.0,5.439214706420898,-0.9269105792045593,-0.0,2.071577787399292,5.277617859631338,0.0,0.22579577565193176,-1.7180340925799769,-0.0,0.012822786346077919,1.0120582580566406,-0.0,0.006759842857718468,1.2157762050628662,0.0,-0.04310707747936249
130.0,169.0,-3.8668,1.9065,8.8971,-0.0371,0.0254,-0.1106,-2.4568401775755824,0.0,5.471506118774414,-0.9268345832824707,-0.0,2.115502119064331,5.277581321984091,0.0,0.23456144332885742,-1.718046013508932,-0.0,0.00041661260183900595,1.0121098756790161,-0.0,-0.005381916183978319,1.215752124786377,0.0,-0.03006654605269432
130.0,169.0,-3.8668,1.9065,8.8971,-0.0371,0.0254,-0.1106,-2.4568802318968714,0.0,5.410927772521973,-0.9267540574073792,-0.0,2.127480983734131,5.27760140874938,0.0,0.23182164132595062,-1.718006436024801,-0.0,0.004074805416166782,1.012078046798706,-0.0,0.004975465126335621,1.2157320976257324,0.0,-0.012786156497895718
130.0,169.0,-3.8668,1.9065,8.8971,-0.0371,0.0254,-0.1106,-2.456860204736227,0.0,5.419062614440918,-0.9268295764923096,-0.0,2.1299028396606445,5.277609574585714,0.0,0.2364720106124878,-1.7180221716510218,-0.0,0.016851743683218956,1.0121139287948608,-0.0,-0.011977476999163628,1.215715765953064,0.0,-0.025517892092466354
130.0,169.0,-3.8668,1.9065,8.8971,-0.0371,0.0254,-0.1106,-2.456860204736227,0.0,5.443402290344238,-0.9268263578414917,-0.0,2.0774829387664795,5.277589487820425,0.0,0.23357591032981873,-1.7180021444903772,-0.0,0.013729250989854336,1.012086033821106,-0.0,0.006867587566375732,1.215752124786377,0.0,-0.0001752055250108242
130.0,169.0,-3.8668,1.9065,8.8971,-0.0371,0.0254,-0.1106,-2.456844469110006,0.0,5.406469345092773,-0.9268501400947571,-0.0,2.078995704650879,5.277621912747183,0.0,0.22792860865592957,-1.7179978529559534,-0.0,0.019353175535798073,1.0120899677276611,-0.0,0.007233467884361744,1.2157840728759766,0.0,-0.013865096494555473
130.0,169.0,-3.8668,1.9065,8.8971,-0.0371,0.0254,-0.1106,-2.456844469110006,0.0,5.4018473625183105,-0.9268584251403809,-0.0,2.0906872749328613,5.277621912747183,0.0,0.2227294147014618,-1.7180259863482874,-0.0,0.011523282155394554,1.0120700597763062,-0.0,-0.00046688923612236977,1.2157721519470215,0.0,0.005610942840576172
130.0,169.0,-3.8668,1.9065,8.8971,-0.0371,0.0254,-0.1106,-2.4568563900389613,0.0,5.432424545288086,-0.9269022345542908,-0.0,2.1270928382873535,5.277597653656759,0.0,0.21686211228370667,-1.7180221716510218,-0.0,0.009353430941700935,1.0120223760604858,-0.0,-0.005040107294917107,1.2157361507415771,0.0,-0.043847180902957916
130.0,169.0,-3.8668,1.9065,8.8971,-0.0371,0.0254,-0.1106,-2.4568520985045375,0.0,5.422046661376953,-0.9268584251403809,-0.0,2.087451457977295,5.277613627701559,0.0,0.23046240210533142,-1.7180102507220667,-0.0,0.008121312595903873,1.0121257305145264,-0.0,0.0014806571416556835,1.2157840728759766,0.0,-0.017602207139134407
128.0,173.0,-3.9781,1.6391,9.0556,-0.0417,0.0238,-0.108,-2.456916471520895,0.0,5.486007213592529,-0.9268903732299805,-0.0,2.0616276264190674,5.277601825981893,0.0,0.23055218160152435,-1.7180541197406214,-0.0,0.007028357591480017,1.0121058225631714,-0.0,0.003251190995797515,1.2157881259918213,0.0,0.02820570021867752
128.0,173.0,-3.9781,1.6391,9.0556,-0.0417,0.0238,-0.108,-2.456884046594137,0.0,5.423260688781738,-0.9268826842308044,-0.0,2.1317543983459473,5.277617800026693,0.0,0.224441796541214,-1.7180216948138636,-0.0,0.010729937814176083,1.0121138095855713,-0.0,0.007299188058823347,1.2157721519470215,0.0,0.01917496882379055
128.0,173.0,-3.9781,1.6391,9.0556,-0.0417,0.0238,-0.108,-2.456844469110006,0.0,5.424044132232666,-0.9267856478691101,-0.0,2.1085422039031982,5.277581321984091,0.0,0.23386375606060028,-1.7180660406695765,-0.0,0.008033755235373974,1.012046217918396,-0.0,-0.011557189747691154,1.215792179107666,0.0,-0.018897121772170067
128.0,173.0,-3.9781,1.6391,9.0556,-0.0417,0.0238,-0.108,-2.456848283807272,0.0,5.43684196472168,-0.9268584251403809,-0.0,2.075225830078125,5.277577268868246,0.0,0.2242533564567566,-1.718046013508932,-0.0,0.010903455317020416,1.0120422840118408,-0.0,0.006290840916335583,1.2157119512557983,0.0,-0.0010944274254143238
128.0,173.0,-3.9781,1.6391,9.0556,-0.0417,0.0238,-0.108,-2.4568759403624476,0.0,5.396312713623047,-0.9269106388092041,-0.0,2.045004367828369,5.277577209263601,0.0,0.22962290048599243,-1.7180541197406214,-0.0,0.009179404936730862,1.012078046798706,-0.0,0.02647748962044716,1.2157196998596191,0.0,0.030208148062229156
128.0,173.0,-3.9781,1.6391,9.0556,-0.0417,0.0238,-0.108,-2.4568640194334925,0.0,5.400573253631592,-0.9268822073936462,-0.0,2.091123342514038,5.277597653656759,0.0,0.217336043715477,-1.7180021444903772,-0.0,0.0005186020862311125,1.012097954750061,-0.0,0.000345858046784997,1.2157319784164429,0.0,-0.0017899926751852036
128.0,173.0,-3.9781,1.6391,9.0556,-0.0417,0.0238,-0.108,-2.456872125665182,0.0,5.485807418823242,-0.9268744587898254,-0.0,2.123525381088257,5.277549016266622,0.0,0.22964754700660706,-1.718086067830221,-0.0,0.007150569930672646,1.0120741128921509,-0.0,-0.00916796550154686,1.2157479524612427,0.0,0.0026936233043670654
128.0,173.0,-3.9781,1.6391,9.0556,-0.0417,0.0238,-0.108,-2.456860204736227,0.0,5.415093421936035,-0.9268140196800232,-0.0,2.112605571746826,5.277617859631338,0.0,0.21998640894889832,-1.7180622259723108,-0.0,0.006253206171095371,1.012054204940796,-0.0,8.085137233138084e-05,1.2157680988311768,0.0,0.007112189196050167
128.0,173.0,-3.9781,1.6391,9.0556,-0.0417,0.0238,-0.108,-2.4568921528258265,0.0,5.440152645111084,-0.9268099069595337,-0.0,2.0921926498413086,5.277544903546133,0.0,0.22102090716362,-1.7180302778827112,-0.0,0.0009418693371117115,1.012054204940796,-0.0,-0.00047505227848887444,1.2158201932907104,0.0,0.0180729478597641
128.0,173.0,-3.9781,1.6391,9.0556,-0.0417,0.0238,-0.108,-2.456895967523092,0.0,5.459601402282715,-0.9268502593040466,-0.0,2.063326358795166,5.277561235218801,0.0,0.2216951549053192,-1.7180779615985315,-0.0,0.001413544174283743,1.0120819807052612,-0.0,-0.010302366688847542,1.215792179107666,0.0,-0.00769049534574151
128.0,173.0,-3.9781,1.6391,9.0556,-0.0417,0.0238,-0.108,-2.4568120441832484,0.0,5.439094066619873,-0.9268419146537781,-0.0,2.060573101043701,5.277553188591757,0.0,0.2204057276248932,-1.718046013508932,-0.0,0.013164401054382324,1.0120939016342163,-0.0,-0.013459712266921997,1.215804100036621,0.0,0.028275687247514725
128.0,173.0,-3.9781,1.6391,9.0556,-0.0417,0.0238,-0.108,-2.456848283807272,0.0,5.412615776062012,-0.926814079284668,-0.0,2.0946478843688965,5.277589487820425,0.0,0.22587814927101135,-1.7180379072772425,-0.0,0.01023450680077076,1.012097954750061,-0.0,-0.0012244938407093287,1.2157758474349976,0.0,0.014420295134186745
128.0,173.0,-3.9781,1.6391,9.0556,-0.0417,0.0238,-0.108,-2.456848283807272,0.0,5.408928394317627,-0.9268786311149597,-0.0,2.051102638244629,5.277613627701559,0.0,0.2291037142276764,-1.718046013508932,-0.0,-0.0018915387336164713,1.012066125869751,-0.0,0.001786091597750783,1.2158123254776,0.00024153184494934976,0.0004098638892173767
133.0,164.0,-3.7801,2.0961,8.7368,-0.026,0.0179,-0.1197,-2.456832548181051,0.0,5.400860786437988,-0.9268785715103149,-0.0,2.1432557106018066,5.277601825981893,0.0,0.22776037454605103,-1.7180736700641077,-0.0,0.0012130191316828132,1.0120620727539062,-0.0,0.0031272191554307938,1.2157758474349976,0.0002080437116092071,-0.012635522522032261
133.0,164.0,-3.7801,2.0961,8.7368,-0.026,0.0179,-0.1197,-2.456916471520895,0.0,5.411570072174072,-0.9268786311149597,-0.0,2.11407470703125,5.277597653656759,0.0,0.22888171672821045,-1.7180898825274866,-0.0,0.009021691977977753,1.0120700597763062,-0.0,0.005831336602568626,1.2158323526382446,0.0002106877218466252,0.010548682883381844
133.0,164.0,-3.7801,2.0961,8.7368,-0.026,0.0179,-0.1197,-2.456860204736227,0.0,5.430781364440918,-0.9268460869789124,-0.0,2.100020408630371,5.277601825981893,0.0,0.23428697884082794,-1.718057934437887,-0.0,0.010738160461187363,1.0120149850845337,-0.0,-0.00023882510140538216,1.2157598733901978,0.00018861002172343433,-0.008826715871691704
133.0,164.0,-3.7801,2.0961,8.7368,-0.026,0.0179,-0.1197,-2.456792493859762,0.0,5.418230056762695,-0.9268667101860046,-0.0,2.0801093578338623,5.277621495514669,0.0,0.20871329307556152,-1.7180703322040003,-0.0,0.00927061215043068,1.0120621919631958,-0.0,-0.003843344282358885,1.215820074081421,0.00016548890562262386,0.0034551117569208145
133.0,164.0,-3.7801,2.0961,8.7368,-0.026,0.0179,-0.1197,-2.456815858880514,0.0,5.428407669067383,-0.9269068837165833,-0.0,2.086726188659668,5.277585494309225,0.0,0.23207220435142517,-1.718057934437887,-0.0,0.01905106008052826,1.0120940208435059,-0.0,-0.0012067279312759638,1.215840220451355,0.0001273126545129344,-0.010194465517997742
133.0,164.0,-3.7801,2.0961,8.7368,-0.026,0.0179,-0.1197,-2.4568563900389613,0.0,5.4239349365234375,-0.9268502593040466,-0.0,2.1422905921936035,5.277573156147756,0.0,0.2262757420539856,-1.7180421988116663,-0.0,0.008892401121556759,1.012078046798706,-0.0,0.0007143879774957895,1.2157516479492188,9.085133206099272e-05,-0.02902497909963131
133.0,164.0,-3.7801,2.0961,8.7368,-0.026,0.0179,-0.1197,-2.4568683109679164,0.0,5.4535417556762695,-0.9268625974655151,-0.0,2.1019997596740723,5.277617800026693,0.0,0.21563759446144104,-1.7180703322040003,-0.0,0.008722911588847637,1.0120819807052612,-0.0,-0.0028416295535862446,1.215743899345398,8.444615377811715e-05,-0.019728342071175575
133.0,164.0,-3.7801,2.0961,8.7368,-0.026,0.0179,-0.1197,-2.456860204736227,0.0,5.402385711669922,-0.9268785119056702,-0.0,2.0778002738952637,5.277585494309225,0.0,0.23377056419849396,-1.718029801045553,-0.0,0.008089426904916763,1.0121018886566162,-0.0,-0.0031244473066180944,1.2157397270202637,5.790182694909163e-05,0.006054180674254894
133.0,164.0,-3.7801,2.0961,8.7368,-0.026,0.0179,-0.1197,-2.456888338128561,0.0,5.40879487991333,-0.9268541932106018,-0.0,2.0996382236480713,5.277613627701559,0.0,0.2350410521030426,-1.7179940382586878,-0.0,0.0077448999509215355,1.0119985342025757,-0.0,0.005584994331002235,1.215764045715332,5.332731961971149e-05,-0.028309768065810204
133.0,164.0,-3.7801,2.0961,8.7368,-0.026,0.0179,-0.1197,-2.4568282566466273,0.0,5.425167083740234,-0.9269023537635803,-0.0,2.1378180980682373,5.277649748116293,0.0,0.22678732872009277,-1.718029801045553,-0.0,0.007725987583398819,1.0120621919631958,-0.0,-0.0007129027508199215,1.2157602310180664,5.0344300689175725e-05,0.023771997541189194
133.0,164.0,-3.7801,2.0961,8.7368,-0.026,0.0179,-0.1197,-2.456848283807272,0.0,5.436369895935059,-0.9268864393234253,-0.0,2.126626491546631,5.277601825981893,0.0,0.21989671885967255,-1.7180660406695765,-0.0,0.00881071574985981,1.012086033821106,-0.0,0.030304791405797005,1.2157717943191528,-3.293220288469456e-05,-0.0014928695745766163
133.0,164.0,-3.7801,2.0961,8.7368,-0.026,0.0179,-0.1197,-2.4568683109679164,0.0,5.419666290283203,-0.9268181324005127,-0.0,2.1190690994262695,5.277609574585714,0.0,0.2351120114326477,-1.718046013508932,-0.0,0.00032771279802545905,1.012066125869751,-0.0,0.013497209176421165,1.2157963514328003,-0.00022902579803485423,-0.014562725089490414
133.0,164.0,-3.7801,2.0961,8.7368,-0.026,0.0179,-0.1197,-2.4568520985045375,0.0,5.387254238128662,-0.9268667101860046,-0.0,2.0728747844696045,5.277544963150778,0.0,0.22636562585830688,-1.7180340925799769,-0.0,0.016415975987911224,1.0120741128921509,-0.0,0.009935312904417515,1.2157840728759766,-0.00012093965051462874,-0.05007666349411011
133.0,168.0,-3.9637,2.0189,8.8116,-0.0742,0.0312,-0.1058,-2.456848283807272,0.0,5.418862342834473,-0.9268460273742676,-0.0,2.0987939834594727,5.277605879097738,0.0,0.22748509049415588,-1.7180784384356897,-0.0,0.00805740151554346,1.012117862701416,-0.0,-0.004208801779896021,1.215804100036621,-2.920549913021375e-10,-0.019534707069396973
133.0,168.0,-3.9637,2.0189,8.8116,-0.0742,0.0312,-0.1058,-2.4568363628783167,0.0,5.417457580566406,-0.9267978668212891,-0.0,2.151090621948242,5.277621912747183,0.0,0.23384568095207214,-1.7180221716510218,-0.0,0.007267653942108154,1.0120700597763062,-0.0,0.0009532931726425886,1.215831995010376,-9.46221167122269e-18,-0.03877844288945198
133.0,168.0,-3.9637,2.0189,8.8116,-0.0742,0.0312,-0.1058,-2.456820150414938,0.0,5.461353778839111,-0.9268708229064941,-0.0,2.0899581909179688,5.277577268868246,0.0,0.23135995864868164,-1.7180302778827112,-0.0,0.00863607693463564,1.0121098756790161,-0.0,-0.004302667453885078,1.2158160209655762,0.0006010843790136278,0.03230100870132446
133.0,168.0,-3.9637,2.0189,8.8116,-0.0742,0.0312,-0.1058,-2.456820150414938,0.0,5.458254337310791,-0.9268262982368469,-0.0,2.111847162246704,5.2775935409362695,0.0,0.22873544692993164,-1.7180541197406214,-0.0,0.004258626140654087,1.0121138095855713,-0.0,0.008834755048155785,1.2157435417175293,0.0005701672635041177,-0.012853967025876045
133.0,168.0,-3.9637,2.0189,8.8116,-0.0742,0.0312,-0.1058,-2.4568363628783167,0.0,5.412642478942871,-0.9268625974655151,-0.0,2.091110944747925,5.277613627701559,0.0,0.2281073033809662,-1.7180383841144007,-0.0,0.001431395998224616,1.0120621919631958,-0.0,0.009209279902279377,1.215755820274353,0.0004329652292653918,0.03637108579277992
133.0,168.0,-3.9637,2.0189,8.8116,-0.0742,0.0312,-0.1058,-2.4568520985045375,0.0,5.424314022064209,-0.9268336892127991,-0.0,2.0778207778930664,5.277601825981893,0.0,0.23240526020526886,-1.7180584112750452,-0.0,-0.007779608480632305,1.0120502710342407,-0.0,-0.0010723546147346497,1.2158000469207764,0.0002731728891376406,-0.05414556711912155
133.0,168.0,-3.9637,2.0189,8.8116,-0.0742,0.0312,-0.1058,-2.4568563900389613,0.0,5.450946807861328,-0.9268222451210022,-0.0,2.123443841934204,5.277577268868246,0.0,0.22285109758377075,-1.7180498282061976,-0.0,0.011878779157996178,1.012117862701416,-0.0,0.006733499467372894,1.215831995010376,0.00021978869335725904,0.007985532283782959
133.0,168.0,-3.9637,2.0189,8.8116,-0.0742,0.0312,-0.1058,-2.456884046594137,0.0,5.4465508460998535,-0.9268500804901123,-0.0,2.0594370365142822,5.277585494309225,0.0,0.22332261502742767,-1.7179821173297327,-0.0,0.015252964571118355,1.012046217918396,-0.0,-0.0035722225438803434,1.2158361673355103,0.00019170314772054553,0.020798461511731148
133.0,168.0,-3.9637,2.0189,8.8116,-0.0742,0.0312,-0.1058,-2.456900259057516,0.0,5.4294586181640625,-0.9268543124198914,-0.0,2.0572926998138428,5.277597653656759,0.0,0.22852018475532532,-1.7180264631854456,-0.0,0.01867910474538803,1.0120700597763062,-0.0,0.008574597537517548,1.2158241271972656,0.0001965445844689384,0.024715296924114227
133.0,168.0,-3.9637,2.0189,8.8116,-0.0742,0.0312,-0.1058,-2.4568683109679164,-0.00036814328632317483,5.427114486694336,-0.9268460273742676,-0.0,2.1404004096984863,5.277613687306204,0.0,0.22533059120178223,-1.7180383841144007,-0.0,0.008516540750861168,1.0120460987091064,-0.0,-0.0037863468751311302,1.2158119678497314,0.0001771955721778795,0.002914407290518284
133.0,168.0,-3.9637,2.0189,8.8116,-0.0742,0.0312,-0.1058,-2.4568802318968714,-0.0003364103031344712,5.384583473205566,-0.9269106388092041,-0.0,2.1194608211517334,5.277577209263601,0.0,0.2185601443052292,-1.7180383841144007,-0.0,0.019189655780792236,1.0120779275894165,-0.0,-0.01541993860155344,1.215823769569397,0.00015663581143599004,-0.012764953076839447
133.0,168.0,-3.9637,2.0189,8.8116,-0.0742,0.0312,-0.1058,-2.4568640194334925,-0.0002834323386196047,5.465141296386719,-0.9268345832824707,-0.0,2.090559482574463,5.277645635395803,0.0,0.22092753648757935,-1.7180779615985315,-0.0,-0.0029888516291975975,1.0120619535446167,-0.0,8.419179357588291e-05,1.2157881259918213,0.00014409660070668906,-0.04321368783712387
133.0,168.0,-3.9637,2.0189,8.8116,-0.0742,0.0312,-0.1058,-2.4568964443602503,-0.000195753644220531,5.394020080566406,-0.9268386960029602,-0.0,2.0804479122161865,5.277593600540914,0.0,0.21993142366409302,-1.718081299458639,-0.0,-0.0010249362094327807,1.0120142698287964,-0.0,-0.0007284120656549931,1.2158560752868652,0.0001727235794533044,-0.0005120025016367435
131.0,170.0,-3.9242,1.8395,8.8624,-0.0751,0.0313,-0.1052,-2.4568878612914027,-0.00017272666445933282,5.4460039138793945,-0.9268140196800232,-0.0,2.105422019958496,5.277597653656759,0.0,0.23090896010398865,-1.7180855909930628,-0.0,0.019152332097291946,1.012038230895996,-0.0,-0.012444551102817059,1.2158799171447754,0.002071588998660445,-0.0336800254881382
131.0,170.0,-3.9242,1.8395,8.8624,-0.0751,0.0313,-0.1052,-2.4568406544127406,-0.00010011870472226292,5.436858654022217,-0.9268625378608704,-0.0,2.1213929653167725,5.277597236424246,0.0,0.23881852626800537,-1.7180541197406214,-0.0,0.0025060921907424927,1.0120819807052612,-0.0,0.005849609151482582,1.2159119844436646,0.004082109779119492,0.037293627858161926
131.0,170.0,-3.9242,1.8395,8.8624,-0.0751,0.0313,-0.1052,-2.456816335717672,-8.168713975464925e-05,5.435245990753174,-0.9268142580986023,-0.0,2.0857601165771484,5.277593600540914,0.0,0.23623213171958923,-1.718086067830221,-0.0,0.00520735140889883,1.0120939016342163,-0.0,0.006666622124612331,1.2158676385879517,0.0020284652709960938,0.011284148320555687
131.0,170.0,-3.9242,1.8395,8.8624,-0.0751,0.0313,-0.1052,-2.4568401775755824,-7.28687082300894e-05,5.412387371063232,-0.9268140196800232,5.8782276028068736e-05,2.1080751419067383,5.277585494309225,0.0,0.2235497385263443,-1.718069855366842,-0.0,-0.0002577087434474379,1.012146234512329,-0.0,0.0065035452134907246,1.2158520221710205,1.0682499578251736e-06,0.02853635512292385
131.0,170.0,-3.9242,1.8395,8.8624,-0.0751,0.0313,-0.1052,-2.456844469110006,-6.741067772964016e-05,5.425772666931152,-0.9267827868461609,5.3588111768476665e-05,2.0795493125915527,5.277581321984091,0.0,0.23887138068675995,-1.7180574576007288,-0.0,-0.009998888708651066,1.012154221534729,-0.0,0.0009809776674956083,1.2158763408660889,-0.000791906553786248,0.012265517376363277
131.0,170.0,-3.9242,1.8395,8.8624,-0.0751,0.0313,-0.1052,-2.456872125665182,-8.17196341813542e-05,5.47038459777832,-0.9268344640731812,4.788562364410609e-05,2.083449363708496,5.2775489566619775,0.0,0.23345205187797546,-1.7180655638324183,-0.0,0.004115349147468805,1.0121018886566162,-0.0,0.0054869456216692924,1.2157880067825317,-0.004217533860355616,-0.012849530205130577
131.0,170.0,-3.9242,1.8395,8.8624,-0.0751,0.0313,-0.1052,-2.456872125665182,-4.023386281915009e-05,5.436389923095703,-0.9268060922622681,4.328006616560742e-05,2.095393180847168,5.277524876385488,0.0,0.2166709005832672,-1.7180617491351526,-0.0,0.007556508295238018,1.0121376514434814,-0.0,0.0023965686559677124,1.215752124786377,-0.0039020085241645575,0.007819493301212788
131.0,170.0,-3.9242,1.8395,8.8624,-0.0751,0.0313,-0.1052,-2.4568640194334925,-4.491722575039603e-05,5.411605358123779,-0.926862359046936,4.036822429043241e-05,2.1124000549316406,5.277545082360067,-0.0006896034465171397,0.21625909209251404,-1.71812612215151,-0.0,0.0037487975787371397,1.0120741128921509,-0.0,0.005826184991747141,1.215659499168396,-0.0034557173494249582,0.03329142928123474
131.0,170.0,-3.9242,1.8395,8.8624,-0.0751,0.0313,-0.1052,-2.456940313378805,-6.125972140580416e-05,5.433304309844971,-0.9267705678939819,3.7044996133772656e-05,2.058053731918335,5.277533280640402,-0.0007700371206738055,0.21928837895393372,-1.718086067830221,-0.0,0.009804802015423775,1.0120383501052856,-0.0,0.004446937702596188,1.215696096420288,-0.005088627338409424,0.00792213249951601
131.0,170.0,-3.9242,1.8395,8.8624,-0.0751,0.0313,-0.1052,-2.4568878612914027,-5.735689410357736e-05,5.424027442932129,-0.9268509149551392,3.4890796086983755e-05,2.0979790687561035,5.277585971146383,-0.0005126520991325378,0.21835382282733917,-1.718069855366842,-0.0,0.006332906894385815,1.0120031833648682,-0.0,0.005312394350767136,1.2156238555908203,-0.00611902354285121,0.0026182783767580986
131.0,170.0,-3.9242,1.8395,8.8624,-0.0751,0.0313,-0.1052,-2.4568683109679164,-0.00010230336192762479,5.424856185913086,-0.9268263578414917,7.89824771345593e-05,2.0931174755096436,5.277529465943136,-0.0003520279424265027,0.22675028443336487,-1.7180622259723108,-0.0,0.0072246091440320015,1.0120741128921509,-0.0,-0.0029013417661190033,1.2156161069869995,-0.004994876217097044,0.007588319480419159
131.0,170.0,-3.9242,1.8395,8.8624,-0.0751,0.0313,-0.1052,-2.456848283807272,-5.1877786972909234e-06,5.4374494552612305,-0.9268344044685364,0.002232479862868786,2.1160569190979004,5.277509379177847,-0.00028507711249403656,0.23072612285614014,-1.7181461493121546,-0.0,0.0007012216374278069,1.011962890625,-0.0,0.0025063385255634785,1.2156527042388916,-0.002523087663576007,-0.020217593759298325
131.0,170.0,-3.9242,1.8395,8.8624,-0.0751,0.0313,-0.1052,-2.4568759403624476,-1.6807742535002862e-13,5.450370788574219,-0.9267666935920715,0.003561121877282858,2.152331829071045,5.277557241707601,-0.00022742351575288922,0.23465922474861145,-1.7180655638324183,-0.0,0.0027199278119951487,1.0120978355407715,-0.0,0.0018754336051642895,1.2156325578689575,-0.0005680963513441384,1.1861324310302734e-05
131.0,168.0,-3.9434,2.01,9.1567,-0.0334,0.0327,-0.1095,-2.4568640194334925,-4.058872126715079e-19,5.401445388793945,-0.9266709685325623,0.005304351449012756,2.135890483856201,5.277497100621023,-0.00019747523765545338,0.2268291562795639,-1.7180817762957972,-0.0,0.015169047750532627,1.012054204940796,-0.0,-0.006539598572999239,1.2156243324279785,-0.00014667661162093282,0.05681663751602173
131.0,168.0,-3.9434,2.01,9.1567,-0.0334,0.0327,-0.1095,-2.4568282566466273,-1.3150229630604625e-26,5.421356201171875,-0.9266791343688965,0.00791254173964262,2.1081132888793945,5.277521300106802,-0.00020127625612076372,0.22271910309791565,-1.7181018034564417,-0.0,-0.003874765010550618,1.0121018886566162,-0.0,3.218557685613632e-05,1.2156763076782227,0.0025851340033113956,0.06525703519582748
131.0,168.0,-3.9434,2.01,9.1567,-0.0334,0.0327,-0.1095,-2.4569083652892054,-3.175625906737242e-32,5.412923812866211,-0.926582932472229,0.007582352962344885,2.0989863872528076,5.277473377972402,-0.00021028636547271162,0.20890018343925476,-1.7180936972247522,-0.0,0.013771483674645424,1.012034296989441,-0.0,0.0031021549366414547,1.215696096420288,0.0037868553772568703,0.09666295349597931
131.0,168.0,-3.9434,2.01,9.1567,-0.0334,0.0327,-0.1095,-2.4568802318968714,-1.0288627597750315e-39,5.410102844238281,-0.926599383354187,0.005441467277705669,2.119297981262207,5.277481603413381,-0.002637445228174329,0.22375935316085815,-1.7180975119220179,-0.0,0.002807500772178173,1.0120700597763062,-0.0,-0.0031810463406145573,1.2157161235809326,0.004977990873157978,0.1739216446876526
131.0,168.0,-3.9434,2.01,9.1567,-0.0334,0.0327,-0.1095,-2.456872125665182,-2.802596928649634e-45,5.396105766296387,-0.9265429377555847,0.003661312162876129,2.042466878890991,5.277453112393179,-0.0032225854229182005,0.21019452810287476,-1.7181223074542444,-6.686993583571166e-05,-0.015845896676182747,1.0120422840118408,-0.0,0.0026263506151735783,1.215792179107666,0.007587372791022062,0.18577641248703003
131.0,168.0,-3.9434,2.01,9.1567,-0.0334,0.0327,-0.1095,-2.456912179986471,0.0,5.386883735656738,-0.9265790581703186,0.0014976606471464038,2.106551170349121,5.277429330139913,-0.004839954897761345,0.20479601621627808,-1.7181180159198206,-7.804583583492786e-05,-0.016384564340114594,1.0120190382003784,-0.0,-0.002488980535417795,1.2158560752868652,0.009768912568688393,0.23609651625156403
131.0,168.0,-3.9434,2.01,9.1567,-0.0334,0.0327,-0.1095,-2.4569083652892054,0.0,5.405270099639893,-0.9265351295471191,0.0008170325309038162,2.1333861351013184,5.277381408005514,-0.009046277962625027,0.2060173749923706,-1.7181060949908655,-8.60011568875052e-05,-0.014560976065695286,1.012045979499817,-0.0,0.010380369611084461,1.2158958911895752,0.009467637166380882,0.29761025309562683
131.0,168.0,-3.9434,2.01,9.1567,-0.0334,0.0327,-0.1095,-2.45690455059194,0.0,5.36527156829834,-0.9265150427818298,0.0005134620005264878,2.129016876220703,5.277305054455557,-0.010173911228775978,0.2112118899822235,-1.7180693785296839,-8.271575643448159e-05,-0.030270932242274284,1.0120224952697754,-0.0,-0.003703067544847727,1.2159676551818848,0.008930854499340057,0.27262401580810547
131.0,168.0,-3.9434,2.01,9.1567,-0.0334,0.0327,-0.1095,-2.4568683109679164,0.0,5.4156389236450195,-0.9265355467796326,0.0023502064868807793,2.073840618133545,5.277233052044668,-0.007559903897345066,0.20046572387218475,-1.7181056181537073,-8.981527207652107e-05,-0.03368832543492317,1.0120383501052856,-0.0,-0.0031514305155724287,1.2160595655441284,0.008581766858696938,0.28763943910598755
131.0,168.0,-3.9434,2.01,9.1567,-0.0334,0.0327,-0.1095,-2.4568964443602503,0.0,5.372434616088867,-0.9265154004096985,0.004265316762030125,2.057663917541504,5.277197110443868,-0.004075732082128525,0.1934436857700348,-1.7181299368487757,-0.00023373501608148217,-0.03653000295162201,1.0120739936828613,-0.0,-0.007062274031341076,1.216111421585083,0.011891820468008518,0.31708142161369324
131.0,168.0,-3.9434,2.01,9.1567,-0.0334,0.0327,-0.1095,-2.4568964443602503,0.0,5.416256427764893,-0.9264433979988098,0.006788640283048153,2.1318681240081787,5.277201163559713,-0.001406512688845396,0.19651591777801514,-1.71812612215151,-0.00023281505855266005,-0.05593907833099365,1.012058138847351,-0.0,-0.005823822692036629,1.216174840927124,0.014548159204423428,0.32474392652511597
131.0,168.0,-3.9434,2.01,9.1567,-0.0334,0.0327,-0.1095,-2.456848283807272,0.0,5.437884330749512,-0.9263715147972107,0.00900627113878727,2.1079273223876953,5.277136730938711,-0.0009581311023794115,0.18754109740257263,-1.7181056181537073,-0.00024050447973422706,-0.045968133956193924,1.012058138847351,-0.0,-0.01747627556324005,1.2162789106369019,0.015269549563527107,0.3500952124595642
136.0,176.0,-4.005,1.7635,8.8666,-0.0556,0.0238,-0.0874,-2.4569202862181605,0.0,5.391997814178467,-0.92629075050354,0.010556966066360474,2.1360154151916504,5.277173149376669,-0.002454946283251047,0.18486502766609192,-1.718142334614889,-0.000342533370712772,-0.04540988802909851,1.0120104551315308,-0.0,-0.015020321123301983,1.2164146900177002,0.017623670399188995,0.40058639645576477
136.0,176.0,-4.005,1.7635,8.8666,-0.0556,0.0238,-0.0874,-2.4568802318968714,0.0,5.400933265686035,-0.9262833595275879,0.01121531892567873,2.1449713706970215,5.277124810009756,-0.004365176893770695,0.17685657739639282,-1.7181780974017542,-0.00033706988324411213,-0.05421891808509827,1.0120939016342163,-0.0,-0.010539395734667778,1.2165629863739014,0.02017391286790371,0.35588592290878296
136.0,176.0,-4.005,1.7635,8.8666,-0.0556,0.0238,-0.0874,-2.4568802318968714,0.0,5.329072952270508,-0.9261435866355896,0.012430918402969837,2.12035870552063,5.277072953968801,-0.006633813958615065,0.16718126833438873,-1.7180975119220179,-0.0003153994621243328,-0.051695097237825394,1.0120152235031128,-0.0,0.0062733422964811325,1.21670663356781,0.02491718716919422,0.43053895235061646
136.0,176.0,-4.005,1.7635,8.8666,-0.0556,0.0238,-0.0874,-2.456848283807272,0.0,5.366642951965332,-0.9260595440864563,0.012700935825705528,2.130992889404297,5.277032840042867,-0.007891993038356304,0.16626590490341187,-1.7181337515460413,-0.00035570887848734856,-0.057255055755376816,1.0120303630828857,-0.0,-0.015883252024650574,1.2168821096420288,0.029378140345215797,0.42428797483444214
136.0,176.0,-4.005,1.7635,8.8666,-0.0556,0.0238,-0.0874,-2.4568363628783167,0.0,5.3561320304870605,-0.9259321093559265,0.01467981655150652,2.07049298286438,5.277017342835226,-0.007388046011328697,0.18184034526348114,-1.7181380430804651,-0.00029715424170717597,-0.05636149272322655,1.0120270252227783,-0.0,-0.01127675175666809,1.217093825340271,0.0356767401099205,0.44345441460609436
136.0,176.0,-4.005,1.7635,8.8666,-0.0556,0.0238,-0.0874,-2.4568563900389613,0.0,5.364455223083496,-0.92583167552948,0.0156303308904171,2.126823902130127,5.276896226197042,-0.006230874918401241,0.1861577183008194,-1.7181218306170862,-0.00024800136452540755,-0.059715621173381805,1.0120344161987305,-0.0,-0.009637288749217987,1.2172892093658447,0.037685200572013855,0.4660661220550537
136.0,176.0,-4.005,1.7635,8.8666,-0.0556,0.0238,-0.0874,-2.456872125665182,0.0,5.3618927001953125,-0.9256969094276428,0.017237795516848564,2.0876283645629883,5.276844310551443,-0.005855548661202192,0.17391373217105865,-1.7181499640094202,-0.00024378263333346695,-0.04897506535053253,1.012026309967041,-0.0,0.00048376352060586214,1.217600703239441,0.04012385383248329,0.44887858629226685
136.0,176.0,-4.005,1.7635,8.8666,-0.0556,0.0238,-0.0874,-2.4568563900389613,0.0,5.366529941558838,-0.9256014823913574,0.018984196707606316,2.16017484664917,5.276800262718954,-0.006356969941407442,0.156027153134346,-1.7181299368487757,-0.00020652319653891027,-0.05722604691982269,1.0120383501052856,-0.0,-0.010262358002364635,1.2179361581802368,0.04061046615242958,0.4485926032066345
136.0,176.0,-4.005,1.7635,8.8666,-0.0556,0.0238,-0.0874,-2.456860204736227,0.0,5.382717609405518,-0.9255014061927795,0.018760813400149345,2.1813273429870605,5.276796686440267,-0.007642452139407396,0.15740960836410522,-1.7181380430804651,-0.0001852635177783668,-0.04997977986931801,1.012054204940796,-0.0,-0.014602924697101116,1.2182159423828125,0.04163440689444542,0.42277467250823975
136.0,176.0,-4.005,1.7635,8.8666,-0.0556,0.0238,-0.0874,-2.4568640194334925,0.0,5.34980583190918,-0.9253497123718262,0.016679419204592705,2.145920991897583,5.276700067311086,-0.00894849095493555,0.15528976917266846,-1.7181499640094202,-0.00016290524217765778,-0.04536157846450806,1.0120152235031128,-0.0,-0.0007159626111388206,1.218526840209961,0.04310929402709007,0.4142182469367981
136.0,176.0,-4.005,1.7635,8.8666,-0.0556,0.0238,-0.0874,-2.456848283807272,0.0,5.346384525299072,-0.925229549407959,0.015222509391605854,2.115168571472168,5.2766645429428,-0.009982569143176079,0.1636347770690918,-1.7181299368487757,-0.0001493843737989664,-0.050868891179561615,1.012066125869751,-0.0,-0.008896691724658012,1.218799114227295,0.044052209705114365,0.3854674696922302
136.0,176.0,-4.005,1.7635,8.8666,-0.0556,0.0238,-0.0874,-2.4568401775755824,0.0,5.389835834503174,-0.9251222610473633,0.012521486729383469,2.1402134895324707,5.27658765295104,-0.010086623020470142,0.15374699234962463,-1.7181380430804651,-0.00011208452633582056,-0.04843088984489441,1.0120899677276611,-0.0,0.004942696075886488,1.2191380262374878,0.04575684666633606,0.40473389625549316
136.0,176.0,-4.005,1.7635,8.8666,-0.0556,0.0238,-0.0874,-2.456872125665182,0.0,5.369328498840332,-0.9250181913375854,0.010675477795302868,2.1843764781951904,5.276467907219686,-0.009931307286024094,0.14784619212150574,-1.718142334614889,-0.00010429040412418544,-0.03557316213846207,1.012038230895996,-0.0,-0.0020029661245644093,1.2194533348083496,0.04898064583539963,0.4017612934112549
132.0,174.0,-4.0092,2.3521,8.8594,-0.0258,0.0157,-0.0765,-2.4568563900389613,0.0,5.331333160400391,-0.9249983429908752,0.008344706147909164,2.172213315963745,5.276432263642111,-0.009430663660168648,0.16373977065086365,-1.7181256453143519,-9.544221393298358e-05,-0.04889550805091858,1.0120700597763062,-0.0,-0.0006237023044377565,1.219805121421814,0.05083011835813522,0.3622198700904846
132.0,174.0,-4.0092,2.3521,8.8594,-0.0258,0.0157,-0.0765,-2.4568244419493617,0.0,5.3502516746521,-0.9249105453491211,0.006667046807706356,2.183198928833008,5.276363718300619,-0.007406174670904875,0.14910325407981873,-1.7180655638324183,-8.973244985099882e-05,-0.0412016287446022,1.0120344161987305,-0.0,-0.01060955785214901,1.220071792602539,0.0507558137178421,0.4057934284210205
132.0,174.0,-4.0092,2.3521,8.8594,-0.0258,0.0157,-0.0765,-2.456884046594137,0.0,5.393308639526367,-0.9248626828193665,0.004368026740849018,2.140245199203491,5.276271509915151,-0.006698348559439182,0.14873571693897247,-1.718142334614889,-8.31038414617069e-05,-0.03133538365364075,1.01199471950531,-0.0,8.629466174170375e-05,1.220503568649292,0.048378922045230865,0.3303000330924988
132.0,174.0,-4.0092,2.3521,8.8594,-0.0258,0.0157,-0.0765,-2.456844469110006,0.0,5.419922828674316,-0.9248870611190796,0.0021650944836437702,2.136708974838257,5.276263940125265,-0.007382403593510389,0.14988960325717926,-1.7181137243853968,-7.87413155194372e-05,-0.0439826101064682,1.0120741128921509,-0.0,0.004475850611925125,1.220831036567688,0.04521126672625542,0.33521080017089844
132.0,174.0,-4.0092,2.3521,8.8594,-0.0258,0.0157,-0.0765,-2.4568759403624476,0.0,5.393304824829102,-0.9248668551445007,0.0008867962751537561,2.1320695877075195,5.2761555192764185,-0.010462391190230846,0.15789645910263062,-1.7181013266192835,-7.359049777733162e-05,-0.047708965837955475,1.011982798576355,-0.0,0.0034222370013594627,1.2211743593215942,0.042641833424568176,0.34643617272377014
132.0,174.0,-4.0092,2.3521,8.8594,-0.0258,0.0157,-0.0765,-2.4568640194334925,0.0,5.389981269836426,-0.9249112606048584,0.0005295471055433154,2.1905229091644287,5.276071774750509,-0.014018607325851917,0.12442098557949066,-1.7181013266192835,-7.014891889411956e-05,-0.025370046496391296,1.0120582580566406,-0.0,-0.00446271663531661,1.2214778661727905,0.04339411109685898,0.2999958097934723
132.0,174.0,-4.0092,2.3521,8.8594,-0.0258,0.0157,-0.0765,-2.4568759403624476,-5.7135771808214386e-11,5.37690544128418,-0.9248825311660767,0.00034367022453807294,2.1785354614257812,5.275923418789663,-0.022037912160158157,0.14007556438446045,-1.7181256453143519,-6.603149086004123e-05,-0.035440266132354736,1.0120422840118408,-0.0,0.005538381170481443,1.2218490839004517,0.04659959673881531,0.3669639825820923
132.0,174.0,-4.0092,2.3521,8.8594,-0.0258,0.0157,-0.0765,-2.456916471520895,-1.8511263997268005e-18,5.39139986038208,-0.9249228239059448,0.00026323815109208226,2.1935105323791504,5.275726783066549,-0.02860097587108612,0.12804055213928223,-1.7181099096881312,-6.237068009795621e-05,-0.033565301448106766,1.0121136903762817,-0.0,0.005088239908218384,1.2221722602844238,0.047458715736866,0.29797619581222534
132.0,174.0,-4.0092,2.3521,8.8594,-0.0258,0.0157,-0.0765,-2.456900259057516,-4.4702522911122016e-24,5.364908218383789,-0.924850344657898,0.0002239345631096512,2.169797897338867,5.275550830155172,-0.03750908747315407,0.12077774107456207,-1.7181299368487757,-5.9880829212488607e-05,-0.029313184320926666,1.0120700597763062,-0.0,-0.006786336190998554,1.2224115133285522,0.046151302754879,0.36807405948638916
132.0,174.0,-4.0092,2.3521,8.8594,-0.0258,0.0157,-0.0765,-2.4568802318968714,-1.4483049605520853e-31,5.41733980178833,-0.9249025583267212,0.00018675757746677846,2.1634764671325684,5.275214600353994,-0.053988877683877945,0.12640029191970825,-1.7180975119220179,-4.558176078717224e-05,-0.013346612453460693,1.0120460987091064,-0.0,0.003125513903796673,1.2227708101272583,0.04115328937768936,0.2551474869251251
132.0,174.0,-4.0092,2.3521,8.8594,-0.0258,0.0157,-0.0765,-2.4568520985045375,-3.4974860393965277e-37,5.41827392578125,-0.9249067306518555,0.00016607884026598185,2.162782669067383,5.274809884815969,-0.07101231068372726,0.1154170036315918,-1.7180779615985315,-4.382270708447322e-05,-0.023150064051151276,1.0120501518249512,-0.0,-0.0022939820773899555,1.2230265140533447,0.037544041872024536,0.2645125985145569
132.0,174.0,-4.0092,2.3521,8.8594,-0.0258,0.0157,-0.0765,-2.4568926296629847,-1.1210387714598537e-44,5.393109321594238,-0.9248430728912354,0.0001736574195092544,2.165764570236206,5.274148273258962,-0.09468686580657959,0.1054953932762146,-1.7181056181537073,-4.178796734777279e-05,-0.006677638273686171,1.0120700597763062,-0.0,0.0010899173794314265,1.2233539819717407,0.034154172986745834,0.2750284671783447
132.0,174.0,-4.0092,2.3521,8.8594,-0.0258,0.0157,-0.0765,-2.456860204736227,0.0,5.38983154296875,-0.9249231219291687,0.00015837748651392758,2.2246270179748535,5.27355186918334,-0.10684989392757416,0.09778574109077454,-1.7180936972247522,-4.0381750295637175e-05,-0.016882294788956642,1.0120859146118164,-0.0,-0.009460053406655788,1.223569631576538,0.034013744443655014,0.22843652963638306
132.0,168.0,-3.8094,2.0973,9.1902,-0.0605,-0.0889,-0.0944,-2.4568563900389613,0.0,5.3678998947143555,-0.924858570098877,0.0001653725776122883,2.162482976913452,5.272674548416891,-0.09968223422765732,0.08998587727546692,-1.7181099096881312,-2.192850701021598e-08,-0.0014223665930330753,1.0120265483856201,-0.0,0.004756497219204903,1.2237884998321533,0.03225176781415939,0.21879151463508606
132.0,168.0,-3.8094,2.0973,9.1902,-0.0605,-0.0889,-0.0944,-2.4569083652892054,0.0,5.418490409851074,-0.9248828887939453,0.0001752001844579354,2.168337106704712,5.272142517357626,-0.08875835686922073,0.09805072844028473,-1.7181223074542444,-6.103880421937102e-12,-0.01694672927260399,1.0120230913162231,-0.0,2.9968563467264175e-05,1.2239723205566406,0.030394427478313446,0.15659648180007935
132.0,168.0,-3.8094,2.0973,9.1902,-0.0605,-0.0889,-0.0944,-2.4568520985045375,0.0,5.385848045349121,-0.9248306751251221,0.00015965993225108832,2.198368787765503,5.271433758526602,-0.10411056876182556,0.10096120834350586,-1.7181380430804651,-1.1093500512938926e-16,-0.01613435335457325,1.012078046798706,-0.0,-0.0029942935798317194,1.224179744720459,0.025868158787488937,0.16042006015777588
132.0,168.0,-3.8094,2.0973,9.1902,-0.0605,-0.0889,-0.0944,-2.456900259057516,0.0,5.386788368225098,-0.9248828887939453,0.0001497014018241316,2.1487412452697754,5.270715880184927,-0.12753726541996002,0.10648351907730103,-1.7180693785296839,-3.087916925448737e-20,-0.008336842060089111,1.01200270652771,-0.0,4.059553612023592e-05,1.2243517637252808,0.02280449867248535,0.15859702229499817
132.0,168.0,-3.8094,2.0973,9.1902,-0.0605,-0.0889,-0.0944,-2.456924100915426,0.0,5.363120079040527,-0.9249067306518555,0.00013820714957546443,2.1785106658935547,5.269638585835256,-0.12972773611545563,0.09784106910228729,-1.7181018034564417,-5.612136931674347e-25,-0.010922841727733612,1.012066125869751,-0.0,0.00026941392570734024,1.2245274782180786,0.019336393103003502,0.1288680136203766
132.0,168.0,-3.8094,2.0973,9.1902,-0.0605,-0.0889,-0.0944,-2.4568759403624476,0.0,5.376506805419922,-0.9249067306518555,0.0001143465779023245,2.18465518951416,5.2689265487487695,-0.1215405985713005,0.09506843239068985,-1.718081299458639,-1.5621590927851595e-28,-0.00763572147116065,1.0119825601577759,-0.0,-0.005857107695192099,1.2245787382125854,0.01682077720761299,0.12800630927085876
132.0,168.0,-3.8094,2.0973,9.1902,-0.0605,-0.0889,-0.0944,-2.456924100915426,-6.611552817048505e-05,5.409958839416504,-0.9248464703559875,0.00010660681437002495,2.2231667041778564,5.267916846066274,-0.12687648832798004,0.09369976818561554,-1.7180617491351526,-6.591712065073807e-09,-0.007261838298290968,1.0120582580566406,-0.0,0.010785643011331558,1.224714756011963,0.012930712662637234,0.08590254187583923
132.0,168.0,-3.8094,2.0973,9.1902,-0.0605,-0.0889,-0.0944,-2.456924100915426,-8.482507837470621e-05,5.428799629211426,-0.9248948097229004,9.984854841604829e-05,2.209097385406494,5.266851711064138,-0.14965002238750458,0.09437818825244904,-1.7180975119220179,-1.1980110100565794e-13,-0.006887008436024189,1.012058138847351,-0.0,-0.019154086709022522,1.2247830629348755,0.007697715424001217,0.07250475883483887
132.0,168.0,-3.8094,2.0973,9.1902,-0.0605,-0.0889,-0.0944,-2.4568926296629847,-6.422804290195927e-05,5.410752296447754,-0.9248430132865906,0.00010839031165232882,2.1686084270477295,5.265897917538442,-0.14828801155090332,0.08945877850055695,-1.718086067830221,-3.3347078328470965e-17,-0.007920675911009312,1.0120348930358887,-0.0,0.0010745859472081065,1.2248187065124512,0.00376515812240541,0.04549088329076767
132.0,168.0,-3.8094,2.0973,9.1902,-0.0605,-0.0889,-0.0944,-2.456916471520895,-4.5032251364318654e-05,5.444923400878906,-0.9248787760734558,0.00010271711653331295,2.202792167663574,5.264853167324819,-0.14248612523078918,0.10309836268424988,-1.7180898825274866,-6.060665611341783e-22,0.011004160158336163,1.0120619535446167,-0.0,-0.008264433592557907,1.2248225212097168,0.0009966660290956497,0.02510402351617813
132.0,168.0,-3.8094,2.0973,9.1902,-0.0605,-0.0889,-0.0944,-2.4568964443602503,-4.282305235392414e-05,5.40838623046875,-0.9248948097229004,7.498668855987489e-05,2.193972110748291,5.2638834593589685,-0.16544361412525177,0.1061633974313736,-1.7181099096881312,-1.6870083815800467e-25,0.004669064190238714,1.0120230913162231,-0.0,-0.014842239208519459,1.224806547164917,0.0005892386543564498,0.010251114144921303
132.0,168.0,-3.8094,2.0973,9.1902,-0.0605,-0.0889,-0.0944,-2.4568563900389613,-4.026837632409297e-05,5.438633441925049,-0.924903154373169,0.0008569186902604997,2.200221538543701,5.262566017895498,-0.158339262008667,0.08273980021476746,-1.718086067830221,-3.0660545165492133e-30,-0.0022351806983351707,1.0119866132736206,-0.0,-0.0054906862787902355,1.224794626235962,0.0003866209590341896,0.025580573827028275
132.0,168.0,-3.8094,2.0973,9.1902,-0.0605,-0.0889,-0.0944,-2.4569083652892054,-3.854383612633683e-05,5.399801254272461,-0.9248585104942322,0.0010072520235553384,2.206744432449341,5.261705326824941,-0.14027848839759827,0.09106343984603882,-1.7180817762957972,-8.534475614408632e-34,0.01184193603694439,1.0120819807052612,-0.0,-0.02364366315305233,1.2248225212097168,0.00024591173860244453,0.00325836893171072
133.0,172.0,-4.3352,2.0548,9.4804,-0.0548,-0.0435,-0.1174,-2.4569202862181605,-4.719843127531931e-05,5.451817989349365,-0.9248502850532532,0.0005422607064247131,2.192119598388672,5.260615813523092,-0.13722176849842072,0.11224590241909027,-1.718086067830221,-1.5510986714596043e-38,0.007446077652275562,1.012077808380127,-0.0,-0.021491318941116333,1.2247986793518066,0.00014484670828096569,-0.009937790222465992
133.0,172.0,-4.3352,2.0548,9.4804,-0.0548,-0.0435,-0.1174,-2.4568964443602503,-4.672293289331719e-05,5.437090873718262,-0.9248389601707458,0.00039822232793085277,2.146136999130249,5.259778666287222,-0.13435529172420502,0.0953318327665329,-1.7181099096881312,-4.3174005685847614e-42,0.007418046705424786,1.0120619535446167,-0.0,-0.01725662127137184,1.2247744798660278,0.00012476244592107832,-0.06108103692531586
133.0,172.0,-4.3352,2.0548,9.4804,-0.0548,-0.0435,-0.1174,-2.456855913201803,-5.483115091919899e-05,5.403250694274902,-0.924927294254303,0.0002940919657703489,2.1877009868621826,5.258870708733358,-0.11165133863687515,0.11590516567230225,-1.7180975119220179,-0.0,0.00821466650813818,1.0120460987091064,-0.0,-0.017121445387601852,1.2247905731201172,-0.00011216863640584052,0.013740264810621738
133.0,172.0,-4.3352,2.0548,9.4804,-0.0548,-0.0435,-0.1174,-2.4569441280760707,-9.936068818205968e-05,5.404812335968018,-0.9248911738395691,0.000198723457287997,2.2391560077667236,5.258221673756399,-0.10250423103570938,0.12421952933073044,-1.7180779615985315,-0.0,0.009834541007876396,1.0119789838790894,-0.0,-0.031655143946409225,1.2247625589370728,-0.0001330141822108999,-0.013415612280368805
133.0,172.0,-4.3352,2.0548,9.4804,-0.0548,-0.0435,-0.1174,-2.456936021844381,-0.00043405566248111427,5.489800453186035,-0.924850344657898,8.759027696214616e-05,2.2038979530334473,5.257288026600637,-0.12448032945394516,0.11374737322330475,-1.718097988759176,-0.0,0.013740609399974346,1.0120502710342407,-0.0,-0.03333871439099312,1.2248269319534302,-0.0005593260284513235,-0.03506425768136978
133.0,172.0,-4.3352,2.0548,9.4804,-0.0548,-0.0435,-0.1174,-2.4569083652892054,-0.0003366159799043089,5.399438858032227,-0.9248709678649902,4.189083119854331e-05,2.187093734741211,5.256543206959524,-0.13489972054958344,0.10036174952983856,-1.7180736700641077,-0.0,0.005260249599814415,1.012030839920044,-2.951790634142526e-08,-0.020145971328020096,1.2247503995895386,-0.0008690563845448196,-0.048940084874629974
133.0,172.0,-4.3352,2.0548,9.4804,-0.0548,-0.0435,-0.1174,-2.4569322071471156,-0.00016162791871465743,5.4102325439453125,-0.9248791337013245,7.062358054099604e-05,2.2038447856903076,5.255586492806234,-0.11859340220689774,0.10521874576807022,-1.7180655638324183,-0.0,0.02072731778025627,1.0120819807052612,-5.364733180260317e-13,-0.015400966629385948,1.2247467041015625,-0.0006929973606020212,0.0009901202283799648
133.0,172.0,-4.3352,2.0548,9.4804,-0.0548,-0.0435,-0.1174,-2.4569250545897425,-0.00012648312258534133,5.4350128173828125,-0.9248430728912354,0.0005501589621417224,2.180877447128296,5.254825818329611,-0.0927114188671112,0.13410988450050354,-1.7181342283831995,-0.0,0.02920619398355484,1.0120460987091064,-9.750138353201372e-18,-0.017458565533161163,1.2247748374938965,-0.00020848779240623116,-0.0640702098608017
133.0,172.0,-4.3352,2.0548,9.4804,-0.0548,-0.0435,-0.1174,-2.4568802318968714,0.00010812010441441089,5.396434783935547,-0.9248228073120117,0.003040998475626111,2.2137601375579834,5.2543136952217,-0.08975029736757278,0.13021868467330933,-1.7180655638324183,-0.0,0.022525053471326828,1.0120270252227783,-2.7139872638253698e-21,-0.03385820984840393,1.2247990369796753,-0.00015461746079381555,-0.041433945298194885
133.0,172.0,-4.3352,2.0548,9.4804,-0.0548,-0.0435,-0.1174,-2.456936021844381,8.717340097064152e-05,5.442214012145996,-0.924839198589325,0.004987806547433138,2.2450459003448486,5.253528046398916,-0.08979155123233795,0.1189160943031311,-1.7180779615985315,-0.0,0.02224629372358322,1.012054204940796,-4.932537082871455e-26,-0.031256675720214844,1.2247625589370728,-0.00011506956798257306,-0.05115937441587448
133.0,172.0,-4.3352,2.0548,9.4804,-0.0548,-0.0435,-0.1174,-2.4569441280760707,7.611377805005759e-05,5.3967084884643555,-0.9247787594795227,0.00589399179443717,2.176942825317383,5.253104018955984,-0.07935858517885208,0.12502099573612213,-1.7180975119220179,-0.0,0.01813964918255806,1.0119825601577759,-1.372989739749138e-29,-0.03193775564432144,1.2247384786605835,-9.655030589783564e-05,-0.08592501282691956
133.0,172.0,-4.3352,2.0548,9.4804,-0.0548,-0.0435,-0.1174,-2.4569202862181605,3.255097908549942e-05,5.426878929138184,-0.9246866703033447,0.004934901837259531,2.144596576690674,5.252523708134451,-0.052925676107406616,0.14885307848453522,-1.7181180159198206,-0.0,0.016463499516248703,1.0120348930358887,-2.495341244635475e-34,-0.025218788534402847,1.2247626781463623,-7.949299470055848e-05,-0.07386080175638199
133.0,172.0,-4.3352,2.0548,9.4804,-0.0548,-0.0435,-0.1174,-2.456924100915426,1.1865921578646521e-06,5.457942962646484,-0.924767255783081,0.0033117462880909443,2.196460723876953,5.252303826599874,-0.02631796896457672,0.135321706533432,-1.718086067830221,-0.0,0.031489916145801544,1.0120271444320679,-6.945874392134937e-38,-0.02225038781762123,1.2247827053070068,-7.01926983310841e-05,-0.061007581651210785
136.0,173.0,-4.1641,1.9531,9.0826,-0.0334,0.0339,-0.1197,-2.45692839244985,3.844407431286001e-14,5.424325942993164,-0.9247227907180786,0.0015272984746843576,2.1641159057617188,5.252227830677786,-0.0002763544034678489,0.16005681455135345,-1.7180336157428187,-0.0,0.007523870095610619,1.012077808380127,-1.2625699163566602e-42,-0.035745128989219666,1.224822759628296,-6.072090400266461e-05,-0.0020703573245555162
136.0,173.0,-4.1641,1.9531,9.0826,-0.0334,0.0339,-0.1197,-2.45695223430776,9.283791811624722e-20,5.448878765106201,-0.9247796535491943,0.0009329243912361562,2.2088685035705566,5.2522597191627405,0.008634171448647976,0.15652023255825043,-1.7180493513690394,-0.0,0.01420675776898861,1.0120383501052856,-0.0,-0.041431352496147156,1.2247827053070068,-2.7570442398427986e-05,-0.05286087095737457
136.0,173.0,-4.1641,1.9531,9.0826,-0.0334,0.0339,-0.1197,-2.4569202862181605,3.0078301425175042e-27,5.402107238769531,-0.9246907234191895,0.0006143354112282395,2.2031400203704834,5.252312052040853,0.0016756919212639332,0.14742620289325714,-1.7180655638324183,-0.0,0.010420383885502815,1.0120230913162231,-0.0,-0.024704067036509514,1.2247424125671387,-2.4560635210946202e-05,-0.034429870545864105
136.0,173.0,-4.1641,1.9531,9.0826,-0.0334,0.0339,-0.1197,-2.456940313378805,7.263556652567507e-33,5.427574157714844,-0.924707293510437,0.0004891061107628047,2.230414867401123,5.2522597191627405,0.00045991630759090185,0.1550654023885727,-1.7180975119220179,-0.0,0.014661094173789024,1.011997938156128,-0.0,-0.016127604991197586,1.224806785583496,-1.4742745912954547e-09,-0.011207717470824718
136.0,173.0,-4.1641,1.9531,9.0826,-0.0334,0.0339,-0.1197,-2.456872125665182,2.353298602033168e-40,5.399324417114258,-0.9247072339057922,0.00036304141394793987,2.2519631385803223,5.252275216370382,0.0002737371250987053,0.1367044299840927,-1.7181180159198206,-0.0,0.01087363064289093,1.0120501518249512,-0.0,-0.019984738901257515,1.2247986793518066,-4.7764624647033424e-17,0.014747395180165768
136.0,173.0,-4.1641,1.9531,9.0826,-0.0334,0.0339,-0.1197,-2.4568759403624476,0.0,5.435690402984619,-0.9246628880500793,0.001953412313014269,2.1988120079040527,5.252279388695516,0.0002790340222418308,0.1456296443939209,-1.718069855366842,-0.0,0.006657928228378296,1.0120391845703125,-0.0,-0.03273450583219528,1.2248225212097168,-1.1534594151864454e-22,-0.017003685235977173
136.0,173.0,-4.1641,1.9531,9.0826,-0.0334,0.0339,-0.1197,-2.45692839244985,0.0,5.440842628479004,-0.9246832132339478,0.0038295395206660032,2.2298731803894043,5.252299892693319,0.00021298028877936304,0.143267422914505,-1.718086067830221,-0.0,0.003678378649055958,1.0120187997817993,-0.0,-0.02988775633275509,1.2248708009719849,-3.7370616747104555e-30,-0.021616248413920403
136.0,173.0,-4.1641,1.9531,9.0826,-0.0334,0.0339,-0.1197,-2.4569322071471156,0.0,5.449679374694824,-0.9246315360069275,0.005240814294666052,2.2062582969665527,5.252308058529653,0.00017221194866579026,0.15126395225524902,-1.7180894056903284,-0.0,0.026073545217514038,1.0121182203292847,-0.0,-0.009007998742163181,1.224798321723938,0.0006682262173853815,-0.002881646854802966
136.0,173.0,-4.1641,1.9531,9.0826,-0.0334,0.0339,-0.1197,-2.4569479427733363,0.0,5.392489433288574,-0.9245637059211731,0.006586437579244375,2.2549495697021484,5.252303945809164,0.00015059515135362744,0.1473052054643631,-1.7180693785296839,-0.0,0.006668941117823124,1.011998176574707,-0.0,-0.025327056646347046,1.2248344421386719,0.0015941893216222525,-0.009236710146069527
136.0,173.0,-4.1641,1.9531,9.0826,-0.0334,0.0339,-0.1197,-2.4569202862181605,0.0,5.437207221984863,-0.9244716167449951,0.008043013513088226,2.21134090423584,5.252283561020651,9.675444016465917e-05,0.14757035672664642,-1.7180817762957972,-0.0,0.003777638077735901,1.012038230895996,-0.0,-0.01974671520292759,1.2248421907424927,0.0017217315034940839,0.022992141544818878
136.0,173.0,-4.1641,1.9531,9.0826,-0.0334,0.0339,-0.1197,-2.456924100915426,0.0,5.446033477783203,-0.9243950247764587,0.008298485539853573,2.242412567138672,5.252279388695516,8.736091695027426e-05,0.13540592789649963,-1.7180693785296839,-0.0,-0.001773979514837265,1.012006163597107,-0.0,-0.015501163899898529,1.2248262166976929,0.0014932843623682857,0.09924549609422684
136.0,173.0,-4.1641,1.9531,9.0826,-0.0334,0.0339,-0.1197,-2.456924100915426,0.0,5.370291233062744,-0.9244233965873718,0.009180840104818344,2.189149856567383,5.252308058529653,7.734907558187842e-05,0.1319052278995514,-1.718086067830221,-0.0,0.007459732238203287,1.0120941400527954,-0.0,-0.02044031023979187,1.2248340845108032,0.0012556485598906875,0.02458677627146244
136.0,173.0,-4.1641,1.9531,9.0826,-0.0334,0.0339,-0.1197,-2.45690455059194,0.0,5.4270172119140625,-0.9243760704994202,0.010008485056459904,2.238823175430298,5.252295720368185,7.1227244916372e-05,0.1453385055065155,-1.7181056181537073,-0.0,0.01193150319159031,1.01207435131073,-0.0,-0.0075833760201931,1.2248340845108032,0.0010490850545465946,0.044404882937669754
138.0,162.0,-3.5958,1.8329,8.9695,-0.0376,0.0287,-0.1177,-2.45692839244985,0.0,5.41190242767334,-0.9242478013038635,0.010788433253765106,2.211235523223877,5.252243387490072,-4.33901950600557e-05,0.1349082887172699,-1.7180975119220179,-0.0,0.0021258771885186434,1.0120102167129517,-0.0,-0.011167075484991074,1.2248904705047607,0.0007924921228550375,0.06350909918546677
138.0,162.0,-3.5958,1.8329,8.9695,-0.0376,0.0287,-0.1177,-2.4568845234312953,0.0,5.395088195800781,-0.9242243766784668,0.012387542054057121,2.218979835510254,5.252320277481832,-4.0885239286581054e-05,0.13771386444568634,-1.7180975119220179,-0.0,-0.0027251995634287596,1.0121140480041504,-0.0,-0.00856078416109085,1.2248504161834717,0.0006429384811781347,0.03088284656405449
138.0,162.0,-3.5958,1.8329,8.9695,-0.0376,0.0287,-0.1177,-2.4569083652892054,0.0,5.430798530578613,-0.9240803718566895,0.0158868208527565,2.260997772216797,5.252283561020651,-3.747999289771542e-05,0.1268187165260315,-1.718086067830221,-0.0,0.001605543540790677,1.0119820833206177,-0.0,-0.010144517756998539,1.224886417388916,0.00048610675730742514,0.045564960688352585
138.0,162.0,-3.5958,1.8329,8.9695,-0.0376,0.0287,-0.1177,-2.456924100915426,0.0,5.356019496917725,-0.9239644408226013,0.01940177008509636,2.263890027999878,5.252324330597677,-3.527630178723484e-05,0.12076954543590546,-1.7181056181537073,-0.0,0.005402735900133848,1.012086272239685,-0.0,-0.005537215154618025,1.2248783111572266,0.0004375674470793456,0.030561983585357666
138.0,162.0,-3.5958,1.8329,8.9695,-0.0376,0.0287,-0.1177,-2.456916471520895,0.0,5.401637077331543,-0.9237685799598694,0.02650664746761322,2.290860652923584,5.252308058529653,-4.899553823634051e-05,0.13332292437553406,-1.7180936972247522,-0.0,0.006195683032274246,1.0120187997817993,-0.0,-0.003885451005771756,1.2249466180801392,0.0006056068232282996,0.04856395721435547
138.0,162.0,-3.5958,1.8329,8.9695,-0.0376,0.0287,-0.1177,-2.456940313378805,0.0,5.392754554748535,-0.9236012697219849,0.032907258719205856,2.304598569869995,5.252215611725607,-7.551305316155776e-05,0.1400638222694397,-1.7180779615985315,-0.0,0.006841643247753382,1.0120820999145508,-0.0,-0.003130237804725766,1.224898338317871,0.000967408821452409,0.0522705502808094
138.0,162.0,-3.5958,1.8329,8.9695,-0.0376,0.0287,-0.1177,-2.4569479427733363,0.0,5.391066551208496,-0.9233296513557434,0.04220978543162346,2.301964282989502,5.2522679446037195,-0.0002739856718108058,0.12837964296340942,-1.7180894056903284,-0.0,0.005683675408363342,1.0120940208435059,-0.0,0.001941098365932703,1.2249586582183838,0.0015841604908928275,0.03841574862599373
138.0,162.0,-3.5958,1.8329,8.9695,-0.0376,0.0287,-0.1177,-2.4569760761656703,-0.0002577496925368905,5.437790393829346,-0.9229546785354614,0.05230775102972984,2.372418165206909,5.252239334374227,-0.000881887914147228,0.14181293547153473,-1.7180817762957972,-0.0,-0.00034812994999811053,1.0120621919631958,-0.0,-0.01023961789906025,1.2249220609664917,0.0019353441894054413,0.032878290861845016
138.0,162.0,-3.5958,1.8329,8.9695,-0.0376,0.0287,-0.1177,-2.456964155236715,-0.0016384251648560166,5.401310920715332,-0.9225627183914185,0.05954694375395775,2.3062949180603027,5.252215909748831,-0.0008043245761655271,0.11658051609992981,-1.7181180159198206,-0.0,0.011859530583024025,1.0120301246643066,-0.0,0.0124082425609231,1.2249422073364258,0.0019479444017633796,0.010924876667559147
138.0,162.0,-3.5958,1.8329,8.9695,-0.0376,0.0287,-0.1177,-2.4569560490050257,-0.0032186543103307486,5.401271343231201,-0.9221168756484985,0.06944017857313156,2.316920757293701,5.252227771073141,-0.0007550563896074891,0.12699317932128906,-1.718086067830221,-0.0,0.003421260043978691,1.0120419263839722,-0.0,-0.005193848162889481,1.22495436668396,0.0017172021325677633,0.018677014857530594
138.0,162.0,-3.5958,1.8329,8.9695,-0.0376,0.0287,-0.1177,-2.457036157647604,-0.004576141480356455,5.411944389343262,-0.9216093420982361,0.07826357334852219,2.3780956268310547,5.252187478333273,-0.000694424204993993,0.13154351711273193,-1.7180941740619105,-0.0,-0.0010902401991188526,1.012066125869751,-0.0,-0.007721731439232826,1.2250105142593384,0.0019365835469216108,0.0314093641936779
138.0,162.0,-3.5958,1.8329,8.9695,-0.0376,0.0287,-0.1177,-2.457088609735006,-0.006002068053930998,5.388842582702637,-0.9208980202674866,0.08954606205224991,2.3559672832489014,5.252227771073141,-0.0006019258289597929,0.1172797828912735,-1.718097988759176,-0.0,0.013568554073572159,1.0120742321014404,-0.0,-0.005129872355610132,1.2250142097473145,0.002195312175899744,-0.008906163275241852
136.0,170.0,-3.6963,1.8485,9.0909,-0.024,0.1252,-0.1284,-2.4570681057372035,-0.005121458321809769,5.37851619720459,-0.9203590750694275,0.09439460933208466,2.3723723888397217,5.252207922726431,-0.00046520569594576955,0.12311546504497528,-1.7180655638324183,-0.0,0.0009729531593620777,1.0120903253555298,-0.0,0.004859949462115765,1.22499418258667,0.0024975785054266453,-0.0013064192607998848
136.0,170.0,-3.6963,1.8485,9.0909,-0.024,0.1252,-0.1284,-2.457127710381979,-0.0024088858626782894,5.459369659423828,-0.9196658730506897,0.0972500592470169,2.346696376800537,5.252199816494741,-0.00039347843267023563,0.125269815325737,-1.7181018034564417,-0.0,0.019893541932106018,1.012022852897644,-0.0,0.0034422713797539473,1.2250465154647827,0.0030870975460857153,-0.01051563024520874
136.0,170.0,-3.6963,1.8485,9.0909,-0.024,0.1252,-0.1284,-2.457115789453024,-0.0012345949653536081,5.465070724487305,-0.9190269112586975,0.09790331870317459,2.375122547149658,5.252211856632986,-0.0004268737102393061,0.11746959388256073,-1.7180855909930628,-0.0,0.013110445812344551,1.012022852897644,-0.0,-0.003496673423796892,1.2250862121582031,0.0036948337219655514,0.05104897916316986
136.0,170.0,-3.6963,1.8485,9.0909,-0.024,0.1252,-0.1284,-2.457115789453024,-0.0006917138816788793,5.456995487213135,-0.9182004332542419,0.10535823553800583,2.3790948390960693,5.252135443478384,-0.0006075339042581618,0.10582461953163147,-1.7180822531329554,-0.0,-0.0009987098164856434,1.0120351314544678,-0.0,-0.009514044038951397,1.2250739336013794,0.004600682761520147,0.03513883054256439
136.0,170.0,-3.6963,1.8485,9.0909,-0.024,0.1252,-0.1284,-2.4570962391295375,-0.0005202673492021859,5.38010835647583,-0.9175941944122314,0.11099613457918167,2.421121597290039,5.252147364407339,-0.0013556447811424732,0.13069359958171844,-1.7180817762957972,1.7500793703106865e-08,-0.001701999455690384,1.0120341777801514,-0.0,0.008484086953103542,1.2251707315444946,0.0051968032494187355,-0.02865006774663925
136.0,170.0,-3.6963,1.8485,9.0909,-0.024,0.1252,-0.1284,-2.4571038685240687,-0.00044461339712142944,5.414850234985352,-0.916611909866333,0.12485779821872711,2.417022943496704,5.252155589848318,-0.0014129186747595668,0.10383012145757675,-1.7181099096881312,3.180683255839256e-13,0.01886594109237194,1.0120701789855957,-0.0,0.0034500437323004007,1.2251657247543335,0.006351053714752197,-0.05347181111574173
136.0,170.0,-3.6963,1.8485,9.0909,-0.024,0.1252,-0.1284,-2.457128187219137,-0.0003388906770851463,5.394008636474609,-0.9158254265785217,0.1373908668756485,2.405200242996216,5.2521318075950525,-0.0019284531008452177,0.10461091250181198,-1.718057934437887,8.853550338938e-17,0.015786470845341682,1.0120460987091064,-0.0,0.0011458642547950149,1.2251900434494019,0.007048534229397774,0.06874299794435501
136.0,170.0,-3.6963,1.8485,9.0909,-0.024,0.1252,-0.1284,-2.4571763477721156,-0.0024613344576209784,5.449785232543945,-0.914659857749939,0.14526665210723877,2.486673593521118,5.25207947471694,-0.004462134558707476,0.10385282337665558,-1.7180817762957972,1.6090890404917243e-21,0.008564991876482964,1.012030839920044,-0.0,0.0030318680219352245,1.225321888923645,0.008550557307898998,0.05151186138391495
136.0,170.0,-3.6963,1.8485,9.0909,-0.024,0.1252,-0.1284,-2.457212110558981,-0.004712319001555443,5.3846540451049805,-0.9134944081306458,0.14263881742954254,2.4606966972351074,5.252015220909872,-0.008774432353675365,0.09437762200832367,-1.7180898825274866,2.9244398796344646e-26,-0.007790561765432358,1.012038230895996,-0.0,0.0050846245139837265,1.2253292798995972,0.010797497816383839,0.0488688200712204
136.0,170.0,-3.6963,1.8485,9.0909,-0.024,0.1252,-0.1284,-2.4572559795775355,-0.003662566654384136,5.413702011108398,-0.9125811457633972,0.14820125699043274,2.4267396926879883,5.251951026707449,-0.011067246086895466,0.08832089602947235,-1.7181060949908655,8.140285966223996e-30,0.00014051393372938037,1.012054204940796,-0.0,0.004280163440853357,1.225429654121399,0.012423675507307053,0.07910331338644028
136.0,170.0,-3.6963,1.8485,9.0909,-0.024,0.1252,-0.1284,-2.4572159252562464,-0.0014194754185155034,5.411672592163086,-0.911392092704773,0.157074972987175,2.463855266571045,5.251871514111318,-0.016189899295568466,0.09187804162502289,-1.7180941740619105,1.479456871341406e-34,-0.001959670800715685,1.012066125869751,-0.0,-0.004431664943695068,1.2255253791809082,0.013247332535684109,0.060616765171289444
136.0,170.0,-3.6963,1.8485,9.0909,-0.024,0.1252,-0.1284,-2.457259794274801,-0.0008872236940078437,5.441682815551758,-0.91041100025177,0.1675167977809906,2.499281406402588,5.251723456173696,-0.024479571729898453,0.08338554203510284,-1.718086067830221,4.118121913973129e-38,-0.003643063362687826,1.01207435131073,-0.0,0.004852252546697855,1.2256410121917725,0.014819389209151268,0.09937383234500885
136.0,170.0,-3.6963,1.8485,9.0909,-0.024,0.1252,-0.1284,-2.4572679005064906,-0.002844792092218995,5.411687850952148,-0.9090424180030823,0.17600718140602112,2.464449167251587,5.251334059029379,-0.04786291718482971,0.06154428422451019,-1.7180975119220179,7.482933799494523e-43,0.0014710797695443034,1.012030005455017,-0.0,-0.01008199155330658,1.2257208824157715,0.016630245372653008,0.10033838450908661
115.0,157.0,-5.2576,1.9119,9.055,-0.0518,-0.0579,-0.1003,-2.4573122463622035,-0.004664076957851648,5.397500514984131,-0.9079896807670593,0.18116804957389832,2.5063204765319824,5.250965285092153,-0.08063261210918427,0.05270139127969742,-1.718069855366842,0.0,0.0003857538104057312,1.012066125869751,-0.0,0.013885335065424442,1.2258405685424805,0.0182105153799057,0.09140375256538391
115.0,157.0,-5.2576,1.9119,9.055,-0.0518,-0.0579,-0.1003,-2.457327981988424,-0.004593543708324432,5.405431747436523,-0.9064548015594482,0.18555830419063568,2.495983839035034,5.250008392124929,-0.1441735178232193,0.03375186771154404,-1.718086067830221,0.0,-0.00042805058183148503,1.0120187997817993,-0.0,0.003142445581033826,1.2260122299194336,0.020985005423426628,0.0949023962020874
115.0,157.0,-5.2576,1.9119,9.055,-0.0518,-0.0579,-0.1003,-2.457356115380758,-0.003949390258640051,5.389768123626709,-0.9053385257720947,0.19409207999706268,2.570816993713379,5.248954641609945,-0.17454184591770172,0.014593535102903843,-1.7180455366717737,0.0,0.007986427284777164,1.0120269060134888,-0.0,0.0001305576879531145,1.226136326789856,0.021277645602822304,0.06788287311792374
115.0,157.0,-5.2576,1.9119,9.055,-0.0518,-0.0579,-0.1003,-2.4574433765807093,-0.0031197622884064913,5.406917095184326,-0.9037644863128662,0.19775986671447754,2.5226869583129883,5.247498380928793,-0.19661669433116913,-0.009004519321024418,-1.7181018034564417,0.0,-0.0033319215290248394,1.0120021104812622,-0.0,-0.023643232882022858,1.226327657699585,0.022944016382098198,0.09764253348112106
115.0,157.0,-5.2576,1.9119,9.055,-0.0518,-0.0579,-0.1003,-2.4574161968626917,-0.0037699476815760136,5.381802082061768,-0.9025958776473999,0.19789764285087585,2.567279577255249,5.246113109379568,-0.23820564150810242,-0.025868788361549377,-1.718086067830221,0.0,0.00454717269167304,1.0120620727539062,-0.0,0.007335251662880182,1.2264714241027832,0.025715069845318794,0.0666934996843338
