ramyac6/ROB537/final_project/csv/test/good/good_116.csv
tof_0,tof_1,accelx,accely,accelz,gyrox,gyroy,gyroz,shoulder_lift_joint_position,shoulder_lift_joint_velocity,shoulder_lift_joint_effort,elbow_joint_position,elbow_joint_velocity,elbow_joint_effort,wrist_1_joint_position,wrist_1_joint_velocity,wrist_1_joint_effort,wrist_2_joint_position,wrist_2_joint_velocity,wrist_2_joint_effort,wrist_3_joint_position,wrist_3_joint_velocity,wrist_3_joint_effort,shoulder_pan_joint_position,shoulder_pan_joint_velocity,shoulder_pan_joint_effort
789.0,869.0,-0.2824,0.3876,9.405,-0.0342,0.0307,-0.1223,-1.9880277119078578,1.1056346132685621e-13,3.708217144012451,-1.6833932399749756,-0.0,1.9031703472137451,5.21398417928771,0.0,0.2682085633277893,-1.6179922262774866,0.0,-0.013845734298229218,0.8781095743179321,-0.0,0.007284050807356834,0.7765009999275208,0.0,0.02341015636920929
789.0,869.0,-0.2824,0.3876,9.405,-0.0342,0.0307,-0.1223,-1.9880439243712367,2.6699772001138426e-19,3.679396390914917,-1.683283805847168,-0.0,1.9067507982254028,5.2139678476150415,0.0,0.2716858685016632,-1.617944065724508,0.0,-0.014483870007097721,0.8781013488769531,-0.0,0.0017600695136934519,0.7764890193939209,0.0,-0.020677298307418823
789.0,869.0,-0.2824,0.3876,9.405,-0.0342,0.0307,-0.1223,-1.9880320034422816,8.650388300925134e-27,3.6954245567321777,-1.683368444442749,-0.0,1.9846328496932983,5.213936316757955,0.0,0.28585323691368103,-1.6178954283343714,0.0,0.000532899284735322,0.8781092166900635,-0.0,-0.0014066053554415703,0.7764970064163208,0.0,-0.037937015295028687
789.0,869.0,-0.2824,0.3876,9.405,-0.0342,0.0307,-0.1223,-1.9880076847472132,2.8026150087629402e-34,3.670969247817993,-1.6833239793777466,-0.0,1.9644536972045898,5.213939893036642,0.0,0.2845718562602997,-1.6179359594928187,0.0,-0.002796686952933669,0.8781054615974426,-0.0,0.006991726811975241,0.7766011953353882,0.0,-0.03723816201090813
789.0,869.0,-0.2824,0.3876,9.405,-0.0342,0.0307,-0.1223,-1.9880315266051234,9.080414048824815e-42,3.657595634460449,-1.6833447217941284,-0.0,1.9431788921356201,5.213924276619711,0.0,0.27558064460754395,-1.617927376423971,0.0,0.002294256817549467,0.8780853748321533,-0.0,-0.0054343040101230145,0.7765050530433655,0.0,0.009255572222173214
789.0,869.0,-0.2824,0.3876,9.405,-0.0342,0.0307,-0.1223,-1.9880358181395472,0.0,3.748488664627075,-1.6833157539367676,-0.0,1.9309051036834717,5.213944422989645,0.0,0.2773415446281433,-1.6179192701922815,0.0,0.0009194572921842337,0.8780853748321533,-0.0,-0.004872571676969528,0.7764890193939209,0.0,0.014075868763029575
771.0,863.0,-0.3511,0.3727,9.615,-0.0402,0.0189,-0.1121,-1.9880439243712367,0.0,3.6819753646850586,-1.683300256729126,-0.0,1.9294288158416748,5.213916468411245,0.0,0.26454538106918335,-1.6179359594928187,0.0,-0.014032160863280296,0.8781178593635559,-0.0,0.005458455067127943,0.7765291929244995,0.0,-0.010661454871296883
771.0,863.0,-0.3511,0.3727,9.615,-0.0402,0.0189,-0.1121,-1.988011976281637,0.0,3.64473295211792,-1.683361291885376,-0.0,1.8849793672561646,5.213944422989645,0.0,0.281222939491272,-1.617927376423971,0.0,-0.01611502282321453,0.8780853748321533,-0.0,-0.005921392701566219,0.7765251398086548,0.0,0.03125103935599327
771.0,863.0,-0.3511,0.3727,9.615,-0.0402,0.0189,-0.1121,-1.9879995785155238,0.0,3.662158489227295,-1.6833406686782837,-0.0,1.9060375690460205,5.213912474900045,0.0,0.2672910690307617,-1.6179636160479944,0.0,0.0006574366707354784,0.8781051635742188,-0.0,-0.011074270121753216,0.7765050530433655,0.0,0.0034036997240036726
771.0,863.0,-0.3511,0.3727,9.615,-0.0402,0.0189,-0.1121,-1.988040109673971,0.0,3.711111545562744,-1.6833653450012207,-0.0,1.8803565502166748,5.213908362179556,0.0,0.2786966562271118,-1.617920223866598,0.0,-0.0024197350721806288,0.8780694007873535,-0.0,0.008449953980743885,0.7765291929244995,0.0,-0.0004683654988184571
771.0,863.0,-0.3511,0.3727,9.615,-0.0402,0.0189,-0.1121,-1.9880238972105921,0.0,3.6966428756713867,-1.6833447217941284,-0.0,1.9106121063232422,5.213944005757131,0.0,0.27005964517593384,-1.6179640928851526,0.0,0.003808403853327036,0.878065288066864,-0.0,-0.004303670953959227,0.7765170931816101,0.0,-0.01091061532497406
771.0,863.0,-0.3511,0.3727,9.615,-0.0402,0.0189,-0.1121,-1.988040109673971,0.0,3.6855971813201904,-1.683361291885376,-0.0,1.8371849060058594,5.213955926686086,0.0,0.2772172689437866,-1.6179316679583948,0.0,-0.0017598075792193413,0.8780694007873535,-0.0,0.008001921698451042,0.7765211462974548,0.0,-0.003598384326323867
771.0,863.0,-0.3511,0.3727,9.615,-0.0402,0.0189,-0.1121,-1.9880320034422816,0.0,3.6778135299682617,-1.683344841003418,-0.0,1.9041856527328491,5.213944005757131,0.0,0.28406310081481934,-1.6179397741900843,0.0,-0.012987757101655006,0.878077507019043,-0.0,0.014185682870447636,0.7765730619430542,0.0,-0.0362556017935276
771.0,863.0,-0.3511,0.3727,9.615,-0.0402,0.0189,-0.1121,-1.9880482159056605,0.0,3.6519627571105957,-1.6833043098449707,-0.0,1.905752420425415,5.213963913708486,0.0,0.2684481143951416,-1.617960278187887,0.0,-0.002544120419770479,0.8780972957611084,-0.0,0.001193935633637011,0.7765330076217651,0.0,-0.020459938794374466
771.0,863.0,-0.3511,0.3727,9.615,-0.0402,0.0189,-0.1121,-1.988040109673971,0.0,3.695985794067383,-1.6833239793777466,-0.0,1.894500494003296,5.2139323828514,0.0,0.28439706563949585,-1.617944065724508,0.0,-0.0022008141968399286,0.878089427947998,-0.0,-0.017629513517022133,0.7765370607376099,0.0,-0.012232780456542969
771.0,863.0,-0.3511,0.3727,9.615,-0.0402,0.0189,-0.1121,-1.9880558453001917,0.0,3.6465251445770264,-1.6833571195602417,-0.0,1.919535756111145,5.213955807476797,0.0,0.27051910758018494,-1.6179397741900843,0.0,-0.009593939408659935,0.8781214356422424,-0.0,-0.00648841354995966,0.7765291929244995,0.0,-0.010071953758597374
771.0,863.0,-0.3511,0.3727,9.615,-0.0402,0.0189,-0.1121,-1.9880038700499476,0.0,3.6750295162200928,-1.6832962036132812,-0.0,1.8978925943374634,5.2139283893402,0.0,0.2721937596797943,-1.6179516951190394,0.0,0.011156855151057243,0.878065288066864,-0.0,0.012971034273505211,0.7765410542488098,0.0,-0.02764970436692238
771.0,863.0,-0.3511,0.3727,9.615,-0.0402,0.0189,-0.1121,-1.9880238972105921,0.0,3.6315693855285645,-1.6832962036132812,-0.0,1.9287350177764893,5.2139519331748865,0.0,0.27274978160858154,-1.6179192701922815,0.0,0.00719395512714982,0.8781293034553528,-0.0,0.0016564896795898676,0.7765410542488098,0.0,-0.030963022261857986
759.0,838.0,-0.3661,0.3906,9.536,-0.033,0.0234,-0.0799,-1.9880601368346156,0.0,3.6844425201416016,-1.6833447217941284,-0.0,1.8925979137420654,5.213947999268331,0.0,0.2759244740009308,-1.617927376423971,0.0,-0.0033975231926888227,0.8780812621116638,-0.0,-0.0035026855766773224,0.7765451073646545,0.0,0.03414120525121689
759.0,838.0,-0.3661,0.3906,9.536,-0.033,0.0234,-0.0799,-1.9879957638182582,0.0,3.7299747467041016,-1.6833890676498413,-0.0,1.8917235136032104,5.21397619226531,0.0,0.27872538566589355,-1.6178997198687952,0.0,-0.0062269410118460655,0.8781173825263977,-0.0,0.0007310011424124241,0.7765370607376099,0.0,-0.009999789297580719
759.0,838.0,-0.3661,0.3906,9.536,-0.033,0.0234,-0.0799,-1.9879995785155238,0.0,3.67681884765625,-1.6833643913269043,-0.0,1.8742341995239258,5.213939893036642,0.0,0.27765896916389465,-1.6179803053485315,0.0,-0.004650866612792015,0.8781173825263977,-0.0,0.0008723391219973564,0.7765451073646545,0.0,0.01165441982448101
759.0,838.0,-0.3661,0.3906,9.536,-0.033,0.0234,-0.0799,-1.9880196056761683,0.0,3.7101824283599854,-1.6833685636520386,-0.0,1.8959932327270508,5.213963913708486,0.0,0.2791576683521271,-1.6179316679583948,0.0,-0.012804796919226646,0.8781014084815979,-0.0,0.009633198380470276,0.7765171527862549,0.0,0.02708650380373001
759.0,838.0,-0.3661,0.3906,9.536,-0.033,0.0234,-0.0799,-1.9879714451231898,0.0,3.6543822288513184,-1.6833405494689941,-0.0,1.9452464580535889,5.213896143227377,0.0,0.28081804513931274,-1.6179235617267054,0.0,-0.012135384604334831,0.8780772089958191,-0.0,-0.00031613506143912673,0.7765211462974548,0.0,0.018771816045045853
759.0,838.0,-0.3661,0.3906,9.536,-0.033,0.0234,-0.0799,-1.9880196056761683,0.0,3.6637516021728516,-1.6833405494689941,-0.0,1.9450902938842773,5.213876116066732,0.0,0.27513575553894043,-1.6179316679583948,0.0,0.0031850466039031744,0.8780373930931091,-0.0,0.007358983159065247,0.7765690088272095,0.0,0.022549502551555634
759.0,838.0,-0.3661,0.3906,9.536,-0.033,0.0234,-0.0799,-1.988040109673971,0.0,3.655763864517212,-1.6833488941192627,-0.0,1.9398565292358398,5.213947999268331,0.0,0.287568598985672,-1.6179760138141077,0.0,0.0070275431498885155,0.8780972957611084,-0.0,0.009984868578612804,0.7765570878982544,0.0,-0.0056303879246115685
759.0,838.0,-0.3661,0.3906,9.536,-0.033,0.0234,-0.0799,-1.9879833660521449,0.0,3.672177314758301,-1.6833363771438599,-0.0,1.9381548166275024,5.213924276619711,0.0,0.2816123366355896,-1.6179192701922815,0.0,-0.014958459883928299,0.8781092166900635,-0.0,-0.003243484068661928,0.7765370607376099,0.0,-0.015885479748249054
759.0,838.0,-0.3661,0.3906,9.536,-0.033,0.0234,-0.0799,-1.9879871807494105,0.0,3.6756186485290527,-1.6833405494689941,-0.0,1.9688539505004883,5.213947999268331,0.0,0.27977481484413147,-1.6179960409747522,0.0,-0.0016669875476509333,0.8780772089958191,-0.0,-0.008422690443694592,0.7765491008758545,0.0,0.03672100976109505
759.0,838.0,-0.3661,0.3906,9.536,-0.033,0.0234,-0.0799,-1.988040109673971,0.0,3.6659035682678223,-1.6833643913269043,-0.0,1.911856770515442,5.213908302574911,0.0,0.27354177832603455,-1.617988411580221,0.0,-0.009229564107954502,0.8780734539031982,-0.0,0.0009802388958632946,0.7765291333198547,0.0,-0.023936696350574493
759.0,838.0,-0.3661,0.3906,9.536,-0.033,0.0234,-0.0799,-1.9880477390685023,0.0,3.6864116191864014,-1.6833363771438599,-0.0,1.9546890258789062,5.213963913708486,0.0,0.28451788425445557,-1.617944065724508,0.0,-0.0027745102997869253,0.878089427947998,-0.0,0.002501613227650523,0.7765370607376099,0.0,0.035002872347831726
763.0,872.0,-0.466,0.3661,9.6389,-0.0344,0.018,-0.1103,-1.9880639515318812,0.0,3.6636929512023926,-1.6833117008209229,-0.0,1.9234263896942139,5.213936316757955,0.0,0.2774133086204529,-1.6179159323321741,0.0,-0.015263882465660572,0.8781700134277344,-0.0,-0.0006520268507301807,0.7765491008758545,0.0,0.014700844883918762
763.0,872.0,-0.466,0.3661,9.6389,-0.0344,0.018,-0.1103,-1.9880076847472132,0.0,3.6843008995056152,-1.683368444442749,-0.0,1.9384207725524902,5.21398018577651,0.0,0.28215619921684265,-1.6179316679583948,0.0,-0.0007859469624236226,0.8781173229217529,-0.0,0.008180253207683563,0.77652907371521,0.0,0.04026725888252258
763.0,872.0,-0.466,0.3661,9.6389,-0.0344,0.018,-0.1103,-1.9880758724608363,0.0,3.691408157348633,-1.6833603382110596,-0.0,1.8833744525909424,5.2139204023178,0.0,0.27111300826072693,-1.6179397741900843,0.0,-0.004806727170944214,0.8781014084815979,-0.0,-0.0030911313369870186,0.7765211462974548,0.0,-0.04107654467225075
763.0,872.0,-0.466,0.3661,9.6389,-0.0344,0.018,-0.1103,-1.9880238972105921,0.0,3.677353620529175,-1.6833488941192627,-0.0,1.867368459701538,5.213936316757955,0.0,0.2688983678817749,-1.617904011403219,0.0,0.005644385702908039,0.878065288066864,-0.0,0.014063531532883644,0.7765530943870544,0.0,0.0013127950951457024
763.0,872.0,-0.466,0.3661,9.6389,-0.0344,0.018,-0.1103,-1.9880358181395472,0.0,3.6682310104370117,-1.683315634727478,-0.0,1.9079625606536865,5.213940310269155,0.0,0.2769019603729248,-1.6179359594928187,0.0,0.007776077836751938,0.87804114818573,-0.0,0.00040854589315131307,0.7765091061592102,0.0,0.05127556249499321
763.0,872.0,-0.466,0.3661,9.6389,-0.0344,0.018,-0.1103,-1.9879795513548792,0.0,3.6286678314208984,-1.6833323240280151,-0.0,1.911311388015747,5.21398817279891,0.0,0.27763819694519043,-1.6179397741900843,0.0,-0.006814276799559593,0.8781375288963318,-0.0,-0.01121217105537653,0.7765410542488098,0.0,-0.01752764731645584
763.0,872.0,-0.466,0.3661,9.6389,-0.0344,0.018,-0.1103,-1.9880076847472132,0.0,3.650074005126953,-1.6833405494689941,-0.0,1.909268856048584,5.213944005757131,0.0,0.2728014588356018,-1.6179359594928187,0.0,-0.016311215236783028,0.8780935406684875,-0.0,-0.00537960696965456,0.7765370607376099,0.0,-0.02747480571269989
763.0,872.0,-0.466,0.3661,9.6389,-0.0344,0.018,-0.1103,-1.988016267816061,0.0,3.6760919094085693,-1.6833488941192627,-0.0,1.9387743473052979,5.2139323828514,0.0,0.2737155258655548,-1.6179803053485315,0.0,-0.000504971481859684,0.8780614733695984,-0.0,-0.010826346464455128,0.77652907371521,0.0,0.0030421132687479258
763.0,872.0,-0.466,0.3661,9.6389,-0.0344,0.018,-0.1103,-1.9880157909789027,0.0,3.629533529281616,-1.6833405494689941,-0.0,1.8941335678100586,5.213947999268331,0.0,0.275840699672699,-1.617944065724508,0.0,0.0005707023665308952,0.8781136870384216,-0.0,0.0004968855064362288,0.7765650153160095,0.0,-0.025692112743854523
763.0,872.0,-0.466,0.3661,9.6389,-0.0344,0.018,-0.1103,-1.9880238972105921,0.0,3.6687989234924316,-1.6833125352859497,-0.0,1.9029127359390259,5.213947999268331,0.0,0.2869727611541748,-1.6178954283343714,0.0,-0.00815576408058405,0.8780574798583984,-0.0,-0.005830811336636543,0.7765890955924988,0.0,-0.0018578004091978073
763.0,872.0,-0.466,0.3661,9.6389,-0.0344,0.018,-0.1103,-1.9879795513548792,0.0,3.687875270843506,-1.6833529472351074,-0.0,1.9127249717712402,5.213935959130087,0.0,0.26498064398765564,-1.6179316679583948,0.0,-0.012424740940332413,0.878057062625885,-0.0,-0.0006540320464409888,0.7765091061592102,0.0,-0.014575984328985214
763.0,872.0,-0.466,0.3661,9.6389,-0.0344,0.018,-0.1103,-1.9880076847472132,0.0,3.6581876277923584,-1.683368444442749,-0.0,1.9686037302017212,5.213947999268331,0.0,0.2839334011077881,-1.617988411580221,0.0,0.006598799955099821,0.8780452013015747,-0.0,0.0015781568363308907,0.7765690088272095,0.0,-0.005403660237789154
762.0,871.0,-0.4355,0.3344,9.6562,-0.0382,0.0293,-0.119,-1.9880758724608363,0.0,3.68902587890625,-1.683392882347107,-0.0,1.9950368404388428,5.2139323828514,0.0,0.278874009847641,-1.6179841200457972,0.0,0.0002647829242050648,0.878077507019043,-0.0,0.0036619678139686584,0.7765171527862549,0.0,0.01630673184990883
762.0,871.0,-0.4355,0.3344,9.6562,-0.0382,0.0293,-0.119,-1.9880038700499476,0.0,3.67138934135437,-1.683361291885376,-0.0,1.9560351371765137,5.213947999268331,0.0,0.2841915190219879,-1.6179316679583948,0.0,-0.01253147516399622,0.8780693411827087,-0.0,0.0016998022329062223,0.7765051126480103,0.0,0.027152366936206818
762.0,871.0,-0.4355,0.3344,9.6562,-0.0382,0.0293,-0.119,-1.9880238972105921,0.0,3.6810989379882812,-1.6833933591842651,-0.0,1.935959815979004,5.214008080750265,0.0,0.2725638449192047,-1.6179316679583948,0.0,-0.014129669405519962,0.8781412243843079,-0.0,0.0062724146991968155,0.7765491008758545,0.0,0.0036332979798316956
762.0,871.0,-0.4355,0.3344,9.6562,-0.0382,0.0293,-0.119,-1.9880320034422816,0.0,3.690065383911133,-1.6833363771438599,-0.0,1.9306622743606567,5.2139479396636865,0.0,0.2818790078163147,-1.6178835074054163,0.0,-0.022828135639429092,0.8780656456947327,-0.0,0.003365778364241123,0.7765370607376099,0.0,0.01239810697734356
762.0,871.0,-0.4355,0.3344,9.6562,-0.0382,0.0293,-0.119,-1.9879833660521449,0.0,3.6277453899383545,-1.683361291885376,-0.0,1.9378881454467773,5.2139519331748865,0.0,0.284590482711792,-1.6179760138141077,0.0,-0.0058786580339074135,0.8780415058135986,-0.0,0.0007961946539580822,0.7765131592750549,0.0,0.030646897852420807
762.0,871.0,-0.4355,0.3344,9.6562,-0.0382,0.0293,-0.119,-1.987979074517721,0.0,3.628011703491211,-1.683384895324707,-0.0,1.941772222518921,5.21398018577651,0.0,0.27726268768310547,-1.6179316679583948,0.0,-0.001513242139481008,0.8780859112739563,-0.0,0.004909311421215534,0.7765570878982544,0.0,0.02827945165336132
762.0,871.0,-0.4355,0.3344,9.6562,-0.0382,0.0293,-0.119,-1.988011976281637,0.0,3.653341770172119,-1.6834009885787964,-0.0,1.900392770767212,5.213947999268331,0.0,0.27495938539505005,-1.617948357258932,0.0,-0.005814029835164547,0.8780730962753296,-0.0,-0.004330044146627188,0.7765491008758545,0.0,0.019471904262900352
762.0,871.0,-0.4355,0.3344,9.6562,-0.0382,0.0293,-0.119,-1.9880196056761683,0.0,3.678931951522827,-1.6833529472351074,-0.0,1.9032522439956665,5.213976013451376,0.0,0.285627156496048,-1.6179559866534632,0.0,-0.019308896735310555,0.8781296610832214,-0.0,-0.008210258558392525,0.7765530943870544,0.0,-0.03299580514431
762.0,871.0,-0.4355,0.3344,9.6562,-0.0382,0.0293,-0.119,-1.9880358181395472,0.0,3.6907615661621094,-1.6833529472351074,-0.0,1.856463074684143,5.213947999268331,0.0,0.2645343542098999,-1.6179316679583948,0.0,-0.003271686378866434,0.8781092166900635,-0.0,-0.008233357220888138,0.7765491008758545,0.0,-0.01783689670264721
762.0,871.0,-0.4355,0.3344,9.6562,-0.0382,0.0293,-0.119,-1.9880477390685023,0.0,3.629930019378662,-1.6833447217941284,-0.0,1.9172255992889404,5.213939893036642,0.0,0.28986436128616333,-1.6179035345660608,0.0,0.006411601323634386,0.8780853748321533,-0.0,0.0047735897824168205,0.7765570878982544,0.0,0.04445326328277588
762.0,871.0,-0.4355,0.3344,9.6562,-0.0382,0.0293,-0.119,-1.988028188745016,0.0,3.656465530395508,-1.6833809614181519,-0.0,1.9264657497406006,5.213936316757955,0.0,0.2631101906299591,-1.6179683844195765,0.0,-3.0182389309629798e-05,0.8780611753463745,-0.0,-0.006286877207458019,0.7765530943870544,0.0,-0.006673869676887989
775.0,882.0,-0.4349,0.3188,9.673,-0.0348,0.0246,-0.1165,-1.9880320034422816,0.0,3.6524765491485596,-1.6834052801132202,-0.0,1.906996726989746,5.2139323828514,0.0,0.26357048749923706,-1.6179359594928187,0.0,-0.007047626189887524,0.8780693411827087,-0.0,-0.004455599933862686,0.7765730023384094,0.0,0.040532004088163376
775.0,882.0,-0.4349,0.3188,9.673,-0.0348,0.0246,-0.1165,-1.9880639515318812,0.0,3.692513942718506,-1.6833117008209229,-0.0,1.9474385976791382,5.213947999268331,0.0,0.2828456461429596,-1.6179159323321741,0.0,-0.0020097384694963694,0.8780853748321533,-0.0,0.0013784582260996103,0.7765451073646545,0.0,-0.016491161659359932
775.0,882.0,-0.4349,0.3188,9.673,-0.0348,0.0246,-0.1165,-1.9880320034422816,0.0,3.6756343841552734,-1.6833488941192627,-0.0,1.950657606124878,5.2139204023178,0.0,0.287842333316803,-1.6179559866534632,0.0,-0.008014125749468803,0.8780493140220642,-0.0,-0.0036811900790780783,0.7765530943870544,0.0,0.03212738782167435
775.0,882.0,-0.4349,0.3188,9.673,-0.0348,0.0246,-0.1165,-1.9879995785155238,0.0,3.643484592437744,-1.6833323240280151,-0.0,1.8935267925262451,5.213955926686086,0.0,0.2848847508430481,-1.6179516951190394,0.0,-0.005808656569570303,0.8781415224075317,-0.0,0.0009075726848095655,0.7765171527862549,0.0,-0.038261305540800095
775.0,882.0,-0.4349,0.3188,9.673,-0.0348,0.0246,-0.1165,-1.9880157909789027,0.0,3.6385245323181152,-1.6833571195602417,-0.0,1.9267351627349854,5.21398817279891,0.0,0.27842697501182556,-1.617944065724508,0.0,-0.004205649718642235,0.8781092166900635,-0.0,0.0019546225666999817,0.7765650153160095,0.0,0.015362665057182312
775.0,882.0,-0.4349,0.3188,9.673,-0.0348,0.0246,-0.1165,-1.9879833660521449,0.0,3.6226820945739746,-1.6833405494689941,-0.0,1.9341332912445068,5.213924395829,0.0,0.27266567945480347,-1.6179316679583948,0.0,0.003712467383593321,0.8780415058135986,-0.0,0.0011252081021666527,0.7765450477600098,0.0,-0.010158108547329903
775.0,882.0,-0.4349,0.3188,9.673,-0.0348,0.0246,-0.1165,-1.9880482159056605,0.0,3.703555107116699,-1.683409333229065,-0.0,1.9112012386322021,5.2139519331748865,0.0,0.2796116769313812,-1.617927376423971,0.0,-0.004008158575743437,0.8780894875526428,-0.0,-0.013132867403328419,0.7765410542488098,0.0,-0.01735951192677021
775.0,882.0,-0.4349,0.3188,9.673,-0.0348,0.0246,-0.1165,-1.988016267816061,0.0,3.6522037982940674,-1.683308482170105,-0.0,1.9508004188537598,5.2139519331748865,0.0,0.275857537984848,-1.617948357258932,0.0,-0.0033527682535350323,0.878105103969574,-0.0,0.0007544986438006163,0.7765410542488098,0.0,0.020326673984527588
775.0,882.0,-0.4349,0.3188,9.673,-0.0348,0.0246,-0.1165,-1.9879995785155238,0.0,3.6700000762939453,-1.683361291885376,-0.0,1.911653995513916,5.21393250206069,0.0,0.273394912481308,-1.617960278187887,0.0,-0.0044877915643155575,0.8780932426452637,-0.0,0.0023521091789007187,0.7765610814094543,0.0,0.05492642521858215
775.0,882.0,-0.4349,0.3188,9.673,-0.0348,0.0246,-0.1165,-1.9880558453001917,0.0,3.6561732292175293,-1.6833890676498413,-0.0,1.939544677734375,5.213932442456045,0.0,0.2736780345439911,-1.6179521719561976,0.0,-0.007246584631502628,0.8780452013015747,-0.0,-0.00842161476612091,0.7765370607376099,0.0,0.022442776709794998
775.0,882.0,-0.4349,0.3188,9.673,-0.0348,0.0246,-0.1165,-1.987955232659811,0.0,3.68927001953125,-1.6833643913269043,-0.0,1.895702838897705,5.213944422989645,0.0,0.2876892685890198,-1.617972199116842,0.0,-0.0017885568086057901,0.8781054615974426,-0.0,-0.0007220791885629296,0.7765131592750549,0.0,0.040409576147794724
775.0,882.0,-0.4349,0.3188,9.673,-0.0348,0.0246,-0.1165,-1.9880076847472132,0.0,3.65659236907959,-1.6833487749099731,-0.0,1.8853039741516113,5.213947999268331,0.0,0.279386967420578,-1.617944065724508,0.0,0.002973569557070732,0.8780693411827087,-0.0,0.00381137290969491,0.7765610218048096,0.0,0.028990043327212334
765.0,839.0,-0.4618,0.3559,9.6742,-0.0321,0.0246,-0.1155,-1.9879795513548792,0.0,3.675342082977295,-1.6832715272903442,-0.0,1.9096482992172241,5.2139519331748865,0.0,0.256889671087265,-1.6178997198687952,0.0,-0.005753888748586178,0.8780772089958191,-0.0,0.0032747569493949413,0.7765211462974548,0.0,-0.023286990821361542
765.0,839.0,-0.4618,0.3559,9.6742,-0.0321,0.0246,-0.1155,-1.9880358181395472,0.0,3.720982074737549,-1.6833487749099731,-0.0,1.8925187587738037,5.213944005757131,0.0,0.27558809518814087,-1.6179640928851526,0.0,-0.0013703457079827785,0.8781296014785767,-0.0,0.007007021456956863,0.7765769958496094,0.0,0.021406449377536774
765.0,839.0,-0.4618,0.3559,9.6742,-0.0321,0.0246,-0.1155,-1.988011976281637,0.0,3.6945204734802246,-1.6833363771438599,-0.0,1.9086110591888428,5.213963913708486,0.0,0.27382680773735046,-1.617948357258932,0.0,-0.0026515743229538202,0.8780452013015747,-0.0,0.0018992975819855928,0.7765370607376099,0.0,0.024265795946121216
765.0,839.0,-0.4618,0.3559,9.6742,-0.0321,0.0246,-0.1155,-1.988028188745016,0.0,3.6565866470336914,-1.6833529472351074,-0.0,1.871584177017212,5.213971900730886,0.0,0.2771714925765991,-1.617988411580221,0.0,-0.0039252652786672115,0.8781054615974426,-0.0,0.006603611633181572,0.7766172289848328,0.0,-0.009489724412560463
765.0,839.0,-0.4618,0.3559,9.6742,-0.0321,0.0246,-0.1155,-1.9880196056761683,0.0,3.664050817489624,-1.6833561658859253,-0.0,1.9368181228637695,5.213960039406576,0.0,0.2795448899269104,-1.617948357258932,0.0,0.0029539293609559536,0.8780975937843323,-0.0,-0.010431273840367794,0.7765650153160095,0.0,0.02563188225030899
765.0,839.0,-0.4618,0.3559,9.6742,-0.0321,0.0246,-0.1155,-1.988011976281637,0.0,3.6375269889831543,-1.6833767890930176,-0.0,1.9243665933609009,5.213936316757955,0.0,0.2829964756965637,-1.6179078261004847,0.0,-0.00037488481029868126,0.8780813217163086,-0.0,-0.006534834858030081,0.7765451073646545,0.0,0.041765373200178146
765.0,839.0,-0.4618,0.3559,9.6742,-0.0321,0.0246,-0.1155,-1.9880076847472132,0.0,3.6673026084899902,-1.6833972930908203,-0.0,1.9282803535461426,5.213959920197286,0.0,0.2826022207736969,-1.6179316679583948,0.0,0.0016028664540499449,0.8780816197395325,-0.0,-0.009047417901456356,0.7765571475028992,0.0,0.02128482237458229
765.0,839.0,-0.4618,0.3559,9.6742,-0.0321,0.0246,-0.1155,-1.988028188745016,0.0,3.6177306175231934,-1.6833406686782837,-0.0,1.9504196643829346,5.2139204023178,0.0,0.28032711148262024,-1.617915455495016,0.0,0.012128970585763454,0.8780853748321533,-0.0,-0.016407854855060577,0.77652907371521,0.0,0.011476898565888405
765.0,839.0,-0.4618,0.3559,9.6742,-0.0321,0.0246,-0.1155,-1.988040109673971,0.0,3.6606252193450928,-1.6833643913269043,-0.0,1.9037914276123047,5.213928329735555,0.0,0.2889954149723053,-1.6179397741900843,0.0,-0.001506625209003687,0.8781214356422424,-0.0,0.0028486959636211395,0.7765451073646545,0.0,0.001253398135304451
765.0,839.0,-0.4618,0.3559,9.6742,-0.0321,0.0246,-0.1155,-1.9880238972105921,0.0,3.667126178741455,-1.6833405494689941,-0.0,1.9163471460342407,5.213939893036642,0.0,0.27730050683021545,-1.6179803053485315,0.0,-0.00403983611613512,0.8781132698059082,-0.0,0.004914307966828346,0.7765370607376099,0.0,-0.04199817776679993
765.0,839.0,-0.4618,0.3559,9.6742,-0.0321,0.0246,-0.1155,-1.9880277119078578,0.0,3.6694836616516113,-1.6833405494689941,-0.0,1.9611544609069824,5.213971900730886,0.0,0.2739042639732361,-1.6179760138141077,0.0,-0.011307699605822563,0.8781256079673767,-0.0,0.0014359221095219254,0.7765251398086548,0.0,0.0029607799369841814
781.0,858.0,-0.3918,0.393,9.5324,-0.0492,0.0211,-0.1173,-1.988040109673971,0.0,3.697558879852295,-1.6833767890930176,-0.0,1.921982765197754,5.21398417928771,0.0,0.27246010303497314,-1.617948357258932,0.0,-0.0075053065083920956,0.8780455589294434,-0.0,0.0014388305135071278,0.7766011357307434,0.0,0.0019228169694542885
781.0,858.0,-0.3918,0.393,9.5324,-0.0492,0.0211,-0.1173,-1.988028188745016,0.0,3.7067322731018066,-1.6833363771438599,-0.0,1.9324352741241455,5.213939893036642,0.0,0.2756361961364746,-1.617988411580221,0.0,-0.0017893197946250439,0.878073513507843,-0.0,-0.004524788819253445,0.7765410542488098,0.0,0.02045944705605507
781.0,858.0,-0.3918,0.393,9.5324,-0.0492,0.0211,-0.1173,-1.988040109673971,0.0,3.661860466003418,-1.683368444442749,-0.0,1.9141755104064941,5.213980245381155,0.0,0.2820432484149933,-1.6178510824786585,0.0,-0.0027803154662251472,0.8781054615974426,-0.0,0.004123666789382696,0.7765730023384094,0.0,-0.0060356794856488705
781.0,858.0,-0.3918,0.393,9.5324,-0.0492,0.0211,-0.1173,-1.988040109673971,0.0,3.614640951156616,-1.6833487749099731,-0.0,1.9501224756240845,5.213984119683065,0.0,0.28457018733024597,-1.6179559866534632,0.0,-0.014491104520857334,0.8781494498252869,-0.0,-0.01461782120168209,0.7765451073646545,0.0,-0.002710252068936825
781.0,858.0,-0.3918,0.393,9.5324,-0.0492,0.0211,-0.1173,-1.9880238972105921,0.0,3.634695291519165,-1.6833890676498413,-0.0,1.956848382949829,5.21398817279891,0.0,0.2822389304637909,-1.6179316679583948,0.0,-0.00476173497736454,0.8780694007873535,-0.0,-0.015461940318346024,0.7765491008758545,0.0,0.0472010113298893
781.0,858.0,-0.3918,0.393,9.5324,-0.0492,0.0211,-0.1173,-1.9880358181395472,0.0,3.6856155395507812,-1.6833726167678833,-0.0,1.8882274627685547,5.213900196343221,0.0,0.26886287331581116,-1.617944065724508,0.0,-0.014241987839341164,0.8780972957611084,-0.0,0.0003934144915547222,0.7765812873840332,0.0,0.010172341018915176
781.0,858.0,-0.3918,0.393,9.5324,-0.0492,0.0211,-0.1173,-1.9879871807494105,0.0,3.6266608238220215,-1.6833322048187256,-0.0,1.9414466619491577,5.2139164088066,0.0,0.2885109782218933,-1.617927376423971,0.0,-0.0019065563101321459,0.8781013488769531,-0.0,-0.0015224949456751347,0.7765410542488098,0.0,-0.004254317842423916
781.0,858.0,-0.3918,0.393,9.5324,-0.0492,0.0211,-0.1173,-1.9879871807494105,0.0,3.6652274131774902,-1.683384895324707,-0.0,1.9621566534042358,5.213967907219686,0.0,0.26181697845458984,-1.6179397741900843,0.0,-0.0021969114895910025,0.8780975937843323,-0.0,-0.013082597404718399,0.7765491008758545,0.0,0.028818806633353233
781.0,858.0,-0.3918,0.393,9.5324,-0.0492,0.0211,-0.1173,-1.988040109673971,0.0,3.6716246604919434,-1.6833693981170654,-0.0,1.934432029724121,5.213939893036642,0.0,0.2847541570663452,-1.6178954283343714,0.0,0.0006542877526953816,0.8780731558799744,-0.0,0.01104023028165102,0.7765490412712097,0.0,-0.020150674507021904
781.0,858.0,-0.3918,0.393,9.5324,-0.0492,0.0211,-0.1173,-1.9880358181395472,0.0,3.6836419105529785,-1.6833571195602417,-0.0,1.92529296875,5.213963913708486,0.0,0.2752530574798584,-1.617960278187887,0.0,-0.01731969602406025,0.8780772089958191,-0.0,0.006100138649344444,0.7764971256256104,0.0,-0.011322909966111183
781.0,858.0,-0.3918,0.393,9.5324,-0.0492,0.0211,-0.1173,-1.9880114994444789,0.0,3.706357717514038,-1.6833808422088623,-0.0,1.9270448684692383,5.213912355690756,0.0,0.2793501019477844,-1.6179359594928187,0.0,-0.005106926430016756,0.8781092166900635,-0.0,-0.004062473773956299,0.7765891551971436,0.0,-0.016663551330566406
781.0,858.0,-0.3918,0.393,9.5324,-0.0492,0.0211,-0.1173,-1.9880038700499476,0.0,3.6412222385406494,-1.6833726167678833,-0.0,1.9259493350982666,5.213968026428976,0.0,0.2933798134326935,-1.6179316679583948,0.0,0.005354913417249918,0.8780853748321533,-0.0,-0.006858002860099077,0.7765410542488098,0.0,-0.02476375550031662
769.0,841.0,-0.4457,0.3739,9.6766,-0.033,0.0174,-0.1075,-1.9880601368346156,0.0,3.7233195304870605,-1.6833198070526123,-0.0,1.8972749710083008,5.213959920197286,0.0,0.270802766084671,-1.617927376423971,0.0,0.009416879154741764,0.8780694007873535,-0.0,0.005110711324959993,0.7765570878982544,0.0,0.04491140693426132
769.0,841.0,-0.4457,0.3739,9.6766,-0.033,0.0174,-0.1075,-1.9880639515318812,0.0,3.6829354763031006,-1.6832878589630127,-0.0,1.9077785015106201,5.213939833431997,0.0,0.26739832758903503,-1.617960278187887,0.0,0.0014431282179430127,0.8780455589294434,-0.0,0.0022041082847863436,0.7765530943870544,0.0,0.018923059105873108
769.0,841.0,-0.4457,0.3739,9.6766,-0.033,0.0174,-0.1075,-1.9880038700499476,0.0,3.679309844970703,-1.6833932399749756,-0.0,1.9151020050048828,5.213947999268331,0.0,0.2843977212905884,-1.6179159323321741,0.0,0.007945953868329525,0.8780693411827087,-0.0,0.006230090744793415,0.7765650153160095,0.0,-0.00980197824537754
769.0,841.0,-0.4457,0.3739,9.6766,-0.033,0.0174,-0.1075,-1.9880358181395472,0.0,3.6374521255493164,-1.6833643913269043,-0.0,1.9414738416671753,5.2139323828514,0.0,0.2628047466278076,-1.617927376423971,0.0,-0.01000986434519291,0.878065288066864,-0.0,0.004259191453456879,0.7765530943870544,0.0,0.005451325327157974
769.0,841.0,-0.4457,0.3739,9.6766,-0.033,0.0174,-0.1075,-1.9880677662291468,0.0,3.654820442199707,-1.6832475662231445,-0.0,1.8732280731201172,5.213972079544821,0.0,0.2815009355545044,-1.6179359594928187,0.0,0.007270457223057747,0.8780932426452637,-0.0,0.0029948940500617027,0.7765211462974548,0.0,-0.0037000991869717836
769.0,841.0,-0.4457,0.3739,9.6766,-0.033,0.0174,-0.1075,-1.9879995785155238,0.0,3.6551618576049805,-1.6833488941192627,-0.0,1.9097168445587158,5.21398805358962,0.0,0.27246299386024475,-1.6179121176349085,0.0,-0.0067986901849508286,0.8780935406684875,-0.0,-0.0032142717391252518,0.7765330672264099,0.0,-0.004643479827791452
769.0,841.0,-0.4457,0.3739,9.6766,-0.033,0.0174,-0.1075,-1.9880439243712367,0.0,3.6733837127685547,-1.6833198070526123,-0.0,1.9189245700836182,5.213963973313131,0.0,0.284051775932312,-1.617960278187887,0.0,-0.00554795702919364,0.8780694007873535,-0.0,-0.00670130830258131,0.7765490412712097,0.0,-0.010368631221354008
769.0,841.0,-0.4457,0.3739,9.6766,-0.033,0.0174,-0.1075,-1.9880200825133265,0.0,3.6805357933044434,-1.6832879781723022,-0.0,1.8890678882598877,5.213936316757955,0.0,0.2775634527206421,-1.617927376423971,0.0,-0.02176496386528015,0.8780574798583984,-0.0,-0.003219923237338662,0.7765690088272095,0.0,0.07386133074760437
769.0,841.0,-0.4457,0.3739,9.6766,-0.033,0.0174,-0.1075,-1.9880038700499476,0.0,3.6847739219665527,-1.6833643913269043,-0.0,1.9336005449295044,5.213971900730886,0.0,0.27418968081474304,-1.6179478804217737,0.0,-0.01086012739688158,0.878089427947998,-0.0,-0.010032844729721546,0.7765410542488098,0.0,0.021334964781999588
769.0,841.0,-0.4457,0.3739,9.6766,-0.033,0.0174,-0.1075,-1.9880076847472132,0.0,3.6851611137390137,-1.6833198070526123,-0.0,1.9306011199951172,5.21398417928771,0.0,0.28179651498794556,-1.6179841200457972,0.0,0.008677479811012745,0.8780935406684875,-0.0,-0.005227815825492144,0.7765330672264099,0.0,-0.023009546101093292
769.0,841.0,-0.4457,0.3739,9.6766,-0.033,0.0174,-0.1075,-1.988011976281637,0.0,3.67852783203125,-1.683361291885376,-0.0,1.8921705484390259,5.213959920197286,0.0,0.285099059343338,-1.6179559866534632,0.0,-0.003760727820917964,0.8780734539031982,-0.0,-0.006915333680808544,0.7765491008758545,0.0,-0.0005577690899372101
761.0,872.0,-0.4433,0.3661,9.5994,-0.0365,0.0261,-0.1155,-1.9880558453001917,0.0,3.663609743118286,-1.6833808422088623,-0.0,1.926201343536377,5.213955986290731,0.0,0.28120848536491394,-1.6179516951190394,0.0,-0.008591294288635254,0.8781251907348633,-0.0,-0.0011515398509800434,0.7765812277793884,0.0,-0.027588851749897003
761.0,872.0,-0.4433,0.3661,9.5994,-0.0365,0.0261,-0.1155,-1.9880358181395472,0.0,3.6289710998535156,-1.6833405494689941,-0.0,1.8925645351409912,5.213943946152487,0.0,0.2861838936805725,-1.6179359594928187,0.0,-0.020250841975212097,0.8781054615974426,-0.0,0.006323156878352165,0.7765931487083435,0.0,-0.02069162018597126
761.0,872.0,-0.4433,0.3661,9.5994,-0.0365,0.0261,-0.1155,-1.988028188745016,0.0,3.665025234222412,-1.6833115816116333,-0.0,1.915920376777649,5.213943946152487,0.0,0.25971719622612,-1.6179960409747522,0.0,-0.010954450815916061,0.8780935406684875,-0.0,-0.00725528784096241,0.7765451073646545,6.085252266530006e-07,-0.028252875432372093
761.0,872.0,-0.4433,0.3661,9.5994,-0.0365,0.0261,-0.1155,-1.9880238972105921,0.0,3.6533143520355225,-1.6833571195602417,-0.0,1.908667802810669,5.213947999268331,0.0,0.2925451099872589,-1.6179516951190394,0.0,-0.01147199422121048,0.8780975937843323,-0.0,-0.009576929733157158,0.7765731811523438,1.9715445706666897e-14,-0.03510812297463417
761.0,872.0,-0.4433,0.3661,9.5994,-0.0365,0.0261,-0.1155,-1.9879828892149867,0.0,3.690624237060547,-1.6833447217941284,-0.0,1.9625978469848633,5.213943946152487,0.0,0.26589319109916687,-1.6179235617267054,0.0,-0.0028519199695438147,0.8781092166900635,-0.0,0.004792291671037674,0.7765851020812988,6.38755442433599e-22,-0.05394933372735977
761.0,872.0,-0.4433,0.3661,9.5994,-0.0365,0.0261,-0.1155,-1.9880038700499476,0.0,3.6378140449523926,-1.6833685636520386,-0.0,1.9269357919692993,5.2139323828514,0.0,0.2993258535861969,-1.6179478804217737,0.0,-0.0003990671830251813,0.8780694007873535,-0.0,-0.004315581638365984,0.7766256332397461,0.0005622273893095553,-0.011679052375257015
761.0,872.0,-0.4433,0.3661,9.5994,-0.0365,0.0261,-0.1155,-1.9880238972105921,0.0,3.6216611862182617,-1.6833653450012207,-0.0,1.9607847929000854,5.2139124152954,0.0,0.26974719762802124,-1.6179636160479944,0.0,-0.017862452194094658,0.878065288066864,-0.0,-0.003952569328248501,0.7765851020812988,0.0019977346528321505,-0.005909756291657686
761.0,872.0,-0.4433,0.3661,9.5994,-0.0365,0.0261,-0.1155,-1.9880639515318812,0.0,3.653799533843994,-1.6833447217941284,-0.0,1.9899158477783203,5.213947999268331,0.0,0.27823543548583984,-1.6180318037616175,0.0,-0.002922067418694496,0.8780734539031982,-0.0,-0.00852440856397152,0.7766252756118774,0.0026160504203289747,0.0010095429606735706
761.0,872.0,-0.4433,0.3661,9.5994,-0.0365,0.0261,-0.1155,-1.9880076847472132,0.0,3.651215076446533,-1.6833117008209229,-0.0,1.9391366243362427,5.2139203427131555,0.0,0.28712695837020874,-1.6179998556720179,0.0,-0.0029827412217855453,0.8781013488769531,-0.0,-0.00580741697922349,0.7766332030296326,0.0054851192981004715,-0.028976932168006897
761.0,872.0,-0.4433,0.3661,9.5994,-0.0365,0.0261,-0.1155,-1.9880196056761683,0.0,3.6623847484588623,-1.6833281517028809,-0.0,1.9245994091033936,5.2139164088066,0.0,0.27448487281799316,-1.6179917494403284,0.0,-0.004532479681074619,0.8780853748321533,-0.0,0.006059169303625822,0.7766855359077454,0.006943806074559689,-0.00044986698776483536
761.0,872.0,-0.4433,0.3661,9.5994,-0.0365,0.0261,-0.1155,-1.9880482159056605,0.0,3.6614232063293457,-1.6833405494689941,-0.0,1.9744844436645508,5.2139323828514,0.0,0.27647319436073303,-1.617960278187887,0.0,-0.0032141830306500196,0.8780853152275085,-0.0,0.0021146326325833797,0.7767615914344788,0.006067981012165546,-0.004078280180692673
761.0,872.0,-0.4433,0.3661,9.5994,-0.0365,0.0261,-0.1155,-1.9879795513548792,0.0,3.6593923568725586,-1.6833239793777466,-0.0,1.921172857284546,5.213947999268331,0.0,0.2860340178012848,-1.6179478804217737,0.0,-0.0033254926092922688,0.878065288066864,-0.0,-0.006850617937743664,0.7767933011054993,0.005744964815676212,-0.00023598584812134504
794.0,862.0,-0.4588,0.3033,9.5306,-0.0293,0.0243,-0.1106,-1.9880720577635707,0.0,3.642880916595459,-1.6834052801132202,-0.0,1.9229744672775269,5.213935839920797,0.0,0.2692156732082367,-1.6179679075824183,0.0,-0.012300061993300915,0.8780813217163086,-0.0,-0.000644875573925674,0.7768293023109436,0.0049499766901135445,-0.004561141133308411
794.0,862.0,-0.4588,0.3033,9.5306,-0.0293,0.0243,-0.1106,-1.988011976281637,0.0,3.672559976577759,-1.6833126544952393,-0.0,1.9145002365112305,5.213980245381155,0.0,0.27277135848999023,-1.6179679075824183,0.0,-0.008682865649461746,0.8780975937843323,-0.0,-0.004591088742017746,0.7768974304199219,0.003925426863133907,0.00913333985954523
794.0,862.0,-0.4588,0.3033,9.5306,-0.0293,0.0243,-0.1106,-1.988028188745016,0.0,3.701622486114502,-1.6833974123001099,-0.0,1.8865134716033936,5.213935839920797,0.0,0.27886438369750977,-1.6179559866534632,0.0,-0.0002198109868913889,0.8781132698059082,-0.0,-0.007054637186229229,0.7768733501434326,0.0027688690461218357,0.038629986345767975
794.0,862.0,-0.4588,0.3033,9.5306,-0.0293,0.0243,-0.1106,-1.9880196056761683,0.0,3.688727378845215,-1.683368444442749,-0.0,1.8756647109985352,5.213960099011221,0.0,0.28053367137908936,-1.6179316679583948,0.0,-0.00868865754455328,0.8781173825263977,-0.0,0.009762300178408623,0.7768733501434326,0.0015249805292114615,0.019589975476264954
794.0,862.0,-0.4588,0.3033,9.5306,-0.0293,0.0243,-0.1106,-1.9880238972105921,0.0,3.6860713958740234,-1.6833115816116333,-0.0,1.9394900798797607,5.213920223503866,0.0,0.271036297082901,-1.617972199116842,0.0,-0.006140551064163446,0.8781054615974426,-0.0,-0.0029264132026582956,0.7769215106964111,0.0008845782140269876,-0.0486757792532444
794.0,862.0,-0.4588,0.3033,9.5306,-0.0293,0.0243,-0.1106,-1.9880196056761683,0.0,3.674837112426758,-1.6833571195602417,-0.0,1.912499189376831,5.213955986290731,0.0,0.27340322732925415,-1.6179359594928187,0.0,-0.010201448574662209,0.8780813217163086,-0.0,-0.012125518172979355,0.7768334746360779,0.0007871072157286108,0.004005227237939835
794.0,862.0,-0.4588,0.3033,9.5306,-0.0293,0.0243,-0.1106,-1.9880477390685023,0.0,3.642235279083252,-1.6833363771438599,-0.0,1.9669747352600098,5.2139444825942896,0.0,0.28062212467193604,-1.6179192701922815,0.0,0.0023257245775312185,0.8780772089958191,-0.0,-7.505877874791622e-06,0.7768973112106323,0.0007088749553076923,0.056758396327495575
794.0,862.0,-0.4588,0.3033,9.5306,-0.0293,0.0243,-0.1106,-1.988047262231344,0.0,3.677381992340088,-1.6833726167678833,-0.0,1.9145855903625488,5.213904070645132,0.0,0.2871590554714203,-1.6179640928851526,0.0,-0.009031874127686024,0.8780207633972168,-0.0,0.004041984677314758,0.7769013047218323,0.0006193045992404222,-0.023428114131093025
794.0,862.0,-0.4588,0.3033,9.5306,-0.0293,0.0243,-0.1106,-1.9880315266051234,0.0,3.6329126358032227,-1.68328058719635,-0.0,1.9047117233276367,5.2139323828514,0.0,0.2781446874141693,-1.6179235617267054,0.0,-0.007131487131118774,0.8780972957611084,-0.0,0.00461682491004467,0.7769213914871216,0.0006379011319950223,0.017283959314227104
794.0,862.0,-0.4588,0.3033,9.5306,-0.0293,0.0243,-0.1106,-1.9880639515318812,0.0,3.6690597534179688,-1.683316707611084,4.925699605140554e-12,1.911283016204834,5.213944005757131,0.0,0.2852024435997009,-1.617944065724508,0.0,-0.015254898928105831,0.8780853152275085,-0.0,0.0019285520538687706,0.7769094705581665,0.0007477927720174193,0.02415093407034874
794.0,862.0,-0.4588,0.3033,9.5306,-0.0293,0.0243,-0.1106,-1.9880229435362757,0.0,3.65342116355896,-1.6832680702209473,0.0018541725585237145,1.9305009841918945,5.213943946152487,0.0,0.28673526644706726,-1.617927376423971,0.0,-0.005945086013525724,0.8780615329742432,-0.0,-0.00719941221177578,0.7769374847412109,0.001928412588313222,0.0020601111464202404
772.0,898.0,-0.5079,0.6544,9.5324,-0.0382,0.0278,-0.1196,-1.9880153141417445,0.0,3.6628665924072266,-1.683248519897461,0.0037565194070339203,1.9401192665100098,5.213980245381155,0.0,0.28482359647750854,-1.6178634802447718,0.0,-0.001430361531674862,0.8781095147132874,-0.0,-0.005846323911100626,0.7769975066184998,0.0033288970589637756,0.003000183030962944
772.0,898.0,-0.5079,0.6544,9.5324,-0.0382,0.0278,-0.1196,-1.988091608087057,0.0,3.6837432384490967,-1.6832524538040161,0.007824628613889217,1.925234317779541,5.213955986290731,0.0,0.2732529044151306,-1.6179159323321741,0.0,-0.006270492449402809,0.8781095743179321,-0.0,0.008979462087154388,0.7770013213157654,0.005506677087396383,0.051916737109422684
772.0,898.0,-0.5079,0.6544,9.5324,-0.0382,0.0278,-0.1196,-1.9880315266051234,0.0,3.7091481685638428,-1.6831566095352173,0.01267275121062994,1.954575777053833,5.213955807476797,0.0,0.2792738974094391,-1.6178954283343714,0.0,-0.017599262297153473,0.8781251907348633,-0.0,0.003417521482333541,0.7770815491676331,0.008740566670894623,-0.00033872248604893684
772.0,898.0,-0.5079,0.6544,9.5324,-0.0382,0.0278,-0.1196,-1.9880958996214808,0.0,3.6945815086364746,-1.6829719543457031,0.015995774418115616,1.9464550018310547,5.213943946152487,0.0,0.2806771993637085,-1.6179359594928187,0.0,-0.002440886339172721,0.8780931830406189,-0.0,-0.0032216261606663465,0.77718585729599,0.011516464874148369,0.04724234342575073
772.0,898.0,-0.5079,0.6544,9.5324,-0.0382,0.0278,-0.1196,-1.988091608087057,0.0,3.6637940406799316,-1.6827962398529053,0.018438711762428284,1.9891661405563354,5.213928329735555,0.0,0.29113438725471497,-1.617960278187887,0.0,-0.015127411112189293,0.8780653476715088,-0.0,-0.009507324546575546,0.7772777676582336,0.013926081359386444,0.04177718982100487
772.0,898.0,-0.5079,0.6544,9.5324,-0.0382,0.0278,-0.1196,-1.9880711040892542,0.0,3.71040940284729,-1.682660460472107,0.021847868338227272,1.9903595447540283,5.213936316757955,0.0,0.2846651077270508,-1.6179316679583948,0.0,0.0025768703781068325,0.8781412243843079,-0.0,-0.010831405408680439,0.7773499488830566,0.014228666201233864,0.008897683583199978
772.0,898.0,-0.5079,0.6544,9.5324,-0.0382,0.0278,-0.1196,-1.988051553765768,0.0,3.694401741027832,-1.6824320554733276,0.027856815606355667,1.9873723983764648,5.213976132660665,4.3538012306498786e-08,0.28689149022102356,-1.6178997198687952,0.0,-0.007811735384166241,0.8780534267425537,-0.0,-0.005361020099371672,0.7774336934089661,0.013698560185730457,0.03461999446153641
772.0,898.0,-0.5079,0.6544,9.5324,-0.0382,0.0278,-0.1196,-1.9880958996214808,0.0,3.6898303031921387,-1.6821798086166382,0.03353213891386986,2.0031442642211914,5.213944005757131,7.912819162923801e-13,0.2922864854335785,-1.6178715864764612,0.0,-0.021267632022500038,0.8781010508537292,-0.0,-0.0009476775303483009,0.77750563621521,0.011044432409107685,0.020922023802995682
772.0,898.0,-0.5079,0.6544,9.5324,-0.0382,0.0278,-0.1196,-1.9879991016783656,0.0,3.7300500869750977,-1.6818757057189941,0.03812229633331299,1.988152265548706,5.213924395829,1.4381156989055026e-17,0.2712303400039673,-1.617920223866598,0.0,0.005363412667065859,0.878065288066864,-0.0,-0.0009565404616296291,0.7775899767875671,0.0069777946919202805,-0.06237274780869484
772.0,898.0,-0.5079,0.6544,9.5324,-0.0382,0.0278,-0.1196,-1.988091608087057,0.0,3.648439407348633,-1.6815483570098877,0.04069624841213226,1.9844081401824951,5.213916468411245,2.613704185840701e-22,0.288446307182312,-1.6179159323321741,0.0,0.004853283986449242,0.8780972957611084,-0.0,0.003274404676631093,0.7776137590408325,0.0029375054873526096,-0.025990977883338928
772.0,898.0,-0.5079,0.6544,9.5324,-0.0382,0.0278,-0.1196,-1.9880596599974574,0.0,3.645954132080078,-1.6813043355941772,0.04231638461351395,1.9992954730987549,5.2139164088066,7.275341805217899e-26,0.2797248661518097,-1.6178959051715296,0.0,-0.0009754319908097386,0.8781293034553528,-0.0,-0.018880918622016907,0.7776020169258118,0.0008675019489601254,-0.008745209313929081
772.0,898.0,-0.5079,0.6544,9.5324,-0.0382,0.0278,-0.1196,-1.988108297387594,0.0,3.624694347381592,-1.6809515953063965,0.04536480829119682,2.0199947357177734,5.213892149716177,1.3222571715111517e-30,0.2617494463920593,-1.6179121176349085,0.0,-0.00939347967505455,0.8781252503395081,-0.0,-0.003821121295914054,0.7775980234146118,-0.0005653844564221799,-0.022291366010904312
762.0,870.0,-0.5551,0.3147,9.9159,-0.0344,0.0362,-0.0927,-1.9880958996214808,0.0,3.600013017654419,-1.6805596351623535,0.04954942688345909,2.02437162399292,5.2139285681541345,2.403137057659002e-35,0.2663027346134186,-1.6178916136371058,0.0,0.0036816068459302187,0.8781132698059082,-0.0,-0.0012413072399795055,0.7775698900222778,-0.00274076359346509,-0.07035666704177856
762.0,870.0,-0.5551,0.3147,9.9159,-0.0344,0.0362,-0.0927,-1.9880958996214808,0.0,3.564777374267578,-1.6801880598068237,0.05527960881590843,1.9778363704681396,5.213900255947866,4.367581066592233e-40,0.2618796229362488,-1.6179001967059534,0.0,-0.0018332945182919502,0.878129243850708,-0.0,0.015696439892053604,0.7775458097457886,-0.0019451362313702703,-0.11648185551166534
762.0,870.0,-0.5551,0.3147,9.9159,-0.0344,0.0362,-0.0927,-1.9880639515318812,0.0,3.574665069580078,-1.6796671152114868,0.06315988302230835,2.0504846572875977,5.213864016323843,8.407790785948902e-45,0.262154757976532,-1.61786395708193,0.00014729713439010084,0.013309980742633343,0.8780851364135742,-0.0,0.0016116306651383638,0.7775542140007019,-0.001038042246364057,-0.11445669084787369
762.0,870.0,-0.5551,0.3147,9.9159,-0.0344,0.0362,-0.0927,-1.988091608087057,0.0,3.5845537185668945,-1.6790838241577148,0.07361543923616409,2.0435731410980225,5.213955986290731,0.0,0.25810670852661133,-1.6178839842425745,0.00015647713735233992,0.015228906646370888,0.8781778812408447,-0.0,0.008714809082448483,0.7775378823280334,-0.0006652726442553103,-0.10728611797094345
762.0,870.0,-0.5551,0.3147,9.9159,-0.0344,0.0362,-0.0927,-1.9880997143187464,0.0,3.598836660385132,-1.6785160303115845,0.07937661558389664,2.102090835571289,5.213872122555532,0.0,0.2534659504890442,-1.6178844610797327,0.00016271138156298548,0.010225738398730755,0.8781738877296448,2.0055478111569158e-10,0.010571585036814213,0.7775418758392334,-0.0006641180953010917,-0.16636833548545837
762.0,870.0,-0.5551,0.3147,9.9159,-0.0344,0.0362,-0.0927,-1.988035341302389,0.0,3.5667808055877686,-1.6777589321136475,0.09122896939516068,2.0918030738830566,5.213864016323843,-0.00047538577928207815,0.25763750076293945,-1.6178482214557093,0.00038034215685911477,0.013676362112164497,0.8781778812408447,3.644983942360227e-15,0.011881805956363678,0.7774655222892761,-0.0008603231399320066,-0.15121908485889435
762.0,870.0,-0.5551,0.3147,9.9159,-0.0344,0.0362,-0.0927,-1.9880835018553675,0.0,3.5586507320404053,-1.6769788265228271,0.10263121873140335,2.124312162399292,5.213892507344045,-0.0006340974359773099,0.2601338028907776,-1.6178000609027308,0.0005649292725138366,0.013617509044706821,0.8781492710113525,6.624578686972638e-20,0.007167767733335495,0.7774978876113892,-0.0014495792565867305,-0.20784109830856323
762.0,870.0,-0.5551,0.3147,9.9159,-0.0344,0.0362,-0.0927,-1.988051553765768,-5.48940988664981e-06,3.5600764751434326,-1.676318883895874,0.11131993681192398,2.1335558891296387,5.213888394623556,-0.0006689064903184772,0.25488102436065674,-1.6178200880633753,0.0006247413693927228,0.025844307616353035,0.8780566453933716,1.8439757765895039e-23,0.01574721187353134,0.7774658203125,-0.002238788641989231,-0.16015157103538513
762.0,870.0,-0.5551,0.3147,9.9159,-0.0344,0.0362,-0.0927,-1.988035341302389,-5.554637755267322e-05,3.5423712730407715,-1.675423264503479,0.1212419718503952,2.1587038040161133,5.213844048767843,-0.0005407238495536149,0.23718300461769104,-1.617828671132223,0.0008567908662371337,0.02959326095879078,0.8781371116638184,3.351335011093777e-28,0.012008859775960445,0.7774298191070557,-0.0043145655654370785,-0.17412054538726807
762.0,870.0,-0.5551,0.3147,9.9159,-0.0344,0.0362,-0.0927,-1.9880596599974574,-6.309842137852684e-05,3.544206142425537,-1.674383521080017,0.1404086947441101,2.163926601409912,5.213860559254446,-0.0006199831841513515,0.23342162370681763,-1.6178606192218226,0.0010834468994289637,0.026912597939372063,0.8781170845031738,6.0908860595810855e-33,0.019225258380174637,0.777393639087677,-0.006611746270209551,-0.20730650424957275
762.0,870.0,-0.5551,0.3147,9.9159,-0.0344,0.0362,-0.0927,-1.9881321392455042,-0.0005143893649801612,3.5496482849121094,-1.6731791496276855,0.15558207035064697,2.1895580291748047,5.2138364789779565,-0.0009096665307879448,0.24009910225868225,-1.6178167502032679,0.001600187737494707,0.04259762912988663,0.8781454563140869,1.1069883441216387e-37,0.022143550217151642,0.7773652672767639,-0.00452495226636529,-0.1928108036518097
761.0,850.0,-0.3559,0.1591,9.9386,-0.04,0.0994,-0.1245,-1.9880954227843226,-0.001174213015474379,3.530488967895508,-1.6718469858169556,0.17298367619514465,2.2240562438964844,5.2137722847755334,-0.0005846309359185398,0.22289960086345673,-1.6178000609027308,0.0037971804849803448,0.04650231823325157,0.8781051635742188,2.0122645947704373e-42,0.015178272500634193,0.7773658037185669,-0.003089216770604253,-0.22314152121543884
761.0,850.0,-0.3559,0.1591,9.9386,-0.04,0.0994,-0.1245,-1.9881116352477015,-0.0006657910998910666,3.5412192344665527,-1.670438528060913,0.18034261465072632,2.2330989837646484,5.213856446533956,-0.0005275598959997296,0.2204785794019699,-1.617688004170553,0.01552158035337925,0.04946410655975342,0.8781577944755554,0.0,0.024171140044927597,0.7773457169532776,-0.0024595914874225855,-0.22693365812301636
761.0,850.0,-0.3559,0.1591,9.9386,-0.04,0.0994,-0.1245,-1.9881564579405726,-0.00041800280450843275,3.5497820377349854,-1.6688860654830933,0.19957521557807922,2.257025957107544,5.213836419373312,-0.00044326926581561565,0.2334093451499939,-1.6176608244525355,0.004979885648936033,0.0495203472673893,0.8781128525733948,0.0,0.03084348514676094,0.777333676815033,-0.001915294909849763,-0.24527139961719513
761.0,850.0,-0.3559,0.1591,9.9386,-0.04,0.0994,-0.1245,-1.9881435833373011,-0.0003655817417893559,3.520632266998291,-1.6671619415283203,0.2189638912677765,2.293806552886963,5.213832366257467,-0.0005484618595801294,0.21463873982429504,-1.6176283995257776,2.145916141671478e-06,0.04896344617009163,0.8781332969665527,0.0,0.015110179781913757,0.777333676815033,-0.0014185757609084249,-0.29380932450294495
761.0,850.0,-0.3559,0.1591,9.9386,-0.04,0.0994,-0.1245,-1.988147874871725,-0.0004052302974741906,3.5161614418029785,-1.6658098697662354,0.22837390005588531,2.3184397220611572,5.213840412884512,-0.001520013902336359,0.20688557624816895,-1.617652718220846,5.973236349987587e-10,0.052373893558979034,0.8781288266181946,9.374818182550371e-05,0.04700688645243645,0.7773655652999878,-0.0010719416895881295,-0.2681184709072113
761.0,850.0,-0.3559,0.1591,9.9386,-0.04,0.0994,-0.1245,-1.9881273708739222,-0.00044250392238609493,3.5004639625549316,-1.663909912109375,0.24705208837985992,2.3003056049346924,5.213772225170889,-0.0011158690322190523,0.2013588696718216,-1.6176169554339808,1.0856062990021679e-14,0.06213049963116646,0.8781852722167969,9.214689634973183e-05,0.02989012561738491,0.7773177623748779,-0.0007290355279110372,-0.24927830696105957
761.0,850.0,-0.3559,0.1591,9.9386,-0.04,0.0994,-0.1245,-1.98815979580068,-0.0003556919109541923,3.470980167388916,-1.6619055271148682,0.26983511447906494,2.3929710388183594,5.213780391007223,-0.001910710008814931,0.2150210440158844,-1.617624584828512,1.973035787266377e-19,0.0773276835680008,0.8781578540802002,8.51706208777614e-05,0.022296439856290817,0.777329683303833,-0.0004079056379850954,-0.2763040065765381
761.0,850.0,-0.3559,0.1591,9.9386,-0.04,0.0994,-0.1245,-1.9881555042662562,-0.000600653700530529,3.492866039276123,-1.6596291065216064,0.27920547127723694,2.3406829833984375,5.2137165544326685,-0.008098305203020573,0.19578619301319122,-1.6176169554339808,3.585895040148755e-24,0.07197773456573486,0.8781734108924866,9.501093882136047e-05,0.026819981634616852,0.7773616909980774,-0.000828089308924973,-0.31098008155822754
761.0,850.0,-0.3559,0.1591,9.9386,-0.04,0.0994,-0.1245,-1.9881512127318324,-0.0018353014020249248,3.462007522583008,-1.6572855710983276,0.2999076843261719,2.430656909942627,5.213592397957601,-0.01573898084461689,0.1984330266714096,-1.6175969282733362,6.517186237026671e-29,0.05470244586467743,0.8781731128692627,8.87643764144741e-05,0.03477579355239868,0.7773097157478333,-0.0007902412326075137,-0.29807987809181213
761.0,850.0,-0.3559,0.1591,9.9386,-0.04,0.0994,-0.1245,-1.9882036648192347,-0.0010725184110924602,3.4711313247680664,-1.6547820568084717,0.3188587725162506,2.4699535369873047,5.213441240578451,-0.021209102123975754,0.18328070640563965,-1.6176369825946253,1.1844664032904348e-33,0.07681803405284882,0.8781128525733948,9.704904368845746e-05,0.0472860187292099,0.7772573232650757,-0.0008563321316614747,-0.3423822522163391
761.0,850.0,-0.3559,0.1591,9.9386,-0.04,0.0994,-0.1245,-1.9881473980345667,-0.0005916662630625069,3.4611730575561523,-1.6521106958389282,0.3327048420906067,2.484269857406616,5.213201153069296,-0.03055933676660061,0.18711596727371216,-1.6175969282733362,0.0004886616952717304,0.08368990570306778,0.8781614303588867,9.152291022473946e-05,0.04200158268213272,0.777269721031189,-0.0027391656767576933,-0.3537522554397583
761.0,850.0,-0.3559,0.1591,9.9386,-0.04,0.0994,-0.1245,-1.988199373284811,-0.0008174459217116237,3.437222480773926,-1.6492949724197388,0.3527282178401947,2.475790023803711,5.212953793793478,-0.04365053400397301,0.16983357071876526,-1.6175358931170862,0.0005501381237991154,0.08471199870109558,0.8782017230987549,8.649659139337018e-05,0.028153657913208008,0.7772657871246338,-0.004394685849547386,-0.3821835517883301
615.0,776.0,-0.2835,-0.2309,10.456,-0.0472,0.2066,-0.1271,-1.988199373284811,-0.0009856255492195487,3.4297683238983154,-1.6464110612869263,0.3679051995277405,2.52858304977417,5.212506878166952,-0.06897124648094177,0.1560126692056656,-1.6176050345050257,0.0005031342152506113,0.09791535139083862,0.8782053589820862,8.199366129701957e-05,0.0370425209403038,0.7772340774536133,-0.005844955798238516,-0.3722495436668396
615.0,776.0,-0.2835,-0.2309,10.456,-0.0472,0.2066,-0.1271,-1.9882155857481898,-0.0018456191755831242,3.43635892868042,-1.644160270690918,0.37879762053489685,2.5523135662078857,5.212043601065435,-0.08743692189455032,0.14900508522987366,-1.6175525824176233,0.0004583185655064881,0.10188253223896027,0.8781774640083313,9.016074909595773e-05,0.04477784037590027,0.7771695852279663,-0.007013828493654728,-0.4614083170890808
615.0,776.0,-0.2835,-0.2309,10.456,-0.0472,0.2066,-0.1271,-1.9882151089110316,-0.0018436085665598512,3.4316458702087402,-1.6410276889801025,0.3988230526447296,2.6174516677856445,5.211257266789236,-0.10322973132133484,0.13220445811748505,-1.6175850073443812,0.00046376840327866375,0.10484592616558075,0.8781771659851074,8.588281343691051e-05,0.04452751576900482,0.777141809463501,-0.006688778288662434,-0.43724802136421204
615.0,776.0,-0.2835,-0.2309,10.456,-0.0472,0.2066,-0.1271,-1.9882999859251917,-0.003521350910887122,3.4017553329467773,-1.6377962827682495,0.4089708924293518,2.6395721435546875,5.2104559419448755,-0.10017872601747513,0.13553839921951294,-1.6175687948810022,0.0004652846255339682,0.10662564635276794,0.8781812191009521,8.197178249247372e-05,0.03935255855321884,0.7770774960517883,-0.007270634174346924,-0.4202357828617096
615.0,776.0,-0.2835,-0.2309,10.456,-0.0472,0.2066,-0.1271,-1.9882871113219203,-0.005770500283688307,3.4420697689056396,-1.6345164775848389,0.42234688997268677,2.5892934799194336,5.209524321347036,-0.10540442913770676,0.13995295763015747,-1.617516819630758,0.00041692203376442194,0.10957524925470352,0.8781976103782654,2.623349018904264e-06,0.035389602184295654,0.7770614624023438,-0.0060552735812962055,-0.42714953422546387
615.0,776.0,-0.2835,-0.2309,10.456,-0.0472,0.2066,-0.1271,-1.98834290126943,-0.005425304640084505,3.456294059753418,-1.631025791168213,0.4383557140827179,2.647581100463867,5.208612578898229,-0.1400042623281479,0.12193375825881958,-1.6175411383258265,0.0003998496395070106,0.11608026921749115,0.8781893253326416,4.767807329497664e-11,0.040239475667476654,0.776997447013855,-0.004221706185489893,-0.4553092122077942
615.0,776.0,-0.2835,-0.2309,10.456,-0.0472,0.2066,-0.1271,-1.9883910618224085,-0.0032367813400924206,3.450263500213623,-1.6275266408920288,0.447414368391037,2.620692491531372,5.207434493094244,-0.14877387881278992,0.12324438989162445,-1.6175616423236292,0.00037210650043562055,0.11929062753915787,0.878197193145752,8.665252929529899e-16,0.04592033103108406,0.7769774794578552,-0.0032899908255785704,-0.38663357496261597
615.0,776.0,-0.2835,-0.2309,10.456,-0.0472,0.2066,-0.1271,-1.988427301446432,-0.002695190254598856,3.4228382110595703,-1.6238476037979126,0.45352423191070557,2.6499156951904297,5.206196325808325,-0.14539998769760132,0.12600767612457275,-1.6175087133990687,0.00037614049506373703,0.12144747376441956,0.8781656622886658,1.5748670679764353e-20,0.04301229864358902,0.776941180229187,-0.00281706964597106,-0.3797333836555481
615.0,776.0,-0.2835,-0.2309,10.456,-0.0472,0.2066,-0.1271,-1.9884349308409632,-0.003220304613932967,3.484983444213867,-1.6201434135437012,0.46551457047462463,2.70251202583313,5.205016064434805,-0.1712297946214676,0.11142290383577347,-1.6174691359149378,0.0005182732129469514,0.1396746039390564,0.8781852722167969,6.555693835252896e-05,0.0353279784321785,0.7769694328308105,-0.0013170407619327307,-0.4295864403247833
615.0,776.0,-0.2835,-0.2309,10.456,-0.0472,0.2066,-0.1271,-1.9884916744627894,-0.0017691623652353883,3.47027587890625,-1.616407871246338,0.47396740317344666,2.7010340690612793,5.203418898373403,-0.18757764995098114,0.11366255581378937,-1.6174691359149378,0.002123907906934619,0.1311095952987671,0.8781773447990417,6.632157601416111e-05,0.041665319353342056,0.7769492864608765,-0.0008508406463079154,-0.40920060873031616
615.0,776.0,-0.2835,-0.2309,10.456,-0.0472,0.2066,-0.1271,-1.9884835682311,-0.0011319558834657073,3.440117835998535,-1.6135526895523071,0.4764654040336609,2.728689432144165,5.20234842875556,-0.2031063735485077,0.12445617467164993,-1.6174166838275355,0.01532923337072134,0.128323033452034,0.8781332969665527,6.351347110467032e-05,0.05324346572160721,0.7769334316253662,-0.0006978553719818592,-0.4371512532234192
319.0,353.0,-1.2987,0.4193,10.6325,-0.0286,0.3253,-0.1257,-1.9885193310179652,-0.0008450114983133972,3.457932472229004,-1.6097207069396973,0.49235475063323975,2.7431235313415527,5.200428324728765,-0.23272375762462616,0.08600547909736633,-1.617225472127096,0.025067267939448357,0.14162850379943848,0.8782052993774414,6.011930599925108e-05,0.05178554356098175,0.7769374251365662,-0.0004860170010942966,-0.43575629591941833
319.0,353.0,-1.2987,0.4193,10.6325,-0.0286,0.3253,-0.1257,-1.9885274372496546,-0.0012920279987156391,3.4952845573425293,-1.6059105396270752,0.49685388803482056,2.7226402759552,5.198502230435171,-0.24537566304206848,0.09143652021884918,-1.6171024481402796,0.014058968983590603,0.13775184750556946,0.8782011866569519,5.706957381335087e-05,0.03365737944841385,0.7769774198532104,-0.0001790063251974061,-0.4434921145439148
319.0,353.0,-1.2987,0.4193,10.6325,-0.0286,0.3253,-0.1257,-1.9885674915709437,-0.005822009406983852,3.483731985092163,-1.6018871068954468,0.4970070421695709,2.71443510055542,5.196327346354284,-0.2676895558834076,0.07368504256010056,-1.6170180479632776,0.0030383067205548286,0.1378011405467987,0.8781332969665527,5.431430690805428e-05,0.033698856830596924,0.7769533395767212,-6.494995614048094e-05,-0.4058620035648346
319.0,353.0,-1.2987,0.4193,10.6325,-0.0286,0.3253,-0.1257,-1.9885670147337855,-0.009522817097604275,3.5129597187042236,-1.5978918075561523,0.5086443424224854,2.696847438812256,5.19408409574584,-0.30725783109664917,0.05596150830388069,-1.617042366658346,0.0002889465249609202,0.1330733597278595,0.8781496286392212,5.181285087019205e-05,0.04703746363520622,0.7769414186477661,-2.10429590419281e-12,-0.38286876678466797
319.0,353.0,-1.2987,0.4193,10.6325,-0.0286,0.3253,-0.1257,-1.98866667369985,-0.012056179344654083,3.4748587608337402,-1.5938136577606201,0.5095347166061401,2.7730231285095215,5.191538172751226,-0.3348113000392914,0.042121030390262604,-1.6169865767108362,0.0001920961803989485,0.14558832347393036,0.8781571984291077,2.5106955945375375e-05,0.03766641765832901,0.7769694328308105,-6.817652335465318e-20,-0.3951495885848999
319.0,353.0,-1.2987,0.4193,10.6325,-0.0286,0.3253,-0.1257,-1.9888307056822718,-0.015872154384851456,3.4618515968322754,-1.5897130966186523,0.5043964385986328,2.749082565307617,5.188659387617864,-0.36101630330085754,0.03167594596743584,-1.6169984976397913,0.00020184656023047864,0.15202423930168152,0.878157377243042,4.563065481022477e-10,0.04186471551656723,0.7770334482192993,0.00010208151070401073,-0.4214320182800293
319.0,353.0,-1.2987,0.4193,10.6325,-0.0286,0.3253,-0.1257,-1.9889465771117152,-0.019235793501138687,3.413609027862549,-1.5856415033340454,0.5102114081382751,2.761672258377075,5.185643750220098,-0.3967331647872925,0.030219580978155136,-1.6169746557818812,0.00014193756214808673,0.149343803524971,0.8781614303588867,8.293145426570454e-15,0.0354752317070961,0.7769136428833008,0.0001312255481025204,-0.4298851788043976
319.0,353.0,-1.2987,0.4193,10.6325,-0.0286,0.3253,-0.1257,-1.989110609094137,-0.019684821367263794,3.4743432998657227,-1.5825303792953491,0.5120943784713745,2.761338949203491,5.183068352728643,-0.42965415120124817,0.014584757387638092,-1.6170147101031702,0.000191517174243927,0.15624505281448364,0.8781812191009521,2.3084278247027603e-18,0.018848497420549393,0.7769814729690552,5.3836614824831486e-05,-0.4144399166107178
319.0,353.0,-1.2987,0.4193,10.6325,-0.0286,0.3253,-0.1257,-1.9892221889891566,-0.02241731621325016,3.4252657890319824,-1.5784775018692017,0.5181944966316223,2.7277469635009766,5.179497676878729,-0.4712851941585541,-0.01036040112376213,-1.61696702638735,0.0007901357021182775,0.14055821299552917,0.878129243850708,4.1954538569559105e-23,0.02269797772169113,0.7769734263420105,4.344073749962263e-05,-0.44875866174697876
319.0,353.0,-1.2987,0.4193,10.6325,-0.0286,0.3253,-0.1257,-1.9894501171507777,-0.025701584294438362,3.4814682006835938,-1.5743937492370605,0.5187416672706604,2.7632081508636475,5.175541686802664,-0.5001426935195923,-0.025896281003952026,-1.6169307867633265,0.0010952058946713805,0.15115898847579956,0.8781248331069946,7.62503013188117e-28,0.02815033309161663,0.7769734263420105,6.023715570790955e-08,-0.4667205810546875
319.0,353.0,-1.2987,0.4193,10.6325,-0.0286,0.3253,-0.1257,-1.9896933041014613,-0.034250035881996155,3.4080212116241455,-1.5702369213104248,0.5166436433792114,2.767098903656006,5.171299713640966,-0.540066659450531,-0.008081662468612194,-1.6169183889972132,0.002255404368042946,0.14723220467567444,0.8781614303588867,1.3858115960195034e-32,0.042319077998399734,0.7769694328308105,1.951607109154218e-15,-0.43193262815475464
319.0,353.0,-1.2987,0.4193,10.6325,-0.0286,0.3253,-0.1257,-1.9900299511351527,-0.04299391433596611,3.413654327392578,-1.566063404083252,0.519050657749176,2.7722136974334717,5.166730212956228,-0.5808508396148682,-0.026308266445994377,-1.6168502012835901,0.00350613403134048,0.15034951269626617,0.878173291683197,2.518644534071482e-37,0.02499031275510788,0.7769453525543213,6.322958706884148e-23,-0.40170228481292725
227.0,225.0,-1.8574,-0.0927,9.603,-0.0629,0.2477,-0.1009,-1.9903322658934535,-0.04979556053876877,3.436816453933716,-1.5618512630462646,0.5154480934143066,2.7731728553771973,5.161928015738287,-0.6205356121063232,-0.02264399826526642,-1.6168230215655726,0.003996017388999462,0.14157447218894958,0.8781288266181946,4.5780420829491774e-42,0.030100535601377487,0.776929497718811,-0.0005963887670077384,-0.39031219482421875
227.0,225.0,-1.8574,-0.0927,9.603,-0.0629,0.2477,-0.1009,-1.99078430751943,-0.05690125748515129,3.4557247161865234,-1.5577155351638794,0.5135942697525024,2.7841429710388184,5.156861859350958,-0.6546897292137146,-0.01670668087899685,-1.6168187300311487,0.005132938269525766,0.14795948565006256,0.8781333565711975,0.0,0.01905551180243492,0.7769334316253662,-0.0008434730698354542,-0.43576472997665405
227.0,225.0,-1.8574,-0.0927,9.603,-0.0629,0.2477,-0.1009,-1.9912835560240687,-0.06367351114749908,3.4080090522766113,-1.553578495979309,0.5124073028564453,2.765075445175171,5.151368903904714,-0.6905461549758911,-0.020233744755387306,-1.6168277899371546,0.0058431788347661495,0.1541566252708435,0.8781168460845947,0.0,0.01590471714735031,0.7769173979759216,-0.0006281112437136471,-0.4445191025733948
227.0,225.0,-1.8574,-0.0927,9.603,-0.0629,0.2477,-0.1009,-1.9917546711363734,-0.06709978729486465,3.4400811195373535,-1.5495376586914062,0.5104901790618896,2.7620882987976074,5.145721602230825,-0.7240637540817261,-0.030196983367204666,-1.6167271772967737,0.004291276913136244,0.15843379497528076,0.8781613707542419,0.0,0.015266511589288712,0.7769691944122314,-0.0006468534120358527,-0.45654237270355225
227.0,225.0,-1.8574,-0.0927,9.603,-0.0629,0.2477,-0.1009,-1.9921781025328578,-0.0720350444316864,3.4067482948303223,-1.5464587211608887,0.510739266872406,2.7804412841796875,5.141243415861883,-0.7416412234306335,-0.026723116636276245,-1.616727654133932,0.0034060105681419373,0.1470717340707779,0.8781288266181946,0.0,0.026353664696216583,0.7769492864608765,-0.0010729642817750573,-0.4123101532459259
227.0,225.0,-1.8574,-0.0927,9.603,-0.0629,0.2477,-0.1009,-1.9927970371642054,-0.07555229961872101,3.422365188598633,-1.5424952507019043,0.5087077021598816,2.849727153778076,5.135251778155126,-0.7727435231208801,-0.02041332796216011,-1.6166914145099085,0.0029078382067382336,0.14405390620231628,0.8780892491340637,0.0,0.01998017355799675,0.7769015431404114,-0.0007058717892505229,-0.4177752137184143
227.0,225.0,-1.8574,-0.0927,9.603,-0.0629,0.2477,-0.1009,-1.993420263329977,-0.07771652191877365,3.4354946613311768,-1.5384535789489746,0.5008179545402527,2.7945384979248047,5.128946560412206,-0.800091028213501,-0.043124016374349594,-1.6166470686541956,0.0030770667362958193,0.14896957576274872,0.8781496286392212,0.0,0.010060833767056465,0.7768734097480774,-0.00048735967720858753,-0.46063879132270813
227.0,225.0,-1.8574,-0.0927,9.603,-0.0629,0.2477,-0.1009,-1.994091650048727,-0.08420166373252869,3.403252601623535,-1.5345638990402222,0.4967987537384033,2.776968479156494,5.1223071096237085,-0.8235062956809998,-0.01958068460226059,-1.6166232267962855,0.0033626072108745575,0.15400904417037964,0.8781454563140869,-1.3310827853274532e-05,0.01343717984855175,0.7768893241882324,-0.0003721717221196741,-0.46726396679878235
227.0,225.0,-1.8574,-0.0927,9.603,-0.0629,0.2477,-0.1009,-1.9947902164854945,-0.09547416865825653,3.421359062194824,-1.5305454730987549,0.48708221316337585,2.7627029418945312,5.115447866707601,-0.8613735437393188,-0.021509777754545212,-1.6165993849383753,0.003439635969698429,0.14329831302165985,0.8781777024269104,-2.0071629478479736e-05,0.021301114931702614,0.7768893241882324,-0.00030737032648175955,-0.42954760789871216
227.0,225.0,-1.8574,-0.0927,9.603,-0.0629,0.2477,-0.1009,-1.995556970635885,-0.10638879239559174,3.445399761199951,-1.5266317129135132,0.4805963635444641,2.7216567993164062,5.1084879515464685,-0.8879820704460144,-0.041467826813459396,-1.6165755430804651,0.004532803315669298,0.14623114466667175,0.8780932426452637,-2.800786935708288e-09,0.023797623813152313,0.7768367528915405,-0.001264197751879692,-0.4270273447036743
227.0,225.0,-1.8574,-0.0927,9.603,-0.0629,0.2477,-0.1009,-1.99646057705068,-0.11853080242872238,3.374854564666748,-1.5227584838867188,0.47950050234794617,2.7109732627868652,5.101368474751272,-0.9096900224685669,-0.03327171504497528,-1.6165197531329554,0.006447878200560808,0.14681220054626465,0.8781211376190186,-5.0902912527434063e-14,0.013996864669024944,0.7768654227256775,-0.0025947189424186945,-0.43750637769699097
222.0,209.0,-2.7523,0.4708,9.052,-0.0423,-0.1434,-0.1092,-1.9974423847594203,-0.12249381840229034,3.382690668106079,-1.5189319849014282,0.4774024784564972,2.7102808952331543,5.094086754112997,-0.9338703751564026,-0.0216669961810112,-1.616488281880514,0.008861541748046875,0.1370539367198944,0.8781170845031738,-9.251353406915572e-19,-0.0017051519826054573,0.7767893671989441,-0.0035485129337757826,-0.49089276790618896
222.0,209.0,-2.7523,0.4708,9.052,-0.0423,-0.1434,-0.1092,-1.9984690151610316,-0.11896992474794388,3.363917589187622,-1.5152188539505005,0.47917070984840393,2.67486572265625,5.086340117245474,-0.9545422792434692,-0.02446737326681614,-1.6163557211505335,0.011405326426029205,0.1492576003074646,0.8781250715255737,-1.6813879152632893e-23,0.01420949213206768,0.7768091559410095,-0.0036645298823714256,-0.48816847801208496
222.0,209.0,-2.7523,0.4708,9.052,-0.0423,-0.1434,-0.1092,-1.999240060845846,-0.1209496259689331,3.463608503341675,-1.5124609470367432,0.47325029969215393,2.731449842453003,5.080566125899114,-0.9639585614204407,-0.04699484258890152,-1.6163042227374476,0.014986553229391575,0.14297136664390564,0.8780970573425293,-4.680204668971355e-27,-0.0013720206916332245,0.7767893671989441,-0.0036619899328798056,-0.4911576807498932
222.0,209.0,-2.7523,0.4708,9.052,-0.0423,-0.1434,-0.1092,-2.000265737573141,-0.13938407599925995,3.3578267097473145,-1.5087021589279175,0.4583415687084198,2.712430953979492,5.072701948672094,-0.9855543375015259,-0.03942561894655228,-1.6161163488971155,0.02711350843310356,0.13807354867458344,0.878089189529419,-8.506041104012012e-32,0.007529940456151962,0.7767373323440552,-0.003997814375907183,-0.3932645916938782
222.0,209.0,-2.7523,0.4708,9.052,-0.0423,-0.1434,-0.1092,-2.0014568767943324,-0.1604735553264618,3.380317211151123,-1.5050848722457886,0.4572543203830719,2.7375688552856445,5.065012562065878,-0.9891611337661743,-0.025451507419347763,-1.6157973448382776,0.05730849876999855,0.14733251929283142,0.8781331777572632,-1.545930940562092e-36,0.00040634535253047943,0.7766928672790527,-0.004986743908375502,-0.45529747009277344
222.0,209.0,-2.7523,0.4708,9.052,-0.0423,-0.1434,-0.1092,-2.0027672253050746,-0.16768786311149597,3.3468503952026367,-1.501430869102478,0.4550720453262329,2.707129955291748,5.057247030525961,-0.9739301204681396,-0.039383359253406525,-1.6151226202594202,0.1182415634393692,0.18410053849220276,0.8781657218933105,-2.809603420971258e-41,0.0024537057615816593,0.7766649723052979,-0.009172947145998478,-0.4534233510494232
222.0,209.0,-2.7523,0.4708,9.052,-0.0423,-0.1434,-0.1092,-2.004017015496725,-0.14913859963417053,3.3508176803588867,-1.4976322650909424,0.46036604046821594,2.6915807723999023,5.0495396731193445,-0.944945216178894,-0.0401582196354866,-1.6139691511737269,0.16149207949638367,0.197661891579628,0.8780813813209534,-0.0,-0.005008877720683813,0.77660071849823,-0.009930113330483437,-0.45138391852378845
222.0,209.0,-2.7523,0.4708,9.052,-0.0423,-0.1434,-0.1092,-2.0051828823485316,-0.13110116124153137,3.4187114238739014,-1.4939628839492798,0.4664379060268402,2.6822237968444824,5.042085426836767,-0.9123701453208923,-0.028682779520750046,-1.6126449743853968,0.16731318831443787,0.20562490820884705,0.8780852556228638,-0.0,0.0001675034873187542,0.7765408158302307,-0.006112461443990469,-0.4145922064781189
222.0,209.0,-2.7523,0.4708,9.052,-0.0423,-0.1434,-0.1092,-2.0063892803587855,-0.14372742176055908,3.4300198554992676,-1.4902970790863037,0.4565364718437195,2.7071733474731445,5.034959631949224,-0.8843705654144287,-0.024663716554641724,-1.6110041777240198,0.22527837753295898,0.22256889939308167,0.8781012892723083,-0.0,-0.0028221250977367163,0.7765731811523438,-0.0011940936092287302,-0.4620129466056824
222.0,209.0,-2.7523,0.4708,9.052,-0.0423,-0.1434,-0.1092,-2.007599493066305,-0.16558577120304108,3.415970802307129,-1.4867072105407715,0.4453401565551758,2.6891584396362305,5.028120684414663,-0.8536664247512817,-0.018870491534471512,-1.6090911070453089,0.23385128378868103,0.21862614154815674,0.8781450390815735,-0.0,-0.005252508446574211,0.7765649557113647,0.0007172008627094328,-0.3868628740310669
222.0,209.0,-2.7523,0.4708,9.052,-0.0423,-0.1434,-0.1092,-2.008493562737936,-0.16367481648921967,3.401449203491211,-1.484017014503479,0.4452441334724426,2.6462936401367188,5.02315633276061,-0.8245919346809387,-0.00483634602278471,-1.6076105276690882,0.27096834778785706,0.2314765453338623,0.878093421459198,-0.0,0.008418455719947815,0.7765970230102539,0.0004540045920293778,-0.3647153973579407
222.0,209.0,-2.7523,0.4708,9.052,-0.0423,-0.1434,-0.1092,-2.0096522770323695,-0.1413251906633377,3.498079776763916,-1.4804341793060303,0.45169365406036377,2.68856143951416,5.016871857434072,-0.7749637365341187,0.00013804866466671228,-1.6052783171283167,0.28675875067710876,0.23397329449653625,0.878161609172821,-0.0,-0.012089824303984642,0.776577353477478,0.0002508434990886599,-0.34020107984542847
226.0,190.0,-0.4558,0.8943,9.6772,-0.0941,-0.6651,-0.1312,-2.010770460168356,-0.12092601507902145,3.4930431842803955,-1.4767885208129883,0.44888460636138916,2.6402523517608643,5.010900515108862,-0.7322480082511902,0.017040584236383438,-1.602729622517721,0.32652193307876587,0.24644994735717773,0.8780933022499084,-0.0,0.0033595850691199303,0.7766498327255249,0.0018818880198523402,-0.3097575902938843
226.0,190.0,-0.4558,0.8943,9.6772,-0.0941,-0.6651,-0.1312,-2.011809011498922,-0.12308269739151001,3.565624713897705,-1.4732301235198975,0.4512510299682617,2.6514368057250977,5.005218136101522,-0.6866618990898132,0.018996788188815117,-1.6000822226153772,0.3517756760120392,0.2532612681388855,0.8781172633171082,-0.0,-0.011754977516829967,0.7766492366790771,0.006051762495189905,-0.3531997501850128
226.0,190.0,-0.4558,0.8943,9.6772,-0.0941,-0.6651,-0.1312,-2.012907167474264,-0.13802310824394226,3.52131986618042,-1.4697604179382324,0.43830549716949463,2.668536424636841,4.999851244478979,-0.661293089389801,0.01482640765607357,-1.5971773306476038,0.37848347425460815,0.25709953904151917,0.878097414970398,-0.0,0.001724942005239427,0.7766690850257874,0.005192114971578121,-0.25663161277770996
226.0,190.0,-0.4558,0.8943,9.6772,-0.0941,-0.6651,-0.1312,-2.0139581165709437,-0.14651750028133392,3.5456161499023438,-1.466178297996521,0.424329936504364,2.6117756366729736,4.994649457722463,-0.632168710231781,0.02660343423485756,-1.5941055456744593,0.39854711294174194,0.2554532289505005,0.8781291842460632,-0.0,-0.005882123485207558,0.7766693830490112,0.002922264626249671,-0.1741689145565033
226.0,190.0,-0.4558,0.8943,9.6772,-0.0941,-0.6651,-0.1312,-2.0149432621397914,-0.12994392216205597,3.6055257320404053,-1.4626871347427368,0.42917829751968384,2.632805824279785,4.989740717201986,-0.5927555561065674,0.03552929311990738,-1.5907891432391565,0.42582839727401733,0.26402103900909424,0.8780813813209534,-0.0,-0.0013971799053251743,0.7767290472984314,0.0013248055474832654,-0.18057729303836823
226.0,190.0,-0.4558,0.8943,9.6772,-0.0941,-0.6651,-0.1312,-2.01595463375234,-0.11073119193315506,3.608407974243164,-1.4592481851577759,0.4295680820941925,2.6510701179504395,4.9852307615573785,-0.551038920879364,0.04342467337846756,-1.58728534380068,0.45476993918418884,0.2809697389602661,0.8781335353851318,-0.0,0.0010108485585078597,0.7767013311386108,0.00025171873858198524,-0.18225881457328796
226.0,190.0,-0.4558,0.8943,9.6772,-0.0941,-0.6651,-0.1312,-2.016852994958395,-0.10267754644155502,3.6491427421569824,-1.455879807472229,0.42425087094306946,2.633298873901367,4.98099039772109,-0.5138369798660278,0.03424709290266037,-1.5835488478290003,0.4815075695514679,0.27876055240631104,0.8780774474143982,-5.174558100407012e-05,-0.008925431407988071,0.7767373919487,0.0006872742087580264,-0.2110270857810974
226.0,190.0,-0.4558,0.8943,9.6772,-0.0941,-0.6651,-0.1312,-2.01747526744985,-0.10794596374034882,3.643557071685791,-1.4533237218856812,0.42177054286003113,2.663822650909424,4.978030907898702,-0.4866867959499359,0.0375455766916275,-1.5806129614459437,0.48967403173446655,0.2816470265388489,0.8780535459518433,-5.033563502365723e-05,-0.009934501722455025,0.7767130732536316,0.002678668824955821,-0.14131852984428406
226.0,190.0,-0.4558,0.8943,9.6772,-0.0941,-0.6651,-0.1312,-2.0183378658690394,-0.11525563895702362,3.640854597091675,-1.4500453472137451,0.40841811895370483,2.62528133392334,4.974268275290289,-0.4643721580505371,0.048593275249004364,-1.576568905507223,0.5224588513374329,0.2741157114505768,0.8780936598777771,-1.3856150893332142e-08,-0.014568491838872433,0.7767212390899658,0.0014268121449276805,-0.18023575842380524
226.0,190.0,-0.4558,0.8943,9.6772,-0.0941,-0.6651,-0.1312,-2.019184728662008,-0.11216937750577927,3.6471574306488037,-1.4468356370925903,0.39330703020095825,2.6018292903900146,4.970722216158666,-0.4388689398765564,0.07126414775848389,-1.5722644964801233,0.5454406142234802,0.2883712649345398,0.8780375719070435,-2.518286957003263e-13,0.007750818505883217,0.7767333388328552,0.00016431922267656773,-0.21015016734600067
226.0,190.0,-0.4558,0.8943,9.6772,-0.0941,-0.6651,-0.1312,-2.019992013970846,-0.09620897471904755,3.694603443145752,-1.4437003135681152,0.3974815905094147,2.5998668670654297,4.967491167574682,-0.3973909616470337,0.07273804396390915,-1.567756477986471,0.5669335722923279,0.2589457035064697,0.8780535459518433,-4.576861880378888e-18,0.007732196245342493,0.7767013311386108,7.81289636506699e-05,-0.17566587030887604
187.0,169.0,1.6995,1.331,9.2046,-0.3833,-0.3566,-0.1526,-2.0207306347289027,-0.08452402055263519,3.6770262718200684,-1.4406019449234009,0.3876458406448364,2.581946849822998,4.964327382832327,-0.36546608805656433,0.10032826662063599,-1.563103977833883,0.5912629961967468,0.28380298614501953,0.8780853748321533,-8.318220176838584e-23,-0.004559800028800964,0.7766852974891663,6.028286897441504e-11,-0.1956486999988556
187.0,169.0,1.6995,1.331,9.2046,-0.3833,-0.3566,-0.1526,-2.021421094933981,-0.08914560079574585,3.750748634338379,-1.4375793933868408,0.3742401599884033,2.58548641204834,4.961519542127409,-0.3332187533378601,0.10706451535224915,-1.5582154432879847,0.614812433719635,0.26352015137672424,0.8780893683433533,-1.5117953025157041e-27,0.005436629988253117,0.7767013311386108,-0.00038265460170805454,-0.18679550290107727
187.0,169.0,1.6995,1.331,9.2046,-0.3833,-0.3566,-0.1526,-2.0221363506712855,-0.09375575184822083,3.7257444858551025,-1.4346165657043457,0.3561960458755493,2.53406023979187,4.959021779685774,-0.3057769238948822,0.12207264453172684,-1.5531590620623987,0.6316401958465576,0.26593172550201416,0.8780854344367981,-2.747613426049874e-32,-0.00894746370613575,0.7766413688659668,-0.00020727441005874425,-0.1429271101951599
187.0,169.0,1.6995,1.331,9.2046,-0.3833,-0.3566,-0.1526,-2.0228387318053187,-0.09025900065898895,3.6997878551483154,-1.4317700862884521,0.3469626307487488,2.54172945022583,4.9568854598100565,-0.253925085067749,0.13316641747951508,-1.5480077902423304,0.6601164937019348,0.2599974274635315,0.8781092166900635,-4.993651064509609e-37,-0.0015596987213939428,0.7766213417053223,-0.00020579622650984675,-0.17035579681396484
187.0,169.0,1.6995,1.331,9.2046,-0.3833,-0.3566,-0.1526,-2.0234857998290003,-0.07990732043981552,3.703080654144287,-1.429015874862671,0.333182156085968,2.5138821601867676,4.95494498589591,-0.21753650903701782,0.15863825380802155,-1.542657200490133,0.666773796081543,0.26081886887550354,0.8781370520591736,-9.07621015343184e-42,-0.019797973334789276,0.7766691446304321,-0.0009225087705999613,-0.15612588822841644
187.0,169.0,1.6995,1.331,9.2046,-0.3833,-0.3566,-0.1526,-2.0239693127074183,-0.06910645961761475,3.734445571899414,-1.427004098892212,0.3250969648361206,2.4936869144439697,4.953845667629995,-0.1811465620994568,0.18293985724449158,-1.5385163466082972,0.6793259978294373,0.2718108892440796,0.8780893683433533,-2.802596928649634e-45,-0.0013016867451369762,0.7766770720481873,-0.0005822078674100339,-0.19199895858764648
187.0,169.0,1.6995,1.331,9.2046,-0.3833,-0.3566,-0.1526,-2.02451290706777,-0.05828507989645004,3.70206880569458,-1.4245260953903198,0.316058874130249,2.4901156425476074,4.952463927655973,-0.1572035253047943,0.18974575400352478,-1.5331042448626917,0.6938368082046509,0.2441536784172058,0.8780654072761536,-0.0,0.005026008002460003,0.7766691446304321,-0.00030686616082675755,-0.09849587082862854
187.0,169.0,1.6995,1.331,9.2046,-0.3833,-0.3566,-0.1526,-2.0249959431090296,-0.057805322110652924,3.732081651687622,-1.4221107959747314,0.294299840927124,2.457598924636841,4.9514494118984125,-0.10227946192026138,0.21720346808433533,-1.5275052229510706,0.7109249830245972,0.2723436951637268,0.8781052827835083,-0.0,0.0012154591968283057,0.776665210723877,-0.0002288251998834312,-0.13624036312103271
187.0,169.0,1.6995,1.331,9.2046,-0.3833,-0.3566,-0.1526,-2.0254270039000453,-0.061524827033281326,3.783280372619629,-1.4199482202529907,0.2722853422164917,2.4238882064819336,4.950884061842718,-0.043913889676332474,0.24210520088672638,-1.5218289534198206,0.7118587493896484,0.26164138317108154,0.8780972957611084,-0.0,-0.007232104428112507,0.7766774296760559,8.470596367260441e-05,-0.13288211822509766
187.0,169.0,1.6995,1.331,9.2046,-0.3833,-0.3566,-0.1526,-2.025963445703024,-0.06320086866617203,3.767610788345337,-1.417853593826294,0.2596750855445862,2.4599690437316895,4.950773227005758,-1.6967111150734127e-05,0.2628270387649536,-1.5160310904132288,0.7185354828834534,0.23696790635585785,0.8781052827835083,-0.0,0.007966574281454086,0.7766691446304321,4.5754470193060115e-05,-0.10842510312795639
187.0,169.0,1.6995,1.331,9.2046,-0.3833,-0.3566,-0.1526,-2.026374479333395,-0.061744436621665955,3.7169971466064453,-1.4158421754837036,0.23613645136356354,2.4035966396331787,4.950929286866941,0.026286941021680832,0.2776247262954712,-1.5101950804339808,0.7283719778060913,0.2616710960865021,0.8780933022499084,-0.0,-0.01200130581855774,0.7766332626342773,3.800354534178041e-05,-0.07774139195680618
187.0,169.0,1.6995,1.331,9.2046,-0.3833,-0.3566,-0.1526,-2.02687468151235,-0.06074942275881767,3.7600433826446533,-1.4140435457229614,0.2309151142835617,2.447258949279785,4.951124179154196,0.033577095717191696,0.2755647599697113,-1.5043252150165003,0.7300819754600525,0.25275126099586487,0.8780853748321533,-0.0,-0.012239035218954086,0.7767051458358765,0.00021257410116959363,-0.11781413853168488
167.0,160.0,1.325,0.061,8.6142,-0.693,0.0461,-0.137,-2.0274020634093226,-0.06556330621242523,3.747706413269043,-1.412227988243103,0.22464151680469513,2.3897085189819336,4.951307910471716,0.0291177686303854,0.27435702085494995,-1.4985340277301233,0.7380760908126831,0.22888319194316864,0.8780734539031982,-0.0,-0.004011867567896843,0.7766892313957214,0.00021786564320791513,-0.16249169409275055
167.0,160.0,1.325,0.061,8.6142,-0.693,0.0461,-0.137,-2.027928968469137,-0.07249174267053604,3.766817808151245,-1.410538911819458,0.20563113689422607,2.3758482933044434,4.951471316605367,0.019790032878518105,0.28397369384765625,-1.4925959745990198,0.7478117942810059,0.25028592348098755,0.8780933618545532,-0.0,-0.006143270060420036,0.7767134308815002,0.0006028099451214075,-0.09558001160621643
167.0,160.0,1.325,0.061,8.6142,-0.693,0.0461,-0.137,-2.028360506097311,-0.07464911043643951,3.7613470554351807,-1.4093396663665771,0.20210498571395874,2.396021842956543,4.951599421888151,0.012406039983034134,0.27907830476760864,-1.4881928602801722,0.7365468740463257,0.22972825169563293,0.8780853748321533,-0.0,0.0008694489952176809,0.7767571806907654,0.0016332986997440457,-0.11714299023151398
167.0,160.0,1.325,0.061,8.6142,-0.693,0.0461,-0.137,-2.028959890405172,-0.06889685243368149,3.7526235580444336,-1.407773733139038,0.19286629557609558,2.358802556991577,4.951631399780073,0.0024299209471791983,0.2862965166568756,-1.482276741658346,0.7370984554290771,0.23864410817623138,0.8781132102012634,-0.0,0.007281577680259943,0.7767492532730103,0.0012703180545940995,-0.07478338479995728
167.0,160.0,1.325,0.061,8.6142,-0.693,0.0461,-0.137,-2.029534956017965,-0.06372018158435822,3.811192274093628,-1.4062793254852295,0.17473255097866058,2.2727127075195312,4.9515511868293665,-0.003509900765493512,0.2630805969238281,-1.476417366658346,0.7274447679519653,0.24216337502002716,0.8781330585479736,-0.0,0.0023026575800031424,0.7767855525016785,0.0012550198007375002,-0.05810508877038956
167.0,160.0,1.325,0.061,8.6142,-0.693,0.0461,-0.137,-2.030046602288717,-0.06018783524632454,3.756648540496826,-1.4049888849258423,0.15563568472862244,2.264941930770874,4.951539221196928,-0.0009198890184052289,0.27212750911712646,-1.4706209341632288,0.7212782502174377,0.21576249599456787,0.8781012892723083,-0.0,-0.0023459740914404392,0.7767492532730103,0.002130800625309348,-0.01428588479757309
167.0,160.0,1.325,0.061,8.6142,-0.693,0.0461,-0.137,-2.0305425129332484,-0.060330748558044434,3.7633907794952393,-1.4038053750991821,0.13771916925907135,2.347689628601074,4.951519238739767,-0.0006987014785408974,0.27205365896224976,-1.464853588734762,0.7239164113998413,0.22961601614952087,0.8780893683433533,-0.0,0.0016069223638623953,0.7767289280891418,0.002680027624592185,-0.07943917065858841
167.0,160.0,1.325,0.061,8.6142,-0.693,0.0461,-0.137,-2.030941148797506,-0.058340609073638916,3.737622022628784,-1.4027773141860962,0.1198873221874237,2.283339500427246,4.951470944076338,-0.00046447772183455527,0.2587999999523163,-1.4591839949237269,0.7113180756568909,0.22592693567276,0.8780933022499084,-0.0,0.001800960162654519,0.7767932415008545,0.002099771751090884,0.06097903847694397
167.0,160.0,1.325,0.061,8.6142,-0.693,0.0461,-0.137,-2.0314494572081507,-0.05556520074605942,3.748223304748535,-1.4018892049789429,0.10652653872966766,2.266892910003662,4.951523262053289,-0.0004044219385832548,0.2539961040019989,-1.453480068837301,0.6942880749702454,0.2043139636516571,0.8781450986862183,-0.0,0.0006687918212264776,0.7767692804336548,0.001377389533445239,0.12557806074619293
167.0,160.0,1.325,0.061,8.6142,-0.693,0.0461,-0.137,-2.0318404636778773,-0.05275295674800873,3.7128710746765137,-1.401072382926941,0.09571315348148346,2.2537078857421875,4.951539265900411,-0.0003217661869712174,0.2500801086425781,-1.4479754606830042,0.6895972490310669,0.21710261702537537,0.8781774044036865,-0.0,0.0032356304582208395,0.7768173813819885,0.0010091844014823437,0.124503955245018
167.0,160.0,1.325,0.061,8.6142,-0.693,0.0461,-0.137,-2.0321361027159632,-0.05200193449854851,3.7060418128967285,-1.4006104469299316,0.08210498839616776,2.24725341796875,4.951515081315794,-0.0004106155247427523,0.24272973835468292,-1.4438417593585413,0.6819597482681274,0.1910143792629242,0.8781012892723083,-0.0,0.001066508935764432,0.7768096327781677,0.0011579646961763501,0.1340733915567398
174.0,206.0,-1.6917,-0.4582,9.5659,-0.735,0.2763,-0.099,-2.032623907128805,-0.057588934898376465,3.7444112300872803,-1.3999767303466797,0.06867920607328415,2.2652015686035156,4.951519238739767,-0.0010052891448140144,0.24470582604408264,-1.4386566321002405,0.6621493101119995,0.19216418266296387,0.8781535625457764,-0.0,-0.005028582643717527,0.7768215537071228,0.0018992247059941292,0.17549653351306915
174.0,206.0,-1.6917,-0.4582,9.5659,-0.735,0.2763,-0.099,-2.033119340936178,-0.06628883630037308,3.7158396244049072,-1.399458646774292,0.05579080805182457,2.237466812133789,4.951515126019277,-0.0005799520877189934,0.24985703825950623,-1.4334138075457972,0.6431830525398254,0.17721132934093475,0.8781330585479736,-0.0,-0.008716704323887825,0.7768335342407227,0.001615849556401372,0.3160426914691925
174.0,206.0,-1.6917,-0.4582,9.5659,-0.735,0.2763,-0.099,-2.0336348019041957,-0.07137943804264069,3.6754751205444336,-1.3990843296051025,0.041651319712400436,2.2169036865234375,4.951535555511274,-0.00037275819340720773,0.24230211973190308,-1.428394619618551,0.622365415096283,0.17526210844516754,0.8781132102012634,-0.0,0.002458007773384452,0.7768215537071228,0.0013931791763752699,0.26564842462539673
174.0,206.0,-1.6917,-0.4582,9.5659,-0.735,0.2763,-0.099,-2.0342585049071253,-0.06902630627155304,3.713693618774414,-1.3987935781478882,0.034513264894485474,2.2161710262298584,4.951563003450193,-0.0002097221149597317,0.24115127325057983,-1.4234312216388147,0.5984455347061157,0.16159531474113464,0.8781614899635315,-0.0,-0.0068131680600345135,0.776821494102478,0.001983270049095154,0.3124317526817322
174.0,206.0,-1.6917,-0.4582,9.5659,-0.735,0.2763,-0.099,-2.034769674340719,-0.056835487484931946,3.700918436050415,-1.3985306024551392,0.026045747101306915,2.204507827758789,4.951559322863378,4.208686004858464e-05,0.2479846179485321,-1.4189003149615687,0.556354284286499,0.14901256561279297,0.8781654834747314,-0.0,0.006479924079030752,0.7768335342407227,0.0024367966689169407,0.3602357804775238
174.0,206.0,-1.6917,-0.4582,9.5659,-0.735,0.2763,-0.099,-2.035240789453024,-0.04984277859330177,3.75697660446167,-1.398423433303833,0.014487959444522858,2.2270631790161133,4.9515514997537515,8.333153527928516e-05,0.2428629845380783,-1.4145472685443323,0.5243898034095764,0.1542273461818695,0.8781489729881287,-0.0,-0.009528220631182194,0.7767848968505859,0.004411681555211544,0.4669380784034729
174.0,206.0,-1.6917,-0.4582,9.5659,-0.735,0.2763,-0.099,-2.03563990215444,-0.050142496824264526,3.7514939308166504,-1.398411512374878,0.0029918632935732603,2.2150261402130127,4.951559307962217,3.515548451105133e-05,0.23496785759925842,-1.4104097525226038,0.49846383929252625,0.13395750522613525,0.8781495690345764,-0.0,0.009743188507854939,0.7769018411636353,0.005597239825874567,0.5353634357452393
174.0,206.0,-1.6917,-0.4582,9.5659,-0.735,0.2763,-0.099,-2.0360356769957484,-0.04983407258987427,3.7074007987976074,-1.3983277082443237,-0.004821309354156256,2.154996871948242,4.951555210142889,1.047715954882733e-06,0.2450345903635025,-1.4067238012896937,0.4605340361595154,0.11849895119667053,0.878157377243042,-0.0,0.008165322244167328,0.7769177556037903,0.005188215058296919,0.5421977639198303
174.0,206.0,-1.6917,-0.4582,9.5659,-0.735,0.2763,-0.099,-2.0362988911070765,-0.044252313673496246,3.732050895690918,-1.3983914852142334,-0.0033473207149654627,2.205702543258667,4.951563375979223,2.9163560455458537e-10,0.24345442652702332,-1.4041765371905726,0.42707347869873047,0.10567855834960938,0.8781853914260864,-0.0,0.005450177006423473,0.7769014239311218,0.0038306701462715864,0.6043952703475952
174.0,206.0,-1.6917,-0.4582,9.5659,-0.735,0.2763,-0.099,-2.03660311321401,-0.03672979772090912,3.8030152320861816,-1.3983672857284546,-0.0005199970328249037,2.184414863586426,4.951563331275739,5.300332807882781e-15,0.23655635118484497,-1.4009860197650355,0.37954628467559814,0.08938026428222656,0.878141462802887,-0.0,0.015453574247658253,0.7769252061843872,0.0031496707815676928,0.6035699844360352
174.0,206.0,-1.6917,-0.4582,9.5659,-0.735,0.2763,-0.099,-2.0369345150389613,-0.03177976608276367,3.821274757385254,-1.3984037637710571,0.001837512943893671,2.2110228538513184,4.9515511868293665,9.633094028434527e-20,0.2522881031036377,-1.3982551733600062,0.3232685923576355,0.061140283942222595,0.878141462802887,-0.0,0.0018791264155879617,0.7769573926925659,0.003736807033419609,0.6617602109909058
174.0,206.0,-1.6917,-0.4582,9.5659,-0.735,0.2763,-0.099,-2.037161966363424,-0.03126432001590729,3.8255250453948975,-1.3983955383300781,0.0005779018392786384,2.2150187492370605,4.951563375979223,1.7507673246874363e-24,0.24626129865646362,-1.3958070913897913,0.2783501148223877,0.031495869159698486,0.878089427947998,-0.0,0.002104027196764946,0.7769975066184998,0.0058227116242051125,0.6786893606185913
189.0,239.0,-0.7807,-2.5765,8.9809,-0.6515,0.0157,-0.0861,-2.037434240380758,-0.03370456397533417,3.7841625213623047,-1.3984034061431885,-0.00033739482751116157,2.1863961219787598,4.95153101065711,3.181932981709771e-29,0.24371671676635742,-1.394038502370016,0.20239189267158508,-0.003358571557328105,0.8781053423881531,-0.0,0.01018365565687418,0.7769930362701416,0.007204181514680386,0.7270020246505737
189.0,239.0,-0.7807,-2.5765,8.9809,-0.6515,0.0157,-0.0861,-2.03770174602651,-0.03448296710848808,3.7708494663238525,-1.3984034061431885,-9.208756637235638e-06,2.217757225036621,4.951551216631689,5.783005630166001e-34,0.24513262510299683,-1.3927057425128382,0.1323603242635727,-0.022638589143753052,0.8781370520591736,-0.0,0.01854514703154564,0.7770816683769226,0.007269673980772495,0.7305339574813843
189.0,239.0,-0.7807,-2.5765,8.9809,-0.6515,0.0157,-0.0861,-2.037961622277731,-0.034533463418483734,3.801845073699951,-1.398459553718567,-2.9835200065705947e-13,2.2308835983276367,4.951543319016256,1.0510327027791144e-38,0.2471952885389328,-1.392207447682516,0.02374962717294693,-0.07229502499103546,0.8781654834747314,-0.0,0.004779966548085213,0.7771657109260559,0.008393393829464912,0.7768247127532959
189.0,239.0,-0.7807,-2.5765,8.9809,-0.6515,0.0157,-0.0861,-2.038201471368307,-0.031172148883342743,3.785992383956909,-1.3983914852142334,0.0006193669978529215,2.2075672149658203,4.951579350024023,1.9057659114817512e-43,0.24403338134288788,-1.3923514525042933,-0.055837102234363556,-0.1140158474445343,0.8781335949897766,-0.0,0.019422713667154312,0.7772058844566345,0.00856274925172329,0.826511025428772
189.0,239.0,-0.7807,-2.5765,8.9809,-0.6515,0.0157,-0.0861,-2.0384565792479457,-0.02803567424416542,3.804921865463257,-1.398423433303833,0.00040058125159703195,2.2058355808258057,4.9515589503343485,0.0,0.24808791279792786,-1.3929832617389124,-0.1029830053448677,-0.1435154378414154,0.878141462802887,-0.0,0.0006152986316010356,0.7772576808929443,0.00892676878720522,0.8047413229942322
189.0,239.0,-0.7807,-2.5765,8.9809,-0.6515,0.0157,-0.0861,-2.038684984246725,-0.029941005632281303,3.789799213409424,-1.3984111547470093,0.00019684813742060214,2.1987667083740234,4.951563375979223,0.0,0.23252055048942566,-1.3935940901385706,-0.09965454787015915,-0.1501603126525879,0.8781409859657288,-0.0,0.0008941913256421685,0.7773140072822571,0.008838990703225136,0.8169180154800415
189.0,239.0,-0.7807,-2.5765,8.9809,-0.6515,0.0157,-0.0861,-2.0389486751952113,-0.03463347256183624,3.738737106323242,-1.3984551429748535,-0.001473036827519536,2.271148443222046,4.951511028199949,0.0,0.24053552746772766,-1.3942812124835413,-0.07081780582666397,-0.14258292317390442,0.8781289458274841,-0.0,0.014855056069791317,0.7774144411087036,0.0075366562232375145,0.8398458361625671
189.0,239.0,-0.7807,-2.5765,8.9809,-0.6515,0.0157,-0.0861,-2.039260049859518,-0.03715447336435318,3.751368522644043,-1.3984756469726562,-0.0010992976604029536,2.227567434310913,4.951531398087301,0.0,0.2329920083284378,-1.394740406666891,-0.047985706478357315,-0.12884289026260376,0.8781091570854187,-0.0,0.008159838616847992,0.7774016857147217,0.008220148272812366,0.850161075592041
189.0,239.0,-0.7807,-2.5765,8.9809,-0.6515,0.0157,-0.0861,-2.039556165734762,-0.03537755459547043,3.757122039794922,-1.398435354232788,-0.0005048024468123913,2.233980178833008,4.951539265900411,0.0,0.23774628341197968,-1.3951118628131312,-0.05325917899608612,-0.13566595315933228,0.8781211376190186,-0.0,0.00889403186738491,0.7775102853775024,0.010793320834636688,0.8874977827072144
189.0,239.0,-0.7807,-2.5765,8.9809,-0.6515,0.0157,-0.0861,-2.0397550068297328,-0.0332413911819458,3.7644808292388916,-1.39847993850708,-0.0003938647569157183,2.2387535572052,4.951559307962217,0.0,0.23319929838180542,-1.39563495317568,-0.0913047194480896,-0.15406739711761475,0.878125011920929,-0.0,0.004365482367575169,0.7776063680648804,0.011569495312869549,0.8994729518890381
189.0,239.0,-0.7807,-2.5765,8.9809,-0.6515,0.0157,-0.0861,-2.0400554142394007,-0.031924791634082794,3.7853174209594727,-1.3983911275863647,-0.0004248164186719805,2.254842519760132,4.951531085162916,0.0,0.22330978512763977,-1.3965900580035608,-0.12444357573986053,-0.16429640352725983,0.8781289458274841,-0.0,0.006322137080132961,0.7776258587837219,0.011305196210741997,0.952796220779419
165.0,216.0,-0.615,-4.8191,9.146,-0.1495,-0.0151,-0.0293,-2.040302892724508,-0.03307348117232323,3.736361026763916,-1.3985037803649902,-0.0013551688753068447,2.228391170501709,4.951575267105856,0.0,0.236354261636734,-1.3974884192096155,-0.09746130555868149,-0.1648009717464447,0.8781172037124634,-0.0,-0.00041710177902132273,0.7777417898178101,0.010750170797109604,0.9202322363853455
165.0,216.0,-0.615,-4.8191,9.146,-0.1495,-0.0151,-0.0293,-2.040554185906881,-0.03281422704458237,3.7796998023986816,-1.3984428644180298,-0.0013370465021580458,2.259117841720581,4.951603475003996,0.0,0.2363535463809967,-1.398022476826803,-0.058435194194316864,-0.15742793679237366,0.8781011700630188,-0.0,0.008592314086854458,0.7778218388557434,0.011671191081404686,0.9120607376098633
165.0,216.0,-0.615,-4.8191,9.146,-0.1495,-0.0151,-0.0293,-2.040798326531881,-0.03352471441030502,3.710808753967285,-1.3984512090682983,-0.0010761780431494117,2.2182939052581787,4.951567160874166,0.0,0.23070847988128662,-1.3983705679522913,-0.043576642870903015,-0.13660269975662231,0.8780932426452637,-0.0,0.002654208103194833,0.7778818011283875,0.013313737697899342,0.8811599016189575
165.0,216.0,-0.615,-4.8191,9.146,-0.1495,-0.0151,-0.0293,-2.041093965569967,-0.033151593059301376,3.774383306503296,-1.3985109329223633,-0.0007067507249303162,2.2731380462646484,4.951535212784567,0.0,0.2200593650341034,-1.3987014929400843,-0.043187215924263,-0.13631489872932434,0.8781654238700867,-0.0,0.008803878910839558,0.7780667543411255,0.01504690945148468,0.9272956848144531
165.0,216.0,-0.615,-4.8191,9.146,-0.1495,-0.0151,-0.0293,-2.041365762750143,-0.033997952938079834,3.779263496398926,-1.3984748125076294,-0.0004783859185408801,2.200066328048706,4.9515592632587335,0.0,0.22946682572364807,-1.3990848700152796,-0.06327632069587708,-0.13474559783935547,0.8781375288963318,-0.0,0.015150360763072968,0.7781823873519897,0.015679286792874336,0.9084635972976685
165.0,216.0,-0.615,-4.8191,9.146,-0.1495,-0.0151,-0.0293,-2.041649480859274,-0.03665720298886299,3.774787425994873,-1.3984832763671875,-0.0008820046205073595,2.268806219100952,4.9515511868293665,0.0,0.22683337330818176,-1.3997719923602503,-0.09054745733737946,-0.1603279411792755,0.8781289458274841,-0.0,0.003630278864875436,0.7783226370811462,0.015128681436181068,0.9406090378761292
165.0,216.0,-0.615,-4.8191,9.146,-0.1495,-0.0151,-0.0293,-2.0419894657530726,-0.03989182040095329,3.7613468170166016,-1.3985432386398315,-0.0015615909360349178,2.210521936416626,4.951563018351354,0.0,0.24292446672916412,-1.4004395643817347,-0.0840640589594841,-0.16447697579860687,0.8781330585479736,-0.0,0.005386342294514179,0.7784631252288818,0.014144202694296837,0.9077655076980591
165.0,216.0,-0.615,-4.8191,9.146,-0.1495,-0.0151,-0.0293,-2.0422803364195765,-0.043004024773836136,3.727947235107422,-1.3985309600830078,-0.0014591725775972009,2.22737717628479,4.951591598778524,0.0,0.2375510036945343,-1.4009340445147913,-0.04877325892448425,-0.13218474388122559,0.8781052827835083,-0.0,0.012611828744411469,0.7785388231277466,0.013653794303536415,0.9127352237701416
165.0,216.0,-0.615,-4.8191,9.146,-0.1495,-0.0151,-0.0293,-2.042680879632467,-0.04688381031155586,3.779041290283203,-1.3985788822174072,-0.0012159503530710936,2.1854584217071533,4.951550918608465,0.0,0.2355421781539917,-1.4011576811419886,-0.005795563571155071,-0.10746364295482635,0.8780854344367981,-0.0,0.004818619228899479,0.778674840927124,0.01437999214977026,0.8623030185699463
165.0,216.0,-0.615,-4.8191,9.146,-0.1495,-0.0151,-0.0293,-2.0430199108519496,-0.051751915365457535,3.750333786010742,-1.3985509872436523,-0.000913385534659028,2.192261219024658,4.951591226249494,0.0,0.2397313416004181,-1.4010451475726526,0.016582975164055824,-0.11083793640136719,0.8780695796012878,-0.0,0.011005384847521782,0.7787911295890808,0.015785492956638336,0.8421171307563782
165.0,216.0,-0.615,-4.8191,9.146,-0.1495,-0.0151,-0.0293,-2.043455263177389,-0.05620855838060379,3.7675881385803223,-1.3985871076583862,-0.0005454709753394127,2.2633554935455322,4.951603489905157,0.0,0.23764625191688538,-1.4009454886065882,0.016521258279681206,-0.09525777399539948,0.8781288862228394,-0.0,0.010034159757196903,0.778955340385437,0.016036292538046837,0.7891738414764404
165.0,216.0,-0.615,-4.8191,9.146,-0.1495,-0.0151,-0.0293,-2.0438715420165003,-0.05962067469954491,3.766812324523926,-1.3985629081726074,-0.0004883373039774597,2.2574214935302734,4.951531040459432,0.0,0.23300805687904358,-1.4008334318744105,0.011745914816856384,-0.10652774572372437,0.8780854344367981,-0.0,0.007164578884840012,0.7790233492851257,0.014731273055076599,0.830344557762146
