ramyac6/ROB537/final_project/csv/test/good/good_134.csv
tof_0,tof_1,accelx,accely,accelz,gyrox,gyroy,gyroz,shoulder_lift_joint_position,shoulder_lift_joint_velocity,shoulder_lift_joint_effort,elbow_joint_position,elbow_joint_velocity,elbow_joint_effort,wrist_1_joint_position,wrist_1_joint_velocity,wrist_1_joint_effort,wrist_2_joint_position,wrist_2_joint_velocity,wrist_2_joint_effort,wrist_3_joint_position,wrist_3_joint_velocity,wrist_3_joint_effort,shoulder_pan_joint_position,shoulder_pan_joint_velocity,shoulder_pan_joint_effort
195.0,194.0,-0.1699,0.0167,9.585,-0.038,0.0261,-0.121,-1.9571835003294886,0.0,3.6934900283813477,-1.5378361940383911,-0.0,2.054314613342285,4.986549424916067,0.0,0.2983038127422333,-1.5831025282489222,-0.0,0.005223349668085575,0.8574061393737793,-0.0,-0.0052621555514633656,0.7743276953697205,0.0,0.05752614885568619
195.0,194.0,-0.1699,0.0167,9.585,-0.038,0.0261,-0.121,-1.9571753940977992,0.0,3.6947083473205566,-1.5378113985061646,-0.0,2.087127685546875,4.9865252552326105,0.0,0.29544949531555176,-1.583142105733053,-0.0,-0.00023926561698317528,0.8573814034461975,-0.0,0.0003650481812655926,0.7743315100669861,0.0,0.011712956242263317
195.0,194.0,-0.1699,0.0167,9.585,-0.038,0.0261,-0.121,-1.957163473168844,0.0,3.663440704345703,-1.5378557443618774,-0.0,2.072812080383301,4.9865014133747,0.0,0.2876492142677307,-1.5830896536456507,-0.0,-0.0028866990469396114,0.8574140071868896,-0.0,-0.012851479463279247,0.7743315100669861,0.0,0.02432992495596409
195.0,194.0,-0.1699,0.0167,9.585,-0.038,0.0261,-0.121,-1.957224031487936,0.0,3.7079145908355713,-1.5377991199493408,-0.0,2.0812885761260986,4.986505108862676,0.0,0.2710247337818146,-1.5831382910357874,-0.0,-0.005247434135526419,0.8573729991912842,-0.0,-0.001351037179119885,0.7742952704429626,0.0,-0.013776639476418495
195.0,194.0,-0.1699,0.0167,9.585,-0.038,0.0261,-0.121,-1.9571715794005335,0.0,3.6702933311462402,-1.5378278493881226,-0.0,2.0975708961486816,4.986573594599523,0.0,0.29642707109451294,-1.5831177870379847,-0.0,-0.007585992570966482,0.8573453426361084,-0.0,-0.006795902736485004,0.7743517756462097,0.0,-0.022977720946073532
195.0,194.0,-0.1699,0.0167,9.585,-0.038,0.0261,-0.121,-1.9572035274901332,0.0,3.6687703132629395,-1.5377798080444336,-0.0,2.074124574661255,4.986561405449667,0.0,0.28219956159591675,-1.5831096808062952,-0.0,-0.02073769085109234,0.8573653697967529,-0.0,-0.00699066324159503,0.7743679285049438,0.0,-0.022971443831920624
195.0,194.0,-0.1699,0.0167,9.585,-0.038,0.0261,-0.121,-1.9571873150267542,0.0,3.7152419090270996,-1.5378155708312988,-0.0,2.03932523727417,4.986533003836431,0.0,0.2744230329990387,-1.58307391801943,-0.0,-0.014137011021375656,0.8574301600456238,-0.0,0.006925099529325962,0.7743071913719177,0.0,-0.012127133086323738
193.0,187.0,-0.2357,0.0066,9.7131,-0.0406,0.0232,-0.1133,-1.9571911297240199,0.0,3.736689329147339,-1.5378113985061646,-0.0,2.0631449222564697,4.9865453419979,0.0,0.28753232955932617,-1.5831344763385218,-0.0,-0.00652396772056818,0.8574021458625793,-0.0,0.001699390821158886,0.7743112444877625,0.0,-0.028334034606814384
193.0,187.0,-0.2357,0.0066,9.7131,-0.0406,0.0232,-0.1133,-1.9571835003294886,0.0,3.7445056438446045,-1.5378113985061646,-0.0,2.083055257797241,4.98647357800559,0.0,0.27663159370422363,-1.5831063429461878,-0.0,-0.0023702632170170546,0.8574057221412659,-0.0,0.0011328672990202904,0.774315357208252,0.0,0.028185689821839333
193.0,187.0,-0.2357,0.0066,9.7131,-0.0406,0.0232,-0.1133,-1.9571753940977992,0.0,3.684965133666992,-1.5378239154815674,-0.0,2.0656096935272217,4.986533003836431,0.0,0.2763497233390808,-1.5831258932696741,-0.0,-0.0031651644967496395,0.8573814034461975,-0.0,0.012666894122958183,0.7743476629257202,0.0,-0.03951018303632736
193.0,187.0,-0.2357,0.0066,9.7131,-0.0406,0.0232,-0.1133,-1.9571954212584437,0.0,3.731771469116211,-1.5378036499023438,-0.0,2.0681638717651367,4.986541259079733,0.0,0.288113534450531,-1.5831096808062952,-0.0,-0.009895585477352142,0.8574377298355103,-0.0,-0.012025694362819195,0.7742993831634521,0.0,-0.047063566744327545
193.0,187.0,-0.2357,0.0066,9.7131,-0.0406,0.0232,-0.1133,-1.9571753940977992,0.0,3.694423198699951,-1.5378113985061646,-0.0,2.0568833351135254,4.9865371761615656,0.0,0.276386022567749,-1.5831177870379847,-0.0,0.00016092415899038315,0.8574099540710449,-0.0,-0.00506915058940649,0.7743355631828308,0.0,0.024757444858551025
193.0,187.0,-0.2357,0.0066,9.7131,-0.0406,0.0232,-0.1133,-1.9572278461852015,0.0,3.7187275886535645,-1.5377917289733887,-0.0,2.1124181747436523,4.986509281187811,0.0,0.2790481448173523,-1.5831106344806116,-0.0,-0.0037827494088560343,0.8573529124259949,-0.0,-0.0042471205815672874,0.774315357208252,0.0,0.03768499940633774
193.0,187.0,-0.2357,0.0066,9.7131,-0.0406,0.0232,-0.1133,-1.9572035274901332,0.0,3.6736247539520264,-1.537827968597412,-0.0,2.057676076889038,4.986501443177023,0.0,0.2845802307128906,-1.5831344763385218,-0.0,-0.017557736486196518,0.8574057221412659,-0.0,0.0007308098720386624,0.7742993831634521,0.0,-0.02270789071917534
193.0,187.0,-0.2357,0.0066,9.7131,-0.0406,0.0232,-0.1133,-1.957163473168844,0.0,3.6430721282958984,-1.537864089012146,-0.0,2.0947771072387695,4.986549424916067,0.0,0.28651756048202515,-1.5831177870379847,-0.0,-0.007444297894835472,0.8573774099349976,-0.0,0.006461224518716335,0.7742587327957153,0.0,-0.00850703939795494
193.0,187.0,-0.2357,0.0066,9.7131,-0.0406,0.0232,-0.1133,-1.957224031487936,0.0,3.692713737487793,-1.5377835035324097,-0.0,2.0439627170562744,4.986541259079733,0.0,0.2786122262477875,-1.5831382910357874,-0.0,-0.006486285477876663,0.8574061989784241,-0.0,-0.0007580643869005144,0.7743034362792969,0.0,-0.04885091260075569
193.0,187.0,-0.2357,0.0066,9.7131,-0.0406,0.0232,-0.1133,-1.9571835003294886,0.0,3.6963367462158203,-1.5378681421279907,-0.0,2.0539169311523438,4.986489581852712,0.0,0.28599244356155396,-1.5830982367144983,-0.0,-0.021985553205013275,0.85732102394104,-0.0,-0.013281840831041336,0.7743194103240967,0.0,-0.005802244879305363
193.0,187.0,-0.2357,0.0066,9.7131,-0.0406,0.0232,-0.1133,-1.9571954212584437,0.0,3.7006585597991943,-1.537847638130188,-0.0,2.093717098236084,4.986549454718389,0.0,0.2689422070980072,-1.5830896536456507,-0.0,-0.012778198346495628,0.8573856353759766,-0.0,-0.0066644311882555485,0.7743355631828308,0.0,0.005154639482498169
193.0,187.0,-0.2357,0.0066,9.7131,-0.0406,0.0232,-0.1133,-1.957224031487936,0.0,3.6415843963623047,-1.5377954244613647,-0.0,2.1232666969299316,4.98654122927741,0.0,0.2930636405944824,-1.5831258932696741,-0.0,-0.004650849848985672,0.8574099540710449,-0.0,-0.0035033226013183594,0.7743194699287415,0.0,-0.02838589996099472
193.0,187.0,-0.2357,0.0066,9.7131,-0.0406,0.0232,-0.1133,-1.9572202167906703,0.0,3.6968796253204346,-1.537726879119873,-0.0,2.069838762283325,4.986509221583166,0.0,0.2828889489173889,-1.583085838948385,-0.0,-0.00918364804238081,0.8573613166809082,-0.0,0.0010699990671128035,0.7743315100669861,0.0,0.047336824238300323
193.0,187.0,-0.2357,0.0066,9.7131,-0.0406,0.0232,-0.1133,-1.9572035274901332,0.0,3.6860170364379883,-1.5378321409225464,-0.0,2.038145065307617,4.9865174172218225,0.0,0.2844885289669037,-1.5831258932696741,-0.0,-0.006931110750883818,0.8573369979858398,-0.0,0.003064908552914858,0.7743075489997864,0.0,0.000447289552539587
195.0,192.0,-0.1962,0.0305,9.6144,-0.0402,0.0218,-0.1164,-1.957163473168844,0.0,3.7031302452087402,-1.5377753973007202,-0.0,2.118302822113037,4.986549454718389,0.0,0.27163276076316833,-1.5831177870379847,-0.0,-0.018088385462760925,0.8573896884918213,-0.0,-0.000241435831412673,0.7743517756462097,0.0,-0.013207467272877693
195.0,192.0,-0.1962,0.0305,9.6144,-0.0402,0.0218,-0.1164,-1.9572202167906703,0.0,3.664691686630249,-1.537855863571167,-0.0,2.049777030944824,4.9865252552326105,0.0,0.2803327143192291,-1.583102051411764,-0.0,-0.008367650210857391,0.8573980927467346,-0.0,0.0032084323465824127,0.7742913961410522,0.0,0.005096145905554295
195.0,192.0,-0.1962,0.0305,9.6144,-0.0402,0.0218,-0.1164,-1.9571954212584437,0.0,3.6976823806762695,-1.5378196239471436,-0.0,2.0947115421295166,4.986541288882055,0.0,0.2708992063999176,-1.5830696264850062,-0.0,-0.001273925299756229,0.8574021458625793,-0.0,-0.015294423326849937,0.7743315696716309,0.0,0.03131234645843506
195.0,192.0,-0.1962,0.0305,9.6144,-0.0402,0.0218,-0.1164,-1.9572035274901332,0.0,3.7279534339904785,-1.5377675294876099,-0.0,2.0972330570220947,4.986517447024145,0.0,0.2677425444126129,-1.5831220785724085,-0.0,-0.016835583373904228,0.8573855757713318,-0.0,-0.0035084823612123728,0.7743355631828308,0.0,0.03314077854156494
195.0,192.0,-0.1962,0.0305,9.6144,-0.0402,0.0218,-0.1164,-1.957191606561178,0.0,3.7272682189941406,-1.5377552509307861,-0.0,2.0544393062591553,4.986485379725256,0.0,0.2838967740535736,-1.5831063429461878,-0.0,-0.01695767045021057,0.8573529124259949,-0.0,0.006697559729218483,0.7743435502052307,0.0,0.004586799070239067
195.0,192.0,-0.1962,0.0305,9.6144,-0.0402,0.0218,-0.1164,-1.9571954212584437,0.0,3.708465099334717,-1.5377634763717651,-0.0,2.0503969192504883,4.9865453419979,0.0,0.2769128382205963,-1.5831344763385218,-0.0,-0.004184159450232983,0.8574300408363342,-0.0,0.01422731764614582,0.7743034362792969,0.0,0.006991487927734852
195.0,192.0,-0.1962,0.0305,9.6144,-0.0402,0.0218,-0.1164,-1.9572116337218226,0.0,3.7090299129486084,-1.537799596786499,-0.0,2.0570003986358643,4.986505466490545,0.0,0.27618780732154846,-1.583102051411764,-0.0,-0.01645960472524166,0.8573493361473083,-0.0,-0.002389085479080677,0.7743315100669861,0.0,-0.011124538257718086
195.0,192.0,-0.1962,0.0305,9.6144,-0.0402,0.0218,-0.1164,-1.957207819024557,0.0,3.7112457752227783,-1.5378077030181885,-0.0,2.0480945110321045,4.986541586905279,0.0,0.2847208082675934,-1.5831063429461878,-0.0,-0.014133090153336525,0.8573409914970398,-0.0,0.007963716983795166,0.7743315100669861,0.0,-0.0038409780245274305
195.0,192.0,-0.1962,0.0305,9.6144,-0.0402,0.0218,-0.1164,-1.9572402439513148,0.0,3.730201244354248,-1.5378077030181885,-0.0,2.0176503658294678,4.986541259079733,0.0,0.27574917674064636,-1.583085838948385,-0.0,-0.01823442429304123,0.8573529720306396,-0.0,0.008381892926990986,0.774315357208252,0.0,0.003452969714999199
195.0,192.0,-0.1962,0.0305,9.6144,-0.0402,0.0218,-0.1164,-1.9571992359557093,0.0,3.7373642921447754,-1.537799596786499,-0.0,2.0824921131134033,4.986509251385488,0.0,0.2879679799079895,-1.5831096808062952,-0.0,-0.01364041119813919,0.8573575615882874,-0.0,0.0063598910346627235,0.7742996215820312,0.0,0.014220203272998333
195.0,192.0,-0.1962,0.0305,9.6144,-0.0402,0.0218,-0.1164,-1.9571835003294886,0.0,3.711500883102417,-1.5378036499023438,-0.0,2.0696794986724854,4.986557680159368,0.0,0.2650614380836487,-1.5831106344806116,-0.0,0.008093005046248436,0.8573653697967529,-0.0,0.011923536658287048,0.7743112444877625,0.0,-0.01925894245505333
195.0,192.0,-0.1962,0.0305,9.6144,-0.0402,0.0218,-0.1164,-1.957235952416891,0.0,3.6719892024993896,-1.5378155708312988,-0.0,2.107400894165039,4.986541259079733,0.0,0.28326135873794556,-1.5831177870379847,-0.0,0.0034562544897198677,0.8574376702308655,-0.0,0.0037493864074349403,0.7743112444877625,0.0,-0.004283491987735033
195.0,192.0,-0.1962,0.0305,9.6144,-0.0402,0.0218,-0.1164,-1.957207819024557,0.0,3.7251932621002197,-1.5377836227416992,-0.0,2.069767713546753,4.986525225430288,0.0,0.27085044980049133,-1.583130184804098,-0.0,-0.013014676049351692,0.8574216961860657,-0.0,-0.00901812594383955,0.7743112444877625,0.0,-0.03901790827512741
195.0,192.0,-0.1962,0.0305,9.6144,-0.0402,0.0218,-0.1164,-1.957195898095602,0.0,3.704349994659424,-1.537827968597412,-0.0,2.066077709197998,4.986590015679159,0.0,0.280009388923645,-1.5830896536456507,-0.0,-0.0022825831547379494,0.8573453426361084,-0.0,0.0018302678363397717,0.7742911577224731,0.0,-0.000598004087805748
194.0,197.0,-0.134,0.0287,9.585,-0.0304,0.0284,-0.1132,-1.9572202167906703,0.0,3.7146358489990234,-1.537827968597412,-0.0,2.0771284103393555,4.986529308348455,0.0,0.2875555157661438,-1.5830982367144983,-0.0,-0.010903137736022472,0.8574015498161316,-0.0,-0.00805762317031622,0.7743597030639648,0.0,-0.020379504188895226
194.0,197.0,-0.134,0.0287,9.585,-0.0304,0.0284,-0.1132,-1.9571873150267542,0.0,3.6866238117218018,-1.5378402471542358,-0.0,2.0706169605255127,4.986541259079733,0.0,0.2787016034126282,-1.5831177870379847,-0.0,-0.009252128191292286,0.8573374152183533,-0.0,0.001048339530825615,0.7743112444877625,0.0,0.03573227673768997
194.0,197.0,-0.134,0.0287,9.585,-0.0304,0.0284,-0.1132,-1.9572116337218226,0.0,3.6940112113952637,-1.5377836227416992,-0.0,2.109372138977051,4.986505198269644,0.0,0.2759043574333191,-1.5831134955035608,-0.0,-0.010569917038083076,0.8574377298355103,-0.0,-0.013584915548563004,0.774283230304718,0.0,-0.03202434256672859
194.0,197.0,-0.134,0.0287,9.585,-0.0304,0.0284,-0.1132,-1.957235952416891,0.0,3.72926664352417,-1.53779137134552,-0.0,2.0826377868652344,4.986557650357046,0.0,0.2710183262825012,-1.5831220785724085,-0.0,-0.010111683048307896,0.8574099540710449,-0.0,-0.004240933805704117,0.7743235230445862,0.0,0.06397804617881775
194.0,197.0,-0.134,0.0287,9.585,-0.0304,0.0284,-0.1132,-1.9572602711119593,0.0,3.6663665771484375,-1.5377836227416992,-0.0,2.081407070159912,4.986505138664999,0.0,0.2814798951148987,-1.5830982367144983,-0.0,-0.019826624542474747,0.8574140667915344,-0.0,-0.0003828536719083786,0.774319589138031,0.0,-0.0265775416046381
194.0,197.0,-0.134,0.0287,9.585,-0.0304,0.0284,-0.1132,-1.9572435818114222,0.0,3.7045817375183105,-1.5378036499023438,-0.0,2.090494155883789,4.986521529942312,0.0,0.29090332984924316,-1.5831220785724085,-0.0,1.6641919501125813e-05,0.8573570251464844,-0.0,-0.0021153618581593037,0.774315357208252,0.0,-0.05544815957546234
194.0,197.0,-0.134,0.0287,9.585,-0.0304,0.0284,-0.1132,-1.9571753940977992,0.0,3.692068099975586,-1.53775155544281,-0.0,2.069702625274658,4.986517447024145,0.0,0.28713518381118774,-1.5831258932696741,-0.0,-0.012119337916374207,0.857373058795929,-0.0,-0.006139521021395922,0.7742710113525391,0.0,-0.030504819005727768
194.0,197.0,-0.134,0.0287,9.585,-0.0304,0.0284,-0.1132,-1.9571992359557093,0.0,3.695772886276245,-1.5377836227416992,-0.0,2.0994505882263184,4.986493217736044,0.0,0.28744804859161377,-1.5831220785724085,-0.0,-0.007396098226308823,0.8573653697967529,-0.0,0.012187757529318333,0.7743194103240967,0.0,-0.06569249927997589
194.0,197.0,-0.134,0.0287,9.585,-0.0304,0.0284,-0.1132,-1.957224031487936,0.0,3.6728196144104004,-1.5377836227416992,-0.0,2.0426201820373535,4.986537474184789,0.0,0.2800486087799072,-1.583085838948385,-0.0,-0.005161479581147432,0.8574140667915344,-0.0,-0.0024132265243679285,0.774315357208252,0.0,-0.0040973639115691185
194.0,197.0,-0.134,0.0287,9.585,-0.0304,0.0284,-0.1132,-1.9571553669371546,0.0,3.685645818710327,-1.5378196239471436,-0.0,2.101901054382324,4.986477243691244,0.0,0.2810208201408386,-1.5830896536456507,-0.0,-0.01479489728808403,0.8573980331420898,-0.0,-0.0036340460646897554,0.7743597030639648,0.0,-0.026234377175569534
194.0,197.0,-0.134,0.0287,9.585,-0.0304,0.0284,-0.1132,-1.9571992359557093,0.0,3.7231574058532715,-1.5378036499023438,-0.0,2.06854248046875,4.986521172314443,0.0,0.2731078863143921,-1.583102051411764,-0.0,4.420796176418662e-05,0.8573529720306396,-0.0,0.00791763886809349,0.7743276953697205,0.0,-0.006897387560456991
194.0,197.0,-0.134,0.0287,9.585,-0.0304,0.0284,-0.1132,-1.9571753940977992,0.0,3.7061636447906494,-1.5378557443618774,-0.0,2.0897016525268555,4.986509251385488,0.0,0.2848939895629883,-1.5830863157855433,-0.0,-0.0063761696219444275,0.857373058795929,-0.0,0.0015292710158973932,0.7743075489997864,0.0,0.01223943941295147
194.0,197.0,-0.134,0.0287,9.585,-0.0304,0.0284,-0.1132,-1.9572402439513148,0.0,3.7183544635772705,-1.537827968597412,-0.0,2.073732376098633,4.9865453419979,0.0,0.2771241068840027,-1.5831502119647425,-0.0,-0.006670141592621803,0.8573735356330872,-0.0,-0.005098577588796616,0.774315357208252,0.0,0.029536603018641472
194.0,191.0,-0.198,-0.0012,9.6425,-0.0373,0.0232,-0.1229,-1.9572159252562464,0.0,3.7204997539520264,-1.537847638130188,-0.0,2.09132719039917,4.986533003836431,0.0,0.26845499873161316,-1.5831177870379847,-0.0,-0.00810952391475439,0.8573328256607056,-0.0,0.006398903205990791,0.7743112444877625,0.0,0.0023908265866339207
194.0,191.0,-0.198,-0.0012,9.6425,-0.0373,0.0232,-0.1229,-1.957224031487936,0.0,3.6686792373657227,-1.5378196239471436,-0.0,2.073687791824341,4.986537503987112,0.0,0.2940935790538788,-1.5831344763385218,-0.0,-0.005528277717530727,0.857377290725708,-0.0,0.01046471856534481,0.774283230304718,0.0,-0.021330049261450768
194.0,191.0,-0.198,-0.0012,9.6425,-0.0373,0.0232,-0.1229,-1.9572321377196253,0.0,3.7131519317626953,-1.5377954244613647,-0.0,2.0384345054626465,4.986525225430288,0.0,0.29300281405448914,-1.5830939451800745,-0.0,-0.011363844387233257,0.8573854565620422,-0.0,-0.0026235783006995916,0.7743030190467834,0.0,0.04793725162744522
194.0,191.0,-0.198,-0.0012,9.6425,-0.0373,0.0232,-0.1229,-1.957235952416891,0.0,3.7032523155212402,-1.5378237962722778,-0.0,2.1117231845855713,4.986521142512121,0.0,0.27985650300979614,-1.5831063429461878,-0.0,-0.012918844819068909,0.8574140667915344,-0.0,-0.0027595004066824913,0.774307131767273,0.0,-0.008624281734228134
194.0,191.0,-0.198,-0.0012,9.6425,-0.0373,0.0232,-0.1229,-1.9572402439513148,0.0,3.711665391921997,-1.5378516912460327,-0.0,2.069758653640747,4.986509251385488,0.0,0.2805394232273102,-1.5830896536456507,-0.0,-0.0034158765338361263,0.8573813438415527,-0.0,-0.00414450466632843,0.7743075489997864,0.0,0.0047500478103756905
194.0,191.0,-0.198,-0.0012,9.6425,-0.0373,0.0232,-0.1229,-1.9572235546507777,0.0,3.7339024543762207,-1.5378361940383911,-0.0,2.0870652198791504,4.986501472979345,0.0,0.28415626287460327,-1.5831502119647425,-0.0,-0.008881652727723122,0.85732501745224,-0.0,-0.010950316675007343,0.7743273973464966,0.0,-0.00695674167945981
194.0,191.0,-0.198,-0.0012,9.6425,-0.0373,0.0232,-0.1229,-1.9571715794005335,0.0,3.7323169708251953,-1.5377675294876099,-0.0,2.0586187839508057,4.98652150013999,0.0,0.27867454290390015,-1.5831220785724085,-0.0,-0.004317322745919228,0.8573570251464844,-0.0,-0.0028158226050436497,0.7743194103240967,0.0,0.05598892271518707
194.0,191.0,-0.198,-0.0012,9.6425,-0.0373,0.0232,-0.1229,-1.9572159252562464,0.0,3.6961703300476074,-1.5377954244613647,-0.0,2.112635612487793,4.986537205963888,0.0,0.296485960483551,-1.5831425825702112,-0.0,-0.000502835726365447,0.8573814034461975,-0.0,0.009368742816150188,0.7743273973464966,0.0,0.012558829970657825
194.0,191.0,-0.198,-0.0012,9.6425,-0.0373,0.0232,-0.1229,-1.9572159252562464,0.0,3.7084312438964844,-1.5378155708312988,-0.0,2.0377979278564453,4.986489134817877,0.0,0.2701614201068878,-1.5831220785724085,-0.0,-0.0027168323285877705,0.8574103116989136,-0.0,-0.0026300433091819286,0.7743638157844543,0.0,0.025108695030212402
194.0,191.0,-0.198,-0.0012,9.6425,-0.0373,0.0232,-0.1229,-1.957191606561178,0.0,3.691683530807495,-1.5377593040466309,-0.0,2.1350789070129395,4.986533421068945,0.0,0.30429261922836304,-1.5831134955035608,-0.0,-0.010090440511703491,0.8573333621025085,-0.0,-0.010999336838722229,0.774283230304718,0.0,-0.01708933897316456
194.0,191.0,-0.198,-0.0012,9.6425,-0.0373,0.0232,-0.1229,-1.957191606561178,0.0,3.721423625946045,-1.537827968597412,-0.0,2.080778121948242,4.986541259079733,0.0,0.2810555100440979,-1.583085838948385,-0.0,-0.010105625726282597,0.8574259877204895,-0.0,-0.0004494038876146078,0.7743315100669861,0.0,0.05264551565051079
194.0,191.0,-0.198,-0.0012,9.6425,-0.0373,0.0232,-0.1229,-1.9571753940977992,0.0,3.7329821586608887,-1.537847638130188,-0.0,2.0567691326141357,4.9865252552326105,0.0,0.27750933170318604,-1.5830939451800745,-0.0,-0.009629090316593647,0.8573939204216003,-0.0,-0.0027819343376904726,0.7743034362792969,0.0,0.00899227149784565
194.0,191.0,-0.198,-0.0012,9.6425,-0.0373,0.0232,-0.1229,-1.9572035274901332,0.0,3.661745548248291,-1.5378236770629883,-0.0,2.0725083351135254,4.9865572331245325,0.0,0.27549585700035095,-1.5831220785724085,-0.0,-0.004401681013405323,0.857337474822998,-0.0,0.001592880580574274,0.7742668986320496,0.0,0.0074292877689003944
194.0,191.0,-0.198,-0.0012,9.6425,-0.0373,0.0232,-0.1229,-1.957174917260641,0.0,3.688061237335205,-1.5377836227416992,-0.0,2.1111907958984375,4.986489522248068,0.0,0.2788408100605011,-1.583085838948385,-0.0,-0.008899770677089691,0.8573415279388428,-0.0,-0.009257238358259201,0.774315357208252,0.0,-0.013196408748626709
190.0,197.0,-0.1831,0.0538,9.6138,-0.0373,0.0214,-0.1237,-1.9571997127928675,0.0,3.683358669281006,-1.5378321409225464,-0.0,2.0915446281433105,4.986529338150778,0.0,0.28604307770729065,-1.5831177870379847,-0.0,-0.0006198235787451267,0.8574175834655762,-0.0,-0.0016933613223955035,0.7742831707000732,0.0,0.009330404922366142
190.0,197.0,-0.1831,0.0538,9.6138,-0.0373,0.0214,-0.1237,-1.9571553669371546,0.0,3.7063446044921875,-1.5378196239471436,-0.0,2.0623538494110107,4.986537533789434,0.0,0.2914498746395111,-1.5831382910357874,-0.0,-0.008848235011100769,0.8574061393737793,-0.0,0.0025313394144177437,0.7743557691574097,0.0,0.03585226088762283
190.0,197.0,-0.1831,0.0538,9.6138,-0.0373,0.0214,-0.1237,-1.9571753940977992,0.0,3.7223806381225586,-1.5378077030181885,-0.0,2.0692460536956787,4.986525225430288,0.0,0.2848431169986725,-1.5830615202533167,-0.0,-0.009686101227998734,0.8573813438415527,-0.0,0.0002583780442364514,0.7743355631828308,0.0,0.06260839104652405
190.0,197.0,-0.1831,0.0538,9.6138,-0.0373,0.0214,-0.1237,-1.9571873150267542,0.0,3.6867167949676514,-1.537827968597412,-0.0,2.068803310394287,4.98658965805129,0.0,0.28494390845298767,-1.5831134955035608,-0.0,-0.009003819897770882,0.85732501745224,-0.0,-0.001614420092664659,0.7742708921432495,0.0,-0.024296171963214874
190.0,197.0,-0.1831,0.0538,9.6138,-0.0373,0.0214,-0.1237,-1.9572202167906703,0.0,3.726839065551758,-1.537799596786499,-0.0,2.05827260017395,4.986573594599523,0.0,0.2860689163208008,-1.5830696264850062,-0.0,-0.009712520986795425,0.8573613166809082,-0.0,-0.0016834347043186426,0.7743438482284546,0.0,-0.0004888337571173906
190.0,197.0,-0.1831,0.0538,9.6138,-0.0373,0.0214,-0.1237,-1.9571873150267542,0.0,3.6835367679595947,-1.5378073453903198,-0.0,2.1047451496124268,4.986497360258856,0.0,0.2806476950645447,-1.5830901304828089,-0.0,-0.009881800040602684,0.8574336171150208,-0.0,0.000298398663289845,0.7743355631828308,0.0,-0.0020968737080693245
190.0,197.0,-0.1831,0.0538,9.6138,-0.0373,0.0214,-0.1237,-1.9571873150267542,0.0,3.6783018112182617,-1.5378237962722778,-0.0,2.1077165603637695,4.986541259079733,0.0,0.2868090867996216,-1.5831134955035608,-0.0,-0.010839195922017097,0.8573209047317505,-0.0,0.007253934629261494,0.774283230304718,0.0,0.004852465353906155
190.0,197.0,-0.1831,0.0538,9.6138,-0.0373,0.0214,-0.1237,-1.957191606561178,0.0,3.6829566955566406,-1.5378117561340332,-0.0,2.0602331161499023,4.986533421068945,0.0,0.27168166637420654,-1.5831220785724085,-0.0,-0.0067838942632079124,0.8573735356330872,-0.0,-0.006890654563903809,0.7743112444877625,0.0,-0.02032848820090294
190.0,197.0,-0.1831,0.0538,9.6138,-0.0373,0.0214,-0.1237,-1.9571839771666468,0.0,3.6930973529815674,-1.5377753973007202,-0.0,2.0669102668762207,4.986513334303655,0.0,0.2870246171951294,-1.5831344763385218,-0.0,-0.020951226353645325,0.8573980331420898,-0.0,0.006638998165726662,0.7742751240730286,0.0,0.031801335513591766
190.0,197.0,-0.1831,0.0538,9.6138,-0.0373,0.0214,-0.1237,-1.9571873150267542,0.0,3.713022232055664,-1.5378073453903198,-0.0,2.059218406677246,4.986513334303655,0.0,0.28635936975479126,-1.5831106344806116,-0.0,0.0041653490625321865,0.8573447465896606,-0.0,-0.0009353428613394499,0.7742668986320496,0.0,-0.014823333360254765
190.0,197.0,-0.1831,0.0538,9.6138,-0.0373,0.0214,-0.1237,-1.9571835003294886,0.0,3.6401922702789307,-1.5378155708312988,-0.0,2.0649313926696777,4.986525612860479,0.0,0.2649618685245514,-1.5831220785724085,-0.0,-0.011701533570885658,0.8573447465896606,-0.0,0.0018104799091815948,0.7743273973464966,0.0,-0.011059839278459549
190.0,197.0,-0.1831,0.0538,9.6138,-0.0373,0.0214,-0.1237,-1.9572202167906703,0.0,3.7357921600341797,-1.5377633571624756,-0.0,2.0617542266845703,4.986521470337667,0.0,0.28186577558517456,-1.5831177870379847,-0.0,-0.0056039756163954735,0.8573689460754395,-0.0,0.011920960620045662,0.7743315100669861,0.0,0.002236397471278906
190.0,197.0,-0.1831,0.0538,9.6138,-0.0373,0.0214,-0.1237,-1.957235952416891,0.0,3.675663948059082,-1.5378036499023438,-0.0,2.057485818862915,4.9865490076835535,0.0,0.28153538703918457,-1.5831106344806116,-0.0,-0.009888439439237118,0.8573857545852661,-0.0,-0.006808684207499027,0.7743315100669861,0.0,-0.013967856764793396
190.0,197.0,-0.1831,0.0538,9.6138,-0.0373,0.0214,-0.1237,-1.9571954212584437,0.0,3.6874117851257324,-1.5377835035324097,-0.0,2.0454983711242676,4.986521172314443,0.0,0.27469122409820557,-1.58307391801943,-0.0,-0.008003294467926025,0.8573813438415527,-0.0,-0.003694911953061819,0.7743315100669861,0.0,0.005184177774935961
190.0,193.0,-0.195,-0.0054,9.588,-0.0312,0.0241,-0.1156,-1.9572202167906703,0.0,3.665139675140381,-1.5378321409225464,-0.0,2.0400524139404297,4.9865371761615656,0.0,0.2815711796283722,-1.5831177870379847,-0.0,-0.010072707198560238,0.8573772311210632,-0.0,-0.007281854283064604,0.7742993831634521,0.0,-0.008210749365389347
190.0,193.0,-0.195,-0.0054,9.588,-0.0312,0.0241,-0.1156,-1.9572283230223597,0.0,3.6989593505859375,-1.537799596786499,-0.0,2.0446038246154785,4.986593711167135,0.0,0.28371259570121765,-1.5831134955035608,-0.0,-0.00014443136751651764,0.8573939204216003,-0.0,-0.0018628775142133236,0.7743194103240967,0.0,-0.014048957265913486
190.0,193.0,-0.195,-0.0054,9.588,-0.0312,0.0241,-0.1156,-1.9571753940977992,0.0,3.6692872047424316,-1.5377753973007202,-0.0,2.050837516784668,4.9865654585655115,0.0,0.28913936018943787,-1.5831106344806116,-0.0,-0.0011949465842917562,0.8573735356330872,-0.0,-0.0021987876389175653,0.7742911577224731,0.0,0.008319421671330929
190.0,193.0,-0.195,-0.0054,9.588,-0.0312,0.0241,-0.1156,-1.9571992359557093,0.0,3.6839675903320312,-1.5378434658050537,-0.0,2.0517101287841797,4.986509251385488,0.0,0.28056007623672485,-1.5831106344806116,-0.0,0.001855120761319995,0.8573939204216003,-0.0,-0.020485643297433853,0.7743435502052307,0.0,0.027421511709690094
190.0,193.0,-0.195,-0.0054,9.588,-0.0312,0.0241,-0.1156,-1.9571873150267542,0.0,3.6990954875946045,-1.5378600358963013,-0.0,2.087273359298706,4.986585873156347,0.0,0.28834134340286255,-1.583102051411764,-0.0,-0.008668312802910805,0.8574062585830688,-0.0,0.009644769132137299,0.7743273973464966,0.0,0.004191032610833645
190.0,193.0,-0.195,-0.0054,9.588,-0.0312,0.0241,-0.1156,-1.9571997127928675,0.0,3.6802048683166504,-1.5377793312072754,-0.0,2.0625171661376953,4.98654122927741,0.0,0.28848356008529663,-1.5831382910357874,-0.0,-0.008239136077463627,0.8573570251464844,-0.0,0.0005016578361392021,0.7743356227874756,0.0,-0.02426806464791298
190.0,193.0,-0.195,-0.0054,9.588,-0.0312,0.0241,-0.1156,-1.9572035274901332,0.0,3.6828932762145996,-1.5378237962722778,-0.0,2.050299644470215,4.986529338150778,0.0,0.2774023413658142,-1.5831220785724085,-0.0,-0.005408017430454493,0.8574221730232239,-0.0,-0.009769906289875507,0.7742993831634521,0.0,0.023033812642097473
190.0,193.0,-0.195,-0.0054,9.588,-0.0312,0.0241,-0.1156,-1.9571997127928675,0.0,3.671004295349121,-1.537847638130188,-0.0,2.0804991722106934,4.986501383572378,0.0,0.28510117530822754,-1.5831258932696741,-0.0,-0.00981602631509304,0.8573854565620422,-0.0,-0.010582632385194302,0.7742911577224731,0.0,0.021307161077857018
190.0,193.0,-0.195,-0.0054,9.588,-0.0312,0.0241,-0.1156,-1.9572159252562464,0.0,3.7179083824157715,-1.5378155708312988,-0.0,2.064119815826416,4.986529338150778,0.0,0.290523886680603,-1.5831063429461878,-0.0,-0.010434180498123169,0.857429563999176,-0.0,-0.005566800944507122,0.7743434906005859,0.0,0.006455237045884132
190.0,193.0,-0.195,-0.0054,9.588,-0.0312,0.0241,-0.1156,-1.957162996331686,0.0,3.6850175857543945,-1.537827968597412,-0.0,2.078233242034912,4.986509251385488,0.0,0.2826213240623474,-1.5831177870379847,-0.0,-0.013613400980830193,0.8573939204216003,-0.0,0.0025372079107910395,0.7743516564369202,0.0,0.006980703212320805
190.0,193.0,-0.195,-0.0054,9.588,-0.0312,0.0241,-0.1156,-1.957207819024557,0.0,3.7171506881713867,-1.5377992391586304,-0.0,2.1022589206695557,4.986501443177023,0.0,0.2838294208049774,-1.5831344763385218,-0.0,-0.006833931896835566,0.8573689460754395,-0.0,-0.005673196632415056,0.7743071913719177,0.0,0.007908943109214306
190.0,193.0,-0.195,-0.0054,9.588,-0.0312,0.0241,-0.1156,-1.957191606561178,0.0,3.721968650817871,-1.537847638130188,-0.0,2.129127025604248,4.9865252552326105,0.0,0.2722620666027069,-1.5831177870379847,-0.0,-0.013683158904314041,0.8573529124259949,-0.0,0.006833130959421396,0.774315357208252,0.0,-0.0031200989615172148
190.0,193.0,-0.195,-0.0054,9.588,-0.0312,0.0241,-0.1156,-1.9571992359557093,0.0,3.7313549518585205,-1.537872314453125,-0.0,2.0620296001434326,4.986553507834234,0.0,0.2787524163722992,-1.5831382910357874,-0.0,-0.007550782058387995,0.857373058795929,-0.0,-0.004171242006123066,0.7743476033210754,0.0,0.03779271990060806
190.0,193.0,-0.195,-0.0054,9.588,-0.0312,0.0241,-0.1156,-1.957191606561178,0.0,3.6644792556762695,-1.5378361940383911,-0.0,2.0907351970672607,4.986509251385488,0.0,0.2896343767642975,-1.5831106344806116,-0.0,-0.003625900950282812,0.8573896884918213,-0.0,0.0006657538469880819,0.7743315100669861,0.0,-0.0317714586853981
196.0,192.0,-0.1992,-0.0329,9.6144,-0.042,0.0247,-0.1252,-1.957179685632223,0.0,3.729712963104248,-1.5377912521362305,-0.0,2.0337767601013184,4.986505168467321,0.0,0.29323363304138184,-1.5830896536456507,-0.0,-0.021218551322817802,0.8573689460754395,-0.0,0.003672373713925481,0.7743315100669861,0.0,0.010013720951974392
196.0,192.0,-0.1992,-0.0329,9.6144,-0.042,0.0247,-0.1252,-1.9572283230223597,0.0,3.697695732116699,-1.5377675294876099,-0.0,2.0586931705474854,4.986513334303655,0.0,0.28873172402381897,-1.58307391801943,-0.0,-0.012926753610372543,0.8574140071868896,-0.0,-0.005495387129485607,0.7743315100669861,0.0,0.03154883533716202
196.0,192.0,-0.1992,-0.0329,9.6144,-0.042,0.0247,-0.1252,-1.957191606561178,0.0,3.723480701446533,-1.537864089012146,-0.0,2.0543458461761475,4.986553537636556,0.0,0.2715889513492584,-1.5830939451800745,-0.0,-0.022426355630159378,0.8573689460754395,-0.0,0.008369136601686478,0.7743074893951416,0.0,-0.007630348205566406
196.0,192.0,-0.1992,-0.0329,9.6144,-0.042,0.0247,-0.1252,-1.9572440586485804,0.0,3.72119140625,-1.537839412689209,-0.0,2.0555083751678467,4.986485379725256,0.0,0.2976180613040924,-1.5831106344806116,-0.0,-0.004797083325684071,0.8573896884918213,-0.0,-0.0007069939747452736,0.7743235230445862,0.0,-0.003467847825959325
196.0,192.0,-0.1992,-0.0329,9.6144,-0.042,0.0247,-0.1252,-1.957235952416891,0.0,3.7010624408721924,-1.537799596786499,-0.0,2.068925380706787,4.9865453419979,0.0,0.28229090571403503,-1.5831144491778772,-0.0,-0.0008898957166820765,0.8573453426361084,-0.0,0.0034499228931963444,0.7742587924003601,0.0,0.037959687411785126
196.0,192.0,-0.1992,-0.0329,9.6144,-0.042,0.0247,-0.1252,-1.957207819024557,0.0,3.7006430625915527,-1.5377753973007202,-0.0,2.0876851081848145,4.986549454718389,0.0,0.2888490557670593,-1.5830939451800745,-0.0,0.008870058692991734,0.857377290725708,-0.0,-0.004030277952551842,0.7742627859115601,0.0,0.03873918950557709
196.0,192.0,-0.1992,-0.0329,9.6144,-0.042,0.0247,-0.1252,-1.9572283230223597,0.0,3.7287979125976562,-1.537799596786499,-0.0,2.0430545806884766,4.98658179023818,0.0,0.2806512117385864,-1.583146874104635,-0.0,-0.023257577791810036,0.8574099540710449,-0.0,0.0018392259953543544,0.7742791771888733,0.0,-0.015344216488301754
196.0,192.0,-0.1992,-0.0329,9.6144,-0.042,0.0247,-0.1252,-1.9572521648802699,0.0,3.6753804683685303,-1.537799596786499,-0.0,2.0500428676605225,4.986509251385488,0.0,0.2854461073875427,-1.5831177870379847,-0.0,-0.010186716914176941,0.8574061989784241,-0.0,-0.012552609667181969,0.7743273973464966,0.0,-0.011256852187216282
196.0,192.0,-0.1992,-0.0329,9.6144,-0.042,0.0247,-0.1252,-1.9572283230223597,0.0,3.678040027618408,-1.5378434658050537,-0.0,2.041867256164551,4.986461210041799,0.0,0.2903691828250885,-1.5831220785724085,-0.0,-0.0015959851443767548,0.8574134707450867,-0.0,-0.011862112209200859,0.7742993831634521,0.0,0.04658325016498566
196.0,192.0,-0.1992,-0.0329,9.6144,-0.042,0.0247,-0.1252,-1.9571753940977992,0.0,3.6781909465789795,-1.5377633571624756,-0.0,2.068636894226074,4.9865453419979,0.0,0.27843862771987915,-1.5831258932696741,-0.0,-0.015329070389270782,0.8574099540710449,-0.0,-0.008932575583457947,0.7743596434593201,0.0,-0.019793501123785973
196.0,192.0,-0.1992,-0.0329,9.6144,-0.042,0.0247,-0.1252,-1.9571873150267542,0.0,3.6682214736938477,-1.5378597974777222,-0.0,2.086230754852295,4.9865371761615656,0.0,0.28312191367149353,-1.5831177870379847,-0.0,-0.009489607997238636,0.8574056625366211,-0.0,0.005301199853420258,0.7743192315101624,0.0,0.018317312002182007
196.0,192.0,-0.1992,-0.0329,9.6144,-0.042,0.0247,-0.1252,-1.9572116337218226,0.0,3.7035155296325684,-1.5378113985061646,-0.0,2.04198956489563,4.986541259079733,0.0,0.2754921317100525,-1.5831258932696741,-0.0,-0.0138063570484519,0.8574100136756897,-0.0,0.0019294153898954391,0.7743435502052307,0.0,0.021243570372462273
196.0,192.0,-0.1992,-0.0329,9.6144,-0.042,0.0247,-0.1252,-1.9571954212584437,0.0,3.7114105224609375,-1.53779137134552,-0.0,2.1012635231018066,4.986509251385488,0.0,0.2952359914779663,-1.583085838948385,-0.0,-0.01040666550397873,0.8574181795120239,-0.0,-0.015740681439638138,0.7743232846260071,0.0,0.018964046612381935
192.0,195.0,-0.1914,0.012,9.5462,-0.0319,0.0275,-0.1211,-1.9571672878661097,0.0,3.7304787635803223,-1.5378077030181885,-0.0,2.057023525238037,4.986569511681356,0.0,0.26915642619132996,-1.5830653349505823,-0.0,-0.021307596936821938,0.8574099540710449,-0.0,-0.011277470737695694,0.7743516564369202,0.0,0.007754978723824024
192.0,195.0,-0.1914,0.012,9.5462,-0.0319,0.0275,-0.1211,-1.9572035274901332,0.0,3.6845531463623047,-1.537787675857544,-0.0,2.076606512069702,4.9865453419979,0.0,0.2882337272167206,-1.5831177870379847,-0.0,-0.01173737645149231,0.85732501745224,-0.0,-0.005119665991514921,0.7743192315101624,0.0,0.01036388985812664
192.0,195.0,-0.1914,0.012,9.5462,-0.0319,0.0275,-0.1211,-1.9571873150267542,0.0,3.6989927291870117,-1.5377752780914307,-0.0,2.077181577682495,4.986541259079733,0.0,0.28498879075050354,-1.5831177870379847,-0.0,-0.012486981227993965,0.8574702739715576,-0.0,0.002780296839773655,0.7742993831634521,0.0,-0.024248164147138596
192.0,195.0,-0.1914,0.012,9.5462,-0.0319,0.0275,-0.1211,-1.957191606561178,0.0,3.7138779163360596,-1.5377954244613647,-0.0,2.0718579292297363,4.9865453419979,0.0,0.2860182523727417,-1.5831258932696741,-0.0,0.0033293929882347584,0.8574377298355103,-0.0,-0.007040899712592363,0.7743315100669861,0.0,0.009929399937391281
192.0,195.0,-0.1914,0.012,9.5462,-0.0319,0.0275,-0.1211,-1.9572035274901332,0.0,3.6980390548706055,-1.5378321409225464,-0.0,2.0811586380004883,4.986481296807089,0.0,0.28021007776260376,-1.5830815474139612,-0.0,-0.004744901321828365,0.8573939204216003,-0.0,0.013602699153125286,0.7743315100669861,0.0,0.021975979208946228
192.0,195.0,-0.1914,0.012,9.5462,-0.0319,0.0275,-0.1211,-1.957191606561178,0.0,3.6886484622955322,-1.5378321409225464,-0.0,2.033038854598999,4.986497330456533,0.0,0.2877664566040039,-1.5831106344806116,-0.0,-0.01107856072485447,0.8574098944664001,-0.0,-0.009332048706710339,0.7743112444877625,0.0,-0.01685910113155842
192.0,195.0,-0.1914,0.012,9.5462,-0.0319,0.0275,-0.1211,-1.957162996331686,0.0,3.660606861114502,-1.5378155708312988,-0.0,2.104012966156006,4.9865252552326105,0.0,0.28523463010787964,-1.583085838948385,-0.0,-0.012442952021956444,0.8573856353759766,-0.0,0.004889784846454859,0.7742912173271179,0.0,0.005480704363435507
192.0,195.0,-0.1914,0.012,9.5462,-0.0319,0.0275,-0.1211,-1.957235952416891,0.0,3.672435760498047,-1.5378155708312988,-0.0,2.0805211067199707,4.986489134817877,0.0,0.28464794158935547,-1.5830815474139612,-0.0,-0.02098901942372322,0.8573776483535767,-0.0,0.005989778786897659,0.7743315100669861,0.0,-0.01997939869761467
192.0,195.0,-0.1914,0.012,9.5462,-0.0319,0.0275,-0.1211,-1.9572035274901332,0.0,3.707559108734131,-1.537803292274475,-0.0,2.0812766551971436,4.9865174172218225,0.0,0.2928202748298645,-1.583102051411764,-0.0,0.0002583041787147522,0.8574376702308655,-0.0,0.011819344945251942,0.7743112444877625,0.0,-0.04677026718854904
192.0,195.0,-0.1914,0.012,9.5462,-0.0319,0.0275,-0.1211,-1.9571792087950648,0.0,3.673281669616699,-1.537872314453125,-0.0,2.0605621337890625,4.986509281187811,0.0,0.27197086811065674,-1.583085838948385,-0.0,-0.006710051093250513,0.8573570251464844,-0.0,0.00014192098751664162,0.7743476033210754,0.0,0.009898234158754349
192.0,195.0,-0.1914,0.012,9.5462,-0.0319,0.0275,-0.1211,-1.9572202167906703,0.0,3.6544742584228516,-1.5378403663635254,-0.0,2.067647695541382,4.986516970186987,0.0,0.27237582206726074,-1.5831063429461878,-0.0,0.0015051343943923712,0.8573415279388428,-0.0,0.00636416207998991,0.7743476033210754,0.0,0.0227926354855299
192.0,195.0,-0.1914,0.012,9.5462,-0.0319,0.0275,-0.1211,-1.957191606561178,0.0,3.6695971488952637,-1.5377954244613647,-0.0,2.05775785446167,4.9865252552326105,0.0,0.28943872451782227,-1.5830939451800745,-0.0,-0.013547333888709545,0.8573689460754395,-0.0,0.018573742359876633,0.774391770362854,0.0,0.022177336737513542
192.0,195.0,-0.1914,0.012,9.5462,-0.0319,0.0275,-0.1211,-1.957207819024557,0.0,3.695358991622925,-1.5377634763717651,-0.0,2.0920491218566895,4.986537503987112,0.0,0.27003565430641174,-1.5831144491778772,-0.0,-0.021640542894601822,0.8574180603027344,-0.0,0.0020299828611314297,0.7743034362792969,0.0,0.010860824026167393
192.0,195.0,-0.1914,0.012,9.5462,-0.0319,0.0275,-0.1211,-1.9571510754027308,0.0,3.716561794281006,-1.5377917289733887,-0.0,2.0907201766967773,4.986569511681356,0.0,0.27623143792152405,-1.5831220785724085,-0.0,0.004729539155960083,0.8573856353759766,-0.0,-0.009057564660906792,0.7743071913719177,0.0,0.027484377846121788
194.0,193.0,-0.1316,0.0562,9.6664,-0.0409,0.0247,-0.1158,-1.9571753940977992,0.0,3.6865925788879395,-1.5378113985061646,-0.0,2.1051828861236572,4.986517447024145,0.0,0.2789725959300995,-1.583102051411764,-0.0,-0.01334524154663086,0.8574461340904236,-0.0,0.003144186921417713,0.774315357208252,0.0,-0.007936299778521061
194.0,193.0,-0.1316,0.0562,9.6664,-0.0409,0.0247,-0.1158,-1.9571835003294886,0.0,3.7181644439697266,-1.537872314453125,-0.0,2.0647006034851074,4.986501443177023,0.0,0.2766484320163727,-1.5830896536456507,-0.0,-0.014242971315979958,0.8574180603027344,-0.0,-0.003119835862889886,0.7743071913719177,0.0,0.014424067921936512
194.0,193.0,-0.1316,0.0562,9.6664,-0.0409,0.0247,-0.1158,-1.957224031487936,0.0,3.699542284011841,-1.5377954244613647,-0.0,2.115713119506836,4.986537205963888,0.0,0.2778506577014923,-1.5831258932696741,-0.0,0.0004961239174008369,0.8573893308639526,-0.0,0.00448974035680294,0.774315357208252,0.0,-0.020419850945472717
194.0,193.0,-0.1316,0.0562,9.6664,-0.0409,0.0247,-0.1158,-1.9571715794005335,0.0,3.712533950805664,-1.5378321409225464,-0.0,2.0943408012390137,4.986541259079733,0.0,0.28337448835372925,-1.5831258932696741,-0.0,-0.015765605494379997,0.8573209643363953,-0.0,-0.008322218433022499,0.7743232846260071,0.0,0.010556056164205074
194.0,193.0,-0.1316,0.0562,9.6664,-0.0409,0.0247,-0.1158,-1.957191606561178,0.0,3.6718063354492188,-1.537799596786499,-0.0,2.0709309577941895,4.986577617913046,0.0,0.292583703994751,-1.5831220785724085,-0.0,0.00029700438608415425,0.8573493361473083,-0.0,0.004744553938508034,0.7742993831634521,0.0,-0.04354184493422508
194.0,193.0,-0.1316,0.0562,9.6664,-0.0409,0.0247,-0.1158,-1.9572235546507777,0.0,3.704840898513794,-1.5377836227416992,-0.0,2.0937299728393555,4.986501443177023,0.0,0.28609856963157654,-1.5831134955035608,-0.0,-0.012651989236474037,0.8573168516159058,-0.0,-0.006585884373635054,0.7742993831634521,0.0,0.03175847604870796
194.0,193.0,-0.1316,0.0562,9.6664,-0.0409,0.0247,-0.1158,-1.9571715794005335,0.0,3.6581573486328125,-1.5378361940383911,-0.0,2.0993950366973877,4.986541259079733,0.0,0.2788518965244293,-1.583102051411764,-0.0,-0.004913318902254105,0.857373058795929,-0.0,-0.0066144755110144615,0.7742993831634521,0.0,0.038700103759765625
194.0,193.0,-0.1316,0.0562,9.6664,-0.0409,0.0247,-0.1158,-1.9572116337218226,0.0,3.670088768005371,-1.5378353595733643,-0.0,2.0509581565856934,4.986549424916067,2.5234999156964477e-07,0.2765827775001526,-1.5831177870379847,-0.0,-0.007350529078394175,0.8574015498161316,-0.0,0.008480871096253395,0.7743394374847412,0.0,0.020151393488049507
194.0,193.0,-0.1316,0.0562,9.6664,-0.0409,0.0247,-0.1158,-1.9571591816344203,0.0,3.6827077865600586,-1.5378196239471436,-0.0,2.099299430847168,4.986541288882055,4.586336085216081e-12,0.28112417459487915,-1.5831063429461878,-0.0,-0.014679994434118271,0.8573896884918213,-0.0,-0.005944416392594576,0.774283230304718,0.0,-0.019136006012558937
194.0,193.0,-0.1316,0.0562,9.6664,-0.0409,0.0247,-0.1158,-1.9571873150267542,0.0,3.7045693397521973,-1.5378155708312988,-0.0,2.0729362964630127,4.986549424916067,1.276623494146211e-15,0.271928995847702,-1.5831063429461878,-0.0,-2.1776417270302773e-05,0.8573855757713318,-0.0,-0.0060851601883769035,0.7743112444877625,0.0,-0.011262176558375359
194.0,193.0,-0.1316,0.0562,9.6664,-0.0409,0.0247,-0.1158,-1.9571954212584437,0.0,3.6990880966186523,-1.5378196239471436,-0.0,2.1163244247436523,4.9865453419979,3.5535286204487106e-19,0.2812406122684479,-1.5830777327166956,-0.0,-0.01376140397042036,0.8573334217071533,-0.0,-0.0019510649144649506,0.7742628455162048,0.0,-0.0009934678673744202
194.0,193.0,-0.1316,0.0562,9.6664,-0.0409,0.0247,-0.1158,-1.9572202167906703,0.0,3.705247402191162,-1.5378516912460327,-0.0,2.0635147094726562,4.986509251385488,9.891376060361189e-23,0.29262807965278625,-1.583130184804098,-0.0,-0.011658994480967522,0.8573814034461975,-0.0,-0.0050301263108849525,0.7743435502052307,0.0,-0.002217301167547703
194.0,193.0,-0.1316,0.0562,9.6664,-0.0409,0.0247,-0.1158,-1.9572159252562464,0.0,3.6612722873687744,-1.5378036499023438,-0.0,2.0489840507507324,4.986533421068945,1.7977092324097112e-27,0.27429425716400146,-1.5831220785724085,-0.0,-0.012120990082621574,0.8574216365814209,-0.0,-0.0018515975680202246,0.7743476033210754,0.0,-0.02283363789319992
194.0,193.0,-0.1316,0.0562,9.6664,-0.0409,0.0247,-0.1158,-1.9571873150267542,0.0,3.7111873626708984,-1.5378155708312988,-0.0,2.0591273307800293,4.986548977881231,5.003989643682075e-31,0.2691166400909424,-1.583130184804098,-0.0,-0.006339739076793194,0.8573492765426636,-0.0,-0.0026112461928278208,0.7743192315101624,0.0,0.01324366219341755
191.0,197.0,-0.122,0.1519,9.5031,-0.0443,0.0232,-0.119,-1.957235952416891,0.0,3.697035789489746,-1.5378196239471436,-0.0,2.0742359161376953,4.986512917071142,1.3928788425440897e-34,0.2649879455566406,-1.5831096808062952,-0.0,-0.003866952145472169,0.8574056625366211,-0.0,0.0017152507789433002,0.7743192315101624,0.0,-0.012406759895384312
191.0,197.0,-0.122,0.1519,9.5031,-0.0443,0.0232,-0.119,-1.9572159252562464,0.0,3.6942358016967773,-1.537827968597412,-0.0,2.0759212970733643,4.986509281187811,2.531489116055176e-39,0.27671676874160767,-1.5831344763385218,-0.0,-0.003172060241922736,0.8574261665344238,-0.0,-0.0067421384155750275,0.7743394374847412,0.0,-0.007488195784389973
191.0,197.0,-0.122,0.1519,9.5031,-0.0443,0.0232,-0.119,-1.9571835003294886,0.0,3.7119579315185547,-1.5377954244613647,-0.0,2.0713932514190674,4.986549454718389,7.04853127555383e-43,0.27273067831993103,-1.5831106344806116,-0.0,-0.003961348440498114,0.8573939204216003,-0.0,-0.010045919567346573,0.7743194103240967,0.0,-0.008748304098844528
191.0,197.0,-0.122,0.1519,9.5031,-0.0443,0.0232,-0.119,-1.957207819024557,0.0,3.7018837928771973,-1.53779137134552,-0.0,2.0954794883728027,4.98651288726882,0.0,0.2813175916671753,-1.583142105733053,-0.0,-0.015535558573901653,0.8573694229125977,-0.0,-0.019875044003129005,0.7742993831634521,0.0,-0.01247913483530283
191.0,197.0,-0.122,0.1519,9.5031,-0.0443,0.0232,-0.119,-1.9572116337218226,0.0,3.689988613128662,-1.537827968597412,-0.0,2.0850329399108887,4.986497360258856,0.0,0.2837578058242798,-1.5831344763385218,-0.0,-0.010989276692271233,0.8573613166809082,-0.0,-0.003936184570193291,0.7742911577224731,0.0,-0.0004619993269443512
191.0,197.0,-0.122,0.1519,9.5031,-0.0443,0.0232,-0.119,-1.9572116337218226,0.0,3.68601131439209,-1.5378196239471436,-0.0,2.0572736263275146,4.986509251385488,0.0,0.29261401295661926,-1.5830896536456507,-0.0,-0.0012231970904394984,0.8573613166809082,-0.0,0.0037876784335821867,0.7743071913719177,0.0,0.0002394663169980049
191.0,197.0,-0.122,0.1519,9.5031,-0.0443,0.0232,-0.119,-1.9571873150267542,0.0,3.7113847732543945,-1.537827968597412,-0.0,2.0953803062438965,4.986557560950079,0.0,0.27562013268470764,-1.5831459204303187,-0.0,-0.013289058580994606,0.857377290725708,-0.0,-0.013144401833415031,0.7743232846260071,0.0,-0.05864957720041275
191.0,197.0,-0.122,0.1519,9.5031,-0.0443,0.0232,-0.119,-1.9571997127928675,0.0,3.7088868618011475,-1.537827730178833,-0.0,2.091928005218506,4.986513364105978,0.0,0.27606430649757385,-1.5831344763385218,-0.0,-0.005809938069432974,0.8573653697967529,-0.0,0.0014012433821335435,0.7743596434593201,0.0,0.018257902935147285
191.0,197.0,-0.122,0.1519,9.5031,-0.0443,0.0232,-0.119,-1.9572035274901332,0.0,3.6505346298217773,-1.537847638130188,-0.0,2.0927786827087402,4.986513334303655,0.0,0.2768346667289734,-1.5831063429461878,-0.0,-0.009789307601749897,0.8573855757713318,-0.0,-0.0032506193965673447,0.7743396162986755,0.0,0.05776921659708023
191.0,197.0,-0.122,0.1519,9.5031,-0.0443,0.0232,-0.119,-1.9571997127928675,0.0,3.6745877265930176,-1.5378477573394775,-0.0,2.106940746307373,4.986493217736044,0.0,0.2766716480255127,-1.5831339995013636,-0.0,0.00150346162263304,0.857377290725708,-0.0,-0.00609550578519702,0.7743715643882751,0.0,0.009273340925574303
191.0,197.0,-0.122,0.1519,9.5031,-0.0443,0.0232,-0.119,-1.9572402439513148,0.0,3.6895694732666016,-1.5378239154815674,-0.0,2.068911552429199,4.986549454718389,0.0,0.28335824608802795,-1.5831220785724085,-0.0,-0.027381662279367447,0.8573653697967529,-0.0,0.0011687985388562083,0.7743596434593201,0.0,-0.007717335596680641
191.0,197.0,-0.122,0.1519,9.5031,-0.0443,0.0232,-0.119,-1.9571873150267542,0.0,3.694479465484619,-1.5377835035324097,-0.0,2.084317684173584,4.98658578374938,0.0,0.27976199984550476,-1.5831378141986292,-0.0,-0.01516011357307434,0.8573735952377319,-0.0,0.0008555008098483086,0.7743555903434753,0.0,0.009811277501285076
191.0,197.0,-0.122,0.1519,9.5031,-0.0443,0.0232,-0.119,-1.9572159252562464,0.0,3.733881950378418,-1.5377954244613647,-0.0,2.052144765853882,4.986513334303655,0.0,0.27841123938560486,-1.5830901304828089,-0.0,-0.005644969642162323,0.8573090434074402,-0.0,0.008156025782227516,0.7743147015571594,8.804412209428847e-05,0.02699889801442623
189.0,195.0,-0.2363,-0.1525,9.667,-0.0455,0.0289,-0.1213,-1.9571911297240199,0.0,3.6985912322998047,-1.5377954244613647,-0.0,2.0481297969818115,4.986481356411733,0.0,0.27292749285697937,-1.583170239125387,-0.0,-0.019294649362564087,0.8573409914970398,-0.0,-0.011770734563469887,0.7743273973464966,0.00020366825629025698,-0.028600793331861496
189.0,195.0,-0.2363,-0.1525,9.667,-0.0455,0.0289,-0.1213,-1.9571954212584437,0.0,3.7294130325317383,-1.5378113985061646,-0.0,2.1019930839538574,4.986553537636556,0.0,0.2800982594490051,-1.5831463972674769,-0.0,-0.019646042957901955,0.8574300408363342,-0.0,0.004130854737013578,0.7744038105010986,0.00021400269179139286,0.029104212298989296
189.0,195.0,-0.2363,-0.1525,9.667,-0.0455,0.0289,-0.1213,-1.9572721920409144,0.0,3.6662049293518066,-1.537827968597412,-0.0,2.090543746948242,4.986465292959966,0.0,0.2850092053413391,-1.5831621328936976,-0.0,-0.011453612707555294,0.8573448061943054,-0.0,0.008492781780660152,0.7743873596191406,0.0002250217366963625,-0.03198651596903801
189.0,195.0,-0.2363,-0.1525,9.667,-0.0455,0.0289,-0.1213,-1.957207819024557,0.0,3.716529607772827,-1.5378403663635254,-0.0,2.074373245239258,4.986481386214056,0.0,0.28500595688819885,-1.5831134955035608,-0.0,-0.01670822873711586,0.857377290725708,-0.0,0.00955588836222887,0.7743754386901855,0.0003459381696302444,0.009965179488062859
189.0,195.0,-0.2363,-0.1525,9.667,-0.0455,0.0289,-0.1213,-1.9572283230223597,0.0,3.7092161178588867,-1.5378077030181885,1.2022391970845092e-08,2.0924534797668457,4.9864772138889215,0.0,0.2784981429576874,-1.5831463972674769,-0.0,-0.012997740879654884,0.8573939204216003,-0.0,-0.005598512478172779,0.7743433117866516,0.0003382582508493215,0.019681459292769432
189.0,195.0,-0.2363,-0.1525,9.667,-0.0455,0.0289,-0.1213,-1.957224031487936,0.0,3.7325947284698486,-1.5377593040466309,2.9032667518994956e-14,2.088135242462158,4.986541616707601,0.0,0.28663820028305054,-1.583142105733053,-0.0,-0.005283346865326166,0.8574181199073792,-0.0,-0.005807822570204735,0.7743836045265198,0.0002853144542314112,0.01993359997868538
189.0,195.0,-0.2363,-0.1525,9.667,-0.0455,0.0289,-0.1213,-1.9572402439513148,0.0,3.677403688430786,-1.5378353595733643,9.406215875141956e-22,2.075615167617798,4.986529725580969,0.0,0.2715287208557129,-1.5831258932696741,-0.0,-0.013521000742912292,0.8573729991912842,-0.0,-0.0005115931853652,0.7743713855743408,0.0002747647522483021,-0.025056913495063782
189.0,195.0,-0.2363,-0.1525,9.667,-0.0455,0.0289,-0.1213,-1.9571911297240199,0.0,3.690171003341675,-1.5378434658050537,2.271490502437899e-27,2.0810389518737793,4.986489492445745,0.0,0.29296690225601196,-1.5831344763385218,-0.0,-0.014191647991538048,0.8573328852653503,-0.0,-0.004756741691380739,0.7743555903434753,0.00024298965581692755,0.039272140711545944
189.0,195.0,-0.2363,-0.1525,9.667,-0.0455,0.0289,-0.1213,-1.9572159252562464,3.308450757799619e-08,3.7111175060272217,-1.5378599166870117,5.4853826746587865e-33,2.0676016807556152,4.986493575363912,0.0,0.27426087856292725,-1.5831258932696741,-0.0,-0.015803679823875427,0.8573653697967529,-0.0,0.005839839577674866,0.7744199633598328,0.0002177886781282723,0.02921469882130623
189.0,195.0,-0.2363,-0.1525,9.667,-0.0455,0.0289,-0.1213,-1.957224031487936,7.989519012737215e-14,3.6713504791259766,-1.5378434658050537,1.3246554257274962e-38,2.0644216537475586,4.9865333614643,0.0,0.27082836627960205,-1.583130184804098,-0.0,-0.014305762015283108,0.857433557510376,-0.0,0.006525450386106968,0.774379551410675,0.00019732382497750223,0.001843427773565054
189.0,195.0,-0.2363,-0.1525,9.667,-0.0455,0.0289,-0.1213,-1.9571954212584437,2.5885027936004034e-21,3.711643934249878,-1.5378073453903198,0.0,2.0695266723632812,4.986509638815679,0.0,0.2862412929534912,-1.5831502119647425,-0.0,-0.012832088395953178,0.8573612570762634,-0.0,-0.005109901539981365,0.7743914127349854,0.00017535443475935608,0.00019623152911663055
189.0,195.0,-0.2363,-0.1525,9.667,-0.0455,0.0289,-0.1213,-1.9572521648802699,6.25092957592542e-27,3.676896095275879,-1.5378518104553223,-0.0,2.084696054458618,4.986513662129202,0.0,0.2755846381187439,-1.5831621328936976,-0.0,-0.013587108813226223,0.857373058795929,-0.0,0.006246204487979412,0.7743473052978516,0.00016246407176367939,0.0008632240351289511
189.0,195.0,-0.2363,-0.1525,9.667,-0.0455,0.0289,-0.1213,-1.9572235546507777,1.5095259112246196e-32,3.6849114894866943,-1.5378155708312988,-0.0,2.0731618404388428,4.986481654434957,0.0,0.2723439633846283,-1.583102051411764,-0.0,-0.008564069867134094,0.8574299812316895,-0.0,-0.0010023824870586395,0.7743309736251831,4.0313389035873115e-05,0.017053984105587006
189.0,195.0,-0.2363,-0.1525,9.667,-0.0455,0.0289,-0.1213,-1.9572397671141566,4.890671770340044e-40,3.699596405029297,-1.5378239154815674,-0.0,2.063326358795166,4.98647757151679,0.0,0.2864122688770294,-1.583130184804098,-0.0,-0.007896238006651402,0.8573729991912842,-0.0,-0.0017043884145095944,0.7742791771888733,9.078999028133694e-06,0.011118617840111256
195.0,192.0,-0.3876,-0.0078,9.5312,-0.0405,0.0254,-0.1274,-1.9572516880431117,1.401298464324817e-45,3.714075803756714,-1.537839412689209,-0.0,2.045271873474121,4.9865095792110345,0.0,0.2843497693538666,-1.5830939451800745,-0.0,-0.010998411104083061,0.8573648929595947,-0.0,0.0041327751241624355,0.7744199633598328,2.1924712045873207e-11,0.022517133504152298
195.0,192.0,-0.3876,-0.0078,9.5312,-0.0405,0.0254,-0.1274,-1.9572397671141566,0.0,3.69277024269104,-1.5378073453903198,-0.0,2.0387513637542725,4.986513662129202,0.0,0.2851659059524536,-1.5831177870379847,-0.0,-0.004077457822859287,0.8573334217071533,-0.0,-0.013204077258706093,0.7743797302246094,5.294559762186541e-17,-0.014822286553680897
195.0,192.0,-0.3876,-0.0078,9.5312,-0.0405,0.0254,-0.1274,-1.9572679005064906,0.0,3.712531566619873,-1.537855863571167,-0.0,2.1210267543792725,4.986445295601644,0.0,0.28574714064598083,-1.5831177870379847,-0.0,0.0006516275461763144,0.8573653697967529,-0.0,-0.0023752357810735703,0.7743315100669861,1.2785738907142014e-22,0.008006757125258446
195.0,192.0,-0.3876,-0.0078,9.5312,-0.0405,0.0254,-0.1274,-1.9572435818114222,-0.000634401454590261,3.7132253646850586,-1.5378798246383667,-0.00033983433968387544,2.0572659969329834,4.986494052201071,0.0,0.2819274365901947,-1.5831344763385218,-0.0,-0.011953536421060562,0.8574135303497314,-0.0,-0.003983192145824432,0.774331271648407,4.1424168896988595e-30,0.018147587776184082
195.0,192.0,-0.3876,-0.0078,9.5312,-0.0405,0.0254,-0.1274,-1.9573360882201136,-0.0006284925621002913,3.6797430515289307,-1.5378713607788086,-0.00033570107189007103,2.0490365028381348,4.986473607807913,0.0,0.28836721181869507,-1.5830982367144983,-0.0,-0.004108518362045288,0.8574099540710449,-0.0,0.014644790440797806,0.7743434906005859,1.0003449033384716e-35,-0.031090788543224335
195.0,192.0,-0.3876,-0.0078,9.5312,-0.0405,0.0254,-0.1274,-1.9573117695250453,-0.0005833774339407682,3.715451240539551,-1.5378508567810059,-0.00028943634242750704,2.058720588684082,4.986445265799322,0.0,0.2921779155731201,-1.5831425825702112,-0.0,0.0019435392459854484,0.8573939204216003,-0.0,-0.0029654165264219046,0.7742912769317627,2.415698422649552e-41,-0.016449349001049995
195.0,192.0,-0.3876,-0.0078,9.5312,-0.0405,0.0254,-0.1274,-1.9573399029173792,-0.0004609945754054934,3.6880440711975098,-1.5378353595733643,-0.00024450194905512035,2.1306116580963135,4.9864776013191126,0.0,0.28346943855285645,-1.5830896536456507,-0.0,-0.014559675939381123,0.8573855757713318,-0.0,-0.002540792804211378,0.7743514776229858,0.0,0.006788361351937056
195.0,192.0,-0.3876,-0.0078,9.5312,-0.0405,0.0254,-0.1274,-1.9573279819884242,-0.00036701260250993073,3.6961286067962646,-1.537839412689209,-0.00021900203137192875,2.0848913192749023,4.98649354556159,0.0,0.2815437316894531,-1.5830939451800745,-0.0,-0.0014974386431276798,0.8573488593101501,-0.0,0.0067886169999837875,0.7743716239929199,0.0,0.010502001270651817
195.0,192.0,-0.3876,-0.0078,9.5312,-0.0405,0.0254,-0.1274,-1.9573518238463343,-0.00035565096186473966,3.6819698810577393,-1.5378435850143433,-0.00019831961253657937,2.0871825218200684,4.9865095792110345,0.0,0.2964067757129669,-1.583045784627096,-0.0,-0.009330326691269875,0.8574099540710449,-0.0,-0.0014307006495073438,0.7743592858314514,0.0,0.004041701089590788
195.0,192.0,-0.3876,-0.0078,9.5312,-0.0405,0.0254,-0.1274,-1.9573193989195765,-0.00034756088280119,3.6742210388183594,-1.5378957986831665,-0.00018120644381269813,2.0785741806030273,4.986465322762289,0.0,0.281623899936676,-1.583118740712301,-0.0,-0.005098722875118256,0.8573939204216003,-0.0,-0.012853221036493778,0.7743797302246094,0.0,-0.038745421916246414
195.0,192.0,-0.3876,-0.0078,9.5312,-0.0405,0.0254,-0.1274,-1.9573475323119105,-0.00038832108839415014,3.69594669342041,-1.5378835201263428,-0.00016250944463536143,2.08687686920166,4.98647757151679,0.0,0.2925039827823639,-1.5831106344806116,-0.0,-0.015960657969117165,0.8573406934738159,-0.0,0.0036073883529752493,0.7743511199951172,9.014330134959891e-05,-0.031816236674785614
195.0,192.0,-0.3876,-0.0078,9.5312,-0.0405,0.0254,-0.1274,-1.9573594532408656,-0.0018456319812685251,3.6881141662597656,-1.5378508567810059,-0.0001723848981782794,2.075063705444336,4.986441570311346,0.0,0.28713783621788025,-1.5830896536456507,-0.0,0.0036677485331892967,0.8573328256607056,-0.0,-0.018012799322605133,0.7743754386901855,0.00011292505951132625,0.013076557777822018
195.0,192.0,-0.3876,-0.0078,9.5312,-0.0405,0.0254,-0.1274,-1.957411905328268,-0.0035093864426016808,3.7063069343566895,-1.5378435850143433,-0.00014814063615631312,2.053922653198242,4.986489879875936,0.0,0.29419878125190735,-1.5830939451800745,-0.0,-0.005642469972372055,0.8574419617652893,-0.0,-0.0001217750832438469,0.7743713855743408,0.00010353996913181618,0.009929115884006023
195.0,192.0,-0.3876,-0.0078,9.5312,-0.0405,0.0254,-0.1274,-1.9574395618834437,-0.006305935326963663,3.7221908569335938,-1.5378550291061401,-0.00010472221038071439,2.0584068298339844,4.98647357800559,0.0,0.28472787141799927,-1.5831106344806116,-0.0,-0.0022306691389530897,0.8573612570762634,-0.0,0.0005179987638257444,0.7743593454360962,0.00011607003398239613,0.03701622784137726
193.0,190.0,-0.1005,0.0359,9.3625,-0.0392,0.0237,-0.1156,-1.957508226434225,-0.007415705360472202,3.723989725112915,-1.53779935836792,-7.32062544557266e-05,2.0733187198638916,4.98644973614768,0.0,0.2851938307285309,-1.5831382910357874,-0.0,-0.010214928537607193,0.8573570251464844,-0.0,0.005738074891269207,0.7743914127349854,8.622264431323856e-05,-0.012289043515920639
193.0,190.0,-0.1005,0.0359,9.3625,-0.0392,0.0237,-0.1156,-1.9575158558287562,-0.006142874248325825,3.676093101501465,-1.537807583808899,-6.68703651172109e-05,2.1048343181610107,4.986441629915991,0.0,0.29119038581848145,-1.5831258932696741,-0.0,-0.01168388593941927,0.8573411107063293,-0.0,0.0027245539240539074,0.774379551410675,8.041239925660193e-05,0.02253454364836216
193.0,190.0,-0.1005,0.0359,9.3625,-0.0392,0.0237,-0.1156,-1.9575277767577113,-0.002539611654356122,3.7040627002716064,-1.5378835201263428,0.00011445823474787176,2.056516647338867,4.98644973614768,0.0,0.2925521731376648,-1.5831063429461878,-0.0,-0.0033350444864481688,0.8573694825172424,-0.0,0.0032874820753932,0.774351179599762,7.536244083894417e-05,-0.019855881109833717
193.0,190.0,-0.1005,0.0359,9.3625,-0.0392,0.0237,-0.1156,-1.9575678310790003,-0.001067419652827084,3.72025203704834,-1.5378190279006958,4.584966154652648e-05,2.084015369415283,4.986445653229513,0.0,0.281032919883728,-1.5830939451800745,-0.0,-0.0009840005077421665,0.8573974967002869,-0.0,0.010058173909783363,0.7743593454360962,6.953949196031317e-05,-0.008818566799163818
193.0,190.0,-0.1005,0.0359,9.3625,-0.0392,0.0237,-0.1156,-1.9575473270811976,-0.0015765561256557703,3.714242935180664,-1.5378713607788086,7.816962188655907e-09,2.0307183265686035,4.986457574158468,-2.073337964247912e-05,0.2889039218425751,-1.5831063429461878,-0.0,-0.007670636288821697,0.8573493361473083,-0.0,0.0007977760978974402,0.7743593454360962,6.573051359737292e-05,-0.03150564432144165
193.0,190.0,-0.1005,0.0359,9.3625,-0.0392,0.0237,-0.1156,-1.9575516186156214,-0.0026863282546401024,3.6872663497924805,-1.5378509759902954,1.8877045719211012e-14,2.08245849609375,4.986449765950002,-8.96056808414869e-05,0.29035353660583496,-1.583130184804098,-0.0,-0.005266906693577766,0.8573896884918213,-0.0,0.007421660237014294,0.7743715643882751,6.231707811821252e-05,-0.0027701640501618385
193.0,190.0,-0.1005,0.0359,9.3625,-0.0392,0.0237,-0.1156,-1.9575993023314417,-0.002395572839304805,3.6997857093811035,-1.53783118724823,6.115921720546787e-22,2.0379111766815186,4.986425566464224,-8.301292837131768e-05,0.280321329832077,-1.5830815474139612,-0.0,0.005698664113879204,0.8573612570762634,-0.0,-0.002516329288482666,0.7743913531303406,5.8281668316340074e-05,0.008045654743909836
193.0,190.0,-0.1005,0.0359,9.3625,-0.0392,0.0237,-0.1156,-1.9576636753477992,-0.0014448364963755012,3.6795382499694824,-1.5378875732421875,1.4769230667916678e-27,2.1114959716796875,4.986469882517614,-7.865972293075174e-05,0.2798749804496765,-1.5830653349505823,-0.0,-0.009627396240830421,0.8573612570762634,-0.0,-0.009019152261316776,0.7743836045265198,5.558213888434693e-05,-0.03854644298553467
193.0,190.0,-0.1005,0.0359,9.3625,-0.0392,0.0237,-0.1156,-1.9575873814024867,-0.0010229224571958184,3.683681011199951,-1.5378550291061401,3.56659496047875e-33,2.0854110717773438,4.986433732300558,-7.474026642739773e-05,0.30784890055656433,-1.5830696264850062,-0.0,-0.010099724866449833,0.8574057221412659,-0.0,-0.004850512370467186,0.7744036316871643,5.3121686505619437e-05,0.009388313628733158
193.0,190.0,-0.1005,0.0359,9.3625,-0.0392,0.0237,-0.1156,-1.9575549564757289,-0.0007547540008090436,3.7087488174438477,-1.5378879308700562,8.612908651261376e-39,2.090013027191162,4.98644973614768,-8.542331488570198e-05,0.28497233986854553,-1.5830820242511194,-0.0,-0.004837483167648315,0.8573369979858398,-0.0,-0.012043846771121025,0.7743955254554749,5.086982127977535e-05,0.027562078088521957
193.0,190.0,-0.1005,0.0359,9.3625,-0.0392,0.0237,-0.1156,-1.957611700097555,-0.0004892861470580101,3.665579319000244,-1.5378395318984985,0.0,2.083348512649536,4.986385392933645,-9.198889893013984e-05,0.2780078649520874,-1.5831344763385218,-0.0,-0.010050075128674507,0.8573049306869507,-0.0,-0.0011786329559981823,0.7743715643882751,4.814841668121517e-05,0.047718971967697144
193.0,190.0,-0.1005,0.0359,9.3625,-0.0392,0.0237,-0.1156,-1.957611700097555,-0.0005133447120897472,3.679788589477539,-1.5378674268722534,-0.0,2.092545986175537,4.986421572953024,-8.973224612418562e-05,0.2798001170158386,-1.5831344763385218,-0.0,-0.007428051438182592,0.8574057221412659,-0.0,-0.011850775219500065,0.7743473649024963,5.0242215365869924e-05,0.026611145585775375
193.0,190.0,-0.1005,0.0359,9.3625,-0.0392,0.0237,-0.1156,-1.957639833489889,-0.0005710499244742095,3.6973564624786377,-1.5378116369247437,-0.0,2.0737760066986084,4.9864132879074,-9.834558295551687e-05,0.2857627868652344,-1.5831106344806116,-0.0,-0.017228148877620697,0.8573689460754395,-0.0,-0.0072993128560483456,0.7743715643882751,4.4571730541065335e-05,0.010280556045472622
184.0,192.0,-0.1244,-0.0951,9.533,-0.0472,0.0302,-0.117,-1.9576436481871546,-0.0004964544787071645,3.7176833152770996,-1.53783118724823,-0.0,2.0668325424194336,4.986405539303579,-0.0001244834129465744,0.27986130118370056,-1.5830939451800745,-0.0,-0.0029418151825666428,0.8574099540710449,-0.0,-0.009630327112972736,0.774383544921875,4.2975530959665775e-05,-0.0017470510210841894
184.0,192.0,-0.1244,-0.0951,9.533,-0.0472,0.0302,-0.117,-1.9576918087401332,-0.000362945138476789,3.6838104724884033,-1.537839412689209,-0.0,2.067004680633545,4.986446100264349,-0.0001371291873510927,0.2783026099205017,-1.5831258932696741,-0.0,-0.009386024437844753,0.8573570251464844,-0.0,0.00734451599419117,0.7743756175041199,2.955065247078892e-05,0.014021666720509529
184.0,192.0,-0.1244,-0.0951,9.533,-0.0472,0.0302,-0.117,-1.9576035938658656,-0.00030203312053345144,3.6825356483459473,-1.5378673076629639,-0.0,2.0633513927459717,4.986409652024069,-0.0001256427203770727,0.27317014336586,-1.5831106344806116,-0.0,-0.005562162958085537,0.8573328256607056,-0.0,-0.006420825142413378,0.7743071913719177,1.4147369256534148e-05,-0.0381927490234375
184.0,192.0,-0.1244,-0.0951,9.533,-0.0472,0.0302,-0.117,-1.9576074085631312,-0.0002586313639767468,3.675840377807617,-1.5379159450531006,-0.0,2.0678794384002686,4.986425655871191,-0.00013901354395784438,0.28877854347229004,-1.5831339995013636,-0.0,-0.013414090499281883,0.8574016094207764,-0.0,0.007087116129696369,0.7743514776229858,1.3450436199491378e-05,0.006253410130739212
184.0,192.0,-0.1244,-0.0951,9.533,-0.0472,0.0302,-0.117,-1.9576193294920863,-0.00021704663231503218,3.6875791549682617,-1.5378998517990112,-0.0,2.0533671379089355,4.986409652024069,-0.00013645258150063455,0.28146231174468994,-1.583102051411764,-0.0,-0.0029848478734493256,0.8574057221412659,-0.0,0.00045603583566844463,0.7743914127349854,1.269174026674591e-05,-0.003735625185072422
184.0,192.0,-0.1244,-0.0951,9.533,-0.0472,0.0302,-0.117,-1.9575869045653285,-0.00022596583585254848,3.701478958129883,-1.5378477573394775,-0.0,2.1065621376037598,4.986413734942236,-0.00013750247308053076,0.27938395738601685,-1.58307391801943,-0.0,-0.015713581815361977,0.857417643070221,-0.0,0.004512257874011993,0.7743192315101624,1.2176614291092847e-05,0.019306883215904236
184.0,192.0,-0.1244,-0.0951,9.533,-0.0472,0.0302,-0.117,-1.9576035938658656,-0.00020401799702085555,3.745091438293457,-1.5378632545471191,-0.0,2.0667805671691895,4.986389565258779,-0.0001474858436267823,0.27884793281555176,-1.583061997090475,-0.0,-0.010668082162737846,0.8574020862579346,-0.0,0.0070474641397595406,0.7743313312530518,1.1701666153385304e-05,-0.009170652367174625
184.0,192.0,-0.1244,-0.0951,9.533,-0.0472,0.0302,-0.117,-1.9575749836363734,-0.00018595192523207515,3.6846790313720703,-1.537814736366272,-0.0,2.0429372787475586,4.986381727247991,-0.0001948548451764509,0.28121650218963623,-1.5830901304828089,-0.0,-0.012981081381440163,0.8573612570762634,-0.0,-0.004895338322967291,0.7743233442306519,1.1262381121923681e-05,-0.05016973614692688
184.0,192.0,-0.1244,-0.0951,9.533,-0.0472,0.0302,-0.117,-1.9576636753477992,-0.00019007512310054153,3.6920974254608154,-1.537839412689209,-0.0,2.099513292312622,4.986406016140737,-0.0002156347909476608,0.29151639342308044,-1.5830777327166956,-0.0,-0.011729691177606583,0.8573896288871765,-0.0,-0.0075432006269693375,0.7743474245071411,1.0725524589361157e-05,-0.016656620427966118
184.0,192.0,-0.1244,-0.0951,9.533,-0.0472,0.0302,-0.117,-1.957667966882223,-0.0001472373987780884,3.677605628967285,-1.5378756523132324,-0.0,2.0721023082733154,4.9863977310951135,-0.00023885341943241656,0.276488721370697,-1.5830743948565882,-0.0,-0.006651885807514191,0.8574056625366211,-0.0,0.004605706315487623,0.7743876576423645,2.0694260456366464e-05,0.03830892592668533
184.0,192.0,-0.1244,-0.0951,9.533,-0.0472,0.0302,-0.117,-1.9576317272581996,-0.00016760309517849237,3.696671962738037,-1.5378756523132324,-0.0,2.0758726596832275,4.986377763539114,-0.0003738769155461341,0.28170907497406006,-1.58307391801943,-0.0,-0.0036229058168828487,0.8574376106262207,-0.0,0.00029539165552705526,0.774383544921875,2.0019608200527728e-05,-0.002237314358353615
184.0,192.0,-0.1244,-0.0951,9.533,-0.0472,0.0302,-0.117,-1.9576555691161097,-0.0006384324515238404,3.7253055572509766,-1.5378632545471191,-0.0,2.099935531616211,4.98636947849349,-0.00044279228313826025,0.2793627381324768,-1.5831144491778772,-0.0,-0.0010788507061079144,0.8573534488677979,-0.0,0.00950704701244831,0.7743754386901855,1.631733810569802e-11,0.017707055434584618
184.0,192.0,-0.1244,-0.0951,9.533,-0.0472,0.0302,-0.117,-1.9576555691161097,-0.0010892072459682822,3.6992454528808594,-1.5378156900405884,-0.0,2.078488826751709,4.986365842610159,-0.0005081853596493602,0.2808351516723633,-1.5830701033221644,-0.0,-0.0069336676970124245,0.8573406338691711,-0.0,-0.0031778868287801743,0.7743876576423645,3.940444916230288e-17,0.014293917454779148
184.0,192.0,-0.1244,-0.0951,9.533,-0.0472,0.0302,-0.117,-1.9576755962767542,-0.0011774973245337605,3.6561801433563232,-1.5378798246383667,-0.0,2.0473852157592773,4.98634164312438,-0.0003862410085275769,0.28644418716430664,-1.583033863698141,-0.0,-0.009544409811496735,0.8573535084724426,-0.0,-0.01030224934220314,0.774319052696228,9.515710399875356e-23,-0.037679072469472885
189.0,188.0,-0.1585,-0.0951,9.6844,-0.0345,0.0179,-0.1098,-1.9576713047423304,-0.001446915091946721,3.6806039810180664,-1.5378550291061401,-0.0,2.0692365169525146,4.98638595917777,-0.00048755595344118774,0.2909925580024719,-1.5830500761615198,-0.0,-0.004662980325520039,0.8573814034461975,-0.0,0.0009383419528603554,0.7743672728538513,2.29793197983038e-28,-0.012602447532117367
189.0,188.0,-0.1585,-0.0951,9.6844,-0.0345,0.0179,-0.1098,-1.9577156505980433,-0.002176558831706643,3.665611982345581,-1.5378435850143433,-0.0,2.048363447189331,4.986314075976171,-0.001202694489620626,0.2832411825656891,-1.583045784627096,-0.0,-0.0014219636796042323,0.8573570847511292,-0.0,0.009180267341434956,0.7743633985519409,7.445007533243307e-36,0.007183518260717392
189.0,188.0,-0.1585,-0.0951,9.6844,-0.0345,0.0179,-0.1098,-1.9576956234373988,-0.00264314329251647,3.6527671813964844,-1.5378713607788086,-0.0,2.087200164794922,4.986321556359091,-0.0011662316974252462,0.2702759802341461,-1.5830538908587855,7.064455331828867e-08,-0.00393430981785059,0.8573131561279297,-0.0,0.0026592451613396406,0.7743474841117859,1.7978659297287403e-41,-0.03171011805534363
189.0,188.0,-0.1585,-0.0951,9.6844,-0.0345,0.0179,-0.1098,-1.9577237568297328,-0.003353298641741276,3.6901755332946777,-1.5378270149230957,-0.0,2.0492916107177734,4.986285763769903,-0.0012756998185068369,0.2768026292324066,-1.5830419699298304,1.9664171332922642e-11,0.0017931729089468718,0.8573570251464844,-0.0,0.0038013781886547804,0.7743715047836304,0.0,0.024463288486003876
189.0,188.0,-0.1585,-0.0951,9.6844,-0.0345,0.0179,-0.1098,-1.9577833614745082,-0.003017238574102521,3.711177349090576,-1.5378590822219849,-0.0,2.099716901779175,4.986302095442571,-0.0021880578715354204,0.2889415919780731,-1.5830743948565882,3.573865203224184e-16,-0.007843324914574623,0.8573613166809082,-0.0,-0.007183910813182592,0.7743954658508301,0.0,-0.011275960132479668
189.0,188.0,-0.1585,-0.0951,9.6844,-0.0345,0.0179,-0.1098,-1.9577628574767054,-0.00327519909478724,3.7070438861846924,-1.5378798246383667,-0.0,2.068871021270752,4.986266094237127,-0.0033247163519263268,0.27945181727409363,-1.5830782095538538,9.947985531762125e-20,-0.004145133774727583,0.8574140667915344,-0.0,-0.010746514424681664,0.7743914127349854,0.0,0.019273361191153526
189.0,188.0,-0.1585,-0.0951,9.6844,-0.0345,0.0179,-0.1098,-1.957803865472311,-0.004052429925650358,3.711296558380127,-1.5378756523132324,-0.0,2.0315933227539062,4.986210006266393,-0.0052306074649095535,0.2699759304523468,-1.5830462614642542,2.7690586028737094e-23,-0.019627192988991737,0.857430100440979,-0.0,-0.00011358375195413828,0.7743954658508301,0.0,0.006382219027727842
189.0,188.0,-0.1585,-0.0951,9.6844,-0.0345,0.0179,-0.1098,-1.9578153095641078,-0.004423448350280523,3.657586097717285,-1.5378353595733643,-0.0,2.0859503746032715,4.986210453301229,-0.0065167187713086605,0.2927064895629883,-1.5830538908587855,7.7077765563838e-27,-0.0185216274112463,0.8573896884918213,-0.0,-0.008024491369724274,0.7743474245071411,0.0,0.013694025576114655
189.0,188.0,-0.1585,-0.0951,9.6844,-0.0345,0.0179,-0.1098,-1.9578429661192835,-0.005585330072790384,3.6821680068969727,-1.5378239154815674,-0.0,2.0670418739318848,4.986137914448538,-0.005402890034019947,0.2738194167613983,-1.5830705801593226,1.4008503711588246e-31,0.003460738342255354,0.8574140667915344,-0.0,0.0016520479694008827,0.7743352055549622,0.0,-0.010513514280319214
189.0,188.0,-0.1585,-0.0951,9.6844,-0.0345,0.0179,-0.1098,-1.9578830204405726,-0.006066103465855122,3.637868881225586,-1.5378714799880981,-0.0,2.0484120845794678,4.986114489823141,-0.003680712776258588,0.2719704210758209,-1.583050552998678,3.8993176607268517e-35,0.0038201003335416317,0.8573570847511292,-0.0,-0.011034314520657063,0.7743231654167175,-1.1896986507053953e-05,-0.03977631777524948
189.0,188.0,-0.1585,-0.0951,9.6844,-0.0345,0.0179,-0.1098,-1.9579230747618617,-0.0074279699474573135,3.6814417839050293,-1.5378673076629639,-0.0,2.075732946395874,4.986126678972997,-0.0018434901721775532,0.28400325775146484,-1.5830701033221644,1.085389318137891e-38,-0.017981279641389847,0.8573980331420898,-0.0,-0.007438816595822573,0.774379551410675,-1.1551846000656951e-05,0.024690333753824234
189.0,188.0,-0.1585,-0.0951,9.6844,-0.0345,0.0179,-0.1098,-1.9580074749388636,-0.008085599169135094,3.6859874725341797,-1.5378632545471191,-0.0,2.03898286819458,4.98614655712203,-0.0008795459871180356,0.2612264156341553,-1.583029572163717,1.975830834697992e-43,-0.014122244901955128,0.8573488593101501,-0.0,0.0056013064458966255,0.7743555903434753,-2.197524008806795e-05,-0.01975899003446102
189.0,188.0,-0.1585,-0.0951,9.6844,-0.0345,0.0179,-0.1098,-1.958071847955221,-0.008500385098159313,3.6614270210266113,-1.5378998517990112,-0.0,2.0716707706451416,4.986082511931219,-0.0008630442898720503,0.2691391110420227,-1.5829938093768519,0.00011547369649633765,0.004956065211445093,0.8573415279388428,-0.0,0.0037200050428509712,0.7743474245071411,-3.179792111041024e-05,0.005484848283231258
189.0,188.0,-0.1585,-0.0951,9.6844,-0.0345,0.0179,-0.1098,-1.958079000512594,-0.008735129609704018,3.628251552581787,-1.537819743156433,-0.0,2.079078197479248,4.986054259329595,-0.001041486975736916,0.26466846466064453,-1.5829976240741175,0.0001447270915377885,-0.004730850458145142,0.8573215007781982,-0.0,-0.007866964675486088,0.7743393778800964,-3.0713461455889046e-05,-0.0809839591383934
187.0,189.0,-0.3715,-0.207,9.5575,-0.0434,0.0192,-0.1144,-1.9581152401366175,-0.009533059783279896,3.6969733238220215,-1.5378798246383667,-0.0,2.027743339538574,4.986087071686544,-0.001658876659348607,0.26128870248794556,-1.583033863698141,0.0001353575207758695,0.007976372726261616,0.8573653697967529,-0.0,-0.007671731058508158,0.7743435502052307,-1.0135764568985905e-05,-0.12836545705795288
187.0,189.0,-0.3715,-0.207,9.5575,-0.0434,0.0192,-0.1144,-1.9582272968687953,-0.011873885989189148,3.6274733543395996,-1.5378353595733643,-0.0,2.0686089992523193,4.986054676562109,-0.0023159177508205175,0.26521381735801697,-1.5830100218402308,0.00014351861318573356,0.01807110384106636,0.8573534488677979,-0.0,0.002225650707259774,0.7743394374847412,-3.2838597292805805e-13,-0.0678430050611496
187.0,189.0,-0.3715,-0.207,9.5575,-0.0434,0.0192,-0.1144,-1.9583193264403285,-0.012921778485178947,3.6083974838256836,-1.5378599166870117,-0.0,2.0762741565704346,4.986014592438497,-0.0027683379594236612,0.2646307349205017,-1.5830143133746546,0.000315571844112128,0.010863741859793663,0.857434093952179,-0.0,-0.009680375456809998,0.7743593454360962,-7.930135554600069e-19,-0.09738919138908386
187.0,189.0,-0.3715,-0.207,9.5575,-0.0434,0.0192,-0.1144,-1.9583870373167933,-0.013997816480696201,3.6064982414245605,-1.5378673076629639,-0.0,2.102306604385376,4.986030924111166,-0.0039075505919754505,0.2531774342060089,-1.5830181280719202,0.00032305519562214613,0.018622126430273056,0.8573534488677979,-0.0,0.0010752766393125057,0.7743234038352966,-1.915034591994776e-24,-0.06614126265048981
187.0,189.0,-0.3715,-0.207,9.5575,-0.0434,0.0192,-0.1144,-1.9584828815855921,-0.016474582254886627,3.540781021118164,-1.5378916263580322,-0.0,2.0839407444000244,4.985966670304098,-0.0058927410282194614,0.2623143196105957,-1.582961384450094,0.0003196379984728992,0.022199884057044983,0.8573529124259949,-0.0,-0.003908724058419466,0.7743633985519409,-4.624583607547395e-30,-0.08571548014879227
187.0,189.0,-0.3715,-0.207,9.5575,-0.0434,0.0192,-0.1144,-1.9585992298521937,-0.019180044531822205,3.541497230529785,-1.5378395318984985,-0.0,2.0518455505371094,4.9858910618122,-0.013290046714246273,0.2502571642398834,-1.5829981009112757,0.0004560176457744092,0.025717878714203835,0.8573735356330872,-0.0,-0.0005531508941203356,0.7743593454360962,-1.498306321270447e-37,-0.1342412680387497
187.0,189.0,-0.3715,-0.207,9.5575,-0.0434,0.0192,-0.1144,-1.9587108097472132,-0.020696695894002914,3.5639944076538086,-1.5378798246383667,-0.0,2.119981288909912,4.985851424723425,-0.01181263942271471,0.23974162340164185,-1.5830143133746546,0.00045511333155445755,0.015239320695400238,0.8573452830314636,-0.0,-0.005147300194948912,0.7743514776229858,-3.615350037958028e-43,-0.05105847492814064
187.0,189.0,-0.3715,-0.207,9.5575,-0.0434,0.0192,-0.1144,-1.9588467083373011,-0.022777240723371506,3.5585503578186035,-1.5378798246383667,-0.0,2.0595574378967285,4.985763299256124,-0.008672071620821953,0.24139302968978882,-1.5830062071429651,0.0004931265721097589,0.021232660859823227,0.8573653697967529,-0.0,0.0036745350807905197,0.7743754386901855,0.0,-0.14561761915683746
187.0,189.0,-0.3715,-0.207,9.5575,-0.0434,0.0192,-0.1144,-1.9590546093382777,-0.024911511689424515,3.5045342445373535,-1.5378632545471191,-0.0,2.053525924682617,4.985715615540304,-0.004285485949367285,0.2361934781074524,-1.5829737822162073,0.0005081736599095166,0.030008111149072647,0.8573415875434875,-0.0,0.0034306205343455076,0.7743674516677856,0.0,-0.12771977484226227
187.0,189.0,-0.3715,-0.207,9.5575,-0.0434,0.0192,-0.1144,-1.9591824016966761,-0.026775579899549484,3.4907612800598145,-1.5378435850143433,-0.0,2.096897840499878,4.985731619387426,-0.0019767198245972395,0.2386835366487503,-1.5829575697528284,0.0004812949919141829,0.041049182415008545,0.8573939204216003,-0.0,-0.007105033844709396,0.7743393778800964,-3.8083759136497974e-05,-0.10417021811008453
187.0,189.0,-0.3715,-0.207,9.5575,-0.0434,0.0192,-0.1144,-1.9593340359129847,-0.02917342074215412,3.472750186920166,-1.5378353595733643,-0.0,2.092341423034668,4.985683697253027,-0.0011332776630297303,0.2346964180469513,-1.5829694906817835,0.0005250040558166802,0.03638415038585663,0.8573493957519531,-0.0,0.013859400525689125,0.7744076251983643,-3.590907726902515e-05,-0.1716233640909195
187.0,189.0,-0.3715,-0.207,9.5575,-0.0434,0.0192,-0.1144,-1.959546228448385,-0.03243095427751541,3.5241799354553223,-1.5378673076629639,-0.0,2.076911211013794,4.985695647984304,-0.0008200678275898099,0.2479206770658493,-1.5829375425921839,0.0005396034684963524,0.05190820246934891,0.8573333621025085,-0.0,-0.0072001260705292225,0.7743794918060303,-3.388132972759195e-05,-0.1350170522928238
187.0,189.0,-0.3715,-0.207,9.5575,-0.0434,0.0192,-0.1144,-1.9597498379149378,-0.03596203401684761,3.5083138942718506,-1.5379080772399902,-0.0,2.0756304264068604,4.98562307932929,-0.0014952265191823244,0.22931139171123505,-1.5829375425921839,0.0006579366745427251,0.05018872395157814,0.8574221134185791,-0.0,0.0029760575853288174,0.7743515372276306,-3.150900738546625e-05,-0.1814117431640625
187.0,189.0,-0.3715,-0.207,9.5575,-0.0434,0.0192,-0.1144,-1.960005899468893,-0.03944910317659378,3.457568645477295,-1.5379077196121216,-0.0,2.1081037521362305,4.985680091172018,-0.002191517036408186,0.2373235523700714,-1.5829499403582972,0.0008756013703532517,0.055191438645124435,0.8573214411735535,-0.0,-0.0040764412842690945,0.7743754386901855,-2.9936871214886196e-05,-0.20688506960868835
187.0,190.0,-0.5402,0.1537,9.3799,-0.0377,-0.0049,-0.1164,-1.960278173486227,-0.0406234934926033,3.423436164855957,-1.5378239154815674,-0.0,2.1091082096099854,4.985627579479971,-0.00303998333401978,0.25170472264289856,-1.5829218069659632,0.0012031067162752151,0.05453943461179733,0.8574261665344238,-0.0,-0.006733080372214317,0.7744036316871643,-2.8514205041574314e-05,-0.21107229590415955
187.0,190.0,-0.5402,0.1537,9.3799,-0.0377,-0.0049,-0.1164,-1.960613866845602,-0.04279230535030365,3.389029026031494,-1.5378353595733643,-0.0,2.0285513401031494,4.985595214157858,-0.006924125365912914,0.2208281010389328,-1.5829022566424769,0.0023469640873372555,0.04697512462735176,0.8573616147041321,-0.0,-0.0015852206852287054,0.7743713855743408,-4.0201295632869005e-05,-0.22515743970870972
187.0,190.0,-0.5402,0.1537,9.3799,-0.0377,-0.0049,-0.1164,-1.9608494244017542,-0.045891936868429184,3.4077987670898438,-1.5378600358963013,-0.0,2.088919162750244,4.985563713103094,-0.012395334430038929,0.23096540570259094,-1.5828898588763636,0.004313868936151266,0.07221958041191101,0.8573616147041321,-0.0,0.0043334453366696835,0.7743873000144958,-3.850192661047913e-05,-0.20301395654678345
187.0,190.0,-0.5402,0.1537,9.3799,-0.0377,-0.0049,-0.1164,-1.9611455402769984,-0.049202509224414825,3.393004894256592,-1.5378395318984985,-0.0,2.120523452758789,4.985407340317526,-0.016238104552030563,0.20148277282714844,-1.5828779379474085,0.012026340700685978,0.07604505121707916,0.8573415279388428,-0.0,0.005332057364284992,0.774351179599762,-4.8739668272901326e-05,-0.2179478108882904
187.0,190.0,-0.5402,0.1537,9.3799,-0.0377,-0.0049,-0.1164,-1.9614817104735316,-0.04954584687948227,3.4069128036499023,-1.5378795862197876,-0.0,2.0894110202789307,4.985344636231222,-0.01904575526714325,0.20241892337799072,-1.582733456288473,0.019979476928710938,0.0788552314043045,0.8573653697967529,-0.0,-0.00470446702092886,0.7743754386901855,-4.7289875510614365e-05,-0.27285176515579224
187.0,190.0,-0.5402,0.1537,9.3799,-0.0377,-0.0049,-0.1164,-1.9618445835509242,-0.048459772020578384,3.334390640258789,-1.5378550291061401,-0.0,2.0776567459106445,4.985132741719045,-0.025012658908963203,0.20601123571395874,-1.5826457182513636,0.007867807522416115,0.0737488865852356,0.8573570251464844,-0.0,0.00797704141587019,0.774383544921875,-7.779622683301568e-05,-0.2671133279800415
187.0,190.0,-0.5402,0.1537,9.3799,-0.0377,-0.0049,-0.1164,-1.962139745751852,-0.047677576541900635,3.2911887168884277,-1.5378632545471191,-0.0,2.1299047470092773,4.984969305783071,-0.031988371163606644,0.2175915539264679,-1.5825937430011194,-0.00041562618571333587,0.068490169942379,0.8573854565620422,-0.0,-0.002320661209523678,0.774351179599762,-9.655646135797724e-05,-0.26449066400527954
187.0,190.0,-0.5402,0.1537,9.3799,-0.0377,-0.0049,-0.1164,-1.9624272785582484,-0.04899081587791443,3.3345680236816406,-1.5378313064575195,-0.0,2.067356586456299,4.984713452845373,-0.04404732584953308,0.18475134670734406,-1.5826543013202112,-0.0005499147227965295,0.06532564014196396,0.8574020862579346,-0.0,-0.0003019537543877959,0.7743433713912964,-0.0001115216437028721,-0.293061226606369
187.0,190.0,-0.5402,0.1537,9.3799,-0.0377,-0.0049,-0.1164,-1.9628831348814906,-0.051776934415102005,3.3580451011657715,-1.5378518104553223,2.1631658455589786e-05,2.098515033721924,4.984262305289068,-0.07585527747869492,0.17062269151210785,-1.5826218763934534,-0.0002465076686348766,0.0760134756565094,0.8573653697967529,-0.0,0.001724911853671074,0.7743272185325623,-0.0003422043228056282,-0.2816474437713623
187.0,190.0,-0.5402,0.1537,9.3799,-0.0377,-0.0049,-0.1164,-1.963170667687887,-0.054987870156764984,3.342593193054199,-1.5378321409225464,3.1318162655225024e-05,2.051070213317871,4.983687597304144,-0.10506465286016464,0.1591871678829193,-1.5826543013202112,-0.00017461703100707382,0.0680171474814415,0.8573456406593323,-0.0,-0.012296145781874657,0.7743916511535645,-0.00033437725505791605,-0.24823974072933197
187.0,190.0,-0.5402,0.1537,9.3799,-0.0377,-0.0049,-0.1164,-1.9634376964964808,-0.057231076061725616,3.326153039932251,-1.5378113985061646,0.0002676088479347527,2.087024211883545,4.9829972861106775,-0.11983384191989899,0.14835532009601593,-1.5826061407672327,-0.00013522166409529746,0.08892645686864853,0.8573854565620422,-0.0,-0.0026021653320640326,0.7743958234786987,-0.00032903579995036125,-0.2715989351272583
187.0,190.0,-0.5402,0.1537,9.3799,-0.0377,-0.0049,-0.1164,-1.963797231713766,-0.05996006354689598,3.3075404167175293,-1.5377836227416992,0.001012388034723699,2.0976040363311768,4.982286977558889,-0.12330272048711777,0.145517960190773,-1.5826461950885218,-5.900687028770335e-05,0.06538091599941254,0.8573537468910217,-0.0,-0.008596997708082199,0.774379551410675,-0.00032492593163624406,-0.2916310429573059
187.0,190.0,-0.5402,0.1537,9.3799,-0.0377,-0.0049,-0.1164,-1.9642850361266078,-0.06511737406253815,3.3486380577087402,-1.5378196239471436,0.0011275556171312928,2.0766334533691406,4.981401878386297,-0.12305036187171936,0.14189112186431885,-1.5826142469989222,-4.430229455465451e-05,0.09796291589736938,0.8573735356330872,-0.0,0.0037858819123357534,0.7743474245071411,-0.0002935907104983926,-0.34091901779174805
183.0,190.0,-0.9398,-0.0951,8.9755,-0.0386,-0.2025,-0.1251,-1.9647122822203578,-0.07004819810390472,3.303968667984009,-1.53775155544281,0.0010544441174715757,2.075841188430786,4.980499046831884,-0.1516159474849701,0.1285058856010437,-1.5826500097857874,-3.8600468542426825e-05,0.08210346102714539,0.8573657274246216,-0.0,-0.0008724778890609741,0.7743433713912964,-0.00025247083976864815,-0.3409970700740814
183.0,190.0,-0.9398,-0.0951,8.9755,-0.0386,-0.2025,-0.1251,-1.9651357136168421,-0.07574732601642609,3.3072924613952637,-1.5378036499023438,0.0015077997231855989,2.1265439987182617,4.979554074793615,-0.16777220368385315,0.11642175912857056,-1.5826061407672327,-3.419917993596755e-05,0.08960200101137161,0.8573534488677979,-0.0,0.009211921133100986,0.7743394374847412,-0.00021609464602079242,-0.2911033630371094
183.0,190.0,-0.9398,-0.0951,8.9755,-0.0386,-0.2025,-0.1251,-1.9657908878722132,-0.07894992083311081,3.2939295768737793,-1.5377514362335205,0.0015760284150019288,2.0794506072998047,4.978253412037649,-0.16030335426330566,0.11540299654006958,-1.5826218763934534,-2.9686367270187475e-05,0.08878326416015625,0.8573616147041321,-0.0,-0.0015014794189482927,0.7743434906005859,-0.00018127290240954608,-0.3193507194519043
183.0,190.0,-0.9398,-0.0951,8.9755,-0.0386,-0.2025,-0.1251,-1.966318269769186,-0.07965745031833649,3.286585807800293,-1.5377798080444336,0.001079285517334938,2.0716772079467773,4.977303284197607,-0.1705217957496643,0.11917708069086075,-1.5826543013202112,-2.7012951250071637e-05,0.08073226362466812,0.8573333024978638,-0.0,-0.007214732002466917,0.7743313312530518,-0.00016172745381481946,-0.35735130310058594
183.0,190.0,-0.9398,-0.0951,8.9755,-0.0386,-0.2025,-0.1251,-1.966808935204977,-0.07926370948553085,3.330383777618408,-1.5377880334854126,0.0007126846467144787,2.0521812438964844,4.976202028780737,-0.19001758098602295,0.10726963728666306,-1.5826380888568323,-4.789893500856124e-05,0.08550553023815155,0.8573735356330872,-0.0,-0.005851010326296091,0.7743394374847412,-0.00014598706911783665,-0.2695581912994385
183.0,190.0,-0.9398,-0.0951,8.9755,-0.0386,-0.2025,-0.1251,-1.9673410854735316,-0.07881870865821838,3.3430111408233643,-1.5377999544143677,0.0001921025977935642,2.044421672821045,4.975069212704458,-0.19404447078704834,0.1056496724486351,-1.5826743284808558,-4.578039806801826e-05,0.08528842777013779,0.8573735952377319,-0.0,-0.009484064765274525,0.7743514776229858,-0.000133038658532314,-0.2739195227622986
183.0,190.0,-0.9398,-0.0951,8.9755,-0.0386,-0.2025,-0.1251,-1.9679433308043421,-0.07496486604213715,3.3298888206481934,-1.5378077030181885,2.134679794041361e-10,2.061060905456543,4.973368096142568,-0.22664856910705566,0.095028817653656,-1.5826380888568323,-4.093994357390329e-05,0.07300601899623871,0.8573895692825317,-0.0,-0.0009171669371426105,0.7743314504623413,-0.00011896969226654619,-0.2693696618080139
183.0,190.0,-0.9398,-0.0951,8.9755,-0.0386,-0.2025,-0.1251,-1.9683944187560023,-0.07498154789209366,3.3653922080993652,-1.5377999544143677,-0.0005288409302011132,2.083684206008911,4.972128617554464,-0.23222339153289795,0.0946100577712059,-1.5825937430011194,-3.8861504435772076e-05,0.07455578446388245,0.857349693775177,-0.0,0.005706153344362974,0.7743192315101624,-0.00011022705439245328,-0.3087635040283203
183.0,190.0,-0.9398,-0.0951,8.9755,-0.0386,-0.2025,-0.1251,-1.9688574276366175,-0.07885386794805527,3.3547728061676025,-1.5377957820892334,-0.00012226424587424845,2.0327508449554443,4.970791625767507,-0.22817136347293854,0.11502178758382797,-1.5826500097857874,-3.6497640394372866e-05,0.05964517220854759,0.8573534488677979,-0.0,0.0004762933240272105,0.7743596434593201,-0.00010268158803228289,-0.3033696413040161
183.0,190.0,-0.9398,-0.0951,8.9755,-0.0386,-0.2025,-0.1251,-1.9693132839598597,-0.0806255117058754,3.337912082672119,-1.5377917289733887,-1.289408373850165e-06,2.0903260707855225,4.969451117306509,-0.23135055601596832,0.10969344526529312,-1.582670036946432,-3.44047621183563e-05,0.07987687736749649,0.8573735356330872,-0.0,-0.00576965743675828,0.7743194103240967,-9.610298002371565e-05,-0.25033870339393616
183.0,190.0,-0.9398,-0.0951,8.9755,-0.0386,-0.2025,-0.1251,-1.9699322185912074,-0.07707168906927109,3.3926734924316406,-1.537731647491455,0.002985909814015031,2.0763652324676514,4.967711913376608,-0.2136157900094986,0.14210869371891022,-1.5826500097857874,-4.7932426241459325e-05,0.07583541423082352,0.8573534488677979,-0.0,0.0013267737813293934,0.7743555307388306,-8.853952749632299e-05,-0.23683683574199677
183.0,190.0,-0.9398,-0.0951,8.9755,-0.0386,-0.2025,-0.1251,-1.9704157314696253,-0.07455519586801529,3.433851957321167,-1.5376918315887451,0.005808587651699781,2.028316020965576,4.966330486326971,-0.22904062271118164,0.11402489244937897,-1.5826576391803187,-4.551701567834243e-05,0.05973368138074875,0.8573653697967529,-0.0,0.0019376331474632025,0.7743674516677856,-8.360466017620638e-05,-0.2098568081855774
183.0,190.0,-0.9398,-0.0951,8.9755,-0.0386,-0.2025,-0.1251,-1.970891614953512,-0.0730779692530632,3.419619083404541,-1.5376601219177246,0.009735815227031708,2.1066646575927734,4.965014624386587,-0.2196095883846283,0.13320797681808472,-1.582641903554098,-3.712141915457323e-05,0.048320870846509933,0.8573613166809082,-0.0,0.0018317727372050285,0.7743192315101624,-6.33528979960829e-05,-0.20470023155212402
183.0,190.0,-0.9398,-0.0951,8.9755,-0.0386,-0.2025,-0.1251,-1.9714862308897914,-0.07577694207429886,3.4323577880859375,-1.5375193357467651,0.009492126293480396,2.0703201293945312,4.963258522539892,-0.21329818665981293,0.14427892863750458,-1.582693878804342,-4.211586929159239e-05,0.05472920835018158,0.8573014140129089,-0.0,-0.009644144214689732,0.7744276523590088,3.872992601827718e-05,-0.1768033504486084
173.0,186.0,0.6389,-0.2339,9.6903,-0.0573,-0.2711,-0.1197,-1.971957346002096,-0.07985217124223709,3.431278705596924,-1.5375926494598389,0.009101024828851223,2.0923428535461426,4.961974549084463,-0.21222709119319916,0.1443660855293274,-1.5826786200152796,-6.026841947459616e-05,0.04178575426340103,0.8573775887489319,-0.0,0.008274477906525135,0.77439945936203,5.4745119996368885e-05,-0.1267770230770111
173.0,186.0,0.6389,-0.2339,9.6903,-0.0573,-0.2711,-0.1197,-1.9724403820433558,-0.07584691047668457,3.4622626304626465,-1.5374518632888794,0.0073367757722735405,2.089463949203491,4.960733386665144,-0.19700410962104797,0.1665801852941513,-1.582710091267721,-6.420596764655784e-05,0.03750942647457123,0.8573409914970398,-0.0,-0.015357015654444695,0.7743514776229858,6.881102308398113e-05,-0.17373105883598328
173.0,186.0,0.6389,-0.2339,9.6903,-0.0573,-0.2711,-0.1197,-1.9728638134398402,-0.06613709032535553,3.5242104530334473,-1.537440538406372,0.004797665867954493,2.082939863204956,4.9595205066497705,-0.20615018904209137,0.16357511281967163,-1.5826337973224085,-0.00033816180075518787,0.03496013209223747,0.8574056625366211,-0.0,0.006525563076138496,0.7743718028068542,7.578769145766273e-05,-0.16000431776046753
173.0,186.0,0.6389,-0.2339,9.6903,-0.0573,-0.2711,-0.1197,-1.973386903802389,-0.05799272656440735,3.463179111480713,-1.5374726057052612,0.0017651829402893782,2.07814621925354,4.957937198668279,-0.18866325914859772,0.16261973977088928,-1.582693878804342,-0.00030521140433847904,0.038378000259399414,0.8573334217071533,-0.0,-0.005927124060690403,0.774411678314209,0.00030990398954600096,-0.14442645013332367
173.0,186.0,0.6389,-0.2339,9.6903,-0.0573,-0.2711,-0.1197,-1.973745962182516,-0.05613142251968384,3.49196195602417,-1.537468433380127,-0.0006819880218245089,2.115595579147339,4.956803533225813,-0.18141886591911316,0.18822532892227173,-1.5826857725726526,-0.00026606523897498846,0.02889726310968399,0.8573132753372192,-0.0,0.004617500118911266,0.7743954062461853,0.00030918358243070543,-0.09847928583621979
173.0,186.0,0.6389,-0.2339,9.6903,-0.0573,-0.2711,-0.1197,-1.9741341076292933,-0.055987998843193054,3.526798725128174,-1.537480354309082,-0.001939231064170599,2.0492355823516846,4.955707075982847,-0.19219814240932465,0.17914994060993195,-1.5827181974994105,-0.00026527169393375516,0.03254115954041481,0.857329249382019,-0.0,0.007039109710603952,0.7743832468986511,0.0002638589357957244,-0.14678369462490082
173.0,186.0,0.6389,-0.2339,9.6903,-0.0573,-0.2711,-0.1197,-1.9745289287962855,-0.053992535918951035,3.4991872310638428,-1.5375127792358398,0.00010459750046720728,2.021732807159424,4.9541425732667825,-0.179161936044693,0.1731014996767044,-1.582670036946432,-0.00023079269158188254,0.029818780720233917,0.8573374152183533,-0.0,0.007309330627322197,0.7744036316871643,0.0002207162615377456,-0.12307802587747574
173.0,186.0,0.6389,-0.2339,9.6903,-0.0573,-0.2711,-0.1197,-1.9748121700682582,-0.05068881809711456,3.5323638916015625,-1.5374844074249268,0.0006178416660986841,2.10745906829834,4.953101905971327,-0.1930098980665207,0.18222257494926453,-1.5826786200152796,-0.00020793733710888773,0.02856673300266266,0.8573694825172424,-0.0,-0.0006803751457482576,0.7743914127349854,0.00019660707039292902,-0.06071024388074875
173.0,186.0,0.6389,-0.2339,9.6903,-0.0573,-0.2711,-0.1197,-1.9751039944090785,-0.044566698372364044,3.5708847045898438,-1.5374281406402588,0.0019805815536528826,2.0306339263916016,4.951920735626974,-0.19226482510566711,0.17281654477119446,-1.5826376120196741,-0.00021575731807388365,0.02897155098617077,0.8573529124259949,-0.0,-0.0004918676568195224,0.7743713855743408,0.00020664707699324936,-0.10452178120613098
173.0,186.0,0.6389,-0.2339,9.6903,-0.0573,-0.2711,-0.1197,-1.975351949731344,-0.03947760909795761,3.5056674480438232,-1.537404179573059,0.0028494454454630613,2.07157039642334,4.9507832554872415,-0.17040622234344482,0.1878366768360138,-1.5826900641070765,-0.00019835647253785282,0.03395066410303116,0.8573939204216003,-0.0,0.009995779022574425,0.7743672728538513,0.00018825018196366727,-0.1403021514415741
173.0,186.0,0.6389,-0.2339,9.6903,-0.0573,-0.2711,-0.1197,-1.9756714306273402,-0.03689038008451462,3.5954878330230713,-1.5374289751052856,0.0011799372732639313,2.0851187705993652,4.94951485374526,-0.15733765065670013,0.19959330558776855,-1.582670036946432,-0.0001531723391963169,0.020496489480137825,0.8573653697967529,-0.0,-0.00027957442216575146,0.774351179599762,0.0001918421476148069,-0.09440270066261292
173.0,186.0,0.6389,-0.2339,9.6903,-0.0573,-0.2711,-0.1197,-1.9758626423277796,-0.034982334822416306,3.5769786834716797,-1.5374046564102173,0.0009213393204845488,2.086101531982422,4.948645460396566,-0.14830619096755981,0.2073497623205185,-1.5826857725726526,-0.00016651467012707144,0.03173378109931946,0.8573694825172424,-0.0,-0.0027847394812852144,0.7743514776229858,0.00017792635480873287,-0.12212789803743362
173.0,186.0,0.6389,-0.2339,9.6903,-0.0573,-0.2711,-0.1197,-1.976086278954977,-0.03353995457291603,3.5591440200805664,-1.5374046564102173,0.0006159018375910819,2.1120619773864746,4.947827446251669,-0.12082953751087189,0.20789054036140442,-1.582698170338766,-0.0001526209816802293,0.0263298861682415,0.857337474822998,-0.0,-0.0013093301095068455,0.7743754386901855,0.00014831536100246012,-0.09082046151161194
173.0,186.0,0.6389,-0.2339,9.6903,-0.0573,-0.2711,-0.1197,-1.9763785801329554,-0.030094105750322342,3.6222281455993652,-1.5374609231948853,0.00032746364013291895,2.0976791381835938,4.947018313198843,-0.09456660598516464,0.24415558576583862,-1.582670036946432,-0.00013711844803765416,0.02825947478413582,0.8573570251464844,-0.0,-0.0018886374309659004,0.7743430137634277,0.00013103699893690646,-0.14182761311531067
186.0,216.0,1.2413,-0.2518,9.2052,-0.0472,-0.0686,-0.1173,-1.9765297375121058,-0.030612068250775337,3.670321226119995,-1.53737211227417,0.00012922102177981287,2.059349536895752,4.946407618909635,-0.10319781303405762,0.2235439419746399,-1.5826814810382288,-0.00014846034173388034,0.02400973066687584,0.8574016690254211,-0.0,-0.0006701631937175989,0.7743632793426514,0.0001205094886245206,-0.07262710481882095
186.0,216.0,1.2413,-0.2518,9.2052,-0.0472,-0.0686,-0.1173,-1.9766932926573695,-0.0291078370064497,3.6225500106811523,-1.537420630455017,0.00029923260444775224,2.075690269470215,4.945760863810339,-0.11481985449790955,0.2253073751926422,-1.5827143828021448,-0.0001388204691465944,0.017649292945861816,0.8573173880577087,-0.0,-0.00015354924835264683,0.7743393182754517,0.00011154767707921565,-0.019116941839456558
186.0,216.0,1.2413,-0.2518,9.2052,-0.0472,-0.0686,-0.1173,-1.976849218408102,-0.028015261515975,3.627091407775879,-1.5373964309692383,0.0009655405301600695,2.0304040908813477,4.945074739843168,-0.10686906427145004,0.21330250799655914,-1.5826857725726526,-0.00013021241466049105,0.022548843175172806,0.8573612570762634,-0.0,-0.004373269155621529,0.7743873596191406,0.00010382667824160308,-0.07848000526428223
186.0,216.0,1.2413,-0.2518,9.2052,-0.0472,-0.0686,-0.1173,-1.9770647488036097,-0.02361072413623333,3.6546998023986816,-1.5373725891113281,0.0014212726382538676,2.0971016883850098,4.944333317666807,-0.08461139351129532,0.22683607041835785,-1.5827143828021448,-0.00012026902550132945,0.027338605374097824,0.8573014140129089,-0.0,0.006117606535553932,0.774407684803009,0.00011330345296300948,-0.08260206878185272
186.0,216.0,1.2413,-0.2518,9.2052,-0.0472,-0.0686,-0.1173,-1.9772092304625453,-0.020563913509249687,3.6343486309051514,-1.5373809337615967,0.0012850012863054872,2.109050989151001,4.943894418865003,-0.06339088082313538,0.24786242842674255,-1.582698170338766,-0.00011375408212188631,0.01486766804009676,0.8573694229125977,-0.0,-0.002809737343341112,0.7744036316871643,0.00010726748587330803,-0.07088132947683334
186.0,216.0,1.2413,-0.2518,9.2052,-0.0472,-0.0686,-0.1173,-1.9773084125914515,-0.019352156668901443,3.612847328186035,-1.537336826324463,0.000978505122475326,2.042642116546631,4.9435553578431985,-0.04797770082950592,0.25055280327796936,-1.5826619307147425,-0.00010790873784571886,0.024509750306606293,0.857317328453064,-0.0,-0.004485472571104765,0.7744396328926086,0.00011809790885308757,-0.07772457599639893
186.0,216.0,1.2413,-0.2518,9.2052,-0.0472,-0.0686,-0.1173,-1.9774605236449183,-0.019626442342996597,3.6330065727233887,-1.5373408794403076,0.0007627738523297012,2.0824508666992188,4.943259882717886,-0.04316344112157822,0.2557465136051178,-1.582710091267721,-0.00010263471631333232,0.03718741983175278,0.857389509677887,-0.0,-0.011128232814371586,0.7743873596191406,0.00012778954987879843,-0.08298306167125702
186.0,216.0,1.2413,-0.2518,9.2052,-0.0472,-0.0686,-0.1173,-1.9776040516295375,-0.01919112168252468,3.621616840362549,-1.5373400449752808,0.0005356830079108477,2.0773377418518066,4.942928764014997,-0.0484473817050457,0.24848270416259766,-1.5826733748065394,-0.00010988575377268717,0.0245689544826746,0.8573570251464844,-0.0,-0.00014774435840081424,0.7743995189666748,0.0001673611404839903,-0.0701492577791214
186.0,216.0,1.2413,-0.2518,9.2052,-0.0472,-0.0686,-0.1173,-1.9777242145934046,-0.017351919785141945,3.661284923553467,-1.5373245477676392,0.0004004699003417045,2.0634231567382812,4.942633870034971,-0.05429976433515549,0.2405964732170105,-1.5827181974994105,-0.00010528959683142602,0.016111528500914574,0.8573095202445984,-0.0,0.0009380828123539686,0.7743592858314514,0.00017962977290153503,-0.07899460196495056
186.0,216.0,1.2413,-0.2518,9.2052,-0.0472,-0.0686,-0.1173,-1.9778195820250453,-0.014125555753707886,3.6470518112182617,-1.537336826324463,0.0014760940102860332,2.080136775970459,4.942314418941297,-0.060238778591156006,0.2434442639350891,-1.5827263037311,-0.00010086470865644515,0.02958354353904724,0.8573452830314636,-0.0,-0.009125220589339733,0.7744194269180298,0.00016557831258978695,-0.07584182173013687
186.0,216.0,1.2413,-0.2518,9.2052,-0.0472,-0.0686,-0.1173,-1.977875371972555,-0.00944502092897892,3.670714855194092,-1.5373125076293945,0.0025857966393232346,2.0818867683410645,4.941747474461355,-0.05772654712200165,0.2497764527797699,-1.582693878804342,-9.551257244311273e-05,0.02703625150024891,0.8574099540710449,-0.0,-0.001414667465724051,0.7743914127349854,0.0004289670614525676,-0.06076600030064583
186.0,216.0,1.2413,-0.2518,9.2052,-0.0472,-0.0686,-0.1173,-1.9779554806151332,-0.007860390469431877,3.683094024658203,-1.5373088121414185,0.0023461615201085806,2.051121234893799,4.941424417286672,-0.04853453487157822,0.24774764478206635,-1.5827263037311,-9.185695671476424e-05,0.03658594563603401,0.8574299812316895,-0.0,-0.010507246479392052,0.7744306325912476,0.0012565620709210634,-0.11455246806144714
