ramyac6/ROB537/final_project/csv/test/good/good_106.csv
tof_0,tof_1,accelx,accely,accelz,gyrox,gyroy,gyroz,shoulder_lift_joint_position,shoulder_lift_joint_velocity,shoulder_lift_joint_effort,elbow_joint_position,elbow_joint_velocity,elbow_joint_effort,wrist_1_joint_position,wrist_1_joint_velocity,wrist_1_joint_effort,wrist_2_joint_position,wrist_2_joint_velocity,wrist_2_joint_effort,wrist_3_joint_position,wrist_3_joint_velocity,wrist_3_joint_effort,shoulder_pan_joint_position,shoulder_pan_joint_velocity,shoulder_pan_joint_effort
212.0,239.0,6.1998,-3.0215,6.0461,-0.0392,0.0284,-0.108,-1.8431669674315394,0.0,3.212542772293091,-0.972115695476532,-0.0,2.110617160797119,3.526043100947998,-0.0,0.25899413228034973,-1.66612416902651,-0.0,0.0021896311081945896,1.2747783660888672,-0.0,-0.00934075377881527,0.6612945795059204,0.0,-0.0327419750392437
212.0,239.0,6.1998,-3.0215,6.0461,-0.0392,0.0284,-0.108,-1.8431788883604945,0.0,3.257308006286621,-0.9720907807350159,-0.0,2.0529208183288574,3.5260626512714843,-0.0,0.2621978223323822,-1.6661041418658655,-0.0,-0.006305370479822159,1.2747902870178223,-0.0,-0.006668676622211933,0.6613066792488098,0.0,-0.02792067639529705
212.0,239.0,6.1998,-3.0215,6.0461,-0.0392,0.0284,-0.108,-1.8431951008238734,0.0,3.2192130088806152,-0.9720907807350159,-0.0,2.080753803253174,3.5260469156452636,-0.0,0.2692749798297882,-1.6661317984210413,-0.0,0.002898702397942543,1.2748181819915771,-0.0,-0.002732727210968733,0.6613106727600098,0.0,0.023717716336250305
212.0,239.0,6.1998,-3.0215,6.0461,-0.0392,0.0284,-0.108,-1.843170782128805,0.0,3.2312769889831543,-0.9720990657806396,-0.0,2.0525336265563965,3.5260345178791503,-0.0,0.25522154569625854,-1.6661561171161097,-0.0,-0.004715190269052982,1.274834156036377,-0.0,0.008290990255773067,0.6612584590911865,0.0,0.007086899597197771
212.0,239.0,6.1998,-3.0215,6.0461,-0.0392,0.0284,-0.108,-1.8432070217528285,0.0,3.22963285446167,-0.9720710515975952,-0.0,2.0836081504821777,3.525998278255127,-0.0,0.2738461196422577,-1.6661761442767542,-0.0,0.004295086953788996,1.2747421264648438,-0.0,0.005441510118544102,0.6612746119499207,0.0,0.023910701274871826
211.0,238.0,6.1801,-3.0335,6.0748,-0.0293,0.0316,-0.1122,-1.8432113132872523,0.0,3.2566514015197754,-0.9720706939697266,-0.0,2.0831990242004395,3.5260140138813476,-0.0,0.26580291986465454,-1.6661561171161097,-0.0,-0.0009538661106489599,1.2748141288757324,-0.0,-0.009405681863427162,0.661262571811676,0.0,0.02238032966852188
211.0,238.0,6.1801,-3.0335,6.0748,-0.0293,0.0316,-0.1122,-1.8432113132872523,0.0,3.22682523727417,-0.9721032977104187,-0.0,2.0630908012390137,3.5259901720234375,-0.0,0.25158900022506714,-1.6661441961871546,-0.0,0.004279052838683128,1.2748583555221558,-0.0,-0.005011809058487415,0.6612985730171204,0.0,-0.0018550530076026917
211.0,238.0,6.1801,-3.0335,6.0748,-0.0293,0.0316,-0.1122,-1.8432113132872523,0.0,3.2639005184173584,-0.9720422029495239,-0.0,2.077331304550171,3.5260588365742187,-0.0,0.2659631669521332,-1.6660998503314417,-0.0,-0.0013047504471614957,1.2747055292129517,-0.0,-0.005098660010844469,0.6613228917121887,0.0,0.014564056880772114
211.0,238.0,6.1801,-3.0335,6.0748,-0.0293,0.0316,-0.1122,-1.8431951008238734,0.0,3.229846477508545,-0.9720380902290344,-0.0,2.072298049926758,3.5260788637348632,-0.0,0.2670121192932129,-1.6661198774920862,-0.0,0.004031691234558821,1.2748781442642212,-0.0,-0.005248736590147018,0.6612625122070312,0.0,0.0031403626780956984
211.0,238.0,6.1801,-3.0335,6.0748,-0.0293,0.0316,-0.1122,-1.8431831798949183,0.0,3.1923696994781494,-0.9720867276191711,-0.0,2.074333667755127,3.5260469156452636,-0.0,0.2676525115966797,-1.66612416902651,-0.0,-0.005664808675646782,1.2748141288757324,-0.0,-0.01066107489168644,0.6612985730171204,0.0,-0.011491648852825165
211.0,238.0,6.1801,-3.0335,6.0748,-0.0293,0.0316,-0.1122,-1.8431951008238734,0.0,3.2577102184295654,-0.972046434879303,-0.0,2.051089286804199,3.526038809413574,-0.0,0.26428771018981934,-1.6661198774920862,-0.0,-0.0034607453271746635,1.274794340133667,-0.0,-0.0068438127636909485,0.6613187193870544,0.0,-0.010680457577109337
211.0,238.0,6.1801,-3.0335,6.0748,-0.0293,0.0316,-0.1122,-1.843186994592184,0.0,3.284452438354492,-0.9720340371131897,-0.0,2.093367338180542,3.5260588365742187,-0.0,0.25909504294395447,-1.6660798231707972,-0.0,0.0033267675898969173,1.2748141288757324,-0.0,-0.012116678059101105,0.6612826585769653,0.0,0.021346673369407654
211.0,238.0,6.1801,-3.0335,6.0748,-0.0293,0.0316,-0.1122,-1.8431874714293421,0.0,3.212188482284546,-0.9720908999443054,-0.0,2.0955774784088135,3.526022120113037,-0.0,0.27400273084640503,-1.6661680380450647,-0.0,-0.006990284658968449,1.2748301029205322,-0.0,0.00018206355161964893,0.6612985730171204,0.0,-0.04797778278589249
207.0,243.0,6.2046,-3.0156,6.0724,-0.04,0.026,-0.1098,-1.8432113132872523,0.0,3.217711925506592,-0.9720867276191711,-0.0,2.0871083736419678,3.5260626512714843,-0.0,0.26115596294403076,-1.6661680380450647,-0.0,0.0036316360346972942,1.274794340133667,-0.0,-0.009358136914670467,0.6612584590911865,0.0,0.01338973268866539
207.0,243.0,6.2046,-3.0156,6.0724,-0.04,0.026,-0.1098,-1.8431831798949183,0.0,3.293213367462158,-0.9720670580863953,-0.0,2.0892601013183594,3.5260345178791503,-0.0,0.267312228679657,-1.6661561171161097,-0.0,0.00800511334091425,1.274846076965332,-0.0,6.631552241742611e-05,0.6613065600395203,0.0,0.03056357242166996
207.0,243.0,6.2046,-3.0156,6.0724,-0.04,0.026,-0.1098,-1.843186994592184,0.0,3.2774410247802734,-0.9720101952552795,-0.0,2.038673162460327,3.526014490718506,-0.0,0.25992798805236816,-1.6661437193499964,-0.0,0.004923723638057709,1.274842381477356,-0.0,-0.012261328287422657,0.6613548398017883,0.0,0.02688456140458584
207.0,243.0,6.2046,-3.0156,6.0724,-0.04,0.026,-0.1098,-1.8431831798949183,0.0,3.263298273086548,-0.9720907807350159,-0.0,2.079068899154663,3.525970144862793,-0.0,0.2689344882965088,-1.6661604086505335,-0.0,0.01036720722913742,1.274834156036377,-0.0,-0.023308247327804565,0.6612867116928101,0.0,0.00023327034432440996
207.0,243.0,6.2046,-3.0156,6.0724,-0.04,0.026,-0.1098,-1.8432027302184046,0.0,3.2533769607543945,-0.9721032977104187,-0.0,2.060044765472412,3.5260464388081054,-0.0,0.2615627646446228,-1.6661279837237757,-0.0,-0.003681911388412118,1.274842381477356,-0.0,-0.008718820288777351,0.661322832107544,0.0,-0.055676382035017014
207.0,243.0,6.2046,-3.0156,6.0724,-0.04,0.026,-0.1098,-1.8431512318053187,0.0,3.2316455841064453,-0.9720789790153503,-0.0,2.1045644283294678,3.5260631281086425,-0.0,0.27260497212409973,-1.6661561171161097,-0.0,0.005626826547086239,1.274854302406311,-0.0,-0.01475223246961832,0.6613429188728333,0.0,0.011186628602445126
207.0,243.0,6.2046,-3.0156,6.0724,-0.04,0.026,-0.1098,-1.8431831798949183,0.0,3.2737205028533936,-0.9720506072044373,-0.0,2.095033884048462,3.5260469156452636,-0.0,0.26056501269340515,-1.666140381489889,-0.0,0.009274979121983051,1.2747862339019775,-0.0,0.004604797810316086,0.6612746119499207,0.0,0.002938247285783291
207.0,243.0,6.2046,-3.0156,6.0724,-0.04,0.026,-0.1098,-1.8431669674315394,0.0,3.2380683422088623,-0.9720908999443054,-0.0,2.1128077507019043,3.526055021876953,-0.0,0.27420058846473694,-1.6661723295794886,-0.0,0.004682187922298908,1.2747701406478882,-0.0,-0.005372890271246433,0.6613228917121887,0.0,-0.026818156242370605
209.0,234.0,6.2447,-3.0682,6.1208,-0.0351,0.0287,-0.1118,-1.8431993923582972,0.0,3.262535333633423,-0.9721147418022156,-0.0,2.0884978771209717,3.5260507303425292,-0.0,0.25973403453826904,-1.666044060383932,-0.0,0.006060780957341194,1.2748022079467773,-0.0,-0.014928990043699741,0.6612786650657654,0.0,0.03446303680539131
209.0,234.0,6.2447,-3.0682,6.1208,-0.0351,0.0287,-0.1118,-1.84318270305776,0.0,3.2409987449645996,-0.9720907807350159,-0.0,2.0894827842712402,3.526054545039795,-0.0,0.2716922461986542,-1.6661160627948206,-0.0,-0.005429333541542292,1.2747457027435303,-0.0,-0.0007458962500095367,0.6613428592681885,0.0,-0.022870589047670364
209.0,234.0,6.2447,-3.0682,6.1208,-0.0351,0.0287,-0.1118,-1.843215127984518,0.0,3.275639057159424,-0.9721064567565918,-0.0,2.097560405731201,3.5260020929523925,-0.0,0.26413363218307495,-1.6661160627948206,-0.0,0.006939327344298363,1.2748100757598877,-0.0,-0.012346181087195873,0.6613025069236755,0.0,0.03897054120898247
209.0,234.0,6.2447,-3.0682,6.1208,-0.0351,0.0287,-0.1118,-1.8431908092894496,0.0,3.2143828868865967,-0.9720624089241028,-0.0,2.0432674884796143,3.5260140138813476,-0.0,0.2713891565799713,-1.666067902241842,-0.0,0.004132363013923168,1.274834156036377,-0.0,-0.008852132596075535,0.661306619644165,0.0,0.04043912515044212
209.0,234.0,6.2447,-3.0682,6.1208,-0.0351,0.0287,-0.1118,-1.8432113132872523,0.0,3.2529778480529785,-0.972131073474884,-0.0,2.0938920974731445,3.5259782510944824,-0.0,0.25905105471611023,-1.6661723295794886,-0.0,0.019645225256681442,1.2748262882232666,-0.0,-0.009595414623618126,0.6613308787345886,0.0,0.025332069024443626
209.0,234.0,6.2447,-3.0682,6.1208,-0.0351,0.0287,-0.1118,-1.8432113132872523,0.0,3.187485933303833,-0.9720867276191711,-0.0,2.065828800201416,3.526026411647461,-0.0,0.26260411739349365,-1.6661561171161097,-0.0,0.01197834499180317,1.2748024463653564,-0.0,-0.000786228571087122,0.6612905263900757,0.0,0.020499015226960182
209.0,234.0,6.2447,-3.0682,6.1208,-0.0351,0.0287,-0.1118,-1.8432475529112757,0.0,3.2664077281951904,-0.9721352458000183,-0.0,2.0612306594848633,3.5260307031818847,-0.0,0.2549116313457489,-1.6661198774920862,-0.0,0.004641793202608824,1.2747939825057983,-0.0,-0.011078628711402416,0.6613346934318542,0.0,0.025190219283103943
209.0,234.0,6.2447,-3.0682,6.1208,-0.0351,0.0287,-0.1118,-1.8431831798949183,0.0,3.27353572845459,-0.972062885761261,-0.0,2.0501174926757812,3.5260020929523925,-0.0,0.259340763092041,-1.6661360899554651,-0.0,0.002924910979345441,1.2747375965118408,-0.0,-0.013670270331203938,0.6613026261329651,0.0,0.016906917095184326
209.0,246.0,6.2518,-3.0359,6.0808,-0.0414,0.0267,-0.1121,-1.8431993923582972,0.0,3.23445725440979,-0.9720464944839478,-0.0,2.0997719764709473,3.5260183054157714,-0.0,0.25822317600250244,-1.666152302418844,-0.0,-0.004362535197287798,1.274854302406311,-0.0,-0.001806452521122992,0.6613509654998779,0.0,0.031922534108161926
209.0,246.0,6.2518,-3.0359,6.0808,-0.0414,0.0267,-0.1121,-1.843170782128805,0.0,3.2433128356933594,-0.9720949530601501,-0.0,2.098938465118408,3.5260063844868164,-0.0,0.2577889561653137,-1.6661117712603968,-0.0,0.003276477800682187,1.2747702598571777,-0.0,-0.014304653741419315,0.6613187193870544,0.0,-0.01494114100933075
209.0,246.0,6.2518,-3.0359,6.0808,-0.0414,0.0267,-0.1121,-1.843215127984518,0.0,3.2117533683776855,-0.9720340371131897,-0.0,2.096815347671509,3.5260063844868164,-0.0,0.2767925262451172,-1.6661317984210413,-0.0,0.0008403297979384661,1.2748463153839111,-0.0,-0.005536449607461691,0.661306619644165,0.0,0.04911407083272934
209.0,246.0,6.2518,-3.0359,6.0808,-0.0414,0.0267,-0.1121,-1.8431750736632289,0.0,3.251965045928955,-0.9720949530601501,-0.0,2.115553140640259,3.526038809413574,-0.0,0.27174174785614014,-1.666084114705221,-0.0,0.011174261569976807,1.2747215032577515,-0.0,-0.016594909131526947,0.6613349914550781,0.0,0.021717697381973267
209.0,246.0,6.2518,-3.0359,6.0808,-0.0414,0.0267,-0.1121,-1.8431951008238734,0.0,3.234537124633789,-0.9720949530601501,-0.0,2.1010115146636963,3.526070757503174,-0.0,0.2650738060474396,-1.6661484877215784,-0.0,-0.004886224400252104,1.2748181819915771,-0.0,-0.004848509561270475,0.6612905263900757,0.0,0.022849299013614655
209.0,246.0,6.2518,-3.0359,6.0808,-0.0414,0.0267,-0.1121,-1.8431993923582972,0.0,3.2562437057495117,-0.9720950126647949,-0.0,2.062647819519043,3.525998278255127,-0.0,0.2590605914592743,-1.6661480108844202,-0.0,0.011291476897895336,1.2748624086380005,-0.0,-0.008084461092948914,0.6613829135894775,0.0,0.04747288301587105
209.0,246.0,6.2518,-3.0359,6.0808,-0.0414,0.0267,-0.1121,-1.8431993923582972,0.0,3.2350997924804688,-0.9720547199249268,-0.0,2.130195379257202,3.5260307031818847,-0.0,0.2602309584617615,-1.66612416902651,-0.0,0.003674713894724846,1.2748695611953735,-0.0,0.004096989519894123,0.6612985730171204,0.0,0.045370668172836304
209.0,246.0,6.2518,-3.0359,6.0808,-0.0414,0.0267,-0.1121,-1.8431788883604945,0.0,3.221827268600464,-0.9720543026924133,-0.0,2.0583815574645996,3.5260345178791503,-0.0,0.25922176241874695,-1.6661117712603968,-0.0,-0.004470277111977339,1.2747783660888672,-0.0,-0.013859756290912628,0.6612905263900757,0.0,0.01941799558699131
209.0,246.0,6.2518,-3.0359,6.0808,-0.0414,0.0267,-0.1121,-1.8432070217528285,0.0,3.2361083030700684,-0.9721032381057739,-0.0,2.082725763320923,3.526083155269287,-0.0,0.26426780223846436,-1.666140381489889,-0.0,-0.00036669865949079394,1.2748382091522217,-0.0,-0.008962656371295452,0.6612746119499207,0.0,-0.015195120126008987
212.0,234.0,6.3254,-3.0592,6.1071,-0.0374,0.0203,-0.1086,-1.843215127984518,0.0,3.2744297981262207,-0.9720666408538818,-0.0,2.0665197372436523,3.5260307031818847,-0.0,0.2661871910095215,-1.6661041418658655,-0.0,0.0221102274954319,1.274834156036377,-0.0,-0.004455142188817263,0.6613146662712097,0.0,-0.013622250407934189
212.0,234.0,6.3254,-3.0592,6.1071,-0.0374,0.0203,-0.1086,-1.8431788883604945,0.0,3.2438268661499023,-0.9720706939697266,-0.0,2.035261392593384,3.526026411647461,-0.0,0.26734834909439087,-1.6661160627948206,-0.0,-0.012791058048605919,1.2748022079467773,-0.0,-0.012397132813930511,0.6612786650657654,0.0,0.016268853098154068
212.0,234.0,6.3254,-3.0592,6.1071,-0.0374,0.0203,-0.1086,-1.8431908092894496,0.0,3.242609739303589,-0.9720587730407715,-0.0,2.0398387908935547,3.5260063844868164,-0.0,0.2549894452095032,-1.66612416902651,-0.0,1.879129558801651e-05,1.2748185396194458,-0.0,-0.009211214259266853,0.661306619644165,0.0,-0.0653015524148941
212.0,234.0,6.3254,-3.0592,6.1071,-0.0374,0.0203,-0.1086,-1.8431993923582972,0.0,3.2600507736206055,-0.9720784425735474,-0.0,2.0804336071014404,3.526082678432129,-0.0,0.25825607776641846,-1.6661079565631312,-0.0,0.005444634705781937,1.2748301029205322,-0.0,-0.010446942411363125,0.6612786650657654,0.0,0.03179940581321716
212.0,234.0,6.3254,-3.0592,6.1071,-0.0374,0.0203,-0.1086,-1.8431951008238734,0.0,3.2752087116241455,-0.9720423221588135,-0.0,2.0721287727355957,3.5260225969501953,-0.0,0.2783541977405548,-1.6661198774920862,-0.0,-0.0036855321377515793,1.274834156036377,-0.0,-0.007686748169362545,0.6612945795059204,0.0,0.03359786793589592
212.0,234.0,6.3254,-3.0592,6.1071,-0.0374,0.0203,-0.1086,-1.8431908092894496,0.0,3.223409652709961,-0.9720747470855713,-0.0,2.041163921356201,3.5260507303425292,-0.0,0.26793885231018066,-1.6661561171161097,-0.0,-6.724102422595024e-05,1.2747780084609985,-0.0,-0.008170858956873417,0.661306619644165,0.0,0.0011055006179958582
212.0,234.0,6.3254,-3.0592,6.1071,-0.0374,0.0203,-0.1086,-1.8431993923582972,0.0,3.2249503135681152,-0.9721073508262634,-0.0,2.0801684856414795,3.5260307031818847,-0.0,0.2688342332839966,-1.6661971251117151,-0.0,-0.0023722380865365267,1.2748022079467773,-0.0,-0.006467561237514019,0.6613268852233887,0.0,-0.01910945028066635
212.0,234.0,6.3254,-3.0592,6.1071,-0.0374,0.0203,-0.1086,-1.8432070217528285,0.0,3.218620777130127,-0.9720666408538818,-0.0,2.073174238204956,3.526026411647461,-0.0,0.2703753709793091,-1.6661360899554651,-0.0,-0.0038665204774588346,1.2748022079467773,-0.0,-0.007031219080090523,0.6612824201583862,0.0,0.013539009727537632
209.0,237.0,6.2363,-3.0718,6.0,-0.0504,0.024,-0.1139,-1.8431788883604945,0.0,3.2349929809570312,-0.9721229076385498,-0.0,2.0867605209350586,3.5260307031818847,-0.0,0.26203328371047974,-1.6661160627948206,-0.0,-0.002734416164457798,1.274806261062622,-0.0,-0.0029236271511763334,0.661322832107544,0.0,-0.02923901565372944
209.0,237.0,6.2363,-3.0718,6.0,-0.0504,0.024,-0.1139,-1.843186994592184,0.0,3.237748622894287,-0.9720867276191711,-0.0,2.114525318145752,3.526070757503174,-0.0,0.26211535930633545,-1.6661680380450647,-0.0,0.0030595576390624046,1.2748547792434692,-0.0,0.003522409126162529,0.6612746119499207,0.0,-0.04117146506905556
209.0,237.0,6.2363,-3.0718,6.0,-0.0504,0.024,-0.1139,-1.8431431255736292,0.0,3.2747716903686523,-0.9720102548599243,-0.0,2.0879831314086914,3.5259901720234375,-0.0,0.27032145857810974,-1.6661317984210413,-0.0,-0.0021828534081578255,1.2747981548309326,-0.0,-0.0027884081937372684,0.661306619644165,0.0,-0.019869253039360046
209.0,237.0,6.2363,-3.0718,6.0,-0.0504,0.024,-0.1139,-1.8431750736632289,0.0,3.2377796173095703,-0.9720463752746582,-0.0,2.0828256607055664,3.526014490718506,-0.0,0.25958284735679626,-1.66612416902651,-0.0,-0.007322610821574926,1.274794340133667,-0.0,-0.017629176378250122,0.6612945795059204,0.0,-0.02355898916721344
209.0,237.0,6.2363,-3.0718,6.0,-0.0504,0.024,-0.1139,-1.8431788883604945,0.0,3.2647042274475098,-0.9720949530601501,-0.0,2.058835983276367,3.526014490718506,-0.0,0.2734995186328888,-1.6661999861346644,-0.0,0.001243341132067144,1.274834156036377,-0.0,-0.00530358636751771,0.6613025069236755,0.0,0.021496832370758057
209.0,237.0,6.2363,-3.0718,6.0,-0.0504,0.024,-0.1139,-1.8432232342162074,0.0,3.273085117340088,-0.9720506072044373,-0.0,2.0866446495056152,3.5260183054157714,-0.0,0.26512861251831055,-1.6660922209369105,-0.0,-0.0006568594835698605,1.2747783660888672,-0.0,-0.00027114374097436666,0.661306619644165,0.0,-0.04232451319694519
209.0,237.0,6.2363,-3.0718,6.0,-0.0504,0.024,-0.1139,-1.8432032070555628,0.0,3.2602486610412598,-0.9721115231513977,-0.0,2.0993776321411133,3.5260469156452636,-0.0,0.2585810422897339,-1.6661322752581995,-0.0,-0.003397170454263687,1.2748181819915771,-0.0,-0.008350260555744171,0.6612666249275208,0.0,0.013008739799261093
209.0,237.0,6.2363,-3.0718,6.0,-0.0504,0.024,-0.1139,-1.8432074985899867,0.0,3.242222785949707,-0.9720020294189453,-0.0,2.0472867488861084,3.526026411647461,-0.0,0.27570176124572754,-1.666112248097555,-0.0,-0.0052012051455676556,1.2748100757598877,-0.0,-0.008719087578356266,0.6613428592681885,0.0,0.03427373617887497
209.0,238.0,6.2626,-3.0359,6.0305,-0.0394,0.0214,-0.1116,-1.8431788883604945,0.0,3.2261786460876465,-0.9721032381057739,-0.0,2.0771372318267822,3.5260631281086425,-0.0,0.2657582759857178,-1.6660879294024866,-0.0,-0.005474247969686985,1.2748501300811768,-0.0,0.0020000762306153774,0.6612864136695862,0.0,0.029464658349752426
209.0,238.0,6.2626,-3.0359,6.0305,-0.0394,0.0214,-0.1116,-1.8431908092894496,0.0,3.259610176086426,-0.9720624685287476,-0.0,2.075531005859375,3.5260063844868164,-0.0,0.26575610041618347,-1.6661480108844202,-0.0,0.004091382492333651,1.2747981548309326,-0.0,-0.009056681767106056,0.6612905263900757,0.0,-0.026706915348768234
209.0,238.0,6.2626,-3.0359,6.0305,-0.0394,0.0214,-0.1116,-1.8431631527342738,0.0,3.246234178543091,-0.9720665812492371,-0.0,2.09885311126709,3.526022120113037,-0.0,0.2646583914756775,-1.6661971251117151,-0.0,0.007621958386152983,1.2747702598571777,-0.0,-0.019411198794841766,0.6612905263900757,0.0,0.014546334743499756
209.0,238.0,6.2626,-3.0359,6.0305,-0.0394,0.0214,-0.1116,-1.8431831798949183,0.0,3.2628250122070312,-0.9720624685287476,-0.0,2.0705182552337646,3.5260469156452636,-0.0,0.2532876133918762,-1.666152302418844,-0.0,0.003813178511336446,1.2748181819915771,-0.0,-0.011867968365550041,0.6613106727600098,0.0,-0.0015728161670267582
209.0,238.0,6.2626,-3.0359,6.0305,-0.0394,0.0214,-0.1116,-1.8431788883604945,0.0,3.275333881378174,-0.9720463752746582,-0.0,2.0771729946136475,3.5260631281086425,-0.0,0.2704378366470337,-1.6661079565631312,-0.0,-0.012939725071191788,1.2748141288757324,-0.0,0.005202577915042639,0.6613269448280334,0.0,0.03565247356891632
209.0,238.0,6.2626,-3.0359,6.0305,-0.0394,0.0214,-0.1116,-1.8431750736632289,0.0,3.222837209701538,-0.9720991849899292,-0.0,2.0872836112976074,3.5259944635578613,-0.0,0.27070340514183044,-1.6661604086505335,-0.0,-0.01144538726657629,1.2748541831970215,-0.0,-0.004997854121029377,0.661242663860321,0.0,0.02448430471122265
209.0,238.0,6.2626,-3.0359,6.0305,-0.0394,0.0214,-0.1116,-1.8432475529112757,0.0,3.2247347831726074,-0.9721188545227051,-0.0,2.052997589111328,3.5260750490375976,-0.0,0.2708350718021393,-1.6661284605609339,-0.0,0.0019561753142625093,1.2747862339019775,-0.0,-0.009492484852671623,0.6612867116928101,0.0,-0.00799204595386982
209.0,238.0,6.2626,-3.0359,6.0305,-0.0394,0.0214,-0.1116,-1.8431469402708949,0.0,3.2149415016174316,-0.9720629453659058,-0.0,2.111107349395752,3.5260307031818847,-0.0,0.25812673568725586,-1.6661198774920862,-0.0,-0.005952248349785805,1.2748181819915771,-0.0,-0.0036525074392557144,0.6613309383392334,0.0,0.014620422385632992
207.0,225.0,6.3218,-3.0353,6.1884,-0.0385,0.024,-0.1144,-1.8431951008238734,0.0,3.2268238067626953,-0.9720706939697266,-0.0,2.053363084793091,3.526055021876953,-0.0,0.2719270586967468,-1.666152302418844,-0.0,-0.006153518799692392,1.2748655080795288,-0.0,-0.013157008215785027,0.6613106727600098,0.0,0.02167498879134655
207.0,225.0,6.3218,-3.0353,6.1884,-0.0385,0.024,-0.1144,-1.8432275257506312,0.0,3.2332048416137695,-0.9721147418022156,-0.0,2.077882766723633,3.5260345178791503,-0.0,0.26085489988327026,-1.6661723295794886,-0.0,-0.006258000154048204,1.2748382091522217,-0.0,-0.011956068687140942,0.6613228917121887,0.0,0.00665141548961401
207.0,225.0,6.3218,-3.0353,6.1884,-0.0385,0.024,-0.1144,-1.8431788883604945,0.0,3.200845956802368,-0.9720991849899292,-0.0,2.1049447059631348,3.5260588365742187,-0.0,0.25498127937316895,-1.6661079565631312,-0.0,0.007101585157215595,1.2748380899429321,-0.0,-0.010805994272232056,0.6612786650657654,0.0,-0.022719107568264008
207.0,225.0,6.3218,-3.0353,6.1884,-0.0385,0.024,-0.1144,-1.8432756863036097,0.0,3.220191717147827,-0.9720225930213928,-0.0,2.123685121536255,3.526038809413574,-0.0,0.2756044864654541,-1.6661604086505335,-0.0,0.005193786229938269,1.2748420238494873,-0.0,0.015959100797772408,0.661250650882721,0.0,-0.025637371465563774
207.0,225.0,6.3218,-3.0353,6.1884,-0.0385,0.024,-0.1144,-1.843175550500387,0.0,3.2751262187957764,-0.9720506072044373,-0.0,2.0617029666900635,3.5260750490375976,-0.0,0.2535840570926666,-1.66612416902651,-0.0,-0.00047539989463984966,1.2748262882232666,-0.0,-0.011591387912631035,0.6612905263900757,0.0,-1.5771947801113129e-06
207.0,225.0,6.3218,-3.0353,6.1884,-0.0385,0.024,-0.1144,-1.8432113132872523,0.0,3.204620838165283,-0.9720950126647949,-0.0,2.1005189418792725,3.526022120113037,-0.0,0.27283966541290283,-1.666096035634176,-0.0,-0.00119100755546242,1.2748022079467773,-0.0,-0.017514370381832123,0.6613346934318542,0.0,-0.011592254042625427
207.0,225.0,6.3218,-3.0353,6.1884,-0.0385,0.024,-0.1144,-1.8431831798949183,0.0,3.1923632621765137,-0.9720907807350159,-0.0,2.0492093563079834,3.526038809413574,-0.0,0.2485700100660324,-1.6661604086505335,-0.0,0.01658060774207115,1.2747702598571777,-0.0,-0.005423930939286947,0.661306619644165,0.0,-0.05163354426622391
207.0,225.0,6.3218,-3.0353,6.1884,-0.0385,0.024,-0.1144,-1.8432074985899867,0.0,3.2162697315216064,-0.9720907807350159,-0.0,2.097327947616577,3.526070757503174,-0.0,0.2589177191257477,-1.6661279837237757,-0.0,0.003420906839892268,1.2748501300811768,-0.0,0.0016633945051580667,0.6613388061523438,0.0,0.01367484126240015
207.0,225.0,6.3218,-3.0353,6.1884,-0.0385,0.024,-0.1144,-1.8431831798949183,0.0,3.228121757507324,-0.9720463752746582,-0.0,2.057220458984375,3.5259944635578613,-0.0,0.27089372277259827,-1.6661885420428675,-0.0,0.0072877854108810425,1.2748103141784668,-0.0,-0.0026834432501345873,0.661306619644165,0.0,0.03242246061563492
209.0,232.0,6.009,-2.7739,6.2189,-0.0154,0.0263,-0.1159,-1.843170782128805,4.828465449691066e-08,3.2207841873168945,-0.9720340371131897,2.505733034258162e-12,2.098480463027954,3.5260464388081054,-0.0,0.2689598798751831,-1.6661198774920862,-0.0,-0.0011737023014575243,1.2748103141784668,-0.0,-0.005253960378468037,0.6612585186958313,0.0,-0.02410305291414261
209.0,232.0,6.009,-2.7739,6.2189,-0.0154,0.0263,-0.1159,-1.8431912861266078,1.1660176947245193e-13,3.2631635665893555,-0.9720789194107056,6.051050346771399e-18,2.0732574462890625,3.5260631281086425,-0.0,0.2668911814689636,-1.6660922209369105,-0.0,-0.0005343041848391294,1.2747783660888672,-0.0,-0.015964804217219353,0.6612746715545654,0.0,-0.011944061145186424
209.0,232.0,6.009,-2.7739,6.2189,-0.0154,0.0263,-0.1159,-1.8431874714293421,0.0005064455908723176,3.2681846618652344,-0.9720226526260376,1.9604633165894172e-25,2.0694704055786133,3.5260063844868164,-0.0,0.25322628021240234,-1.6661279837237757,-0.0,0.00016854540444910526,1.274806261062622,-0.0,-0.008239020593464375,0.6613589525222778,0.0,-0.015885546803474426
209.0,232.0,6.009,-2.7739,6.2189,-0.0154,0.0263,-0.1159,-1.8432113132872523,0.0005736351013183594,3.2454071044921875,-0.9720587730407715,4.734288921806813e-31,2.0631141662597656,3.52604262411084,-0.0,0.27609747648239136,-1.6661198774920862,-0.0,-0.003171740099787712,1.2748266458511353,-0.0,-0.002742237411439419,0.6613548398017883,0.0,-0.03794749826192856
209.0,232.0,6.009,-2.7739,6.2189,-0.0154,0.0263,-0.1159,-1.8431674442686976,0.0004258773406036198,3.2495288848876953,-0.9720422029495239,1.533849388012998e-38,2.116617202758789,3.5260307031818847,-0.0,0.2629140019416809,-1.666152302418844,-0.0,-0.005503922700881958,1.2748103141784668,-0.0,-0.0035077189095318317,0.6613388061523438,0.0,0.028090227395296097
209.0,232.0,6.009,-2.7739,6.2189,-0.0154,0.0263,-0.1159,-1.8431068859496058,0.00035406037932261825,3.230475425720215,-0.9720669984817505,3.6433760072445244e-44,2.055333137512207,3.5260140138813476,-0.0,0.25284504890441895,-1.66612416902651,-0.0,0.007952324114739895,1.2747902870178223,-0.0,-0.008126596920192242,0.661338746547699,0.0,0.037640657275915146
209.0,232.0,6.009,-2.7739,6.2189,-0.0154,0.0263,-0.1159,-1.8431512318053187,0.0003029738727491349,3.203408718109131,-0.9720422029495239,-0.0,2.0931553840637207,3.525986357326172,-0.0,0.2688380777835846,-1.6661360899554651,-0.0,0.011045077815651894,1.2748422622680664,-0.0,-0.010947619564831257,0.6613228917121887,0.0,-0.02000061422586441
209.0,232.0,6.009,-2.7739,6.2189,-0.0154,0.0263,-0.1159,-1.8431874714293421,0.000254092417890206,3.241881847381592,-0.9720298647880554,-0.0,2.0820140838623047,3.5260512071796875,-0.0,0.2666490077972412,-1.6661079565631312,-0.0,0.003748296294361353,1.2748582363128662,-0.0,-0.019239936023950577,0.6613509058952332,0.0,-0.016921572387218475
216.0,239.0,5.6973,-3.7149,6.2435,-0.0341,0.055,-0.1017,-1.8431831798949183,0.00022666524455416948,3.2548084259033203,-0.9720907807350159,1.840919708229194e-06,2.094834804534912,3.5260020929523925,-0.0,0.26373887062072754,-1.6661160627948206,-0.0,0.006240115035325289,1.2748181819915771,-0.0,0.005694262683391571,0.6613025069236755,0.0,0.04792492464184761
216.0,239.0,5.6973,-3.7149,6.2435,-0.0341,0.055,-0.1017,-1.8431631527342738,0.00019814827828668058,3.2396388053894043,-0.9720748066902161,5.3106552513781935e-05,2.093489170074463,3.5260788637348632,-0.0,0.2662205994129181,-1.6661437193499964,-0.0,0.006724098697304726,1.2748422622680664,-0.0,-0.009784381836652756,0.6612905263900757,0.0,0.021584488451480865
216.0,239.0,5.6973,-3.7149,6.2435,-0.0341,0.055,-0.1017,-1.8431831798949183,0.00018106329662259668,3.2354133129119873,-0.9720706939697266,4.878819527220912e-05,2.1224687099456787,3.5260183054157714,-0.0,0.2681426405906677,-1.6661317984210413,-0.0,0.003013506531715393,1.274806261062622,-0.0,-0.0036475909873843193,0.6613388061523438,0.0,0.028385130688548088
216.0,239.0,5.6973,-3.7149,6.2435,-0.0341,0.055,-0.1017,-1.8431631527342738,0.00016239404794760048,3.2437732219696045,-0.9720624685287476,4.3980617192573845e-05,2.0559911727905273,3.5260345178791503,-0.0,0.2528732717037201,-1.66612416902651,-0.0,0.011627444066107273,1.2747700214385986,-0.0,-0.013762346468865871,0.661306619644165,0.0,0.05060253292322159
216.0,239.0,5.6973,-3.7149,6.2435,-0.0341,0.055,-0.1017,-1.8431469402708949,0.000150737541844137,3.2272439002990723,-0.9720866680145264,6.150773697299883e-05,2.0297765731811523,3.5260750490375976,-0.0,0.26208069920539856,-1.6661165396319788,-0.0,-0.0009584027575328946,1.2747743129730225,-0.0,0.0007451638812199235,0.6612746119499207,0.0,-0.005971516948193312
216.0,239.0,5.6973,-3.7149,6.2435,-0.0341,0.055,-0.1017,-1.843175550500387,0.00013757111446466297,3.2638769149780273,-0.9720545411109924,5.637437425320968e-05,2.0699949264526367,3.526055021876953,-0.0,0.25578802824020386,-1.6661198774920862,-0.0,-0.0010233044158667326,1.274794101715088,-0.0,-0.010121166706085205,0.6613147854804993,0.0,0.006675722077488899
216.0,239.0,5.6973,-3.7149,6.2435,-0.0341,0.055,-0.1017,-1.8431874714293421,0.00012911285739392042,3.257739543914795,-0.9720504283905029,5.305137165123597e-05,2.051788806915283,3.526022120113037,-0.0,0.2569817900657654,-1.6661360899554651,-0.0,0.013840077444911003,1.2748662233352661,-0.0,-0.005708460696041584,0.6613507866859436,0.0,-0.03028041496872902
216.0,239.0,5.6973,-3.7149,6.2435,-0.0341,0.055,-0.1017,-1.843114515344137,0.00011933074711123481,3.20756196975708,-0.9720670580863953,-2.592122291389387e-05,2.0681285858154297,3.5260183054157714,-0.0,0.27607595920562744,-1.6661399046527308,-0.0,-0.0048361886292696,1.2748501300811768,-0.0,-0.010354536585509777,0.6613507866859436,0.0,-0.03214859962463379
207.0,240.0,6.0903,-3.3009,6.0634,-0.0597,0.0657,-0.1051,-1.843163629571432,0.00011291448754491284,3.236496686935425,-0.9721106290817261,-3.208745692973025e-05,2.0592989921569824,3.5260063844868164,-0.0,0.27196618914604187,-1.6661604086505335,-0.0,0.010081985034048557,1.2748143672943115,-0.0,-0.007908507250249386,0.661338746547699,0.0,0.00011972803622484207
207.0,240.0,6.0903,-3.3009,6.0634,-0.0597,0.0657,-0.1051,-1.8431993923582972,0.00010715310781961307,3.230384349822998,-0.9719823002815247,-2.8987054975004867e-05,2.032891273498535,3.5260507303425292,-0.0,0.2595416009426117,-1.6661642233477991,-0.0,-0.002495353575795889,1.2748382091522217,-0.0,-0.0018769484013319016,0.6613067388534546,0.0,0.06583236902952194
207.0,240.0,6.0903,-3.3009,6.0634,-0.0597,0.0657,-0.1051,-1.8431512318053187,0.00010032745922217146,3.2320950031280518,-0.9721114635467529,-2.567877891124226e-05,2.05789852142334,3.5260307031818847,-0.0,0.2505772113800049,-1.666152302418844,-0.0,0.008646726608276367,1.2748022079467773,-0.0,-0.009815017692744732,0.6613507866859436,0.0,-0.003104112111032009
207.0,240.0,6.0903,-3.3009,6.0634,-0.0597,0.0657,-0.1051,-1.8432113132872523,9.575303556630388e-05,3.2069106101989746,-0.9720743298530579,-2.365405271120835e-05,2.0464041233062744,3.5260626512714843,-0.0,0.25168031454086304,-1.6661284605609339,-0.0,-4.398403689265251e-06,1.2748103141784668,-0.0,0.007007408421486616,0.6613147854804993,0.0,-0.002675360767170787
207.0,240.0,6.0903,-3.3009,6.0634,-0.0597,0.0657,-0.1051,-1.8432194195189417,9.026531188283116e-05,3.2349743843078613,-0.9720707535743713,-2.1403940991149284e-05,2.0613174438476562,3.526043100947998,-0.0,0.26601642370224,-1.6661360899554651,-0.0,0.0046486626379191875,1.2747983932495117,-0.0,-0.007493250072002411,0.6613268852233887,7.526198169216514e-05,0.022308597341179848
207.0,240.0,6.0903,-3.3009,6.0634,-0.0597,0.0657,-0.1051,-1.8431593380370082,8.654536213725805e-05,3.265986919403076,-0.9720710515975952,-1.9978515410912223e-05,2.072295665740967,3.5260512071796875,-0.0,0.2586349844932556,-1.666084114705221,-0.0,0.0076286145485937595,1.2748181819915771,-0.0,-0.02025914378464222,0.6613228917121887,6.687311542918906e-05,-0.056093037128448486
207.0,240.0,6.0903,-3.3009,6.0634,-0.0597,0.0657,-0.1051,-1.8431593380370082,9.375706576975062e-05,3.2560744285583496,-0.9720340967178345,-1.8349237507209182e-05,2.0427277088165283,3.5260464388081054,-0.0,0.262380450963974,-1.666135613118307,-0.0,-0.0019270791672170162,1.2748613357543945,-0.0,-0.001236581476405263,0.6613228917121887,2.9110644391039386e-05,0.0015941527672111988
207.0,240.0,6.0903,-3.3009,6.0634,-0.0597,0.0657,-0.1051,-1.8431469402708949,6.241899245651439e-05,3.2240958213806152,-0.9720624685287476,-2.3653369396470225e-07,2.079345226287842,3.526022120113037,-0.0,0.2621991038322449,-1.6661279837237757,-0.0,0.01048857532441616,1.2748181819915771,-0.0,-0.003586301114410162,0.661338746547699,1.7410213271062958e-09,-0.0032440274953842163
207.0,240.0,6.0903,-3.3009,6.0634,-0.0597,0.0657,-0.1051,-1.8431345425047816,5.8793473726836964e-05,3.186009407043457,-0.9720504283905029,-7.663390829846985e-15,2.0461506843566895,3.526094599361084,-0.0,0.27095118165016174,-1.6661117712603968,-0.0,-0.004806360229849815,1.2748582363128662,-0.0,0.00036293629091233015,0.6613025665283203,5.640686872064455e-17,-0.06299906969070435
213.0,245.0,6.4893,-3.2937,5.9109,-0.027,0.0137,-0.1197,-1.8431831798949183,5.657594738295302e-05,3.2606968879699707,-0.9720266461372375,8.586256444687024e-05,2.0908939838409424,3.526162787074707,0.00268307002261281,0.2684100568294525,-1.6661360899554651,-0.0,0.002407854190096259,1.2748022079467773,-0.0,-1.5569967217743397e-05,0.661306619644165,1.3621594465297576e-22,0.022012045606970787
213.0,245.0,6.4893,-3.2937,5.9109,-0.027,0.0137,-0.1197,-1.8431955776610316,5.386707925936207e-05,3.2476515769958496,-0.9720029234886169,0.0018687930423766375,2.0614242553710938,3.526106043452881,0.0014059881214052439,0.2691105902194977,-1.6661928335772913,-0.0,0.0033365008421242237,1.2747862339019775,-0.0,-0.010391898453235626,0.6612945795059204,4.4132237047384716e-30,-0.03318323567509651
213.0,245.0,6.4893,-3.2937,5.9109,-0.027,0.0137,-0.1197,-1.8431388340392054,5.1999744755448774e-05,3.2361011505126953,-0.9720748066902161,0.0005329179693944752,2.1195881366729736,3.526122732753418,-0.00029567148885689676,0.2666235566139221,-1.6661360899554651,-0.0,0.009005993604660034,1.2747902870178223,-0.0,0.0003061206080019474,0.6613585948944092,1.0657417493638722e-35,0.036386385560035706
213.0,245.0,6.4893,-3.2937,5.9109,-0.027,0.0137,-0.1197,-1.8431388340392054,6.0172616940690205e-05,3.2175841331481934,-0.9720504283905029,-0.0007380744209513068,2.053776502609253,3.526135130519531,-0.00022428059310186654,0.2768562436103821,-1.6660922209369105,-0.0,0.0062298886477947235,1.2747622728347778,-0.0,-0.010885858908295631,0.6613467931747437,2.573624759578959e-41,0.0007804767228662968
213.0,245.0,6.4893,-3.2937,5.9109,-0.027,0.0137,-0.1197,-1.8432032070555628,1.4402616599351603e-10,3.266749620437622,-0.9720709919929504,-2.2322408312902553e-06,2.0545907020568848,3.526134653682373,-7.554033800261095e-05,0.2693479359149933,-1.666084114705221,-0.0,0.008357163518667221,1.274834394454956,-0.0,-0.006509424652904272,0.6614028811454773,0.0,0.039535101503133774
213.0,245.0,6.4893,-3.2937,5.9109,-0.027,0.0137,-0.1197,-1.843203683892721,3.4780620711205785e-16,3.2527689933776855,-0.9719945192337036,0.002044337335973978,2.1277058124542236,3.526134653682373,-7.843905791560246e-08,0.2692730128765106,-1.666140381489889,-0.0,-0.008674822747707367,1.2748420238494873,-0.0,-0.008021758869290352,0.6613587737083435,0.0013002021005377173,0.013051032088696957
213.0,245.0,6.4893,-3.2937,5.9109,-0.027,0.0137,-0.1197,-1.8431874714293421,1.1268478078603207e-23,3.2401585578918457,-0.9720027446746826,0.0027451582718640566,2.0843706130981445,3.5260988908955078,-1.4255909820681811e-12,0.2727562487125397,-1.6660922209369105,-0.0,0.0059836069121956825,1.2748022079467773,-0.0,-0.009446210227906704,0.6613827347755432,0.0014954130165278912,-0.007625891361385584
213.0,245.0,6.4893,-3.2937,5.9109,-0.027,0.0137,-0.1197,-1.843175550500387,2.7212050991027186e-29,3.196382522583008,-0.9719584584236145,0.0027143058832734823,2.0727083683013916,3.5262033182331542,-3.9681847158572745e-16,0.26460766792297363,-1.6661046187030237,-0.0,0.016124997287988663,1.2748022079467773,-0.0,0.0014626620104536414,0.6613628268241882,0.0012720510130748153,-0.03338684141635895
213.0,236.0,6.8435,-3.1657,5.6333,-0.0344,0.0031,-0.1054,-1.8431302509703578,4.9487509386381134e-05,3.2301230430603027,-0.9719468951225281,0.0023055472411215305,2.060908555984497,3.526134653682373,-7.211979350109576e-21,0.26560884714126587,-1.6661003271686,-0.0,-0.0040018209256231785,1.2748260498046875,-0.0,-0.001995653845369816,0.6614388823509216,0.0011732007842510939,0.05938404053449631
213.0,236.0,6.8435,-3.1657,5.6333,-0.0344,0.0031,-0.1054,-1.8431831798949183,4.612367047229782e-05,3.2159793376922607,-0.9719472527503967,0.0013887882232666016,2.044466018676758,3.526150866145752,-2.0074808070471736e-24,0.2607135474681854,-1.6661041418658655,-0.0,0.017083341255784035,1.2748181819915771,-0.0,-0.004992369096726179,0.661402702331543,0.0014187732012942433,-0.03188348934054375
213.0,236.0,6.8435,-3.1657,5.6333,-0.0344,0.0031,-0.1054,-1.8431593380370082,4.183561759418808e-05,3.2790887355804443,-0.9719510078430176,0.00026512748445384204,2.109168529510498,3.526195212001465,-3.648497334827978e-29,0.2708074748516083,-1.666112248097555,-0.0,0.00019435520516708493,1.2747902870178223,-0.0,-0.01287691481411457,0.661430835723877,0.0008805330726318061,0.025891512632369995
213.0,236.0,6.8435,-3.1657,5.6333,-0.0344,0.0031,-0.1054,-1.8431955776610316,5.857132782693952e-05,3.2153022289276123,-0.9719390869140625,0.00036747095873579383,2.0437374114990234,3.526190920467041,-1.015572679028334e-32,0.27520379424095154,-1.666140381489889,-0.0,0.02066873200237751,1.2748222351074219,-0.0,-0.01841222122311592,0.6614428758621216,0.000689626787789166,-0.017385780811309814
213.0,236.0,6.8435,-3.1657,5.6333,-0.0344,0.0031,-0.1054,-1.8430949650206507,7.193442434072495e-05,3.255483627319336,-0.9719510078430176,0.0013474822044372559,2.0664143562316895,3.5261542040058593,-1.8457532308253137e-37,0.26727530360221863,-1.6661117712603968,-0.0,0.005540946498513222,1.2748181819915771,-0.0,-0.009903207421302795,0.6614348888397217,0.0004795603745151311,-0.011709772050380707
213.0,236.0,6.8435,-3.1657,5.6333,-0.0344,0.0031,-0.1054,-1.8431550465025843,0.00018497453129384667,3.2419538497924805,-0.9719431400299072,0.0015321922255679965,2.0244462490081787,3.526134176845215,-5.137720689600509e-41,0.25599342584609985,-1.6661317984210413,-0.0,0.0005360927898436785,1.2748143672943115,-0.0,-0.014680977910757065,0.6614106893539429,0.00022558080672752112,-0.023790160194039345
213.0,236.0,6.8435,-3.1657,5.6333,-0.0344,0.0031,-0.1054,-1.8431030712523402,0.0009800172410905361,3.235729455947876,-0.9719271659851074,0.0013816483551636338,2.0758907794952393,3.526174708003662,9.67639934970066e-05,0.26920920610427856,-1.66612416902651,-0.0,-0.0012179422192275524,1.2748262882232666,-0.0,-0.004113210365176201,0.6614388823509216,0.00011249978706473485,0.01741999015212059
213.0,236.0,6.8435,-3.1657,5.6333,-0.0344,0.0031,-0.1054,-1.8431273899474085,0.0008789190324023366,3.2502670288085938,-0.9719395041465759,0.0012409001355990767,2.0596470832824707,3.5261947351643066,0.0016459061298519373,0.268905907869339,-1.666152302418844,-0.0,0.011412156745791435,1.274834156036377,-0.0,-0.008426978252828121,0.661450982093811,4.500770955928601e-05,0.05029011145234108
213.0,235.0,5.8666,-2.3874,6.009,0.0031,0.0308,-0.119,-1.8430830440916957,0.0007723263697698712,3.254441976547241,-0.9719595909118652,0.0009622075012885034,2.1047098636627197,3.5262066560932617,0.0022175938356667757,0.2698515057563782,-1.6661599318133753,-0.0,0.00649911118671298,1.27473783493042,-0.0,-0.015648236498236656,0.661422848701477,1.3463035429595038e-05,0.04575241357088089
213.0,235.0,5.8666,-2.3874,6.009,0.0031,0.0308,-0.119,-1.8431068859496058,0.0005627563805319369,3.265307903289795,-0.9718713164329529,0.0006552818813361228,2.115905284881592,3.526186628932617,0.001897672307677567,0.27092456817626953,-1.6661360899554651,-0.0,0.009611880406737328,1.274834156036377,-0.0,0.003500627353787422,0.6613867878913879,4.361852133823174e-13,-0.02329745516180992
213.0,235.0,5.8666,-2.3874,6.009,0.0031,0.0308,-0.119,-1.843067308465475,0.0005710133700631559,3.2705726623535156,-0.971899151802063,0.0004993887851014733,2.115474224090576,3.5262505251118164,0.00174632016569376,0.27145329117774963,-1.6661680380450647,-0.0,0.001239687204360962,1.2747942209243774,-0.0,-0.010218832641839981,0.661402702331543,1.0533360313256648e-18,-0.021696563810110092
213.0,235.0,5.8666,-2.3874,6.009,0.0031,0.0308,-0.119,-1.843091150323385,0.0005766493268311024,3.2374911308288574,-0.9718868136405945,0.0004333103133831173,2.119486093521118,3.5262667375751953,0.00412805937230587,0.27342289686203003,-1.6661236921893519,-0.0,0.006451196502894163,1.2747703790664673,-0.0,-0.0013511928264051676,0.6614509224891663,3.412674830190691e-26,-0.021746933460235596
213.0,235.0,5.8666,-2.3874,6.009,0.0031,0.0308,-0.119,-1.843130727807516,0.0004997814539819956,3.2558865547180176,-0.9719197154045105,0.00036703544901683927,2.1136386394500732,3.526271029109619,0.0073889209888875484,0.27188432216644287,-1.666152302418844,-0.0,-0.0042924219742417336,1.2747622728347778,-0.0,0.0032468666322529316,0.6613467335700989,8.241207516496329e-32,0.005690369289368391
213.0,235.0,5.8666,-2.3874,6.009,0.0031,0.0308,-0.119,-1.8431550465025843,0.00030499708373099566,3.2839088439941406,-0.9718949794769287,0.0002667602675501257,2.0854783058166504,3.526350660915039,0.00948116835206747,0.26355209946632385,-1.666152302418844,-0.0,-0.003585925791412592,1.2748572826385498,-0.0,-0.011125389486551285,0.6614388823509216,2.6700467056106854e-39,0.00856531411409378
213.0,235.0,5.8666,-2.3874,6.009,0.0031,0.0308,-0.119,-1.8431269131102503,0.00020236516138538718,3.2704825401306152,-0.9718868732452393,4.0240549424197525e-05,2.1256556510925293,3.5264107423969726,0.00570630980655551,0.2667228579521179,-1.666191879902975,-0.0,-0.00667952373623848,1.2748141288757324,-0.0,-0.0062467786483466625,0.6613907814025879,7.006492321624085e-45,-0.032771170139312744
213.0,235.0,5.8666,-2.3874,6.009,0.0031,0.0308,-0.119,-1.8431469402708949,-0.001613215310499072,3.2627687454223633,-0.9719194173812866,3.0828971320229215e-11,2.072031021118164,3.526402636165283,4.5327451516641304e-05,0.2749731242656708,-1.6661079565631312,-0.0,-0.006179687101393938,1.274794340133667,-0.0,-0.0030051362700760365,0.6613907814025879,0.0,-0.0061174072325229645
211.0,234.0,6.5372,-3.6628,5.9797,0.0047,-0.002,-0.1141,-1.8432113132872523,-0.002910157898440957,3.2854440212249756,-0.9718992114067078,-0.0009504504851065576,2.0758204460144043,3.526338739986084,-0.0011178499553352594,0.27066704630851746,-1.666152302418844,-0.0,0.00030890561174601316,1.2748262882232666,-0.0,0.007578478194773197,0.6613706946372986,0.0,0.019499439746141434
211.0,234.0,6.5372,-3.6628,5.9797,0.0047,-0.002,-0.1141,-1.843227048913473,-0.002270274329930544,3.3051133155822754,-0.9720150828361511,-0.0010680791456252337,2.0803472995758057,3.526306315059326,-0.0011338037438690662,0.271411269903183,-1.6661317984210413,-0.0,0.005760880187153816,1.274906039237976,-0.0,-0.0005648103542625904,0.6614066958427429,0.0,0.0036643394269049168
211.0,234.0,6.5372,-3.6628,5.9797,0.0047,-0.002,-0.1141,-1.8432828388609828,-0.0015824079746380448,3.2686874866485596,-0.9719472527503967,-0.000746958248782903,2.06807541847229,3.526326819057129,-0.0007523522363044322,0.2659838795661926,-1.6661437193499964,-0.0,-0.0030564158223569393,1.2748814821243286,-0.0,-0.0044847531244158745,0.6613787412643433,3.3536456612637267e-05,0.008632360026240349
211.0,234.0,6.5372,-3.6628,5.9797,0.0047,-0.002,-0.1141,-1.8432790241637171,-0.0023536542430520058,3.2577223777770996,-0.971922755241394,-0.0005281254998408258,2.0925862789154053,3.526290102595947,-0.0006194110028445721,0.25360769033432007,-1.6661480108844202,-0.0,-0.0038571185432374477,1.2748262882232666,-0.0,0.004781947936862707,0.6614184379577637,0.00011914258357137442,0.023855086416006088
211.0,234.0,6.5372,-3.6628,5.9797,0.0047,-0.002,-0.1141,-1.8433195553221644,-0.0032374574802815914,3.199399948120117,-0.9719588756561279,-0.0004985123523510993,2.093085289001465,3.526322527522705,-0.0005079557886347175,0.25333672761917114,-1.6661642233477991,-0.0,-0.01185781229287386,1.274786114692688,-0.0,-0.006543308030813932,0.6614428758621216,0.0009307442815043032,0.019783787429332733
211.0,234.0,6.5372,-3.6628,5.9797,0.0047,-0.002,-0.1141,-1.8433228931822718,-0.004224400036036968,3.2374215126037598,-0.9719789028167725,-0.0004179534735158086,2.0846080780029297,3.526326819057129,-0.0003936620778404176,0.26392990350723267,-1.6661160627948206,-0.0,-0.002606946974992752,1.2748101949691772,-0.0,-0.005996259860694408,0.6614668369293213,0.0016347235068678856,0.017550215125083923
211.0,234.0,6.5372,-3.6628,5.9797,0.0047,-0.002,-0.1141,-1.8433791599669398,-0.004137297626584768,3.2464003562927246,-0.9719390869140625,-0.0003391880600247532,2.092081069946289,3.526366873378418,-0.00020457390928640962,0.26112955808639526,-1.66612416902651,-0.0,-0.0017708629602566361,1.2748141288757324,-0.0,-0.007430706173181534,0.6614388227462769,0.0011789918644353747,0.010654974728822708
211.0,234.0,6.5372,-3.6628,5.9797,0.0047,-0.002,-0.1141,-1.8434273205199183,-0.004156433045864105,3.249821186065674,-0.9719465374946594,-0.00029718418954871595,2.0812747478485107,3.5263582903095703,-4.863949288846925e-05,0.25192177295684814,-1.66612416902651,-0.0,-0.008539987727999687,1.2748100757598877,-0.0,-0.01250456366688013,0.6614788770675659,0.0007131759775802493,-0.007813416421413422
211.0,234.0,6.5372,-3.6628,5.9797,0.0047,-0.002,-0.1141,-1.8434754810728968,-0.005304933991283178,3.1972897052764893,-0.9719629287719727,-0.00025506981182843447,2.095576763153076,3.5263582903095703,-3.7834277463844046e-05,0.2814340591430664,-1.666152302418844,-0.0,0.008660882711410522,1.274877905845642,-0.0,0.0019634542986750603,0.6614426374435425,0.0003887958300765604,-0.006358595564961433
220.0,236.0,5.385,-3.5145,6.2961,-0.0864,0.0466,-0.1046,-1.8435350857176722,-0.006985988933593035,3.2505619525909424,-0.9720031023025513,-0.00020037418289575726,2.0553503036499023,3.526378794307373,-7.903340559778371e-08,0.2537189722061157,-1.6661036650287073,-0.0,-0.009005093947052956,1.2748222351074219,-0.0,-0.015733392909169197,0.6614507436752319,0.0002470106119289994,0.029024634510278702
220.0,236.0,5.385,-3.5145,6.2961,-0.0864,0.0466,-0.1046,-1.8435546360411585,-0.011997964233160019,3.2190351486206055,-0.9720152616500854,-0.0009235952165909111,2.089175224304199,3.526366873378418,-1.436393213573306e-12,0.2695763409137726,-1.6660922209369105,-0.0,-0.0009165068622678518,1.2748101949691772,-0.0,-0.015722844749689102,0.6614587903022766,0.00014535494847223163,0.019986877217888832
220.0,236.0,5.385,-3.5145,6.2961,-0.0864,0.0466,-0.1046,-1.8437110386290492,-0.01610063575208187,3.230581283569336,-0.972019374370575,-0.001419267849996686,2.0878305435180664,3.5263544756123046,-3.998253061995822e-16,0.2663450539112091,-1.666112248097555,-0.0,0.005776233039796352,1.2748693227767944,-0.0,-0.011739743873476982,0.6614187359809875,0.00012513919500634074,-0.0027357214130461216
220.0,236.0,5.385,-3.5145,6.2961,-0.0864,0.0466,-0.1046,-1.8437868557372035,-0.020077655091881752,3.164546251296997,-0.972030758857727,-0.0014672400429844856,2.1124167442321777,3.5263306337543945,-1.1129283457018811e-19,0.2616751194000244,-1.666112248097555,-0.0,-0.003450885647907853,1.2748301029205322,-0.0,-0.000643377541564405,0.6614753007888794,0.00011003939289366826,0.008316600695252419
220.0,236.0,5.385,-3.5145,6.2961,-0.0864,0.0466,-0.1046,-1.8440028629698695,-0.02365945279598236,3.189218044281006,-0.9720670580863953,-0.0017830838914960623,2.1231865882873535,3.5263864237019042,-2.0226924118825504e-24,0.26258233189582825,-1.6661046187030237,-0.0,-0.0026326682418584824,1.2748103141784668,-0.0,-0.011186948046088219,0.6614267826080322,-7.003191421972588e-05,0.012908661738038063
220.0,236.0,5.385,-3.5145,6.2961,-0.0864,0.0466,-0.1046,-1.844198843041891,-0.026735564693808556,3.1642026901245117,-0.9720583558082581,-0.003444307018071413,2.055100440979004,3.526366873378418,-5.630238562332368e-28,0.27553093433380127,-1.6660760084735315,-0.0,0.004124190658330917,1.2748260498046875,-0.0,-0.003999802283942699,0.661446750164032,-9.401630086358637e-05,0.01114188227802515
220.0,236.0,5.385,-3.5145,6.2961,-0.0864,0.0466,-0.1046,-1.8444749317564906,-0.03238651528954506,3.1267623901367188,-0.9721270203590393,-0.008940393105149269,2.0623769760131836,3.5263826090046386,-1.023268052795992e-32,0.26130926609039307,-1.6661003271686,-0.0,0.009497212246060371,1.2748898267745972,-0.0,-0.00016638469242025167,0.6614668965339661,-0.00010684470908017829,-0.020548272877931595
220.0,236.0,5.385,-3.5145,6.2961,-0.0864,0.0466,-0.1046,-1.8446828327574671,-0.03870835155248642,3.063429832458496,-0.9721179604530334,-0.006532029248774052,2.0323760509490967,3.5263306337543945,-2.8483041008057987e-36,0.2645101547241211,-1.6660922209369105,-0.0,0.0039027556777000427,1.2748260498046875,-0.0,0.002202011179178953,0.6614066362380981,-0.00010083239612868056,0.06444813311100006
213.0,235.0,4.6768,-2.2624,6.1705,-0.0649,-0.0296,-0.1133,-1.8450671635069789,-0.04991353303194046,3.102059841156006,-0.9722347855567932,-0.0032792158890515566,2.039388418197632,3.526326819057129,-5.176676786908739e-41,0.24335332214832306,-1.6661046187030237,-0.0,0.005457387305796146,1.2748578786849976,-0.0,0.008383185602724552,0.6614187955856323,-0.00011334181181155145,-0.02985316328704357
213.0,235.0,4.6768,-2.2624,6.1705,-0.0649,-0.0296,-0.1133,-1.845386644402975,-0.06058931723237038,3.0661280155181885,-0.9722225069999695,-0.0017270853277295828,2.0393807888031006,3.5263263422199707,-1.401298464324817e-44,0.25459983944892883,-1.6660803000079554,-0.0,0.013468027114868164,1.274846076965332,-0.0,0.009091809391975403,0.6614547371864319,-0.00021046563051640987,-0.0017142314463853836
213.0,235.0,4.6768,-2.2624,6.1705,-0.0649,-0.0296,-0.1133,-1.8458777866759242,-0.07398044317960739,3.0313117504119873,-0.9721986651420593,-0.0006371779600158334,2.011793851852417,3.526362581843994,-0.0,0.25479117035865784,-1.6661284605609339,-0.0,0.007116466294974089,1.2748101949691772,-1.9560445277400085e-11,0.016810238361358643,0.6614267826080322,-0.00020420219516381621,0.014276931062340736
213.0,235.0,4.6768,-2.2624,6.1705,-0.0649,-0.0296,-0.1133,-1.846353670159811,-0.08200451731681824,3.002614974975586,-0.972162127494812,-0.0002719983458518982,1.9873993396759033,3.5263663965412597,-0.0,0.26679736375808716,-1.6661198774920862,-0.0,0.010825000703334808,1.2748819589614868,-5.4447222792364854e-15,0.02302740514278412,0.6613945960998535,-0.0001933462917804718,0.0028915265575051308
213.0,235.0,4.6768,-2.2624,6.1705,-0.0649,-0.0296,-0.1133,-1.847081800500387,-0.09423830360174179,3.006678342819214,-0.9721904397010803,-0.00019191295723430812,2.011986017227173,3.5263702112385253,-0.0,0.25045451521873474,-1.6661079565631312,-0.0,0.010775486938655376,1.2748572826385498,-9.895513846592707e-20,0.012602828443050385,0.6614388823509216,-0.00022575422190129757,-0.026623696088790894
213.0,235.0,4.6768,-2.2624,6.1705,-0.0649,-0.0296,-0.1133,-1.8476454220213832,-0.09749364107847214,2.9999923706054688,-0.9721665382385254,-0.00015817777602933347,1.9745155572891235,3.526378794307373,-0.0,0.25727578997612,-1.6661041418658655,-0.0,0.0033037052489817142,1.2748101949691772,-2.7544526854413613e-23,0.014857461676001549,0.6614066958427429,-0.000404124497435987,-0.03934478014707565
213.0,235.0,4.6768,-2.2624,6.1705,-0.0649,-0.0296,-0.1133,-1.8482724628844203,-0.09775010496377945,2.961223602294922,-0.9721781611442566,-0.0001345309428870678,1.993373155593872,3.5263864237019042,-0.0,0.24846628308296204,-1.6661041418658655,-0.0,0.013439907692372799,1.2748382091522217,-7.667120175257786e-27,0.01159040629863739,0.6614428758621216,-0.00035358828608877957,-0.04015274718403816
213.0,235.0,4.6768,-2.2624,6.1705,-0.0649,-0.0296,-0.1133,-1.8491808376707972,-0.10199842602014542,2.9312586784362793,-0.9722142219543457,-0.00011664276098599657,1.9533065557479858,3.526306315059326,-0.0,0.26467299461364746,-1.6661279837237757,-0.0,-0.0014615327818319201,1.2748857736587524,-1.393461448768426e-31,-0.0007529498543590307,0.6614468693733215,-0.0002887560403905809,-0.03868301957845688
204.0,229.0,5.7123,-2.1691,5.3306,-0.0319,-0.0539,-0.1249,-1.8498202762999476,-0.11286690086126328,2.9267306327819824,-0.9722741842269897,-0.002962211612612009,1.9697957038879395,3.526338739986084,-1.7926637156051584e-05,0.2582641839981079,-1.66612416902651,-0.0,0.004755652509629726,1.2748181819915771,-3.878750240404493e-35,0.003901695366948843,0.6613867878913879,-0.00013934839807916433,0.026740457862615585
204.0,229.0,5.7123,-2.1691,5.3306,-0.0319,-0.0539,-0.1249,-1.8508278332152308,-0.12912455201148987,2.915127992630005,-0.9722986221313477,-0.004959549754858017,1.944287896156311,3.52633444845166,-2.7514321118360385e-05,0.2633487284183502,-1.66612416902651,-0.0,0.010112662799656391,1.2748260498046875,-7.049442119555641e-40,0.009375887922942638,0.6614469289779663,-5.3180341637926176e-05,0.015210559591650963
204.0,229.0,5.7123,-2.1691,5.3306,-0.0319,-0.0539,-0.1249,-1.8515917263426722,-0.13982689380645752,2.881260871887207,-0.9723101258277893,-0.004269348457455635,1.9408905506134033,3.5263582903095703,-2.5202883989550173e-05,0.24697387218475342,-1.6661041418658655,-0.0,0.005231370218098164,1.2747783660888672,-1.961817850054744e-43,0.00313019473105669,0.6613986492156982,-4.517176057561301e-05,0.020946422591805458
204.0,229.0,5.7123,-2.1691,5.3306,-0.0319,-0.0539,-0.1249,-1.8527189693846644,-0.1557527333498001,2.849976062774658,-0.9723063111305237,-0.0017112349160015583,1.9510148763656616,3.5263864237019042,-2.2664044081466272e-05,0.2378259003162384,-1.6661441961871546,-0.0,0.0001424785004928708,1.274766445159912,-0.0,-0.001121376408264041,0.6613865494728088,-3.761863990803249e-05,-0.02289918065071106
204.0,229.0,5.7123,-2.1691,5.3306,-0.0319,-0.0539,-0.1249,-1.8536220989623011,-0.15751639008522034,2.876258611679077,-0.9722702503204346,0.0004357743891887367,1.9113030433654785,3.5263702112385253,-6.308619848738317e-09,0.2526770234107971,-1.6661079565631312,-0.0,0.006259019486606121,1.2747904062271118,-0.0,0.0026925294660031796,0.6613865494728088,-3.342691343277693e-05,-0.021664932370185852
204.0,229.0,5.7123,-2.1691,5.3306,-0.0319,-0.0539,-0.1249,-1.8548852405943812,-0.1549137532711029,2.930823802947998,-0.9722462892532349,0.0017242177855223417,1.9347870349884033,3.5264269548603515,-1.1465606025370945e-13,0.25206688046455383,-1.6661847273456019,-0.0,-0.007923823781311512,1.2747986316680908,-0.0,-0.0030833485070616007,0.6614106893539429,-2.9103091947035864e-05,-0.04767560958862305
204.0,229.0,5.7123,-2.1691,5.3306,-0.0319,-0.0539,-0.1249,-1.8559133015074671,-0.15712778270244598,2.9426214694976807,-0.9722862839698792,-9.320017852587625e-05,2.0202596187591553,3.5264107423969726,0.0009806626476347446,0.25759148597717285,-1.6661847273456019,-0.0,0.003093108767643571,1.2748380899429321,-0.0,-0.0013659565011039376,0.6614187359809875,-5.971089733769475e-10,-0.06134224310517311
204.0,229.0,5.7123,-2.1691,5.3306,-0.0319,-0.0539,-0.1249,-1.8572155437865199,-0.17434263229370117,2.919370651245117,-0.9723343253135681,-0.00219886377453804,1.9330706596374512,3.52639023839917,0.0008064483408816159,0.25540053844451904,-1.66612416902651,-0.0,-0.009321901015937328,1.274790644645691,-0.0,0.0013329038629308343,0.6614707708358765,-1.9345570770798177e-17,-0.01321684941649437
194.0,225.0,5.6734,-2.2684,6.6449,-0.0848,-0.0948,-0.1193,-1.858335634271139,-0.18863733112812042,2.9947280883789062,-0.9723466634750366,-0.0014302884228527546,1.9748988151550293,3.5264226633259277,0.0005246922955848277,0.2531285881996155,-1.6661680380450647,-0.0,-0.002855867613106966,1.274766445159912,-0.0,0.0016708262264728546,0.6614788770675659,0.0009411343489773571,-0.037176817655563354
194.0,225.0,5.6734,-2.2684,6.6449,-0.0848,-0.0948,-0.1193,-1.8594228229918421,-0.19420377910137177,2.999177932739258,-0.9723182320594788,-0.0005801122169941664,1.9621145725250244,3.526442213649414,0.0005230283713899553,0.2474498748779297,-1.6661360899554651,-0.0,-0.006716874893754721,1.2747746706008911,-0.0,0.008074483834207058,0.6614385843276978,0.0008620319422334433,-0.022045955061912537
194.0,225.0,5.6734,-2.2684,6.6449,-0.0848,-0.0948,-0.1193,-1.8609582386412562,-0.19670777022838593,3.0026602745056152,-0.9722743034362793,0.00041081637027673423,1.9850199222564697,3.526470823878906,0.0005357653717510402,0.2649618685245514,-1.666152302418844,-0.0,-0.018484480679035187,1.2747867107391357,-0.0,-0.017346784472465515,0.6614829301834106,0.0004881958302576095,-0.03748476132750511
194.0,225.0,5.6734,-2.2684,6.6449,-0.0848,-0.0948,-0.1193,-1.8620687923827113,-0.1937253624200821,3.048534870147705,-0.9722495675086975,0.00038360178587026894,2.014516830444336,3.5264579492756347,0.0027146099600940943,0.2626458406448364,-1.6661928335772913,-0.0,-0.019407635554671288,1.274794578552246,-0.00036575953708961606,-0.011043045669794083,0.6614627838134766,0.00036827969597652555,-0.014975592494010925
194.0,225.0,5.6734,-2.2684,6.6449,-0.0848,-0.0948,-0.1193,-1.8636485538878382,-0.19196921586990356,3.056671619415283,-0.9722661375999451,0.00046504565398208797,2.0215089321136475,3.5265142160603027,0.007835564203560352,0.2758045792579651,-1.6661360899554651,-0.0,-0.012594427913427353,1.2747421264648438,-0.0010580661473795772,-0.0092011084780097,0.6614507436752319,0.00031374135869555175,-0.014514774084091187
194.0,225.0,5.6734,-2.2684,6.6449,-0.0848,-0.0948,-0.1193,-1.8648115597166957,-0.19215115904808044,3.0839500427246094,-0.9723141193389893,0.0002839647058863193,2.0164332389831543,3.526538057918213,0.01139004621654749,0.2562292516231537,-1.6661365667926233,-0.0,-0.018205631524324417,1.2747061252593994,-0.0012528338702395558,-0.02595262974500656,0.6614788770675659,0.00032754833227954805,0.03945891559123993
194.0,225.0,5.6734,-2.2684,6.6449,-0.0848,-0.0948,-0.1193,-1.866342683831686,-0.2015073597431183,3.100891590118408,-0.9723018407821655,0.00016188458539545536,2.078918933868408,3.526714964503906,0.01914156600832939,0.27361950278282166,-1.6661847273456019,-0.0,-0.01425330899655819,1.2747143507003784,-0.0011298971949145198,-0.02356398105621338,0.6614909172058105,0.00032391789136454463,-0.027314722537994385
194.0,225.0,5.6734,-2.2684,6.6449,-0.0848,-0.0948,-0.1193,-1.8675700626769007,-0.2037520706653595,3.107612371444702,-0.9723100662231445,0.00018271352746523917,2.0870983600616455,3.526899500484131,0.028552008792757988,0.2814704179763794,-1.6661441961871546,-0.0,-0.025562550872564316,1.2747184038162231,-0.0011139458511024714,-0.03324960172176361,0.6614546775817871,0.0003223595267627388,0.002349890535697341
194.0,225.0,5.6734,-2.2684,6.6449,-0.0848,-0.0948,-0.1193,-1.8691331348814906,-0.19176116585731506,3.143688678741455,-0.9722495675086975,0.0011843654792755842,2.104504108428955,3.5271870332905273,0.05045463889837265,0.3033417761325836,-1.6661599318133753,-0.0,-0.019148722290992737,1.274706482887268,-0.0011885989224538207,-0.032381512224674225,0.6614066958427429,0.0004580348322633654,0.006942478008568287
180.0,215.0,6.3027,-3.1663,6.4798,-0.0596,-0.0159,-0.1118,-1.870227952996725,-0.1845201551914215,3.1480889320373535,-0.9723222851753235,0.0011319124605506659,2.0899109840393066,3.5275751787373046,0.07931215316057205,0.30960404872894287,-1.6661480108844202,-0.0,-0.021683577448129654,1.2746983766555786,-0.0019112518057227135,-0.042439594864845276,0.6614828705787659,0.00035085430135950446,0.014990591444075108
180.0,215.0,6.3027,-3.1663,6.4798,-0.0596,-0.0159,-0.1118,-1.8717628918089808,-0.1867971271276474,3.150750160217285,-0.9722866415977478,0.000607962952926755,2.092407703399658,3.5283915239521484,0.12132054567337036,0.3408738374710083,-1.6661518255816858,-0.0,-0.022188756614923477,1.274714708328247,-0.005835020914673805,-0.04091178625822067,0.6615108251571655,0.00032091821776703,-0.030584033578634262
180.0,215.0,6.3027,-3.1663,6.4798,-0.0596,-0.0159,-0.1118,-1.8729025326170863,-0.19295471906661987,3.174196720123291,-0.9722381234169006,0.0005154116661287844,2.077587604522705,3.529219790095947,0.1361144483089447,0.3384179472923279,-1.666180435811178,-0.0,-0.012904927134513855,1.2745832204818726,-0.011422152630984783,-0.06142495572566986,0.6615027785301208,0.00031774683156982064,-0.021497013047337532
180.0,215.0,6.3027,-3.1663,6.4798,-0.0596,-0.0159,-0.1118,-1.8740698299803675,-0.18715667724609375,3.140355348587036,-0.9722298979759216,0.0003487041685730219,2.0995171070098877,3.530014677638672,0.13382761180400848,0.34444719552993774,-1.6661961714373987,-0.0,-0.023541860282421112,1.2745311260223389,-0.009417988359928131,-0.048483073711395264,0.6614507436752319,0.0003154112200718373,0.007498513907194138
180.0,215.0,6.3027,-3.1663,6.4798,-0.0596,-0.0159,-0.1118,-1.8754846058287562,-0.17117951810359955,3.193422794342041,-0.9722421765327454,0.0012928778305649757,2.0884692668914795,3.531139059657715,0.15954555571079254,0.34818851947784424,-1.6661441961871546,-0.0,-0.025416303426027298,1.2745311260223389,-0.003006578190252185,-0.05133965238928795,0.6614908576011658,0.00026932437322102487,-0.07615844905376434
180.0,215.0,6.3027,-3.1663,6.4798,-0.0596,-0.0159,-0.1118,-1.8765603504576625,-0.16731126606464386,3.2454562187194824,-0.9722216129302979,0.0003323976998217404,2.1351611614227295,3.5322276788898925,0.18564073741436005,0.36970245838165283,-1.6661236921893519,-0.0,-0.024055687710642815,1.2745028734207153,-0.0013150036102160811,-0.051403120160102844,0.6614909172058105,0.00019374146359041333,-0.031204458326101303
180.0,215.0,6.3027,-3.1663,6.4798,-0.0596,-0.0159,-0.1118,-1.877963205377096,-0.17741258442401886,3.2355599403381348,-0.9722380638122559,2.2711478531167728e-11,2.1029391288757324,3.5337468820759277,0.19198057055473328,0.38352182507514954,-1.6661847273456019,-0.0,-0.011006932705640793,1.2744829654693604,-0.0007898553740233183,-0.05214652419090271,0.6614907383918762,0.0001983321999432519,0.02873145416378975
180.0,215.0,6.3027,-3.1663,6.4798,-0.0596,-0.0159,-0.1118,-1.8790027103819789,-0.17923736572265625,3.234297513961792,-0.9722945094108582,-7.4900517574860714e-06,2.085022211074829,3.534942789668701,0.21321287751197815,0.3891204595565796,-1.6661599318133753,-0.0,-0.03129887580871582,1.2745108604431152,-0.0004275621031410992,-0.06462061405181885,0.6615389585494995,0.00017864700930658728,0.013173457235097885
173.0,208.0,7.7294,-4.005,5.8247,0.0084,0.088,-0.115,-1.8803941212096156,-0.1618269979953766,3.2950305938720703,-0.9722298979759216,-2.426681902298333e-13,2.08396053314209,3.536815806026123,0.21938395500183105,0.3875001072883606,-1.6661599318133753,-0.0,-0.015490524470806122,1.2744630575180054,-0.0007686207536607981,-0.06740539520978928,0.6614707112312317,0.0001577690854901448,0.0027139021549373865
173.0,208.0,7.7294,-4.005,5.8247,0.0084,0.088,-0.115,-1.8813492260374964,-0.15032780170440674,3.2333245277404785,-0.9722340106964111,-5.8601512268621505e-19,2.0734310150146484,3.538135214442871,0.22860272228717804,0.3896825909614563,-1.6661642233477991,-0.0,-0.012269584462046623,1.2744710445404053,-0.0013228082098066807,-0.06713241338729858,0.6615591645240784,0.00014505491708405316,-0.023505430668592453
173.0,208.0,7.7294,-4.005,5.8247,0.0084,0.088,-0.115,-1.882580419579977,-0.14832744002342224,3.2160139083862305,-0.9723268747329712,-0.00024316342023666948,2.110790491104126,3.540078802699707,0.25493374466896057,0.40128520131111145,-1.666180435811178,-6.776696682209149e-05,-0.021613528952002525,1.27444326877594,-0.0020396679174154997,-0.06828191876411438,0.661470890045166,0.00014533601643051952,-0.007291892543435097
173.0,208.0,7.7294,-4.005,5.8247,0.0084,0.088,-0.115,-1.8834558926024378,-0.15236875414848328,3.321554660797119,-0.9723383784294128,-0.0011915585491806269,2.090569019317627,3.541702910060547,0.27160802483558655,0.41568219661712646,-1.666168514882223,-7.188119343481958e-05,-0.013007660396397114,1.274423360824585,-0.00204194663092494,-0.07381267845630646,0.6615430116653442,0.00016041126218624413,-0.01399538666009903
173.0,208.0,7.7294,-4.005,5.8247,0.0084,0.088,-0.115,-1.8843590221800746,-0.15781885385513306,3.2415266036987305,-0.9722536206245422,-0.0004044445522595197,2.127026319503784,3.543370409602783,0.28728142380714417,0.42646652460098267,-1.6661880652057093,-7.535374606959522e-05,-0.03936663642525673,1.2744194269180298,-0.001833349117077887,-0.08499841392040253,0.6615590453147888,0.00019854758284054697,0.04600463807582855
173.0,208.0,7.7294,-4.005,5.8247,0.0084,0.088,-0.115,-1.8854862652220667,-0.1468265950679779,3.2678022384643555,-0.9722380638122559,0.0004063778615090996,2.075645685195923,3.545710249538086,0.30090826749801636,0.42350056767463684,-1.666168514882223,-7.758438005112112e-05,-0.027520790696144104,1.2744272947311401,-0.0016852522967383265,-0.07192022353410721,0.6615429520606995,0.00017412386659998447,-0.03094746544957161
173.0,208.0,7.7294,-4.005,5.8247,0.0084,0.088,-0.115,-1.8863374195494593,-0.13352477550506592,3.2760422229766846,-0.9722381234169006,0.0010648046154528856,2.1285970211029053,3.5475660997578125,0.3116626739501953,0.4366014003753662,-1.6661837736712855,-7.437861495418474e-05,-0.02870943769812584,1.2743916511535645,-0.0019227055599913,-0.08707292377948761,0.6615107655525208,0.00015876538236625493,-0.046439528465270996
173.0,208.0,7.7294,-4.005,5.8247,0.0084,0.088,-0.115,-1.8874131641783656,-0.12450671195983887,3.3217358589172363,-0.9722784757614136,-8.806421101326123e-05,2.130664825439453,3.5502826410480957,0.347102552652359,0.4482705593109131,-1.6661556402789515,-8.802770025795326e-05,-0.023728862404823303,1.2743875980377197,-0.001887406106106937,-0.09554432332515717,0.6614788770675659,0.0001656232198001817,-0.02424592711031437
163.0,210.0,7.4453,-3.6371,6.076,0.1358,0.3273,-0.1309,-1.8881527386107386,-0.1252891719341278,3.3052115440368652,-0.9722899198532104,-0.0004969186848029494,2.1128458976745605,3.5523907381245117,0.3608545660972595,0.4641250669956207,-1.6662324110614222,-0.0002096272655762732,-0.030723029747605324,1.2743557691574097,-0.001521885977126658,-0.07986356317996979,0.6615349054336548,0.00017298277816735208,-0.05658101662993431
163.0,210.0,7.4453,-3.6371,6.076,0.1358,0.3273,-0.1309,-1.8891965351500453,-0.12741640210151672,3.3228566646575928,-0.9722862243652344,-0.0005032962071709335,2.122692823410034,3.555417700404785,0.38021159172058105,0.4574330449104309,-1.6661642233477991,-0.00021958911383990198,-0.034423828125,1.2743637561798096,-0.0009597965399734676,-0.08466479927301407,0.6615390777587891,0.00034755977685563266,-0.036395780742168427
163.0,210.0,7.4453,-3.6371,6.076,0.1358,0.3273,-0.1309,-1.889923711816305,-0.11996183544397354,3.3470957279205322,-0.9722862243652344,-0.0002688757667783648,2.0844950675964355,3.557813807124756,0.3955278992652893,0.45619168877601624,-1.66620380083193,-0.00022836907010059804,-0.04061991721391678,1.2743598222732544,-0.0007374976412393153,-0.0889739915728569,0.661578893661499,0.0010744624305516481,-0.07397142052650452
163.0,210.0,7.4453,-3.6371,6.076,0.1358,0.3273,-0.1309,-1.890754838983053,-0.11152384430170059,3.342353582382202,-0.972314178943634,0.00016570974548812956,2.1641342639923096,3.560980959529541,0.4235082268714905,0.48322659730911255,-1.6661837736712855,-0.00036992906825616956,-0.039230115711688995,1.2743360996246338,-0.0005567975458689034,-0.09542512893676758,0.6615789532661438,0.0011786954710260034,-0.015952106565237045
163.0,210.0,7.4453,-3.6371,6.076,0.1358,0.3273,-0.1309,-1.8913704357542933,-0.10892175137996674,3.31441068649292,-0.9723063111305237,2.2825091946288012e-05,2.1613271236419678,3.5636531549641113,0.4451732933521271,0.49755167961120605,-1.6662324110614222,-0.00045325871906243265,-0.03448168933391571,1.274463176727295,-0.00046442251186817884,-0.09239497780799866,0.6615308523178101,0.0018595154397189617,-0.01007180567830801
163.0,210.0,7.4453,-3.6371,6.076,0.1358,0.3273,-0.1309,-1.892205377618307,-0.09948239475488663,3.2830758094787598,-0.9723021984100342,7.39503944191533e-13,2.1089906692504883,3.5672051149555664,0.45428580045700073,0.4847026765346527,-1.6662357489215296,-0.0006870582583360374,-0.0365472212433815,1.2743637561798096,-0.00036914137308485806,-0.08789905905723572,0.6615548133850098,0.0018791916081681848,-0.007864076644182205
163.0,210.0,7.4453,-3.6371,6.076,0.1358,0.3273,-0.1309,-1.8927928409972132,-0.09522947669029236,3.347302198410034,-0.9723182320594788,1.7858149068966043e-18,2.081986904144287,3.569835825557373,0.4674420952796936,0.4972112476825714,-1.6662638823138636,-0.0006605088710784912,-0.04195712134242058,1.274383783340454,-0.00031992033473215997,-0.0746050477027893,0.6615909934043884,0.0019794125109910965,0.0476219579577446
163.0,210.0,7.4453,-3.6371,6.076,0.1358,0.3273,-0.1309,-1.8933774433531703,-0.09147489815950394,3.2971787452697754,-0.9723063111305237,4.3125325693181964e-24,2.167959690093994,3.5726629930683593,0.47264203429222107,0.5046294331550598,-1.6662638823138636,-0.0005607673665508628,-0.046290501952171326,1.274391531944275,-0.0002822842507157475,-0.0690007135272026,0.6615749001502991,0.002738477662205696,0.008944443427026272
173.0,201.0,6.1525,-3.1035,6.1508,0.1822,0.4414,-0.1403,-1.8940602741637171,-0.08819444477558136,3.3175711631774902,-0.9722981452941895,1.39720551582523e-31,2.074334144592285,3.576591654414795,0.48925554752349854,0.5094727277755737,-1.6662638823138636,-0.0004919712082482874,-0.04295976832509041,1.2743676900863647,-0.00024401136033702642,-0.07852304726839066,0.6616750359535217,0.0030060410499572754,-0.006558360531926155
173.0,201.0,6.1525,-3.1035,6.1508,0.1822,0.4414,-0.1403,-1.8945638142027796,-0.0849677324295044,3.31646990776062,-0.9723141193389893,3.3740872482125757e-37,2.0971121788024902,3.5794717508503417,0.4900854825973511,0.5089883804321289,-1.6662238279925745,-0.0004555988416541368,-0.05279674381017685,1.2743598222732544,-0.00022148946300148964,-0.07574361562728882,0.6616308689117432,0.0031845334451645613,0.04543374478816986
173.0,201.0,6.1525,-3.1035,6.1508,0.1822,0.4414,-0.1403,-1.8951717815794886,-0.07523863017559052,3.3578455448150635,-0.9722216725349426,-0.00015017889381852,2.1078200340270996,3.583559675807617,0.5047517418861389,0.5050307512283325,-1.6662634054767054,-0.0004211676132399589,-0.04643174633383751,1.2743948698043823,-0.00019721976423170418,-0.07266341149806976,0.6616629958152771,0.00341256451793015,0.08139244467020035
173.0,201.0,6.1525,-3.1035,6.1508,0.1822,0.4414,-0.1403,-1.8956157169737757,-0.06901919841766357,3.3903965950012207,-0.9722781181335449,-0.00018016340618487448,2.0942633152008057,3.5865561205097656,0.49601349234580994,0.5004624128341675,-1.6662595907794397,-0.0004540651571005583,-0.05121277645230293,1.2744113206863403,-0.0001594891946297139,-0.06876564025878906,0.6616869568824768,0.004234886262565851,0.09085376560688019
173.0,201.0,6.1525,-3.1035,6.1508,0.1822,0.4414,-0.1403,-1.8961192570128382,-0.06268840283155441,3.35329008102417,-0.9722372889518738,-0.00014220288721844554,2.104982376098633,3.5905119615742187,0.4996834993362427,0.5029115080833435,-1.6663039366351526,-0.0006449081702157855,-0.05388840287923813,1.2744028568267822,-0.0001448012626497075,-0.05908278748393059,0.6617797613143921,0.0060914927162230015,0.10137979686260223
173.0,201.0,6.1525,-3.1035,6.1508,0.1822,0.4414,-0.1403,-1.8965307674803675,-0.06269780546426773,3.3524675369262695,-0.9723100662231445,-0.00015887879999354482,2.0854344367980957,3.5934488016315917,0.4913479685783386,0.5010544657707214,-1.6662958304034632,-0.0008396034245379269,-0.06118037924170494,1.2744114398956299,-0.00013570234295912087,-0.06016802042722702,0.6617711186408997,0.008327511139214039,0.10142336785793304
173.0,201.0,6.1525,-3.1035,6.1508,0.1822,0.4414,-0.1403,-1.8969508610167445,-0.06111348047852516,3.3340351581573486,-0.9723467230796814,-5.691529077012092e-05,2.0897088050842285,3.597268267268799,0.4825594425201416,0.4922099709510803,-1.6663196722613733,-0.0008436110801994801,-0.054258380085229874,1.2744511365890503,-3.8327147194650024e-05,-0.05775179713964462,0.6618832945823669,0.00992651004344225,0.12801435589790344
173.0,201.0,6.1525,-3.1035,6.1508,0.1822,0.4414,-0.1403,-1.8972703419127406,-0.05989652872085571,3.3635759353637695,-0.9723261594772339,-0.00016271928325295448,2.093733310699463,3.6001006799885253,0.46159544587135315,0.48983311653137207,-1.6662915388690394,-0.0008099281112663448,-0.06705892086029053,1.2743717432022095,-1.832196176110301e-05,-0.05687388777732849,0.6619152426719666,0.011942051351070404,0.12781214714050293
173.0,201.0,6.1525,-3.1035,6.1508,0.1822,0.4414,-0.1403,-1.8977424106993617,-0.0558413602411747,3.33302640914917,-0.9722899198532104,-2.6713631307018204e-09,2.1091160774230957,3.60368458806958,0.4484504759311676,0.48920387029647827,-1.6663439909564417,-0.0010652912314981222,-0.06831344962120056,1.2744156122207642,-1.6677066014381126e-05,-0.04229734092950821,0.6620231866836548,0.013637641444802284,0.13498196005821228
187.0,210.0,5.0716,-3.0455,6.1908,0.1327,0.3085,-0.1287,-1.89809050182485,-0.05066787078976631,3.32818865776062,-0.9723261594772339,-6.451027066727748e-15,2.0857629776000977,3.606342001552246,0.4243018329143524,0.4636225998401642,-1.6663396994220179,-0.00286288745701313,-0.06713467836380005,1.2744194269180298,-1.8000239521143158e-08,-0.048129428178071976,0.6620834469795227,0.015194982290267944,0.10616354644298553
187.0,210.0,5.0716,-3.0455,6.1908,0.1327,0.3085,-0.1287,-1.8983856640257777,-0.048232872039079666,3.3081820011138916,-0.9723343253135681,-1.5578473421970166e-20,2.0701658725738525,3.6087142664143066,0.40372103452682495,0.4607895016670227,-1.6663554350482386,-0.007998405024409294,-0.06037028133869171,1.274423360824585,-5.0104330406863795e-12,-0.049757737666368484,0.662211537361145,0.01734587550163269,0.12477488070726395
187.0,210.0,5.0716,-3.0455,6.1908,0.1327,0.3085,-0.1287,-1.8987494907774867,-0.04454401135444641,3.32863450050354,-0.9722856879234314,-0.0005743333022110164,2.0948617458343506,3.6117307382770996,0.3731271028518677,0.44676029682159424,-1.6664632002459925,-0.013377374038100243,-0.07285545766353607,1.274387001991272,-9.106216296637018e-17,-0.0397893525660038,0.6623478531837463,0.02092690020799637,0.1635417938232422
187.0,210.0,5.0716,-3.0455,6.1908,0.1327,0.3085,-0.1287,-1.8990336857237757,-0.040159646421670914,3.3687233924865723,-0.9723623394966125,-0.001573449932038784,2.101935386657715,3.6137921053120117,0.3282714784145355,0.4254818558692932,-1.6665714422809046,-0.010610421188175678,-0.07458851486444473,1.2744472026824951,-2.534748776533136e-20,-0.0293412022292614,0.6624515652656555,0.023111388087272644,0.13694413006305695
187.0,210.0,5.0716,-3.0455,6.1908,0.1327,0.3085,-0.1287,-1.8992849789061488,-0.03240266069769859,3.3732614517211914,-0.9723866581916809,-0.001469764276407659,2.0935425758361816,3.616161032313965,0.27152392268180847,0.3856785297393799,-1.6666386763202112,-0.006388175766915083,-0.05927892029285431,1.2744472026824951,0.0003130200202576816,-0.0448879674077034,0.6626721024513245,0.025227053090929985,0.2046581506729126
187.0,210.0,5.0716,-3.0455,6.1908,0.1327,0.3085,-0.1287,-1.8994161091246546,-0.026052337139844894,3.3779749870300293,-0.9723458886146545,-0.002324584173038602,2.0802559852600098,3.6175991731831054,0.22449564933776855,0.36555224657058716,-1.6666505972491663,-0.0040605938993394375,-0.06396880745887756,1.2744591236114502,0.0005322349024936557,-0.036663565784692764,0.6627960205078125,0.026001349091529846,0.18774782121181488
187.0,210.0,5.0716,-3.0455,6.1908,0.1327,0.3085,-0.1287,-1.8996602497496546,-0.020211415365338326,3.383213520050049,-0.9723697304725647,-0.0028726065065711737,2.0670769214630127,3.61900441228833,0.14257767796516418,0.3594565689563751,-1.6666987578021448,-0.002452165586873889,-0.055085189640522,1.2743995189666748,0.0006220906507223845,-0.027101820334792137,0.6630401015281677,0.026747198775410652,0.20848307013511658
187.0,210.0,5.0716,-3.0455,6.1908,0.1327,0.3085,-0.1287,-1.899792810479635,-0.015497790649533272,3.376297950744629,-0.9724216461181641,-0.003283052472397685,2.0848066806793213,3.619539423579834,0.05972912162542343,0.2933535873889923,-1.6666987578021448,-0.002773743122816086,-0.07207740098237991,1.2744988203048706,0.0005218319711275399,-0.012554840184748173,0.6631803512573242,0.027538210153579712,0.19298994541168213
198.0,211.0,6.0419,-3.9099,6.3787,-0.0809,-0.1726,-0.0594,-1.8998118839659632,-0.0086908470839262,3.397794485092163,-0.972486138343811,-0.0029655471444129944,2.0351905822753906,3.619514151210449,-0.03135889768600464,0.25139468908309937,-1.6667421499835413,-0.00518695218488574,-0.08315582573413849,1.274455189704895,0.00042605624184943736,-0.02136204019188881,0.6634002327919006,0.028998082503676414,0.22476893663406372
198.0,211.0,6.0419,-3.9099,6.3787,-0.0809,-0.1726,-0.0594,-1.8999043903746546,-0.0036599242594093084,3.4081647396087646,-0.972465991973877,-0.002949229907244444,2.095407009124756,3.619218035335205,-0.07369829714298248,0.23621627688407898,-1.6668108145343226,-0.0090465247631073,-0.08363838493824005,1.2744868993759155,0.00036565877962857485,-0.006848189514130354,0.6636248230934143,0.029984256252646446,0.2060152143239975
198.0,211.0,6.0419,-3.9099,6.3787,-0.0809,-0.1726,-0.0594,-1.8998719654478968,-0.001138995517976582,3.415794610977173,-0.9724656343460083,-0.003818529425188899,2.090073823928833,3.6184870439716796,-0.11008351296186447,0.20415233075618744,-1.6669390837298792,-0.010930842719972134,-0.08494985103607178,1.274455189704895,0.0003391331702005118,-0.026127051562070847,0.6638890504837036,0.03267214074730873,0.2643641233444214
198.0,211.0,6.0419,-3.9099,6.3787,-0.0809,-0.1726,-0.0594,-1.8998919926085414,-0.0007660894771106541,3.4036812782287598,-0.9724656939506531,-0.003748138900846243,2.062685966491699,3.617738886470459,-0.11536096036434174,0.21778926253318787,-1.666973892842428,-0.011497926898300648,-0.08642619103193283,1.2744511365890503,0.0002438588853692636,-0.021458443254232407,0.6640770435333252,0.03469130024313927,0.27120205760002136
198.0,211.0,6.0419,-3.9099,6.3787,-0.0809,-0.1726,-0.0594,-1.8998643360533656,-0.0005414006300270557,3.4578752517700195,-0.972554087638855,-0.003391216043382883,2.028848886489868,3.6171156603046875,-0.1084209680557251,0.20312055945396423,-1.6670621077166956,-0.010997866280376911,-0.09844613075256348,1.27443528175354,0.0002069686888717115,-0.0020624573808163404,0.6643219590187073,0.0370408371090889,0.27591755986213684
198.0,211.0,6.0419,-3.9099,6.3787,-0.0809,-0.1726,-0.0594,-1.8998242817320765,-0.0004028758266940713,3.4146502017974854,-0.9726182222366333,-0.0039512887597084045,2.061288595199585,3.616297407741211,-0.10039809346199036,0.2267533242702484,-1.667121712361471,-0.00957980565726757,-0.09995802491903305,1.2744709253311157,0.00020976118685211986,-0.012195957824587822,0.6646257638931274,0.04133540391921997,0.2883315086364746
198.0,211.0,6.0419,-3.9099,6.3787,-0.0809,-0.1726,-0.0594,-1.8998319111266078,-0.0001012781576719135,3.419343948364258,-0.972597599029541,-0.0036213831044733524,2.001523733139038,3.615633650416992,-0.11425097286701202,0.2136560082435608,-1.6671927610980433,-0.00883123092353344,-0.1076844185590744,1.2744948863983154,0.0002170592051697895,-0.007582578808069229,0.6648858785629272,0.04550600051879883,0.3517407774925232
198.0,211.0,6.0419,-3.9099,6.3787,-0.0809,-0.1726,-0.0594,-1.89988436321401,-8.266898657893762e-05,3.3968844413757324,-0.9726415872573853,-0.002865100046619773,1.9886219501495361,3.6146389681049804,-0.12400916963815689,0.19302049279212952,-1.6672609488116663,-0.00868933741003275,-0.09824234247207642,1.2744992971420288,0.0001923997770063579,-0.00740321958437562,0.6652982234954834,0.05261944234371185,0.3701392412185669
191.0,211.0,4.9699,-4.0391,7.2108,-0.0501,-0.0742,-0.0321,-1.8998362026610316,-7.265746535267681e-05,3.4409215450286865,-0.9726535677909851,-0.0031503827776759863,2.036224365234375,3.6139604288288574,-0.11696237325668335,0.1971285045146942,-1.6673286596881312,-0.010133125819265842,-0.1111828088760376,1.2744829654693604,0.00020141417917329818,0.0015876628458499908,0.6656304001808167,0.058042898774147034,0.4045185446739197
191.0,211.0,4.9699,-4.0391,7.2108,-0.0501,-0.0742,-0.0321,-1.8997999630370082,-6.25566317467019e-05,3.4117441177368164,-0.9727218747138977,-0.004813206382095814,2.0248870849609375,3.613048716182373,-0.09912760555744171,0.20797282457351685,-1.667412583027975,-0.012049773707985878,-0.1085684522986412,1.2745028734207153,0.00018171117699239403,0.007747335359454155,0.6660828590393066,0.06412412971258163,0.41509661078453064
191.0,211.0,4.9699,-4.0391,7.2108,-0.0501,-0.0742,-0.0321,-1.899816175500387,-5.665000935550779e-05,3.362924098968506,-0.9727213978767395,-0.005611710716038942,2.0152573585510254,3.612445517177246,-0.1105245053768158,0.20215487480163574,-1.6675122419940394,-0.013452365063130856,-0.11965598165988922,1.2745033502578735,0.00018059511785395443,-0.008520332165062428,0.6665471792221069,0.067741259932518,0.3843004107475281
191.0,211.0,4.9699,-4.0391,7.2108,-0.0501,-0.0742,-0.0321,-1.8998285732665003,-2.5157869458780624e-05,3.365237236022949,-0.9727374315261841,-0.004913438577204943,1.9662059545516968,3.611490412349365,-0.13414517045021057,0.18243025243282318,-1.6676481405841272,-0.017105409875512123,-0.12338989973068237,1.2744908332824707,0.0001861911587184295,-0.006720014847815037,0.6671397686004639,0.07294740527868271,0.45141837000846863
191.0,211.0,4.9699,-4.0391,7.2108,-0.0501,-0.0742,-0.0321,-1.8997956715025843,-9.329742169938982e-07,3.4106459617614746,-0.9727891683578491,-0.004304477479308844,1.9809808731079102,3.6106430727192382,-0.12780265510082245,0.1856118142604828,-1.667779270802633,-0.02403976395726204,-0.13572607934474945,1.2744907140731812,0.00016918513574637473,0.0051253847777843475,0.6676084399223328,0.08067576587200165,0.45884281396865845
191.0,211.0,4.9699,-4.0391,7.2108,-0.0501,-0.0742,-0.0321,-1.8998404941954554,-3.022718387439907e-14,3.371260166168213,-0.9727925062179565,-0.006228496320545673,1.9941742420196533,3.6096440988728027,-0.11246207356452942,0.1841796338558197,-1.6680477301227015,-0.043120525777339935,-0.13893666863441467,1.2744790315628052,0.0001689059572527185,-0.004335440695285797,0.668292760848999,0.08870145678520203,0.49337679147720337
191.0,211.0,4.9699,-4.0391,7.2108,-0.0501,-0.0742,-0.0321,-1.8997436962523402,-7.299510245436745e-20,3.37088680267334,-0.9728650450706482,-0.006538663990795612,1.960310935974121,3.6090289789387207,-0.11503765732049942,0.20608718693256378,-1.6684187094317835,-0.07083465903997421,-0.15370655059814453,1.27446711063385,0.00016187585424631834,-0.007376033812761307,0.6688747406005859,0.09428415447473526,0.5326489806175232
191.0,211.0,4.9699,-4.0391,7.2108,-0.0501,-0.0742,-0.0321,-1.8998166523375453,-1.762745807754668e-25,3.337184190750122,-0.9729337096214294,-0.006955076940357685,1.9308298826217651,3.6082779604145507,-0.13304539024829865,0.18216057121753693,-1.668973747883932,-0.12090760469436646,-0.16122066974639893,1.2744790315628052,0.00016084355593193322,-0.00047139020171016455,0.6694630980491638,0.09576720744371414,0.47443705797195435
191.0,211.0,4.9699,-4.0391,7.2108,-0.0501,-0.0742,-0.0321,-1.8998528919615687,-5.7110717125449116e-33,3.339122772216797,-0.9729694724082947,-0.006663753185421228,1.9806749820709229,3.607094927425049,-0.1474371999502182,0.16418394446372986,-1.6703146139727991,-0.1870693564414978,-0.19726085662841797,1.2745033502578735,0.0001567989820614457,0.011857649311423302,0.6702547073364258,0.09879761934280396,0.5136393904685974
184.0,204.0,3.9751,-3.9344,6.8883,0.2193,-0.2863,-0.0202,-1.8997956715025843,-1.3791568275497135e-38,3.377077102661133,-0.9729769229888916,-0.007025662809610367,1.9408519268035889,3.606191797847412,-0.14561307430267334,0.17789848148822784,-1.671539608632223,-0.20437927544116974,-0.2060137391090393,1.2744828462600708,0.0001566172286402434,0.00887312088161707,0.6708670854568481,0.10691920667886734,0.5154270529747009
184.0,204.0,3.9751,-3.9344,6.8883,0.2193,-0.2863,-0.0202,-1.899804254571432,-0.0,3.341625452041626,-0.9730886220932007,-0.009732076898217201,1.9088494777679443,3.604949637050293,-0.18595337867736816,0.1471303105354309,-1.673516575490133,-0.2789808511734009,-0.22560441493988037,1.274474859237671,0.00014521794219035655,0.0019503766670823097,0.6717801690101624,0.11725103110074997,0.5212569832801819
184.0,204.0,3.9751,-3.9344,6.8883,0.2193,-0.2863,-0.0202,-1.8998080692686976,0.0,3.3475465774536133,-0.9730557203292847,-0.010503009893000126,1.9644466638565063,3.603726549739502,-0.2029844969511032,0.1367708146572113,-1.6752131620990198,-0.2944011390209198,-0.23535841703414917,1.2744709253311157,0.0001323993201367557,0.0014487094013020396,0.6725143790245056,0.12559086084365845,0.5011179447174072
184.0,204.0,3.9751,-3.9344,6.8883,0.2193,-0.2863,-0.0202,-1.8998123608031214,0.0,3.308882713317871,-0.9732405543327332,-0.012571485713124275,1.9311041831970215,3.602064295406006,-0.21474018692970276,0.1316370666027069,-1.6779268423663538,-0.35751840472221375,-0.24554264545440674,1.274463176727295,0.00011845707922475412,0.007509713526815176,0.6735372543334961,0.14358225464820862,0.501906156539917
184.0,204.0,3.9751,-3.9344,6.8883,0.2193,-0.2863,-0.0202,-1.8998290501036585,0.0,3.3546831607818604,-0.9732845425605774,-0.014721372164785862,1.9216173887252808,3.600641890163086,-0.24077224731445312,0.11672915518283844,-1.6801665464984339,-0.4022659957408905,-0.266458660364151,1.2745033502578735,0.00010978650243487209,0.0023215007968246937,0.6744382977485657,0.14753785729408264,0.5323144197463989
184.0,204.0,3.9751,-3.9344,6.8883,0.2193,-0.2863,-0.0202,-1.8998123608031214,0.0,3.4014081954956055,-0.9734358191490173,-0.017255250364542007,1.8777375221252441,3.598658724422119,-0.25520995259284973,0.12028644979000092,-1.6834610144244593,-0.43626639246940613,-0.27825433015823364,1.2745510339736938,0.00010002489580074325,0.014335901476442814,0.6755973100662231,0.14220328629016876,0.4605349004268646
184.0,204.0,3.9751,-3.9344,6.8883,0.2193,-0.2863,-0.0202,-1.8997756443419398,0.0,3.4190571308135986,-0.9735435247421265,-0.020128650590777397,1.9016661643981934,3.5969649988361816,-0.2920485734939575,0.08345835655927658,-1.6861537138568323,-0.46197831630706787,-0.2828521728515625,1.2745107412338257,9.377169772051275e-05,-0.001532668829895556,0.6764622926712036,0.1420254409313202,0.4338480830192566
184.0,204.0,3.9751,-3.9344,6.8883,0.2193,-0.2863,-0.0202,-1.8998285732665003,0.0,3.36981463432312,-0.9737032055854797,-0.023293757811188698,1.910455584526062,3.594522638911865,-0.31601619720458984,0.07802298665046692,-1.6900423208819788,-0.4986855387687683,-0.2737124562263489,1.2745312452316284,8.655673445900902e-05,-0.0021311708260327578,0.6775751113891602,0.14126481115818024,0.3568081259727478
173.0,200.0,5.6871,-2.9444,5.4329,0.3937,-0.7068,0.0292,-1.8998681507506312,0.0,3.3961002826690674,-0.9737949371337891,-0.027161210775375366,1.918337345123291,3.592597170467041,-0.33140474557876587,0.07915055751800537,-1.6930978933917444,-0.5203163027763367,-0.2634332776069641,1.2745273113250732,8.183452155208215e-05,-0.002970887813717127,0.6784356236457825,0.14903384447097778,0.2870676517486572
173.0,200.0,5.6871,-2.9444,5.4329,0.3937,-0.7068,0.0292,-1.8998486004271449,0.0,3.425431728363037,-0.9739664196968079,-0.029509499669075012,1.8860585689544678,3.5906197267719726,-0.3556792140007019,0.05627742409706116,-1.696273152028219,-0.5313955545425415,-0.24210478365421295,1.274463176727295,7.76008382672444e-05,0.0029355953447520733,0.6793286204338074,0.15940430760383606,0.2860397696495056
173.0,200.0,5.6871,-2.9444,5.4329,0.3937,-0.7068,0.0292,-1.8997837505736292,0.0,3.4298157691955566,-0.974254310131073,-0.03212732821702957,1.8894143104553223,3.58781020223584,-0.36604228615760803,0.03818095475435257,-1.7006476561175745,-0.5501220226287842,-0.25622278451919556,1.2744749784469604,5.810719812870957e-05,0.004120801575481892,0.6805739998817444,0.15713463723659515,0.23121044039726257
173.0,200.0,5.6871,-2.9444,5.4329,0.3937,-0.7068,0.0292,-1.8997837505736292,8.820443326840177e-05,3.4717912673950195,-0.9744460582733154,-0.03140566498041153,1.8247897624969482,3.585512800807617,-0.3771418333053589,0.05478143319487572,-1.7038586775409144,-0.5386318564414978,-0.2502738833427429,1.27446711063385,5.5393924412783235e-05,0.007291210349649191,0.6814783215522766,0.14340563118457794,0.18545353412628174
173.0,200.0,5.6871,-2.9444,5.4329,0.3937,-0.7068,0.0292,-1.899804254571432,8.498860552208498e-05,3.459901809692383,-0.9746574759483337,-0.03314134478569031,1.9337807893753052,3.582367106074951,-0.40029841661453247,0.037778209894895554,-1.7081807295428675,-0.5426396131515503,-0.24236442148685455,1.2744749784469604,5.218214209889993e-05,-0.0017003463581204414,0.6825145483016968,0.12837530672550201,0.12948696315288544
173.0,200.0,5.6871,-2.9444,5.4329,0.3937,-0.7068,0.0292,-1.8997999630370082,8.043144043767825e-05,3.4908664226531982,-0.9748693704605103,-0.03212627395987511,1.8993690013885498,3.5799547868916015,-0.4073543846607208,0.025055069476366043,-1.7112873236285608,-0.5281662344932556,-0.2190069705247879,1.2744630575180054,5.000757664674893e-05,-0.01883181929588318,0.6833316683769226,0.12867458164691925,0.11386549472808838
173.0,200.0,5.6871,-2.9444,5.4329,0.3937,-0.7068,0.0292,-1.8998242817320765,6.005183968227357e-05,3.499810218811035,-0.9751723408699036,-0.03785908594727516,1.8612895011901855,3.5766984659382324,-0.4174959063529968,0.02457798644900322,-1.7152898947345179,-0.5110449194908142,-0.22688226401805878,1.27444326877594,3.553316491888836e-05,0.0015604482032358646,0.6843927502632141,0.1371096521615982,0.09899908304214478
173.0,200.0,5.6871,-2.9444,5.4329,0.3937,-0.7068,0.0292,-1.8998242817320765,5.7189918152289465e-05,3.492156505584717,-0.9753755927085876,-0.04174485430121422,1.895559549331665,3.574193163509033,-0.4190322458744049,0.020158369094133377,-1.71820575395693,-0.49017661809921265,-0.22164875268936157,1.2743996381759644,3.418195046833716e-05,-0.0060806842520833015,0.6851686835289001,0.14071959257125854,0.1545645296573639
156.0,193.0,7.1982,-0.2369,5.5651,0.1831,-0.5993,0.0104,-1.8997999630370082,5.3773008403368294e-05,3.4623260498046875,-0.9757308959960938,-0.0471632182598114,1.8141952753067017,3.570831461543701,-0.4251842796802521,0.021729953587055206,-1.7219460646258753,-0.4613950252532959,-0.2028091996908188,1.274474859237671,-2.985041464853566e-05,-0.014744117856025696,0.6862741708755493,0.1358136683702469,0.11646764725446701
156.0,193.0,7.1982,-0.2369,5.5651,0.1831,-0.5993,0.0104,-1.8997718296446742,4.185318903182633e-05,3.505204677581787,-0.9759983420372009,-0.050683487206697464,1.9179682731628418,3.5682436662861328,-0.4296970069408417,0.02073816955089569,-1.7243955771075647,-0.420418918132782,-0.19984176754951477,1.2744669914245605,-3.0399844035855494e-05,-0.0001725880429148674,0.6870231032371521,0.11909955739974976,0.07142074406147003
156.0,193.0,7.1982,-0.2369,5.5651,0.1831,-0.5993,0.0104,-1.899804254571432,3.528832894517109e-05,3.4814343452453613,-0.9763891100883484,-0.05838747322559357,1.832106590270996,3.5648204523273925,-0.4322083592414856,0.01989074982702732,-1.7274706999408167,-0.3694169521331787,-0.17564460635185242,1.2744591236114502,-4.247165270498954e-05,-0.013814740814268589,0.6878589987754822,0.09455817937850952,0.047573234885931015
156.0,193.0,7.1982,-0.2369,5.5651,0.1831,-0.5993,0.0104,-1.8998123608031214,3.157414175802842e-05,3.515169620513916,-0.9767929315567017,-0.06520771980285645,1.8530402183532715,3.5622727113911132,-0.4403442442417145,0.01145070418715477,-1.729621712361471,-0.3146856427192688,-0.14309820532798767,1.2743909358978271,-4.077945413882844e-05,-0.019173217937350273,0.688427746295929,0.08668309450149536,-0.05536385625600815
156.0,193.0,7.1982,-0.2369,5.5651,0.1831,-0.5993,0.0104,-1.899747987786764,2.8567448680405505e-05,3.505098342895508,-0.9771955013275146,-0.07111817598342896,1.8186349868774414,3.5596725183674316,-0.42890265583992004,0.018963301554322243,-1.7312544027911585,-0.2714807093143463,-0.12992329895496368,1.2744947671890259,-5.190334559301846e-05,-0.021582499146461487,0.6890047192573547,0.08778168261051178,-0.007086016703397036
156.0,193.0,7.1982,-0.2369,5.5651,0.1831,-0.5993,0.0104,-1.8997999630370082,2.5348937924718484e-05,3.4745068550109863,-0.977729856967926,-0.07265334576368332,1.8562124967575073,3.5564657884785156,-0.4161287844181061,0.04166270047426224,-1.7330859343158167,-0.19107766449451447,-0.09640474617481232,1.274466872215271,-4.917380283586681e-05,-0.02131113037467003,0.6896366477012634,0.08864632248878479,-0.025296233594417572
156.0,193.0,7.1982,-0.2369,5.5651,0.1831,-0.5993,0.0104,-1.8997999630370082,2.3373868316411972e-05,3.496903896331787,-0.9781531691551208,-0.06825489550828934,1.8522287607192993,3.5539585787006835,-0.395991712808609,0.05237371474504471,-1.734053913746969,-0.1512434482574463,-0.0663544237613678,1.274371862411499,-5.904423596803099e-05,-0.027155866846442223,0.6902094483375549,0.08748195320367813,0.04664325341582298
156.0,193.0,7.1982,-0.2369,5.5651,0.1831,-0.5993,0.0104,-1.899844308892721,3.9994714207125526e-09,3.483501672744751,-0.9787400364875793,-0.061889681965112686,1.8900052309036255,3.5508267122456054,-0.3696563243865967,0.05217675864696503,-1.7350876967059534,-0.10753796249628067,-0.06940120458602905,1.2744314670562744,-0.000176369707332924,-0.030228959396481514,0.6908096075057983,0.08496760576963425,-0.04089898616075516
137.0,191.0,9.0084,-2.6369,4.5452,-0.3212,-0.2651,-0.0197,-1.8998438320555628,9.658254217551586e-15,3.4768590927124023,-0.9790987372398376,-0.05929715558886528,1.8934152126312256,3.548595114345215,-0.3604833781719208,0.056497134268283844,-1.7354748884784144,-0.03519287332892418,-0.052907735109329224,1.2744035720825195,-0.00015958092990331352,-0.030955638736486435,0.6913021206855774,0.08036325126886368,-0.03309270739555359
137.0,191.0,9.0084,-2.6369,4.5452,-0.3212,-0.2651,-0.0197,-1.8999043903746546,-0.001499913982115686,3.4953198432922363,-0.9795820116996765,-0.06091975048184395,1.9258227348327637,3.545923872584961,-0.33308297395706177,0.07457008957862854,-1.73533803621401,0.04641621559858322,-0.01621672697365284,1.2744154930114746,-0.0001397550367983058,-0.032735489308834076,0.6919750571250916,0.07103173434734344,-0.014587466605007648
137.0,191.0,9.0084,-2.6369,4.5452,-0.3212,-0.2651,-0.0197,-1.8999158344664515,-0.0023896577768027782,3.522716522216797,-0.979928731918335,-0.06385849416255951,1.8641536235809326,3.5440890032001953,-0.3040255904197693,0.07943213731050491,-1.7349498907672327,0.07113021612167358,-0.0017330670962110162,1.2744115591049194,-0.00015335249190684408,-0.033714957535266876,0.6923428177833557,0.06299304962158203,-0.06333358585834503
137.0,191.0,9.0084,-2.6369,4.5452,-0.3212,-0.2651,-0.0197,-1.8999482593932093,-0.0021541353780776262,3.5659141540527344,-0.9804556369781494,-0.06716534495353699,1.8417829275131226,3.541705294246338,-0.27989843487739563,0.08659534901380539,-1.734546963368551,0.05427753925323486,0.0019234984647482634,1.2743996381759644,-0.00013775592378806323,-0.035410039126873016,0.6928228139877319,0.05501170828938484,-0.07027468085289001
137.0,191.0,9.0084,-2.6369,4.5452,-0.3212,-0.2651,-0.0197,-1.8999601803221644,-0.0012436960823833942,3.5423898696899414,-0.9809025526046753,-0.07038168609142303,1.8820699453353882,3.5402743059345703,-0.23583784699440002,0.12373596429824829,-1.734330956135885,0.0163864828646183,-0.021219560876488686,1.2743910551071167,-0.00012796239752788097,-0.04725347459316254,0.6931393146514893,0.05216914042830467,-0.06781536340713501
137.0,191.0,9.0084,-2.6369,4.5452,-0.3212,-0.2651,-0.0197,-1.8999363384642542,-0.00024454525555483997,3.548781156539917,-0.9814332127571106,-0.07630255818367004,1.8648130893707275,3.5385424333759765,-0.1859854906797409,0.13633613288402557,-1.7343228499041956,-0.01937243901193142,-0.03238067775964737,1.2744154930114746,-0.00011688287486322224,-0.03492337837815285,0.6935030817985535,0.04916262999176979,-0.0406048484146595
137.0,191.0,9.0084,-2.6369,4.5452,-0.3212,-0.2651,-0.0197,-1.899907728234762,-9.053772373590618e-05,3.543915271759033,-0.9818680286407471,-0.08109428733587265,1.8989605903625488,3.5377117830463867,-0.12519624829292297,0.16393154859542847,-1.7344430128680628,-0.02294677309691906,-0.029946081340312958,1.2743839025497437,-0.00010975571785820648,-0.03169076144695282,0.6937915086746216,0.04550197720527649,-0.06873150169849396
137.0,191.0,9.0084,-2.6369,4.5452,-0.3212,-0.2651,-0.0197,-1.899912496606344,-6.734555790899321e-05,3.556262493133545,-0.9823549389839172,-0.08314122259616852,1.842820644378662,3.5371081072041015,-0.07563517987728119,0.19860723614692688,-1.7345312277423304,-0.012837872840464115,-0.03583308309316635,1.2744709253311157,-0.00010344780457671732,-0.05058114975690842,0.6939992904663086,0.040597014129161835,-0.09073414653539658
137.0,191.0,9.0084,-2.6369,4.5452,-0.3212,-0.2651,-0.0197,-1.8998714886107386,-5.182944005355239e-05,3.553786516189575,-0.98302161693573,-0.0808694139122963,1.8538219928741455,3.5367209154316406,-0.03837709128856659,0.19994285702705383,-1.7345870176898401,-3.529806053848006e-05,-0.02330813556909561,1.2744193077087402,-9.60848483373411e-05,-0.03430328890681267,0.694307267665863,0.03558776155114174,-0.05680093914270401
134.0,193.0,8.053,-2.9438,5.1978,-0.0168,-0.1208,-0.1034,-1.8999401531615199,-8.838366193231195e-05,3.5174241065979004,-0.9834882020950317,-0.07592722773551941,1.9322302341461182,3.5365969377705078,-0.017856644466519356,0.22376461327075958,-1.73456317583193,0.001738645019941032,-0.027074012905359268,1.2743910551071167,-0.0001061579750967212,-0.04340840131044388,0.6945522427558899,0.031316373497247696,-0.09512405842542648
134.0,193.0,8.053,-2.9438,5.1978,-0.0168,-0.1208,-0.1034,-1.8999396763243617,-0.00016223509737756103,3.531108856201172,-0.9840301871299744,-0.06757517904043198,1.9585239887237549,3.536585493678711,-0.0001242996077053249,0.25634440779685974,-1.734591309224264,0.0005438056541606784,-0.026630409061908722,1.2744630575180054,-9.96829112409614e-05,-0.05472121015191078,0.6948599815368652,0.032452650368213654,-0.04384678602218628
134.0,193.0,8.053,-2.9438,5.1978,-0.0168,-0.1208,-0.1034,-1.8999635181822718,-0.004530932754278183,3.504544734954834,-0.9844534397125244,-0.06286247074604034,1.9398274421691895,3.5365287500568847,0.0014685782371088862,0.25754421949386597,-1.734535042439596,0.0003739180974662304,-0.026230085641145706,1.2743791341781616,-9.516549471300095e-05,-0.04156455397605896,0.6950841546058655,0.03374209627509117,-0.05931505560874939
134.0,193.0,8.053,-2.9438,5.1978,-0.0168,-0.1208,-0.1034,-1.9000560245909632,-0.008651508018374443,3.5085744857788086,-0.9849161505699158,-0.05657079815864563,1.997220516204834,3.5365487772175292,0.000710048305336386,0.25241029262542725,-1.734546963368551,0.0002640800958033651,-0.03609167039394379,1.2744193077087402,-8.974297816166654e-05,-0.03707878291606903,0.6953645348548889,0.03693515062332153,-0.048424966633319855
134.0,193.0,8.053,-2.9438,5.1978,-0.0168,-0.1208,-0.1034,-1.9001037083067835,-0.009776143357157707,3.5280189514160156,-0.985183596611023,-0.050622858107089996,1.9127604961395264,3.5366455751606445,0.0006985279032960534,0.254140168428421,-1.7345388571368616,0.00021642271894961596,-0.038839615881443024,1.2744234800338745,-8.606494520790875e-05,-0.04799286276102066,0.6955645680427551,0.03807841241359711,-0.013358311727643013
134.0,193.0,8.053,-2.9438,5.1978,-0.0168,-0.1208,-0.1034,-1.90020813564443,-0.008721600286662579,3.4986791610717773,-0.9856030344963074,-0.04383966326713562,2.0524444580078125,3.5365606981464843,0.0005908263265155256,0.2640983462333679,-1.734551254902975,8.026493742363527e-05,-0.03539561107754707,1.2744431495666504,-8.160569268511608e-05,-0.042216815054416656,0.6958851218223572,0.03893807530403137,-0.038986463099718094
134.0,193.0,8.053,-2.9438,5.1978,-0.0168,-0.1208,-0.1034,-1.9002276859679164,-0.007551010698080063,3.559475898742676,-0.9858459830284119,-0.04003974795341492,1.9934415817260742,3.536633177394531,0.0020097338128834963,0.2736636996269226,-1.7345436255084437,4.045773312100209e-05,-0.03630381077528,1.2743791341781616,-7.855306466808543e-05,-0.03339517489075661,0.6961051821708679,0.03971298038959503,-0.039695803076028824
134.0,193.0,8.053,-2.9438,5.1978,-0.0168,-0.1208,-0.1034,-1.9003201923766078,-0.009117311798036098,3.538477897644043,-0.9861088395118713,-0.037315770983695984,2.003107786178589,3.536620779628418,0.003038437571376562,0.2720704674720764,-1.7345436255084437,3.428391573834233e-05,-0.04652160406112671,1.2745064496994019,-7.482137880288064e-05,-0.04380003362894058,0.6964259147644043,0.04234292730689049,-0.005508593283593655
