ramyac6/ROB537/final_project/csv/test/good/good_123.csv
tof_0,tof_1,accelx,accely,accelz,gyrox,gyroy,gyroz,shoulder_lift_joint_position,shoulder_lift_joint_velocity,shoulder_lift_joint_effort,elbow_joint_position,elbow_joint_velocity,elbow_joint_effort,wrist_1_joint_position,wrist_1_joint_velocity,wrist_1_joint_effort,wrist_2_joint_position,wrist_2_joint_velocity,wrist_2_joint_effort,wrist_3_joint_position,wrist_3_joint_velocity,wrist_3_joint_effort,shoulder_pan_joint_position,shoulder_pan_joint_velocity,shoulder_pan_joint_effort
468.0,494.0,2.6219,-0.7184,9.1041,-0.0348,0.0208,-0.1182,-1.6398364506163539,0.0,2.4030752182006836,-1.7606974840164185,-0.0,2.131709575653076,4.628169699306152,-0.0,0.2942237854003906,-1.5001266638385218,0.0,-0.027528749778866768,0.7492625713348389,0.0,-0.011112814769148827,0.7848517894744873,0.0,-0.021208642050623894
468.0,494.0,2.6219,-0.7184,9.1041,-0.0348,0.0208,-0.1182,-1.6398364506163539,0.0,2.4301133155822754,-1.7606934309005737,-0.0,2.1642541885375977,4.628194018001221,-0.0,0.28930047154426575,-1.5000937620746058,0.0,-0.013988987542688847,0.749310314655304,0.0,-0.004631817806512117,0.7848275899887085,0.0,-0.019313428550958633
468.0,494.0,2.6219,-0.7184,9.1041,-0.0348,0.0208,-0.1182,-1.639844080010885,0.0,2.4394819736480713,-1.7607182264328003,-0.0,2.092632293701172,4.628173990840576,-0.0,0.30893468856811523,-1.5001423994647425,0.0,-0.014324162155389786,0.749266505241394,0.0,0.002629806287586689,0.7848275899887085,0.0,0.03794209286570549
468.0,494.0,2.6219,-0.7184,9.1041,-0.0348,0.0208,-0.1182,-1.6398841343321742,0.0,2.400792121887207,-1.7606974840164185,-0.0,2.1531081199645996,4.628161593074463,-0.0,0.298845112323761,-1.5001300016986292,0.0,-0.008594746701419353,0.74924635887146,0.0,0.0024996509309858084,0.7848396301269531,0.0,0.029049158096313477
468.0,494.0,2.6219,-0.7184,9.1041,-0.0348,0.0208,-0.1182,-1.639860292474264,0.0,2.4500646591186523,-1.760733723640442,-0.0,2.171424388885498,4.628237887019775,-0.0,0.2981972396373749,-1.5000937620746058,0.0,-0.0145260039716959,0.7492585778236389,0.0,0.004663791507482529,0.7847874164581299,0.0,-0.01262182742357254
468.0,494.0,2.6219,-0.7184,9.1041,-0.0348,0.0208,-0.1182,-1.6398240528502406,0.0,2.3845949172973633,-1.7607377767562866,-0.0,2.1169519424438477,4.628161593074463,-0.0,0.2971726059913635,-1.5001018683062952,0.0,-0.018840305507183075,0.7492304444313049,0.0,0.0006911307573318481,0.7848196029663086,0.0,0.023781294003129005
468.0,494.0,2.6219,-0.7184,9.1041,-0.0348,0.0208,-0.1182,-1.639820238152975,0.0,2.436692714691162,-1.760662317276001,-0.0,2.199772357940674,4.628185911769531,-0.0,0.29576897621154785,-1.5001261870013636,0.0,-0.028615206480026245,0.7492905259132385,0.0,-0.0073769730515778065,0.784819483757019,0.0,0.026660915464162827
468.0,494.0,2.6219,-0.7184,9.1041,-0.0348,0.0208,-0.1182,-1.639872213403219,0.0,2.403102397918701,-1.7607295513153076,-0.0,2.1310243606567383,4.628157778377197,-0.0,0.3011133372783661,-1.500146214162008,0.0,-0.024644600227475166,0.7493103742599487,0.0,-0.008423879742622375,0.7848074436187744,0.0,-0.012345647439360619
468.0,494.0,2.6219,-0.7184,9.1041,-0.0348,0.0208,-0.1182,-1.6398445568480433,0.0,2.4379324913024902,-1.7606778144836426,-0.0,2.1179513931274414,4.628141565913818,-0.0,0.29049572348594666,-1.5001385847674769,0.0,-0.012100836262106895,0.7492825388908386,0.0,-0.006344099994748831,0.7848114967346191,0.0,0.05275915190577507
433.0,498.0,2.677,-0.7005,8.985,-0.0386,0.0229,-0.119,-1.6398121319212855,0.0,2.4041452407836914,-1.7607057094573975,-0.0,2.1227424144744873,4.628185434932373,-0.0,0.3046363592147827,-1.500134293233053,0.0,-0.028383851051330566,0.7492504119873047,0.0,0.010981786996126175,0.7847673296928406,0.0,-0.02751869335770607
433.0,498.0,2.677,-0.7005,8.985,-0.0386,0.0229,-0.119,-1.639820238152975,0.0,2.431729316711426,-1.7607182264328003,-0.0,2.1548428535461426,4.628185911769531,-0.0,0.2976827621459961,-1.5001586119281214,0.0,-0.005421022418886423,0.7492625713348389,0.0,-0.0015181070193648338,0.7848073840141296,0.0,0.03640220686793327
433.0,498.0,2.677,-0.7005,8.985,-0.0386,0.0229,-0.119,-1.6398402653136195,0.0,2.4336719512939453,-1.760677695274353,-0.0,2.1572704315185547,4.6281654077717285,-0.0,0.2820701599121094,-1.5001142660724085,0.0,-0.01102586928755045,0.7492543458938599,0.0,0.016201477497816086,0.7848235368728638,0.0,0.03004472516477108
433.0,498.0,2.677,-0.7005,8.985,-0.0386,0.0229,-0.119,-1.6398641071715296,0.0,2.40305757522583,-1.7606655359268188,-0.0,2.17901349067688,4.628181620235107,-0.0,0.2971208691596985,-1.5001385847674769,0.0,-0.01329024787992239,0.7491823434829712,0.0,0.0001735142432153225,0.7847955226898193,0.0,-0.011276111006736755
433.0,498.0,2.677,-0.7005,8.985,-0.0386,0.0229,-0.119,-1.6398402653136195,0.0,2.4211130142211914,-1.7606892585754395,-0.0,2.127897262573242,4.628181620235107,-0.0,0.2840915322303772,-1.5001180807696741,0.0,-0.012594942934811115,0.749290406703949,0.0,-0.00507771922275424,0.7848275899887085,0.0,0.0022408668883144855
433.0,498.0,2.677,-0.7005,8.985,-0.0386,0.0229,-0.119,-1.6398560009398402,0.0,2.4190101623535156,-1.7606934309005737,-0.0,2.1343188285827637,4.628133459682129,-0.0,0.2967682182788849,-1.5001018683062952,0.0,-0.0017294094432145357,0.749254584312439,0.0,0.0022047932725399733,0.78477942943573,0.0,-0.04028185084462166
433.0,498.0,2.677,-0.7005,8.985,-0.0386,0.0229,-0.119,-1.6398402653136195,0.0,2.444861888885498,-1.7606852054595947,-0.0,2.1454787254333496,4.628201647395752,-0.0,0.29901134967803955,-1.500134293233053,0.0,-0.009473422542214394,0.7492784857749939,0.0,-0.008523261174559593,0.7848437428474426,0.0,0.03494639694690704
433.0,498.0,2.677,-0.7005,8.985,-0.0386,0.0229,-0.119,-1.6398240528502406,0.0,2.423826217651367,-1.7606542110443115,-0.0,2.1323981285095215,4.628169699306152,-0.0,0.30419933795928955,-1.5001385847674769,0.0,-0.02735866606235504,0.7492344975471497,0.0,-0.0073209782131016254,0.7848798036575317,0.0,0.03404189273715019
433.0,498.0,2.677,-0.7005,8.985,-0.0386,0.0229,-0.119,-1.63983215908193,0.0,2.4318408966064453,-1.7607097625732422,-0.0,2.1578943729400635,4.628181620235107,-0.0,0.291056752204895,-1.5001385847674769,0.0,-0.017961809411644936,0.7493183016777039,0.0,-0.008865945972502232,0.784835696220398,0.0,0.046146929264068604
433.0,498.0,2.677,-0.7005,8.985,-0.0386,0.0229,-0.119,-1.639872213403219,0.0,2.4474868774414062,-1.7606655359268188,-0.0,2.113187789916992,4.628181620235107,-0.0,0.2992236018180847,-1.5001304785357874,0.0,-0.021268580108880997,0.7493102550506592,0.0,0.004587376024574041,0.7847713232040405,0.0,0.005998012609779835
433.0,498.0,2.677,-0.7005,8.985,-0.0386,0.0229,-0.119,-1.6398278675475062,0.0,2.4082746505737305,-1.7606892585754395,-0.0,2.1616525650024414,4.628181620235107,-0.0,0.28499531745910645,-1.500122372304098,0.0,-0.009641013108193874,0.7492625713348389,0.0,-0.0009070788510143757,0.7847874164581299,0.0,0.00988294929265976
433.0,498.0,2.677,-0.7005,8.985,-0.0386,0.0229,-0.119,-1.639860292474264,0.0,2.3787336349487305,-1.7607377767562866,-0.0,2.13028621673584,4.628197832698486,-0.0,0.299445241689682,-1.5001180807696741,0.0,-0.014654424041509628,0.74924635887146,0.0,-0.0003581048222258687,0.7848153710365295,0.0,-0.011333394795656204
433.0,498.0,2.677,-0.7005,8.985,-0.0386,0.0229,-0.119,-1.6398364506163539,0.0,2.423903465270996,-1.7606614828109741,-0.0,2.156602621078491,4.628181620235107,-0.0,0.2913665771484375,-1.5001099745379847,0.0,-0.025312546640634537,0.7492383718490601,0.0,0.004516485147178173,0.7848397493362427,0.0,-0.018478961661458015
433.0,498.0,2.677,-0.7005,8.985,-0.0386,0.0229,-0.119,-1.639844080010885,0.0,2.4200832843780518,-1.7607016563415527,-0.0,2.1497061252593994,4.628181620235107,-0.0,0.2992953062057495,-1.5001218954669397,0.0,-0.004038440063595772,0.749226450920105,0.0,-0.003565665800124407,0.7848397493362427,0.0,0.0031115044839680195
433.0,498.0,2.677,-0.7005,8.985,-0.0386,0.0229,-0.119,-1.6398397884764613,0.0,2.4260764122009277,-1.7606810331344604,-0.0,2.1685357093811035,4.628201647395752,-0.0,0.29250749945640564,-1.5001466909991663,0.0,-0.010891379788517952,0.7492905259132385,0.0,-0.0006184853264130652,0.7848155498504639,0.0,0.03637637570500374
433.0,498.0,2.677,-0.7005,8.985,-0.0386,0.0229,-0.119,-1.6398526630797328,0.0,2.4233641624450684,-1.7607460021972656,-0.0,2.1547398567199707,4.628153486842773,-0.0,0.29486000537872314,-1.500134293233053,0.0,-0.005032023414969444,0.7492462992668152,0.0,-0.0020091787446290255,0.7848114967346191,0.0,-0.0066127656027674675
433.0,498.0,2.677,-0.7005,8.985,-0.0386,0.0229,-0.119,-1.6398445568480433,0.0,2.449422836303711,-1.7607338428497314,-0.0,2.168339729309082,4.628133459682129,-0.0,0.2831724286079407,-1.5001423994647425,0.0,-0.013794191181659698,0.7493183612823486,0.0,-0.005799942649900913,0.7848036289215088,0.0,0.026868220418691635
467.0,504.0,2.6183,-0.6616,8.9839,-0.0345,0.0246,-0.111,-1.6398402653136195,0.0,2.3999063968658447,-1.7607303857803345,-0.0,2.1119463443756104,4.628165884608887,-0.0,0.29958322644233704,-1.5001142660724085,0.0,-0.006830358877778053,0.7492746114730835,0.0,0.0029328439850360155,0.7848155498504639,0.0,-0.008832545951008797
467.0,504.0,2.6183,-0.6616,8.9839,-0.0345,0.0246,-0.111,-1.6398683987059535,0.0,2.451303005218506,-1.7606697082519531,-0.0,2.1534807682037354,4.628185911769531,-0.0,0.28183671832084656,-1.500122372304098,0.0,-0.008072704076766968,0.7492865324020386,0.0,0.005152094177901745,0.7848074436187744,0.0,0.027224669232964516
467.0,504.0,2.6183,-0.6616,8.9839,-0.0345,0.0246,-0.111,-1.639848371545309,0.0,2.411437511444092,-1.7607100009918213,-0.0,2.134434938430786,4.628145380611084,-0.0,0.28948545455932617,-1.5001419226275843,0.0,-0.01845337264239788,0.7492865324020386,0.0,-0.0052254986949265,0.7848477363586426,0.0,-0.03141217306256294
467.0,504.0,2.6183,-0.6616,8.9839,-0.0345,0.0246,-0.111,-1.6398560009398402,0.0,2.4382643699645996,-1.760725498199463,-0.0,2.145637035369873,4.628121061916016,-0.0,0.2879997193813324,-1.5000699202166956,0.0,-0.00788500253111124,0.7492585778236389,0.0,-0.0030156897846609354,0.784835696220398,0.0,0.013681493699550629
467.0,504.0,2.6183,-0.6616,8.9839,-0.0345,0.0246,-0.111,-1.639860292474264,0.0,2.4133822917938232,-1.7606934309005737,-0.0,2.1211631298065186,4.628205938930176,-0.0,0.2942933142185211,-1.5001586119281214,0.0,-0.021339954808354378,0.7492865324020386,0.0,0.001316494308412075,0.7847995758056641,0.0,-0.024471821263432503
467.0,504.0,2.6183,-0.6616,8.9839,-0.0345,0.0246,-0.111,-1.6398283443846644,0.0,2.423710346221924,-1.7606974840164185,-0.0,2.129591941833496,4.628145380611084,-0.0,0.28986313939094543,-1.500162426625387,0.0,-0.023426050320267677,0.7492186427116394,0.0,0.000680722645483911,0.7847592830657959,0.0,-0.016114559024572372
467.0,504.0,2.6183,-0.6616,8.9839,-0.0345,0.0246,-0.111,-1.639872213403219,0.0,2.378614902496338,-1.7606853246688843,-0.0,2.1518044471740723,4.628205938930176,-0.0,0.2915719151496887,-1.5001419226275843,0.0,-0.007730459328740835,0.7492824196815491,0.0,0.00015089381486177444,0.7848397493362427,0.0,-0.016947798430919647
467.0,504.0,2.6183,-0.6616,8.9839,-0.0345,0.0246,-0.111,-1.6398078403868617,0.0,2.4769911766052246,-1.7607377767562866,-0.0,2.1444520950317383,4.6281654077717285,-0.0,0.3029167056083679,-1.500134293233053,0.0,-0.009466450661420822,0.7492384314537048,0.0,-0.007233001757413149,0.7848195433616638,0.0,-0.0030921674333512783
467.0,504.0,2.6183,-0.6616,8.9839,-0.0345,0.0246,-0.111,-1.6398364506163539,0.0,2.4257564544677734,-1.7607697248458862,-0.0,2.1041388511657715,4.6281935411640625,-0.0,0.3141184151172638,-1.5001180807696741,0.0,-0.013091634027659893,0.7492344975471497,0.0,-0.003115606028586626,0.7848315238952637,0.0,-0.019201066344976425
467.0,504.0,2.6183,-0.6616,8.9839,-0.0345,0.0246,-0.111,-1.6398078403868617,0.0,2.391005754470825,-1.7607057094573975,-0.0,2.1452083587646484,4.628169699306152,-0.0,0.29591941833496094,-1.500134293233053,0.0,-0.014449222013354301,0.7492665648460388,0.0,0.001366589916869998,0.78477942943573,0.0,0.019536087289452553
467.0,504.0,2.6183,-0.6616,8.9839,-0.0345,0.0246,-0.111,-1.639872213403219,0.0,2.4514822959899902,-1.7606852054595947,-0.0,2.1852636337280273,4.628161593074463,-0.0,0.3136025071144104,-1.5001385847674769,0.0,-0.011558910831809044,0.7492344379425049,0.0,-0.0023854097817093134,0.7848074436187744,0.0,0.028633715584874153
467.0,504.0,2.6183,-0.6616,8.9839,-0.0345,0.0246,-0.111,-1.639876504937643,0.0,2.439812183380127,-1.7607059478759766,-0.0,2.150705337524414,4.628133459682129,-0.0,0.30016687512397766,-1.5001543203936976,0.0,-0.0031517285387963057,0.7492625713348389,0.0,0.0005631821695715189,0.784835696220398,0.0,0.020392397418618202
467.0,504.0,2.6183,-0.6616,8.9839,-0.0345,0.0246,-0.111,-1.6398560009398402,0.0,2.4282264709472656,-1.7607016563415527,-0.0,2.147247314453125,4.628229780788086,-0.0,0.29302987456321716,-1.5001056830035608,0.0,-0.022148657590150833,0.74924236536026,0.0,-0.011001833714544773,0.7847834825515747,0.0,-0.03561151772737503
467.0,504.0,2.6183,-0.6616,8.9839,-0.0345,0.0246,-0.111,-1.6398364506163539,0.0,2.433972120285034,-1.7606810331344604,-0.0,2.159925699234009,4.628189726466797,-0.0,0.2905111312866211,-1.5001543203936976,0.0,-0.015501617453992367,0.749286413192749,0.0,-0.0004400975303724408,0.7847955822944641,0.0,-0.022060701623558998
467.0,504.0,2.6183,-0.6616,8.9839,-0.0345,0.0246,-0.111,-1.6398445568480433,0.0,2.4684290885925293,-1.760745882987976,-0.0,2.1129016876220703,4.628230734462402,-0.0,0.3000612258911133,-1.5001018683062952,0.0,-0.03587538003921509,0.7492586374282837,0.0,-0.006734112743288279,0.7847914695739746,0.0,0.015764320269227028
467.0,504.0,2.6183,-0.6616,8.9839,-0.0345,0.0246,-0.111,-1.6398560009398402,0.0,2.447809934616089,-1.7607097625732422,-0.0,2.195268154144287,4.628185434932373,-0.0,0.29626601934432983,-1.5001300016986292,0.0,-0.015751171857118607,0.7492903470993042,0.0,-0.0032586310990154743,0.7847673892974854,0.0,-0.02407452091574669
467.0,504.0,2.6183,-0.6616,8.9839,-0.0345,0.0246,-0.111,-1.6398121319212855,0.0,2.3982272148132324,-1.7606974840164185,-0.0,2.1595494747161865,4.628169699306152,-0.0,0.2953231930732727,-1.5001180807696741,0.0,-0.016712719574570656,0.7492585778236389,0.0,-0.007589397020637989,0.7848315834999084,0.0,0.019080473110079765
467.0,504.0,2.6183,-0.6616,8.9839,-0.0345,0.0246,-0.111,-1.639844080010885,0.0,2.3858537673950195,-1.7606810331344604,-0.0,2.1576690673828125,4.628173514003418,-0.0,0.2971048355102539,-1.500162426625387,0.0,-0.009840313345193863,0.7492543458938599,0.0,-0.004905686713755131,0.784767210483551,0.0,-0.0009752246551215649
438.0,456.0,2.5932,-0.7047,9.1041,-0.0299,0.0194,-0.1116,-1.6398798427977503,0.0,2.4347829818725586,-1.760714054107666,-0.0,2.1514029502868652,4.628173990840576,-0.0,0.28317999839782715,-1.500134293233053,0.0,-0.011547839269042015,0.7492305040359497,0.0,0.00572417676448822,0.7848235368728638,0.0,-0.007662175223231316
438.0,456.0,2.5932,-0.7047,9.1041,-0.0299,0.0194,-0.1116,-1.6399198971190394,0.0,2.4223780632019043,-1.760713815689087,-0.0,2.1279704570770264,4.628185911769531,-0.0,0.28555363416671753,-1.5000975767718714,0.0,-0.009143615141510963,0.7492345571517944,0.0,-0.007810643874108791,0.7848195433616638,0.0,-0.0018542301841080189
438.0,456.0,2.5932,-0.7047,9.1041,-0.0299,0.0194,-0.1116,-1.6397797069945277,0.0,2.4228529930114746,-1.7607377767562866,-0.0,2.161369562149048,4.628157778377197,-0.0,0.2958090901374817,-1.5001099745379847,0.0,-0.010626955889165401,0.7492543458938599,0.0,-0.005816479213535786,0.7847713232040405,0.0,-0.0031507862731814384
438.0,456.0,2.5932,-0.7047,9.1041,-0.0299,0.0194,-0.1116,-1.6398445568480433,0.0,2.5096702575683594,-1.7606853246688843,-0.0,2.1818997859954834,4.6281654077717285,-0.0,0.2789456248283386,-1.500162426625387,0.0,-0.022976670414209366,0.7492226362228394,0.0,-0.006073154974728823,0.7848315834999084,0.0,0.029424142092466354
438.0,456.0,2.5932,-0.7047,9.1041,-0.0299,0.0194,-0.1116,-1.6398521862425746,0.0,2.4433798789978027,-1.7606933116912842,-0.0,2.0979626178741455,4.628222151393555,-0.0,0.29437628388404846,-1.500162426625387,0.0,-0.018717052415013313,0.7492824792861938,0.0,-0.012368422001600266,0.784819483757019,0.0,-0.027619333937764168
438.0,456.0,2.5932,-0.7047,9.1041,-0.0299,0.0194,-0.1116,-1.6398078403868617,0.0,2.4347009658813477,-1.7607100009918213,-0.0,2.1377439498901367,4.628157778377197,-0.0,0.2945549190044403,-1.5001142660724085,0.0,-0.011171645484864712,0.7492507100105286,0.0,0.008867006748914719,0.7848275899887085,0.0,-0.026569509878754616
438.0,456.0,2.5932,-0.7047,9.1041,-0.0299,0.0194,-0.1116,-1.639876504937643,0.0,2.4311630725860596,-1.760697364807129,-0.0,2.1625828742980957,4.628218336696289,-0.0,0.28762996196746826,-1.500150505696432,0.0,-0.01973753795027733,0.7493181824684143,0.0,-0.00021674955496564507,0.7848275899887085,0.0,0.01135503500699997
438.0,456.0,2.5932,-0.7047,9.1041,-0.0299,0.0194,-0.1116,-1.6398402653136195,0.0,2.4541378021240234,-1.760725498199463,-0.0,2.1404008865356445,4.628157778377197,-0.0,0.3016214370727539,-1.5001381079303187,0.0,-0.013151656836271286,0.7492705583572388,0.0,0.006849197670817375,0.7848396897315979,0.0,0.03899853676557541
438.0,456.0,2.5932,-0.7047,9.1041,-0.0299,0.0194,-0.1116,-1.6398240528502406,0.0,2.449040412902832,-1.7606852054595947,-0.0,2.144470453262329,4.628133459682129,-0.0,0.2856437861919403,-1.5001142660724085,0.0,-0.02620602771639824,0.7492666244506836,0.0,-0.010914689861238003,0.784835696220398,0.0,-0.014757701195776463
438.0,456.0,2.5932,-0.7047,9.1041,-0.0299,0.0194,-0.1116,-1.6398402653136195,0.0,2.4579672813415527,-1.7606852054595947,-0.0,2.1529109477996826,4.628194018001221,-0.0,0.292366623878479,-1.500122372304098,0.0,-0.01920020580291748,0.7493022680282593,0.0,0.005293088965117931,0.784799337387085,0.0,0.02787480317056179
438.0,456.0,2.5932,-0.7047,9.1041,-0.0299,0.0194,-0.1116,-1.639876504937643,0.0,2.4426636695861816,-1.7607338428497314,-0.0,2.1687347888946533,4.628145380611084,-0.0,0.2897731065750122,-1.500134293233053,0.0,-0.014749795198440552,0.7493463158607483,0.0,-0.005592287518084049,0.7848477363586426,0.0,-0.017269231379032135
438.0,456.0,2.5932,-0.7047,9.1041,-0.0299,0.0194,-0.1116,-1.639860292474264,0.0,2.4497642517089844,-1.7606933116912842,-0.0,2.1358461380004883,4.6281773287006835,-0.0,0.2945753335952759,-1.5001300016986292,0.0,-0.010702386498451233,0.7492345571517944,0.0,-0.00643607322126627,0.7847955822944641,0.0,-0.04943698272109032
438.0,456.0,2.5932,-0.7047,9.1041,-0.0299,0.0194,-0.1116,-1.6398560009398402,0.0,2.422773599624634,-1.7606769800186157,-0.0,2.1411855220794678,4.628197355861328,-0.0,0.29949674010276794,-1.5001018683062952,0.0,-0.020884303376078606,0.7492943406105042,0.0,0.0008875469211488962,0.7848675847053528,0.0,-0.018698424100875854
438.0,456.0,2.5932,-0.7047,9.1041,-0.0299,0.0194,-0.1116,-1.6398560009398402,0.0,2.4669272899627686,-1.7607057094573975,-0.0,2.128106117248535,4.628189726466797,-0.0,0.27663522958755493,-1.5001381079303187,0.0,-0.016523949801921844,0.7492226362228394,0.0,-0.0015702495584264398,0.7848235368728638,0.0,0.024003706872463226
438.0,456.0,2.5932,-0.7047,9.1041,-0.0299,0.0194,-0.1116,-1.639804025689596,0.0,2.447282075881958,-1.7606614828109741,-0.0,2.1372733116149902,4.628161593074463,-0.0,0.29947227239608765,-1.500150505696432,0.0,-0.01538914255797863,0.7492225766181946,0.0,0.005945181008428335,0.7848074436187744,0.0,-0.027592279016971588
438.0,456.0,2.5932,-0.7047,9.1041,-0.0299,0.0194,-0.1116,-1.6398402653136195,0.0,2.4013314247131348,-1.7606852054595947,-0.0,2.1548585891723633,4.628229780788086,-0.0,0.3034704625606537,-1.5001824537860315,0.0,-0.013964369893074036,0.749286413192749,0.0,0.0013019419275224209,0.7848355770111084,0.0,0.0022199577651917934
438.0,456.0,2.5932,-0.7047,9.1041,-0.0299,0.0194,-0.1116,-1.6398283443846644,0.0,2.435361862182617,-1.7607501745224,-0.0,2.1140859127044678,4.628237887019775,-0.0,0.29537972807884216,-1.5001261870013636,0.0,-0.01859862357378006,0.7493022680282593,0.0,-0.005930669605731964,0.7848235368728638,0.0,0.004136497154831886
472.0,504.0,2.6333,-0.4851,8.8558,-0.0368,0.0221,-0.1155,-1.6398240528502406,0.0,2.469067096710205,-1.7606892585754395,-0.0,2.1280272006988525,4.628141565913818,-0.0,0.2954632639884949,-1.5001142660724085,0.0,-0.00702041108161211,0.749290406703949,0.0,-0.007366072852164507,0.784847617149353,0.0,-0.007272117305546999
472.0,504.0,2.6333,-0.4851,8.8558,-0.0368,0.0221,-0.1155,-1.639844080010885,0.0,2.435847282409668,-1.7606852054595947,-0.0,2.0904526710510254,4.628181620235107,-0.0,0.28897881507873535,-1.5001662413226526,0.0,-0.018188778311014175,0.7492543458938599,0.0,-0.0019127526320517063,0.7848597764968872,0.0,0.04392150044441223
472.0,504.0,2.6333,-0.4851,8.8558,-0.0368,0.0221,-0.1155,-1.6398560009398402,0.0,2.417809247970581,-1.7606933116912842,-0.0,2.1456544399261475,4.628214045161865,-0.0,0.28977465629577637,-1.5001300016986292,0.0,-0.011434458196163177,0.7492825388908386,0.0,-0.0024148598313331604,0.7848638296127319,0.0,0.0007050280692055821
472.0,504.0,2.6333,-0.4851,8.8558,-0.0368,0.0221,-0.1155,-1.63983215908193,0.0,2.3788769245147705,-1.7607016563415527,-0.0,2.1627485752105713,4.628169699306152,-0.0,0.28913766145706177,-1.500162426625387,0.0,-0.01319156400859356,0.749274492263794,0.0,0.005937095731496811,0.7848436236381531,0.0,-0.007993917912244797
472.0,504.0,2.6333,-0.4851,8.8558,-0.0368,0.0221,-0.1155,-1.6397878132262171,0.0,2.3833141326904297,-1.7607214450836182,-0.0,2.1308884620666504,4.628201647395752,-0.0,0.292277067899704,-1.5001300016986292,0.0,-0.01713804341852665,0.7493101954460144,0.0,-0.005769248120486736,0.7848716974258423,0.0,0.014015289023518562
472.0,504.0,2.6333,-0.4851,8.8558,-0.0368,0.0221,-0.1155,-1.6398445568480433,0.0,2.4490246772766113,-1.7607016563415527,-0.0,2.1525068283081055,4.628194018001221,-0.0,0.2967647910118103,-1.500134293233053,0.0,-0.021421944722533226,0.74924635887146,0.0,-0.0028359699063003063,0.784819483757019,0.0,-0.01973644644021988
472.0,504.0,2.6333,-0.4851,8.8558,-0.0368,0.0221,-0.1155,-1.6398364506163539,0.0,2.4597280025482178,-1.7607214450836182,-0.0,2.166828155517578,4.628222151393555,-0.0,0.2956085205078125,-1.5001543203936976,0.0,-0.011742804199457169,0.7492903470993042,0.0,-0.008752509020268917,0.7848477363586426,0.0,0.0020380523055791855
472.0,504.0,2.6333,-0.4851,8.8558,-0.0368,0.0221,-0.1155,-1.6398240528502406,0.0,2.438102960586548,-1.7607418298721313,-0.0,2.146334409713745,4.6281935411640625,-0.0,0.29098576307296753,-1.5001423994647425,0.0,-0.017385754734277725,0.749274492263794,0.0,0.0066072894260287285,0.7848477363586426,0.0,0.0583198219537735
472.0,504.0,2.6333,-0.4851,8.8558,-0.0368,0.0221,-0.1155,-1.6398641071715296,0.0,2.4737613201141357,-1.7607614994049072,-0.0,2.115537643432617,4.628197355861328,-0.0,0.2921384572982788,-1.5001385847674769,0.0,-0.017794441431760788,0.7492666244506836,0.0,0.006451698485761881,0.7847914695739746,0.0,0.021855428814888
472.0,504.0,2.6333,-0.4851,8.8558,-0.0368,0.0221,-0.1155,-1.6398402653136195,0.0,2.437710762023926,-1.760733723640442,-0.0,2.1397626399993896,4.628222151393555,-0.0,0.27983585000038147,-1.5001180807696741,0.0,-0.01772984117269516,0.7493141889572144,0.0,-0.008527137339115143,0.7848154306411743,0.0,-0.03050784207880497
472.0,504.0,2.6333,-0.4851,8.8558,-0.0368,0.0221,-0.1155,-1.6398641071715296,0.0,2.396336793899536,-1.7606810331344604,-0.0,2.109060764312744,4.628165884608887,-0.0,0.30710023641586304,-1.500122372304098,0.0,-0.011937078088521957,0.7492942810058594,0.0,0.004115397110581398,0.7848275899887085,0.0,0.02481488510966301
472.0,504.0,2.6333,-0.4851,8.8558,-0.0368,0.0221,-0.1155,-1.63983215908193,0.0,2.4440979957580566,-1.7607059478759766,-0.0,2.148144483566284,4.628181620235107,-0.0,0.2888299226760864,-1.5001300016986292,0.0,-0.018093766644597054,0.7492504119873047,0.0,-0.0002969468478113413,0.7848396301269531,0.0,0.039388686418533325
472.0,504.0,2.6333,-0.4851,8.8558,-0.0368,0.0221,-0.1155,-1.6398121319212855,0.0,2.421729803085327,-1.7606769800186157,-0.0,2.1043009757995605,4.628181620235107,-0.0,0.3023577332496643,-1.500134293233053,0.0,-0.016241606324911118,0.749274492263794,0.0,-0.007670538034290075,0.7847995758056641,0.0,0.03388547897338867
472.0,504.0,2.6333,-0.4851,8.8558,-0.0368,0.0221,-0.1155,-1.6398240528502406,0.0,2.428386926651001,-1.7606934309005737,-0.0,2.120671510696411,4.628149672145508,-0.0,0.2934614419937134,-1.500134293233053,0.0,-0.013298260048031807,0.7492903470993042,0.0,-0.003643559291958809,0.7848114967346191,0.0,-0.022320818156003952
472.0,504.0,2.6333,-0.4851,8.8558,-0.0368,0.0221,-0.1155,-1.6398283443846644,0.0,2.428654909133911,-1.7607295513153076,-0.0,2.1525747776031494,4.628133459682129,-0.0,0.3028598427772522,-1.5000861326800745,0.0,-0.017482351511716843,0.7492146492004395,0.0,-0.009788173250854015,0.7848355174064636,4.306649134377949e-05,0.018673473969101906
472.0,504.0,2.6333,-0.4851,8.8558,-0.0368,0.0221,-0.1155,-1.6398841343321742,0.0,2.3941431045532227,-1.7606934309005737,-0.0,2.1152074337005615,4.628181620235107,-0.0,0.293226420879364,-1.5001180807696741,0.0,-0.029120057821273804,0.7492543458938599,0.0,-0.005219903774559498,0.7847952842712402,6.136795127531514e-05,-0.08390925079584122
472.0,504.0,2.6333,-0.4851,8.8558,-0.0368,0.0221,-0.1155,-1.6398478947081507,0.0,2.4329147338867188,-1.760725498199463,-0.0,2.1482627391815186,4.628169699306152,-0.0,0.2941042184829712,-1.500094238911764,0.0,-0.013485070317983627,0.7492586374282837,0.0,-0.0018169824033975601,0.7848355770111084,5.769782728748396e-05,0.008644158020615578
415.0,510.0,2.5304,-0.6742,9.1256,-0.0275,0.0273,-0.12,-1.63983215908193,0.0,2.4084506034851074,-1.7606769800186157,-0.0,2.074789047241211,4.6281773287006835,-0.0,0.2977980971336365,-1.5001300016986292,0.0,-0.01192305888980627,0.7492507100105286,0.0,0.0007025795057415962,0.784847617149353,5.4221807658905163e-05,-0.04126938804984093
415.0,510.0,2.5304,-0.6742,9.1256,-0.0275,0.0273,-0.12,-1.6398879490294398,0.0,2.417583703994751,-1.760689377784729,-0.0,2.13893723487854,4.628157778377197,-0.0,0.2873777449131012,-1.5001300016986292,0.0,-0.019952574744820595,0.7492586374282837,0.0,-0.01445694174617529,0.7848275899887085,5.212808900978416e-05,0.012802673503756523
415.0,510.0,2.5304,-0.6742,9.1256,-0.0275,0.0273,-0.12,-1.6398922405638636,0.0,2.4344139099121094,-1.760741949081421,-0.0,2.121786594390869,4.628189726466797,-0.0,0.2993852198123932,-1.5000937620746058,0.0,-0.01272459328174591,0.7493022680282593,0.0,-0.014024998061358929,0.7847955822944641,4.927415284328163e-05,0.03226558864116669
415.0,510.0,2.5304,-0.6742,9.1256,-0.0275,0.0273,-0.12,-1.6398283443846644,0.0,2.4447741508483887,-1.7606769800186157,-0.0,2.092230796813965,4.628218336696289,-0.0,0.2823362350463867,-1.5001180807696741,0.0,-0.021902499720454216,0.7492507100105286,0.0,-0.006262992508709431,0.7847955822944641,4.671650458476506e-05,-0.03605556860566139
415.0,510.0,2.5304,-0.6742,9.1256,-0.0275,0.0273,-0.12,-1.6398121319212855,0.0,2.404458522796631,-1.7607057094573975,-0.0,2.1149983406066895,4.628173990840576,-0.0,0.3068464994430542,-1.500134293233053,0.0,-0.027010753750801086,0.7492666244506836,0.0,-0.011025459505617619,0.7848235368728638,4.515396722126752e-05,0.0209941565990448
415.0,510.0,2.5304,-0.6742,9.1256,-0.0275,0.0273,-0.12,-1.639860292474264,0.0,2.3980376720428467,-1.760662317276001,-0.0,2.1071574687957764,4.6281935411640625,-0.0,0.29611456394195557,-1.5001099745379847,0.0,-0.020035021007061005,0.7492942810058594,0.0,0.005556005053222179,0.78477543592453,-3.771362025872804e-05,0.04845501109957695
415.0,510.0,2.5304,-0.6742,9.1256,-0.0275,0.0273,-0.12,-1.6398078403868617,0.0,2.423006534576416,-1.7607057094573975,-0.0,2.103937864303589,4.628173514003418,-0.0,0.2908676266670227,-1.5001142660724085,0.0,-0.013848042115569115,0.7492704391479492,0.0,-0.005545289255678654,0.7848074436187744,-3.3514043025206774e-05,-0.027789819985628128
415.0,510.0,2.5304,-0.6742,9.1256,-0.0275,0.0273,-0.12,-1.6398364506163539,0.0,2.429042339324951,-1.760722279548645,-0.0,2.1503171920776367,4.628169699306152,-0.0,0.2942093312740326,-1.5001099745379847,0.0,-0.0193764828145504,0.7492262125015259,0.0,-0.005589790642261505,0.7848477363586426,-3.119100438198075e-05,-0.05205696448683739
415.0,510.0,2.5304,-0.6742,9.1256,-0.0275,0.0273,-0.12,-1.6398159466185511,0.0,2.4122915267944336,-1.7606894969940186,-0.0,2.1280713081359863,4.628177805537842,-0.0,0.29865312576293945,-1.5001266638385218,0.0,-0.01718916743993759,0.7492544054985046,0.0,0.002925722859799862,0.7848476767539978,-2.8253421987756155e-05,-0.004344505723565817
415.0,510.0,2.5304,-0.6742,9.1256,-0.0275,0.0273,-0.12,-1.6398402653136195,0.0,2.386509418487549,-1.7607016563415527,-0.0,2.1368613243103027,4.628189726466797,-0.0,0.29374200105667114,-1.500146214162008,0.0,-0.009071558713912964,0.7493023872375488,0.0,-0.008863217197358608,0.7848114967346191,-2.6584273655316792e-05,0.015001773834228516
415.0,510.0,2.5304,-0.6742,9.1256,-0.0275,0.0273,-0.12,-1.6398240528502406,0.0,2.421318531036377,-1.7607057094573975,-0.0,2.162588119506836,4.628181620235107,-0.0,0.29740583896636963,-1.5001385847674769,0.0,-0.024921143427491188,0.7492786049842834,0.0,-0.008115195669233799,0.7848597764968872,-2.4420245608780533e-05,0.01878388784825802
415.0,510.0,2.5304,-0.6742,9.1256,-0.0275,0.0273,-0.12,-1.6398445568480433,0.0,2.4500956535339355,-1.7606810331344604,-0.0,2.1037425994873047,4.628165884608887,-0.0,0.2896774113178253,-1.500122372304098,0.0,-0.009038371965289116,0.7493146657943726,0.0,0.0006871378282085061,0.784819483757019,-2.2582034944207408e-05,-0.00039696507155895233
415.0,510.0,2.5304,-0.6742,9.1256,-0.0275,0.0273,-0.12,-1.6398683987059535,0.0,2.375119686126709,-1.760733723640442,-0.0,2.13802170753479,4.628165884608887,-0.0,0.3042455315589905,-1.500162426625387,0.0,-0.01716768927872181,0.7492625713348389,0.0,-0.0007306146435439587,0.7848195433616638,-2.1502988602151163e-05,-0.004911444149911404
415.0,510.0,2.5304,-0.6742,9.1256,-0.0275,0.0273,-0.12,-1.6398364506163539,0.0,2.4323837757110596,-1.7606974840164185,-0.0,2.102576732635498,4.628181620235107,-0.0,0.29932889342308044,-1.5001466909991663,0.0,-0.019460683688521385,0.7492667436599731,0.0,0.004838739056140184,0.7848316431045532,-2.0064810087205842e-05,-0.05017312243580818
415.0,510.0,2.5304,-0.6742,9.1256,-0.0275,0.0273,-0.12,-1.6398364506163539,0.0,2.4436731338500977,-1.7607016563415527,-0.0,2.0923638343811035,4.628137751216553,-0.0,0.2793232798576355,-1.5001423994647425,0.0,-0.0193263441324234,0.7492945790290833,0.0,0.010886919684708118,0.7848033905029297,-1.8806935258908197e-05,0.008696606382727623
415.0,510.0,2.5304,-0.6742,9.1256,-0.0275,0.0273,-0.12,-1.6398402653136195,0.0,2.466536045074463,-1.7607501745224,-0.0,2.177128314971924,4.628173990840576,-0.0,0.2975846529006958,-1.5001180807696741,0.0,-0.022564085200428963,0.7493147850036621,0.0,0.0029367466922849417,0.7848114371299744,-1.8052491213893518e-05,0.04030995070934296
415.0,510.0,2.5304,-0.6742,9.1256,-0.0275,0.0273,-0.12,-1.639775892297262,0.0,2.409083366394043,-1.7606892585754395,-0.0,2.128380537033081,4.628157301540039,-0.0,0.28258341550827026,-1.5001423994647425,0.0,-0.020449034869670868,0.7493347525596619,0.0,-0.014906054362654686,0.7848355770111084,-1.7027841749950312e-05,-0.0020858836360275745
436.0,483.0,2.9444,-0.6048,8.6417,-0.0101,0.0267,-0.1066,-1.6398078403868617,0.0,2.432666778564453,-1.7606933116912842,-0.0,2.1208245754241943,4.628157778377197,-0.0,0.29716822504997253,-1.500134293233053,0.0,-0.00976727157831192,0.7492945790290833,0.0,-0.011756199412047863,0.7847833633422852,-1.611327206774149e-05,0.023553386330604553
436.0,483.0,2.9444,-0.6048,8.6417,-0.0101,0.0267,-0.1066,-1.639848371545309,0.0,2.4530880451202393,-1.7606769800186157,-0.0,2.1836280822753906,4.6281935411640625,-0.0,0.2924554944038391,-1.5000818411456507,0.0,-0.02080921269953251,0.7492584586143494,0.0,-0.0037169908173382282,0.7848114967346191,-1.5556253856630065e-05,0.013839393854141235
436.0,483.0,2.9444,-0.6048,8.6417,-0.0101,0.0267,-0.1066,-1.639820238152975,0.0,2.468642234802246,-1.760741949081421,-0.0,2.147286891937256,4.628181620235107,-0.0,0.28983110189437866,-1.5001586119281214,0.0,-0.016068357974290848,0.749286413192749,0.0,-0.0019221510738134384,0.7847874760627747,-1.4789363376621623e-05,0.02323749102652073
436.0,483.0,2.9444,-0.6048,8.6417,-0.0101,0.0267,-0.1066,-1.6398560009398402,0.0,2.450312614440918,-1.7607100009918213,-0.0,2.159424066543579,4.628181620235107,-0.0,0.2993684411048889,-1.5001385847674769,0.0,-0.00906695518642664,0.7492868304252625,0.0,0.003603161545470357,0.7847834825515747,-2.8189067961648107e-05,0.004061889834702015
436.0,483.0,2.9444,-0.6048,8.6417,-0.0101,0.0267,-0.1066,-1.6397916279234828,0.0,2.4382975101470947,-1.7606852054595947,-0.0,2.125875473022461,4.628173990840576,-0.0,0.2932000756263733,-1.500094238911764,0.0,-0.010232506319880486,0.7492663264274597,0.0,-0.007095313630998135,0.7848154902458191,-2.7333004254614934e-05,0.0153605155646801
436.0,483.0,2.9444,-0.6048,8.6417,-0.0101,0.0267,-0.1066,-1.6398240528502406,0.0,2.4583580493927,-1.7607057094573975,-0.0,2.1577250957489014,4.6281654077717285,-0.0,0.29866892099380493,-1.5001385847674769,0.0,-0.01677865907549858,0.7492421269416809,0.0,0.003936425317078829,0.7848154902458191,-2.6142122806049883e-05,-0.030626142397522926
436.0,483.0,2.9444,-0.6048,8.6417,-0.0101,0.0267,-0.1066,-1.6398364506163539,0.0,2.437986373901367,-1.760741949081421,-0.0,2.1408936977386475,4.628181620235107,-0.0,0.3062093257904053,-1.5001056830035608,0.0,-0.005043703597038984,0.7492905259132385,0.0,-0.01483241282403469,0.7848154306411743,-2.540422065067105e-05,-0.04593461751937866
436.0,483.0,2.9444,-0.6048,8.6417,-0.0101,0.0267,-0.1066,-1.639820238152975,0.0,2.3967318534851074,-1.7607100009918213,-0.0,2.1187455654144287,4.628205938930176,-0.0,0.3044453263282776,-1.500134293233053,0.0,-0.012363134883344173,0.7492868304252625,0.0,-0.012325841933488846,0.7848154902458191,-2.4372324332944117e-05,-0.017962196841835976
436.0,483.0,2.9444,-0.6048,8.6417,-0.0101,0.0267,-0.1066,-1.639860292474264,0.0,2.4167912006378174,-1.7607016563415527,-0.0,2.122310161590576,4.628197832698486,-2.3857194264564896e-07,0.3035065233707428,-1.5001423994647425,0.0,-0.019567131996154785,0.7492625713348389,0.0,0.009660230949521065,0.7847995758056641,-2.342096013308037e-05,-0.012028679251670837
436.0,483.0,2.9444,-0.6048,8.6417,-0.0101,0.0267,-0.1066,-1.639780183831686,0.0,2.4419758319854736,-1.7607543468475342,-0.0,2.135197877883911,4.628129644984863,-1.0170696507216803e-09,0.293788880109787,-1.5001662413226526,0.0,-0.015350334346294403,0.7492905259132385,0.0,-0.012625003233551979,0.7848235368728638,-1.531018097011838e-05,-0.00046492565888911486
436.0,483.0,2.9444,-0.6048,8.6417,-0.0101,0.0267,-0.1066,-1.6397878132262171,0.0,2.444504976272583,-1.760714054107666,-0.0,2.133104085922241,4.628157301540039,-2.83105055240776e-13,0.29144397377967834,-1.5000823179828089,0.0,-0.011227503418922424,0.7492297887802124,0.0,0.0009702808456495404,0.784819483757019,-1.0995176126016304e-05,0.06964166462421417
436.0,483.0,2.9444,-0.6048,8.6417,-0.0101,0.0267,-0.1066,-1.6397959194579066,0.0,2.452927589416504,-1.7606655359268188,-0.0,2.168764591217041,4.6281935411640625,-7.880333967088941e-17,0.29155924916267395,-1.5001385847674769,0.0,-0.02070477232336998,0.7492867708206177,0.0,0.009334146045148373,0.7848355770111084,-1.0606444448058028e-05,0.0017828525742515922
436.0,483.0,2.9444,-0.6048,8.6417,-0.0101,0.0267,-0.1066,-1.6397916279234828,0.0,2.4442994594573975,-1.7607377767562866,-0.0,2.152698278427124,4.62820212423291,-3.3595100473531595e-19,0.29626789689064026,-1.5002144018756312,0.0,-0.004191549029201269,0.7492785453796387,0.0,0.005939946509897709,0.7848315238952637,-1.0362214197812136e-05,-0.003855289425700903
436.0,483.0,2.9444,-0.6048,8.6417,-0.0101,0.0267,-0.1066,-1.6398121319212855,0.0,2.402594566345215,-1.7607377767562866,-0.0,2.151888132095337,4.628169222468994,-9.351318098114539e-23,0.2999652624130249,-1.5001781622516077,0.0,-0.02691064029932022,0.7492584586143494,0.0,0.002526263939216733,0.7848557233810425,-6.29344076852334e-10,0.022507309913635254
436.0,483.0,2.9444,-0.6048,8.6417,-0.0101,0.0267,-0.1066,-1.639872213403219,0.0,2.440256118774414,-1.7607501745224,-0.0,2.1411638259887695,4.6281773287006835,-2.6029741303762447e-26,0.2947709262371063,-1.5001781622516077,0.0,-0.0011669117957353592,0.7492502927780151,0.0,-0.014543326571583748,0.7848396301269531,-1.519791618468107e-15,-0.033524852246046066
436.0,483.0,2.9444,-0.6048,8.6417,-0.0101,0.0267,-0.1066,-1.6397839985289515,9.485596820013598e-05,2.429412603378296,-1.7606736421585083,-0.0,2.130017042160034,4.628141565913818,-1.1096886949999783e-28,0.29737672209739685,-1.5001581350909632,0.0,-0.026855282485485077,0.7492504119873047,0.0,0.010451375506818295,0.784823477268219,-2.735571071725649e-19,0.05620215833187103
436.0,483.0,2.9444,-0.6048,8.6417,-0.0101,0.0267,-0.1066,-1.6398121319212855,8.725631050765514e-05,2.4093844890594482,-1.7606892585754395,-0.0,2.1811559200286865,4.628173514003418,-3.088859142219996e-32,0.28905072808265686,-1.5001581350909632,0.0,-0.016629168763756752,0.749286413192749,0.0,-0.015381780453026295,0.7848355770111084,-6.606081950730192e-25,-0.020592819899320602
436.0,483.0,2.9444,-0.6048,8.6417,-0.0101,0.0267,-0.1066,-1.6398364506163539,7.61772898840718e-05,2.418482780456543,-1.7606974840164185,-0.0,2.1287548542022705,4.628161593074463,-8.597951964969925e-36,0.30270397663116455,-1.5001261870013636,0.0,-0.01757492870092392,0.7492749094963074,0.0,-0.016384361311793327,0.7848436236381531,0.0006579800974577665,0.004543006420135498
460.0,480.0,2.8295,-0.4834,9.207,-0.0376,0.0119,-0.1277,-1.6398121319212855,0.00010485814709682018,2.4427645206451416,-1.760714054107666,-0.0,2.1210782527923584,4.628181620235107,-3.6654414133831687e-38,0.2961941957473755,-1.5001257101642054,0.0,-0.017685722559690475,0.7492585182189941,0.0,-0.01063329353928566,0.7848834991455078,0.0009291381575167179,0.022161854431033134
460.0,480.0,2.8295,-0.4834,9.207,-0.0376,0.0119,-0.1277,-1.639792104760641,0.00012203888763906434,2.4366836547851562,-1.760689377784729,-0.0,2.1259822845458984,4.628149672145508,-1.0202854118748993e-41,0.2939915955066681,-1.5001300016986292,0.0,-0.007776346988976002,0.7492380738258362,0.0,-0.014724280685186386,0.7848355770111084,0.0014645140618085861,-0.008702360093593597
460.0,480.0,2.8295,-0.4834,9.207,-0.0376,0.0119,-0.1277,-1.6397916279234828,0.00011753357102861628,2.418200969696045,-1.7606974840164185,-0.0,2.1225688457489014,4.6282102304646,-4.344025239406933e-44,0.2907320261001587,-1.5002062956439417,0.0,-0.010233024135231972,0.7492708563804626,0.0,-0.0005989753408357501,0.7848753929138184,0.0018094562692567706,0.051086001098155975
460.0,480.0,2.8295,-0.4834,9.207,-0.0376,0.0119,-0.1277,-1.6397878132262171,0.00010872464190470055,2.4305641651153564,-1.7606769800186157,-0.0,2.140413761138916,4.628185434932373,-0.0,0.29562142491340637,-1.5001776854144495,0.0,-0.0017163556767627597,0.7492781281471252,0.0,-0.009057833813130856,0.7849034070968628,0.0025726864114403725,0.019527878612279892
460.0,480.0,2.8295,-0.4834,9.207,-0.0376,0.0119,-0.1277,-1.6397959194579066,9.205153764924034e-05,2.4408154487609863,-1.7607295513153076,-0.0,2.1015968322753906,4.628173514003418,-0.0,0.3003997802734375,-1.5001819769488733,0.0,-0.010967245325446129,0.7491859197616577,0.0,-0.010580312460660934,0.7849718332290649,0.0035652322694659233,-0.005718896631151438
460.0,480.0,2.8295,-0.4834,9.207,-0.0376,0.0119,-0.1277,-1.6397878132262171,8.350943971890956e-05,2.4100425243377686,-1.7606769800186157,-0.0,2.1379363536834717,4.628218336696289,-0.0,0.2931382656097412,-1.5002105871783655,0.0,-0.020691832527518272,0.7492987513542175,0.0,-0.016274122521281242,0.785015881061554,0.005002558697015047,-0.008312897756695747
460.0,480.0,2.8295,-0.4834,9.207,-0.0376,0.0119,-0.1277,-1.6398283443846644,3.716552964760922e-05,2.434687376022339,-1.7606892585754395,-0.0,2.134483814239502,4.628197832698486,-0.0,0.29186806082725525,-1.5001776854144495,0.0,-0.010500041767954826,0.7492544054985046,0.0,6.534112617373466e-05,0.7850118279457092,0.005605907179415226,0.013393139466643333
460.0,480.0,2.8295,-0.4834,9.207,-0.0376,0.0119,-0.1277,-1.639848371545309,1.323564561062085e-06,2.438328981399536,-1.7607016563415527,-0.0,2.142012357711792,4.628173990840576,-0.0,0.3003382682800293,-1.5001214186297815,0.0,-0.019630683586001396,0.7492667436599731,0.0,-0.01859588734805584,0.7849875688552856,0.0049601332284510136,0.03662581369280815
460.0,480.0,2.8295,-0.4834,9.207,-0.0376,0.0119,-0.1277,-1.6398078403868617,2.3823693018343306e-10,2.413052797317505,-1.7607182264328003,-0.0,2.1592111587524414,4.628197355861328,-0.0,0.3009933829307556,-1.5001862684832972,0.0,-0.016122829169034958,0.7492179870605469,0.0,-0.006233362480998039,0.7850477695465088,0.0039232829585671425,0.00046519096940755844
460.0,480.0,2.8295,-0.4834,9.207,-0.0376,0.0119,-0.1277,-1.6398078403868617,5.753141480770998e-16,2.433006763458252,-1.7606974840164185,-0.0,2.1783852577209473,4.628153486842773,-0.0,0.30097177624702454,-1.5001218954669397,0.0,-0.00973399169743061,0.7492945790290833,0.0,-0.008724385872483253,0.7850642204284668,0.002503406023606658,-0.013360047712922096
460.0,480.0,2.8295,-0.4834,9.207,-0.0376,0.0119,-0.1277,-1.6398641071715296,1.3893159768811037e-21,2.4473438262939453,-1.7606695890426636,-0.0,2.148860454559326,4.628181620235107,-0.0,0.30272409319877625,-1.500146214162008,0.0,-0.024792058393359184,0.7492462992668152,0.0,-0.00020541111007332802,0.7850157022476196,0.0014300331240519881,0.005568518303334713
460.0,480.0,2.8295,-0.4834,9.207,-0.0376,0.0119,-0.1277,-1.6398560009398402,2.5007201309487505e-25,2.4586734771728516,-1.7607542276382446,-0.0,2.1211583614349365,4.628149672145508,-0.0,0.291581392288208,-1.5002101103412073,0.0,-0.005359767936170101,0.7492703795433044,0.0,0.0031325346790254116,0.7849835157394409,0.0009845802560448647,0.010976556688547134
460.0,480.0,2.8295,-0.4834,9.207,-0.0376,0.0119,-0.1277,-1.6398240528502406,6.038944711106492e-31,2.440279245376587,-1.7606974840164185,-0.0,2.130396604537964,4.628137751216553,-0.0,0.29772666096687317,-1.5001538435565394,0.0,-0.012892577797174454,0.7492462396621704,0.0,-0.004410384222865105,0.785031795501709,0.0006701112142764032,0.0014605068136006594
460.0,480.0,2.8295,-0.4834,9.207,-0.0376,0.0119,-0.1277,-1.639860292474264,1.4583337781081343e-36,2.4263510704040527,-1.7607057094573975,-0.0,2.148388385772705,4.628162069911621,-0.0,0.2906297743320465,-1.500162426625387,0.0,-0.01878160983324051,0.7493187189102173,0.0,0.002981661120429635,0.7850077152252197,0.00017284794012084603,-0.011013814248144627
460.0,480.0,2.8295,-0.4834,9.207,-0.0376,0.0119,-0.1277,-1.6398240528502406,2.624954322327177e-40,2.464789628982544,-1.760654091835022,-0.0,2.1312944889068604,4.6281701761433105,-0.0,0.2836070954799652,-1.5001781622516077,0.0,-0.010481080040335655,0.749322772026062,0.0,-0.011477460153400898,0.7849676609039307,0.00014457457291428,-0.049014341086149216
460.0,480.0,2.8295,-0.4834,9.207,-0.0376,0.0119,-0.1277,-1.6398078403868617,0.0,2.4100303649902344,-1.7607100009918213,-0.0,2.145550012588501,4.628137751216553,-0.0,0.29922205209732056,-1.5002144018756312,0.0,-0.006974062416702509,0.7492303252220154,0.0,-0.012396551668643951,0.7850436568260193,0.00011649705993477255,0.006397586315870285
460.0,480.0,2.8295,-0.4834,9.207,-0.0376,0.0119,-0.1277,-1.639844080010885,0.0,2.413455009460449,-1.7606852054595947,-0.0,2.1507341861724854,4.62811724721875,-0.0,0.2885056734085083,-1.5001099745379847,0.0,-0.01753290370106697,0.7492184042930603,0.0,-0.014552769251167774,0.7850116491317749,0.00010314364044461399,-0.059062033891677856
437.0,495.0,2.668,-0.7866,8.9061,-0.0382,0.0296,-0.1127,-1.6398560009398402,0.0,2.408604621887207,-1.7607182264328003,-0.0,2.133862018585205,4.628109617824219,-0.0,0.2874683141708374,-1.5001705328570765,0.0,-0.023794759064912796,0.7492261528968811,0.0,-0.003735888982191682,0.7850196957588196,8.801214426057413e-05,-0.011593966744840145
437.0,495.0,2.668,-0.7866,8.9061,-0.0382,0.0296,-0.1127,-1.6398078403868617,0.0,2.4121599197387695,-1.760733723640442,-0.0,2.134788990020752,4.628189726466797,-0.0,0.29277709126472473,-1.5002105871783655,0.0,-0.00566180981695652,0.7492585778236389,0.0,-0.004125426989048719,0.7850277423858643,7.675271626794711e-05,0.005767470691353083
437.0,495.0,2.668,-0.7866,8.9061,-0.0382,0.0296,-0.1127,-1.6398521862425746,0.0,2.4517040252685547,-1.7606737613677979,-0.0,2.125702381134033,4.628182097072266,-0.0,0.30381566286087036,-1.500146214162008,0.0,-0.02131805568933487,0.7492102384567261,0.0,-0.011567339301109314,0.7849836349487305,7.072121661622077e-05,-0.009572291746735573
437.0,495.0,2.668,-0.7866,8.9061,-0.0382,0.0296,-0.1127,-1.6398164234557093,0.0,2.4000003337860107,-1.7607059478759766,-0.0,2.1206893920898438,4.628105803126953,-0.0,0.2934393882751465,-1.5001781622516077,0.0,-0.02299206517636776,0.7492786049842834,0.0,-0.01570866070687771,0.785047709941864,9.484398469794542e-05,-0.02906484156847
437.0,495.0,2.668,-0.7866,8.9061,-0.0382,0.0296,-0.1127,-1.6398121319212855,0.0,2.461825370788574,-1.7607295513153076,-0.0,2.1614537239074707,4.628177805537842,-0.0,0.2947885990142822,-1.5001419226275843,0.0,-0.02392781339585781,0.7492827773094177,0.0,7.939105853438377e-05,0.785007655620575,8.584430906921625e-05,0.022084401920437813
437.0,495.0,2.668,-0.7866,8.9061,-0.0382,0.0296,-0.1127,-1.639872213403219,-0.00012043125025229529,2.442061424255371,-1.7606737613677979,-0.0,2.150256872177124,4.628092928523682,-0.0,0.2936430871486664,-1.5001662413226526,0.0,-0.01535235345363617,0.7492905259132385,0.0,0.0016989184077829123,0.7850436568260193,0.00010757203563116491,0.0283888578414917
437.0,495.0,2.668,-0.7866,8.9061,-0.0382,0.0296,-0.1127,-1.6398960552611292,-0.00011156893015140668,2.439305305480957,-1.7607214450836182,-0.0,2.1531920433044434,4.628209753627441,-0.0,0.2991183400154114,-1.500174347554342,0.0,-0.019171245396137238,0.7492261528968811,0.0,-0.0017260177992284298,0.785051703453064,6.553959974553436e-05,0.024463031440973282
437.0,495.0,2.668,-0.7866,8.9061,-0.0382,0.0296,-0.1127,-1.6398760281004847,-0.0001246101746801287,2.425945997238159,-1.7607903480529785,-0.0,2.173687696456909,4.628157778377197,-0.0,0.2926059067249298,-1.5001261870013636,0.0,-0.011936788447201252,0.7492987513542175,0.0,-0.0005424051778391004,0.7850599884986877,0.00010795201524160802,-0.009747990407049656
437.0,495.0,2.668,-0.7866,8.9061,-0.0382,0.0296,-0.1127,-1.639844080010885,-0.00013893716095481068,2.468488931655884,-1.7607581615447998,-0.0,2.14388108253479,4.628162069911621,-0.0,0.2862057685852051,-1.5001385847674769,0.0,-0.0010321163572371006,0.7493147850036621,0.0,-0.011772772297263145,0.7850476503372192,0.0001373984559904784,-0.036340419203042984
437.0,495.0,2.668,-0.7866,8.9061,-0.0382,0.0296,-0.1127,-1.6399084530272425,-0.00040602422086521983,2.4814116954803467,-1.7606852054595947,-0.0,2.1460635662078857,4.628173990840576,-0.0,0.2901308536529541,-1.500162426625387,0.0,-0.016703281551599503,0.749302864074707,0.0,0.006082841195166111,0.7850878834724426,0.0006491771782748401,-0.0026895087212324142
437.0,495.0,2.668,-0.7866,8.9061,-0.0382,0.0296,-0.1127,-1.6398927174010218,-0.0009832255309447646,2.4545304775238037,-1.760733723640442,-0.0,2.1314401626586914,4.628137751216553,-0.0,0.2894769310951233,-1.500146214162008,0.0,-0.016332712024450302,0.7492380738258362,0.0,0.004056721460074186,0.7850196957588196,0.0008291027625091374,-0.018316080793738365
437.0,495.0,2.668,-0.7866,8.9061,-0.0382,0.0296,-0.1127,-1.6399322948851527,-0.0011042203987017274,2.465125560760498,-1.7606933116912842,-0.0,2.1644794940948486,4.628141565913818,-0.0,0.29116469621658325,-1.500146214162008,0.0,-0.02081359177827835,0.7492544054985046,0.0,-0.008115843869745731,0.7850316166877747,0.0007351835374720395,-0.004869889467954636
437.0,495.0,2.668,-0.7866,8.9061,-0.0382,0.0296,-0.1127,-1.6399442158141078,-0.001278021722100675,2.433041572570801,-1.7606697082519531,-0.0,2.15244197845459,4.628153486842773,-0.0,0.2882903516292572,-1.500150505696432,0.0,-0.008782991208136082,0.7492504119873047,0.0,-0.002129994798451662,0.785079836845398,0.0006091007962822914,-0.03184623643755913
437.0,495.0,2.668,-0.7866,8.9061,-0.0382,0.0296,-0.1127,-1.6399404011168421,-0.0012732199393212795,2.43528413772583,-1.7606737613677979,-0.0,2.1791062355041504,4.6281139093586425,-0.0,0.30251988768577576,-1.5001338163958948,0.0,-0.01859748549759388,0.7493028044700623,0.0,-0.0020399498753249645,0.7850476503372192,0.0005104843294247985,-0.02378886751830578
437.0,495.0,2.668,-0.7866,8.9061,-0.0382,0.0296,-0.1127,-1.63991179088735,-0.0014560960698872805,2.43695330619812,-1.7606892585754395,-0.0,2.1302733421325684,4.628129168147705,-8.57054692460224e-05,0.29446735978126526,-1.5001543203936976,0.0,-0.0183702502399683,0.7492184042930603,0.0,-0.000790949328802526,0.7850557565689087,0.0004106393316760659,0.029175356030464172
437.0,495.0,2.668,-0.7866,8.9061,-0.0382,0.0296,-0.1127,-1.6399160824217738,-0.0015995338326320052,2.429692268371582,-1.760714054107666,-0.0,2.1416783332824707,4.628197832698486,-8.110731869237497e-05,0.30575233697891235,-1.5001180807696741,0.0,-0.02058902010321617,0.7493028044700623,0.0,-0.005363620351999998,0.7850557565689087,0.00013029466208536178,-0.028817303478717804
437.0,495.0,2.668,-0.7866,8.9061,-0.0382,0.0296,-0.1127,-1.6399280033507289,-0.0016948651755228639,2.427830696105957,-1.7606614828109741,-0.0,2.100778818130493,4.628109617824219,-9.290186426369473e-05,0.29610469937324524,-1.5001018683062952,0.0,-0.014216062612831593,0.7492827773094177,0.0,-0.004601411521434784,0.785051703453064,0.00011372059816494584,0.01679513230919838
457.0,490.0,2.8146,-0.5922,9.2333,-0.0357,0.0038,-0.1216,-1.6399756870665492,-0.002190769650042057,2.4353830814361572,-1.7607139348983765,-0.0,2.1272237300872803,4.628182097072266,-8.928226452553645e-05,0.2945319414138794,-1.5001300016986292,0.0,-0.015088671818375587,0.7492503523826599,0.0,-0.01612135022878647,0.7850918769836426,4.788019577972591e-05,-0.021366218104958534
457.0,490.0,2.8146,-0.5922,9.2333,-0.0357,0.0038,-0.1216,-1.6399713955321253,-0.003397255903109908,2.4156813621520996,-1.7607057094573975,-0.0,2.183748722076416,4.628109617824219,-8.506338781444356e-05,0.29936498403549194,-1.5001099745379847,0.0,-0.027987748384475708,0.7492142915725708,0.0,-0.01129571720957756,0.7850597500801086,4.122960308450274e-05,0.018305229023098946
457.0,490.0,2.8146,-0.5922,9.2333,-0.0357,0.0038,-0.1216,-1.6400038204588832,-0.00414970051497221,2.4431235790252686,-1.7606852054595947,-0.0,2.1110191345214844,4.628137751216553,-9.52981281443499e-05,0.2923741340637207,-1.5001466909991663,0.0,-0.015772288665175438,0.7492340207099915,0.0,-0.004452365450561047,0.7849834561347961,1.8199848739186564e-07,-0.005273208022117615
457.0,490.0,2.8146,-0.5922,9.2333,-0.0357,0.0038,-0.1216,-1.6400476894774378,-0.006233592052012682,2.375990152359009,-1.7607016563415527,-0.0,2.161578893661499,4.628174467677734,-0.00010426589869894087,0.28668904304504395,-1.5000904242144983,0.0,-0.015437200665473938,0.7493147850036621,0.0,0.001722092041745782,0.7850436568260193,4.3950487780414216e-13,0.0396418422460556
457.0,490.0,2.8146,-0.5922,9.2333,-0.0357,0.0038,-0.1216,-1.6400920353331507,-0.007328803185373545,2.4239859580993652,-1.7606582641601562,-0.0,2.149249792098999,4.628097696895264,-0.00023692302056588233,0.2880408763885498,-1.5000861326800745,0.0,-0.024633558467030525,0.7492785453796387,0.0,-0.0034467701334506273,0.7850116491317749,1.0613524454370693e-18,-0.004182425327599049
457.0,490.0,2.8146,-0.5922,9.2333,-0.0357,0.0038,-0.1216,-1.64015593151235,-0.0078030978329479694,2.40373158454895,-1.7607100009918213,-0.0,2.1113762855529785,4.628109617824219,-0.00026439697830937803,0.2957357168197632,-1.5001385847674769,0.0,-0.021530846133828163,0.749274492263794,0.0,-0.003755247686058283,0.7850396633148193,1.910396949730463e-22,0.010916412808001041
457.0,490.0,2.8146,-0.5922,9.2333,-0.0357,0.0038,-0.1216,-1.6402155361571253,-0.008640307001769543,2.378932237625122,-1.760722279548645,-0.0,2.165964126586914,4.628122015590332,-0.0006157536990940571,0.29696640372276306,-1.5001180807696741,0.0,-0.022505972534418106,0.7492502927780151,0.0,0.006550632417201996,0.7849875688552856,4.613383181399879e-28,-0.01196060050278902
457.0,490.0,2.8146,-0.5922,9.2333,-0.0357,0.0038,-0.1216,-1.6402718029417933,-0.009176538325846195,2.415048599243164,-1.7607100009918213,-0.0,2.1200621128082275,4.62809340536084,-0.000559269858058542,0.2985081970691681,-1.5001018683062952,0.0,-0.018417267128825188,0.7492462396621704,0.0,0.005475954152643681,0.7849635481834412,1.1140777097277e-33,0.00471067801117897
457.0,490.0,2.8146,-0.5922,9.2333,-0.0357,0.0038,-0.1216,-1.6402870617308558,-0.009122059680521488,2.4156270027160645,-1.7606892585754395,-0.0,2.126523971557617,4.628041430110596,-0.0005305011873133481,0.29760777950286865,-1.5000861326800745,0.0,-0.018129127100110054,0.7492823004722595,0.0,-0.002106347121298313,0.7850402593612671,-0.00017153304361272603,0.024282993748784065
457.0,490.0,2.8146,-0.5922,9.2333,-0.0357,0.0038,-0.1216,-1.640371938745016,-0.007817410863935947,2.4349374771118164,-1.760672926902771,-0.0,2.1065709590911865,4.6281139093586425,-0.0004302180605009198,0.28734278678894043,-1.5001056830035608,0.0,-0.017084557563066483,0.749214231967926,0.0,0.0025907084345817566,0.7849676609039307,-0.00035791282425634563,0.025571878999471664
457.0,490.0,2.8146,-0.5922,9.2333,-0.0357,0.0038,-0.1216,-1.6403881512083949,-0.007318743504583836,2.3997721672058105,-1.7606614828109741,-0.0,2.168755531311035,4.628081484431885,-0.00037849569343961775,0.2924225628376007,-1.5001142660724085,0.0,-0.020499523729085922,0.7492462396621704,0.0,-0.001979988068342209,0.7850237488746643,-0.0003162465582136065,0.03367762267589569
457.0,490.0,2.8146,-0.5922,9.2333,-0.0357,0.0038,-0.1216,-1.6404115162291468,-0.00547003885731101,2.4397754669189453,-1.7606974840164185,-0.0,2.182800054550171,4.628137751216553,-0.00032067616120912135,0.30019310116767883,-1.500134293233053,0.0,-0.03228963166475296,0.7492461204528809,0.0,-0.007686171680688858,0.7849835753440857,-0.00035680682049132884,-0.011073809117078781
457.0,490.0,2.8146,-0.5922,9.2333,-0.0357,0.0038,-0.1216,-1.6404196224608363,-0.0047989534214138985,2.423170566558838,-1.7606687545776367,-0.0,2.098310708999634,4.628133459682129,-0.0002781852090265602,0.2932705581188202,-1.5001385847674769,0.0,-0.013295086100697517,0.7492220401763916,0.0,0.0030390778556466103,0.7849435806274414,-0.0004921338404528797,-0.006054205819964409
457.0,490.0,2.8146,-0.5922,9.2333,-0.0357,0.0038,-0.1216,-1.6404591999449671,-0.003857410280033946,2.3270726203918457,-1.7607182264328003,-0.0,2.17502760887146,4.628130121822021,-0.0002556067775003612,0.29092028737068176,-1.5001018683062952,0.0,-0.023649975657463074,0.7492343783378601,0.0,-0.0030594479758292437,0.7849916219711304,-0.00048651103861629963,0.00191486906260252
457.0,490.0,2.8146,-0.5922,9.2333,-0.0357,0.0038,-0.1216,-1.6404911480345667,-0.002732191700488329,2.4861629009246826,-1.760722279548645,-0.0,2.109384298324585,4.628137751216553,-0.0002278662723256275,0.28780901432037354,-1.5001385847674769,0.0,-0.02083125151693821,0.7492703795433044,0.0,-0.0023791706189513206,0.78498375415802,-0.0004512227897066623,-0.05970127135515213
457.0,490.0,2.8146,-0.5922,9.2333,-0.0357,0.0038,-0.1216,-1.6405235729613246,-0.0019394560949876904,2.398171901702881,-1.760714054107666,2.1136642658348137e-08,2.1335372924804688,4.628153963679932,-0.00020555841911118478,0.2883143723011017,-1.5001099745379847,0.0,-0.010619621723890305,0.7492421269416809,0.0,-0.011899204924702644,0.784999668598175,-0.0003800024860538542,-0.023783782497048378
457.0,490.0,2.8146,-0.5922,9.2333,-0.0357,0.0038,-0.1216,-1.6405078373351039,-0.0013650287874042988,2.468066930770874,-1.7606810331344604,3.804520934402866e-12,2.1426398754119873,4.628141565913818,-0.0001929651334648952,0.29432132840156555,-1.5001018683062952,0.0,-0.011677628383040428,0.7492785453796387,0.0,0.003154193051159382,0.7849875688552856,-0.0003437182167544961,-0.0001931772567331791
456.0,469.0,2.6483,-0.6688,8.9791,-0.025,0.0191,-0.121,-1.6405116520323695,-0.0008533315849490464,2.4919042587280273,-1.7606582641601562,0.0011294072028249502,2.167478561401367,4.628125353450439,-7.584696868434548e-05,0.3099096417427063,-1.500122372304098,0.0,-0.011349551379680634,0.7492904663085938,0.0,-0.008753001689910889,0.7849636077880859,-0.00030065595638006926,-0.00985995028167963
456.0,469.0,2.6483,-0.6688,8.9791,-0.025,0.0191,-0.121,-1.6404959164061488,-0.0005787343252450228,2.429286241531372,-1.7606620788574219,0.001724433503113687,2.127323627471924,4.628157778377197,-5.499082544702105e-05,0.2932085394859314,-1.5001180807696741,0.0,-0.025441057980060577,0.7492626309394836,0.0,-0.009844759479165077,0.7849757075309753,-0.0002478827955201268,0.012799115851521492
456.0,469.0,2.6483,-0.6688,8.9791,-0.025,0.0191,-0.121,-1.6405116520323695,-0.00039752470911480486,2.398463010787964,-1.7606620788574219,0.0017616584664210677,2.100411891937256,4.628125353450439,-5.182037057238631e-05,0.2956139147281647,-1.5001748243915003,0.0,-0.015444904565811157,0.7492668032646179,0.0,-0.0043903072364628315,0.7849516272544861,-0.00022270611952990294,0.017284398898482323
456.0,469.0,2.6483,-0.6688,8.9791,-0.025,0.0191,-0.121,-1.6404830418028773,-0.00031397055136039853,2.412600517272949,-1.7606621980667114,0.002157809678465128,2.1748180389404297,4.628165884608887,-2.426452556392178e-05,0.3017246723175049,-1.5001099745379847,0.0,-0.02345329336822033,0.7492663264274597,0.0,-0.01416328176856041,0.7849676609039307,-0.00019391320529393852,0.0007983576506376266
456.0,469.0,2.6483,-0.6688,8.9791,-0.025,0.0191,-0.121,-1.6404715977110804,-0.00025961920619010925,2.4350521564483643,-1.7606457471847534,0.002794960979372263,2.165118932723999,4.628129168147705,-2.2093687221058644e-05,0.29063624143600464,-1.5001018683062952,0.0,-0.011570497415959835,0.7492225766181946,0.0,-0.01848997361958027,0.7849515676498413,-0.00023634299577679485,-0.07961209863424301
456.0,469.0,2.6483,-0.6688,8.9791,-0.025,0.0191,-0.121,-1.6404911480345667,-0.0002327583497390151,2.442875385284424,-1.7606457471847534,0.0031305323354899883,2.1125848293304443,4.628105803126953,-2.1059600840089843e-05,0.2970745265483856,-1.5000818411456507,0.0,-0.017231972888112068,0.7492544054985046,0.0,-0.011117460206151009,0.7849395871162415,-0.0002514966472517699,0.004123766906559467
456.0,469.0,2.6483,-0.6688,8.9791,-0.025,0.0191,-0.121,-1.6404959164061488,-0.00024178516468964517,2.425614833831787,-1.7606217861175537,0.0027776816859841347,2.143760919570923,4.628150148982666,-1.967816388059873e-05,0.299246609210968,-1.500150505696432,0.0,-0.016065850853919983,0.7492823600769043,0.0,0.0053304648026824,0.7849676609039307,-0.000325657514622435,0.0018607927486300468
456.0,469.0,2.6483,-0.6688,8.9791,-0.025,0.0191,-0.121,-1.6405278644957484,-0.0002914898796007037,2.4396071434020996,-1.7605938911437988,0.0025969878770411015,2.1123485565185547,4.628117724055908,-1.885367601062171e-05,0.2812352180480957,-1.5001180807696741,0.0,-0.012970187701284885,0.7492101788520813,0.0,0.0026344149373471737,0.7849476337432861,-0.0003424881724640727,-0.004211602732539177
456.0,469.0,2.6483,-0.6688,8.9791,-0.025,0.0191,-0.121,-1.640543600121969,-0.001828081556595862,2.442906618118286,-1.7605938911437988,0.0020845842082053423,2.1383302211761475,4.628153486842773,-3.546735388226807e-05,0.3036731779575348,-1.500094238911764,0.0,-0.012371538206934929,0.7492221593856812,0.0,0.003975927829742432,0.78498375415802,-0.00038382940692827106,-0.06020946800708771
456.0,469.0,2.6483,-0.6688,8.9791,-0.025,0.0191,-0.121,-1.6404906711974085,-0.0032417401671409607,2.4384312629699707,-1.760582447052002,0.0014353131409734488,2.1372547149658203,4.628141565913818,-3.349698454258032e-05,0.3063546121120453,-1.5001142660724085,0.0,-0.02626427263021469,0.7493106126785278,0.0,-0.00984276458621025,0.7849273681640625,-0.0006708729779347777,-0.0143899442628026
456.0,469.0,2.6483,-0.6688,8.9791,-0.025,0.0191,-0.121,-1.6405674419798792,-0.0036049061454832554,2.4288077354431152,-1.7605857849121094,0.0012107206275686622,2.1647884845733643,4.628133459682129,-3.229501089663245e-05,0.3092271089553833,-1.5001056830035608,0.0,-0.02221032790839672,0.7492544054985046,0.0,0.0032232373487204313,0.7848955392837524,-0.0006581577472388744,0.05112874507904053
456.0,469.0,2.6483,-0.6688,8.9791,-0.025,0.0191,-0.121,-1.6405955753722132,-0.0037895487621426582,2.395792007446289,-1.7605576515197754,0.0008877121726982296,2.138700485229492,4.6281139093586425,-4.595933569362387e-05,0.2960343658924103,-1.5000579992877405,0.0,-0.013956701382994652,0.7492703795433044,0.0,-0.015134203247725964,0.7849196195602417,-0.0009056537528522313,-0.017002088949084282
456.0,469.0,2.6483,-0.6688,8.9791,-0.025,0.0191,-0.121,-1.640571733514303,-0.004205067176371813,2.4487342834472656,-1.7605700492858887,0.0006161424098536372,2.1379339694976807,4.628130121822021,-4.37344097008463e-05,0.29305335879325867,-1.5001018683062952,0.0,-0.03103422001004219,0.7492905259132385,0.0,-0.0030965320765972137,0.7849516272544861,-0.0012676408514380455,-0.008405551314353943
456.0,469.0,2.6483,-0.6688,8.9791,-0.025,0.0191,-0.121,-1.6406108341612757,-0.004471248481422663,2.393272876739502,-1.7605617046356201,0.0006037654238753021,2.159402370452881,4.628141565913818,-4.236208405927755e-05,0.304507851600647,-1.5000985304461878,0.0,-0.014672666788101196,0.7492945790290833,0.0,0.01163591630756855,0.7849196195602417,-0.00160443305503577,-0.024388931691646576
456.0,469.0,2.6483,-0.6688,8.9791,-0.025,0.0191,-0.121,-1.640700479547018,-0.004948575980961323,2.4352638721466064,-1.7605347633361816,0.0006875680992379785,2.105386257171631,4.628145857448242,-4.0457769500790164e-05,0.2985921800136566,-1.5001347700702112,0.0,-0.017129873856902122,0.7492983341217041,0.0,0.012470121495425701,0.7849316596984863,-0.002158631104975939,-0.07755006849765778
456.0,469.0,2.6483,-0.6688,8.9791,-0.025,0.0191,-0.121,-1.6406871281065882,-0.005471552722156048,2.4487571716308594,-1.7605535984039307,0.0012834572698920965,2.177920341491699,4.62809340536084,-3.8717302231816575e-05,0.3010213375091553,-1.5001466909991663,0.0,-0.02338302507996559,0.7492781281471252,0.0,0.008745330385863781,0.7848874926567078,-0.002839299151673913,-0.0626431256532669
456.0,469.0,2.6483,-0.6688,8.9791,-0.025,0.0191,-0.121,-1.6407314739623011,-0.00617498392239213,2.396544933319092,-1.7605576515197754,0.001436227816157043,2.1149868965148926,4.628129168147705,-3.76378811779432e-05,0.30659744143486023,-1.500078026448385,0.0,-0.027958907186985016,0.7493184208869934,0.0,0.0013919691555202007,0.7848793268203735,-0.0033149023074656725,0.03220915421843529
456.0,469.0,2.6483,-0.6688,8.9791,-0.025,0.0191,-0.121,-1.6407634220519007,-0.0070107849314808846,2.4166293144226074,-1.7605141401290894,0.0018353870837017894,2.1250228881835938,4.628153963679932,-3.612705768318847e-05,0.3006008267402649,-1.5000818411456507,0.0,-0.026927411556243896,0.7493667602539062,0.0,0.009241770952939987,0.7848636507987976,-0.003442436223849654,0.01578662171959877
449.0,8190.0,2.5334,-0.74,8.997,-0.0275,0.0261,-0.113,-1.6408034763731898,-0.006671056151390076,2.4388504028320312,-1.7605388164520264,0.002375852083787322,2.1460728645324707,4.628081484431885,-3.473284232313745e-05,0.30160975456237793,-1.500094238911764,0.0,-0.015336977317929268,0.7493627071380615,0.0,0.0003697460051625967,0.7848154306411743,-0.0033536292612552643,-0.0207279771566391
449.0,8190.0,2.5334,-0.74,8.997,-0.0275,0.0261,-0.113,-1.6408192119994105,-0.0069571672938764095,2.437196969985962,-1.760486125946045,0.0026505179703235626,2.1741466522216797,4.628129168147705,-3.386167009011842e-05,0.29685038328170776,-1.5001018683062952,0.0,-0.013654941692948341,0.7493184208869934,0.0,0.012280565686523914,0.7848235368728638,-0.0029759546741843224,0.011483236216008663
449.0,8190.0,2.5334,-0.74,8.997,-0.0275,0.0261,-0.113,-1.6408354244627894,-0.006656902842223644,2.4044108390808105,-1.7604695558547974,0.002676788019016385,2.1385087966918945,4.628145857448242,-3.263385588070378e-05,0.2995566725730896,-1.5001423994647425,0.0,-0.021533656865358353,0.7493347525596619,0.0,0.00675043324008584,0.7847875356674194,-0.0025362696032971144,-0.019408367574214935
449.0,8190.0,2.5334,-0.74,8.997,-0.0275,0.0261,-0.113,-1.6408711872496546,-0.007179031148552895,2.3954992294311523,-1.7604695558547974,0.0025903733912855387,2.1069843769073486,4.628133459682129,-3.186360845575109e-05,0.2991262674331665,-1.500150505696432,0.0,-0.004586500581353903,0.749342143535614,0.0,0.01676127128303051,0.7847955822944641,-0.002083767671138048,-0.03082592599093914
449.0,8190.0,2.5334,-0.74,8.997,-0.0275,0.0261,-0.113,-1.6409193478026332,-0.007600501179695129,2.418903350830078,-1.7604819536209106,0.002782280556857586,2.1524274349212646,4.628133459682129,-3.077410292462446e-05,0.30095624923706055,-1.5001304785357874,0.0,-0.023039041087031364,0.7492942214012146,0.0,0.017007458955049515,0.7847674489021301,-0.0013081758515909314,-0.04182323068380356
449.0,8190.0,2.5334,-0.74,8.997,-0.0275,0.0261,-0.113,-1.6409431896605433,-0.007851743139326572,2.388063669204712,-1.7604260444641113,0.002677453914657235,2.150158643722534,4.628125353450439,-1.5083001017046627e-05,0.29164040088653564,-1.5001056830035608,0.0,-0.03720865771174431,0.7492819428443909,0.0,0.01594189926981926,0.7848116755485535,-0.0008391322335228324,0.011531207710504532
449.0,8190.0,2.5334,-0.74,8.997,-0.0275,0.0261,-0.113,-1.6409675083556117,-0.00894023198634386,2.397089719772339,-1.7604550123214722,0.0027862261049449444,2.177854299545288,4.628117724055908,1.3614703675557394e-05,0.2991337478160858,-1.5001056830035608,0.0,-0.029036521911621094,0.7493786811828613,0.0,0.009902562946081161,0.7847674489021301,-0.0006400211714208126,-0.0014428808353841305
449.0,8190.0,2.5334,-0.74,8.997,-0.0275,0.0261,-0.113,-1.6410509548582972,-0.009643587283790112,2.4012770652770996,-1.7604228258132935,0.002585536101832986,2.1513938903808594,4.628101511592529,1.3525998838304076e-05,0.3074946105480194,-1.500134293233053,0.0,-0.03006819449365139,0.7493064403533936,0.0,0.019489731639623642,0.7847674489021301,-0.0004720739379990846,0.024975743144750595
449.0,8190.0,2.5334,-0.74,8.997,-0.0275,0.0261,-0.113,-1.641122957269186,-0.010491061955690384,2.424290895462036,-1.7603991031646729,0.0023778900504112244,2.147724151611328,4.628105326289795,1.294261255679885e-05,0.3140091598033905,-1.500094238911764,0.0,-0.02848728373646736,0.7493104934692383,0.0,-0.0018741078674793243,0.7848355770111084,-0.00037396742845885456,-0.034017935395240784
449.0,8190.0,2.5334,-0.74,8.997,-0.0275,0.0261,-0.113,-1.6411711178221644,-0.011296652257442474,2.4092307090759277,-1.7604155540466309,0.002420708304271102,2.150970458984375,4.628145857448242,1.2580763723235577e-05,0.30981141328811646,-1.5000975767718714,0.0,-0.030269235372543335,0.7492983341217041,0.0,0.009909173473715782,0.7847754955291748,-0.0003284647536929697,0.009040419943630695
449.0,8190.0,2.5334,-0.74,8.997,-0.0275,0.0261,-0.113,-1.641243120233053,-0.012993884272873402,2.4415247440338135,-1.7603824138641357,0.0025207579601556063,2.131319046020508,4.628150148982666,1.2074420737917535e-05,0.30905991792678833,-1.5001099745379847,0.0,-0.03685883432626724,0.7493340969085693,3.382554859854281e-05,0.02713700756430626,0.7847995758056641,-0.000277770304819569,-0.016693390905857086
449.0,8190.0,2.5334,-0.74,8.997,-0.0275,0.0261,-0.113,-1.6413151226439417,-0.013695226050913334,2.4371440410614014,-1.7603464126586914,0.002573317615315318,2.1287355422973633,4.628125353450439,1.160725332738366e-05,0.3013346791267395,-1.5001056830035608,0.0,-0.02754860371351242,0.7492860555648804,9.313994814874604e-05,0.03782156854867935,0.7848315238952637,-0.0002005356946028769,0.006359610240906477
449.0,8190.0,2.5334,-0.74,8.997,-0.0275,0.0261,-0.113,-1.641334672967428,-0.014732622541487217,2.4521727561950684,-1.7603379487991333,0.002316232305020094,2.1632866859436035,4.628101511592529,1.13153828351642e-05,0.3189719021320343,-1.5001266638385218,0.0,-0.030058354139328003,0.7493947148323059,8.94541954039596e-05,0.016576668247580528,0.7847633957862854,-0.00018411771452520043,0.019025001674890518
449.0,8190.0,2.5334,-0.74,8.997,-0.0275,0.0261,-0.113,-1.6414991817870082,-0.016549495980143547,2.4221110343933105,-1.7603182792663574,0.00238763983361423,2.122199058532715,4.628145857448242,1.0904111150011886e-05,0.30700623989105225,-1.5000985304461878,0.0,-0.0314047709107399,0.7492823004722595,8.44196547404863e-05,0.022174015641212463,0.7848034501075745,-0.00013119041977915913,0.023184265941381454
449.0,8190.0,2.5334,-0.74,8.997,-0.0275,0.0261,-0.113,-1.6415349445738734,-0.0181109756231308,2.4331119060516357,-1.7603708505630493,0.0026814949233084917,2.1765294075012207,4.628165884608887,1.0521681360842194e-05,0.31523972749710083,-1.5000656286822718,0.0,-0.021560095250606537,0.7493306994438171,9.588766988599673e-05,0.0278568584471941,0.7848076820373535,-8.87014321051538e-05,0.03101908415555954
449.0,8190.0,2.5334,-0.74,8.997,-0.0275,0.0261,-0.113,-1.6416102848448695,-0.019326070323586464,2.4044108390808105,-1.7603110074996948,0.0031386036425828934,2.1555473804473877,4.628101511592529,1.0281290997227188e-05,0.31235939264297485,-1.5001180807696741,0.0,-0.03636243939399719,0.7493422031402588,9.261597006116062e-05,0.01999695599079132,0.7847754955291748,-8.322752546519041e-05,-0.016009798273444176
449.0,8190.0,2.5334,-0.74,8.997,-0.0275,0.0261,-0.113,-1.641754766503805,-0.020884277299046516,2.3936190605163574,-1.760343074798584,0.0030532577075064182,2.1699743270874023,4.628150148982666,6.563006422766193e-07,0.3103690445423126,-1.500094238911764,0.0,-0.02742384932935238,0.7493142485618591,8.808380516711622e-05,0.03279554471373558,0.7847754955291748,-7.618245581397787e-05,0.05660201981663704
479.0,551.0,2.3569,-0.4857,8.9324,-0.0341,-0.0142,-0.1249,-1.6418634853758753,-0.021926365792751312,2.390796661376953,-1.760306715965271,0.0032670574728399515,2.173166275024414,4.628073378200195,2.7979127903421386e-09,0.3137781620025635,-1.5001099745379847,0.0,-0.029918137937784195,0.7492982149124146,8.530084596714005e-05,0.021033696830272675,0.7847875356674194,5.020918251830153e-05,-0.03720320761203766
479.0,551.0,2.3569,-0.4857,8.9324,-0.0341,-0.0142,-0.1249,-1.641970773736471,-0.02396189607679844,2.3842263221740723,-1.760231375694275,0.003552931360900402,2.1249754428863525,4.628150148982666,7.788093087102155e-13,0.31424185633659363,-1.5001466909991663,0.0,-0.0268766637891531,0.7492659091949463,8.144140883814543e-05,0.012532382272183895,0.7848955988883972,9.524149936623871e-05,-0.0098496675491333
479.0,551.0,2.3569,-0.4857,8.9324,-0.0341,-0.0142,-0.1249,-1.6420942745604457,-0.025711730122566223,2.3458144664764404,-1.7601982355117798,0.003789341077208519,2.103116512298584,4.628141565913818,2.167844112085739e-16,0.3075539767742157,-1.5001266638385218,0.0,-0.03311903774738312,0.7493060827255249,7.791604002704844e-05,0.01768047735095024,0.7848355770111084,0.0005853852489963174,0.008437968790531158
479.0,551.0,2.3569,-0.4857,8.9324,-0.0341,-0.0142,-0.1249,-1.6422349415221156,-0.028235526755452156,2.4553756713867188,-1.7602506875991821,0.004236286040395498,2.1644396781921387,4.628150148982666,9.24185840745923e-19,0.3195202350616455,-1.5001056830035608,0.0,-0.02388910949230194,0.7493306994438171,8.792832522885874e-05,0.021332338452339172,0.7848796248435974,0.0006064560147933662,-0.03998253121972084
479.0,551.0,2.3569,-0.4857,8.9324,-0.0341,-0.0142,-0.1249,-1.6424108944334925,-0.030535094439983368,2.400448799133301,-1.7602105140686035,0.004728337749838829,2.143852472305298,4.62809340536084,2.5725051993135006e-22,0.3001548647880554,-1.5000975767718714,0.0,-0.030203990638256073,0.7492900490760803,8.47850606078282e-05,0.03981677442789078,0.7848356366157532,0.0006047943024896085,0.023149672895669937
479.0,551.0,2.3569,-0.4857,8.9324,-0.0341,-0.0142,-0.1249,-1.6425939999022425,-0.0332355797290802,2.361058235168457,-1.760062336921692,0.004772248212248087,2.157801628112793,4.628117724055908,7.160663000014141e-26,0.30431318283081055,-1.5001304785357874,0.0,-0.03074699267745018,0.7493422031402588,8.149490167852491e-05,0.033570777624845505,0.7848635315895081,0.0006325438735075295,0.018374722450971603
479.0,551.0,2.3569,-0.4857,8.9324,-0.0341,-0.0142,-0.1249,-1.6427508793272914,-0.03581555560231209,2.40871000289917,-1.7600913047790527,0.0051926299929618835,2.1488640308380127,4.628133459682129,3.052703443553252e-28,0.3103720545768738,-1.5001180807696741,0.0,-0.01653275452554226,0.749269962310791,7.943967648316175e-05,0.033873192965984344,0.7848874926567078,0.0005909057799726725,0.06342537701129913
479.0,551.0,2.3569,-0.4857,8.9324,-0.0341,-0.0142,-0.1249,-1.6429740391173304,-0.037920597940683365,2.3637712001800537,-1.7600274085998535,0.0052102371118962765,2.1663191318511963,4.628105326289795,8.49731129521563e-32,0.2982761263847351,-1.5001300016986292,0.0,-0.030342917889356613,0.7493224143981934,7.654416549485177e-05,0.02291090413928032,0.7848515510559082,0.0005341144278645515,-0.011357961222529411
479.0,551.0,2.3569,-0.4857,8.9324,-0.0341,-0.0142,-0.1249,-1.6432095966734828,-0.04059929400682449,2.3750391006469727,-1.7601161003112793,0.005896575283259153,2.1681783199310303,4.628133459682129,2.3652579288460484e-35,0.30102968215942383,-1.5000985304461878,0.0,-0.01578967645764351,0.7493340373039246,7.385222852462903e-05,0.036744773387908936,0.7848715782165527,0.00044750384404323995,0.005488650873303413
479.0,551.0,2.3569,-0.4857,8.9324,-0.0341,-0.0142,-0.1249,-1.6433659992613734,-0.0433402881026268,2.389167308807373,-1.7600510120391846,0.0056028710678219795,2.1530771255493164,4.628133459682129,1.008346461062729e-37,0.30211973190307617,-1.5001266638385218,0.0,-0.0201732087880373,0.7493504285812378,7.216048106784001e-05,0.016889384016394615,0.7848954796791077,0.0004448800755199045,-0.01750793866813183
479.0,551.0,2.3569,-0.4857,8.9324,-0.0341,-0.0142,-0.1249,-1.6436177692809046,-0.047037456184625626,2.4136412143707275,-1.7600075006484985,0.005522015038877726,2.1639461517333984,4.6281139093586425,2.8068008240426086e-41,0.3050658702850342,-1.5000904242144983,0.0,-0.009832141920924187,0.7493224143981934,6.976325676077977e-05,0.02117297053337097,0.7848954796791077,0.00035871315049007535,0.026557879522442818
479.0,551.0,2.3569,-0.4857,8.9324,-0.0341,-0.0142,-0.1249,-1.6439744434752406,-0.048836849629879,2.3048157691955566,-1.7599515914916992,0.005214814096689224,2.140101194381714,4.628145857448242,8.407790785948902e-45,0.2996542453765869,-1.5000861326800745,0.0,-0.023716429248452187,0.7493306398391724,3.8308542116283206e-08,0.03222290053963661,0.7848874926567078,0.00029909738805145025,0.041413918137550354
479.0,551.0,2.3569,-0.4857,8.9324,-0.0341,-0.0142,-0.1249,-1.6440888843932093,-0.05069843307137489,2.3585734367370605,-1.7600083351135254,0.005179418716579676,2.1185691356658936,4.628177805537842,0.0,0.29890313744544983,-1.5001180807696741,0.0,-0.01145104132592678,0.7493217587471008,1.6331533347901939e-10,0.030685098841786385,0.7848635315895081,0.0002692659618332982,-0.031716976314783096
479.0,551.0,2.3569,-0.4857,8.9324,-0.0341,-0.0142,-0.1249,-1.6444412670531214,-0.052894629538059235,2.347762107849121,-1.7599514722824097,0.0049804686568677425,2.141451835632324,4.628126307124756,0.0,0.31067928671836853,-1.500078026448385,0.0,-0.011129498481750488,0.7493703365325928,4.545942141058641e-14,0.03623015433549881,0.7849276065826416,0.0002342249354114756,0.01917901821434498
479.0,551.0,2.3569,-0.4857,8.9324,-0.0341,-0.0142,-0.1249,-1.644665380517477,-0.05730286240577698,2.341181516647339,-1.759883165359497,0.005299288313835859,2.16630220413208,4.628165884608887,0.0,0.3051004707813263,-1.5001304785357874,0.0,-0.010613654740154743,0.7493463754653931,1.9380063540597149e-16,0.02828099951148033,0.7848755717277527,0.00021552648104261607,-0.008100509643554688
479.0,551.0,2.3569,-0.4857,8.9324,-0.0341,-0.0142,-0.1249,-1.6450163326659144,-0.06023795157670975,2.3446567058563232,-1.7598633766174316,0.004871375858783722,2.146557569503784,4.628157778377197,0.0,0.3136157989501953,-1.5001180807696741,0.0,-0.018878735601902008,0.7493581771850586,5.394511032905135e-20,0.030496541410684586,0.7848675847053528,0.0001603997516212985,-0.034530092030763626
479.0,551.0,2.3569,-0.4857,8.9324,-0.0341,-0.0142,-0.1249,-1.645388742486471,-0.06235871836543083,2.3723607063293457,-1.7598282098770142,0.004831154365092516,2.166393280029297,4.62808529912915,0.0,0.30645743012428284,-1.5001304785357874,0.0,-0.002765101147815585,0.7493380904197693,1.5015819025031778e-23,0.025804005563259125,0.7848914861679077,0.00014490359171759337,0.03381301462650299
556.0,667.0,1.9137,-0.7645,8.8654,-0.036,-0.0441,-0.1345,-1.645644327203268,-0.06420166790485382,2.3391575813293457,-1.7598767280578613,0.0042133335955441,2.1655797958374023,4.628122015590332,0.0,0.31169477105140686,-1.5001056830035608,0.0,-0.006451639346778393,0.749342143535614,6.401479288566577e-26,0.02083948254585266,0.7848914861679077,0.00013613591727335006,-0.0453999899327755
556.0,667.0,1.9137,-0.7645,8.8654,-0.036,-0.0441,-0.1345,-1.6459795437254847,-0.06597878038883209,2.3801422119140625,-1.7598198652267456,0.003665650263428688,2.1517274379730225,4.628105326289795,0.0,0.3027873933315277,-1.5001180807696741,0.0,-0.009911779314279556,0.7492700815200806,1.7818755002984854e-29,0.020758867263793945,0.7848555445671082,0.00012480845907703042,-0.029586371034383774
556.0,667.0,1.9137,-0.7645,8.8654,-0.036,-0.0441,-0.1345,-1.6464444599547328,-0.06900308281183243,2.364983320236206,-1.7598156929016113,0.0036201253533363342,2.1925134658813477,4.628133459682129,0.0,0.3008466958999634,-1.5001266638385218,0.0,-0.005654333159327507,0.7492982149124146,4.9599157613481e-33,0.022213950753211975,0.7848795652389526,0.00011522143904585391,-0.026032954454421997
556.0,667.0,1.9137,-0.7645,8.8654,-0.036,-0.0441,-0.1345,-1.6467000446715296,-0.07172487676143646,2.383894443511963,-1.759768009185791,0.003509935224428773,2.145723342895508,4.628165884608887,0.0,0.3074153959751129,-1.5000618139850062,0.0,0.0008882354013621807,0.7492983937263489,2.1144897706425964e-35,0.0359058752655983,0.7848512530326843,9.519264131085947e-05,-0.07898598164319992
556.0,667.0,1.9137,-0.7645,8.8654,-0.036,-0.0441,-0.1345,-1.6471477947630824,-0.07742322981357574,2.370234727859497,-1.759768009185791,0.0034148981794714928,2.1854610443115234,4.628105326289795,0.0,0.3112356662750244,-1.5000985304461878,0.0,-0.0019458681344985962,0.7493622303009033,5.885760434527919e-39,0.03034496307373047,0.784847617149353,6.210594438016415e-05,-0.042750511318445206
556.0,667.0,1.9137,-0.7645,8.8654,-0.036,-0.0441,-0.1345,-1.6476193867125453,-0.08420466631650925,2.3128647804260254,-1.7597565650939941,0.004526661708950996,2.186884641647339,4.628178282375,0.0,0.29157936573028564,-1.5001423994647425,0.0,-0.016413550823926926,0.7493504285812378,1.638117904795711e-42,0.028912946581840515,0.7848275899887085,-4.695807729149237e-05,-0.07737027108669281
556.0,667.0,1.9137,-0.7645,8.8654,-0.036,-0.0441,-0.1345,-1.6479188404478968,-0.08749524503946304,2.373605251312256,-1.7597005367279053,0.005820044782012701,2.20489764213562,4.628145857448242,0.0,0.30179232358932495,-1.5001142660724085,0.0,-0.002642989158630371,0.7493299245834351,7.006492321624085e-45,0.04324411600828171,0.7848715782165527,-6.671497249044478e-05,-0.08701096475124359
556.0,667.0,1.9137,-0.7645,8.8654,-0.036,-0.0441,-0.1345,-1.6485234699644984,-0.09064935147762299,2.3318839073181152,-1.7596642971038818,0.008156437426805496,2.1509523391723633,4.628072901363037,0.0,0.2966427803039551,-1.5000904242144983,0.0,-0.009853273630142212,0.7493184208869934,0.0,0.030335336923599243,0.7849035263061523,-6.237720663193613e-05,-0.037630610167980194
556.0,667.0,1.9137,-0.7645,8.8654,-0.036,-0.0441,-0.1345,-1.649057527581686,-0.09495534002780914,2.333542585372925,-1.7595877647399902,0.010633278638124466,2.1837966442108154,4.628150148982666,0.0,0.3088587522506714,-1.5000985304461878,0.0,-0.009824145585298538,0.7493544220924377,0.0,0.027542810887098312,0.7848355770111084,-5.833414616063237e-05,-0.04041287675499916
556.0,667.0,1.9137,-0.7645,8.8654,-0.036,-0.0441,-0.1345,-1.6494490108885707,-0.09731534123420715,2.2999346256256104,-1.7595369815826416,0.012688662856817245,2.2519843578338623,4.628137751216553,0.0,0.3039804995059967,-1.5001266638385218,0.0,-0.017614860087633133,0.7493340969085693,0.0,0.029988914728164673,0.7848396301269531,-5.591793524217792e-05,-0.05136308819055557
556.0,667.0,1.9137,-0.7645,8.8654,-0.036,-0.0441,-0.1345,-1.6500536404051722,-0.10012965649366379,2.355976104736328,-1.7594841718673706,0.014378068037331104,2.1950438022613525,4.628089113826416,0.0,0.31074050068855286,-1.5001180807696741,0.0,-0.008434506133198738,0.7493063807487488,0.0,0.03172218054533005,0.7848436236381531,-5.2646944823209196e-05,-0.02203921601176262
556.0,667.0,1.9137,-0.7645,8.8654,-0.036,-0.0441,-0.1345,-1.6505056820311488,-0.09946568310260773,2.363922119140625,-1.7593929767608643,0.014847281388938427,2.2552132606506348,4.628125353450439,0.0,0.302467942237854,-1.5001423994647425,0.0,-0.006178616546094418,0.7493063807487488,0.0,0.018749047070741653,0.7848396301269531,-5.067091478849761e-05,-0.096548892557621
556.0,667.0,1.9137,-0.7645,8.8654,-0.036,-0.0441,-0.1345,-1.6511208019652308,-0.09778020530939102,2.3908464908599854,-1.759369134902954,0.014438983052968979,2.22208309173584,4.628117724055908,0.0,0.3158301115036011,-1.500078026448385,0.0,-0.00845098216086626,0.7493824362754822,0.0,0.024350019171833992,0.784847617149353,-4.7970203013392165e-05,-0.09849300235509872
556.0,667.0,1.9137,-0.7645,8.8654,-0.036,-0.0441,-0.1345,-1.6517073116698207,-0.09955357760190964,2.3706698417663574,-1.7592819929122925,0.014355799183249474,2.212078809738159,4.628129168147705,0.0,0.3131659924983978,-1.5001056830035608,0.0,-0.004503979347646236,0.749294102191925,0.0,0.030987568199634552,0.7848559617996216,-3.555020157364197e-05,-0.027886610478162766
556.0,667.0,1.9137,-0.7645,8.8654,-0.036,-0.0441,-0.1345,-1.6521464786925257,-0.10348471254110336,2.3711156845092773,-1.7591848373413086,0.01354767382144928,2.2779064178466797,4.628122015590332,0.0,0.3288962244987488,-1.500122372304098,0.0,0.001458198530599475,0.7493142485618591,0.0,0.02531832829117775,0.7848436236381531,-2.93719676847104e-05,-0.027783485129475594
556.0,667.0,1.9137,-0.7645,8.8654,-0.036,-0.0441,-0.1345,-1.6527334652342738,-0.1109488233923912,2.3443593978881836,-1.7591172456741333,0.011805623769760132,2.2352585792541504,4.628141565913818,0.0,0.31053057312965393,-1.5000818411456507,0.0,-0.0007344554178416729,0.7493703365325928,0.0,0.029336221516132355,0.784867525100708,-4.199795876047574e-05,-0.04895878955721855
556.0,667.0,1.9137,-0.7645,8.8654,-0.036,-0.0441,-0.1345,-1.6534410915770472,-0.1198945939540863,2.3756046295166016,-1.75900137424469,0.012824839912354946,2.2242026329040527,4.628097220058105,0.0,0.30487340688705444,-1.5000699202166956,0.0,-0.009015519171953201,0.7493462562561035,0.0,0.01694449968636036,0.7847955226898193,-4.012795034213923e-05,-0.07836666703224182
763.0,843.0,3.8698,-1.1366,8.0471,-0.048,-0.1379,-0.1255,-1.653910299340719,-0.12591706216335297,2.350031852722168,-1.758941411972046,0.015353361144661903,2.257934093475342,4.628157778377197,0.0,0.32025694847106934,-1.5001028219806116,0.0,-0.004600814078003168,0.7493101358413696,0.0,0.013986856676638126,0.7848034501075745,-5.1952421927126125e-05,-0.08689326047897339
763.0,843.0,3.8698,-1.1366,8.0471,-0.048,-0.1379,-0.1255,-1.6546436748900355,-0.12755294144153595,2.384110450744629,-1.7588458061218262,0.02129494771361351,2.2634994983673096,4.628141565913818,9.158420289168134e-05,0.314663290977478,-1.5001266638385218,0.0,0.00226355018094182,0.7493104934692383,0.0,0.012579057365655899,0.7848395705223083,-6.225304241525009e-05,-0.06979040056467056
763.0,843.0,3.8698,-1.1366,8.0471,-0.048,-0.1379,-0.1255,-1.65545715908193,-0.12353473901748657,2.3823673725128174,-1.7586668729782104,0.02965318039059639,2.337691068649292,4.6282264429279785,0.0007318976568058133,0.31639760732650757,-1.5001056830035608,0.0,0.003079702379181981,0.749374508857727,0.0,0.015405600890517235,0.7848275899887085,-5.97731486777775e-05,-0.036840520799160004
763.0,843.0,3.8698,-1.1366,8.0471,-0.048,-0.1379,-0.1255,-1.6560069523253382,-0.11775016784667969,2.4266011714935303,-1.7585827112197876,0.035054776817560196,2.3144338130950928,4.628185911769531,0.0006455848342739046,0.3186592161655426,-1.5000818411456507,0.0,-0.013913769274950027,0.7492900490760803,0.0,0.027165474370121956,0.7848914861679077,-5.822636012453586e-05,-0.035400547087192535
763.0,843.0,3.8698,-1.1366,8.0471,-0.048,-0.1379,-0.1255,-1.6567212543883265,-0.11283082515001297,2.4243645668029785,-1.7583794593811035,0.04054846987128258,2.3385353088378906,4.628157778377197,0.00046203372767195106,0.32936549186706543,-1.5001028219806116,0.0,-0.012124048545956612,0.7493184208869934,0.0,0.016867216676473618,0.7848474979400635,-4.1288065403932706e-05,-0.06447219848632812
763.0,843.0,3.8698,-1.1366,8.0471,-0.048,-0.1379,-0.1255,-1.6575104198851527,-0.12091900408267975,2.3882455825805664,-1.7581276893615723,0.04565223678946495,2.3349032402038574,4.628117724055908,0.0001795545540517196,0.33873963356018066,-1.5000985304461878,0.0,-0.009644189849495888,0.7493380904197693,0.0,0.036322250962257385,0.7848795652389526,-7.726985700173827e-07,-0.07660920917987823
763.0,843.0,3.8698,-1.1366,8.0471,-0.048,-0.1379,-0.1255,-1.6580497227110804,-0.13151657581329346,2.4033896923065186,-1.757991909980774,0.045028205960989,2.358311176300049,4.628141565913818,1.9364981199032627e-05,0.3368310332298279,-1.5000985304461878,0.0,-0.011099740862846375,0.7493299245834351,0.0,0.014632349833846092,0.7849116325378418,-1.390830228764628e-10,-0.058577582240104675
763.0,843.0,3.8698,-1.1366,8.0471,-0.048,-0.1379,-0.1255,-1.658839841882223,-0.14726029336452484,2.3914222717285156,-1.757724642753601,0.04736543446779251,2.354191780090332,4.628133459682129,5.390313528863544e-09,0.33455222845077515,-1.5000818411456507,0.0,-0.002997747389599681,0.7492900490760803,0.0,0.0278310589492321,0.7848675847053528,-3.358691306050806e-16,-0.02643975429236889
763.0,843.0,3.8698,-1.1366,8.0471,-0.048,-0.1379,-0.1255,-1.6594025097289027,-0.15374760329723358,2.3910436630249023,-1.757436752319336,0.0513971708714962,2.3899338245391846,4.628150148982666,2.2979748312557113e-11,0.33357328176498413,-1.5000861326800745,0.0,-0.0107341930270195,0.7492983341217041,0.0,0.023246843367815018,0.784851610660553,-6.045525762556522e-20,-0.04455721750855446
763.0,843.0,3.8698,-1.1366,8.0471,-0.048,-0.1379,-0.1255,-1.6602994404234828,-0.1564609557390213,2.408115863800049,-1.757106065750122,0.06286318600177765,2.376117706298828,4.6281654077717285,6.396497626682358e-15,0.33308935165405273,-1.5000904242144983,0.0,-0.0007839089375920594,0.7492781281471252,0.0,0.012492572888731956,0.7848596572875977,-1.4599233068771494e-25,-0.05607570335268974
763.0,843.0,3.8698,-1.1366,8.0471,-0.048,-0.1379,-0.1255,-1.661199232141012,-0.14713525772094727,2.4008498191833496,-1.7566677331924438,0.08057169616222382,2.3663415908813477,4.628189249629639,1.780488484137222e-18,0.3271344304084778,-1.5000861326800745,0.0,-0.022044358775019646,0.7493340969085693,0.0,0.01955539360642433,0.7848476767539978,-3.525542892085075e-31,-0.07559894770383835
763.0,843.0,3.8698,-1.1366,8.0471,-0.048,-0.1379,-0.1255,-1.6617938480772914,-0.13354367017745972,2.4646313190460205,-1.7563196420669556,0.09360511600971222,2.421388626098633,4.628201647395752,0.00138619146309793,0.3364885449409485,-1.5000742117511194,0.0,-0.014637412503361702,0.7493827939033508,0.0,0.004797755740582943,0.784847617149353,-6.345854021475679e-35,-0.00650015939027071
763.0,843.0,3.8698,-1.1366,8.0471,-0.048,-0.1379,-0.1255,-1.6626612148680628,-0.12398470193147659,2.456477642059326,-1.7557094097137451,0.11003603041172028,2.446383476257324,4.628149672145508,0.0006914716213941574,0.3366152048110962,-1.5001099745379847,0.0,-0.0028014646377414465,0.7493101954460144,0.0,0.01791195571422577,0.784807562828064,-1.5324459876009767e-40,-0.04743620380759239
763.0,843.0,3.8698,-1.1366,8.0471,-0.048,-0.1379,-0.1255,-1.663490434686178,-0.1322137862443924,2.5055246353149414,-1.7550712823867798,0.11482546478509903,2.483376979827881,4.628137751216553,2.7221793061471544e-05,0.34646445512771606,-1.5000818411456507,0.0,-0.02224336750805378,0.7493142485618591,0.0,0.011379932053387165,0.7848834991455078,0.00034545394009910524,-0.06116830185055733
763.0,843.0,3.8698,-1.1366,8.0471,-0.048,-0.1379,-0.1255,-1.6640459499754847,-0.14886783063411713,2.4648072719573975,-1.7545840740203857,0.11357056349515915,2.4967756271362305,4.628109617824219,-0.00028813324752263725,0.3435664772987366,-1.5000742117511194,0.0,-0.00999251939356327,0.7493347525596619,0.0,0.006183593533933163,0.7848997116088867,0.0007904911180958152,-0.06955680251121521
763.0,843.0,3.8698,-1.1366,8.0471,-0.048,-0.1379,-0.1255,-1.6649366817870082,-0.16969923675060272,2.4461917877197266,-1.7538939714431763,0.1114790290594101,2.4564590454101562,4.628105803126953,-0.0002229963574791327,0.34861594438552856,-1.5000341574298304,0.0,-0.023081453517079353,0.7493504881858826,0.0,0.02233187109231949,0.7848996520042419,0.0006125837680883706,-0.024731870740652084
763.0,843.0,3.8698,-1.1366,8.0471,-0.048,-0.1379,-0.1255,-1.665849348107809,-0.1738588660955429,2.4496102333068848,-1.7531282901763916,0.11724132299423218,2.4550724029541016,4.628189726466797,-7.58720634621568e-05,0.34100449085235596,-1.5000785032855433,1.278986694330797e-08,-0.0038329754024744034,0.7493224143981934,0.0,0.00796513445675373,0.7848436236381531,0.0002659855817910284,-0.048732608556747437
763.0,843.0,3.8698,-1.1366,8.0471,-0.048,-0.1379,-0.1255,-1.6664773426451625,-0.16644646227359772,2.4232776165008545,-1.7525814771652222,0.12771126627922058,2.503669023513794,4.628197832698486,-5.636121613861178e-07,0.34460511803627014,-1.5001180807696741,5.45252072658986e-11,-0.017855066806077957,0.7493544220924377,0.0,0.005396186839789152,0.7848517894744873,-0.0005483158747665584,-0.034446097910404205
871.0,839.0,3.8195,-1.2843,8.0925,-0.0498,0.1118,-0.1122,-1.6673642597594203,-0.14446133375167847,2.4802770614624023,-1.7517634630203247,0.1467968374490738,2.530467987060547,4.628249331111572,0.001655133324675262,0.34561699628829956,-1.500122372304098,1.5177292202964848e-14,0.0030322959646582603,0.7493783235549927,0.0,0.0051337480545043945,0.7848315238952637,-0.001439360436052084,-0.03829466551542282
871.0,839.0,3.8195,-1.2843,8.0925,-0.0498,0.1118,-0.1122,-1.6682502231993617,-0.12848375737667084,2.538973331451416,-1.7508339881896973,0.16308213770389557,2.563394546508789,4.6281773287006835,0.0006690913578495383,0.34645432233810425,-1.50006610551943,4.224654992998709e-18,-0.003118476364761591,0.7493224143981934,0.0,0.020384855568408966,0.7847554087638855,-0.0006090085371397436,-0.058600131422281265
871.0,839.0,3.8195,-1.2843,8.0925,-0.0498,0.1118,-0.1122,-1.668837686578268,-0.127569779753685,2.553992748260498,-1.7501639127731323,0.17345550656318665,2.580132007598877,4.628201647395752,0.00017170593491755426,0.3760923147201538,-1.500078026448385,1.801036503583046e-20,-0.011844844557344913,0.7492781281471252,0.0,0.0029007550328969955,0.7848715782165527,0.0004073158197570592,-0.08343785256147385
871.0,839.0,3.8195,-1.2843,8.0925,-0.0498,0.1118,-0.1122,-1.6696955166258753,-0.1393791139125824,2.52359676361084,-1.7491304874420166,0.17787784337997437,2.5868444442749023,4.628081484431885,2.6950499432132347e-07,0.3464353680610657,-1.5000579992877405,5.013251284585696e-24,-0.00609507504850626,0.7493064403533936,0.0,0.004562263377010822,0.7848754525184631,0.0016868802485987544,-0.0745970830321312
871.0,839.0,3.8195,-1.2843,8.0925,-0.0498,0.1118,-0.1122,-1.6703525982298792,-0.1531713902950287,2.4984729290008545,-1.7483514547348022,0.1753590703010559,2.5910372734069824,4.6281701761433105,-0.0004910058341920376,0.3530367612838745,-1.500009838734762,2.1372277245202438e-26,0.0075506228022277355,0.7493146657943726,0.0,0.013712037354707718,0.7848876118659973,0.0015612303977832198,-0.0823339894413948
871.0,839.0,3.8195,-1.2843,8.0925,-0.0498,0.1118,-0.1122,-1.671246191064352,-0.17375150322914124,2.494034767150879,-1.747338891029358,0.17708030343055725,2.5513007640838623,4.628145857448242,-0.0008331252611242235,0.3504713773727417,-1.5000341574298304,5.949050896517189e-30,-0.010209886357188225,0.7493143081665039,0.0,-0.006803932599723339,0.7848834991455078,0.0011283541098237038,-0.02541586384177208
871.0,839.0,3.8195,-1.2843,8.0925,-0.0498,0.1118,-0.1122,-1.67216219524526,-0.17607107758522034,2.4880635738372803,-1.7461657524108887,0.18277902901172638,2.5711300373077393,4.628153486842773,-0.00035071276943199337,0.33921289443969727,-1.5000622908221644,1.6559403815094574e-33,0.007841236889362335,0.7493504285812378,0.0,0.018184464424848557,0.784851610660553,0.000672954018227756,-0.047497011721134186
871.0,839.0,3.8195,-1.2843,8.0925,-0.0498,0.1118,-0.1122,-1.6728183231749476,-0.16623392701148987,2.4746406078338623,-1.7453309297561646,0.1929977685213089,2.562839984893799,4.628153486842773,-0.0002608354261610657,0.340604305267334,-1.5000785032855433,7.059533777838649e-36,-0.0001367179211229086,0.7493544220924377,0.0,0.016141969710588455,0.7848634719848633,1.7799850411392981e-06,-0.1008833721280098
871.0,839.0,3.8195,-1.2843,8.0925,-0.0498,0.1118,-0.1122,-1.6737247906126917,-0.15462715923786163,2.447965383529663,-1.7440904378890991,0.20545276999473572,2.5529232025146484,4.628222151393555,0.0001671987702138722,0.3375230133533478,-1.500054184590475,1.9650464417165483e-39,-0.00642455043271184,0.7493224143981934,0.0,0.00601781252771616,0.7848315238952637,-0.0019461363554000854,-0.10862529277801514
871.0,839.0,3.8195,-1.2843,8.0925,-0.0498,0.1118,-0.1122,-1.674603124658102,-0.14538542926311493,2.490243434906006,-1.742841362953186,0.21355359256267548,2.574394702911377,4.628157778377197,0.00013081668294034898,0.33983278274536133,-1.5000785032855433,5.4650640108667866e-43,-0.0034802572336047888,0.74927818775177,0.0,0.00799993984401226,0.7848715782165527,-0.0002357404591748491,-0.0746249109506607
871.0,839.0,3.8195,-1.2843,8.0925,-0.0498,0.1118,-0.1122,-1.6752916775145472,-0.14432111382484436,2.512385368347168,-1.7419641017913818,0.22332537174224854,2.591026782989502,4.6281773287006835,0.00011420605733292177,0.3563993275165558,-1.500094238911764,2.802596928649634e-45,0.0027844938449561596,0.7493024468421936,0.0,0.005257641896605492,0.7848834991455078,-4.2432446889506537e-08,-0.13695381581783295
871.0,839.0,3.8195,-1.2843,8.0925,-0.0498,0.1118,-0.1122,-1.6761943302550257,-0.14829492568969727,2.474749803543091,-1.7406283617019653,0.23071187734603882,2.667128086090088,4.6281139093586425,2.7880776542588137e-05,0.3321349620819092,-1.5000823179828089,0.0,0.008887924253940582,0.7493184208869934,0.0,0.012761506251990795,0.7849316596984863,0.0016534068854525685,-0.08545704185962677
871.0,839.0,3.8195,-1.2843,8.0925,-0.0498,0.1118,-0.1122,-1.677101274529928,-0.15643532574176788,2.5216193199157715,-1.7392314672470093,0.23500710725784302,2.6429600715637207,4.6281139093586425,7.760716513871557e-09,0.3353657126426697,-1.5000785032855433,0.0,-0.0008307745447382331,0.7493143081665039,0.0,0.004960211925208569,0.7849279046058655,0.0013059541815891862,-0.08543576300144196
871.0,839.0,3.8195,-1.2843,8.0925,-0.0498,0.1118,-0.1122,-1.6777688465514125,-0.1653597056865692,2.485991954803467,-1.7383173704147339,0.2346315085887909,2.6042375564575195,4.6281139093586425,3.308515267308465e-11,0.3430524170398712,-1.500054184590475,0.0,0.01443815603852272,0.7492823600769043,0.0,0.0212387815117836,0.7849075794219971,0.0011071708286181092,-0.05976204574108124
871.0,839.0,3.8195,-1.2843,8.0925,-0.0498,0.1118,-0.1122,-1.6786953411498011,-0.176412433385849,2.3824238777160645,-1.7368568181991577,0.23979483544826508,2.65688419342041,4.628126307124756,-0.0006189308478496969,0.33000391721725464,-1.5000465551959437,0.0,0.0017449974548071623,0.7493104338645935,0.0,0.002974847797304392,0.7848917245864868,0.000561793043743819,-0.11532121896743774
871.0,839.0,3.8195,-1.2843,8.0925,-0.0498,0.1118,-0.1122,-1.6796699963011683,-0.18086087703704834,2.4546892642974854,-1.73541259765625,0.2539869546890259,2.5691726207733154,4.628173990840576,-0.00039831080357544124,0.3229690194129944,-1.5000699202166956,0.0,0.0018068654462695122,0.7493102550506592,0.0,0.009476060047745705,0.7848834991455078,-0.0002758116170298308,-0.12301436066627502
871.0,839.0,3.8195,-1.2843,8.0925,-0.0498,0.1118,-0.1122,-1.6804381809630335,-0.17752987146377563,2.422694444656372,-1.7342867851257324,0.26481446623802185,2.6379551887512207,4.628185911769531,-0.0002950099587906152,0.332425594329834,-1.5000823179828089,0.0,0.02677077054977417,0.7493024468421936,0.0,0.017542783170938492,0.7848914861679077,-0.0005240809405222535,-0.15095819532871246
778.0,674.0,2.3025,-1.2413,8.4209,-0.056,0.1504,-0.1087,-1.681481500665182,-0.17045317590236664,2.4386606216430664,-1.7326964139938354,0.2755433917045593,2.611070156097412,4.628194018001221,-0.00023663615866098553,0.32012835144996643,-1.500049893056051,0.0,0.02139110304415226,0.7493101358413696,0.0,0.0072440896183252335,0.7848555445671082,-0.0011131484061479568,-0.160600483417511
778.0,674.0,2.3025,-1.2413,8.4209,-0.056,0.1504,-0.1087,-1.6821843586363734,-0.16602812707424164,2.419137477874756,-1.7315740585327148,0.28250911831855774,2.6343517303466797,4.628149672145508,-0.00015733693726360798,0.3197147250175476,-1.5000622908221644,0.0,0.014187918975949287,0.7492862939834595,0.0,0.020919540897011757,0.7848874926567078,-0.0009412472136318684,-0.11026529222726822
778.0,674.0,2.3025,-1.2413,8.4209,-0.056,0.1504,-0.1087,-1.6832953892149867,-0.16978739202022552,2.462412118911743,-1.7298951148986816,0.2966727912425995,2.644211530685425,4.628122015590332,-0.00012101981701562181,0.3305123448371887,-1.5000622908221644,0.0,0.008027197793126106,0.7493265271186829,0.0,0.025437090545892715,0.784895658493042,-0.00024857843527570367,-0.11893434822559357
778.0,674.0,2.3025,-1.2413,8.4209,-0.056,0.1504,-0.1087,-1.684385438958639,-0.18798835575580597,2.4831018447875977,-1.728095531463623,0.30162858963012695,2.684105157852173,4.62809340536084,-0.0001753560354700312,0.3176981806755066,-1.500078026448385,0.0,0.016681069508194923,0.7493863701820374,0.0,0.011240502819418907,0.7849395275115967,-8.658725710120052e-05,-0.09005750715732574
778.0,674.0,2.3025,-1.2413,8.4209,-0.056,0.1504,-0.1087,-1.6851850948729457,-0.20457690954208374,2.379307270050049,-1.7268980741500854,0.3006152808666229,2.663316249847412,4.628145857448242,-0.0009449272765778005,0.3181817829608917,-1.5000341574298304,0.0,0.011530120857059956,0.7493063807487488,0.0,0.01200982928276062,0.7849037051200867,-7.260572601808235e-05,-0.16384485363960266
778.0,674.0,2.3025,-1.2413,8.4209,-0.056,0.1504,-0.1087,-1.6864553890623988,-0.2214435338973999,2.3353371620178223,-1.7251149415969849,0.30803272128105164,2.639197826385498,4.628129168147705,-0.0007734925020486116,0.3183288872241974,-1.5000622908221644,0.0,0.011793980374932289,0.7493023872375488,0.0,0.021410997956991196,0.7848675847053528,-0.0001729075302137062,-0.12129750847816467
778.0,674.0,2.3025,-1.2413,8.4209,-0.056,0.1504,-0.1087,-1.6877466640868128,-0.21693970263004303,2.412534236907959,-1.7231961488723755,0.32023927569389343,2.629979133605957,4.628141565913818,-0.0005665338248945773,0.30489152669906616,-1.5000742117511194,6.569888500962406e-05,0.041692230850458145,0.7493264675140381,0.0,0.005975473206490278,0.7848315834999084,-0.0016437129816040397,-0.15264271199703217
778.0,674.0,2.3025,-1.2413,8.4209,-0.056,0.1504,-0.1087,-1.68864168743276,-0.21258865296840668,2.3926587104797363,-1.721901535987854,0.32064977288246155,2.642948627471924,4.628137751216553,-0.00020323804346844554,0.30828607082366943,-1.5000579992877405,6.429112545447424e-05,0.02136463113129139,0.7494105100631714,0.0,0.014149983413517475,0.7848114967346191,-0.002234438434243202,-0.09579618275165558
