ramyac6/ROB537/final_project/csv/test/good/good_113.csv
tof_0,tof_1,accelx,accely,accelz,gyrox,gyroy,gyroz,shoulder_lift_joint_position,shoulder_lift_joint_velocity,shoulder_lift_joint_effort,elbow_joint_position,elbow_joint_velocity,elbow_joint_effort,wrist_1_joint_position,wrist_1_joint_velocity,wrist_1_joint_effort,wrist_2_joint_position,wrist_2_joint_velocity,wrist_2_joint_effort,wrist_3_joint_position,wrist_3_joint_velocity,wrist_3_joint_effort,shoulder_pan_joint_position,shoulder_pan_joint_velocity,shoulder_pan_joint_effort
518.0,405.0,7.5966,-0.0419,5.2887,-0.0341,0.0289,-0.1286,-1.6146069965758265,0.0,2.2890539169311523,-1.190742015838623,-0.0,2.035064697265625,3.3973991113850097,-0.0,0.24265217781066895,-1.5590103308307093,-0.0,-0.011322718113660812,0.7742236256599426,-0.0,-0.007519353646785021,0.8144745230674744,0.0,0.04601597413420677
518.0,405.0,7.5966,-0.0419,5.2887,-0.0341,0.0289,-0.1286,-1.614575048486227,0.0,2.203157901763916,-1.1907904148101807,-0.0,2.043062448501587,3.3973309236713867,-0.0,0.23735368251800537,-1.5589903036700647,-0.0,-0.0011619124561548233,0.7742841839790344,-0.0,-0.015329321846365929,0.8144385814666748,0.0,0.01027860026806593
518.0,405.0,7.5966,-0.0419,5.2887,-0.0341,0.0289,-0.1286,-1.6146475277342738,0.0,2.2244064807891846,-1.1907141208648682,-0.0,2.074136972427368,3.397407217616699,-0.0,0.244983971118927,-1.5589707533465784,-0.0,-0.007148008793592453,0.7742440700531006,-0.0,-0.010609334334731102,0.8144465684890747,0.0,-0.02260768599808216
518.0,405.0,7.5966,-0.0419,5.2887,-0.0341,0.0289,-0.1286,-1.614615102807516,0.0,2.277090549468994,-1.190665602684021,-0.0,2.0583348274230957,3.397411509151123,-0.0,0.2301284372806549,-1.5589583555804651,-0.0,-0.020450327545404434,0.7742682695388794,-0.0,-0.007424505427479744,0.8144586086273193,0.0,-0.02187403291463852
518.0,405.0,7.5966,-0.0419,5.2887,-0.0341,0.0289,-0.1286,-1.6146112881102503,0.0,2.252349376678467,-1.1907339096069336,-0.0,2.0297207832336426,3.397390528316162,-0.0,0.24197158217430115,-1.5589864889727991,-0.0,-0.015470847487449646,0.7743042707443237,-0.0,-0.023473387584090233,0.8144466876983643,0.0,-0.002661205129697919
518.0,405.0,7.5966,-0.0419,5.2887,-0.0341,0.0289,-0.1286,-1.6146069965758265,0.0,2.2350471019744873,-1.1907141208648682,-0.0,2.034079074859619,3.3973423677631835,-0.0,0.24236662685871124,-1.558974568043844,-0.0,-0.006227303761988878,0.774316668510437,-0.0,-0.006631872616708279,0.8144387602806091,0.0,0.019607525318861008
518.0,405.0,7.5966,-0.0419,5.2887,-0.0341,0.0289,-0.1286,-1.6146232090392054,0.0,2.2677738666534424,-1.1907017230987549,-0.0,2.0703115463256836,3.397395296687744,-0.0,0.24230080842971802,-1.5589583555804651,-0.0,-0.021297091618180275,0.7743043303489685,-0.0,-0.006133010610938072,0.8144144415855408,0.0,-0.01944848895072937
543.0,456.0,7.4865,-0.0885,5.3659,-0.0403,0.0183,-0.1141,-1.614603181878561,0.0,2.2441866397857666,-1.1907461881637573,-0.0,2.041919708251953,3.3974153238483886,-0.0,0.24733151495456696,-1.5589826742755335,-0.0,-0.018823690712451935,0.7742801308631897,-0.0,-0.0034309355542063713,0.8145064115524292,0.0,0.01032322272658348
543.0,456.0,7.4865,-0.0885,5.3659,-0.0403,0.0183,-0.1141,-1.6146794758238734,0.0,2.2237422466278076,-1.190718173980713,-0.0,1.9814512729644775,3.3974196153828125,-0.0,0.2474299669265747,-1.5589621702777308,-0.0,0.00018025143072009087,0.7742683291435242,-0.0,-0.011792164295911789,0.8143904805183411,0.0,0.030464038252830505
543.0,456.0,7.4865,-0.0885,5.3659,-0.0403,0.0183,-0.1141,-1.6146275005736292,0.0,2.19838285446167,-1.1907542943954468,-0.0,2.046133518218994,3.3974224764057617,-0.0,0.24231353402137756,-1.558962647114889,-0.0,-0.006329796276986599,0.7742317318916321,-0.0,-0.008171661756932735,0.8144745826721191,0.0,0.024014445021748543
543.0,456.0,7.4865,-0.0885,5.3659,-0.0403,0.0183,-0.1141,-1.6146632633604945,0.0,2.259472608566284,-1.1907904148101807,-0.0,2.0967721939086914,3.3973986345478515,-0.0,0.2462829351425171,-1.55902606645693,-0.0,0.003573113353922963,0.7742399573326111,-0.0,-0.015017418190836906,0.8144664764404297,0.0,-0.005289558321237564
543.0,456.0,7.4865,-0.0885,5.3659,-0.0403,0.0183,-0.1141,-1.6146189175047816,0.0,2.236687183380127,-1.190750241279602,-0.0,2.0258092880249023,3.3973709779926757,-0.0,0.23180124163627625,-1.5589664618121546,-0.0,0.001817529322579503,0.7742517590522766,-0.0,-0.0039466856978833675,0.8144184350967407,0.0,-0.010147827677428722
543.0,456.0,7.4865,-0.0885,5.3659,-0.0403,0.0183,-0.1141,-1.614598890344137,0.0,2.2395739555358887,-1.190742015838623,-0.0,2.0215752124786377,3.397346182460449,-0.0,0.23436228930950165,-1.558934513722555,-0.0,-0.003672855207696557,0.7742923498153687,-0.0,-0.007623185403645039,0.8144105076789856,0.0,0.023065786808729172
543.0,456.0,7.4865,-0.0885,5.3659,-0.0403,0.0183,-0.1141,-1.61464323619985,0.0,2.2102198600769043,-1.1907296180725098,-0.0,2.0301270484924316,3.3973910051533203,-0.0,0.25151723623275757,-1.5590222517596644,-0.0,-0.00015066814376041293,0.7742682695388794,-0.0,-0.00961767416447401,0.8144426345825195,0.0,-0.011268198490142822
543.0,456.0,7.4865,-0.0885,5.3659,-0.0403,0.0183,-0.1141,-1.6145993671812953,0.0,2.2431282997131348,-1.1906943321228027,-0.0,2.049647808074951,3.3974153238483886,-0.0,0.25029149651527405,-1.5589984099017542,-0.0,-0.011143382638692856,0.7742559909820557,-0.0,-0.0077881282195448875,0.8144385814666748,0.0,-0.020405570045113564
543.0,456.0,7.4865,-0.0885,5.3659,-0.0403,0.0183,-0.1141,-1.614598890344137,0.0,2.2253949642181396,-1.1906377077102661,-0.0,2.0845892429351807,3.3973628717609863,-0.0,0.24227163195610046,-1.5590103308307093,-0.0,0.005040556658059359,0.7742760181427002,-0.0,-0.01851559802889824,0.8144065141677856,0.0,0.05868224427103996
543.0,456.0,7.4865,-0.0885,5.3659,-0.0403,0.0183,-0.1141,-1.61464323619985,0.0,2.236299991607666,-1.1907823085784912,-0.0,2.0821993350982666,3.3974196153828125,-0.0,0.23294353485107422,-1.5589264074908655,-0.0,-0.015108741819858551,0.774267852306366,-0.0,-0.01430680975317955,0.8144184350967407,0.0,-0.040688131004571915
543.0,456.0,7.4865,-0.0885,5.3659,-0.0403,0.0183,-0.1141,-1.6146351299681605,0.0,2.2098662853240967,-1.1907296180725098,-0.0,2.0350890159606934,3.397394819850586,-0.0,0.24850139021873474,-1.5589783827411097,-0.0,-0.004712341818958521,0.7742882966995239,-0.0,-0.0018327712314203382,0.8144625425338745,0.0,0.01071928907185793
543.0,456.0,7.4865,-0.0885,5.3659,-0.0403,0.0183,-0.1141,-1.6146351299681605,0.0,2.265486240386963,-1.190718173980713,-0.0,2.050279378890991,3.3973752695270996,-0.0,0.24095846712589264,-1.5590065161334437,-0.0,0.001912246341817081,0.7742559909820557,-0.0,-0.02130834385752678,0.8144506216049194,0.0,0.01121028233319521
543.0,456.0,7.4865,-0.0885,5.3659,-0.0403,0.0183,-0.1141,-1.6145912609496058,0.0,2.2135732173919678,-1.190730333328247,-0.0,2.0701422691345215,3.397382898921631,-0.0,0.2462543249130249,-1.5589621702777308,-0.0,-0.009998515248298645,0.7742719650268555,-0.0,-0.012081464752554893,0.8144426345825195,0.0,-0.013041437603533268
543.0,456.0,7.4865,-0.0885,5.3659,-0.0403,0.0183,-0.1141,-1.6146394215025843,0.0,2.27036714553833,-1.190718173980713,-0.0,2.047440528869629,3.3974029260822753,-0.0,0.23701202869415283,-1.5589225927936,-0.0,-0.0033770937006920576,0.7742923498153687,-0.0,-0.005778462626039982,0.8144466876983643,0.0,-0.017359549179673195
556.0,405.0,7.5841,-0.0658,5.1781,-0.0406,0.0218,-0.1229,-1.6146475277342738,0.0,2.235666513442993,-1.1906739473342896,-0.0,2.0938479900360107,3.3974029260822753,-0.0,0.25262391567230225,-1.5590103308307093,-0.0,-0.0013646262232214212,0.7742195129394531,-0.0,-0.0213917288929224,0.8145106434822083,0.0,0.027308305725455284
556.0,405.0,7.5841,-0.0658,5.1781,-0.0406,0.0218,-0.1229,-1.6146632633604945,0.0,2.21380615234375,-1.1907213926315308,-0.0,2.0314226150512695,3.397434874171875,-0.0,0.24241358041763306,-1.5589664618121546,-0.0,-0.006741933524608612,0.774235725402832,-0.0,-0.011068549938499928,0.8144585490226746,0.0,0.0013023251667618752
556.0,405.0,7.5841,-0.0658,5.1781,-0.0406,0.0218,-0.1229,-1.6146232090392054,0.0,2.2263903617858887,-1.1907662153244019,-0.0,2.077346086502075,3.397382898921631,-0.0,0.23913758993148804,-1.5589583555804651,-0.0,-0.02350037917494774,0.7742719650268555,-0.0,-0.013756771571934223,0.8144466876983643,0.0,0.02479870803654194
556.0,405.0,7.5841,-0.0658,5.1781,-0.0406,0.0218,-0.1229,-1.6146275005736292,0.0,2.214935541152954,-1.1907254457473755,-0.0,2.062833547592163,3.3973709779926757,-0.0,0.2539094388484955,-1.5589903036700647,-0.0,-0.011595654301345348,0.7742317914962769,-0.0,-0.01611330360174179,0.8144664764404297,0.0,0.013252624310553074
556.0,405.0,7.5841,-0.0658,5.1781,-0.0406,0.0218,-0.1229,-1.6146155796446742,0.0,2.244518280029297,-1.1907461881637573,-0.0,2.047912359237671,3.397390528316162,-0.0,0.23967069387435913,-1.5589945952044886,-0.0,-0.01310470700263977,0.7742359638214111,-0.0,-0.0010320451110601425,0.8144785165786743,0.0,0.011463029310107231
556.0,405.0,7.5841,-0.0658,5.1781,-0.0406,0.0218,-0.1229,-1.6146275005736292,0.0,2.2518489360809326,-1.1906821727752686,-0.0,2.046537399291992,3.3973986345478515,-0.0,0.246613547205925,-1.5590022245990198,-0.0,-0.002989628352224827,0.7742440104484558,-0.0,-0.006326169241219759,0.8144785761833191,0.0,-0.010203927755355835
556.0,405.0,7.5841,-0.0658,5.1781,-0.0406,0.0218,-0.1229,-1.6145955524840296,0.0,2.2078843116760254,-1.1906862258911133,-0.0,2.065324068069458,3.3974196153828125,-0.0,0.24198001623153687,-1.5589383284198206,-0.0,-0.009925220161676407,0.7743043303489685,-0.0,-0.007615650072693825,0.8143946528434753,0.0,0.03055596351623535
556.0,405.0,7.5841,-0.0658,5.1781,-0.0406,0.0218,-0.1229,-1.6146475277342738,0.0,2.2694435119628906,-1.1906697750091553,-0.0,2.0451416969299316,3.397379084224365,-0.0,0.230697900056839,-1.5590222517596644,-0.0,0.006074966862797737,0.7742440700531006,-0.0,0.004369813017547131,0.8144704699516296,0.0,-0.02011670172214508
556.0,405.0,7.5841,-0.0658,5.1781,-0.0406,0.0218,-0.1229,-1.6146513424315394,0.0,2.285518169403076,-1.1907141208648682,-0.0,2.0435547828674316,3.3973542886921386,-0.0,0.23341038823127747,-1.558974568043844,-0.0,0.0034195464104413986,0.7742841243743896,-0.0,-0.008207317441701889,0.8144181966781616,0.0,-0.00299689918756485
556.0,405.0,7.5841,-0.0658,5.1781,-0.0406,0.0218,-0.1229,-1.6146875820555628,0.0,2.2503442764282227,-1.190742015838623,-0.0,2.0439937114715576,3.397382898921631,-0.0,0.24202866852283478,-1.5590065161334437,-0.0,-0.01718328148126602,0.7742640972137451,-0.0,-0.0005075274966657162,0.8144224286079407,0.0,0.010399091057479382
556.0,405.0,7.5841,-0.0658,5.1781,-0.0406,0.0218,-0.1229,-1.6146189175047816,0.0,2.26889967918396,-1.1906862258911133,-0.0,2.0853450298309326,3.397346182460449,-0.0,0.23855629563331604,-1.5589783827411097,-0.0,-0.015829313546419144,0.774316668510437,-0.0,-0.0005562579608522356,0.8144825100898743,0.0,0.017941918224096298
556.0,405.0,7.5841,-0.0658,5.1781,-0.0406,0.0218,-0.1229,-1.61464323619985,0.0,2.2391412258148193,-1.1907222270965576,-0.0,2.032362699508667,3.397407217616699,-0.0,0.23632699251174927,-1.5589583555804651,-0.0,-0.00035257497802376747,0.7742559909820557,-0.0,-0.005747537594288588,0.8144785761833191,0.0,-0.012097994796931744
556.0,405.0,7.5841,-0.0658,5.1781,-0.0406,0.0218,-0.1229,-1.6146189175047816,0.0,2.233795166015625,-1.190742015838623,-0.0,2.0640149116516113,3.397455855006836,-0.0,0.23348335921764374,-1.5589583555804651,-0.0,-0.0024997256696224213,0.7743083834648132,-0.0,0.001471403636969626,0.8144983053207397,0.0,-0.00226596393622458
556.0,405.0,7.5841,-0.0658,5.1781,-0.0406,0.0218,-0.1229,-1.6146189175047816,0.0,2.2213668823242188,-1.1906934976577759,-0.0,2.0894079208374023,3.3973986345478515,-0.0,0.24205690622329712,-1.5589903036700647,-0.0,-0.013874167576432228,0.7742277383804321,-0.0,-0.011233160272240639,0.8144506216049194,0.0,0.01591668650507927
489.0,442.0,7.4483,-0.1316,5.3904,-0.0365,0.0246,-0.1219,-1.6145950756468714,0.0,2.2627103328704834,-1.1907099485397339,-0.0,2.0719943046569824,3.397379084224365,-0.0,0.23895308375358582,-1.5590022245990198,-0.0,9.693708852864802e-05,0.7742440700531006,-0.0,0.0024798111990094185,0.8144625425338745,0.0,-0.050700463354587555
489.0,442.0,7.4483,-0.1316,5.3904,-0.0365,0.0246,-0.1219,-1.6145993671812953,0.0,2.2641608715057373,-1.1906696557998657,-0.0,2.0293490886688232,3.3974029260822753,-0.0,0.247456356883049,-1.5589707533465784,-0.0,-0.010940798558294773,0.7742358446121216,-0.0,-0.005652621388435364,0.8144825100898743,0.0,-0.012084439396858215
489.0,442.0,7.4483,-0.1316,5.3904,-0.0365,0.0246,-0.1219,-1.6146351299681605,0.0,2.2134759426116943,-1.190742015838623,-0.0,2.080238103866577,3.397390528316162,-0.0,0.24351805448532104,-1.5589502493487757,-0.0,-0.005151218734681606,0.7742440104484558,-0.0,-0.021833185106515884,0.8144547343254089,0.0,0.0028707257006317377
489.0,442.0,7.4483,-0.1316,5.3904,-0.0365,0.0246,-0.1219,-1.6146232090392054,0.0,2.2739620208740234,-1.1907544136047363,-0.0,2.0128731727600098,3.3973709779926757,-0.0,0.23691010475158691,-1.5589502493487757,-0.0,-0.0024446058087050915,0.7742481231689453,-0.0,-0.010624304413795471,0.814418375492096,0.0,0.013158958405256271
489.0,442.0,7.4483,-0.1316,5.3904,-0.0365,0.0246,-0.1219,-1.614655157128805,0.0,2.2298831939697266,-1.1907336711883545,-0.0,2.0391154289245605,3.397366686458252,-0.0,0.23901641368865967,-1.558974568043844,-0.0,-0.014482591301202774,0.7742359638214111,-0.0,-0.008786340244114399,0.8144306540489197,0.0,0.007097928319126368
489.0,442.0,7.4483,-0.1316,5.3904,-0.0365,0.0246,-0.1219,-1.6146308384337367,0.0,2.2284505367279053,-1.1907099485397339,-0.0,2.027754306793213,3.3973309236713867,-0.0,0.249212384223938,-1.5590103308307093,-0.0,-0.017210708931088448,0.7742480635643005,-0.0,-0.013136559166014194,0.8144506216049194,0.0,0.02896515093743801
489.0,442.0,7.4483,-0.1316,5.3904,-0.0365,0.0246,-0.1219,-1.614615102807516,0.0,2.2532191276550293,-1.1907017230987549,-0.0,2.0419278144836426,3.3973910051533203,-0.0,0.2402525693178177,-1.5589903036700647,-0.0,-0.009053216315805912,0.7743648290634155,-0.0,-0.013306764885783195,0.8144785761833191,0.0,0.017908241599798203
489.0,442.0,7.4483,-0.1316,5.3904,-0.0365,0.0246,-0.1219,-1.6146356068053187,0.0,2.1993961334228516,-1.190718173980713,-0.0,2.062300205230713,3.397394819850586,-0.0,0.24410480260849,-1.558974568043844,-0.0,-0.004745380021631718,0.7742161750793457,-0.0,0.003649814985692501,0.8144466876983643,0.0,-0.0023121843114495277
489.0,442.0,7.4483,-0.1316,5.3904,-0.0365,0.0246,-0.1219,-1.6146069965758265,0.0,2.2482738494873047,-1.1907213926315308,-0.0,2.0275189876556396,3.397407217616699,-0.0,0.24372747540473938,-1.5589621702777308,-0.0,0.0016810414381325245,0.7742080092430115,-0.0,-0.005452372599393129,0.814498782157898,0.0,0.029252588748931885
489.0,442.0,7.4483,-0.1316,5.3904,-0.0365,0.0246,-0.1219,-1.6145993671812953,0.0,2.285353899002075,-1.190750241279602,-0.0,2.0790610313415527,3.397366686458252,-0.0,0.2471851110458374,-1.5590065161334437,-0.0,-0.008052375167608261,0.7742800712585449,-0.0,-0.008269337937235832,0.8144506216049194,0.0,-0.015295026823878288
489.0,442.0,7.4483,-0.1316,5.3904,-0.0365,0.0246,-0.1219,-1.6146275005736292,0.0,2.2339391708374023,-1.1907703876495361,-0.0,2.025132417678833,3.397407217616699,-0.0,0.23749640583992004,-1.5589669386493128,-0.0,-0.007355573121458292,0.7743165493011475,-0.0,-0.009871573187410831,0.8144266605377197,0.0,-0.03457339480519295
489.0,442.0,7.4483,-0.1316,5.3904,-0.0365,0.0246,-0.1219,-1.6145950756468714,0.0,2.239154815673828,-1.1907739639282227,-0.0,2.0541179180145264,3.397394819850586,-0.0,0.2476634681224823,-1.5589821974383753,-0.0,-0.03699208050966263,0.7742277383804321,-0.0,-0.011434649117290974,0.8144745230674744,0.0,0.054583292454481125
489.0,442.0,7.4483,-0.1316,5.3904,-0.0365,0.0246,-0.1219,-1.6146193943419398,0.0,2.247947931289673,-1.1906780004501343,-0.0,2.04390287399292,3.3974153238483886,-0.0,0.24316048622131348,-1.5589225927936,-0.0,-0.007350655272603035,0.7742522954940796,-0.0,-0.012506742030382156,0.8144707083702087,0.0,0.0024075238034129143
489.0,442.0,7.4483,-0.1316,5.3904,-0.0365,0.0246,-0.1219,-1.6146189175047816,0.0,2.2404773235321045,-1.190717339515686,-0.0,1.9875996112823486,3.397390528316162,-0.0,0.2340419590473175,-1.5589702765094202,-0.0,-0.014719837345182896,0.7742440700531006,-0.0,-0.01636575534939766,0.8145029544830322,0.0,-0.011694754473865032
499.0,463.0,7.5894,-0.0467,5.1242,-0.0339,0.0258,-0.1177,-1.6146351299681605,0.0,2.2272658348083496,-1.190786361694336,-0.0,2.0498242378234863,3.397366686458252,-0.0,0.2424883246421814,-1.5589783827411097,-0.0,-0.007786332629621029,0.7742480635643005,-0.0,-0.0019866377115249634,0.8143980503082275,0.0,-0.014676080085337162
499.0,463.0,7.5894,-0.0467,5.1242,-0.0339,0.0258,-0.1177,-1.6146069965758265,0.0,2.217034101486206,-1.1907377243041992,-0.0,2.064541816711426,3.397411509151123,-0.0,0.24535679817199707,-1.5590065161334437,-0.0,-0.011391561478376389,0.7742842435836792,-0.0,0.0018116820137947798,0.8144424557685852,0.0,0.03163696452975273
499.0,463.0,7.5894,-0.0467,5.1242,-0.0339,0.0258,-0.1177,-1.6146232090392054,0.0,2.295154571533203,-1.1907625198364258,-0.0,2.0681681632995605,3.3973986345478515,-0.0,0.23685604333877563,-1.5590065161334437,-0.0,-0.006155291572213173,0.7742202877998352,-0.0,-0.014890948310494423,0.8144630193710327,0.0,0.043101146817207336
499.0,463.0,7.5894,-0.0467,5.1242,-0.0339,0.0258,-0.1177,-1.6146275005736292,0.0,2.2433481216430664,-1.1907336711883545,-0.0,2.063877582550049,3.397382898921631,-0.0,0.231736958026886,-1.5589707533465784,-0.0,-0.011392340064048767,0.7743123173713684,-0.0,-0.0026188502088189125,0.8144466876983643,0.0,-0.013972493819892406
499.0,463.0,7.5894,-0.0467,5.1242,-0.0339,0.0258,-0.1177,-1.6146189175047816,0.0,2.239635467529297,-1.1907622814178467,-0.0,2.0814778804779053,3.3973709779926757,-0.0,0.24340908229351044,-1.559014145527975,-0.0,-0.007746458053588867,0.7742800712585449,-0.0,-0.005284787155687809,0.8144221901893616,0.0,-0.027895115315914154
499.0,463.0,7.5894,-0.0467,5.1242,-0.0339,0.0258,-0.1177,-1.6146394215025843,0.0,2.1978044509887695,-1.190742015838623,-0.0,2.0481388568878174,3.3973542886921386,-0.0,0.23411925137043,-1.5589540640460413,-0.0,0.003917250782251358,0.7742719650268555,-0.0,-0.010632166638970375,0.8144704699516296,0.0,0.04132845252752304
499.0,463.0,7.5894,-0.0467,5.1242,-0.0339,0.0258,-0.1177,-1.6146313152708949,0.0,2.1851000785827637,-1.1907141208648682,-0.0,2.045485019683838,3.397382898921631,-0.0,0.24073341488838196,-1.5589788595782679,-0.0,-0.01573791913688183,0.7743201851844788,-0.0,-0.014544064179062843,0.8144145011901855,0.0,-0.012783967889845371
499.0,463.0,7.5894,-0.0467,5.1242,-0.0339,0.0258,-0.1177,-1.6146189175047816,0.0,2.2305185794830322,-1.1907498836517334,-0.0,2.0878183841705322,3.3973747926899414,-0.0,0.25012603402137756,-1.558974568043844,-0.0,-0.011817780323326588,0.774203896522522,-0.0,-0.016734164208173752,0.8144589066505432,0.0,-0.024845540523529053
499.0,463.0,7.5894,-0.0467,5.1242,-0.0339,0.0258,-0.1177,-1.6146513424315394,0.0,2.261094808578491,-1.1907336711883545,-0.0,2.0301706790924072,3.3974029260822753,-0.0,0.24537262320518494,-1.5589583555804651,-0.0,-0.028050169348716736,0.7742522358894348,-0.0,-0.005947527475655079,0.8144262433052063,0.0,-0.015594546683132648
499.0,463.0,7.5894,-0.0467,5.1242,-0.0339,0.0258,-0.1177,-1.614586969415182,0.0,2.2529096603393555,-1.1906903982162476,-0.0,2.068281650543213,3.397346182460449,-0.0,0.234456866979599,-1.5589864889727991,-0.0,-0.016715938225388527,0.7742318511009216,-0.0,-0.004726660903543234,0.8144344687461853,0.0,-0.029973361641168594
499.0,463.0,7.5894,-0.0467,5.1242,-0.0339,0.0258,-0.1177,-1.6146394215025843,0.0,2.1965830326080322,-1.190665602684021,-0.0,2.0608720779418945,3.397366686458252,-0.0,0.2412239909172058,-1.558957878743307,-0.0,-0.01624123379588127,0.7742600440979004,-0.0,-0.017370013520121574,0.8144465684890747,0.0,0.00369045278057456
499.0,463.0,7.5894,-0.0467,5.1242,-0.0339,0.0258,-0.1177,-1.6146475277342738,0.0,2.221151828765869,-1.1907461881637573,-0.0,2.0362157821655273,3.3974153238483886,-0.0,0.2369273453950882,-1.558957878743307,-0.0,-0.009584777988493443,0.7742882966995239,-0.0,0.0005187237402424216,0.8144547343254089,0.0,-0.007471164222806692
499.0,463.0,7.5894,-0.0467,5.1242,-0.0339,0.0258,-0.1177,-1.6145669422545375,0.0,2.258074998855591,-1.190742015838623,-0.0,2.0332820415496826,3.397411032313965,-0.0,0.2379072606563568,-1.558957878743307,-0.0,-0.0012006221804767847,0.7742522358894348,-0.0,-0.007848445326089859,0.8144428133964539,0.0,-0.01182183064520359
499.0,463.0,7.5894,-0.0467,5.1242,-0.0339,0.0258,-0.1177,-1.6146394215025843,0.0,2.240757465362549,-1.1907254457473755,-0.0,2.0211338996887207,3.397394819850586,-0.0,0.24592089653015137,-1.558974568043844,-0.0,-0.004087122622877359,0.774284303188324,-0.0,-0.00684115756303072,0.8144465684890747,0.0,0.021008474752306938
532.0,417.0,7.401,-0.1149,5.6219,-0.0348,0.0296,-0.1223,-1.614615102807516,0.0,2.259369373321533,-1.1906780004501343,-0.0,2.0662622451782227,3.3973347383686523,-0.0,0.23991602659225464,-1.5589664618121546,-0.0,-0.003991859965026379,0.7742640376091003,-0.0,-0.0016603120602667332,0.8144465088844299,0.0,0.014272995293140411
532.0,417.0,7.401,-0.1149,5.6219,-0.0348,0.0296,-0.1223,-1.6146513424315394,0.0,2.2874574661254883,-1.1907379627227783,-0.0,2.053520679473877,3.397394819850586,-0.0,0.2359621524810791,-1.558957878743307,-0.0,-0.003084898227825761,0.7742600440979004,-0.0,-0.004978119395673275,0.8144344687461853,0.0,-0.02784166857600212
532.0,417.0,7.401,-0.1149,5.6219,-0.0348,0.0296,-0.1223,-1.6146394215025843,0.0,2.1954874992370605,-1.1907498836517334,-0.0,2.0352890491485596,3.3973347383686523,-0.0,0.24071787297725677,-1.5589702765094202,-0.0,-0.004193549044430256,0.7743083834648132,-0.0,0.00031479494646191597,0.814458429813385,0.0,0.02854204922914505
532.0,417.0,7.401,-0.1149,5.6219,-0.0348,0.0296,-0.1223,-1.6145912609496058,0.0,2.2130720615386963,-1.1907702684402466,-0.0,2.0258264541625977,3.3973709779926757,-0.0,0.2418261170387268,-1.558957878743307,-0.0,0.0056442320346832275,0.7742277383804321,-0.0,-0.013850755989551544,0.8144707679748535,0.0,-0.03037986531853676
532.0,417.0,7.401,-0.1149,5.6219,-0.0348,0.0296,-0.1223,-1.61464323619985,0.0,2.2627503871917725,-1.1907222270965576,-0.0,2.1166117191314697,3.3973709779926757,-0.0,0.24408119916915894,-1.558974568043844,-0.0,-0.0006609570700675249,0.7742882966995239,-0.0,0.008078418672084808,0.8144547343254089,0.0,0.03957173600792885
532.0,417.0,7.401,-0.1149,5.6219,-0.0348,0.0296,-0.1223,-1.6146351299681605,0.0,2.247572898864746,-1.1907222270965576,-0.0,2.0424273014068604,3.3973585802265625,-0.0,0.23679137229919434,-1.5589664618121546,-0.0,-0.001221442362293601,0.7743206024169922,-0.0,-0.005807312671095133,0.8144506216049194,0.0,0.023578712716698647
532.0,417.0,7.401,-0.1149,5.6219,-0.0348,0.0296,-0.1223,-1.6146837673582972,0.0,2.2767553329467773,-1.1907542943954468,-0.0,2.022564172744751,3.397350473994873,-0.0,0.227351576089859,-1.5589702765094202,-0.0,-0.01039918139576912,0.7742277383804321,-0.0,-0.012422955594956875,0.8144468665122986,0.0,-0.025585725903511047
532.0,417.0,7.401,-0.1149,5.6219,-0.0348,0.0296,-0.1223,-1.6146155796446742,0.0,2.2797186374664307,-1.1906582117080688,-0.0,2.0819289684295654,3.3973709779926757,-0.0,0.2400190532207489,-1.5589783827411097,-0.0,-0.007401025388389826,0.7742399573326111,-0.0,0.0004997337237000465,0.8144383430480957,0.0,0.012292380444705486
532.0,417.0,7.401,-0.1149,5.6219,-0.0348,0.0296,-0.1223,-1.614615102807516,0.0,2.253411054611206,-1.1907017230987549,-0.0,2.054473400115967,3.3973910051533203,-0.0,0.25291508436203003,-1.5590065161334437,-0.0,-0.011497670784592628,0.7742357850074768,-0.0,0.0051642050966620445,0.8144385814666748,0.0,-0.012945268303155899
532.0,417.0,7.401,-0.1149,5.6219,-0.0348,0.0296,-0.1223,-1.6146155796446742,0.0,2.237287998199463,-1.1907461881637573,-0.0,2.0635764598846436,3.397350473994873,-0.0,0.2322433739900589,-1.5589821974383753,-0.0,-0.003215083386749029,0.7742640972137451,-0.0,0.0003318942617624998,0.8144745826721191,0.0,0.018534185364842415
532.0,417.0,7.401,-0.1149,5.6219,-0.0348,0.0296,-0.1223,-1.614655157128805,0.0,2.2962701320648193,-1.190742015838623,-0.0,2.0669355392456055,3.397395296687744,-0.0,0.2403845191001892,-1.558957878743307,-0.0,-0.004511547740548849,0.7742640972137451,-0.0,-0.01992078870534897,0.8144547939300537,0.0,-0.009554212912917137
532.0,417.0,7.401,-0.1149,5.6219,-0.0348,0.0296,-0.1223,-1.6146189175047816,0.0,2.2815122604370117,-1.1907099485397339,-0.0,2.051743984222412,3.397382898921631,-0.0,0.24002009630203247,-1.5589984099017542,-0.0,-0.011202916502952576,0.7742640972137451,-0.0,-0.014922700822353363,0.8144344687461853,0.0,0.03439541906118393
532.0,417.0,7.401,-0.1149,5.6219,-0.0348,0.0296,-0.1223,-1.614603181878561,0.0,2.2198405265808105,-1.1907377243041992,-0.0,2.0777580738067627,3.397379084224365,-0.0,0.25016775727272034,-1.5589826742755335,-0.0,-0.021100955083966255,0.7742001414299011,-0.0,-0.003112256061285734,0.8144828081130981,0.0,-0.017041951417922974
532.0,417.0,7.401,-0.1149,5.6219,-0.0348,0.0296,-0.1223,-1.6146112881102503,0.0,2.2253592014312744,-1.1907296180725098,-0.0,2.053126573562622,3.3973709779926757,-0.0,0.23966558277606964,-1.5590065161334437,-0.0,-0.006343231536448002,0.7742477059364319,-0.0,-0.006229323334991932,0.8144465088844299,0.0,-0.00293747684918344
494.0,454.0,7.4824,-0.0634,5.3318,-0.0363,0.0258,-0.1271,-1.6146155796446742,0.0,2.262805700302124,-1.190742015838623,-0.0,1.995903730392456,3.3973747926899414,-0.0,0.24617967009544373,-1.5589788595782679,-0.0,-0.004869840107858181,0.7742719650268555,-0.0,-0.02141079306602478,0.8144423961639404,0.0,-0.011792488396167755
494.0,454.0,7.4824,-0.0634,5.3318,-0.0363,0.0258,-0.1271,-1.6146193943419398,0.0,2.274902820587158,-1.1907579898834229,-0.0,2.0637331008911133,3.397366686458252,-0.0,0.23554418981075287,-1.558957878743307,-0.0,-0.013261264190077782,0.7742477059364319,-0.0,-0.016708578914403915,0.814458429813385,0.0,-0.007617891766130924
494.0,454.0,7.4824,-0.0634,5.3318,-0.0363,0.0258,-0.1271,-1.614655157128805,0.0,2.2306969165802,-1.190742015838623,-0.0,2.05057692527771,3.3974434572407226,-0.0,0.23497849702835083,-1.5590270201312464,-0.0,0.0009457907872274518,0.7742440104484558,-0.0,-0.009377703070640564,0.8144786953926086,0.0,0.0017617482226341963
494.0,454.0,7.4824,-0.0634,5.3318,-0.0363,0.0258,-0.1271,-1.6146232090392054,0.0,2.2564785480499268,-1.1907336711883545,-0.0,2.0056121349334717,3.3974196153828125,-0.0,0.24461615085601807,-1.5589988867389124,-0.0,-0.01188726257532835,0.774284303188324,-0.0,0.007355678826570511,0.8144465088844299,0.0,0.007493965327739716
494.0,454.0,7.4824,-0.0634,5.3318,-0.0363,0.0258,-0.1271,-1.614603181878561,0.0,2.253678798675537,-1.190657377243042,-0.0,2.0302915573120117,3.397378607387207,-0.0,0.2390846312046051,-1.5590065161334437,-0.0,0.001482542371377349,0.7742317914962769,-0.0,-0.020394830033183098,0.8144786953926086,0.0,0.035268306732177734
494.0,454.0,7.4824,-0.0634,5.3318,-0.0363,0.0258,-0.1271,-1.614586969415182,0.0,2.2558176517486572,-1.1906894445419312,-0.0,2.056966781616211,3.397354765529297,-0.0,0.2475825548171997,-1.5589702765094202,-0.0,-0.00840478204190731,0.7742682695388794,-0.0,-0.009266485460102558,0.8144704699516296,0.0,-0.00865982100367546
494.0,454.0,7.4824,-0.0634,5.3318,-0.0363,0.0258,-0.1271,-1.6146189175047816,0.0,2.2201011180877686,-1.1907539367675781,-0.0,2.0801186561584473,3.3973709779926757,-0.0,0.24556361138820648,-1.5589945952044886,-0.0,-0.002816623542457819,0.7742882966995239,-0.0,0.004808355122804642,0.8144707679748535,0.0,0.007998577319085598
494.0,454.0,7.4824,-0.0634,5.3318,-0.0363,0.0258,-0.1271,-1.614586969415182,0.0,2.282074213027954,-1.1907542943954468,-0.0,2.0346837043762207,3.3973747926899414,-0.0,0.23895511031150818,-1.5589335600482386,-0.0,-0.024120982736349106,0.7743166089057922,-0.0,-0.00275227427482605,0.8144465088844299,0.0,0.0071974461898207664
494.0,454.0,7.4824,-0.0634,5.3318,-0.0363,0.0258,-0.1271,-1.614598890344137,0.0,2.2530999183654785,-1.1907254457473755,-0.0,2.0752689838409424,3.397346182460449,-0.0,0.24596580862998962,-1.558974568043844,-0.0,-0.00206311815418303,0.7742600440979004,-0.0,-0.002637732308357954,0.8144140839576721,0.0,0.03365681692957878
494.0,454.0,7.4824,-0.0634,5.3318,-0.0363,0.0258,-0.1271,-1.6146470508971156,0.0,2.29581618309021,-1.1907336711883545,-0.0,2.065948963165283,3.3973871904560546,-0.0,0.23662683367729187,-1.558990780507223,-0.0,-0.007321432698518038,0.7742440700531006,-0.0,-0.004699585027992725,0.8144303560256958,0.0,0.04690098017454147
494.0,454.0,7.4824,-0.0634,5.3318,-0.0363,0.0258,-0.1271,-1.6146069965758265,0.0,2.245187520980835,-1.1907057762145996,-0.0,2.0497536659240723,3.3973347383686523,-0.0,0.25500166416168213,-1.5589945952044886,-0.0,-0.003393769497051835,0.7742559909820557,-0.0,-0.007728789933025837,0.8144547343254089,0.0,-0.021252190694212914
494.0,454.0,7.4824,-0.0634,5.3318,-0.0363,0.0258,-0.1271,-1.6146232090392054,0.0,2.228698968887329,-1.1907222270965576,-0.0,2.0460288524627686,3.397354765529297,-0.0,0.25156962871551514,-1.559018913899557,-0.0,-0.00653353426605463,0.7742195129394531,-0.0,-0.010079887695610523,0.8144947290420532,0.0,-0.01865406706929207
494.0,454.0,7.4824,-0.0634,5.3318,-0.0363,0.0258,-0.1271,-1.6145907841124476,0.0,2.2527239322662354,-1.1907377243041992,-0.0,2.0568220615386963,3.3973423677631835,-0.0,0.236020028591156,-1.5589945952044886,-0.0,-0.01139957644045353,0.7742195129394531,-0.0,-0.012271594256162643,0.8144262433052063,0.0,-0.03945904225111008
494.0,454.0,7.4824,-0.0634,5.3318,-0.0363,0.0258,-0.1271,-1.6146594486632289,0.0,2.2530369758605957,-1.1907254457473755,-0.0,2.0566396713256836,3.3973752695270996,-0.0,0.24309074878692627,-1.5590150992022913,-0.0,-0.004382657818496227,0.7742120623588562,-0.0,-0.0009848492918536067,0.8145110607147217,0.0,0.02761145867407322
508.0,425.0,7.8951,-1.5428,4.9496,-0.0244,0.0067,-0.0996,-1.6146112881102503,0.0,2.239748954772949,-1.1907141208648682,-0.0,2.068413257598877,3.397350473994873,-0.0,0.23766076564788818,-1.558957878743307,-0.0,-0.001536825206130743,0.7742600440979004,-0.0,-0.022205065935850143,0.814458429813385,0.0,0.016138294711709023
508.0,425.0,7.8951,-1.5428,4.9496,-0.0244,0.0067,-0.0996,-1.6146189175047816,0.0,2.2121784687042236,-1.1908143758773804,-0.0,2.0237555503845215,3.3973871904560546,-0.0,0.2450389266014099,-1.558990780507223,-0.0,-0.00502910278737545,0.7742841243743896,-0.0,-0.018561288714408875,0.814458429813385,0.0,0.03128710389137268
508.0,425.0,7.8951,-1.5428,4.9496,-0.0244,0.0067,-0.0996,-1.6146232090392054,0.0,2.2170064449310303,-1.1907141208648682,-0.0,2.0598344802856445,3.397383375758789,-0.0,0.23933112621307373,-1.558957878743307,-0.0,-0.0035741892643272877,0.7742882966995239,-0.0,-0.004816691856831312,0.8144665956497192,0.0,0.0056539131328463554
508.0,425.0,7.8951,-1.5428,4.9496,-0.0244,0.0067,-0.0996,-1.6146069965758265,0.0,2.2481672763824463,-1.1907254457473755,-0.0,2.0263140201568604,3.397366686458252,-0.0,0.2451006919145584,-1.558990780507223,-0.0,-0.01072188001126051,0.7742682695388794,-0.0,-0.013813989236950874,0.8145192265510559,0.0,0.006676500663161278
508.0,425.0,7.8951,-1.5428,4.9496,-0.0244,0.0067,-0.0996,-1.6146470508971156,0.0,2.223968982696533,-1.1907017230987549,-0.0,2.07616925239563,3.3973585802265625,-0.0,0.2546302080154419,-1.558957878743307,-0.0,-0.0014887105207890272,0.7742399573326111,-0.0,-0.009361710399389267,0.8144992589950562,0.0,-0.008267023600637913
508.0,425.0,7.8951,-1.5428,4.9496,-0.0244,0.0067,-0.0996,-1.614598890344137,0.0,2.2088146209716797,-1.190718173980713,-0.0,2.071587562561035,3.397378607387207,-0.0,0.2433709353208542,-1.5589497725116175,-0.0,-0.007740270812064409,0.7742683291435242,-0.0,-0.009975001215934753,0.8143898844718933,0.0,-0.02096196636557579
508.0,425.0,7.8951,-1.5428,4.9496,-0.0244,0.0067,-0.0996,-1.6145912609496058,0.0,2.2138681411743164,-1.1907296180725098,-0.0,2.0277092456817627,3.397366686458252,-0.0,0.25090423226356506,-1.5589259306537073,-0.0,-0.00782379787415266,0.7742440104484558,-0.0,-0.014648772776126862,0.8144625425338745,0.0,-0.03669184446334839
508.0,425.0,7.8951,-1.5428,4.9496,-0.0244,0.0067,-0.0996,-1.6146394215025843,0.0,2.2280025482177734,-1.1907222270965576,-0.0,2.076690673828125,3.397379084224365,-0.0,0.23000916838645935,-1.559002701436178,-0.0,-0.011472862213850021,0.7742600440979004,-0.0,-0.0007628672756254673,0.8144344687461853,0.0,-0.04549986124038696
508.0,425.0,7.8951,-1.5428,4.9496,-0.0244,0.0067,-0.0996,-1.6146232090392054,0.0,2.2231931686401367,-1.1907017230987549,-0.0,2.061375617980957,3.397407217616699,-0.0,0.24222326278686523,-1.558941666279928,-0.0,0.002364879474043846,0.7742682695388794,-0.0,0.003917991183698177,0.8144264817237854,0.0,-0.01726541295647621
508.0,425.0,7.8951,-1.5428,4.9496,-0.0244,0.0067,-0.0996,-1.6146313152708949,0.0,2.2529358863830566,-1.1907179355621338,-0.0,2.0623176097869873,3.3973871904560546,-0.0,0.24922671914100647,-1.5589702765094202,-0.0,-0.011307742446660995,0.7742559909820557,-0.0,-0.00900702178478241,0.8144665956497192,0.0,0.02743857353925705
508.0,425.0,7.8951,-1.5428,4.9496,-0.0244,0.0067,-0.0996,-1.6146513424315394,0.0,2.268812656402588,-1.1907261610031128,-0.0,2.053750991821289,3.3974029260822753,-0.0,0.2448653280735016,-1.5590108076678675,-0.0,-0.006936062593013048,0.7742960453033447,-0.0,-0.004679610021412373,0.8144547343254089,0.0,0.02376997284591198
508.0,425.0,7.8951,-1.5428,4.9496,-0.0244,0.0067,-0.0996,-1.614615102807516,0.0,2.22393798828125,-1.1907377243041992,-0.0,2.073542833328247,3.3973871904560546,-0.0,0.23906442523002625,-1.558957878743307,-0.0,-0.01286306045949459,0.7742477059364319,-0.0,-0.016273461282253265,0.8144543170928955,0.0,0.0016425522044301033
508.0,425.0,7.8951,-1.5428,4.9496,-0.0244,0.0067,-0.0996,-1.6146999798216761,0.0,2.214352607727051,-1.1907821893692017,-0.0,2.0691001415252686,3.397366686458252,-0.0,0.24475666880607605,-1.5589702765094202,-0.0,-0.010520316660404205,0.7742600440979004,-0.0,-0.004933126736432314,0.8144869208335876,0.0,0.004885009489953518
508.0,425.0,7.8951,-1.5428,4.9496,-0.0244,0.0067,-0.0996,-1.6145993671812953,0.0,2.2408571243286133,-1.1907099485397339,-0.0,2.018953561782837,3.397346182460449,-0.0,0.24282072484493256,-1.558990780507223,-0.0,0.004593027755618095,0.7742522954940796,-0.0,-0.007550991140305996,0.8144951462745667,0.0,0.024199936538934708
547.0,8190.0,7.2526,0.1507,5.47,-0.0029,-0.0247,-0.1403,-1.614575048486227,0.0,2.254161834716797,-1.1907902956008911,-0.0,2.025386095046997,3.397394819850586,-0.0,0.2490960657596588,-1.5589702765094202,-0.0,-0.012055028229951859,0.7742399573326111,-0.0,-0.000710509717464447,0.814466655254364,0.0,0.02937338873744011
547.0,8190.0,7.2526,0.1507,5.47,-0.0029,-0.0247,-0.1403,-1.6146189175047816,0.0,2.2278494834899902,-1.1906976699829102,-0.0,2.0323143005371094,3.397339029903076,-0.0,0.2385871857404709,-1.5589702765094202,-0.0,-0.02081451006233692,0.7742559909820557,-0.0,-0.012936269864439964,0.8144344687461853,0.0,-0.009907994419336319
547.0,8190.0,7.2526,0.1507,5.47,-0.0029,-0.0247,-0.1403,-1.6145950756468714,0.0,2.2291431427001953,-1.1906821727752686,-0.0,2.059253692626953,3.3973628717609863,-0.0,0.23709897696971893,-1.558957878743307,-0.0,-0.0037278546951711178,0.7742481231689453,-0.0,-0.015384080819785595,0.8144589066505432,0.0,0.005607550963759422
547.0,8190.0,7.2526,0.1507,5.47,-0.0029,-0.0247,-0.1403,-1.614586969415182,0.0,2.247119903564453,-1.1907542943954468,-0.0,1.99594247341156,3.397390528316162,-0.0,0.24279290437698364,-1.5589378515826624,-0.0,-0.0063530439510941505,0.7742677927017212,-0.0,0.00367925688624382,0.8144344687461853,0.0,-0.008584138005971909
547.0,8190.0,7.2526,0.1507,5.47,-0.0029,-0.0247,-0.1403,-1.6146837673582972,0.0,2.2783925533294678,-1.190718173980713,-0.0,2.072672128677368,3.3973628717609863,-0.0,0.23242007195949554,-1.5589788595782679,-0.0,-0.01613004133105278,0.7742720246315002,-0.0,-0.025676071643829346,0.8144140243530273,0.0,0.01824619248509407
547.0,8190.0,7.2526,0.1507,5.47,-0.0029,-0.0247,-0.1403,-1.6146394215025843,0.0,2.252574920654297,-1.190742015838623,-0.0,2.056037664413452,3.397346182460449,-0.0,0.23256227374076843,-1.558957878743307,-0.0,-0.013133807107806206,0.7742600440979004,-0.0,-0.004225215874612331,0.8144630193710327,0.0,-0.0445827841758728
547.0,8190.0,7.2526,0.1507,5.47,-0.0029,-0.0247,-0.1403,-1.61464323619985,0.0,2.258504629135132,-1.1907542943954468,-0.0,2.0816869735717773,3.3973991113850097,-0.0,0.24303212761878967,-1.5590065161334437,-0.0,-0.009875509887933731,0.7742682695388794,-0.0,-0.017422813922166824,0.8144181370735168,0.0,0.036651741713285446
547.0,8190.0,7.2526,0.1507,5.47,-0.0029,-0.0247,-0.1403,-1.614603181878561,0.0,2.2670204639434814,-1.190718173980713,-0.0,2.0466437339782715,3.3973867136188964,-0.0,0.2480301707983017,-1.559002701436178,-0.0,0.004900886677205563,0.7742522954940796,-0.0,-0.008108300156891346,0.8144145011901855,0.0,-0.005672232713550329
547.0,8190.0,7.2526,0.1507,5.47,-0.0029,-0.0247,-0.1403,-1.614603181878561,0.0,2.239992380142212,-1.1907662153244019,-0.0,2.0504391193389893,3.397382898921631,-0.0,0.23735311627388,-1.5589702765094202,-0.0,-0.008370041847229004,0.7742683291435242,-0.0,-0.006732442416250706,0.814466655254364,0.0,0.00098715303465724
547.0,8190.0,7.2526,0.1507,5.47,-0.0029,-0.0247,-0.1403,-1.6146389446654261,0.0,2.256730556488037,-1.1907621622085571,-0.0,2.037540912628174,3.397366686458252,-0.0,0.23977011442184448,-1.5589788595782679,-0.0,-0.0033945112954825163,0.7741677165031433,-0.0,-0.0194671880453825,0.8144264221191406,0.0,0.01296953298151493
547.0,8190.0,7.2526,0.1507,5.47,-0.0029,-0.0247,-0.1403,-1.6146232090392054,3.0329465067896466e-12,2.204803705215454,-1.1907579898834229,4.264957276234327e-09,2.02132248878479,3.397394819850586,-0.0,0.2270054817199707,-1.5589788595782679,-0.0,-0.018784206360578537,0.7742719650268555,-0.0,-0.018901731818914413,0.814458429813385,0.0,0.000745922327041626
547.0,8190.0,7.2526,0.1507,5.47,-0.0029,-0.0247,-0.1403,-1.6146956882872523,7.324209522485455e-18,2.2323365211486816,-1.190718173980713,1.0299371761262471e-14,2.0860438346862793,3.397394819850586,-0.0,0.24507102370262146,-1.5589664618121546,-0.0,-0.025270795449614525,0.7742800712585449,-0.0,-0.006138011813163757,0.8144906163215637,0.0,-0.015117153525352478
547.0,8190.0,7.2526,0.1507,5.47,-0.0029,-0.0247,-0.1403,-1.6146632633604945,-0.0006002055597491562,2.2107961177825928,-1.1907336711883545,2.4871774902582407e-20,2.0442137718200684,3.3974267679401855,-0.0,0.2414112538099289,-1.5589826742755335,-0.0,-0.028950640931725502,0.7741997241973877,-0.0,0.0020180754363536835,0.8144869208335876,0.0,-0.009590833447873592
547.0,8190.0,7.2526,0.1507,5.47,-0.0029,-0.0247,-0.1403,-1.614683290521139,-0.0005252982373349369,2.224820137023926,-1.1907662153244019,6.006240253528219e-26,2.078359842300415,3.39742295324292,-0.0,0.24236316978931427,-1.559014622365133,-0.0,0.0025835896376520395,0.7741919755935669,-0.0,0.001043790951371193,0.814466655254364,0.0,0.00984256062656641
543.0,408.0,6.9565,0.3015,5.7679,0.0057,0.0628,-0.1148,-1.614699502984518,-0.0003939688904210925,2.258422374725342,-1.1907702684402466,1.94594549077487e-33,2.0577943325042725,3.3974029260822753,-0.0,0.23773208260536194,-1.5589621702777308,-0.0,0.0018669699784368277,0.7742522954940796,-0.0,-0.011568371206521988,0.8144823312759399,0.0,-0.009949135594069958
543.0,408.0,6.9565,0.3015,5.7679,0.0057,0.0628,-0.1148,-1.614699502984518,-0.00014420083607546985,2.2315216064453125,-1.1907018423080444,4.699229176740916e-39,2.0576491355895996,3.3973309236713867,-0.0,0.239018514752388,-1.5590108076678675,-0.0,-0.010431936010718346,0.7743161916732788,-0.0,-0.005973365623503923,0.8144179582595825,0.0,-0.018495336174964905
543.0,408.0,6.9565,0.3015,5.7679,0.0057,0.0628,-0.1148,-1.614671369592184,-5.895936192246154e-05,2.215571403503418,-1.1907498836517334,1.1210387714598537e-44,2.026327133178711,3.3973752695270996,-0.0,0.23885175585746765,-1.5589621702777308,-0.0,-0.018529150635004044,0.7743124961853027,-0.0,-0.00629015639424324,0.8144662976264954,0.0,0.024346457794308662
543.0,408.0,6.9565,0.3015,5.7679,0.0057,0.0628,-0.1148,-1.6146513424315394,-4.869042822974734e-05,2.267017126083374,-1.1907579898834229,-0.0,2.0666980743408203,3.397395296687744,-0.0,0.22277440130710602,-1.5589621702777308,-0.0,-0.00795550923794508,0.7742522954940796,-0.0,-0.007072815205901861,0.8144423961639404,0.0,-0.017634347081184387
543.0,408.0,6.9565,0.3015,5.7679,0.0057,0.0628,-0.1148,-1.61466707805776,-4.002756031695753e-05,2.2306957244873047,-1.1907987594604492,-3.271414607297629e-05,2.012279987335205,3.397399588222168,-0.0,0.23490270972251892,-1.5589988867389124,-0.0,-0.014416268095374107,0.7742760181427002,-0.0,-0.013224626891314983,0.8144865036010742,0.0,-0.01950816810131073
543.0,408.0,6.9565,0.3015,5.7679,0.0057,0.0628,-0.1148,-1.6146956882872523,-7.013751746853814e-05,2.2343170642852783,-1.1907579898834229,-2.9502763936761767e-05,2.0045340061187744,3.3974434572407226,-0.0,0.24007944762706757,-1.5590184370623987,-0.0,-0.017091061919927597,0.7742317318916321,-0.0,-0.004360748454928398,0.8144704699516296,0.0,-0.009157124906778336
543.0,408.0,6.9565,0.3015,5.7679,0.0057,0.0628,-0.1148,-1.6147152386107386,-9.463634341955185e-05,2.2193984985351562,-1.1907379627227783,-2.686112748051528e-05,2.069895029067993,3.3973991113850097,-0.0,0.2324468344449997,-1.5589788595782679,-0.0,-0.0015423584263771772,0.7742600440979004,-0.0,-0.015066495165228844,0.8144423961639404,0.0,8.557701949030161e-05
543.0,408.0,6.9565,0.3015,5.7679,0.0057,0.0628,-0.1148,-1.6146751842894496,-0.00011429389996919781,2.189584732055664,-1.190718173980713,-2.4653678337926976e-05,2.045142412185669,3.3973628717609863,-0.0,0.2435053586959839,-1.5589459578143519,-0.0,-0.005560071207582951,0.7742723226547241,-0.0,-0.019842419773340225,0.8144947290420532,0.0,-0.01949196681380272
543.0,408.0,6.9565,0.3015,5.7679,0.0057,0.0628,-0.1148,-1.614711423913473,-7.376708526862785e-05,2.2761738300323486,-1.1907621622085571,-2.2781530788051896e-05,2.031557559967041,3.39742295324292,-0.0,0.24562236666679382,-1.5589945952044886,-0.0,-0.020469404757022858,0.7741996049880981,-0.0,-0.009871382266283035,0.8144506216049194,0.0,-0.022821631282567978
543.0,408.0,6.9565,0.3015,5.7679,0.0057,0.0628,-0.1148,-1.61466707805776,-3.1584928365191445e-05,2.2696473598480225,-1.1906976699829102,-2.0686944480985403e-05,2.085336208343506,3.397394819850586,-0.0,0.24483370780944824,-1.558974568043844,-0.0,-0.00930950790643692,0.7742195129394531,-0.0,-0.01957876607775688,0.8144745826721191,0.0,0.023654740303754807
543.0,408.0,6.9565,0.3015,5.7679,0.0057,0.0628,-0.1148,-1.614699502984518,-2.8533888325910084e-05,2.262152910232544,-1.190718173980713,-1.9352453819010407e-05,2.054182767868042,3.397395296687744,-0.0,0.2329675704240799,-1.558957878743307,-0.0,-0.00739580811932683,0.7742236852645874,-0.0,-0.004854733124375343,0.8144789934158325,0.0,0.0204800833016634
543.0,408.0,6.9565,0.3015,5.7679,0.0057,0.0628,-0.1148,-1.6146227322020472,-2.6055604394059628e-05,2.2427892684936523,-1.1906934976577759,-1.8179725884692743e-05,2.0703938007354736,3.397407217616699,-0.0,0.24081292748451233,-1.5589459578143519,-0.0,-0.010739490389823914,0.7743127346038818,-0.0,-0.007594284601509571,0.8144662976264954,0.0,-0.014496692456305027
543.0,408.0,6.9565,0.3015,5.7679,0.0057,0.0628,-0.1148,-1.614683290521139,-2.3973423594725318e-05,2.2797555923461914,-1.1907297372817993,-1.7140999261755496e-05,2.071657657623291,3.3973986345478515,-0.0,0.23312103748321533,-1.5589945952044886,-0.0,-0.014714723452925682,0.7742559909820557,-0.0,-0.01820557937026024,0.8144704699516296,0.0,-0.014458876103162766
481.0,449.0,6.4516,0.0425,6.0275,-0.0341,0.0805,-0.1237,-1.6146794758238734,-4.991432069800794e-05,2.264404535293579,-1.1907579898834229,-3.185226523783058e-05,2.005542516708374,3.397414370174072,-0.0,0.23826414346694946,-1.5589540640460413,-0.0,-0.0007110518054105341,0.7742522954940796,-0.0,-0.014197473414242268,0.8144382834434509,0.0,-0.02555154822766781
481.0,449.0,6.4516,0.0425,6.0275,-0.0341,0.0805,-0.1237,-1.6147881946959437,-0.00017092618509195745,2.2505877017974854,-1.1907864809036255,-4.477009497350082e-05,2.0276894569396973,3.3973585802265625,-0.0,0.23886249959468842,-1.5590065161334437,-0.0,-0.012429529801011086,0.7742677927017212,-0.0,-0.0016992443706840277,0.814531147480011,0.0,0.00746091827750206
481.0,449.0,6.4516,0.0425,6.0275,-0.0341,0.0805,-0.1237,-1.6147510013976039,-0.0012826843885704875,2.2782821655273438,-1.1907058954238892,-5.757193503086455e-05,2.0843098163604736,3.3973709779926757,-0.0,0.23214402794837952,-1.558974568043844,-0.0,-0.009757362306118011,0.774284303188324,-0.0,-0.012624225579202175,0.8145192861557007,0.0,-0.034209880977869034
481.0,449.0,6.4516,0.0425,6.0275,-0.0341,0.0805,-0.1237,-1.6147996387877406,-0.0021473995875567198,2.2126340866088867,-1.1907658576965332,-0.00013414010754786432,2.025952100753784,3.397366686458252,-0.0,0.23904380202293396,-1.5589502493487757,-0.0,0.004473899491131306,0.7742599844932556,-0.0,-0.011046289466321468,0.8144465684890747,0.0,0.006628015544265509
481.0,449.0,6.4516,0.0425,6.0275,-0.0341,0.0805,-0.1237,-1.6148234806456507,-0.004678505007177591,2.2119264602661133,-1.1907498836517334,-0.00016359341680072248,2.087350606918335,3.397362394923828,-0.0,0.24018411338329315,-1.5589664618121546,-0.0,-0.009859931655228138,0.7742600440979004,-0.0,-0.014687545597553253,0.8144543170928955,0.0,-0.012318182736635208
481.0,449.0,6.4516,0.0425,6.0275,-0.0341,0.0805,-0.1237,-1.6148554287352503,-0.008800128474831581,2.2338356971740723,-1.1907856464385986,-0.0005696372827515006,2.076747417449951,3.3973542886921386,-0.0,0.24354878067970276,-1.5589502493487757,-0.0,-0.006717224605381489,0.7742760181427002,-0.0,0.0031792945228517056,0.8144625425338745,0.0,0.019277937710285187
481.0,449.0,6.4516,0.0425,6.0275,-0.0341,0.0805,-0.1237,-1.614943643609518,-0.011317947879433632,2.2756197452545166,-1.1907457113265991,-0.0004394846619106829,2.053056478500366,3.3973471361347656,-0.0,0.2430005669593811,-1.5589664618121546,-0.0,-0.01329454593360424,0.7742399573326111,-0.0,-0.010327905416488647,0.8144181370735168,0.0,-0.021924763917922974
481.0,449.0,6.4516,0.0425,6.0275,-0.0341,0.0805,-0.1237,-1.6150275669493617,-0.011697000823915005,2.255429983139038,-1.1907896995544434,-0.00035322250914759934,2.018846273422241,3.397394819850586,-0.0,0.23919068276882172,-1.5589306990252894,-0.0,-0.019512943923473358,0.7742559909820557,-0.0,-0.017629804089665413,0.814474880695343,0.0,-0.011432980187237263
481.0,449.0,6.4516,0.0425,6.0275,-0.0341,0.0805,-0.1237,-1.6151114902892054,-0.013227573595941067,2.2130727767944336,-1.1908103227615356,-0.0003444806206971407,2.0701799392700195,3.3973628717609863,-0.0,0.23621851205825806,-1.5589426199542444,-0.0,-0.021552395075559616,0.7742202877998352,-0.0,-0.0027896915562450886,0.8144465088844299,0.0,0.026781704276800156
481.0,449.0,6.4516,0.0425,6.0275,-0.0341,0.0805,-0.1237,-1.6152264080443324,-0.017428528517484665,2.2514517307281494,-1.1908338069915771,-0.00029507820727303624,2.0487313270568848,3.397390528316162,-0.0,0.2489093840122223,-1.5589507261859339,-0.0,-0.024813534691929817,0.7742202281951904,-0.0,-0.016538847237825394,0.8144385814666748,0.0,-0.02301228791475296
481.0,449.0,6.4516,0.0425,6.0275,-0.0341,0.0805,-0.1237,-1.6153298817076625,-0.022104937583208084,2.2043349742889404,-1.1907864809036255,-0.00034464430063962936,2.0621981620788574,3.397378607387207,-0.0,0.24526575207710266,-1.558962647114889,-0.0,0.0018185654189437628,0.7742882966995239,-0.0,-0.02152865007519722,0.8144506216049194,0.0,-0.017115214839577675
481.0,449.0,6.4516,0.0425,6.0275,-0.0341,0.0805,-0.1237,-1.6154700718321742,-0.023384537547826767,2.2131314277648926,-1.1907700300216675,-0.00033834436908364296,2.0413694381713867,3.397411509151123,-0.0,0.24886135756969452,-1.5589101950274866,-0.0,-0.011352194473147392,0.7742399573326111,-0.0,-0.0035333933774381876,0.8145071268081665,0.0,-0.005973014980554581
481.0,449.0,6.4516,0.0425,6.0275,-0.0341,0.0805,-0.1237,-1.6156264744200648,-0.02633620798587799,2.2197375297546387,-1.1908135414123535,-0.0002596094855107367,2.0650410652160645,3.397411509151123,-0.0,0.2468535602092743,-1.558918301259176,-0.0,-0.019714897498488426,0.7742760181427002,-0.0,-0.012166833505034447,0.8144786953926086,0.0,-0.0028721021953970194
481.0,449.0,6.4516,0.0425,6.0275,-0.0341,0.0805,-0.1237,-1.6158668003477992,-0.028851546347141266,2.1915740966796875,-1.1907856464385986,-0.00022286988678388298,2.066573143005371,3.3974029260822753,-0.0,0.2532508671283722,-1.558918301259176,-0.0,-0.007979369722306728,0.7742277383804321,-0.0,-0.002958957338705659,0.8144827485084534,0.0,0.021659312769770622
514.0,408.0,6.5001,0.5222,5.683,-0.0182,0.0376,-0.1292,-1.616026063958639,-0.03206268325448036,2.2618024349212646,-1.1907782554626465,-0.00020148562907706946,2.0726797580718994,3.3974310594746093,-0.0,0.25814303755760193,-1.5589140097247522,-0.0,-0.008370605297386646,0.7742277383804321,-0.0,-0.013217645697295666,0.8144749402999878,0.0,0.003960438072681427
514.0,408.0,6.5001,0.5222,5.683,-0.0182,0.0376,-0.1292,-1.6162826023497523,-0.03594614565372467,2.194277286529541,-1.1908419132232666,-0.00018384610302746296,2.061467170715332,3.3974029260822753,-0.0,0.24608784914016724,-1.5589583555804651,-0.0,-0.019686535000801086,0.774336576461792,-0.0,-0.013252615928649902,0.8144305348396301,0.0,0.0471673347055912
514.0,408.0,6.5001,0.5222,5.683,-0.0182,0.0376,-0.1292,-1.6165105305113734,-0.04220827668905258,2.241462230682373,-1.1908258199691772,-0.00016904677613638341,2.0880208015441895,3.3974105554768066,-0.0,0.26187556982040405,-1.5589426199542444,-0.0,-0.03032473847270012,0.7742277979850769,-0.0,0.005213615484535694,0.8144707679748535,0.0,0.009072298184037209
514.0,408.0,6.5001,0.5222,5.683,-0.0182,0.0376,-0.1292,-1.6167947254576625,-0.049676474183797836,2.166975736618042,-1.190789818763733,-0.00015645258827134967,2.081554412841797,3.3973991113850097,-0.0,0.2574111223220825,-1.5589664618121546,-0.0,-0.020674508064985275,0.7742517590522766,-0.0,-0.014498898759484291,0.8144749402999878,0.0,0.047171637415885925
514.0,408.0,6.5001,0.5222,5.683,-0.0182,0.0376,-0.1292,-1.6172181568541468,-0.058611128479242325,2.221714735031128,-1.1908258199691772,-0.00014231559180188924,2.0979502201080322,3.3974672990986328,-0.0,0.26344120502471924,-1.558974568043844,-0.0,-0.033558860421180725,0.7742317318916321,-0.0,-0.014704412780702114,0.8144145011901855,-0.00041635180241428316,0.0207207053899765
514.0,408.0,6.5001,0.5222,5.683,-0.0182,0.0376,-0.1292,-1.6176210842528285,-0.06726861745119095,2.2047059535980225,-1.1907774209976196,-0.0001332831016043201,2.0537819862365723,3.397407217616699,-0.0,0.261096328496933,-1.5589383284198206,-0.0,-0.025914471596479416,0.7742601037025452,-0.0,-0.009499963372945786,0.8143823146820068,-0.001580061623826623,0.001099112443625927
514.0,408.0,6.5001,0.5222,5.683,-0.0182,0.0376,-0.1292,-1.6180583439269007,-0.07440431416034698,2.240787982940674,-1.1908135414123535,-0.00014322312199510634,2.080653429031372,3.3973867136188964,0.00023487269936595112,0.2706528604030609,-1.5589264074908655,-0.0,-0.03867349028587341,0.7742477059364319,-0.0,-0.010018769651651382,0.8144107460975647,-0.0027413233183324337,0.022862672805786133
514.0,408.0,6.5001,0.5222,5.683,-0.0182,0.0376,-0.1292,-1.618493219415182,-0.08036830276250839,2.2042860984802246,-1.1908259391784668,-0.0001351663377135992,2.0323398113250732,3.3974429804035644,0.00027577069704420865,0.2678530514240265,-1.5589502493487757,-0.0,-0.03749264404177666,0.7742559909820557,-0.0,-0.012864122167229652,0.8143342733383179,-0.0030540847219526768,-0.011653995141386986
514.0,408.0,6.5001,0.5222,5.683,-0.0182,0.0376,-0.1292,-1.6192213497557582,-0.08855700492858887,2.20595645904541,-1.190806269645691,-0.0001259131677215919,2.05401349067688,3.397435351009033,0.0005520719569176435,0.2707749903202057,-1.5589583555804651,-0.0,-0.03587297350168228,0.7742275595664978,-0.0,-0.011070732958614826,0.8143263459205627,-0.0027037018444389105,-0.020691310986876488
514.0,408.0,6.5001,0.5222,5.683,-0.0182,0.0376,-0.1292,-1.6197849712767542,-0.08761957287788391,2.182575225830078,-1.1907856464385986,-9.79628530330956e-05,2.0810253620147705,3.3974272447773437,0.0012845923192799091,0.2664000988006592,-1.5589502493487757,-0.0,-0.019028447568416595,0.7742559313774109,-0.0,-0.0020270561799407005,0.814362645149231,-0.0019281753338873386,0.02743714302778244
514.0,408.0,6.5001,0.5222,5.683,-0.0182,0.0376,-0.1292,-1.6203724346556605,-0.09211208671331406,2.1591129302978516,-1.1908378601074219,-0.00011009668378392234,2.0412399768829346,3.3974711137958984,0.0011374409077689052,0.27586793899536133,-1.558918301259176,-0.0,-0.023499254137277603,0.774235725402832,-0.0,-0.008690416812896729,0.8143383860588074,-0.0008757140021771193,0.0008842763490974903
514.0,408.0,6.5001,0.5222,5.683,-0.0182,0.0376,-0.1292,-1.6209608517088832,-0.10167337208986282,2.186779260635376,-1.1908652782440186,-0.0004550842277240008,2.115875005722046,3.397463007564209,0.0007867650710977614,0.2566618323326111,-1.5589340368853968,6.023153105161327e-07,-0.01628553867340088,0.774308443069458,-0.0,-0.01654960587620735,0.8143865466117859,-0.0005526372115127742,0.029068458825349808
514.0,408.0,6.5001,0.5222,5.683,-0.0182,0.0376,-0.1292,-1.6218158207335414,-0.1205163449048996,2.1962685585021973,-1.1907691955566406,-0.0011840618681162596,2.101372718811035,3.397451086635254,0.0005618116701953113,0.2649676203727722,-1.5589221159564417,1.0946785145016236e-11,-0.03829723596572876,0.7742518186569214,-0.0,0.00365076819434762,0.8143424987792969,-0.0003705259587150067,-0.04068838059902191
514.0,408.0,6.5001,0.5222,5.683,-0.0182,0.0376,-0.1292,-1.6225601635374964,-0.13018125295639038,2.162259101867676,-1.1908578872680664,-0.00038749590748921037,2.028931140899658,3.397418661708496,0.0004886066890321672,0.2791804075241089,-1.5589788595782679,3.0470779962117568e-15,-0.039844363927841187,0.7743083238601685,-0.0,-0.01666668802499771,0.8143222332000732,-0.00029711335082538426,0.04097757488489151
516.0,452.0,6.4319,0.2249,4.9155,-0.0006,-0.1011,-0.1217,-1.6233464680113734,-0.13786518573760986,2.177182197570801,-1.1908501386642456,-8.007928897768579e-08,2.0582218170166016,3.397531195277832,0.00039740902138873935,0.2741401493549347,-1.5589540640460413,8.4816530581409715e-19,-0.03429277241230011,0.7742882966995239,-0.0,-0.01648283749818802,0.814354419708252,-0.00024798570666462183,0.04617937654256821
516.0,452.0,6.4319,0.2249,4.9155,-0.0006,-0.1011,-0.1217,-1.6241947613158167,-0.13563460111618042,2.183847427368164,-1.1907660961151123,-1.9338206708706396e-13,2.089925765991211,3.397498770351074,0.002392836380749941,0.2713645100593567,-1.5589497725116175,2.3608996354840784e-22,-0.04076695442199707,0.7742801308631897,-0.0,-0.006530884187668562,0.8143222332000732,-0.00021280074724927545,-0.02325940504670143
516.0,452.0,6.4319,0.2249,4.9155,-0.0006,-0.1011,-0.1217,-1.625038286248678,-0.1296246200799942,2.148862361907959,-1.1907896995544434,0.0009737922227941453,2.10164737701416,3.3975469309040527,0.0033385446295142174,0.27555710077285767,-1.558990780507223,6.571650144369558e-26,-0.04024176672101021,0.7742637395858765,-0.0,-0.011665217578411102,0.8143742084503174,-0.00018636065942700952,0.03627811372280121
516.0,452.0,6.4319,0.2249,4.9155,-0.0006,-0.1011,-0.1217,-1.6261445484557093,-0.12847711145877838,2.2359817028045654,-1.1908378601074219,-0.00020144949667155743,2.102771282196045,3.3976151186176757,0.0028450479730963707,0.27636128664016724,-1.5590065161334437,1.194365078853552e-30,-0.05071200430393219,0.7742236256599426,-1.060708655131748e-06,-0.0010589051526039839,0.8143581748008728,-9.722013055579737e-05,0.05590596795082092
516.0,452.0,6.4319,0.2249,4.9155,-0.0006,-0.1011,-0.1217,-1.6269923649229945,-0.14415843784809113,2.2151074409484863,-1.1908818483352661,-0.0029140955302864313,2.086653709411621,3.397583170528076,0.0014181997394189239,0.28577250242233276,-1.559014622365133,3.324559066523258e-34,-0.04270293563604355,0.7742841243743896,-2.952521283017262e-10,-0.013216635212302208,0.8144145011901855,6.248772115213796e-05,0.049764759838581085
516.0,452.0,6.4319,0.2249,4.9155,-0.0006,-0.1011,-0.1217,-1.627960821191305,-0.16403447091579437,2.1841514110565186,-1.1908529996871948,-0.004993743728846312,2.111428737640381,3.3975469309040527,0.0002947419125121087,0.2800191044807434,-1.558990780507223,9.254032125957731e-38,-0.04956315457820892,0.7742923498153687,-8.218451689589318e-14,0.00043335912050679326,0.8143905401229858,8.518922550138086e-05,0.03731939196586609
516.0,452.0,6.4319,0.2249,4.9155,-0.0006,-0.1011,-0.1217,-1.6288916073241175,-0.18099062144756317,2.1712870597839355,-1.190901517868042,-0.0044634235091507435,2.1139779090881348,3.3975469309040527,0.00019725461606867611,0.27658432722091675,-1.559002701436178,2.5758668371218787e-41,-0.03287249058485031,0.7742518186569214,-2.2876361436978724e-17,-0.007227153982967138,0.8143343329429626,5.292803325573914e-05,-0.0006462894380092621
516.0,452.0,6.4319,0.2249,4.9155,-0.0006,-0.1011,-0.1217,-1.630326887170309,-0.17573998868465424,2.176381826400757,-1.1909056901931763,-0.0002327470137970522,2.0978102684020996,3.3975631433674316,0.00020313248387537897,0.2761619985103607,-1.5589621702777308,0.0,-0.037673406302928925,0.7742596864700317,-4.1576655263296515e-22,-0.008308308199048042,0.8144107460975647,4.6519344323314726e-05,0.017604980617761612
516.0,452.0,6.4319,0.2249,4.9155,-0.0006,-0.1011,-0.1217,-1.6313053570189417,-0.1617981195449829,2.19653058052063,-1.190865397453308,0.002951104659587145,2.1128792762756348,3.3975788789936523,0.0002648047811817378,0.27147117257118225,-1.5589984099017542,0.0,-0.03518001362681389,0.774259626865387,-1.1573014724923964e-25,-0.01771640032529831,0.8143342733383179,4.317209459259175e-05,0.03151345252990723
516.0,452.0,6.4319,0.2249,4.9155,-0.0006,-0.1011,-0.1217,-1.6323448620238246,-0.16247467696666718,2.2294845581054688,-1.190849781036377,0.0013234150828793645,2.092019557952881,3.397627516383789,0.0036853263154625893,0.28307121992111206,-1.5589984099017542,0.0,-0.031012162566184998,0.7743485569953918,-3.2213913742250657e-29,-0.0015188083052635193,0.8143824934959412,6.0407524870242923e-05,0.02194920741021633
516.0,452.0,6.4319,0.2249,4.9155,-0.0006,-0.1011,-0.1217,-1.6333967647948207,-0.17466488480567932,2.219748020172119,-1.1908695697784424,-0.0007069794810377061,2.0720062255859375,3.397651358241699,0.003814470022916794,0.2886826694011688,-1.5589702765094202,0.0,-0.0435255691409111,0.7742277383804321,-8.966861925904418e-33,0.008466769941151142,0.8143947124481201,8.789468120085075e-05,0.06608211994171143
516.0,452.0,6.4319,0.2249,4.9155,-0.0006,-0.1011,-0.1217,-1.6344357929625453,-0.19005119800567627,2.233194351196289,-1.1909419298171997,-0.0020764805376529694,2.052455186843872,3.3976594644733886,0.0018828626489266753,0.27798426151275635,-1.5590103308307093,0.0,-0.03686904534697533,0.7742841243743896,-2.495959283175322e-36,1.3631768524646759e-05,0.8144509792327881,0.00023003979003988206,0.08405762165784836
516.0,452.0,6.4319,0.2249,4.9155,-0.0006,-0.1011,-0.1217,-1.6359669170775355,-0.19886913895606995,2.247992515563965,-1.190857172012329,-1.1096873095084447e-05,2.112881660461426,3.3976432520100097,0.00030257212347351015,0.29217568039894104,-1.5590103308307093,0.0,-0.04074876010417938,0.7742637395858765,-4.536283388712298e-41,-0.009492930956184864,0.8144107460975647,0.0001969550212379545,0.055197447538375854
516.0,452.0,6.4319,0.2249,4.9155,-0.0006,-0.1011,-0.1217,-1.6371337376036585,-0.19397807121276855,2.228682518005371,-1.1908538341522217,0.0027281520888209343,2.132275342941284,3.397667570705078,0.0003941499162465334,0.29580214619636536,-1.5589702765094202,0.0,-0.04354791343212128,0.774284303188324,-1.2611686178923354e-44,-0.008014961145818233,0.8144268989562988,0.0001775292621459812,0.06123228371143341
502.0,8190.0,7.9926,-0.0245,4.1198,0.0078,-0.2598,-0.1147,-1.6382461986937464,-0.18603874742984772,2.273845911026001,-1.1908578872680664,0.0033081655856221914,2.173457622528076,3.3976995187946777,0.0022933469153940678,0.2886594235897064,-1.5589783827411097,0.0,-0.04875633120536804,0.7742640972137451,-0.0,-0.01067669503390789,0.8143947124481201,0.0001853562134783715,0.048480384051799774
502.0,8190.0,7.9926,-0.0245,4.1198,0.0078,-0.2598,-0.1147,-1.639383932153219,-0.18247878551483154,2.284731388092041,-1.1908178329467773,0.0031947658862918615,2.1525206565856934,3.397735758418701,0.0049059949815273285,0.2985279858112335,-1.558986012135641,0.0,-0.04571348428726196,0.7742640972137451,-0.0,-0.008602315559983253,0.8144145011901855,0.00017299321189057082,0.12473451346158981
502.0,8190.0,7.9926,-0.0245,4.1198,0.0078,-0.2598,-0.1147,-1.6408163509764613,-0.181682750582695,2.305927276611328,-1.1908259391784668,0.0012708321446552873,2.156069040298462,3.3978044229694824,0.004882552195340395,0.3014661967754364,-1.55902606645693,-0.00017320574261248112,-0.05598738417029381,0.7742079496383667,-0.0,-0.011473968625068665,0.8143860101699829,0.0011568987974897027,0.07568065822124481
502.0,8190.0,7.9926,-0.0245,4.1198,0.0078,-0.2598,-0.1147,-1.6419297657408656,-0.18525055050849915,2.3598709106445312,-1.1907938718795776,0.0005496778176166117,2.19523286819458,3.397763414973877,0.003560248063877225,0.3047578036785126,-1.5589941183673304,-0.00018634565640240908,-0.05283872038125992,0.7742719054222107,-0.0,-0.010036645457148552,0.8144749402999878,0.002272076439112425,0.12570703029632568
502.0,8190.0,7.9926,-0.0245,4.1198,0.0078,-0.2598,-0.1147,-1.6430651150145472,-0.18907611072063446,2.33457612991333,-1.1908460855484009,0.0003768721653614193,2.205993175506592,3.397763414973877,0.0018981352914124727,0.30760183930397034,-1.559014622365133,-0.00019653071649372578,-0.05207040160894394,0.7742477655410767,-0.0,0.001388505450449884,0.8144988417625427,0.00280759041197598,0.11588972061872482
502.0,8190.0,7.9926,-0.0245,4.1198,0.0078,-0.2598,-0.1147,-1.6441623173155726,-0.18913595378398895,2.343714475631714,-1.1908701658248901,0.0002867708681151271,2.1907799243927,3.397730990047119,0.0010060478234663606,0.31242871284484863,-1.559014622365133,-0.0001801226899260655,-0.0475291982293129,0.7742440700531006,-0.0,-0.022872140631079674,0.8144506216049194,0.0018890367355197668,0.1374281644821167
502.0,8190.0,7.9926,-0.0245,4.1198,0.0078,-0.2598,-0.1147,-1.6456109486021937,-0.18333956599235535,2.326763868331909,-1.19075345993042,0.0001671733771217987,2.164560556411743,3.3978115755268554,0.0007140578818507493,0.31341952085494995,-1.5589984099017542,-0.00018469998030923307,-0.06842436641454697,0.7742882966995239,-0.0,-0.010642904788255692,0.8144865036010742,0.0008269794634543359,0.13708440959453583
502.0,8190.0,7.9926,-0.0245,4.1198,0.0078,-0.2598,-0.1147,-1.646714826623434,-0.17583173513412476,2.421257495880127,-1.1908135414123535,0.0012232218869030476,2.1923818588256836,3.3977948862263183,0.0006719222292304039,0.3160524368286133,-1.5590303579913538,-0.00017152410873677582,-0.054916754364967346,0.7742804884910583,-0.0,-0.009266858920454979,0.8144947290420532,0.0005239957245066762,0.12423156201839447
502.0,8190.0,7.9926,-0.0245,4.1198,0.0078,-0.2598,-0.1147,-1.6477633915343226,-0.1761702597141266,2.425135850906372,-1.1907494068145752,0.0018535427516326308,2.2209365367889404,3.397803469295166,0.0022117160260677338,0.3051829934120178,-1.5589984099017542,-0.0002058685349766165,-0.055363960564136505,0.7742600440979004,-0.0,-0.0030192106496542692,0.8144947290420532,0.00038828590186312795,0.1424395591020584
502.0,8190.0,7.9926,-0.0245,4.1198,0.0078,-0.2598,-0.1147,-1.6487928829588832,-0.18158145248889923,2.3418772220611572,-1.1907658576965332,0.0011195262195542455,2.2294139862060547,3.3978397089191894,0.002263228641822934,0.3107973337173462,-1.5590513388263147,-0.00018104654736816883,-0.0690750777721405,0.7742640972137451,-0.0,-0.02074212022125721,0.8144506216049194,0.00037010619416832924,0.157320037484169
502.0,8190.0,7.9926,-0.0245,4.1198,0.0078,-0.2598,-0.1147,-1.649935861627096,-0.18380115926265717,2.4036364555358887,-1.190770149230957,0.00026893109316006303,2.223237991333008,3.3978354173847656,0.0017877204809337854,0.3200169801712036,-1.559014622365133,-0.0001615449582459405,-0.0769621804356575,0.7741594314575195,-0.0,-0.009991887956857681,0.8144786953926086,0.0003581322089303285,0.1177167072892189
502.0,8190.0,7.9926,-0.0245,4.1198,0.0078,-0.2598,-0.1147,-1.651426454583639,-0.17621341347694397,2.40033221244812,-1.1907415390014648,0.00025242293486371636,2.15696382522583,3.3978797632404785,0.0011625121114775538,0.3011223077774048,-1.5590179602252405,-0.00014125817688181996,-0.058878619223833084,0.774284303188324,-0.0,-0.006611722521483898,0.8144869208335876,0.0002917843812610954,0.11530271172523499
502.0,8190.0,7.9926,-0.0245,4.1198,0.0078,-0.2598,-0.1147,-1.6524774036803187,-0.17453652620315552,2.4166064262390137,-1.1907700300216675,0.00019712047651410103,2.2363078594207764,3.397827311153076,0.0010065953247249126,0.30811941623687744,-1.5590346495257776,-0.00015490411897189915,-0.044857800006866455,0.7742316722869873,-0.0,-0.012770920991897583,0.8144986629486084,0.000292608339805156,0.1470171958208084
502.0,8190.0,7.9926,-0.0245,4.1198,0.0078,-0.2598,-0.1147,-1.653517862359518,-0.17842158675193787,2.3737549781799316,-1.1907576322555542,0.0001616974623175338,2.180178642272949,3.3978754717060546,0.0010696392273530364,0.3116183876991272,-1.5590022245990198,-0.00014264175842981786,-0.040695615112781525,0.7742317914962769,-0.0,-0.016918163746595383,0.8144865036010742,0.0002609488437883556,0.16542789340019226
458.0,463.0,8.01,-0.0694,4.5129,-0.0276,-0.1787,-0.1205,-1.6546184025206507,-0.18774931132793427,2.4355545043945312,-1.1907896995544434,0.00013706869503948838,2.2427096366882324,3.3978678423115234,0.0008094791555777192,0.30938151478767395,-1.559047047291891,-0.00013216752267908305,-0.04474988579750061,0.7742399573326111,-0.0,-0.010452034883201122,0.8144865036010742,0.00023535749642178416,0.10641227662563324
458.0,463.0,8.01,-0.0694,4.5129,-0.0276,-0.1787,-0.1205,-1.6561771831908167,-0.18495504558086395,2.4027655124664307,-1.1907659769058228,0.00013317735283635557,2.2007105350494385,3.3978959757038574,0.0007111968006938696,0.3119751811027527,-1.559042755757467,-0.00012038135173497722,-0.047551050782203674,0.7742559909820557,-0.0,-0.0007981156231835485,0.8144506216049194,0.000152949956827797,0.1211419552564621
458.0,463.0,8.01,-0.0694,4.5129,-0.0276,-0.1787,-0.1205,-1.657269140283102,-0.17305375635623932,2.434622287750244,-1.190770149230957,0.0011523086577653885,2.200423240661621,3.3979241090961914,0.001503440667875111,0.3219678997993469,-1.5590060392962855,-0.00011283489584457129,-0.053467556834220886,0.7742644548416138,-0.0,-0.0024824857246130705,0.8144383430480957,0.00013879670586902648,0.11887922883033752
458.0,463.0,8.01,-0.0694,4.5129,-0.0276,-0.1787,-0.1205,-1.65838684658193,-0.17563655972480774,2.3974499702453613,-1.1908143758773804,0.00048030278412625194,2.216494560241699,3.3979198175617675,0.002240055240690708,0.31033068895339966,-1.559042755757467,-0.00010617882071528584,-0.05393587797880173,0.774312436580658,-0.0,-0.005985117517411709,0.8145068883895874,0.00015142609481699765,0.15808211266994476
458.0,463.0,8.01,-0.0694,4.5129,-0.0276,-0.1787,-0.1205,-1.6594792805113734,-0.1857757717370987,2.3985586166381836,-1.1907824277877808,1.562601391924545e-05,2.222382068634033,3.3979036050983886,0.001807875232771039,0.32087242603302,-1.559042755757467,-0.0001002641802188009,-0.055784642696380615,0.7742202877998352,-0.0,-0.004640818573534489,0.8144622445106506,0.00018644834926817566,0.11245027184486389
458.0,463.0,8.01,-0.0694,4.5129,-0.0276,-0.1787,-0.1205,-1.6610003910460414,-0.19618932902812958,2.3929245471954346,-1.1907297372817993,5.062629460615697e-13,2.2170886993408203,3.3978921610065917,0.0007281675352714956,0.3113982677459717,-1.559002701436178,-9.333238995168358e-05,-0.05470290780067444,0.7742359638214111,-0.0,-0.01345872599631548,0.8145028352737427,0.00026854322641156614,0.16887211799621582
458.0,463.0,8.01,-0.0694,4.5129,-0.0276,-0.1787,-0.1205,-1.662154336968893,-0.18749387562274933,2.445369243621826,-1.1907824277877808,1.222565500727862e-18,2.2371010780334473,3.3978797632404785,0.0006588761461898685,0.3213855028152466,-1.5589821974383753,-8.873132173903286e-05,-0.04500867426395416,0.7742637395858765,-0.0,-0.011637494899332523,0.8144543170928955,0.00022776170226279646,0.10765990614891052
458.0,463.0,8.01,-0.0694,4.5129,-0.0276,-0.1787,-0.1205,-1.6632677517332972,-0.1791345179080963,2.465259552001953,-1.190810203552246,2.9523519724805766e-24,2.244194984436035,3.3979479509541015,0.000691165856551379,0.32014352083206177,-1.558986012135641,-8.456283831037581e-05,-0.06313657760620117,0.7742317914962769,-0.0,-0.010325998067855835,0.8145473003387451,0.00019773496023844928,0.1416410505771637
458.0,463.0,8.01,-0.0694,4.5129,-0.0276,-0.1787,-0.1205,-1.6643463573851527,-0.1826724261045456,2.4442074298858643,-1.1907742023468018,7.129582757850264e-30,2.2374961376190186,3.3980366426655273,0.0019469610415399075,0.32042884826660156,-1.5589941183673304,-8.076839003479108e-05,-0.06649909913539886,0.7742518186569214,-0.0,-0.009667949751019478,0.8145188689231873,0.00017470349848736078,0.12329793721437454
458.0,463.0,8.01,-0.0694,4.5129,-0.0276,-0.1787,-0.1205,-1.6654144726195277,-0.1910843551158905,2.4503941535949707,-1.1907864809036255,1.7217103580256072e-35,2.2849130630493164,3.397927446956299,0.0011621278245002031,0.3111131191253662,-1.5590222517596644,-7.72998682805337e-05,-0.0552193820476532,0.7742318511009216,-0.0,0.0027201538905501366,0.8145151138305664,0.00018733828619588166,0.1492367386817932
458.0,463.0,8.01,-0.0694,4.5129,-0.0276,-0.1787,-0.1205,-1.666969438592428,-0.1977151483297348,2.5537233352661133,-1.1907864809036255,0.00010026240488514304,2.2671260833740234,3.3980118471333007,0.0008022243855521083,0.32280391454696655,-1.558986012135641,-7.3113405960612e-05,-0.05387368053197861,0.7742317914962769,-0.0,0.006468508392572403,0.8145270347595215,0.0001648442557780072,0.16638599336147308
458.0,463.0,8.01,-0.0694,4.5129,-0.0276,-0.1787,-0.1205,-1.668121954003805,-0.1938793659210205,2.4556386470794678,-1.1907742023468018,0.0006163492216728628,2.24017071723938,3.397995634669922,0.003731725737452507,0.32495540380477905,-1.5590103308307093,-7.025953527772799e-05,-0.05981422960758209,0.7742235660552979,-0.0,-0.0179881788790226,0.8144828081130981,0.00015101410099305212,0.12952885031700134
458.0,463.0,8.01,-0.0694,4.5129,-0.0276,-0.1787,-0.1205,-1.669239183465475,-0.18674439191818237,2.456873655319214,-1.1907740831375122,0.0016172919422388077,2.25216007232666,3.3980275827595214,0.007898852229118347,0.332266628742218,-1.5589941183673304,-6.762010889360681e-05,-0.057649992406368256,0.7742518186569214,-0.0,-0.010250771418213844,0.8145592212677002,0.0001393251004628837,0.155975341796875
458.0,463.0,8.01,-0.0694,4.5129,-0.0276,-0.1787,-0.1205,-1.670335432092184,-0.1845787763595581,2.5239412784576416,-1.1907339096069336,0.001160475774668157,2.2390871047973633,3.398091955775879,0.012052294798195362,0.32721227407455444,-1.5590060392962855,-7.600974640809e-05,-0.04805385693907738,0.7742440700531006,-0.0,-0.011720756068825722,0.8145188689231873,0.00012931563833262771,0.1465061902999878
419.0,450.0,7.3675,-0.1747,5.5645,-0.0281,-0.1379,-0.1222,-1.6718579731383265,-0.18894267082214355,2.5305066108703613,-1.1907658576965332,0.0006172096473164856,2.327122449874878,3.3981968599506835,0.013178286142647266,0.34273630380630493,-1.5590346495257776,-8.22096480987966e-05,-0.04912891238927841,0.7742522954940796,-0.0,-0.00951617956161499,0.8144863843917847,0.00013980707444716245,0.23615111410617828
419.0,450.0,7.3675,-0.1747,5.5645,-0.0281,-0.1379,-0.1222,-1.6729914150633753,-0.18679504096508026,2.5550923347473145,-1.1908060312271118,0.00047696020919829607,2.329066038131714,3.3982645708271484,0.011540854349732399,0.34646499156951904,-1.5590346495257776,-8.012638136278838e-05,-0.060209501534700394,0.7742236256599426,-0.0,-0.004190927371382713,0.8145226240158081,0.00020332480198703706,0.173798605799675
419.0,450.0,7.3675,-0.1747,5.5645,-0.0281,-0.1379,-0.1222,-1.6740738354124964,-0.19089359045028687,2.563408374786377,-1.1907782554626465,0.0003886661143042147,2.3163843154907227,3.3983279901691894,0.010042776353657246,0.34738248586654663,-1.559042755757467,-6.11565264989622e-05,-0.07013466954231262,0.7743005752563477,-0.0,-0.026646383106708527,0.8145146369934082,0.000928409630432725,0.18458373844623566
419.0,450.0,7.3675,-0.1747,5.5645,-0.0281,-0.1379,-0.1222,-1.675248762170309,-0.1920832097530365,2.572350025177002,-1.190769910812378,0.0003279598313383758,2.3333041667938232,3.3983518320270996,0.008138059638440609,0.3557009994983673,-1.5590303579913538,-7.043152436381206e-05,-0.07283498346805573,0.7742559909820557,-0.0,-0.008450816385447979,0.8145146369934082,0.0009325038990937173,0.21868103742599487
419.0,450.0,7.3675,-0.1747,5.5645,-0.0281,-0.1379,-0.1222,-1.6763154468932093,-0.18880316615104675,2.5227768421173096,-1.1907498836517334,0.00032634445233270526,2.304825782775879,3.3984243112751464,0.0065953973680734634,0.348788857460022,-1.559042755757467,-7.903026562416926e-05,-0.06657165288925171,0.7742357850074768,-0.0,-0.0006987954257056117,0.8144824504852295,0.000825986557174474,0.19357629120349884
419.0,450.0,7.3675,-0.1747,5.5645,-0.0281,-0.1379,-0.1222,-1.6777454815306605,-0.17893828451633453,2.57275390625,-1.190769910812378,0.0002652742841746658,2.3440842628479004,3.3985697466083984,0.009554280899465084,0.3718176484107971,-1.5590346495257776,-8.596334373578429e-05,-0.07713265717029572,0.7742195129394531,-0.0,-0.018428964540362358,0.8145345449447632,0.0007114950567483902,0.17656047642230988
419.0,450.0,7.3675,-0.1747,5.5645,-0.0281,-0.1379,-0.1222,-1.6788207493224085,-0.18047282099723816,2.6000375747680664,-1.1907905340194702,0.0006176293245516717,2.3593742847442627,3.398544951076172,0.013089753687381744,0.3781229257583618,-1.5590460936175745,-0.0002973509836010635,-0.08106499910354614,0.7742522358894348,-0.0,-0.006315893493592739,0.8145345449447632,0.001106211799196899,0.25269123911857605
419.0,450.0,7.3675,-0.1747,5.5645,-0.0281,-0.1379,-0.1222,-1.6799355945982875,-0.18531416356563568,2.6043505668640137,-1.190742015838623,0.0005337251350283623,2.3880114555358887,3.3986851412006835,0.01770823262631893,0.37909916043281555,-1.5590346495257776,-0.00030033575603738427,-0.06775911152362823,0.7742640972137451,-0.0,-0.019270461052656174,0.8145143985748291,0.001663721282966435,0.2578670084476471
419.0,450.0,7.3675,-0.1747,5.5645,-0.0281,-0.1379,-0.1222,-1.6809936962523402,-0.18351073563098907,2.6362667083740234,-1.190718173980713,0.0007949009886942804,2.3455283641815186,3.398829622859619,0.027382010594010353,0.3824729323387146,-1.5589736143695276,-0.00030066081671975553,-0.08987779915332794,0.7742641568183899,-0.0,0.0014284070348367095,0.8145465850830078,0.0019217891385778785,0.22893932461738586
419.0,450.0,7.3675,-0.1747,5.5645,-0.0281,-0.1379,-0.1222,-1.6825043163695277,-0.17416271567344666,2.6234467029571533,-1.1906696557998657,0.0035724963527172804,2.38210129737854,3.3991219240375976,0.052458688616752625,0.4017208218574524,-1.559082333241598,-0.0003811316564679146,-0.07962991297245026,0.7742317914962769,-0.0,0.0029623855371028185,0.8145304322242737,0.00211549480445683,0.2600820064544678
419.0,450.0,7.3675,-0.1747,5.5645,-0.0281,-0.1379,-0.1222,-1.6835352383055628,-0.17212654650211334,2.6632142066955566,-1.190698504447937,0.0038803834468126297,2.3834426403045654,3.399542971248291,0.08872668445110321,0.4190191924571991,-1.5590460936175745,-0.00037685074494220316,-0.0831642597913742,0.7742242813110352,-0.0,0.0007910404819995165,0.8145747780799866,0.002261483110487461,0.3057022988796234
419.0,450.0,7.3675,-0.1747,5.5645,-0.0281,-0.1379,-0.1222,-1.684606214562887,-0.17744453251361847,2.668078899383545,-1.1907140016555786,0.0029012740124017,2.432771921157837,3.400244875545166,0.13776278495788574,0.44636619091033936,-1.5590222517596644,-0.00041371057159267366,-0.08902617543935776,0.7742161154747009,-0.0,-0.013868793845176697,0.8145706653594971,0.002089690649881959,0.2668267488479614
419.0,450.0,7.3675,-0.1747,5.5645,-0.0281,-0.1379,-0.1222,-1.6856891117491664,-0.1879013329744339,2.6655139923095703,-1.1907098293304443,0.0017628221539780498,2.406409502029419,3.4011971193500976,0.16927601397037506,0.4731592833995819,-1.5590503851519983,-0.00043333802022971213,-0.0706305205821991,0.7742522954940796,-0.0,-0.01742691546678543,0.8145421743392944,0.0019956694450229406,0.282385915517807
419.0,450.0,7.3675,-0.1747,5.5645,-0.0281,-0.1379,-0.1222,-1.6871468029417933,-0.18061085045337677,2.626955509185791,-1.1906580924987793,0.003983407747000456,2.4289333820343018,3.402811213130615,0.21341745555400848,0.4823034405708313,-1.559037987385885,-0.0003291148750577122,-0.08037734031677246,0.7742640972137451,-0.0,-0.020246896892786026,0.8146106600761414,0.0012019079877063632,0.3065235912799835
412.0,423.0,10.2108,0.0903,4.3472,-0.0515,0.0816,-0.1219,-1.6882621250548304,-0.16887599229812622,2.735138177871704,-1.1905944347381592,0.006725940853357315,2.4599287509918213,3.404249353999756,0.27125367522239685,0.5127568244934082,-1.5590866247760218,-0.00032380627817474306,-0.08716575801372528,0.7742202877998352,-0.0,-0.013428112491965294,0.8146106600761414,0.0008827373967505991,0.30433976650238037
412.0,423.0,10.2108,0.0903,4.3472,-0.0515,0.0816,-0.1219,-1.689312597314352,-0.16652590036392212,2.677672863006592,-1.1906383037567139,0.004538620822131634,2.486316680908203,3.406040831203125,0.30434751510620117,0.5226037502288818,-1.5590947310077112,-0.00027444533770903945,-0.08800497651100159,0.7742922902107239,-0.0,-0.0013996330089867115,0.8146228790283203,0.0006150627741590142,0.28934791684150696
412.0,423.0,10.2108,0.0903,4.3472,-0.0515,0.0816,-0.1219,-1.6903554401793421,-0.17540527880191803,2.718883514404297,-1.1906108856201172,0.0021436132956296206,2.482189178466797,3.408125563258789,0.35869964957237244,0.5509210824966431,-1.5591109434710901,-0.0002575291146058589,-0.09407800436019897,0.7742722630500793,-0.0,-0.01350429654121399,0.814594566822052,0.0007440663175657392,0.30244171619415283
412.0,423.0,10.2108,0.0903,4.3472,-0.0515,0.0816,-0.1219,-1.6914259395995082,-0.1848469376564026,2.641951084136963,-1.1905462741851807,0.0008493876666761935,2.4366605281829834,3.4104086595722656,0.39896339178085327,0.5741511583328247,-1.5590336958514612,-0.00024553676485083997,-0.09106453508138657,0.7742079496383667,-0.0,-0.016434505581855774,0.814586341381073,0.0012164833024144173,0.3420243561267853
412.0,423.0,10.2108,0.0903,4.3472,-0.0515,0.0816,-0.1219,-1.692909379998678,-0.1778920292854309,2.6819701194763184,-1.1906144618988037,0.0006432233494706452,2.4309144020080566,3.413940115565918,0.4556662440299988,0.5922540426254272,-1.559037987385885,0.00018391544290352613,-0.07413794100284576,0.7742277383804321,-0.0,-0.030713791027665138,0.8146106600761414,0.0007080422365106642,0.29113173484802246
412.0,423.0,10.2108,0.0903,4.3472,-0.0515,0.0816,-0.1219,-1.6939236126341761,-0.1612147092819214,2.73856520652771,-1.190614938735962,0.0006809835322201252,2.43951678276062,3.4168802934833984,0.5078365206718445,0.6084170937538147,-1.5590303579913538,0.00013303910964168608,-0.07272844016551971,0.7742123603820801,-0.0,-0.008251735009253025,0.8146470785140991,0.000508058990817517,0.3071395456790924
412.0,423.0,10.2108,0.0903,4.3472,-0.0515,0.0816,-0.1219,-1.6948582134642542,-0.1574978530406952,2.7251617908477783,-1.1905864477157593,0.0008479193202219903,2.4339332580566406,3.4201342302509765,0.55458003282547,0.6116499900817871,-1.5590503851519983,9.210449934471399e-05,-0.07429027557373047,0.7742399573326111,-0.0,-0.018106704577803612,0.8146311044692993,0.00039619399467483163,0.21187898516654968
412.0,423.0,10.2108,0.0903,4.3472,-0.0515,0.0816,-0.1219,-1.6958729229369105,-0.16825680434703827,2.660698175430298,-1.1905701160430908,-0.0003354960645083338,2.4338650703430176,3.423607512111328,0.5974608659744263,0.6079723834991455,-1.5590828100787562,7.044993981253356e-05,-0.06547893583774567,0.7742277383804321,-0.0,-0.027064915746450424,0.8146306276321411,0.00037873417022638023,0.2629699409008026
412.0,423.0,10.2108,0.0903,4.3472,-0.0515,0.0816,-0.1219,-1.6972805462279261,-0.17992840707302094,2.625562906265259,-1.1906309127807617,-0.0004888417897745967,2.3711695671081543,3.4287330347248535,0.6540449261665344,0.6069930791854858,-1.559014145527975,5.3642899729311466e-05,-0.0715247392654419,0.7742522954940796,-3.8918948064292636e-08,-0.0278118047863245,0.8145982623100281,0.00034899250022135675,0.24040544033050537
412.0,423.0,10.2108,0.0903,4.3472,-0.0515,0.0816,-0.1219,-1.6982866726317347,-0.1778126358985901,2.6868221759796143,-1.1905667781829834,-0.00023025978589430451,2.3372931480407715,3.432859106654785,0.6890103220939636,0.5965412855148315,-1.559014145527975,9.058539581019431e-05,-0.05417843908071518,0.7742399573326111,-1.0833232748364008e-11,-0.032060638070106506,0.8145743608474731,0.0002796963381115347,0.20394785702228546
412.0,423.0,10.2108,0.0903,4.3472,-0.0515,0.0816,-0.1219,-1.6992813549437464,-0.16758932173252106,2.67525577545166,-1.1905627250671387,-6.649336636854741e-09,2.357017993927002,3.437044783229492,0.7257510423660278,0.5827876925468445,-1.5590179602252405,7.901770732132718e-05,-0.05791764706373215,0.7742202877998352,-3.015470326510252e-15,-0.026805484667420387,0.8146269917488098,0.0002365647815167904,0.18187612295150757
412.0,423.0,10.2108,0.0903,4.3472,-0.0515,0.0816,-0.1219,-1.7002765140929164,-0.16053256392478943,2.6802306175231934,-1.1905306577682495,0.001523976563476026,2.3385612964630127,3.441589041347168,0.7593016028404236,0.5901471376419067,-1.5590303579913538,6.982077320571989e-05,-0.055083081126213074,0.7742317914962769,-8.393673094214066e-19,-0.033317290246486664,0.8146306276321411,0.00021261264919303358,0.16614292562007904
412.0,423.0,10.2108,0.0903,4.3472,-0.0515,0.0816,-0.1219,-1.7013279400267542,-0.16053752601146698,2.672536849975586,-1.1905584335327148,0.00019402238831389695,2.3334403038024902,3.446215792293213,0.7977927923202515,0.6000349521636963,-1.5590460936175745,6.254170148167759e-05,-0.040387652814388275,0.7742719650268555,-2.3364093540181835e-22,-0.01866401918232441,0.814618706703186,0.00022026480291970074,0.2021786868572235
412.0,423.0,10.2108,0.0903,4.3472,-0.0515,0.0816,-0.1219,-1.7026335201659144,-0.16829867660999298,2.632005453109741,-1.1905659437179565,1.7034713917229993e-11,2.3584446907043457,3.452687903041504,0.8359383940696716,0.6015124917030334,-1.5590460936175745,8.051499753491953e-05,-0.03593066334724426,0.7742317914962769,-4.246308445126455e-27,-0.021291036158800125,0.8146145939826965,0.00019655223877634853,0.19009682536125183
438.0,424.0,8.8122,0.1998,5.3761,-0.029,0.692,-0.1093,-1.7036086521544398,-0.17057214677333832,2.6037044525146484,-1.1905865669250488,-0.0013173624174669385,2.2827348709106445,3.457873507136963,0.8579002022743225,0.5622166395187378,-1.558997933064596,7.545743574155495e-05,-0.04741385579109192,0.7742283344268799,-1.1819754624354332e-30,-0.018868420273065567,0.8146145939826965,0.00018167363305110484,0.08928345143795013
438.0,424.0,8.8122,0.1998,5.3761,-0.029,0.692,-0.1093,-1.7046767673888148,-0.17633160948753357,2.631256580352783,-1.190606713294983,-0.0008254880085587502,2.2990307807922363,3.463113470668457,0.8751645088195801,0.5801193714141846,-1.5590303579913538,9.242452506441623e-05,-0.04314657300710678,0.7742440700531006,-3.290072312239788e-34,-0.013029566034674644,0.8146145939826965,0.00014778185868635774,0.1398942470550537
438.0,424.0,8.8122,0.1998,5.3761,-0.029,0.692,-0.1093,-1.70570768932485,-0.17745281755924225,2.592302083969116,-1.1905421018600464,-0.0004229650367051363,2.2810821533203125,3.468451662654541,0.893001914024353,0.5559493899345398,-1.5590179602252405,8.616150444140658e-05,-0.041565559804439545,0.7742202877998352,-9.158037015438238e-38,-0.021021734923124313,0.8146429657936096,0.00013806250353809446,0.11010564118623734
438.0,424.0,8.8122,0.1998,5.3761,-0.029,0.692,-0.1093,-1.7070733509459437,-0.17637689411640167,2.594677448272705,-1.1905782222747803,-0.0002869537565857172,2.253032684326172,3.4756743150898437,0.907077431678772,0.5556650757789612,-1.5590985457049769,0.00010368506627855822,-0.044874440878629684,0.7741963863372803,-1.6647425756178827e-42,-0.01440438348799944,0.8146508932113647,0.0001269354106625542,0.05836481973528862
438.0,424.0,8.8122,0.1998,5.3761,-0.029,0.692,-0.1093,-1.7080918751158656,-0.17168234288692474,2.596531391143799,-1.1905782222747803,-0.00017607156769372523,2.271312952041626,3.481085939998291,0.9229721426963806,0.5653228759765625,-1.5590222517596644,9.855686948867515e-05,-0.03361345827579498,0.7742083072662354,-0.0,-0.01844085566699505,0.8145822882652283,0.00011970014020334929,0.03937140852212906
438.0,424.0,8.8122,0.1998,5.3761,-0.029,0.692,-0.1093,-1.7091356716551722,-0.1665620356798172,2.6206352710723877,-1.190606713294983,-0.00019402249017730355,2.236393928527832,3.486510916347168,0.9269445538520813,0.56801438331604,-1.5590022245990198,0.00011093507055193186,-0.037336837500333786,0.7742202281951904,-0.0,-0.013142317533493042,0.8146429657936096,0.00011324531806167215,0.07637724280357361
438.0,424.0,8.8122,0.1998,5.3761,-0.029,0.692,-0.1093,-1.7101546726622523,-0.1729695200920105,2.5734777450561523,-1.1906144618988037,-0.00010210609616478905,2.2336483001708984,3.4920622545429687,0.9321577548980713,0.5320136547088623,-1.5590584913836878,0.00010453192953718826,-0.02944904938340187,0.7742161154747009,-0.0,-0.01981452852487564,0.8145946264266968,0.00010745081817731261,0.049412816762924194
438.0,424.0,8.8122,0.1998,5.3761,-0.029,0.692,-0.1093,-1.7115971050658167,-0.18262532353401184,2.5629639625549316,-1.1906226873397827,-0.0008532183710485697,2.199861764907837,3.4995738702961425,0.9295530915260315,0.537365198135376,-1.5590022245990198,0.00011291203554719687,-0.00913540180772543,0.7742800116539001,-0.0,-0.01855182833969593,0.8146145939826965,3.0165234420564957e-05,0.04749957099556923
438.0,424.0,8.8122,0.1998,5.3761,-0.029,0.692,-0.1093,-1.7126370869078578,-0.18397147953510284,2.57633113861084,-1.1906189918518066,-0.00048245725338347256,2.2348999977111816,3.50519244253125,0.9235668182373047,0.5326470732688904,-1.5590103308307093,0.0001187888701679185,-0.02867351844906807,0.7742801308631897,-0.0,-0.0245434008538723,0.8146429657936096,2.872079858207144e-05,0.03661273419857025
438.0,424.0,8.8122,0.1998,5.3761,-0.029,0.692,-0.1093,-1.7137099705138148,-0.1762879192829132,2.593252658843994,-1.1905380487442017,-0.000364970532245934,2.1993300914764404,3.510689898128174,0.9135036468505859,0.5230346918106079,-1.5590222517596644,0.000116770199383609,-0.024487029761075974,0.7742476463317871,-0.0,-0.003751252079382539,0.8146023750305176,1.370527570543345e-05,0.055811960250139236
438.0,424.0,8.8122,0.1998,5.3761,-0.029,0.692,-0.1093,-1.7147752247252406,-0.17323027551174164,2.608571767807007,-1.1905865669250488,-0.00023483009135816246,2.146146774291992,3.51620261251416,0.9115771055221558,0.5042908191680908,-1.5590389410602015,0.00019623608386609703,-0.012677977792918682,0.774284303188324,-0.0,-0.0022975821048021317,0.8146346807479858,1.3105725884088315e-05,0.0900687426328659
438.0,424.0,8.8122,0.1998,5.3761,-0.029,0.692,-0.1093,-1.7158705196776332,-0.18110725283622742,2.536868095397949,-1.1905701160430908,-0.00012858633999712765,2.155123233795166,3.521500750178955,0.8989518880844116,0.5142529606819153,-1.5590103308307093,0.00017480319365859032,-0.01683817058801651,0.7742682695388794,-0.0,-0.03147447481751442,0.8145822882652283,2.5114235540968366e-05,0.06899964064359665
438.0,424.0,8.8122,0.1998,5.3761,-0.029,0.692,-0.1093,-1.717447420159811,-0.19636474549770355,2.565676212310791,-1.1905741691589355,-0.0008095790399238467,2.1626853942871094,3.528608484859131,0.8775473237037659,0.5325012803077698,-1.5590060392962855,0.00018153195560444146,-0.023226767778396606,0.7742317318916321,-0.0,-0.009441917762160301,0.8146429657936096,1.194862306874711e-05,0.10329336673021317
438.0,424.0,8.8122,0.1998,5.3761,-0.029,0.692,-0.1093,-1.7186042271056117,-0.1926754266023636,2.5543367862701416,-1.1905741691589355,-0.00037713104393333197,2.155093193054199,3.5337459284016113,0.8615273237228394,0.5038525462150574,-1.5589864889727991,0.00019054734730161726,-0.027210058644413948,0.774284303188324,-0.0,0.00043680681847035885,0.8146188259124756,2.2879687094246037e-05,0.08625509589910507
545.0,490.0,5.5149,-0.1854,5.735,-0.06,0.7336,-0.0916,-1.7197772465147914,-0.18642427027225494,2.526165008544922,-1.1906309127807617,-0.00017508206656202674,2.0971832275390625,3.5389138895222167,0.8409096598625183,0.5062375068664551,-1.5589941183673304,0.0001762506435625255,-0.0236494317650795,0.7742518186569214,-0.0,-0.013188459910452366,0.8146145939826965,2.203935400757473e-05,0.07652764022350311
545.0,490.0,5.5149,-0.1854,5.735,-0.06,0.7336,-0.0916,-1.7210279903807582,-0.19139891862869263,2.5269408226013184,-1.1906267404556274,-8.425104897469282e-05,2.080141305923462,3.5438801485249023,0.8253554701805115,0.4825284779071808,-1.559002701436178,0.00016260311531368643,-0.01113523356616497,0.774316668510437,-0.0,0.0008007611613720655,0.8146347403526306,2.125850551237818e-05,0.09999009966850281
545.0,490.0,5.5149,-0.1854,5.735,-0.06,0.7336,-0.0916,-1.722602983514303,-0.20623990893363953,2.482236862182617,-1.190525770187378,-0.0001225846935994923,2.0796713829040527,3.550297899837158,0.7991743683815002,0.5003349184989929,-1.5590184370623987,0.0001684398448560387,-0.017633745446801186,0.7742235660552979,-0.0,-0.013762996532022953,0.8146146535873413,2.029954339377582e-05,0.07267454266548157
545.0,490.0,5.5149,-0.1854,5.735,-0.06,0.7336,-0.0916,-1.7238351307311,-0.2104049175977707,2.5371971130371094,-1.1905617713928223,-0.00015259232895914465,2.1124730110168457,3.5550905901142578,0.7714231610298157,0.49337178468704224,-1.5590060392962855,0.00015766288561280817,-0.003304468933492899,0.7742641568183899,-0.0,-0.00985897146165371,0.814586341381073,2.663371958533389e-07,0.08855539560317993
545.0,490.0,5.5149,-0.1854,5.735,-0.06,0.7336,-0.0916,-1.725072523156637,-0.20147965848445892,2.5347983837127686,-1.1906346082687378,-0.0001305324985878542,2.0779685974121094,3.5596486765095214,0.7469779849052429,0.4909692704677582,-1.5589540640460413,0.0001646325981710106,-0.03237098455429077,0.7742559909820557,-0.0,-0.021025197580456734,0.8145784139633179,6.431730148470649e-13,0.08452851325273514
545.0,490.0,5.5149,-0.1854,5.735,-0.06,0.7336,-0.0916,-1.7262779674925746,-0.20141719281673431,2.5564122200012207,-1.1905783414840698,-0.00011399760842323303,2.0946567058563232,3.563966913814209,0.7324625253677368,0.49946630001068115,-1.5589702765094202,0.00014835452020633966,-0.031484831124544144,0.7742399573326111,-0.0,-0.00035700947046279907,0.8146306276321411,1.5531873168186226e-18,0.1019728034734726
545.0,490.0,5.5149,-0.1854,5.735,-0.06,0.7336,-0.0916,-1.7275191746153773,-0.2126912921667099,2.5422916412353516,-1.1906263828277588,-0.00035685786860994995,2.078028440475464,3.5682617860981445,0.6970462799072266,0.47852903604507446,-1.558990780507223,0.00016152970783878118,-0.013161879032850266,0.7742277383804321,-0.0,-0.019130252301692963,0.8146065473556519,3.750764602757231e-24,0.11838614195585251
545.0,490.0,5.5149,-0.1854,5.735,-0.06,0.7336,-0.0916,-1.729185243646139,-0.21963948011398315,2.5333449840545654,-1.1906465291976929,-0.001286903629079461,2.0590314865112305,3.57365529119458,0.6668890118598938,0.494292676448822,-1.5590103308307093,0.00014464271953329444,-0.01708446443080902,0.7742440104484558,-0.0,-0.008997119963169098,0.8146028518676758,1.2151999639054926e-31,0.06216856837272644
545.0,490.0,5.5149,-0.1854,5.735,-0.06,0.7336,-0.0916,-1.7304755649962367,-0.21495048701763153,2.541520595550537,-1.1905823945999146,-0.00043251996976323426,2.048063278198242,3.577521486873291,0.6464792490005493,0.4861966073513031,-1.559002701436178,0.00013388352817855775,-0.014680243097245693,0.7742481231689453,-0.0,-0.008848135359585285,0.8146311044692993,2.9345649402026252e-37,0.048058100044727325
545.0,490.0,5.5149,-0.1854,5.735,-0.06,0.7336,-0.0916,-1.7317811451353968,-0.20880407094955444,2.6036646366119385,-1.1906346082687378,0.00023552391212433577,2.110686779022217,3.581326647395752,0.6229829788208008,0.488705575466156,-1.5589821974383753,0.00014529017789755017,-0.0021434505470097065,0.7742359638214111,-0.0,-0.00831668172031641,0.8145946264266968,7.090570229483574e-43,0.11180849373340607
545.0,490.0,5.5149,-0.1854,5.735,-0.06,0.7336,-0.0916,-1.7330109081664027,-0.2098851352930069,2.5395331382751465,-1.1905741691589355,8.839977090246975e-05,2.061551809310913,3.5849854189106445,0.6042314767837524,0.4955635666847229,-1.5589540640460413,0.00013596954522654414,-0.021464113146066666,0.7742964029312134,-0.0,-0.018792446702718735,0.8146346807479858,0.0,0.07670779526233673
545.0,490.0,5.5149,-0.1854,5.735,-0.06,0.7336,-0.0916,-1.734687944451803,-0.2102118730545044,2.5707364082336426,-1.1905903816223145,6.158484029583633e-05,2.112347364425659,3.5895959573933105,0.5642654299736023,0.48752111196517944,-1.558957878743307,0.00012516393326222897,-0.008841592818498611,0.7742522954940796,-0.0,-0.0023324117064476013,0.8145702481269836,0.0,0.036228589713573456
545.0,490.0,5.5149,-0.1854,5.735,-0.06,0.7336,-0.0916,-1.7359582386412562,-0.21125102043151855,2.573650360107422,-1.1906465291976929,5.1094102673232555e-05,2.0868659019470215,3.5928336816975097,0.5432972311973572,0.4862014651298523,-1.558974568043844,0.00011812338925665244,-0.013703948818147182,0.7742360234260559,-0.0,-0.012411070987582207,0.8146065473556519,0.0,0.05463820695877075
371.0,426.0,6.7908,-0.052,5.3982,-0.0434,0.3112,-0.1219,-1.737227579156393,-0.21520206332206726,2.5566627979278564,-1.190610408782959,1.233862734206781e-10,2.113039016723633,3.596059961909912,0.5187634229660034,0.48683130741119385,-1.558974568043844,0.00012779961980413646,-0.01672707498073578,0.7741922736167908,-0.0,-0.018813353031873703,0.8146306276321411,0.0,0.10277406871318817
371.0,426.0,6.7908,-0.052,5.3982,-0.0434,0.3112,-0.1219,-1.7384935818114222,-0.21777042746543884,2.5796942710876465,-1.1906300783157349,2.97963320954487e-16,2.077986717224121,3.599031611079834,0.489676296710968,0.4760749340057373,-1.5589540640460413,0.00012134647840866819,-0.01419316977262497,0.7742399573326111,-0.0,-0.01000095997005701,0.8146069645881653,0.0,0.06949014216661453
371.0,426.0,6.7908,-0.052,5.3982,-0.0434,0.3112,-0.1219,-1.7401710949339808,-0.21166977286338806,2.6045913696289062,-1.1905620098114014,9.653630896239672e-24,2.094763994216919,3.602790041560791,0.456831157207489,0.46546804904937744,-1.558974568043844,0.00011507163435453549,-0.00642100814729929,0.774284303188324,-0.0,-0.0025897023733705282,0.814626932144165,0.0,0.080001600086689
371.0,426.0,6.7908,-0.052,5.3982,-0.0434,0.3112,-0.1219,-1.741432329217428,-0.2146156281232834,2.6062135696411133,-1.19059419631958,2.331238290064884e-29,2.080110549926758,3.605421705836914,0.43589022755622864,0.4623318910598755,-1.5589702765094202,0.00010739921708591282,-0.017601123079657555,0.7742283344268799,-0.0,-0.00817625131458044,0.814602792263031,0.0,0.08183994144201279
371.0,426.0,6.7908,-0.052,5.3982,-0.0434,0.3112,-0.1219,-1.7426978550352992,-0.2168518602848053,2.628354072570801,-1.190566062927246,5.629665721137969e-35,2.080373525619507,3.6079155641743164,0.4063526690006256,0.44467735290527344,-1.5589788595782679,0.00010022309288615361,-0.01737108826637268,0.7742440700531006,-0.0,-0.024446969851851463,0.8146310448646545,0.0,0.059822600334882736
371.0,426.0,6.7908,-0.052,5.3982,-0.0434,0.3112,-0.1219,-1.744023939172262,-0.21237702667713165,2.704591751098633,-1.1906712055206299,1.3594977311340078e-40,2.091770648956299,3.610207720393799,0.37899190187454224,0.4400571286678314,-1.5589221159564417,0.00011272394476691261,-0.027109917253255844,0.7742359638214111,-0.0,-0.009247466921806335,0.8146028518676758,0.0,0.06982699036598206
371.0,426.0,6.7908,-0.052,5.3982,-0.0434,0.3112,-0.1219,-1.7453133068480433,-0.20496106147766113,2.622347116470337,-1.1906182765960693,0.0,2.1304807662963867,3.6124817568012695,0.36126798391342163,0.4295555651187897,-1.55894643465151,0.000106090257759206,-0.023781104013323784,0.7742202877998352,-0.0,-0.008589023724198341,0.8145905137062073,0.0,0.051390763372182846
371.0,426.0,6.7908,-0.052,5.3982,-0.0434,0.3112,-0.1219,-1.7469989262022914,-0.20685195922851562,2.671065330505371,-1.1906263828277588,-0.0,2.0912845134735107,3.6152145105549316,0.3307734429836273,0.4146197438240051,-1.5589459578143519,0.00011475315113784745,-0.003057838184759021,0.7741922736167908,-0.0,-0.028985679149627686,0.8145743608474731,0.0,0.04234775900840759
371.0,426.0,6.7908,-0.052,5.3982,-0.0434,0.3112,-0.1219,-1.7483459911742152,-0.21703429520130157,2.6564748287200928,-1.1905903816223145,-0.0,2.088794231414795,3.61710707723584,0.29576483368873596,0.3978703022003174,-1.5589264074908655,0.0001243430597241968,-0.010475676506757736,0.7742242813110352,-0.0,-0.014654701575636864,0.8145624399185181,0.0,0.03268957510590553
371.0,426.0,6.7908,-0.052,5.3982,-0.0434,0.3112,-0.1219,-1.749589582482809,-0.21504531800746918,2.619028091430664,-1.190574288368225,-0.0,2.112501382827759,3.6188289362141113,0.2710442543029785,0.38869982957839966,-1.5589388052569788,0.00019722226716112345,-0.014907493256032467,0.7742359638214111,-0.0,-0.01947711780667305,0.8146106600761414,0.0,0.02464342676103115
371.0,426.0,6.7908,-0.052,5.3982,-0.0434,0.3112,-0.1219,-1.7509685955443324,-0.20721851289272308,2.7272796630859375,-1.190558671951294,-0.0,2.1162521839141846,3.6202704149433593,0.22525513172149658,0.37212008237838745,-1.558890167866842,0.00017664869665168226,-0.0005811401642858982,0.7742083072662354,-0.0,-0.020209630951285362,0.8145665526390076,0.0,0.06497904658317566
371.0,426.0,6.7908,-0.052,5.3982,-0.0434,0.3112,-0.1219,-1.7526141605772914,-0.2086460143327713,2.6956586837768555,-1.190598487854004,0.00023543642600998282,2.1152989864349365,3.621947928065918,0.20364367961883545,0.3461301326751709,-1.5589826742755335,0.000183067299076356,-0.010495573282241821,0.774264395236969,-0.0,-0.012054156512022018,0.8146065473556519,0.0,-0.00953562930226326
371.0,426.0,6.7908,-0.052,5.3982,-0.0434,0.3112,-0.1219,-1.7539354763426722,-0.2163943350315094,2.669907808303833,-1.190638780593872,0.00015365076251327991,2.1120808124542236,3.6230503755756835,0.1683814972639084,0.3516608476638794,-1.5589702765094202,0.00016627914737910032,-0.010302932932972908,0.7742043137550354,-0.0,-0.0061289118602871895,0.8145743608474731,0.0,0.008321307599544525
371.0,426.0,6.7908,-0.052,5.3982,-0.0434,0.3112,-0.1219,-1.7552334270873011,-0.214719757437706,2.6685335636138916,-1.1906546354293823,9.401042916579172e-05,2.124331474304199,3.623964472407959,0.14178994297981262,0.335237056016922,-1.5589459578143519,0.0001522184902569279,-0.0029075006023049355,0.7742202877998352,-0.0,-0.01816912367939949,0.8145301938056946,-0.0002664877683855593,0.0033733248710632324
254.0,337.0,6.4181,-0.4756,5.8325,-0.0535,-0.0756,-0.1142,-1.7564660511412562,-0.20372998714447021,2.6971559524536133,-1.1905617713928223,0.00014308483514469117,2.1309518814086914,3.624796076411865,0.12497520446777344,0.3234317898750305,-1.5589545408831995,0.00016332727682311088,0.0030088117346167564,0.7741919755935669,-0.0,-0.021367564797401428,0.8145987391471863,-0.0002286113303853199,0.021288510411977768
254.0,337.0,6.4181,-0.4756,5.8325,-0.0535,-0.0756,-0.1142,-1.758127828637594,-0.20419980585575104,2.690275192260742,-1.190598487854004,7.74981742779346e-07,2.138357162475586,3.625544710750244,0.08464007079601288,0.3094906210899353,-1.5589545408831995,0.00014831808221060783,-0.01011584885418415,0.7742481827735901,-0.0,-0.010281436145305634,0.8145743608474731,-0.00018999696476384997,0.027378762140870094
