ramyac6/ROB537/final_project/csv/test/good/good_128.csv
tof_0,tof_1,accelx,accely,accelz,gyrox,gyroy,gyroz,shoulder_lift_joint_position,shoulder_lift_joint_velocity,shoulder_lift_joint_effort,elbow_joint_position,elbow_joint_velocity,elbow_joint_effort,wrist_1_joint_position,wrist_1_joint_velocity,wrist_1_joint_effort,wrist_2_joint_position,wrist_2_joint_velocity,wrist_2_joint_effort,wrist_3_joint_position,wrist_3_joint_velocity,wrist_3_joint_effort,shoulder_pan_joint_position,shoulder_pan_joint_velocity,shoulder_pan_joint_effort
302.0,303.0,0.003,-3.722,9.1537,-0.0249,0.0206,-0.1228,-1.6711374721922816,0.0,2.485214948654175,-1.8278733491897583,-0.0,2.071678638458252,4.969800579338827,-0.0,0.2852446734905243,-1.196543041859762,0.0,-0.05255486071109772,0.7631778717041016,0.0,-0.0042384653352200985,0.9176530838012695,0.0,0.0040603517554700375
302.0,303.0,0.003,-3.722,9.1537,-0.0249,0.0206,-0.1228,-1.6711212597289027,0.0,2.503286361694336,-1.827877402305603,-0.0,2.0648632049560547,4.969788241177358,-0.0,0.2782806158065796,-1.1964829603778284,0.0,-0.04004277288913727,0.7631581425666809,0.0,0.004558833781629801,0.9176694750785828,0.0,-0.03465639799833298
302.0,303.0,0.003,-3.722,9.1537,-0.0249,0.0206,-0.1228,-1.6711613140501917,0.0,2.4891304969787598,-1.8278896808624268,-0.0,2.0797767639160156,4.969836252718725,-0.0,0.28365862369537354,-1.1965192000018519,0.0,-0.03851824253797531,0.7631735801696777,0.0,-0.008787810802459717,0.917669415473938,0.0,-0.024165786802768707
302.0,303.0,0.003,-3.722,9.1537,-0.0249,0.0206,-0.1228,-1.671157022515768,0.0,2.499667167663574,-1.8279340267181396,-0.0,2.104978561401367,4.969844418555059,-0.0,0.2801443338394165,-1.1965230146991175,0.0,-0.05067981779575348,0.7632338404655457,0.0,0.01361406035721302,0.9176251888275146,0.0,-0.001379738561809063
302.0,303.0,0.003,-3.722,9.1537,-0.0249,0.0206,-0.1228,-1.6712213955321253,0.0,2.4893412590026855,-1.8279331922531128,-0.0,2.044567584991455,4.969816583185949,-0.0,0.288832426071167,-1.1965072790728968,0.0,-0.05504261702299118,0.7632699012756348,0.0,0.0015606964007019997,0.9176333546638489,0.0,-0.01839214749634266
310.0,312.0,0.1669,-3.6885,8.7936,-0.0342,0.0238,-0.1196,-1.6711451015868128,0.0,2.5224039554595947,-1.8279619216918945,-0.0,2.0816493034362793,4.969804245024481,-0.0,0.2853381037712097,-1.196531120930807,0.0,-0.053016044199466705,0.763225793838501,0.0,-0.0037036780267953873,0.9176210761070251,0.0,-0.015800703316926956
310.0,312.0,0.1669,-3.6885,8.7936,-0.0342,0.0238,-0.1196,-1.6711532078185023,0.0,2.483792543411255,-1.8279290199279785,-0.0,2.071478843688965,4.969816553383627,-0.0,0.2837534248828888,-1.196543041859762,0.0,-0.05057187378406525,0.7632179260253906,0.0,-0.012949520722031593,0.9176775813102722,0.0,-0.02030816860496998
310.0,312.0,0.1669,-3.6885,8.7936,-0.0342,0.0238,-0.1196,-1.6711331806578578,0.0,2.5049006938934326,-1.8278814554214478,-0.0,2.090672016143799,4.969800609141149,-0.0,0.28307580947875977,-1.1965110937701624,0.0,-0.04748911410570145,0.7632497549057007,0.0,-0.004505709279328585,0.9177095293998718,0.0,0.0412476509809494
310.0,312.0,0.1669,-3.6885,8.7936,-0.0342,0.0238,-0.1196,-1.6711451015868128,0.0,2.475736141204834,-1.8279175758361816,-0.0,2.0442912578582764,4.969796407013693,-0.0,0.2939906120300293,-1.1965192000018519,0.0,-0.04465031996369362,0.7631819844245911,0.0,0.011572666466236115,0.9176091551780701,0.0,0.017499953508377075
310.0,312.0,0.1669,-3.6885,8.7936,-0.0342,0.0238,-0.1196,-1.6710974178709925,0.0,2.5122904777526855,-1.8279331922531128,-0.0,2.0805115699768066,4.9697923240955255,-0.0,0.2868463099002838,-1.1965192000018519,0.0,-0.041943397372961044,0.7631819248199463,0.0,0.005173510871827602,0.9176371097564697,0.0,-0.02898653782904148
310.0,312.0,0.1669,-3.6885,8.7936,-0.0342,0.0238,-0.1196,-1.6711293659605921,0.0,2.5086793899536133,-1.8279454708099365,-0.0,2.1161985397338867,4.969780075341024,-0.0,0.2838837504386902,-1.1964791456805628,0.0,-0.04812488704919815,0.7631939053535461,0.0,0.019498789682984352,0.9176493883132935,0.0,-0.06866675615310669
310.0,312.0,0.1669,-3.6885,8.7936,-0.0342,0.0238,-0.1196,-1.6711212597289027,0.0,2.504354476928711,-1.8279011249542236,-0.0,2.06113338470459,4.969775992422857,-0.0,0.28003981709480286,-1.196554962788717,0.0,-0.049326151609420776,0.7632098197937012,0.0,-0.003228127723559737,0.9176251292228699,0.0,0.027027111500501633
310.0,312.0,0.1669,-3.6885,8.7936,-0.0342,0.0238,-0.1196,-1.6711651287474574,0.0,2.5444719791412354,-1.8279298543930054,-0.0,2.0526278018951416,4.969780075341024,-0.0,0.2862741947174072,-1.196526829396383,0.0,-0.041092973202466965,0.7631978988647461,0.0,0.008305183611810207,0.9176693558692932,0.0,0.01908869482576847
302.0,310.0,0.2118,-3.6903,8.6913,-0.0324,0.0179,-0.12,-1.6711255512633265,0.0,2.5285964012145996,-1.8279216289520264,-0.0,2.0435190200805664,4.969820248871603,-0.0,0.2746937572956085,-1.1965072790728968,0.0,-0.04028924182057381,0.7631620168685913,0.0,0.0019061571219936013,0.9176653623580933,0.0,-0.03506195917725563
302.0,310.0,0.2118,-3.6903,8.6913,-0.0324,0.0179,-0.12,-1.671157022515768,0.0,2.5147931575775146,-1.8278690576553345,-0.0,2.0521514415740967,4.969788241177358,-0.0,0.286357581615448,-1.1965110937701624,0.0,-0.06117253750562668,0.7632017731666565,0.0,0.0025019748136401176,0.9176251292228699,0.0,0.0431404635310173
302.0,310.0,0.2118,-3.6903,8.6913,-0.0324,0.0179,-0.12,-1.6711732349791468,0.0,2.4993209838867188,-1.8279454708099365,-0.0,2.077976942062378,4.969771849900045,-0.0,0.2765056788921356,-1.196502987538473,0.0,-0.04715737700462341,0.763225793838501,0.0,-0.010485372506082058,0.9176854491233826,0.0,-0.012207583524286747
302.0,310.0,0.2118,-3.6903,8.6913,-0.0324,0.0179,-0.12,-1.6711975536742152,0.0,2.504251718521118,-1.827885627746582,-0.0,2.0730395317077637,4.969771820097723,-0.0,0.27673423290252686,-1.196554962788717,0.0,-0.043352581560611725,0.7632059454917908,0.0,-0.0032337228767573833,0.9176173210144043,0.0,0.02363033965229988
302.0,310.0,0.2118,-3.6903,8.6913,-0.0324,0.0179,-0.12,-1.6711613140501917,0.0,2.494140625,-1.8279093503952026,-0.0,2.0621142387390137,4.969788211375036,-0.0,0.27433255314826965,-1.1965072790728968,0.0,-0.048159632831811905,0.7632217407226562,0.0,-0.0005810903385281563,0.917637050151825,0.0,-0.010585778392851353
302.0,310.0,0.2118,-3.6903,8.6913,-0.0324,0.0179,-0.12,-1.6711293659605921,0.0,2.533597469329834,-1.8279412984848022,-0.0,2.0913901329040527,4.969832557230749,-0.0,0.27323463559150696,-1.196526829396383,0.0,-0.049474067986011505,0.7631780505180359,0.0,-0.0013879186008125544,0.9176133275032043,0.0,0.008267619647085667
302.0,310.0,0.2118,-3.6903,8.6913,-0.0324,0.0179,-0.12,-1.6711613140501917,0.0,2.524440288543701,-1.827909231185913,-0.0,2.0854649543762207,4.969812410860815,-0.0,0.2843800187110901,-1.1965230146991175,0.0,-0.05832669138908386,0.7631658315658569,0.0,-0.00015783542767167091,0.9176775813102722,0.0,-0.04750388488173485
302.0,310.0,0.2118,-3.6903,8.6913,-0.0324,0.0179,-0.12,-1.671157022515768,0.0,2.5164425373077393,-1.8279051780700684,-0.0,2.062258243560791,4.969840335636892,-0.0,0.27514487504959106,-1.196543041859762,0.0,-0.03791097551584244,0.7632019519805908,0.0,0.0037497682496905327,0.9176411628723145,0.0,-0.030218325555324554
302.0,310.0,0.2118,-3.6903,8.6913,-0.0324,0.0179,-0.12,-1.6711412868895472,0.0,2.4791202545166016,-1.8279290199279785,-0.0,2.0832996368408203,4.969784158259191,-0.0,0.2763712704181671,-1.196526829396383,0.0,-0.038505569100379944,0.7631819248199463,0.0,0.0034615264739841223,0.9176571369171143,0.0,-0.011572236195206642
300.0,319.0,0.1753,-3.6646,8.7793,-0.0423,0.0229,-0.1223,-1.6712175808348597,0.0,2.51127552986145,-1.827865719795227,-0.0,2.0359065532684326,4.969808327942648,-0.0,0.2808891832828522,-1.1965230146991175,0.0,-0.05059774965047836,0.763189971446991,0.0,-0.002599915489554405,0.9176332950592041,0.0,0.03662144020199776
300.0,319.0,0.1753,-3.6646,8.7793,-0.0423,0.0229,-0.1223,-1.671157022515768,0.0,2.50931453704834,-1.8279134035110474,-0.0,2.1229701042175293,4.969848561077871,-0.0,0.2793486714363098,-1.196543041859762,0.0,-0.0498533621430397,0.7632419466972351,0.0,0.012249305844306946,0.9176090955734253,0.0,0.008567392826080322
300.0,319.0,0.1753,-3.6646,8.7793,-0.0423,0.0229,-0.1223,-1.6711732349791468,0.0,2.520735502243042,-1.8279216289520264,-0.0,2.0481386184692383,4.969832557230749,-0.0,0.27051255106925964,-1.1965110937701624,0.0,-0.049219273030757904,0.7632377743721008,0.0,0.007416659966111183,0.9176530838012695,0.0,-0.008034931495785713
300.0,319.0,0.1753,-3.6646,8.7793,-0.0423,0.0229,-0.1223,-1.6711212597289027,0.0,2.4789047241210938,-1.8279372453689575,-0.0,2.0626578330993652,4.969804692059316,-0.0,0.27446430921554565,-1.1964872519122522,0.0,-0.04116655886173248,0.7632017135620117,0.0,-0.009214730933308601,0.9176173210144043,0.0,0.038009047508239746
300.0,319.0,0.1753,-3.6646,8.7793,-0.0423,0.0229,-0.1223,-1.6711894474425257,0.0,2.501668691635132,-1.8278813362121582,-0.0,2.094869613647461,4.969816553383627,-0.0,0.28060275316238403,-1.196526829396383,0.0,-0.04757808893918991,0.7631738781929016,0.0,0.0006386273307725787,0.9176411628723145,0.0,-0.04647058993577957
300.0,319.0,0.1753,-3.6646,8.7793,-0.0423,0.0229,-0.1223,-1.6712094746031703,0.0,2.520565986633301,-1.8278814554214478,-0.0,2.0321013927459717,4.969820278673925,-0.0,0.27856335043907166,-1.196543041859762,0.0,-0.04701844975352287,0.7631978988647461,0.0,-0.0015093625988811255,0.9176091551780701,0.0,-0.03255103528499603
300.0,319.0,0.1753,-3.6646,8.7793,-0.0423,0.0229,-0.1223,-1.6711374721922816,0.0,2.5038769245147705,-1.8279134035110474,-0.0,2.063164710998535,4.969768243819036,-0.0,0.29277294874191284,-1.1965192000018519,0.0,-0.046329036355018616,0.763201892375946,0.0,-0.00011222320608794689,0.9176411628723145,0.0,0.018652264028787613
300.0,319.0,0.1753,-3.6646,8.7793,-0.0423,0.0229,-0.1223,-1.6711412868895472,0.0,2.525120735168457,-1.8278977870941162,-0.0,2.098698854446411,4.969792294293203,-0.0,0.27540433406829834,-1.196502987538473,0.0,-0.04899310693144798,0.7631500959396362,0.0,-0.005403127521276474,0.9175846576690674,0.0,-0.04854923486709595
313.0,327.0,0.1322,-3.6778,8.7416,-0.044,0.0255,-0.1243,-1.6711813412108363,0.0,2.4888572692871094,-1.827917456626892,-0.0,2.105502128601074,4.969788241177358,-0.0,0.2780456244945526,-1.196526829396383,0.0,-0.0624271035194397,0.7631980180740356,0.0,0.010415887460112572,0.9176489114761353,0.0,-0.03464085981249809
313.0,327.0,0.1322,-3.6778,8.7416,-0.044,0.0255,-0.1243,-1.6711412868895472,0.0,2.506096839904785,-1.8279050588607788,-0.0,2.0709331035614014,4.969860571413793,-0.0,0.28183475136756897,-1.196502987538473,0.0,-0.04905690252780914,0.7632257342338562,0.0,-0.0017071989132091403,0.9176853895187378,0.0,-0.026553422212600708
313.0,327.0,0.1322,-3.6778,8.7416,-0.044,0.0255,-0.1243,-1.671168943444723,0.0,2.502354621887207,-1.8279662132263184,-0.0,2.057161331176758,4.969816553383627,-0.0,0.28589069843292236,-1.1965110937701624,0.0,-0.04884694516658783,0.7631658911705017,0.0,0.010890000499784946,0.9176612496376038,0.0,-0.02119395323097706
313.0,327.0,0.1322,-3.6778,8.7416,-0.044,0.0255,-0.1243,-1.6711532078185023,0.0,2.5474815368652344,-1.827953815460205,-0.0,2.1151626110076904,4.969820576697149,-0.0,0.29022732377052307,-1.196502987538473,0.0,-0.05655069649219513,0.7631421685218811,0.0,0.012108066119253635,0.9176652431488037,0.0,-0.02094237506389618
313.0,327.0,0.1322,-3.6778,8.7416,-0.044,0.0255,-0.1243,-1.6711250744261683,0.0,2.5175652503967285,-1.827921748161316,-0.0,2.0894105434417725,4.969804245024481,-0.0,0.2817456126213074,-1.1965630690204065,0.0,-0.044384874403476715,0.7631500959396362,0.0,0.009838076308369637,0.9176091551780701,0.0,0.021016376093029976
313.0,327.0,0.1322,-3.6778,8.7416,-0.044,0.0255,-0.1243,-1.6711093387999476,0.0,2.495931386947632,-1.8279175758361816,-0.0,2.043196678161621,4.96975593545989,-0.0,0.29399025440216064,-1.1965273062335413,0.0,-0.04127340018749237,0.7632138133049011,0.0,2.6252586394548416e-05,0.9176895022392273,0.0,0.022656358778476715
313.0,327.0,0.1322,-3.6778,8.7416,-0.044,0.0255,-0.1243,-1.671117445031637,0.0,2.480785369873047,-1.8279011249542236,-0.0,2.1020517349243164,4.969820248871603,-0.0,0.28810369968414307,-1.1965072790728968,0.0,-0.06128867715597153,0.7631859183311462,0.0,0.003954927437007427,0.9176530838012695,0.0,-0.04590681195259094
313.0,327.0,0.1322,-3.6778,8.7416,-0.044,0.0255,-0.1243,-1.6711374721922816,0.0,2.5303738117218018,-1.8278732299804688,-0.0,2.1088011264801025,4.969796407013693,-0.0,0.27187663316726685,-1.1965110937701624,0.0,-0.04400207847356796,0.7631500959396362,0.0,-0.002087308093905449,0.917657196521759,0.0,-0.0004144466947764158
313.0,327.0,0.1322,-3.6778,8.7416,-0.044,0.0255,-0.1243,-1.6711331806578578,0.0,2.5119147300720215,-1.8279414176940918,-0.0,2.047362804412842,4.969780105143347,-0.0,0.2810157537460327,-1.196502987538473,0.0,-0.0487506166100502,0.7631978988647461,0.0,-0.00024325057165697217,0.9176251292228699,0.0,-0.04244548827409744
306.0,300.0,0.1466,-3.6927,8.8217,-0.0379,0.0215,-0.1095,-1.6711250744261683,0.0,2.515110969543457,-1.8278896808624268,-0.0,2.0465097427368164,4.96982433178977,-0.0,0.2801176905632019,-1.1965192000018519,0.0,-0.04376950487494469,0.7632098197937012,0.0,0.007334411144256592,0.9176371097564697,0.0,0.014294195920228958
306.0,300.0,0.1466,-3.6927,8.8217,-0.0379,0.0215,-0.1095,-1.6711412868895472,0.0,2.5313639640808105,-1.8279258012771606,-0.0,2.0708673000335693,4.969828414707937,-0.0,0.2749587297439575,-1.1965230146991175,0.0,-0.04895547777414322,0.7632258534431458,0.0,0.0002881060354411602,0.9176371097564697,0.0,-0.000843636691570282
306.0,300.0,0.1466,-3.6927,8.8217,-0.0379,0.0215,-0.1095,-1.6711532078185023,0.0,2.504122734069824,-1.8279175758361816,-0.0,2.056972026824951,4.969768273621359,-0.0,0.2780821919441223,-1.1964910666095179,0.0,-0.055133186280727386,0.7632098197937012,0.0,-0.005567752290517092,0.9175969362258911,0.0,0.008400795049965382
306.0,300.0,0.1466,-3.6927,8.8217,-0.0379,0.0215,-0.1095,-1.6711374721922816,0.0,2.517400026321411,-1.8278813362121582,-0.0,2.0243775844573975,4.969796407013693,-0.0,0.2782723605632782,-1.196526829396383,0.0,-0.04459453001618385,0.763166069984436,0.0,0.005827280692756176,0.9175887703895569,0.0,-0.03527485951781273
306.0,300.0,0.1466,-3.6927,8.8217,-0.0379,0.0215,-0.1095,-1.6711331806578578,0.0,2.5108256340026855,-1.8279019594192505,-0.0,2.0847580432891846,4.969800579338827,-0.0,0.28596872091293335,-1.1965230146991175,0.0,-0.045105285942554474,0.763166069984436,0.0,-0.0068816207349300385,0.9176210761070251,0.0,0.016696009784936905
306.0,300.0,0.1466,-3.6927,8.8217,-0.0379,0.0215,-0.1095,-1.6711374721922816,0.0,2.5312461853027344,-1.827945351600647,-0.0,2.0743601322174072,4.9698005495365045,-0.0,0.27117419242858887,-1.1964910666095179,0.0,-0.04303475841879845,0.7632138133049011,0.0,0.011224018409848213,0.9176411628723145,0.0,-0.02052818238735199
306.0,300.0,0.1466,-3.6927,8.8217,-0.0379,0.0215,-0.1095,-1.6711374721922816,0.0,2.483748435974121,-1.8278648853302002,-0.0,2.035085678100586,4.9698243019874475,-0.0,0.28066787123680115,-1.1965153853045862,0.0,-0.041410647332668304,0.7631779313087463,0.0,0.00474464800208807,0.9176251888275146,0.0,0.009163862094283104
306.0,300.0,0.1466,-3.6927,8.8217,-0.0379,0.0215,-0.1095,-1.671117445031637,0.0,2.4991960525512695,-1.8278969526290894,-0.0,2.0742015838623047,4.969780105143347,-0.0,0.2854189872741699,-1.1965349356280726,0.0,-0.0453307069838047,0.7631580829620361,0.0,0.0008143035229295492,0.9176132678985596,0.0,-0.025867551565170288
306.0,300.0,0.1466,-3.6927,8.8217,-0.0379,0.0215,-0.1095,-1.6711532078185023,0.0,2.4878880977630615,-1.8278690576553345,-0.0,2.0870773792266846,4.969832557230749,-0.0,0.27939343452453613,-1.1965110937701624,0.0,-0.047346390783786774,0.7632098197937012,0.0,0.002738448791205883,0.9176571369171143,0.0,0.0007174089550971985
308.0,299.0,0.1472,-3.7466,8.8062,-0.0374,0.0218,-0.1115,-1.671173711816305,0.0,2.4737298488616943,-1.8279331922531128,-0.0,2.0317161083221436,4.969836550741949,-0.0,0.28917816281318665,-1.196502987538473,0.0,-0.04719032719731331,0.7631939649581909,0.0,0.006429535336792469,0.9176448583602905,0.0,-0.005093840882182121
308.0,299.0,0.1472,-3.7466,8.8062,-0.0374,0.0218,-0.1115,-1.6711813412108363,0.0,2.5502877235412598,-1.8278731107711792,-0.0,2.0895607471466064,4.969812410860815,-0.0,0.28706085681915283,-1.196526829396383,0.0,-0.045611150562763214,0.7631939649581909,0.0,-0.0025426435749977827,0.9176091551780701,0.0,0.022426512092351913
308.0,299.0,0.1472,-3.7466,8.8062,-0.0374,0.0218,-0.1115,-1.6711651287474574,0.0,2.478029727935791,-1.8279497623443604,-0.0,2.0889334678649902,4.969812410860815,-0.0,0.2816007733345032,-1.1965072790728968,0.0,-0.056915197521448135,0.763166069984436,0.0,7.219868712127209e-05,0.9176374673843384,0.0,0.0010225138394162059
308.0,299.0,0.1472,-3.7466,8.8062,-0.0374,0.0218,-0.1115,-1.6711374721922816,0.0,2.5425143241882324,-1.8278650045394897,-0.0,2.0470457077026367,4.969804215222158,-0.0,0.28340762853622437,-1.196554962788717,0.0,-0.03837157040834427,0.763257622718811,0.0,0.002729546744376421,0.917669415473938,0.0,0.008720029145479202
308.0,299.0,0.1472,-3.7466,8.8062,-0.0374,0.0218,-0.1115,-1.6711093387999476,0.0,2.4670422077178955,-1.8278969526290894,-0.0,2.0510599613189697,4.96980835774497,-0.0,0.28184157609939575,-1.1965706984149378,0.0,-0.03925049677491188,0.763189971446991,0.0,0.013312971219420433,0.9176572561264038,0.0,-0.024000491946935654
308.0,299.0,0.1472,-3.7466,8.8062,-0.0374,0.0218,-0.1115,-1.6711131534972132,0.0,2.4949967861175537,-1.8279290199279785,-0.0,2.0513813495635986,4.969828384905615,-2.806372947361524e-07,0.2851014733314514,-1.1964791456805628,0.0,-0.040792591869831085,0.7632138133049011,0.0,-0.001733535435050726,0.9176292419433594,0.0,-0.06202031672000885
308.0,299.0,0.1472,-3.7466,8.8062,-0.0374,0.0218,-0.1115,-1.6711412868895472,0.0,2.501640796661377,-1.8279249668121338,-0.0,2.078756093978882,4.9697842476661584,-3.330225635186923e-13,0.2832072973251343,-1.196526829396383,0.0,-0.055640947073698044,0.7632178068161011,0.0,-0.002829279750585556,0.9176132082939148,0.0,-0.025823494419455528
308.0,299.0,0.1472,-3.7466,8.8062,-0.0374,0.0218,-0.1115,-1.6711293659605921,0.0,2.503863573074341,-1.8278977870941162,-0.0,2.069350242614746,4.969788241177358,-3.9518636482782152e-19,0.2865997850894928,-1.196502987538473,0.0,-0.050747308880090714,0.7632375955581665,0.0,-0.003616912057623267,0.9176853895187378,0.0,-0.014201648533344269
305.0,302.0,-0.0179,-4.4225,8.6853,-0.0594,0.0539,-0.1202,-1.6711331806578578,0.0,2.499338150024414,-1.8279215097427368,-0.0,2.06371808052063,4.969844448357382,-4.689539944153152e-25,0.28081953525543213,-1.1965192000018519,0.0,-0.044204626232385635,0.7631978988647461,0.0,0.007026348728686571,0.9176009297370911,-1.175847064160962e-08,0.0016146888956427574
305.0,302.0,-0.0179,-4.4225,8.6853,-0.0594,0.0539,-0.1202,-1.6711493931212367,0.0,2.496854782104492,-1.8278928995132446,-0.0,2.0951199531555176,4.969800579338827,-3.633491829705268e-32,0.2938788831233978,-1.1965749899493616,0.0,-0.04968353360891342,0.7632217407226562,0.0,0.0055066850036382675,0.917701780796051,-6.857135992547947e-20,0.015144428238272667
305.0,302.0,-0.0179,-4.4225,8.6853,-0.0594,0.0539,-0.1202,-1.6711331806578578,0.0,2.5096118450164795,-1.8279331922531128,-0.0,2.062014102935791,4.969804245024481,-4.3117384820098105e-38,0.28553345799446106,-1.1965349356280726,0.0,-0.05480419844388962,0.7631620764732361,0.0,-0.003500379854813218,0.917637050151825,-2.980592955131437e-29,0.026160892099142075
305.0,302.0,-0.0179,-4.4225,8.6853,-0.0594,0.0539,-0.1202,-1.6711532078185023,0.0,2.5107743740081787,-1.8279536962509155,-0.0,2.0349950790405273,4.969800579338827,-5.184804318001823e-44,0.28505435585975647,-1.196502987538473,0.0,-0.04125726968050003,0.7632177472114563,0.0,0.0025041482876986265,0.9176895022392273,-1.2955752596062883e-38,0.024923060089349747
305.0,302.0,-0.0179,-4.4225,8.6853,-0.0594,0.0539,-0.1202,-1.6711250744261683,0.0,2.5047314167022705,-1.8278937339782715,-0.0,2.084258794784546,4.969804602652349,-0.0,0.27131524682044983,-1.1965306440936487,0.0,-0.05093758925795555,0.763221800327301,0.0,0.008728276938199997,0.9176489114761353,0.0,-0.019634965807199478
305.0,302.0,-0.0179,-4.4225,8.6853,-0.0594,0.0539,-0.1202,-1.67118563274526,0.0,2.5173487663269043,-1.8278814554214478,-0.0,2.039879560470581,4.96979637721137,-0.0,0.2884599566459656,-1.1965387503253382,0.0,-0.05272760987281799,0.7632098197937012,0.0,-0.005175585858523846,0.917637050151825,0.0,0.005819911137223244
305.0,302.0,-0.0179,-4.4225,8.6853,-0.0594,0.0539,-0.1202,-1.6711818180479945,0.0,2.474578857421875,-1.8279495239257812,-0.0,2.085648536682129,4.969804602652349,-0.0,0.2878704369068146,-1.1965192000018519,0.0,-0.05994376167654991,0.7632297277450562,0.0,0.01316516287624836,0.9176292419433594,0.0,0.022771846503019333
305.0,302.0,-0.0179,-4.4225,8.6853,-0.0594,0.0539,-0.1202,-1.6711250744261683,0.0,2.47744083404541,-1.8279019594192505,-0.0,2.0736560821533203,4.969776379853048,-0.0,0.268000066280365,-1.196554962788717,0.0,-0.04065065085887909,0.7632495164871216,0.0,-0.00791067536920309,0.9176530838012695,0.0,0.008593362756073475
305.0,302.0,-0.0179,-4.4225,8.6853,-0.0594,0.0539,-0.1202,-1.6711374721922816,0.0,2.462254524230957,-1.8278937339782715,-0.0,2.0787737369537354,4.969780075341024,-0.0,0.27681291103363037,-1.1965506712542933,0.0,-0.047972582280635834,0.7632415890693665,0.0,-0.0006265894044190645,0.9176091551780701,0.0,-0.0018292668974027038
310.0,319.0,0.2285,-3.5581,8.674,-0.0235,0.0096,-0.1112,-1.6711451015868128,0.0,2.467132568359375,-1.8279051780700684,-0.0,2.073517322540283,4.96981235125617,-0.0,0.2883816957473755,-1.196531120930807,0.0,-0.048389796167612076,0.7632217407226562,0.0,0.005745125003159046,0.9176972508430481,0.0,-0.03330943360924721
310.0,319.0,0.2285,-3.5581,8.674,-0.0235,0.0096,-0.1112,-1.6711732349791468,0.0,2.5221714973449707,-1.8279132843017578,-0.0,2.0701260566711426,4.969744103937902,-0.0,0.28189942240715027,-1.196502987538473,0.0,-0.045952193439006805,0.7631740570068359,0.0,0.011637505143880844,0.9176771640777588,0.0,-0.00921418983489275
310.0,319.0,0.2285,-3.5581,8.674,-0.0235,0.0096,-0.1112,-1.6711532078185023,0.0,2.5410478115081787,-1.8279093503952026,-0.0,2.0441243648529053,4.969796407013693,-0.0,0.28484979271888733,-1.1965230146991175,0.0,-0.048256345093250275,0.7631383538246155,0.0,0.013759264722466469,0.9176775217056274,0.0,-0.02203383855521679
310.0,319.0,0.2285,-3.5581,8.674,-0.0235,0.0096,-0.1112,-1.6711489162840785,0.0,2.493497371673584,-1.8279134035110474,-1.1499742808398009e-14,2.059307336807251,4.969792353897848,-0.0,0.28354936838150024,-1.1964791456805628,0.0,-0.04412832856178284,0.7631661295890808,0.0,0.0028797646518796682,0.9176214933395386,0.0,0.018561262637376785
310.0,319.0,0.2285,-3.5581,8.674,-0.0235,0.0096,-0.1112,-1.6711412868895472,0.0,2.482603073120117,-1.8279175758361816,-6.706255083001133e-26,2.0569677352905273,4.969844358950414,-0.0,0.2846575379371643,-1.196526829396383,0.0,-0.04668542742729187,0.7632735371589661,0.0,0.003565235296264291,0.9176173806190491,0.0,0.011833736672997475
310.0,319.0,0.2285,-3.5581,8.674,-0.0235,0.0096,-0.1112,-1.6711374721922816,0.0,2.537459135055542,-1.8278896808624268,-2.915009602651451e-35,2.0777475833892822,4.969752359181204,-0.0,0.28501391410827637,-1.196526829396383,0.0,-0.05048257112503052,0.763170063495636,0.0,0.00399460643529892,0.9176612496376038,0.0,0.050874046981334686
310.0,319.0,0.2285,-3.5581,8.674,-0.0235,0.0096,-0.1112,-1.6711651287474574,0.0,2.526383638381958,-1.827937364578247,-1.2611686178923354e-44,2.0142836570739746,4.969796436816015,-0.0,0.2800969183444977,-1.1964953581439417,0.0,-0.04871272295713425,0.7631582021713257,0.0,0.0035825655795633793,0.9176775813102722,0.0,0.04896358400583267
310.0,319.0,0.2285,-3.5581,8.674,-0.0235,0.0096,-0.1112,-1.6711532078185023,0.0,2.5036582946777344,-1.8279134035110474,-0.0,2.0918006896972656,4.969788300782003,-0.0,0.2829732894897461,-1.1965192000018519,0.0,-0.03793429583311081,0.7632256746292114,0.0,0.008293247781693935,0.9176009297370911,0.0,0.03638756275177002
310.0,303.0,0.1137,-3.8608,8.6291,-0.0423,0.0267,-0.1,-1.671117445031637,0.0,2.504119873046875,-1.8279093503952026,-0.0,2.077425479888916,4.969816553383627,-0.0,0.28486254811286926,-1.1965110937701624,0.0,-0.04826931655406952,0.7632336616516113,0.0,0.0020989468321204185,0.9176371097564697,0.0,0.001281035365536809
310.0,303.0,0.1137,-3.8608,8.6291,-0.0423,0.0267,-0.1,-1.6711532078185023,0.0,2.498483657836914,-1.8279175758361816,-0.0,2.0723166465759277,4.96980835774497,-0.0,0.2867976427078247,-1.196526829396383,0.0,-0.03967421501874924,0.7632058262825012,0.0,0.0033715381287038326,0.917669415473938,0.0,-0.019667595624923706
310.0,303.0,0.1137,-3.8608,8.6291,-0.0423,0.0267,-0.1,-1.6711532078185023,0.0,2.5005295276641846,-1.8279249668121338,-0.0,2.0457098484039307,4.969784188061514,-0.0,0.28178223967552185,-1.1965506712542933,0.0,-0.056844376027584076,0.7631343603134155,0.0,0.0063569615595042706,0.9176489114761353,0.0,-0.01536060031503439
310.0,303.0,0.1137,-3.8608,8.6291,-0.0423,0.0267,-0.1,-1.6711532078185023,0.0,2.452803134918213,-1.8278937339782715,-1.9340006474521942e-05,2.092125415802002,4.969808327942648,-2.5440316086394743e-12,0.2846423387527466,-1.196543041859762,0.0,-0.04258709400892258,0.7631542086601257,0.0,0.0005731750279664993,0.9176611304283142,0.0,0.03157581761479378
310.0,303.0,0.1137,-3.8608,8.6291,-0.0423,0.0267,-0.1,-1.6711212597289027,0.0,2.5178914070129395,-1.8279330730438232,-1.7199032299686223e-05,2.0400986671447754,4.969796407013693,-1.9711352105620658e-19,0.2791065573692322,-1.1965230146991175,0.0,-0.04346500337123871,0.7631621956825256,0.0,0.0011643050238490105,0.9176775813102722,0.0,-0.006887601222842932
310.0,303.0,0.1137,-3.8608,8.6291,-0.0423,0.0267,-0.1,-1.671157022515768,0.0,2.5194151401519775,-1.8279249668121338,-1.569901723996736e-05,2.104022264480591,4.969796407013693,-2.3390776010883076e-25,0.27988213300704956,-1.196502987538473,0.0,-0.048854634165763855,0.7631939053535461,0.0,-0.002544533461332321,0.9176411628723145,0.0,0.029843265190720558
310.0,303.0,0.1137,-3.8608,8.6291,-0.0423,0.0267,-0.1,-1.6711412868895472,0.0,2.524151563644409,-1.8279207944869995,-1.4439657206821721e-05,2.043234348297119,4.96977190950469,-2.7757023337605128e-31,0.28443458676338196,-1.1965072790728968,0.0,-0.05944463610649109,0.7631661295890808,0.0,0.006990537978708744,0.9176854491233826,0.0,0.01728188991546631
310.0,303.0,0.1137,-3.8608,8.6291,-0.0423,0.0267,-0.1,-1.6711613140501917,0.0,2.506685495376587,-1.8279372453689575,-1.3367341125558596e-05,2.030853271484375,4.9698243019874475,-3.293829840486222e-37,0.27232223749160767,-1.1965349356280726,0.0,-0.04672016203403473,0.7631384134292603,0.0,-0.0021005873568356037,0.9176371097564697,0.0,-0.05045619234442711
310.0,303.0,0.1137,-3.8608,8.6291,-0.0423,0.0267,-0.1,-1.6711813412108363,0.0,2.510718822479248,-1.8279414176940918,-1.2273590982658789e-05,2.05635404586792,4.969804632454672,-2.5223372357846707e-44,0.2804267704486847,-1.1965192000018519,0.0,-0.04697643965482712,0.7632296681404114,0.0,-0.008623975329101086,0.9176371097564697,0.0,-0.025554873049259186
299.0,299.0,0.2441,-3.6843,8.8271,-0.036,0.0217,-0.1106,-1.6711012325682582,0.0,2.489457607269287,-1.8279743194580078,-1.1490140423120465e-05,2.0866856575012207,4.969776081829824,-0.0,0.28233933448791504,-1.196543041859762,0.0,-0.06143416464328766,0.7631582617759705,0.0,0.007224742788821459,0.9176976084709167,0.0,0.03243844211101532
299.0,299.0,0.2441,-3.6843,8.8271,-0.036,0.0217,-0.1106,-1.6711131534972132,0.0,2.4975428581237793,-1.8278772830963135,-1.0800696145452093e-05,2.0479135513305664,4.96982021906928,-0.0,0.28667688369750977,-1.1965072790728968,0.0,-0.04760805517435074,0.7631582617759705,0.0,-0.00018920819275081158,0.917653501033783,0.0,0.005977621767669916
299.0,299.0,0.2441,-3.6843,8.8271,-0.036,0.0217,-0.1106,-1.6711613140501917,0.0,2.496394395828247,-1.8278855085372925,-1.0189320164499804e-05,2.0581657886505127,4.9698243019874475,-0.0,0.28281259536743164,-1.1964953581439417,0.0,-0.06059211865067482,0.7631780505180359,0.0,0.004890322219580412,0.9176411628723145,0.0,-0.0008532826323062181
299.0,299.0,0.2441,-3.6843,8.8271,-0.036,0.0217,-0.1106,-1.6711093387999476,0.0,2.4981441497802734,-1.8279051780700684,-9.458552647709229e-13,2.099966526031494,4.969804245024481,-0.0,0.2869233787059784,-1.1965072790728968,0.0,-0.04681546241044998,0.7632296085357666,0.0,0.00069029675796628,0.9175768494606018,0.0,0.021935397759079933
299.0,299.0,0.2441,-3.6843,8.8271,-0.036,0.0217,-0.1106,-1.6711493931212367,0.0,2.5326030254364014,-1.8279742002487183,-4.1113529540881915e-22,2.046020269393921,4.9698325274284265,-0.0,0.27751192450523376,-1.1965468565570276,0.0,-0.05160963162779808,0.7631463408470154,0.0,0.0019284137524664402,0.9176415801048279,0.0,-0.02098018117249012
299.0,299.0,0.2441,-3.6843,8.8271,-0.036,0.0217,-0.1106,-1.6711212597289027,0.0,2.4850077629089355,-1.8279216289520264,-1.7870825500085037e-31,2.095935344696045,4.9697842476661584,-0.0,0.28563642501831055,-1.196543041859762,0.0,-0.05193178355693817,0.7631701231002808,0.0,0.0031737606041133404,0.9176050424575806,-3.087680935584536e-13,-0.011694527231156826
299.0,299.0,0.2441,-3.6843,8.8271,-0.036,0.0217,-0.1106,-1.671157022515768,0.0,2.490112066268921,-1.8279290199279785,-7.767957907138191e-41,2.0736284255981445,4.969748157053747,-0.0,0.2814749479293823,-1.1965110937701624,0.0,-0.05301041156053543,0.7632137537002563,0.0,0.008886427618563175,0.9176534414291382,-1.3421232630613578e-22,0.0070447372272610664
299.0,299.0,0.2441,-3.6843,8.8271,-0.036,0.0217,-0.1106,-1.6711293659605921,0.0,2.48456072807312,-1.8279093503952026,-0.0,2.0408124923706055,4.969772326737203,-0.0,0.28917333483695984,-1.1965192000018519,0.0,-0.03761967271566391,0.7632098197937012,0.0,-1.873774453997612e-05,0.9176132678985596,-7.826802301274691e-34,-0.0009163152426481247
298.0,305.0,0.1268,-3.5874,8.7057,-0.0405,0.0228,-0.121,-1.6711894474425257,-4.038466272504593e-08,2.5199294090270996,-1.8279412984848022,-0.0,2.0581483840942383,4.969764101296224,-0.0,0.2797034680843353,-1.196526829396383,0.0,-0.04430600255727768,0.7631860971450806,0.0,-0.0009394087828695774,0.9176411628723145,-3.4051552683093055e-43,-0.003856346942484379
298.0,305.0,0.1268,-3.5874,8.7057,-0.0405,0.0228,-0.121,-1.6711331806578578,-1.7554011714932852e-17,2.4952101707458496,-1.8279134035110474,-0.0,2.104674816131592,4.969788270979681,-0.0,0.26196402311325073,-1.1965349356280726,0.0,-0.055936433374881744,0.7631899118423462,0.0,-0.005627025384455919,0.9176009893417358,0.0,0.005561079829931259
298.0,305.0,0.1268,-3.5874,8.7057,-0.0405,0.0228,-0.121,-1.67118563274526,-7.630206261199705e-27,2.5515801906585693,-1.8278969526290894,-0.0,2.0436244010925293,4.969780075341024,-0.0,0.27725881338119507,-1.196486775075094,0.0,-0.06546755880117416,0.7631939649581909,0.0,0.011759658344089985,0.9176328778266907,0.0,-0.03131613880395889
298.0,305.0,0.1268,-3.5874,8.7057,-0.0405,0.0228,-0.121,-1.6711770496764125,-4.4496741753068524e-38,2.5111818313598633,-1.8278814554214478,-0.0,2.029111623764038,4.9697923240955255,-0.0,0.2883552312850952,-1.1965192000018519,0.0,-0.046734124422073364,0.7632296085357666,0.0,0.005309260915964842,0.9176694750785828,0.0,0.04902198165655136
298.0,305.0,0.1268,-3.5874,8.7057,-0.0405,0.0228,-0.121,-1.6711894474425257,-0.0,2.5071821212768555,-1.8279372453689575,-0.0,2.0823707580566406,4.969792353897848,-0.0,0.2966547906398773,-1.1965387503253382,0.0,-0.04335911571979523,0.7632296085357666,0.0,0.0012088706716895103,0.9176452159881592,-2.316937934665475e-05,-0.025843098759651184
298.0,305.0,0.1268,-3.5874,8.7057,-0.0405,0.0228,-0.121,-1.6711293659605921,0.0,2.455381155014038,-1.82793390750885,-0.0,2.0417253971099854,4.969804274826803,-0.0,0.2810051143169403,-1.1965745131122034,0.0,-0.04513922333717346,0.7632098197937012,0.0,-0.009226040914654732,0.9176895022392273,-1.2775646096585547e-09,-0.00915492046624422
298.0,305.0,0.1268,-3.5874,8.7057,-0.0405,0.0228,-0.121,-1.6711732349791468,0.0,2.477510929107666,-1.8279216289520264,-0.0,2.069979190826416,4.969812381058492,-0.0,0.2765677571296692,-1.1965587774859827,0.0,-0.05074094235897064,0.7631463408470154,0.0,-0.009568748995661736,0.917661190032959,-5.553192773349847e-19,-0.0035675358958542347
298.0,305.0,0.1268,-3.5874,8.7057,-0.0405,0.0228,-0.121,-1.67118563274526,0.0,2.4949069023132324,-1.8279412984848022,-0.0,2.10312819480896,4.969820606499471,-0.0,0.2783832848072052,-1.1965187231646937,0.0,-0.05909440666437149,0.7631543874740601,0.0,0.0006012304220348597,0.9176652431488037,-3.238431265102947e-30,0.03720627725124359
298.0,305.0,0.1268,-3.5874,8.7057,-0.0405,0.0228,-0.121,-1.6712051830687464,0.0,2.536158561706543,-1.8279290199279785,-0.0,2.0993285179138184,4.969788300782003,-0.0,0.2934025228023529,-1.1965187231646937,0.0,-0.06635269522666931,0.7631617784500122,0.0,0.009324516169726849,0.9176251888275146,-1.4076505502636015e-39,0.08573444932699203
301.0,303.0,0.1908,-3.5492,8.6172,-0.0197,0.0134,-0.122,-1.6711894474425257,-0.0002784875105135143,2.518141269683838,-1.8279175758361816,-0.0,2.120922803878784,4.969776379853048,-0.0,0.27545279264450073,-1.196606461201803,0.0,-0.06989790499210358,0.7632216811180115,0.0,0.004834567196667194,0.9176445603370667,0.0,0.08259832859039307
301.0,303.0,0.1908,-3.5492,8.6172,-0.0197,0.0134,-0.122,-1.6711813412108363,-0.000349403009749949,2.5191638469696045,-1.8278813362121582,-0.0,2.1023762226104736,4.969812381058492,-0.0,0.28993532061576843,-1.1965869108783167,0.0,-0.05767503380775452,0.7631900906562805,0.0,-0.003996884450316429,0.9176530838012695,0.0,0.1362687051296234
301.0,303.0,0.1908,-3.5492,8.6172,-0.0197,0.0134,-0.122,-1.6711894474425257,-0.0005059564718976617,2.4967410564422607,-1.8279454708099365,-0.0,2.172935962677002,4.969744401961126,-0.0,0.2761859893798828,-1.1965506712542933,0.0,-0.07688573002815247,0.7632176280021667,0.0,-0.0037954808212816715,0.9177014231681824,0.0,0.15130463242530823
301.0,303.0,0.1908,-3.5492,8.6172,-0.0197,0.0134,-0.122,-1.6712452373900355,-0.0005236653960309923,2.5615766048431396,-1.827849268913269,-0.0,2.113297700881958,4.96974407413558,-0.0,0.28861528635025024,-1.196543041859762,0.0,-0.08652108162641525,0.7632421255111694,0.0,0.00010743783786892891,0.9175968170166016,0.00014485808787867427,0.16855689883232117
301.0,303.0,0.1908,-3.5492,8.6172,-0.0197,0.0134,-0.122,-1.6712171039977015,-0.00167734210845083,2.532355546951294,-1.8279134035110474,-0.0,2.134615898132324,4.9697764096553705,-0.0,0.2913304567337036,-1.1966150442706507,-0.0001725676702335477,-0.08002939075231552,0.7632057666778564,0.0,-0.006152821704745293,0.9176771640777588,0.00022247603919822723,0.17828068137168884
301.0,303.0,0.1908,-3.5492,8.6172,-0.0197,0.0134,-0.122,-1.6712733707823695,-0.0029169197659939528,2.542736530303955,-1.8279290199279785,-0.0,2.1512627601623535,4.969756352692404,-0.0,0.29579174518585205,-1.1965792814837855,-0.00035063139512203634,-0.0973837599158287,0.763161838054657,0.0,0.0038583094719797373,0.917677104473114,0.0006088889786042273,0.2531778812408447
301.0,303.0,0.1908,-3.5492,8.6172,-0.0197,0.0134,-0.122,-1.6713491878905238,-0.004885053727775812,2.5348548889160156,-1.8278896808624268,-0.0,2.1677911281585693,4.969760405808248,-0.0,0.2950867712497711,-1.1966107527362269,-0.000488364021293819,-0.1126486137509346,0.7631740570068359,0.0,0.0038632734213024378,0.9176890850067139,0.0009943369077518582,0.3073534369468689
301.0,303.0,0.1908,-3.5492,8.6172,-0.0197,0.0134,-0.122,-1.6713811359801234,-0.003639112925156951,2.5607216358184814,-1.8279216289520264,-0.0,2.1903228759765625,4.969728427916326,-0.0,0.3022371530532837,-1.1966307798968714,-0.0005526311579160392,-0.11338678747415543,0.7631978988647461,0.0,0.010577459819614887,0.9177214503288269,0.001275836955755949,0.369326651096344
312.0,325.0,0.1717,-3.5749,8.747,-0.0313,0.0173,-0.118,-1.671401163140768,-0.0015433230437338352,2.5430593490600586,-1.8279051780700684,-0.0,2.2332983016967773,4.96975256779746,-0.0,0.30292630195617676,-1.1966145674334925,-0.0005492687923833728,-0.11063164472579956,0.7631978988647461,0.0,0.0017194871325045824,0.9177454710006714,0.00209637894295156,0.3343432545661926
312.0,325.0,0.1717,-3.5749,8.747,-0.0313,0.0173,-0.118,-1.6714331112303675,-0.0007725554169155657,2.53225040435791,-1.827925682067871,-0.0,2.2333474159240723,4.969740646868505,-0.0,0.30363956093788147,-1.1966269651996058,-0.0004994587507098913,-0.13357427716255188,0.7632179260253906,0.0,0.001900683157145977,0.9177535176277161,0.004351011011749506,0.4313647449016571
312.0,325.0,0.1717,-3.5749,8.747,-0.0313,0.0173,-0.118,-1.6714335880675257,-0.0004528702702373266,2.6026806831359863,-1.827885627746582,0.00013857829617336392,2.2451794147491455,4.969740617066183,-0.0,0.3250046968460083,-1.196634594594137,-0.00042451100307516754,-0.1326236128807068,0.7631461024284363,0.0,-0.0014019134687259793,0.9177933931350708,0.005440838634967804,0.45435360074043274
312.0,325.0,0.1717,-3.5749,8.747,-0.0313,0.0173,-0.118,-1.6714569530882777,-0.0002658776647876948,2.6358156204223633,-1.827865719795227,0.00016473564028274268,2.2445287704467773,4.969724613219061,-0.0,0.32107728719711304,-1.1966546217547815,-0.0004858257307205349,-0.15896153450012207,0.7632142901420593,0.0,-0.004542003385722637,0.9178131222724915,0.0028518992476165295,0.5705690979957581
312.0,325.0,0.1717,-3.5749,8.747,-0.0313,0.0173,-0.118,-1.671413084069723,-0.0002052386844297871,2.7025697231292725,-1.8279290199279785,0.0002842281246557832,2.3193891048431396,4.969764756947317,-3.3245461963815615e-05,0.3358863592147827,-1.1966665426837366,-0.0007075551548041403,-0.1612582504749298,0.7631864547729492,0.0,-0.0032848501577973366,0.9178166389465332,0.0017706300131976604,0.5681571364402771
312.0,325.0,0.1717,-3.5749,8.747,-0.0313,0.0173,-0.118,-1.6714731655516566,-0.00016712489014025778,2.615243911743164,-1.8278772830963135,0.00021600366744678468,2.2435479164123535,4.969748514681616,-3.302487311884761e-05,0.3338099420070648,-1.1966264883624476,-0.0006474630790762603,-0.16107654571533203,0.7632060647010803,0.0,-0.005181592423468828,0.9178454279899597,0.001242749742232263,0.5974473357200623
312.0,325.0,0.1717,-3.5749,8.747,-0.0313,0.0173,-0.118,-1.6714168987669886,-0.000136669710627757,2.6544885635375977,-1.8279372453689575,0.0001677016553003341,2.2887964248657227,4.969764458924093,-2.9749900932074524e-05,0.3475366532802582,-1.1966703573810022,-0.0006243868265300989,-0.1712193787097931,0.7631897330284119,0.0,0.00027901818975806236,0.9178576469421387,0.0008503905264660716,0.6336422562599182
312.0,325.0,0.1717,-3.5749,8.747,-0.0313,0.0173,-0.118,-1.671425004998678,-0.00011865162377944216,2.677609920501709,-1.8279783725738525,0.00014136065146885812,2.293637752532959,4.969772594958105,-2.7479052732815035e-05,0.3360312581062317,-1.1966307798968714,-0.0005305182421579957,-0.1767057180404663,0.7631819248199463,0.0,-0.0020202230662107468,0.917853593826294,0.0006241226801648736,0.656862199306488
312.0,325.0,0.1717,-3.5749,8.747,-0.0313,0.0173,-0.118,-1.671401163140768,-0.00010483105143066496,2.6313576698303223,-1.8279298543930054,9.773700003279373e-05,2.3047549724578857,4.969720589905538,-2.553031845309306e-05,0.3398563265800476,-1.1966307798968714,-0.00041430111741647124,-0.1664334535598755,0.7631458044052124,0.0,-0.006753753870725632,0.9177924990653992,0.0005293891299515963,0.609066903591156
299.0,311.0,0.2231,-3.3386,8.7428,-0.0286,0.0315,-0.1226,-1.671429296533102,-9.389434853801504e-05,2.7217235565185547,-1.8278977870941162,4.880400956608355e-05,2.30281138420105,4.969728398114004,-2.3839660570956767e-05,0.34570762515068054,-1.1966822783099573,-0.00035658449633046985,-0.16478756070137024,0.7631416916847229,0.0,0.01469083409756422,0.9178372621536255,0.0004803010087925941,0.6276441216468811
299.0,311.0,0.2231,-3.3386,8.7428,-0.0286,0.0315,-0.1226,-1.6714207134642542,-8.344747038790956e-05,2.731551170349121,-1.827917456626892,2.455664252920542e-05,2.3346049785614014,4.969732510834493,-2.2084708689362742e-05,0.34859997034072876,-1.196674648915426,-0.0002212516701547429,-0.1625198870897293,0.7632101774215698,0.0,0.00400223582983017,0.9178494215011597,0.0005263478378765285,0.5952496528625488
299.0,311.0,0.2231,-3.3386,8.7428,-0.0286,0.0315,-0.1226,-1.6714049778380335,-7.636688678758219e-05,2.735264778137207,-1.8278937339782715,2.1608633687719703e-05,2.3390979766845703,4.969724643021383,-1.567842082295101e-05,0.3545927405357361,-1.1966941992389124,-0.0002461463736835867,-0.16858842968940735,0.7631543874740601,0.0,0.010145667940378189,0.9178207516670227,0.0005443687550723553,0.6551287770271301
299.0,311.0,0.2231,-3.3386,8.7428,-0.0286,0.0315,-0.1226,-1.6714211903014125,-7.039384945528582e-05,2.7146174907684326,-1.8279051780700684,1.9292629076517187e-05,2.33087158203125,4.969772594958105,-6.492967941085226e-07,0.36066821217536926,-1.1967147032367151,-0.0004307625349611044,-0.19019290804862976,0.7631580233573914,0.0,-0.00721254525706172,0.9178571701049805,0.0007255515665747225,0.6596581935882568
299.0,311.0,0.2231,-3.3386,8.7428,-0.0286,0.0315,-0.1226,-1.6714688740172328,-6.528751691803336e-05,2.7404799461364746,-1.8278896808624268,1.7425010810256936e-05,2.242840528488159,4.969700532942571,-7.704978690660502e-13,0.36421602964401245,-1.1967342535602015,-0.0022638877853751183,-0.20088040828704834,0.7632220983505249,0.0,0.0004614763893187046,0.9178810119628906,0.0016329271020367742,0.6737483739852905
299.0,311.0,0.2231,-3.3386,8.7428,-0.0286,0.0315,-0.1226,-1.6714254818358363,-6.0059410316171125e-05,2.7898054122924805,-1.8279019594192505,3.122298221569508e-05,2.3272879123687744,4.969736236124792,-5.969876218129427e-20,0.37052443623542786,-1.1968548933612269,-0.01613612473011017,-0.19026461243629456,0.7632060647010803,0.0,0.00031477794982492924,0.9179254770278931,0.003182545769959688,0.6657721996307373
299.0,311.0,0.2231,-3.3386,8.7428,-0.0286,0.0315,-0.1226,-1.671429296533102,-5.630232408293523e-05,2.8171112537384033,-1.827909231185913,5.745964153902605e-05,2.387834072113037,4.969736563950338,-7.084245797606349e-26,0.3643052279949188,-1.1969860235797327,-0.012568419799208641,-0.20620259642601013,0.763210117816925,0.0,0.0019241649424657226,0.9179331660270691,0.004119698889553547,0.7572624683380127
299.0,311.0,0.2231,-3.3386,8.7428,-0.0286,0.0315,-0.1226,-1.6713930569090785,-5.298755058902316e-05,2.8007400035858154,-1.8278855085372925,9.767367009771988e-05,2.3398618698120117,4.969696509629049,-8.406629546762971e-32,0.3745238482952118,-1.1969855467425745,-0.002853801939636469,-0.1999063640832901,0.763185977935791,0.0,-0.012120638974010944,0.9179564118385315,0.00451531819999218,0.7726798057556152
310.0,309.0,0.1938,-3.8183,8.7876,-0.0402,0.0208,-0.1168,-1.6714207134642542,-4.119886216358282e-05,2.876084327697754,-1.82784104347229,0.00014908921730238944,2.3240981101989746,4.969712692290106,-9.97585721999363e-38,0.3861875832080841,-1.1970136801349085,-0.0003512835828587413,-0.1868067979812622,0.7631699442863464,0.0,-0.0035575670190155506,0.9180904030799866,0.005197776481509209,0.7524648904800415
310.0,309.0,0.1938,-3.8183,8.7876,-0.0402,0.0208,-0.1168,-1.6714087925352992,-9.943157238012645e-06,2.8920629024505615,-1.8278534412384033,0.00013062932703178376,2.4171371459960938,4.96976854184226,-8.407790785948902e-45,0.38758203387260437,-1.1970813910113733,-0.00021860450215172023,-0.20225197076797485,0.7631580233573914,0.0,-0.005213418044149876,0.9180967807769775,0.006269508041441441,0.7714636325836182
310.0,309.0,0.1938,-3.8183,8.7876,-0.0402,0.0208,-0.1168,-1.6714612446227015,-4.321994930727487e-15,2.8611900806427,-1.827849268913269,0.00011835878103738651,2.4452273845672607,4.9697365937526605,-0.0,0.38943037390708923,-1.1970613638507288,-0.00015558089944534004,-0.20427480340003967,0.7631740570068359,0.0,0.00351305166259408,0.9181730151176453,0.006338578183203936,0.774384617805481
310.0,309.0,0.1938,-3.8183,8.7876,-0.0402,0.0208,-0.1168,-1.6714931927123011,-1.8786424662846675e-24,2.8459134101867676,-1.827909231185913,0.00010819542512763292,2.3340137004852295,4.969692635327139,-0.0,0.398874431848526,-1.1970017592059534,-0.0001606624573469162,-0.2127133011817932,0.7631900906562805,0.0,-0.004869743250310421,0.9182654619216919,0.006186262704432011,0.8256112337112427
310.0,309.0,0.1938,-3.8183,8.7876,-0.0402,0.0208,-0.1168,-1.671453138391012,-8.165900279063266e-34,2.825214147567749,-1.8278772830963135,9.96396120171994e-05,2.386679172515869,4.9697007713611505,-0.0,0.3896673619747162,-1.1969693342791956,-7.617819210281596e-05,-0.21741540729999542,0.7631338834762573,0.0,-0.01119677722454071,0.9182442426681519,0.0053148046135902405,0.8437091708183289
310.0,309.0,0.1938,-3.8183,8.7876,-0.0402,0.0208,-0.1168,-1.671492715875143,-3.545285114741787e-43,2.8618645668029785,-1.8278731107711792,9.233779564965516e-05,2.3908262252807617,4.96971275189475,-0.0,0.3913553059101105,-1.197033707295553,-9.226382098859176e-05,-0.20472979545593262,0.7631978988647461,0.0,-0.001501761027611792,0.9182878732681274,0.003985734190791845,0.7783387899398804
310.0,309.0,0.1938,-3.8183,8.7876,-0.0402,0.0208,-0.1168,-1.6715008221068324,-0.00022466175141744316,2.872908353805542,-1.827865719795227,8.487408194923773e-05,2.364506959915161,4.969684499293127,-0.0,0.39038437604904175,-1.196993652974264,-0.00010208613093709573,-0.21071794629096985,0.7632020115852356,0.0,-0.0003831604262813926,0.9183117747306824,0.004503078293055296,0.7909082174301147
310.0,309.0,0.1938,-3.8183,8.7876,-0.0402,0.0208,-0.1168,-1.6714488468565882,-0.0006730938330292702,2.8472185134887695,-1.827909231185913,7.951784209581092e-05,2.3574256896972656,4.969668465643682,-0.0,0.38818350434303284,-1.197021786366598,-0.00011173463281011209,-0.21365012228488922,0.7631740570068359,0.0,-0.002712574088945985,0.9183805584907532,0.0054281046614050865,0.8142955303192139
310.0,309.0,0.1938,-3.8183,8.7876,-0.0402,0.0208,-0.1168,-1.6715370617308558,-0.001355258864350617,2.797466993331909,-1.8278937339782715,7.479749183403328e-05,2.365183115005493,4.969692724734106,-0.0,0.38890427350997925,-1.1970575491534632,-9.941482858266681e-05,-0.20643502473831177,0.7631818652153015,0.0,0.0002699661417864263,0.9184976816177368,0.005735741928219795,0.8212977647781372
302.0,309.0,0.2309,-3.6407,8.8104,-0.037,0.0192,-0.1141,-1.6715532741942347,-0.0019438635790720582,2.8561766147613525,-1.827865719795227,7.060616189846769e-05,2.357154369354248,4.969648408680715,-0.0,0.3789805769920349,-1.1970575491534632,-0.0001625413860892877,-0.22382564842700958,0.7631699442863464,0.0,0.008217700757086277,0.9185285568237305,0.00628453865647316,0.7899354696273804
302.0,309.0,0.2309,-3.6407,8.8104,-0.037,0.0192,-0.1141,-1.6715809307494105,-0.0023936047218739986,2.813314914703369,-1.827917456626892,2.6058341140271224e-13,2.412193536758423,4.969652610808172,-3.0839317332720384e-05,0.3779425621032715,-1.1970256010638636,-0.00013539155770558864,-0.21838194131851196,0.763210117816925,0.0,0.0008393245516344905,0.9185722470283508,0.00845328439027071,0.8318095803260803
302.0,309.0,0.2309,-3.6407,8.8104,-0.037,0.0192,-0.1141,-1.6716247997679652,-0.002114437986165285,2.826883316040039,-1.8278928995132446,1.1326786732412618e-22,2.3723514080047607,4.969692724734106,-2.8446094802347943e-05,0.3770955204963684,-1.1970136801349085,-0.00014122277207206935,-0.2081674039363861,0.7632540464401245,0.0,0.0025374731048941612,0.9186673164367676,0.01111711747944355,0.815238893032074
302.0,309.0,0.2309,-3.6407,8.8104,-0.037,0.0192,-0.1141,-1.6716329059996546,-0.0018535902490839362,2.834031581878662,-1.8279825448989868,4.92341732297064e-32,2.309479236602783,4.969664799958029,-2.636295903357677e-05,0.3844403624534607,-1.1970575491534632,-0.00016378532745875418,-0.21361801028251648,0.7631937861442566,0.0,0.001097557251341641,0.9189007878303528,0.016275005415081978,0.8176716566085815
302.0,309.0,0.2309,-3.6407,8.8104,-0.037,0.0192,-0.1141,-1.671641012231344,-0.0015541895991191268,2.783723831176758,-1.8278616666793823,2.1400630147168606e-41,2.4049084186553955,4.969668972283163,-3.684612602228299e-05,0.39063507318496704,-1.1970651785479944,-0.00024222754291258752,-0.21445490419864655,0.763225793838501,0.0,0.0023431319277733564,0.919044017791748,0.0206388421356678,0.853988528251648
302.0,309.0,0.2309,-3.6407,8.8104,-0.037,0.0192,-0.1141,-1.671641012231344,-0.0012393537908792496,2.784872531890869,-1.8279461860656738,-0.0,2.4041976928710938,4.969640719681539,-4.540965528576635e-05,0.38031697273254395,-1.1970294157611292,-0.0005515603115782142,-0.21018002927303314,0.7632461786270142,0.0,-0.008269929327070713,0.9192759394645691,0.02523050643503666,0.9099397659301758
302.0,309.0,0.2309,-3.6407,8.8104,-0.037,0.0192,-0.1141,-1.6716567478575648,-0.0012407414615154266,2.785698413848877,-1.8278937339782715,-0.0,2.3478755950927734,4.969668972283163,-5.339502968126908e-05,0.37571924924850464,-1.1970613638507288,-0.000684833328705281,-0.2135201394557953,0.7632580995559692,0.0,0.0003046609344892204,0.9195356369018555,0.028116095811128616,0.9179806709289551
302.0,309.0,0.2309,-3.6407,8.8104,-0.037,0.0192,-0.1141,-1.6716848812498988,-0.0014571512583643198,2.7871363162994385,-1.8278937339782715,-0.0,2.3790841102600098,4.969652640610494,-5.0404643843648955e-05,0.38530585169792175,-1.197045628224508,-0.0005409700679592788,-0.22028377652168274,0.7632019519805908,0.0,0.002214206615462899,0.9198798537254333,0.030405865982174873,0.9275882244110107
302.0,309.0,0.2309,-3.6407,8.8104,-0.037,0.0192,-0.1141,-1.6717249355711878,-0.0021657852921634912,2.818936347961426,-1.8278896808624268,-0.0,2.3867788314819336,4.9696086821849725,-1.787182513091068e-09,0.3850640654563904,-1.1970694700824183,-0.000435428082710132,-0.21730028092861176,0.7632261514663696,0.0,-0.00408437754958868,0.9201498627662659,0.0330110639333725,0.9292919635772705
305.0,305.0,0.201,-3.8052,8.6632,-0.0345,0.0133,-0.1046,-1.671776910821432,-0.003896697424352169,2.8125808238983154,-1.8279061317443848,-0.0,2.4285731315612793,4.969636636763372,-0.00010133283649338409,0.37303614616394043,-1.1970770994769495,-0.0003114808932878077,-0.2350553274154663,0.7631580233573914,0.0,0.003947474993765354,0.9206352233886719,0.03799176961183548,0.9049537181854248
305.0,305.0,0.201,-3.8052,8.6632,-0.0345,0.0133,-0.1046,-1.671805044213766,-0.004275323357433081,2.7415361404418945,-1.827893614768982,-0.0,2.3945977687835693,4.969592439919271,-0.00010929332347586751,0.3775028586387634,-1.1970575491534632,-0.00027993498952127993,-0.2273377776145935,0.7631818652153015,0.0,-0.007209048140794039,0.9210307598114014,0.04590713977813721,0.91981041431427
305.0,305.0,0.201,-3.8052,8.6632,-0.0345,0.0133,-0.1046,-1.6718527279295863,-0.00426696240901947,2.7553069591522217,-1.8279215097427368,2.334311632878894e-10,2.3620705604553223,4.969621050148763,-0.0001320488954661414,0.367719829082489,-1.197045628224508,-0.00023088404850568622,-0.21002309024333954,0.7631580233573914,0.0,-0.0016354203689843416,0.9215915203094482,0.05747020244598389,0.9671087265014648
305.0,305.0,0.201,-3.8052,8.6632,-0.0345,0.0133,-0.1046,-1.6718560657896937,-0.0028869258239865303,2.7575325965881348,-1.827865719795227,1.0146558638858576e-19,2.422710657119751,4.969669031887808,-0.0002250591933261603,0.37572044134140015,-1.1970651785479944,-0.00019512479775585234,-0.2221943736076355,0.7632060647010803,0.0,0.0064778076484799385,0.9222026467323303,0.06710111349821091,0.9864171743392944
305.0,305.0,0.201,-3.8052,8.6632,-0.0345,0.0133,-0.1046,-1.6719242535033167,-0.002619834616780281,2.728566884994507,-1.827865719795227,5.917123529553375e-31,2.4087765216827393,4.969600546150961,-0.0002597601560410112,0.3635750710964203,-1.1970694700824183,-0.0001645444135647267,-0.20980437099933624,0.763225793838501,0.0,-0.004112531431019306,0.9230540990829468,0.06739819049835205,0.9146213531494141
305.0,305.0,0.201,-3.8052,8.6632,-0.0345,0.0133,-0.1046,-1.6719566784300746,-0.0056376163847744465,2.796492338180542,-1.8278977870941162,2.5719992533603422e-40,2.368213653564453,4.969560760050573,-0.0004842651542276144,0.36140453815460205,-1.1970294157611292,-0.0001455375604564324,-0.21235397458076477,0.763185977935791,0.0,0.009469808079302311,0.9237368702888489,0.06651309877634048,0.953596830368042
305.0,305.0,0.201,-3.8052,8.6632,-0.0345,0.0133,-0.1046,-1.6720081768431605,-0.009915788657963276,2.7287135124206543,-1.827865719795227,-0.0,2.3744382858276367,4.969588714628973,-0.0005309939151629806,0.34577038884162903,-1.1970613638507288,-0.00013046726235188544,-0.22941270470619202,0.7631420493125916,0.0,-0.005103748291730881,0.9243680238723755,0.06452532857656479,1.0045578479766846
305.0,305.0,0.201,-3.8052,8.6632,-0.0345,0.0133,-0.1046,-1.6721650562682093,-0.009285004809498787,2.7297310829162598,-1.8278937339782715,-0.0,2.422822952270508,4.9695525644119165,-0.00040144732338376343,0.34860876202583313,-1.1970813910113733,-0.00013511325232684612,-0.21798884868621826,0.7631739974021912,0.0,-0.0051132626831531525,0.9250564575195312,0.06012018024921417,1.0030943155288696
305.0,311.0,0.2046,-4.4279,8.7805,-0.0473,-0.0263,-0.0421,-1.67226042369985,-0.010976331308484077,2.7584969997406006,-1.827833652496338,0.00012912022066302598,2.4135468006134033,4.969589072256841,-0.00034619367215782404,0.3536224663257599,-1.1970613638507288,-0.00013630669855047017,-0.2363245189189911,0.7632261514663696,0.0,0.001197013771161437,0.9257845282554626,0.05685001611709595,0.9962073564529419
305.0,311.0,0.2046,-4.4279,8.7805,-0.0473,-0.0263,-0.0421,-1.6723805866637171,-0.014740771614015102,2.7075657844543457,-1.827925682067871,0.00011291992268525064,2.386047840118408,4.969600963383474,-0.0002556364343035966,0.35230153799057007,-1.1970856825457972,-0.0005614621331915259,-0.23162037134170532,0.7631539702415466,0.0,0.0009628995321691036,0.92629474401474,0.06003694236278534,0.978132426738739
305.0,311.0,0.2046,-4.4279,8.7805,-0.0473,-0.0263,-0.0421,-1.6725360355772914,-0.01738896034657955,2.7135634422302246,-1.8278855085372925,0.00010033165744971484,2.4583544731140137,4.96956895568923,-0.00019905256340280175,0.3637601137161255,-1.1970856825457972,-0.0006687208660878241,-0.23795118927955627,0.7631781697273254,0.0,-0.004613169934600592,0.9268987774848938,0.06887580454349518,1.0771139860153198
305.0,311.0,0.2046,-4.4279,8.7805,-0.0473,-0.0263,-0.0421,-1.6727119884886683,-0.01624848134815693,2.7176265716552734,-1.8278452157974243,9.0268615167588e-05,2.3969218730926514,4.969512778311529,-0.00016299587150570005,0.3571888506412506,-1.1970532576190394,-0.000488974794279784,-0.23585669696331024,0.7632142305374146,0.0,0.0016007015947252512,0.9275974035263062,0.07748469710350037,1.096517562866211
305.0,311.0,0.2046,-4.4279,8.7805,-0.0473,-0.0263,-0.0421,-1.672887464562887,-0.016281569376587868,2.7187376022338867,-1.8278616666793823,8.05713061708957e-05,2.426624298095703,4.969564872771063,-0.00013389369996730238,0.35829782485961914,-1.1971009413348597,-0.00038120592944324017,-0.23099467158317566,0.7631781697273254,0.0,-0.0125103909522295,0.928557276725769,0.07786603271961212,1.0884766578674316
305.0,311.0,0.2046,-4.4279,8.7805,-0.0473,-0.0263,-0.0421,-1.673063417474264,-0.019807320088148117,2.6971051692962646,-1.8279298543930054,7.395105058094487e-05,2.409170389175415,4.969524997263708,-0.0001627681340323761,0.3555847406387329,-1.1970775763141077,-0.00030139676528051496,-0.2327878475189209,0.7631216645240784,0.0,0.005389085039496422,0.9293442964553833,0.07705286890268326,1.0286322832107544
305.0,311.0,0.2046,-4.4279,8.7805,-0.0473,-0.0263,-0.0421,-1.6732226810851039,-0.022525133565068245,2.6788129806518555,-1.8278615474700928,5.466889342642389e-05,2.421854019165039,4.9695529518421075,-0.0001582752593094483,0.3603924810886383,-1.1970575491534632,-0.0002019232342718169,-0.22466637194156647,0.7631863951683044,0.0,0.0007338684517890215,0.9300714135169983,0.07227690517902374,1.0540800094604492
305.0,311.0,0.2046,-4.4279,8.7805,-0.0473,-0.0263,-0.0421,-1.6735393009581507,-0.024257207289338112,2.6794610023498535,-1.8278698921203613,2.195944034610875e-05,2.3924760818481445,4.969561117678442,-0.0001345998898614198,0.34770533442497253,-1.1971333662616175,-0.00017589345225133002,-0.2342751920223236,0.7631379961967468,0.0,-0.00442888168618083,0.9307832717895508,0.06506022810935974,1.0461013317108154
305.0,311.0,0.2046,-4.4279,8.7805,-0.0473,-0.0263,-0.0421,-1.6737905941405238,-0.024770822376012802,2.7150497436523438,-1.8278698921203613,3.830949208349921e-05,2.348845958709717,4.969557034760275,-0.00011411798186600208,0.3448086082935333,-1.197113339100973,-0.00036557947169058025,-0.22064834833145142,0.7632302045822144,0.0,-0.0012061209417879581,0.9314894676208496,0.06549456715583801,1.045882225036621
300.0,313.0,0.1825,-4.2897,8.869,0.0093,-0.024,-0.0469,-1.6740299663939417,-0.026758113875985146,2.6842756271362305,-1.8278855085372925,3.462493259576149e-05,2.456707715988159,4.969537275820532,-0.0001012758439173922,0.35028713941574097,-1.1971214453326624,-0.00043565398664213717,-0.24706308543682098,0.7631502151489258,0.0,-0.004620793275535107,0.9321566820144653,0.07270731776952744,1.0288963317871094
300.0,313.0,0.1825,-4.2897,8.869,0.0093,-0.024,-0.0469,-1.674370904962057,-0.029677115380764008,2.6270694732666016,-1.8278452157974243,3.158693289151415e-05,2.4195759296417236,4.969561117678442,-9.103176853386685e-05,0.35565680265426636,-1.1971014181720179,-0.0005937253590673208,-0.22710777819156647,0.7631220817565918,0.0,-0.005967617034912109,0.9329737424850464,0.08035709708929062,1.0573192834854126
300.0,313.0,0.1825,-4.2897,8.869,0.0093,-0.024,-0.0469,-1.6746460400023402,-0.031760502606630325,2.6889147758483887,-1.827832818031311,1.4520445802190807e-05,2.4025444984436035,4.969585257559576,-8.266985241789371e-05,0.35561102628707886,-1.1970651785479944,-0.0004642969579435885,-0.2323262095451355,0.7631740570068359,0.0,-0.007631142158061266,0.9337888956069946,0.08710655570030212,1.0976128578186035
300.0,313.0,0.1825,-4.2897,8.869,0.0093,-0.024,-0.0469,-1.67504944423818,-0.033429715782403946,2.6160366535186768,-1.8278616666793823,1.3238134670245927e-05,2.421405792236328,4.969557034760275,-8.935450023273006e-05,0.354367196559906,-1.1971209684955042,-0.0004012583231087774,-0.2332937866449356,0.7631179094314575,0.0,-0.008582385256886482,0.9348482489585876,0.0895513966679573,1.0682835578918457
300.0,313.0,0.1825,-4.2897,8.869,0.0093,-0.024,-0.0469,-1.6753808460631312,-0.03513123095035553,2.685513496398926,-1.8278977870941162,1.2331250218267087e-05,2.442176580429077,4.969561117678442,-9.627302642911673e-05,0.3504776358604431,-1.1971247831927698,-0.000691864755935967,-0.2521444261074066,0.7631298303604126,0.0,-0.008686271496117115,0.9357346296310425,0.08238793164491653,1.0339337587356567
300.0,313.0,0.1825,-4.2897,8.869,0.0093,-0.024,-0.0469,-1.675732751885885,-0.037686966359615326,2.7176945209503174,-1.8278813362121582,1.5694742936376606e-14,2.4049012660980225,4.969553190260687,-8.944606088334695e-05,0.35442596673965454,-1.1971495787249964,-0.0032286455389112234,-0.25652599334716797,0.7630695104598999,0.0,-0.016484271734952927,0.9365264773368835,0.07539377361536026,1.0574390888214111
300.0,313.0,0.1825,-4.2897,8.869,0.0093,-0.024,-0.0469,-1.6760722599425257,-0.0352134183049202,2.692260503768921,-1.8278855085372925,6.822038342776006e-24,2.376746654510498,4.969512778311529,-3.650157304946333e-05,0.3599185347557068,-1.1972091833697718,-0.011657601222395897,-0.2603227496147156,0.7632023692131042,0.0,-0.017329629510641098,0.9372338056564331,0.07819359749555588,1.055079460144043
300.0,313.0,0.1825,-4.2897,8.869,0.0093,-0.024,-0.0469,-1.676499982873434,-0.03182376176118851,2.7707672119140625,-1.8278979063034058,3.978378552383341e-35,2.4025163650512695,4.969573038607397,-3.2459771318826824e-05,0.3607447147369385,-1.197352711354391,-0.017351265996694565,-0.25778576731681824,0.7631178498268127,0.0,-0.0047623161226511,0.9381726980209351,0.08125542104244232,1.0586750507354736
295.0,303.0,0.3691,-3.7131,8.7667,0.009,-0.0386,-0.0536,-1.676892419854635,-0.032975587993860245,2.715691089630127,-1.8279093503952026,1.6815581571897805e-44,2.4638450145721436,4.96954100111083,-3.7105917726876214e-05,0.35494059324264526,-1.1975601355182093,-0.021495280787348747,-0.25398290157318115,0.7632023692131042,0.0,-0.013647111132740974,0.9389929175376892,0.080562062561512,1.0382663011550903
295.0,303.0,0.3691,-3.7131,8.7667,0.009,-0.0386,-0.0536,-1.6772352657713832,-0.03836149722337723,2.7061996459960938,-1.8279051780700684,-0.0,2.38741397857666,4.96954511383132,-4.125071063754149e-05,0.36302638053894043,-1.1978476683246058,-0.04251516982913017,-0.2729371190071106,0.7631863951683044,0.0,-0.02443881705403328,0.9396819472312927,0.07952629774808884,1.0384929180145264
295.0,303.0,0.3691,-3.7131,8.7667,0.009,-0.0386,-0.0536,-1.6775466404356898,-0.041575074195861816,2.739575147628784,-1.8279051780700684,-0.0,2.4110958576202393,4.969504880696096,-3.832321453955956e-05,0.35349348187446594,-1.1985581556903284,-0.09605288505554199,-0.2650253176689148,0.7631380558013916,0.0,-0.02038097009062767,0.9405132532119751,0.08181972056627274,1.057365894317627
295.0,303.0,0.3691,-3.7131,8.7667,0.009,-0.0386,-0.0536,-1.6779772243895472,-0.04250902310013771,2.743748664855957,-1.8278896808624268,-0.0,2.3859941959381104,4.969557034760275,3.087729783146642e-05,0.3573548197746277,-1.200385872517721,-0.17770002782344818,-0.3210507929325104,0.7631101012229919,0.0,-0.02958381175994873,0.9414981007575989,0.07566510140895844,1.0619460344314575
295.0,303.0,0.3691,-3.7131,8.7667,0.009,-0.0386,-0.0536,-1.6784941158690394,-0.04822327941656113,2.712425470352173,-1.827849268913269,-0.0,2.460033893585205,4.969532894879141,2.6384126613265835e-05,0.37434685230255127,-1.2023447195636194,-0.23453733325004578,-0.3397689461708069,0.7631301879882812,0.0,-0.027293555438518524,0.9421805739402771,0.07149619609117508,1.0687638521194458
295.0,303.0,0.3691,-3.7131,8.7667,0.009,-0.0386,-0.0536,-1.6789576015868128,-0.05569452792406082,2.702145576477051,-1.827873945236206,-0.0,2.356327772140503,4.969536947994985,2.3010970835457556e-05,0.3613712191581726,-1.2051218191729944,-0.27763739228248596,-0.3609488606452942,0.763130247592926,0.0,-0.024023331701755524,0.9428837895393372,0.06541991233825684,1.0315942764282227
295.0,303.0,0.3691,-3.7131,8.7667,0.009,-0.0386,-0.0536,-1.6796094379820765,-0.05891651660203934,2.760345220565796,-1.8278740644454956,-0.0,2.3677167892456055,4.969573038607397,2.040259823843371e-05,0.362412691116333,-1.2083891073810022,-0.3456583023071289,-0.38052111864089966,0.7631178498268127,0.0,-0.03033987618982792,0.9434706568717957,0.059822119772434235,1.049411654472351
295.0,303.0,0.3691,-3.7131,8.7667,0.009,-0.0386,-0.0536,-1.680340429345602,-0.06386397033929825,2.7358474731445312,-1.8278690576553345,-0.0,2.4035282135009766,4.969529109984197,1.795969183149282e-05,0.35997992753982544,-1.2132113615619105,-0.4381438195705414,-0.41739749908447266,0.7631983160972595,0.0,-0.034563422203063965,0.9441501498222351,0.051126085221767426,1.0591394901275635
295.0,303.0,0.3691,-3.7131,8.7667,0.009,-0.0386,-0.0536,-1.680967470208639,-0.06863018125295639,2.7033071517944336,-1.8278616666793823,-0.0,2.4060866832733154,4.969557422190466,2.138349145752727e-06,0.3691757321357727,-1.2180751005755823,-0.5133283734321594,-0.42674964666366577,0.7630981802940369,0.0,-0.01772100292146206,0.9446861147880554,0.04567636922001839,0.9904922246932983
300.0,308.0,0.0066,-4.8754,8.6237,0.2937,-0.0461,-0.0803,-1.6817027531065882,-0.0706695020198822,2.6761012077331543,-1.8279051780700684,-0.0,2.3712565898895264,4.9695529518421075,2.537504061039808e-12,0.3423294723033905,-1.2235029379474085,-0.5844714641571045,-0.4423753619194031,0.763118326663971,0.0,-0.03880617022514343,0.9450410604476929,0.0405183769762516,0.9377263784408569
300.0,308.0,0.0066,-4.8754,8.6237,0.2937,-0.0461,-0.0803,-1.682389875451559,-0.06884805113077164,2.678386688232422,-1.8279298543930054,-0.0,2.383798122406006,4.9695331929023645,3.0111675926984636e-18,0.35669904947280884,-1.2297499815570276,-0.6409517526626587,-0.4228389859199524,0.7631863951683044,0.0,-0.046355824917554855,0.9454818964004517,0.032146554440259933,0.9244711995124817
300.0,308.0,0.0066,-4.8754,8.6237,0.2937,-0.0461,-0.0803,-1.6833416424193324,-0.0768994688987732,2.6906044483184814,-1.827925682067871,-0.0,2.3894619941711426,4.969532894879141,2.333075355675707e-25,0.3497559130191803,-1.2380712668048304,-0.7212149500846863,-0.41945332288742065,0.7631023526191711,0.0,-0.025867264717817307,0.9458175301551819,0.023991286754608154,0.8831177353858948
300.0,308.0,0.0066,-4.8754,8.6237,0.2937,-0.0461,-0.0803,-1.6841207943358363,-0.08785402029752731,2.644774913787842,-1.8279134035110474,-0.0,2.3410210609436035,4.969549137144842,2.7685797783900104e-31,0.3240077793598175,-1.2455008665667933,-0.7788487672805786,-0.4179536998271942,0.7631220817565918,0.0,-0.02927427925169468,0.9460042715072632,0.018867749720811844,0.8780088424682617
300.0,308.0,0.0066,-4.8754,8.6237,0.2937,-0.0461,-0.0803,-1.685023923913473,-0.10085124522447586,2.559634208679199,-1.8278855085372925,-3.495777855277993e-05,2.3249504566192627,4.969596880465307,3.285377656564923e-37,0.3216869831085205,-1.253524128590719,-0.8225168585777283,-0.3715645968914032,0.7630859613418579,-4.8167559725698084e-05,-0.04074651375412941,0.9461238384246826,0.01290650200098753,0.8441497087478638
300.0,308.0,0.0066,-4.8754,8.6237,0.2937,-0.0461,-0.0803,-1.686094423333639,-0.10461235791444778,2.563788890838623,-1.8278450965881348,-1.51951069999115e-14,2.3192055225372314,4.969573038607397,3.8956097308229915e-43,0.33784186840057373,-1.262049976979391,-0.870444118976593,-0.39449506998062134,0.7631142139434814,-6.0104579461039975e-05,-0.034847818315029144,0.946191668510437,0.006984313949942589,0.7897849678993225
300.0,308.0,0.0066,-4.8754,8.6237,0.2937,-0.0461,-0.0803,-1.6873613796629847,-0.09759125113487244,2.550887107849121,-1.8279331922531128,-0.0004987481515854597,2.3122823238372803,4.969584959536352,0.0,0.3261250853538513,-1.2727249304400843,-0.9152372479438782,-0.38366514444351196,0.763013482093811,-5.564522507484071e-05,-0.015693997964262962,0.9462634921073914,0.001854779664427042,0.7771157026290894
300.0,308.0,0.0066,-4.8754,8.6237,0.2937,-0.0461,-0.0803,-1.6884242496886195,-0.10389144718647003,2.595224618911743,-1.8279578685760498,-0.0020454339683055878,2.2718334197998047,4.9695331929023645,-0.0013667135499417782,0.3197731673717499,-1.2820447126971644,-0.9351093769073486,-0.3884217143058777,0.7631101608276367,-5.2405121095944196e-05,-0.03937230259180069,0.9463158249855042,0.0003157005412504077,0.6864050626754761
287.0,293.0,-0.451,-3.8082,8.1326,0.8346,-0.0452,-0.1397,-1.6895066700377406,-0.12245410680770874,2.468832015991211,-1.8279662132263184,-0.00034837229759432375,2.214010238647461,4.969533222704687,-0.004107944667339325,0.29202520847320557,-1.2915342489825647,-0.9508883953094482,-0.345228910446167,0.7631785273551941,-2.5101409846683964e-05,-0.04415154829621315,0.9462753534317017,2.689785894016694e-10,0.6684814691543579
287.0,293.0,-0.451,-3.8082,8.1326,0.8346,-0.0452,-0.1397,-1.6907416782774867,-0.12892098724842072,2.4434869289398193,-1.8279175758361816,0.0008296124287880957,2.2005813121795654,4.969481158047476,-0.0122209582477808,0.28847575187683105,-1.3011611143695276,-0.962603747844696,-0.338100790977478,0.763073742389679,-2.9786974969914226e-11,-0.01020697969943285,0.9462277889251709,-0.0038996562361717224,0.6031752228736877
287.0,293.0,-0.451,-3.8082,8.1326,0.8346,-0.0452,-0.1397,-1.692312856713766,-0.12242095917463303,2.422393321990967,-1.8278855085372925,0.000828282383736223,2.195327043533325,4.9694054303462885,-0.005533898249268532,0.2838597297668457,-1.312563721333639,-0.9526650309562683,-0.3035438060760498,0.7631544470787048,-2.3079178678551213e-18,-0.0349893756210804,0.9461877346038818,-0.004947308916598558,0.4989117980003357
287.0,293.0,-0.451,-3.8082,8.1326,0.8346,-0.0452,-0.1397,-1.6935464344420375,-0.11104734987020493,2.4141650199890137,-1.8279051780700684,-0.001165000256150961,2.1559324264526367,4.969353663712301,-0.0011803936213254929,0.27026888728141785,-1.322010342274801,-0.9411367177963257,-0.2779812216758728,0.7631421089172363,-2.7387262699792373e-24,-0.03561078757047653,0.9461517333984375,-0.00309739145450294,0.43922582268714905
287.0,293.0,-0.451,-3.8082,8.1326,0.8346,-0.0452,-0.1397,-1.6947456798949183,-0.13029037415981293,2.404055595397949,-1.8280211687088013,-0.0021567060612142086,2.122236490249634,4.969297694950857,-0.006582558620721102,0.2741011679172516,-1.331259552632467,-0.9154115319252014,-0.2805961072444916,0.7631101608276367,-3.24995186205739e-30,-0.03940363600850105,0.9461398124694824,-0.0016424080822616816,0.35762178897857666
287.0,293.0,-0.451,-3.8082,8.1326,0.8346,-0.0452,-0.1397,-1.6960727177061976,-0.15180982649326324,2.360563278198242,-1.8279454708099365,-8.304759830934927e-05,2.1384127140045166,4.969221430807867,-0.004698908422142267,0.2684524953365326,-1.340203587208883,-0.8830747604370117,-0.2627684772014618,0.7630982398986816,-3.856605114956733e-36,-0.04367390275001526,0.9460554122924805,-0.005243801977485418,0.34471261501312256
287.0,293.0,-0.451,-3.8082,8.1326,0.8346,-0.0452,-0.1397,-1.6977626285948695,-0.13412386178970337,2.4451422691345215,-1.8278895616531372,0.0027578547596931458,2.124323844909668,4.969289409905233,0.002909915056079626,0.2912316918373108,-1.350623909627096,-0.84237140417099,-0.24509920179843903,0.7630459070205688,-2.9847657290118604e-43,-0.03633404150605202,0.946008026599884,-0.01212045457214117,0.2133813500404358
287.0,293.0,-0.451,-3.8082,8.1326,0.8346,-0.0452,-0.1397,-1.6990767918028773,-0.12088139355182648,2.4298107624053955,-1.8279011249542236,-0.003010012209415436,2.0743298530578613,4.969245511084356,0.0005247328663244843,0.28204280138015747,-1.3588956038104456,-0.8086458444595337,-0.23985682427883148,0.7630458474159241,-0.0,-0.04836060106754303,0.9458515048027039,-0.016503075137734413,0.18892715871334076
287.0,293.0,-0.451,-3.8082,8.1326,0.8346,-0.0452,-0.1397,-1.7005444965758265,-0.1389753520488739,2.4548256397247314,-1.8279489278793335,-0.004963579121977091,2.09779691696167,4.969241487770834,-0.0016292835352942348,0.2931416928768158,-1.3666561285602015,-0.7691073417663574,-0.22652408480644226,0.763130247592926,-0.0,-0.03388667106628418,0.9457041025161743,-0.015699759125709534,0.10682016611099243
290.0,301.0,0.6072,-1.7246,7.6164,0.8932,-0.1191,-0.144,-1.701942583123678,-0.15742163360118866,2.4347736835479736,-1.8279964923858643,-0.004715298302471638,2.0385048389434814,4.969245660095968,-0.0009712557657621801,0.2932267189025879,-1.3740466276751917,-0.7163137197494507,-0.21375848352909088,0.7630819082260132,-0.0,-0.01894991844892502,0.9455081820487976,-0.01802072487771511,0.04252994805574417
290.0,301.0,0.6072,-1.7246,7.6164,0.8932,-0.1191,-0.144,-1.7036763630309046,-0.1446765512228012,2.4360785484313965,-1.8280335664749146,0.0030966182239353657,2.071225643157959,4.969269740372457,-1.8897743814250134e-08,0.28438177704811096,-1.3821981588946741,-0.6591596603393555,-0.23912028968334198,0.763122022151947,-0.0,-0.044737692922353745,0.9452402591705322,-0.023989422246813774,0.0282808355987072
290.0,301.0,0.6072,-1.7246,7.6164,0.8932,-0.1191,-0.144,-1.7051106892027796,-0.13982102274894714,2.4658405780792236,-1.827989101409912,0.0008979591657407582,2.046281337738037,4.969281661301412,-2.2425300616577167e-14,0.2955717444419861,-1.388562027608053,-0.6047728657722473,-0.21888324618339539,0.7631421089172363,-0.0,-0.029652278870344162,0.9450284838676453,-0.024290552362799644,0.06547921150922775
290.0,301.0,0.6072,-1.7246,7.6164,0.8932,-0.1191,-0.144,-1.7065087757506312,-0.14461658895015717,2.4847707748413086,-1.8280129432678223,-0.0029629103373736143,2.075650691986084,4.969253736525335,0.0001456026511732489,0.2829931378364563,-1.3942669073687952,-0.5512305498123169,-0.22547359764575958,0.7630777955055237,-0.0,-0.04375363141298294,0.9447842836380005,-0.022815953940153122,0.0054253567941486835
290.0,301.0,0.6072,-1.7246,7.6164,0.8932,-0.1191,-0.144,-1.7078548870482386,-0.14505068957805634,2.445762872695923,-1.828096866607666,-0.0028967203106731176,2.0327036380767822,4.969233351736822,0.00011284496576990932,0.2867441177368164,-1.3994181791888636,-0.49699217081069946,-0.2241147756576538,0.7631179094314575,-0.0,-0.032592009752988815,0.9445529580116272,-0.024005085229873657,0.011303156614303589
290.0,301.0,0.6072,-1.7246,7.6164,0.8932,-0.1191,-0.144,-1.7095257244505824,-0.1387958526611328,2.4465832710266113,-1.8280978202819824,0.0007756539853289723,2.0503525733947754,4.96926565745429,0.000122991536045447,0.28788983821868896,-1.4048922697650355,-0.4227202832698822,-0.1830313801765442,0.7631182670593262,-0.0,-0.023438651114702225,0.9442090392112732,-0.029754573479294777,-0.023670420050621033
290.0,301.0,0.6072,-1.7246,7.6164,0.8932,-0.1191,-0.144,-1.7108680210509242,-0.13920022547245026,2.4524004459381104,-1.8281099796295166,0.0007951114093884826,2.0288541316986084,4.969345974713125,0.0001336013519903645,0.2836766541004181,-1.4087098280536097,-0.3527471721172333,-0.1647903472185135,0.7631584405899048,-0.0,-0.03226687014102936,0.9438976049423218,-0.03486765921115875,-0.0898255854845047
290.0,301.0,0.6072,-1.7246,7.6164,0.8932,-0.1191,-0.144,-1.7122794590392054,-0.13034535944461823,2.4556002616882324,-1.8279966115951538,0.0004578293301165104,2.0509753227233887,4.969309913903036,0.00010125858534593135,0.2772892117500305,-1.4118035475360315,-0.27597755193710327,-0.1248910203576088,0.7631264925003052,-0.0,-0.044552918523550034,0.943590521812439,-0.03793055936694145,-0.06662297993898392
297.0,323.0,1.0499,-0.9482,9.1591,0.3887,-0.0973,-0.1549,-1.7135282955565394,-0.11795400828123093,2.514707565307617,-1.82805335521698,0.00017935172945726663,1.9821962118148804,4.969309913903036,5.905066427658312e-05,0.2842617332935333,-1.4142511526690882,-0.21049869060516357,-0.10614651441574097,0.7631101608276367,-0.0,-0.02642291784286499,0.943121612071991,-0.040457528084516525,-0.0849468931555748
297.0,323.0,1.0499,-0.9482,9.1591,0.3887,-0.0973,-0.1549,-1.7149607143797816,-0.11685506254434586,2.4868314266204834,-1.8280770778656006,-8.930658077588305e-05,2.044893264770508,4.969281661301412,2.4672919607837684e-05,0.27499791979789734,-1.4158952871905726,-0.10103525221347809,-0.043088145554065704,0.7631543874740601,-0.0,-0.02030753344297409,0.9426374435424805,-0.04085802659392357,-0.13781332969665527
297.0,323.0,1.0499,-0.9482,9.1591,0.3887,-0.0973,-0.1549,-1.7160707912840785,-0.12458136677742004,2.471303939819336,-1.8280130624771118,-5.915706680070798e-08,2.0044760704040527,4.969305741577902,4.3082483898615465e-05,0.2757319211959839,-1.4166811148272913,-0.05953165516257286,-0.03908170014619827,0.7631179690361023,-0.0,-0.020896684378385544,0.942218005657196,-0.04097072035074234,-0.09951946139335632
297.0,323.0,1.0499,-0.9482,9.1591,0.3887,-0.0973,-0.1549,-1.7172843418517054,-0.11332929879426956,2.4666895866394043,-1.827980875968933,0.0019706860184669495,2.045506477355957,4.96934591510848,7.040088530629873e-05,0.26140928268432617,-1.4168089071856897,0.020917434245347977,0.009800932370126247,0.7631822228431702,-0.0,-0.021354038268327713,0.941815197467804,-0.04484676942229271,-0.15187670290470123
297.0,323.0,1.0499,-0.9482,9.1591,0.3887,-0.0973,-0.1549,-1.718382020989889,-0.0906456932425499,2.440539598464966,-1.8280541896820068,0.0008656195132061839,2.0108649730682373,4.969285356789388,0.00015256242477335036,0.25457432866096497,-1.4164965788470667,0.03159087896347046,0.013189303688704967,0.7631060481071472,-0.0,-0.017552625387907028,0.9413392543792725,-0.048246968537569046,-0.16171593964099884
297.0,323.0,1.0499,-0.9482,9.1591,0.3887,-0.0973,-0.1549,-1.7195397816100062,-0.08756706863641739,2.4705021381378174,-1.8280854225158691,-0.0037073292769491673,1.9914300441741943,4.969301748066702,3.5072925896884044e-08,0.27252086997032166,-1.4163854757892054,-0.0037019297014921904,0.006802782882004976,0.7631257176399231,-0.0,-0.0069591510109603405,0.9406986832618713,-0.051256678998470306,-0.16987700760364532
297.0,323.0,1.0499,-0.9482,9.1591,0.3887,-0.0973,-0.1549,-1.7204767666258753,-0.1007860079407692,2.406501293182373,-1.8280649185180664,-0.0015872023068368435,2.0578980445861816,4.969273435860433,4.161982444881446e-14,0.26483261585235596,-1.4164212385760706,-0.0019756690599024296,-0.019540267065167427,0.7631621360778809,-0.0,-0.018148232251405716,0.9401833415031433,-0.0538875088095665,-0.1893101930618286
297.0,323.0,1.0499,-0.9482,9.1591,0.3887,-0.0973,-0.1549,-1.7213531933226527,-0.09983561933040619,2.448103427886963,-1.8280253410339355,0.004463436082005501,2.031582832336426,4.969305741577902,-4.725899998447858e-05,0.25882482528686523,-1.41642934480776,-0.00023686487111262977,0.005628350656479597,0.7631659507751465,-0.0,-0.0009110932005569339,0.9395840764045715,-0.05985613912343979,-0.1756439507007599
297.0,323.0,1.0499,-0.9482,9.1591,0.3887,-0.0973,-0.1549,-1.7223273716368617,-0.08854429423809052,2.4554271697998047,-1.8280417919158936,0.0025336730759590864,2.0276615619659424,4.969389426499166,-5.608061931505759e-11,0.2595987319946289,-1.416401211415426,-0.00014302239287644625,-1.2022792361676693e-05,0.7630975246429443,-0.0,0.0013339261058717966,0.9389644861221313,-0.06718526035547256,-0.19135615229606628
321.0,335.0,1.7354,-2.4479,8.8445,-0.1374,-0.1206,-0.1871,-1.7234884701170863,-0.08588124066591263,2.4805288314819336,-1.8280014991760254,-0.0013987257843837142,2.0352349281311035,4.969305354147711,-4.3451694179833975e-18,0.25767189264297485,-1.4164131323443812,-9.683144890004769e-05,-0.00329827843233943,0.7631420493125916,-0.0,-0.0001005837693810463,0.9381621479988098,-0.07506981492042542,-0.20151293277740479
321.0,335.0,1.7354,-2.4479,8.8445,-0.1374,-0.1206,-0.1871,-1.724361082116598,-0.08229736983776093,2.4405834674835205,-1.8280770778656006,-0.0025366446934640408,2.015232801437378,4.969269352942266,-5.156262300371403e-24,0.27674296498298645,-1.4164612928973597,-0.00011444708070484921,-0.005147839896380901,0.7631822228431702,-0.0,-0.011535171419382095,0.9373744130134583,-0.07740607112646103,-0.17914724349975586
321.0,335.0,1.7354,-2.4479,8.8445,-0.1374,-0.1206,-0.1871,-1.7251578770079554,-0.07950248569250107,2.5143985748291016,-1.8280214071273804,-0.0004272794467397034,2.0027363300323486,4.969325887947836,-6.118758050380431e-30,0.2994955778121948,-1.4164570013629358,-9.443432645639405e-05,-0.0104356799274683,0.7632020115852356,-0.0,0.0027571641840040684,0.9365341663360596,-0.08362064510583878,-0.19118312001228333
321.0,335.0,1.7354,-2.4479,8.8445,-0.1374,-0.1206,-0.1871,-1.7259146175780238,-0.07899849116802216,2.5624585151672363,-1.8280129432678223,0.0015034349635243416,2.037491798400879,4.96934591510848,7.096837362041697e-05,0.2896645963191986,-1.4164727369891565,-8.037669613258913e-05,0.0014047391014173627,0.7632139325141907,-2.3616346211952077e-08,-0.006017372943460941,0.9357677102088928,-0.09058438986539841,-0.21502555906772614
321.0,335.0,1.7354,-2.4479,8.8445,-0.1374,-0.1206,-0.1871,-1.7268601856627406,-0.08439388126134872,2.5603222846984863,-1.827957034111023,0.0013780052540823817,2.0325846672058105,4.969333666353979,0.00012078751024091616,0.28644150495529175,-1.4164813200580042,-4.953028110321611e-05,-0.008026735857129097,0.7631420493125916,-1.8298126651849957e-15,0.002737197792157531,0.934700071811676,-0.07814891636371613,-0.17127342522144318
321.0,335.0,1.7354,-2.4479,8.8445,-0.1374,-0.1206,-0.1871,-1.7277170620360316,-0.08477829396724701,2.5870630741119385,-1.8279612064361572,0.0017736731097102165,2.019911766052246,4.969317662506857,0.0003492725663818419,0.29950839281082153,-1.41642934480776,-8.649585652165115e-05,-0.017663098871707916,0.7631941437721252,-2.1713751592942317e-21,-0.010439075529575348,0.9340457320213318,-0.05941049009561539,-0.0950034111738205
321.0,335.0,1.7354,-2.4479,8.8445,-0.1374,-0.1206,-0.1871,-1.728605409661764,-0.08666427433490753,2.5792858600616455,-1.8279612064361572,0.001673189690336585,2.057037591934204,4.969297575741567,0.000263937225099653,0.30106261372566223,-1.4165170828448694,-0.0003076606662943959,-0.015739507973194122,0.7632020115852356,-2.576696087398844e-27,0.009541334584355354,0.9335103034973145,-0.04408165067434311,-0.1105068027973175
321.0,335.0,1.7354,-2.4479,8.8445,-0.1374,-0.1206,-0.1871,-1.7295195064940394,-0.08864182978868484,2.581411361694336,-1.827965259552002,0.0007267919718287885,2.048537254333496,4.96931357958869,0.00021209244732744992,0.3080088794231415,-1.4164813200580042,-0.00026990773039869964,-0.006185654550790787,0.7632261514663696,-3.0576758852207718e-33,-0.0022696321830153465,0.933142900466919,-0.037339720875024796,-0.10181266069412231
336.0,350.0,-0.1107,-1.3065,9.5815,-0.0553,-0.0119,-0.2332,-1.7306205234923304,-0.09597715735435486,2.583247184753418,-1.8280014991760254,1.5316242198137875e-13,2.0161004066467285,4.969285684614935,0.00017163842858280987,0.2998705506324768,-1.416497055684225,-0.00023805859382264316,-0.014198118820786476,0.7632302641868591,-2.369105248710752e-40,-0.010472195222973824,0.9326469898223877,-0.035843636840581894,-0.06479228287935257
336.0,350.0,-0.1107,-1.3065,9.5815,-0.0553,-0.0119,-0.2332,-1.7315694294371546,-0.10300646722316742,2.5758719444274902,-1.8279496431350708,-0.00036504643503576517,2.009798049926758,4.969313967018881,0.00014809955609962344,0.31373608112335205,-1.416520897542135,-0.00027306954143568873,-0.019541455432772636,0.7631781697273254,-0.0,0.0009833036456257105,0.9323109984397888,-0.03568912670016289,-0.05306697636842728
336.0,350.0,-0.1107,-1.3065,9.5815,-0.0553,-0.0119,-0.2332,-1.7325622044005335,-0.10398726910352707,2.5959877967834473,-1.8279529809951782,0.001460278406739235,2.1038572788238525,4.969321745425024,7.083524542395025e-05,0.3085833787918091,-1.4164894262896937,-0.0007454954902641475,-0.01984754204750061,0.7631904482841492,-0.0,-0.004487860947847366,0.9319242835044861,-0.04017653316259384,0.007857780903577805
336.0,350.0,-0.1107,-1.3065,9.5815,-0.0553,-0.0119,-0.2332,-1.7335711918272914,-0.10449258983135223,2.566100835800171,-1.8279372453689575,0.0008719951729290187,2.0687570571899414,4.969305741577902,5.0362090405542403e-05,0.29901838302612305,-1.4165328184710901,-0.0005852284375578165,-0.016285020858049393,0.7631740570068359,-0.0,0.00320542068220675,0.9314958453178406,-0.0477043054997921,0.024136099964380264
336.0,350.0,-0.1107,-1.3065,9.5815,-0.0553,-0.0119,-0.2332,-1.7347971401610316,-0.10508279502391815,2.619597911834717,-1.827937364578247,0.000551957287825644,2.044426441192627,4.969293582230367,2.1567688236245885e-05,0.2957060933113098,-1.4164851347552698,-0.00043181978981010616,-0.017682373523712158,0.7632060647010803,-0.0,0.011314820498228073,0.9308724403381348,-0.059720512479543686,0.04324741289019585
336.0,350.0,-0.1107,-1.3065,9.5815,-0.0553,-0.0119,-0.2332,-1.73588289837026,-0.11265399307012558,2.563528537750244,-1.8279578685760498,0.0004261249559931457,2.069467306137085,4.9693181095416925,7.526440026772718e-10,0.2998592257499695,-1.4165409247027796,-0.00031965001835487783,-0.012045503593981266,0.7631257176399231,-0.0,-0.0006313145277090371,0.9302090406417847,-0.07245886325836182,-0.03294926881790161
336.0,350.0,-0.1107,-1.3065,9.5815,-0.0553,-0.0119,-0.2332,-1.7370854816832484,-0.11998127400875092,2.5378246307373047,-1.8279248476028442,0.002053596079349518,2.0258736610412598,4.9693340239818475,8.931366329359967e-16,0.29296600818634033,-1.4165647665606897,-0.000451616826467216,-0.01672266237437725,0.7631700038909912,-0.0,0.0049535371363162994,0.9294168949127197,-0.07748524844646454,-0.0019021090120077133
336.0,350.0,-0.1107,-1.3065,9.5815,-0.0553,-0.0119,-0.2332,-1.7382499180235804,-0.12002761662006378,2.5683939456939697,-1.8278977870941162,0.006074515171349049,2.0328807830810547,4.9692976651485345,1.0598543413761726e-21,0.3000279664993286,-1.4165247122394007,-0.0004520849324762821,-0.041379719972610474,0.7631941437721252,-0.0,-0.012187832966446877,0.9286060333251953,-0.08282466232776642,0.03112116828560829
336.0,350.0,-0.1107,-1.3065,9.5815,-0.0553,-0.0119,-0.2332,-1.7397290668883265,-0.11830413341522217,2.585397481918335,-1.8278098106384277,0.004757191985845566,2.0319740772247314,4.96934192159728,8.211831856245552e-29,0.2881886661052704,-1.416520897542135,-0.0003444157773628831,-0.0331617034971714,0.763185977935791,-0.0,-0.0015999339520931244,0.9276270270347595,-0.08213037252426147,-0.0025154787581413984
381.0,388.0,0.7501,-0.5426,9.125,-0.0221,-0.1002,-0.2269,-1.7409817181029261,-0.13726721704006195,2.5031394958496094,-1.8277817964553833,0.0015558090526610613,2.0624823570251465,4.969341772585668,9.744697787691805e-35,0.3031780421733856,-1.416537110005514,-0.00027792685432359576,-0.03545338660478592,0.7631700038909912,-0.0,-0.0010648469906300306,0.9267475008964539,-0.07872427999973297,0.05426282063126564
381.0,388.0,0.7501,-0.5426,9.125,-0.0221,-0.1002,-0.2269,-1.742387434045309,-0.150241419672966,2.576686382293701,-1.8276938199996948,0.0008541903225705028,2.0253124237060547,4.9693254111106775,1.1563655057454823e-40,0.30482107400894165,-1.416537110005514,-0.00023295817663893104,-0.04033338651061058,0.763202428817749,-0.0,-0.007567469030618668,0.9259964823722839,-0.08748597651720047,-0.006115437019616365
381.0,388.0,0.7501,-0.5426,9.125,-0.0221,-0.1002,-0.2269,-1.7438861332335414,-0.14505095779895782,2.556532859802246,-1.8276337385177612,0.008700498379766941,2.018697738647461,4.969381260662832,0.0012929021613672376,0.2981244921684265,-1.4165690580951136,-0.0002005162968998775,-0.01397630013525486,0.7631781101226807,-0.0,0.0011372989974915981,0.9250364303588867,-0.10457642376422882,-0.02824271470308304
381.0,388.0,0.7501,-0.5426,9.125,-0.0221,-0.1002,-0.2269,-1.7457319698729457,-0.1470106989145279,2.5922040939331055,-1.8275704383850098,0.010521447286009789,2.0769283771514893,4.9693376300628564,0.00066584866726771,0.31742042303085327,-1.4165566603290003,-0.00016189710004255176,-0.016388515010476112,0.7631781101226807,-0.0,0.012754288502037525,0.9237418174743652,-0.11425050348043442,-0.013700680807232857
381.0,388.0,0.7501,-0.5426,9.125,-0.0221,-0.1002,-0.2269,-1.7473017177977503,-0.16602806746959686,2.5563974380493164,-1.8274141550064087,0.011693397536873817,2.0448195934295654,4.969417798310079,0.0004551938909571618,0.3006863594055176,-1.4165566603290003,-0.00016436303849332035,-0.022943655028939247,0.7632138729095459,-0.0,0.0006921401363797486,0.9225676655769348,-0.11967981606721878,-0.046141404658555984
381.0,388.0,0.7501,-0.5426,9.125,-0.0221,-0.1002,-0.2269,-1.7489758930602015,-0.17100827395915985,2.5626163482666016,-1.8272790908813477,0.01757299341261387,2.064166307449341,4.969401317625799,0.0003343406424392015,0.31584101915359497,-1.4164932409869593,-0.00014539588300976902,-0.03556161746382713,0.7632138729095459,-0.0,0.007517274469137192,0.921291708946228,-0.11670999974012375,-0.061664700508117676
381.0,388.0,0.7501,-0.5426,9.125,-0.0221,-0.1002,-0.2269,-1.750641485253805,-0.14810903370380402,2.603210926055908,-1.8269585371017456,0.025846457108855247,2.0646543502807617,4.969409602671423,0.0009394356166012585,0.3005431890487671,-1.4165251890765589,-0.00013035343727096915,-0.03459585830569267,0.7632060647010803,-0.0,-0.0032117317896336317,0.9200927019119263,-0.13028942048549652,-0.07347968965768814
381.0,388.0,0.7501,-0.5426,9.125,-0.0221,-0.1002,-0.2269,-1.752676626245016,-0.1697324961423874,2.5622873306274414,-1.8267271518707275,0.025081509724259377,2.087275981903076,4.969373094826498,0.0004621753469109535,0.3077733814716339,-1.4165566603290003,-0.00013142086390871555,-0.029905423521995544,0.763225793838501,-0.0,-0.003344211494550109,0.9184897541999817,-0.13820569217205048,-0.055988799780607224
381.0,388.0,0.7501,-0.5426,9.125,-0.0221,-0.1002,-0.2269,-1.7544590435423792,-0.18496045470237732,2.5836167335510254,-1.8264597654342651,0.025388143956661224,2.064823627471924,4.969445693283834,0.00038328758091665804,0.2884911894798279,-1.416565243397848,-0.00019667635206133127,-0.022680100053548813,0.7632217407226562,-0.0,-0.005924178287386894,0.9170541167259216,-0.1405736654996872,-0.039169713854789734
467.0,537.0,0.274,-3.0263,9.6473,-0.0912,-0.1028,-0.2237,-1.7561527691283167,-0.16086606681346893,2.5579376220703125,-1.8261364698410034,0.035072363913059235,2.115123748779297,4.969449686795034,0.0007761369342915714,0.2986539304256439,-1.416593376790182,-0.0013524595415219665,-0.03105887398123741,0.7632179856300354,-0.0,0.0009947665967047215,0.9155999422073364,-0.13614383339881897,-0.020116986706852913
467.0,537.0,0.274,-3.0263,9.6473,-0.0912,-0.1028,-0.2237,-1.7577749691405238,-0.1544688642024994,2.578925132751465,-1.8257852792739868,0.0427941270172596,2.1389620304107666,4.96939309218482,0.00046131660928949714,0.29888609051704407,-1.4165971914874476,-0.0010436286684125662,-0.03251686692237854,0.7631576657295227,-0.0,-0.00016687740571796894,0.9142615795135498,-0.13658499717712402,-0.02581823617219925
467.0,537.0,0.274,-3.0263,9.6473,-0.0912,-0.1028,-0.2237,-1.7597981892027796,-0.17788958549499512,2.578883647918701,-1.8252298831939697,0.05089884623885155,2.159860134124756,4.969393181591787,0.00017131774802692235,0.29154327511787415,-1.4166248480426233,-0.0006212863372638822,-0.03697332367300987,0.7632418870925903,2.249658142064459e-12,-0.007395712658762932,0.912703812122345,-0.13033601641654968,-0.019863499328494072
467.0,537.0,0.274,-3.0263,9.6473,-0.0912,-0.1028,-0.2237,-1.7614714107909144,-0.16794362664222717,2.5779261589050293,-1.8246111869812012,0.07083321362733841,2.169664144515991,4.969461577921667,0.00017338385805487633,0.29551661014556885,-1.4165852705584925,-0.0003918006841558963,-0.04792504757642746,0.763237714767456,2.66959121696051e-18,0.002066396875306964,0.9113721251487732,-0.12995480000972748,0.049284789711236954
467.0,537.0,0.274,-3.0263,9.6473,-0.0912,-0.1028,-0.2237,-1.7630206547179164,-0.15596571564674377,2.658193588256836,-1.8237203359603882,0.09346304088830948,2.242691993713379,4.969433325320043,0.00013973268505651504,0.3054914176464081,-1.416589085255758,-0.0007770714582875371,-0.030800115317106247,0.7632097601890564,3.1679117647062916e-24,0.011197264306247234,0.910166323184967,-0.12504197657108307,0.05469129979610443
467.0,537.0,0.274,-3.0263,9.6473,-0.0912,-0.1028,-0.2237,-1.7646714649596156,-0.1592159867286682,2.6647753715515137,-1.8226737976074219,0.11583444476127625,2.260200262069702,4.969437467842855,0.00011701911716954783,0.2982954978942871,-1.4166048208819788,-0.002586615039035678,-0.04670298099517822,0.763282060623169,3.75925162263025e-30,-0.008045830763876438,0.9089019298553467,-0.11231692135334015,0.02632683888077736
467.0,537.0,0.274,-3.0263,9.6473,-0.0912,-0.1028,-0.2237,-1.7665296993651332,-0.16096286475658417,2.6052141189575195,-1.8211766481399536,0.12943677604198456,2.2661263942718506,4.969389426499166,7.343984179897234e-05,0.30278879404067993,-1.4166773001300257,-0.004298527725040913,-0.054668255150318146,0.7631658911705017,2.9126986305497922e-37,-0.0018207549583166838,0.9076810479164124,-0.096409372985363,0.10483310371637344
467.0,537.0,0.274,-3.0263,9.6473,-0.0912,-0.1028,-0.2237,-1.7680069408812464,-0.15276724100112915,2.6318955421447754,-1.8197755813598633,0.1497403383255005,2.2992055416107178,4.969401287823477,8.614744729129598e-05,0.3119581341743469,-1.416696850453512,-0.0014013946056365967,-0.05452864617109299,0.763225793838501,3.461207206882298e-43,0.0008532360661774874,0.9067820310592651,-0.09069440513849258,0.136908620595932
764.0,771.0,1.4333,-1.6672,10.4219,-0.0606,-0.0002,-0.2753,-1.7694808445372523,-0.1439027488231659,2.6746883392333984,-1.8181254863739014,0.17621055245399475,2.3237271308898926,4.9694054303462885,5.805584441986866e-05,0.28696462512016296,-1.4166167418109339,-0.0007088393904268742,-0.05194783955812454,0.7632217407226562,0.0,-0.005370616912841797,0.905958890914917,-0.08318450301885605,0.13163013756275177
764.0,771.0,1.4333,-1.6672,10.4219,-0.0606,-0.0002,-0.2753,-1.7709070644774378,-0.1384669840335846,2.6605238914489746,-1.8162527084350586,0.19543734192848206,2.3874597549438477,4.969385283976354,-3.788443427765742e-05,0.31452569365501404,-1.4167011419879358,-0.0005141537403687835,-0.06873099505901337,0.7632662653923035,0.0,0.00841071829199791,0.9052274823188782,-0.07621542364358902,0.10387423634529114
764.0,771.0,1.4333,-1.6672,10.4219,-0.0606,-0.0002,-0.2753,-1.7725769482054652,-0.15207591652870178,2.6435718536376953,-1.8137134313583374,0.21817193925380707,2.3865573406219482,4.9694251892860315,-5.0486491090850905e-05,0.28520411252975464,-1.416696850453512,-0.0002458335948176682,-0.05173562839627266,0.763258159160614,0.0,-0.008830081671476364,0.9043163657188416,-0.07289071381092072,0.17081701755523682
764.0,771.0,1.4333,-1.6672,10.4219,-0.0606,-0.0002,-0.2753,-1.7740699253477992,-0.15438199043273926,2.613081455230713,-1.8112891912460327,0.24438589811325073,2.380876064300537,4.969401317625799,-4.6169869165169075e-05,0.2894381880760193,-1.4166930357562464,-0.0002112255897372961,-0.059407446533441544,0.7632500529289246,0.0,0.007042932324111462,0.9036411046981812,-0.06420648097991943,0.1538318544626236
764.0,771.0,1.4333,-1.6672,10.4219,-0.0606,-0.0002,-0.2753,-1.7755643330016078,-0.14113037288188934,2.6955442428588867,-1.8086820840835571,0.26797398924827576,2.423097848892212,4.969397264509954,-2.859777850972023e-05,0.28529688715934753,-1.4166730085956019,-0.00019021620391868055,-0.05416344851255417,0.7632217407226562,0.0,-0.002428318839520216,0.9030532240867615,-0.048360247164964676,0.19631068408489227
764.0,771.0,1.4333,-1.6672,10.4219,-0.0606,-0.0002,-0.2753,-1.7770387134947718,-0.14069797098636627,2.7143096923828125,-1.8058667182922363,0.2962035536766052,2.439502716064453,4.9694096622760675,-6.209086859598756e-05,0.28768521547317505,-1.4166730085956019,-0.0001617282396182418,-0.06434103846549988,0.7632377743721008,0.0,-0.005503918509930372,0.9026544094085693,-0.033213190734386444,0.19773080945014954
764.0,771.0,1.4333,-1.6672,10.4219,-0.0606,-0.0002,-0.2753,-1.778921743432516,-0.17418190836906433,2.669203758239746,-1.8021966218948364,0.31638437509536743,2.521005630493164,4.969349580794134,-0.0007433326099999249,0.2919185161590576,-1.4166525045977991,-0.00013709114864468575,-0.049883171916007996,0.7632057666778564,0.0,-0.004521282389760017,0.9023709297180176,-0.02142847143113613,0.24752725660800934
764.0,771.0,1.4333,-1.6672,10.4219,-0.0606,-0.0002,-0.2753,-1.7806765041747035,-0.1709214746952057,2.654832363128662,-1.7988982200622559,0.3474524915218353,2.542189359664917,4.969421791821279,-0.00011158570123370737,0.2794213593006134,-1.416684929524557,-0.00012164880899945274,-0.052574820816516876,0.7631938457489014,0.0,0.008977385237812996,0.9021064043045044,-0.017077673226594925,0.20218397676944733
764.0,771.0,1.4333,-1.6672,10.4219,-0.0606,-0.0002,-0.2753,-1.782398363152975,-0.15979880094528198,2.702784776687622,-1.7953213453292847,0.376442551612854,2.500662326812744,4.969325440913,-0.0001878947950899601,0.27851754426956177,-1.4166606108294886,-0.00010933334124274552,-0.0509791225194931,0.7631740570068359,0.0,-0.0025751010980457067,0.9019830226898193,-0.012014416046440601,0.217117041349411
853.0,733.0,1.1354,-2.2744,9.5169,-0.0583,0.1663,-0.1182,-1.784201284448141,-0.19364015758037567,2.6781301498413086,-1.7914279699325562,0.3951089680194855,2.559243679046631,4.969269382744589,-0.0027349439915269613,0.283966064453125,-1.4166730085956019,-9.928223880706355e-05,-0.06850757449865341,0.7632179856300354,0.0,-0.004588233307003975,0.9019191265106201,-0.004525036085397005,0.22182944416999817
853.0,733.0,1.1354,-2.2744,9.5169,-0.0583,0.1663,-0.1182,-1.7863055668272914,-0.21413612365722656,2.6016616821289062,-1.7874195575714111,0.4175224304199219,2.595252752304077,4.969305741577902,-0.0007939921924844384,0.27509188652038574,-1.4166324774371546,-0.00010607766307657585,-0.054191954433918,0.7631978988647461,0.0,0.0005372671876102686,0.9018993377685547,-0.0026059169322252274,0.2923990488052368
853.0,733.0,1.1354,-2.2744,9.5169,-0.0583,0.1663,-0.1182,-1.7888485393919886,-0.21184401214122772,2.5817580223083496,-1.7822579145431519,0.43557634949684143,2.612177848815918,4.96928163149909,-0.0005271356785669923,0.24915072321891785,-1.4166525045977991,-9.465841867495328e-05,-0.08624088764190674,0.7632138729095459,0.0,0.0032528983429074287,0.9018834829330444,-0.0011723111383616924,0.3559339642524719
853.0,733.0,1.1354,-2.2744,9.5169,-0.0583,0.1663,-0.1182,-1.7911645374693812,-0.24014732241630554,2.4913077354431152,-1.777786135673523,0.44357728958129883,2.620823621749878,4.969273823290624,-0.0013838671147823334,0.26288384199142456,-1.4167011419879358,-0.00013347744243219495,-0.08431442081928253,0.7632176876068115,0.0,0.0003769015893340111,0.9018592834472656,-0.0004069132264703512,0.407783567905426
853.0,733.0,1.1354,-2.2744,9.5169,-0.0583,0.1663,-0.1182,-1.7935272655882777,-0.2516869306564331,2.5171329975128174,-1.7732698917388916,0.45469310879707336,2.603834867477417,4.969257819443502,-0.0008520168485119939,0.24096213281154633,-1.4166892210589808,-0.0006776030058972538,-0.08322983980178833,0.7632019519805908,0.0,0.0046574571169912815,0.9018674492835999,-0.00015371643530670553,0.40824222564697266
853.0,733.0,1.1354,-2.2744,9.5169,-0.0583,0.1663,-0.1182,-1.7961236439146937,-0.26643455028533936,2.573064088821411,-1.7686325311660767,0.46709510684013367,2.5772581100463867,4.969257819443502,-0.0008082832209765911,0.2489001750946045,-1.416724983845846,-0.0007512847660109401,-0.10315761715173721,0.7632098197937012,0.0,-0.00011586025357246399,0.9018229842185974,-0.00016185914864763618,0.4882931709289551
853.0,733.0,1.1354,-2.2744,9.5169,-0.0583,0.1663,-0.1182,-1.7993399105467738,-0.2736755609512329,2.4946813583374023,-1.7629469633102417,0.4828425347805023,2.6564745903015137,4.969233739167013,-0.0005429656594060361,0.24543145298957825,-1.4167326132403772,-0.0006656317855231464,-0.10390421748161316,0.7632299065589905,0.0,-0.005978474859148264,0.9018392562866211,-0.00012909526412840933,0.5240311622619629
853.0,733.0,1.1354,-2.2744,9.5169,-0.0583,0.1663,-0.1182,-1.8021522961058558,-0.28760841488838196,2.5541787147521973,-1.758070707321167,0.49386197328567505,2.6989212036132812,4.96923782208518,-0.0008405923726968467,0.24621891975402832,-1.416765038167135,-0.0005376404733397067,-0.08853554725646973,0.7632220387458801,0.0,-0.00845793541520834,0.9018270373344421,-3.3081681838353916e-09,0.45957764983177185
601.0,406.0,0.3876,-2.0243,9.3194,-0.0455,0.2246,-0.0797,-1.8051377735533656,-0.30865278840065,2.49934983253479,-1.7531206607818604,0.508009135723114,2.692356824874878,4.969225901156225,-0.0006139551405794919,0.2420463263988495,-1.4167125860797327,-0.00048176603741012514,-0.09992199391126633,0.7632019519805908,0.0,4.893587902188301e-05,0.9018633365631104,-1.4379622982609046e-18,0.5449486970901489
601.0,406.0,0.3876,-2.0243,9.3194,-0.0455,0.2246,-0.0797,-1.8082739315428675,-0.31500205397605896,2.4979143142700195,-1.7479056119918823,0.5113161206245422,2.6673455238342285,4.969233739167013,-0.00047042188816703856,0.23457127809524536,-1.4167326132403772,-0.0003612751024775207,-0.09987805783748627,0.76319819688797,0.0,-0.008303508162498474,0.9018560647964478,-0.0018755501369014382,0.4904366135597229
601.0,406.0,0.3876,-2.0243,9.3194,-0.0455,0.2246,-0.0797,-1.8122607670226039,-0.32609981298446655,2.505491018295288,-1.7416070699691772,0.5283607840538025,2.6584155559539795,4.9692455408866785,0.00019365693151485175,0.2215529978275299,-1.4167044798480433,-0.00022997079940978438,-0.09567955136299133,0.7631900310516357,0.0,-0.00011514383368194103,0.9018032550811768,-0.0009227858390659094,0.4996170699596405
601.0,406.0,0.3876,-2.0243,9.3194,-0.0455,0.2246,-0.0797,-1.8155528507628382,-0.33301469683647156,2.49505615234375,-1.736308217048645,0.5342207551002502,2.6380391120910645,4.969257402210989,0.00012804621655959636,0.23171618580818176,-1.4167287985431116,-0.00018315720080863684,-0.09702469408512115,0.763210117816925,0.0,0.0005917968228459358,0.9017717838287354,-0.006482277996838093,0.4507294297218323
