ramyac6/ROB537/final_project/csv/test/good/good_110.csv
tof_0,tof_1,accelx,accely,accelz,gyrox,gyroy,gyroz,shoulder_lift_joint_position,shoulder_lift_joint_velocity,shoulder_lift_joint_effort,elbow_joint_position,elbow_joint_velocity,elbow_joint_effort,wrist_1_joint_position,wrist_1_joint_velocity,wrist_1_joint_effort,wrist_2_joint_position,wrist_2_joint_velocity,wrist_2_joint_effort,wrist_3_joint_position,wrist_3_joint_velocity,wrist_3_joint_effort,shoulder_pan_joint_position,shoulder_pan_joint_velocity,shoulder_pan_joint_effort
857.0,807.0,4.785,0.7513,7.8855,-0.0347,0.0231,-0.1214,-1.6806231937804164,0.0,2.6585450172424316,-1.5688289403915405,-0.0,2.206151008605957,4.243968172664307,0.0,0.29256194829940796,-1.6661079565631312,-0.0,0.007981210015714169,0.7745513319969177,-0.0,-0.013268638402223587,0.7459340691566467,0.0,0.007855726405978203
857.0,807.0,4.785,0.7513,7.8855,-0.0347,0.0231,-0.1214,-1.6805507145323695,0.0,2.6588406562805176,-1.568812608718872,-0.0,2.2226505279541016,4.243940039271973,0.0,0.2976146936416626,-1.666152302418844,-0.0,-0.013047431595623493,0.7746034264564514,-0.0,-0.01430684607475996,0.7459661960601807,0.0,0.022615615278482437
857.0,807.0,4.785,0.7513,7.8855,-0.0347,0.0231,-0.1214,-1.6806069813170375,0.0,2.673497200012207,-1.568865180015564,-0.0,2.194288492202759,4.243915243739746,0.0,0.2974367141723633,-1.6661518255816858,-0.0,-0.004164704121649265,0.7745952010154724,-0.0,-0.007652620784938335,0.7459340691566467,0.0,-0.019877612590789795
857.0,807.0,4.785,0.7513,7.8855,-0.0347,0.0231,-0.1214,-1.680598875085348,0.0,2.6541409492492676,-1.5687841176986694,-0.0,2.179861545562744,4.243927641505859,0.0,0.28653082251548767,-1.666140381489889,-0.0,-0.000731582404114306,0.7745513319969177,-0.0,-0.010691369883716106,0.7459582090377808,0.0,0.0539933480322361
857.0,807.0,4.785,0.7513,7.8855,-0.0347,0.0231,-0.1214,-1.6806274853148402,0.0,2.653481960296631,-1.5688000917434692,-0.0,2.2044577598571777,4.243931933040283,0.0,0.29421761631965637,-1.6661437193499964,-0.0,-0.0048183295875787735,0.774579644203186,-0.0,-0.0075911786407232285,0.7459621429443359,0.0,-0.025785865262150764
857.0,807.0,4.785,0.7513,7.8855,-0.0347,0.0231,-0.1214,-1.6806193790831507,0.0,2.6616907119750977,-1.5688403844833374,-0.0,2.1862523555755615,4.2439562517353515,0.0,0.2745278477668762,-1.6661279837237757,-0.0,0.007557885721325874,0.7745431661605835,-0.0,-0.009132440201938152,0.7459459900856018,0.0,0.022721339017152786
857.0,807.0,4.785,0.7513,7.8855,-0.0347,0.0231,-0.1214,-1.6806112728514613,0.0,2.6721558570861816,-1.5688527822494507,-0.0,2.17989444732666,4.243959589595459,0.0,0.28513363003730774,-1.6661556402789515,-0.0,0.006412112154066563,0.7745874524116516,-0.0,-0.002631537150591612,0.7459220290184021,0.0,0.009263718500733376
857.0,807.0,4.785,0.7513,7.8855,-0.0347,0.0231,-0.1214,-1.6806112728514613,0.0,2.676462173461914,-1.5687919855117798,-0.0,2.2155346870422363,4.243939562434814,0.0,0.29962223768234253,-1.6661117712603968,-0.0,-0.005063170567154884,0.7746038436889648,-0.0,-0.004547020886093378,0.74598628282547,0.0,0.014478415250778198
872.0,795.0,4.8694,0.725,7.8963,-0.0399,0.0215,-0.1237,-1.680570741693014,0.0,2.6797845363616943,-1.5688364505767822,-0.0,2.220402956008911,4.24398057043042,0.0,0.28497314453125,-1.6660917440997522,-0.0,-0.004427878186106682,0.7745553851127625,-0.0,-0.0053423987701535225,0.745942234992981,0.0,-0.022483862936496735
872.0,795.0,4.8694,0.725,7.8963,-0.0399,0.0215,-0.1237,-1.6806112728514613,0.0,2.6649255752563477,-1.5688000917434692,-0.0,2.2112929821014404,4.243915243739746,0.0,0.3038318455219269,-1.6661599318133753,-0.0,-0.01401294581592083,0.7745553851127625,-0.0,-0.004838981200009584,0.7459500432014465,0.0,0.04832475632429123
872.0,795.0,4.8694,0.725,7.8963,-0.0399,0.0215,-0.1237,-1.680570741693014,0.0,2.6632566452026367,-1.5688281059265137,-0.0,2.2101619243621826,4.243988676662109,0.0,0.281948983669281,-1.6661117712603968,-0.0,-0.0039979200810194016,0.7745473384857178,-0.0,-0.012972726486623287,0.7459620833396912,0.0,-0.01996888592839241
872.0,795.0,4.8694,0.725,7.8963,-0.0399,0.0215,-0.1237,-1.6806069813170375,0.0,2.6515445709228516,-1.5687841176986694,-0.0,2.1776907444000244,4.243940039271973,0.0,0.28568780422210693,-1.6661847273456019,-0.0,-0.010369053110480309,0.7745553851127625,-0.0,-0.020084336400032043,0.7459582090377808,0.0,0.014378847554326057
872.0,795.0,4.8694,0.725,7.8963,-0.0399,0.0215,-0.1237,-1.6806031666197718,0.0,2.6761064529418945,-1.5688445568084717,-0.0,2.2017674446105957,4.2439562517353515,0.0,0.2922855019569397,-1.6661518255816858,-0.0,0.003421264234930277,0.7745915055274963,-0.0,0.0014835195615887642,0.7459743618965149,0.0,-0.02598731964826584
872.0,795.0,4.8694,0.725,7.8963,-0.0399,0.0215,-0.1237,-1.6805912456908167,0.0,2.6313045024871826,-1.5687557458877563,-0.0,2.1945738792419434,4.243968172664307,0.0,0.2887994050979614,-1.6661279837237757,-0.0,0.002648851601406932,0.7746280431747437,-0.0,0.013826400972902775,0.7459299564361572,0.0,0.000556284561753273
872.0,795.0,4.8694,0.725,7.8963,-0.0399,0.0215,-0.1237,-1.680598875085348,0.0,2.6437971591949463,-1.5688042640686035,-0.0,2.15820050239563,4.243951960200928,0.0,0.2807587683200836,-1.666152302418844,-0.0,-0.001276504248380661,0.7745431661605835,-0.0,-0.015685494989156723,0.7459381818771362,0.0,0.0182349756360054
872.0,795.0,4.8694,0.725,7.8963,-0.0399,0.0215,-0.1237,-1.6806112728514613,0.0,2.6801681518554688,-1.5687923431396484,-0.0,2.2118847370147705,4.2439562517353515,0.0,0.29708144068717957,-1.6661642233477991,-0.0,0.001427638460882008,0.774523138999939,-0.0,0.008133373223245144,0.7459301948547363,0.0,0.0075667970813810825
872.0,795.0,4.8694,0.725,7.8963,-0.0399,0.0215,-0.1237,-1.680615564385885,0.0,2.657358407974243,-1.56877601146698,-0.0,2.1515753269195557,4.243903799647949,0.0,0.2833651602268219,-1.6661317984210413,-0.0,-0.009288097731769085,0.774555504322052,-0.0,-0.010335632599890232,0.7459463477134705,0.0,-0.018489152193069458
872.0,795.0,4.8694,0.725,7.8963,-0.0399,0.0215,-0.1237,-1.680598875085348,0.0,2.6739578247070312,-1.5688248872756958,-0.0,2.1954331398010254,4.243968172664307,0.0,0.27486053109169006,-1.6661766211139124,-0.0,0.016264883801341057,0.7745472192764282,-0.0,-0.006754079833626747,0.7459463477134705,0.0,-0.055799420922994614
872.0,795.0,4.8694,0.725,7.8963,-0.0399,0.0215,-0.1237,-1.680582662621969,0.0,2.6404881477355957,-1.5688363313674927,-0.0,2.1735892295837402,4.2439562517353515,0.0,0.28211209177970886,-1.6661556402789515,-0.0,-0.003428554628044367,0.7746239900588989,-0.0,-0.02574838139116764,0.7459623217582703,0.0,0.04365968704223633
872.0,795.0,4.8694,0.725,7.8963,-0.0399,0.0215,-0.1237,-1.680598875085348,0.0,2.6493020057678223,-1.5688248872756958,-0.0,2.215928792953491,4.243908091182373,0.0,0.28293684124946594,-1.6661480108844202,-0.0,-0.0008709506946615875,0.7745513319969177,-0.0,-0.007709885481745005,0.745934247970581,0.0,0.02511328086256981
872.0,795.0,4.8694,0.725,7.8963,-0.0399,0.0215,-0.1237,-1.680570741693014,0.0,2.6582260131835938,-1.5687804222106934,-0.0,2.2059528827667236,4.243951960200928,0.0,0.2914825975894928,-1.6661556402789515,-0.0,0.0003105731448158622,0.7745309472084045,-0.0,0.0020120753906667233,0.7459381818771362,0.0,-0.030736848711967468
872.0,795.0,4.8694,0.725,7.8963,-0.0399,0.0215,-0.1237,-1.6806031666197718,0.0,2.6478586196899414,-1.568772315979004,-0.0,2.2127089500427246,4.243968172664307,0.0,0.29530632495880127,-1.666187588368551,-0.0,-0.005794547498226166,0.7745431661605835,-0.0,-0.011045116931200027,0.74598628282547,0.0,-0.014595704153180122
872.0,795.0,4.8694,0.725,7.8963,-0.0399,0.0215,-0.1237,-1.680615564385885,0.0,2.690340042114258,-1.5688486099243164,-0.0,2.204041004180908,4.243940039271973,0.0,0.28853410482406616,-1.666135613118307,-0.0,-0.0005314082955010235,0.7745956778526306,-0.0,-0.0018374747596681118,0.7459179162979126,0.0,0.020968755707144737
912.0,824.0,4.8168,0.7202,8.2235,-0.04,0.0273,-0.1177,-1.6806274853148402,0.0,2.667792320251465,-1.568812370300293,-0.0,2.1813552379608154,4.24391953527417,0.0,0.28103435039520264,-1.6661437193499964,-0.0,0.0018705902621150017,0.7745915055274963,-0.0,-0.012451785616576672,0.7459178566932678,0.0,-0.005727692507207394
912.0,824.0,4.8168,0.7202,8.2235,-0.04,0.0273,-0.1177,-1.680598875085348,0.0,2.648942470550537,-1.5688166618347168,-0.0,2.2172951698303223,4.243940039271973,0.0,0.27794259786605835,-1.6661437193499964,-0.0,-0.005465542897582054,0.7745837569236755,-0.0,-0.019263941794633865,0.7459621429443359,0.0,-0.016629671677947044
912.0,824.0,4.8168,0.7202,8.2235,-0.04,0.0273,-0.1177,-1.680558820764059,0.0,2.6831417083740234,-1.5687841176986694,-0.0,2.1907949447631836,4.243971987361572,0.0,0.29709160327911377,-1.6661890188800257,-0.0,-0.012803218327462673,0.7745677828788757,-0.0,-0.004873787518590689,0.7459903955459595,0.0,0.022504080086946487
912.0,824.0,4.8168,0.7202,8.2235,-0.04,0.0273,-0.1177,-1.6806112728514613,0.0,2.692365884780884,-1.5688083171844482,-0.0,2.2087478637695312,4.243951960200928,0.0,0.2872253656387329,-1.6661961714373987,-0.0,-0.001068604295141995,0.7745956182479858,-0.0,-0.00037861079908907413,0.7459340691566467,0.0,0.024197909981012344
912.0,824.0,4.8168,0.7202,8.2235,-0.04,0.0273,-0.1177,-1.680615564385885,0.0,2.6635546684265137,-1.5687919855117798,-0.0,2.1766128540039062,4.243968172664307,0.0,0.29400497674942017,-1.6661399046527308,-0.0,0.00667191669344902,0.7745874524116516,-0.0,-0.008899306878447533,0.7459381818771362,0.0,-0.0029665303882211447
912.0,824.0,4.8168,0.7202,8.2235,-0.04,0.0273,-0.1177,-1.6806031666197718,0.0,2.6700377464294434,-1.5687681436538696,-0.0,2.1592047214508057,4.243907137508057,0.0,0.2936028838157654,-1.6661480108844202,-0.0,-0.0022014041896909475,0.7745833396911621,-0.0,-0.003759934101253748,0.7459500432014465,0.0,0.009657582268118858
912.0,824.0,4.8168,0.7202,8.2235,-0.04,0.0273,-0.1177,-1.680615564385885,0.0,2.7164697647094727,-1.5687841176986694,-0.0,2.162682294845581,4.243931933040283,0.0,0.28142741322517395,-1.6661518255816858,-0.0,-0.002536498475819826,0.7745350003242493,-0.0,-0.005887274630367756,0.745954155921936,0.0,0.009805251844227314
912.0,824.0,4.8168,0.7202,8.2235,-0.04,0.0273,-0.1177,-1.680615564385885,0.0,2.6890482902526855,-1.568820834159851,-0.0,2.1921849250793457,4.243943853969238,0.0,0.28584563732147217,-1.6661599318133753,-0.0,0.002952764742076397,0.7745673656463623,-0.0,-0.01893996261060238,0.7460146546363831,0.0,0.03438423573970795
912.0,824.0,4.8168,0.7202,8.2235,-0.04,0.0273,-0.1177,-1.6806236706175746,0.0,2.6284162998199463,-1.5688363313674927,-0.0,2.1970808506011963,4.243971987361572,0.0,0.29485705494880676,-1.666191879902975,-0.0,-0.009856952354311943,0.7745956778526306,-0.0,-0.01766609586775303,0.7459462881088257,0.0,0.006437485106289387
912.0,824.0,4.8168,0.7202,8.2235,-0.04,0.0273,-0.1177,-1.680615564385885,0.0,2.6668496131896973,-1.5687845945358276,-0.0,2.2309892177581787,4.243964357967041,0.0,0.2890814542770386,-1.666152302418844,-0.0,-0.011600537225604057,0.7745513319969177,-0.0,-0.002373853698372841,0.7459867000579834,0.0,-0.008483908139169216
912.0,824.0,4.8168,0.7202,8.2235,-0.04,0.0273,-0.1177,-1.680558820764059,0.0,2.6520557403564453,-1.5688248872756958,-0.0,2.193418502807617,4.243960066432617,0.0,0.2833159565925598,-1.6661556402789515,-0.0,-0.0032423012889921665,0.7745431661605835,-0.0,-0.015795573592185974,0.7459621429443359,0.0,0.03236304223537445
912.0,824.0,4.8168,0.7202,8.2235,-0.04,0.0273,-0.1177,-1.680615564385885,0.0,2.6571216583251953,-1.5688331127166748,-0.0,2.1891427040100098,4.24389569341626,0.0,0.2912953197956085,-1.666152302418844,-0.0,-6.724987179040909e-05,0.7745391130447388,-0.0,-0.0019224572461098433,0.7459298968315125,0.0,0.03194056451320648
912.0,824.0,4.8168,0.7202,8.2235,-0.04,0.0273,-0.1177,-1.6806313000121058,0.0,2.6245031356811523,-1.5688321590423584,-0.0,2.209315061569214,4.243940039271973,0.0,0.2912381589412689,-1.666168514882223,-0.0,-0.0038209932390600443,0.7745873928070068,-0.0,0.0060989586636424065,0.7459260821342468,0.0,0.0009283458348363638
912.0,824.0,4.8168,0.7202,8.2235,-0.04,0.0273,-0.1177,-1.6805669269957484,0.0,2.6274046897888184,-1.5688289403915405,-0.0,2.229856252670288,4.243951960200928,0.0,0.30281367897987366,-1.666180435811178,-0.0,0.006588861346244812,0.774571418762207,-0.0,0.002487389137968421,0.745942234992981,0.0,-0.019323116168379784
912.0,824.0,4.8168,0.7202,8.2235,-0.04,0.0273,-0.1177,-1.680586954156393,0.0,2.6688549518585205,-1.5688166618347168,-0.0,2.1838650703430176,4.2439843851276855,0.0,0.2885115146636963,-1.6661599318133753,-0.0,0.008551125414669514,0.7745350003242493,-0.0,-0.004726745188236237,0.745954155921936,0.0,0.017340082675218582
8190.0,838.0,4.8102,0.7149,8.0782,-0.0411,0.0278,-0.1211,-1.680586954156393,0.0,2.6140975952148438,-1.56882905960083,-0.0,2.1705641746520996,4.243971987361572,0.0,0.30068153142929077,-1.6661599318133753,-0.0,-0.0012477260315790772,0.7745267748832703,-0.0,-0.009571906179189682,0.745962381362915,0.0,-0.0007602926343679428
8190.0,838.0,4.8102,0.7149,8.0782,-0.0411,0.0278,-0.1211,-1.680598875085348,0.0,2.624798059463501,-1.56877601146698,-0.0,2.193892478942871,4.24398057043042,0.0,0.2951745092868805,-1.6661203543292444,-0.0,-0.006944817490875721,0.7745754718780518,-0.0,0.0009762165136635303,0.7459019422531128,0.0,0.0026500308886170387
8190.0,838.0,4.8102,0.7149,8.0782,-0.0411,0.0278,-0.1211,-1.6806193790831507,0.0,2.6847119331359863,-1.5687763690948486,-0.0,2.1941003799438477,4.243940039271973,0.0,0.29282212257385254,-1.6661036650287073,-0.0,0.012985717505216599,0.7745915055274963,-0.0,-0.010551022365689278,0.7458857893943787,0.0,-0.0006391501519829035
8190.0,838.0,4.8102,0.7149,8.0782,-0.0411,0.0278,-0.1211,-1.680615564385885,0.0,2.688297748565674,-1.5688042640686035,-0.0,2.227160692214966,4.244000120753906,0.0,0.29822272062301636,-1.6661480108844202,-0.0,-0.001676674815826118,0.7745473384857178,-0.0,0.0010279712732881308,0.7459944486618042,0.0,0.01700758934020996
8190.0,838.0,4.8102,0.7149,8.0782,-0.0411,0.0278,-0.1211,-1.6805907688536585,0.0,2.672687530517578,-1.5688085556030273,-0.0,2.2174863815307617,4.243968172664307,0.0,0.2887800335884094,-1.6661766211139124,-0.0,0.003865353297442198,0.7746197581291199,-0.0,0.0022526781540364027,0.7459582686424255,0.0,0.02495388686656952
8190.0,838.0,4.8102,0.7149,8.0782,-0.0411,0.0278,-0.1211,-1.680615564385885,0.0,2.6717073917388916,-1.5688005685806274,-0.0,2.1949729919433594,4.243908091182373,0.0,0.2857372760772705,-1.666191879902975,-0.0,0.00728777889162302,0.774539053440094,-0.0,-0.013577478006482124,0.7459784746170044,0.0,0.011291892267763615
8190.0,838.0,4.8102,0.7149,8.0782,-0.0411,0.0278,-0.1211,-1.6805745563902796,0.0,2.6501808166503906,-1.5688166618347168,-0.0,2.2142841815948486,4.243955774898193,0.0,0.29278481006622314,-1.6661399046527308,-0.0,0.006633120123296976,0.7745431661605835,-0.0,-0.014299514703452587,0.7459421753883362,0.0,0.018583573400974274
8190.0,838.0,4.8102,0.7149,8.0782,-0.0411,0.0278,-0.1211,-1.6806274853148402,0.0,2.642662525177002,-1.5688281059265137,-0.0,2.19236421585083,4.243931933040283,0.0,0.28105419874191284,-1.6661236921893519,-0.0,0.004131845664232969,0.7745554447174072,-0.0,-0.00388743681833148,0.7459340691566467,0.0,0.015721622854471207
8190.0,838.0,4.8102,0.7149,8.0782,-0.0411,0.0278,-0.1211,-1.6805945835509242,0.0,2.6957621574401855,-1.568840503692627,-0.0,2.194441318511963,4.243936224574707,0.0,0.2949945330619812,-1.6661236921893519,-0.0,0.0007154433988034725,0.7745353579521179,-0.0,-0.007229320239275694,0.7459784746170044,0.0,0.00027546798810362816
8190.0,838.0,4.8102,0.7149,8.0782,-0.0411,0.0278,-0.1211,-1.6805788479247035,0.0,2.639993667602539,-1.5688403844833374,-0.0,2.2144534587860107,4.24391953527417,0.0,0.2978059649467468,-1.6661766211139124,-0.0,0.003448633011430502,0.7746034264564514,-0.0,-0.005740026943385601,0.745954155921936,0.0,-0.005443911533802748
8190.0,838.0,4.8102,0.7149,8.0782,-0.0411,0.0278,-0.1211,-1.6806112728514613,0.0,2.684154987335205,-1.568820834159851,-0.0,2.1657629013061523,4.243988676662109,0.0,0.29339078068733215,-1.666135613118307,-0.0,-0.00015423772856593132,0.7744786739349365,-0.0,-0.005111366510391235,0.74598628282547,0.0,0.008978784084320068
8190.0,838.0,4.8102,0.7149,8.0782,-0.0411,0.0278,-0.1211,-1.680615564385885,0.0,2.6249547004699707,-1.5687960386276245,-0.0,2.2151050567626953,4.2439562517353515,0.0,0.29320159554481506,-1.6661561171161097,-0.0,-0.0023284005001187325,0.7745308876037598,-0.0,-0.011360444128513336,0.7459464073181152,0.0,0.022197484970092773
8190.0,838.0,4.8102,0.7149,8.0782,-0.0411,0.0278,-0.1211,-1.6806069813170375,0.0,2.6786365509033203,-1.5688281059265137,-0.0,2.1349403858184814,4.243936224574707,0.0,0.2829831540584564,-1.6661279837237757,-0.0,0.002373949158936739,0.7745514512062073,-0.0,0.002081608399748802,0.7459702491760254,0.0,-0.0024226512759923935
8190.0,838.0,4.8102,0.7149,8.0782,-0.0411,0.0278,-0.1211,-1.680586954156393,0.0,2.6269168853759766,-1.5687278509140015,-0.0,2.1725947856903076,4.243935747737549,0.0,0.28203049302101135,-1.6661680380450647,-0.0,-0.008122598752379417,0.7745915055274963,-0.0,-0.006524682976305485,0.7459138631820679,0.0,0.023320965468883514
8190.0,838.0,4.8102,0.7149,8.0782,-0.0411,0.0278,-0.1211,-1.680671831170553,0.0,2.6558127403259277,-1.5687881708145142,-0.0,2.156149387359619,4.243931933040283,0.0,0.28955528140068054,-1.6661317984210413,-0.0,-0.006130794528871775,0.774571418762207,-0.0,0.0012398536782711744,0.7459260821342468,0.0,-0.024688461795449257
906.0,739.0,4.8156,0.6796,8.0136,-0.0312,0.0286,-0.1196,-1.6805907688536585,0.0,2.622992515563965,-1.5687963962554932,-0.0,2.1986210346221924,4.2439562517353515,0.0,0.2964904308319092,-1.6661437193499964,-0.0,-0.005950828082859516,0.7745111584663391,-0.0,-0.00641897227615118,0.7459821105003357,0.0,-0.00748552056029439
906.0,739.0,4.8156,0.6796,8.0136,-0.0312,0.0286,-0.1196,-1.6806112728514613,0.0,2.662513256072998,-1.568824052810669,-0.0,2.2126784324645996,4.243951960200928,0.0,0.2884952425956726,-1.6661399046527308,-0.0,-0.0007817459991201758,0.7745873928070068,-0.0,0.012280099093914032,0.74598628282547,0.0,-0.0022272085770964622
906.0,739.0,4.8156,0.6796,8.0136,-0.0312,0.0286,-0.1196,-1.6805907688536585,0.0,2.6817564964294434,-1.5688568353652954,-0.0,2.199295997619629,4.24397246419873,0.0,0.2936020493507385,-1.6661847273456019,-0.0,-0.0011242171749472618,0.7745391130447388,-0.0,0.0004954622127115726,0.74598628282547,0.0,-0.0028867321088910103
906.0,739.0,4.8156,0.6796,8.0136,-0.0312,0.0286,-0.1196,-1.680598875085348,0.0,2.6621577739715576,-1.5688083171844482,-0.0,2.193814277648926,4.243943853969238,0.0,0.29997557401657104,-1.6661480108844202,-0.0,0.0006142930942587554,0.7745349407196045,-0.0,-0.012810476124286652,0.745954155921936,0.0,0.004255853593349457
906.0,739.0,4.8156,0.6796,8.0136,-0.0312,0.0286,-0.1196,-1.680586954156393,0.0,2.6433844566345215,-1.5687720775604248,-0.0,2.167591094970703,4.243971987361572,0.0,0.2918950319290161,-1.666191879902975,-0.0,0.00189357646740973,0.7745030522346497,-0.0,-0.009495269507169724,0.745942234992981,0.0,-0.02863478660583496
906.0,739.0,4.8156,0.6796,8.0136,-0.0312,0.0286,-0.1196,-1.6806313000121058,0.0,2.674130916595459,-1.5688889026641846,-0.0,2.151503562927246,4.244000120753906,0.0,0.29351288080215454,-1.6661236921893519,-0.0,0.007635609246790409,0.7745189666748047,-0.0,-0.00700904056429863,0.745934009552002,0.0,0.04316117614507675
906.0,739.0,4.8156,0.6796,8.0136,-0.0312,0.0286,-0.1196,-1.6806031666197718,0.0,2.660106658935547,-1.5687516927719116,-0.0,2.132859468460083,4.2439843851276855,0.0,0.2859936058521271,-1.6661198774920862,-0.0,-0.009474053978919983,0.7745915055274963,-0.0,-0.004811040125787258,0.7459582090377808,0.0,-0.001677266089245677
906.0,739.0,4.8156,0.6796,8.0136,-0.0312,0.0286,-0.1196,-1.680582662621969,0.0,2.669841766357422,-1.5687919855117798,-0.0,2.206115484237671,4.243936224574707,0.0,0.2935269773006439,-1.6661599318133753,-0.0,0.005480526946485043,0.774555504322052,-0.0,-0.003382937517017126,0.7459623217582703,1.0726246280068352e-11,0.01179641205817461
906.0,739.0,4.8156,0.6796,8.0136,-0.0312,0.0286,-0.1196,-1.6805907688536585,0.0,2.698381185531616,-1.5687841176986694,-0.0,2.1871371269226074,4.243963881129883,0.0,0.29787513613700867,-1.6661723295794886,-0.0,-0.01561078242957592,0.7745069861412048,-0.0,-0.009123023599386215,0.7458738684654236,2.5902619905977452e-17,0.019710808992385864
906.0,739.0,4.8156,0.6796,8.0136,-0.0312,0.0286,-0.1196,-1.680598875085348,0.0,2.661461353302002,-1.5688445568084717,-0.0,2.173405170440674,4.243940039271973,0.0,0.29256191849708557,-1.6661599318133753,-0.0,0.004027091898024082,0.7745153307914734,-0.0,-0.00689604552462697,0.7459545731544495,-9.941057942342013e-05,-0.006528462283313274
906.0,739.0,4.8156,0.6796,8.0136,-0.0312,0.0286,-0.1196,-1.6805745563902796,0.0,2.7018895149230957,-1.56877601146698,-0.0,2.2116198539733887,4.243951960200928,0.0,0.2867271304130554,-1.6661198774920862,-0.0,-0.001374023617245257,0.774587869644165,-0.0,-0.004175051115453243,0.7458938956260681,-7.719302811892703e-05,0.03869900852441788
906.0,739.0,4.8156,0.6796,8.0136,-0.0312,0.0286,-0.1196,-1.6806069813170375,0.0,2.6856513023376465,-1.568764090538025,-0.0,2.2166531085968018,4.243931933040283,0.0,0.28863704204559326,-1.6661236921893519,-0.0,-0.008503448218107224,0.7745833396911621,-0.0,-0.00519969966262579,0.7459142208099365,-6.139199831523001e-05,-0.042692553251981735
906.0,739.0,4.8156,0.6796,8.0136,-0.0312,0.0286,-0.1196,-1.6806193790831507,0.0,2.723036289215088,-1.5687960386276245,-0.0,2.1774230003356934,4.243963881129883,0.0,0.29403021931648254,-1.6661599318133753,-0.0,2.8336187824606895e-05,0.7745431661605835,-0.0,0.0090194595977664,0.7459459900856018,-5.096143650007434e-05,0.030938535928726196
906.0,739.0,4.8156,0.6796,8.0136,-0.0312,0.0286,-0.1196,-1.6806069813170375,0.0,2.651221513748169,-1.5687845945358276,-0.0,2.1533524990081787,4.243976278895996,0.0,0.2921362817287445,-1.6661723295794886,-0.0,0.01104418933391571,0.7745636701583862,-0.0,0.0003310113097541034,0.74595046043396,-1.500480266258819e-05,0.016480926424264908
906.0,739.0,4.8156,0.6796,8.0136,-0.0312,0.0286,-0.1196,-1.6805750332274378,0.0,2.6550676822662354,-1.5687804222106934,-0.0,2.1911067962646484,4.243935747737549,0.0,0.2978801429271698,-1.6661480108844202,-0.0,-0.0018213415751233697,0.7745350003242493,-0.0,-0.021919121965765953,0.745994508266449,-3.6234827638370604e-11,-0.010568411089479923
881.0,845.0,4.7779,0.7436,7.9238,-0.0305,0.0134,-0.1193,-1.680598875085348,0.0,2.66156005859375,-1.5688363313674927,-0.0,2.150792360305786,4.244003935451172,0.0,0.28286051750183105,-1.6661160627948206,-0.0,-0.012768146581947803,0.7745915055274963,-0.0,-0.006166203413158655,0.7459623217582703,-8.75028577301137e-17,-0.002392259892076254
881.0,845.0,4.7779,0.7436,7.9238,-0.0305,0.0134,-0.1193,-1.6805507145323695,0.0,2.6722960472106934,-1.5688403844833374,-0.0,2.1506357192993164,4.2439233499714355,0.0,0.2966013550758362,-1.666168514882223,-0.0,0.0005362338852137327,0.7746156454086304,-0.0,0.0021502692252397537,0.7459785342216492,-2.1130910359035293e-22,-0.001990655669942498
881.0,845.0,4.7779,0.7436,7.9238,-0.0305,0.0134,-0.1193,-1.680615564385885,0.0,2.687346935272217,-1.5687841176986694,-0.0,2.194812059402466,4.243968172664307,0.0,0.2804883122444153,-1.6661723295794886,-0.0,0.001988534815609455,0.774551272392273,-0.0,0.011019629426300526,0.745942234992981,-5.102865980485672e-28,0.052418336272239685
881.0,845.0,4.7779,0.7436,7.9238,-0.0305,0.0134,-0.1193,-1.6806193790831507,0.0,2.7025961875915527,-1.568820834159851,-0.0,2.1993658542633057,4.243931933040283,0.0,0.288268506526947,-1.666163746510641,-0.0,0.002418750897049904,0.7745673656463623,-0.0,-0.0014261053875088692,0.7459545135498047,-1.2322819318975353e-33,-0.036400966346263885
881.0,845.0,4.7779,0.7436,7.9238,-0.0305,0.0134,-0.1193,-1.6805669269957484,0.0,2.6729016304016113,-1.5688608884811401,-0.0,2.1570675373077393,4.243943853969238,0.0,0.28307661414146423,-1.6661556402789515,-0.0,-0.00473554152995348,0.7745513319969177,-0.0,-0.0002685748040676117,0.7459582090377808,-2.975815635720218e-39,0.037003811448812485
881.0,845.0,4.7779,0.7436,7.9238,-0.0305,0.0134,-0.1193,-1.680582662621969,0.0,2.6266825199127197,-1.568772315979004,-0.0,2.2335011959075928,4.243959589595459,0.0,0.2953941822052002,-1.666152302418844,-0.0,0.0037800250574946404,0.7745309472084045,-0.0,-0.0008691292023286223,0.7459182143211365,-7.006492321624085e-45,0.009865532629191875
881.0,845.0,4.7779,0.7436,7.9238,-0.0305,0.0134,-0.1193,-1.680659910241598,0.0,2.6200263500213623,-1.5687923431396484,-0.0,2.1933906078338623,4.243940039271973,0.0,0.2921311855316162,-1.6661160627948206,-0.0,-0.0016407317016273737,0.7745915055274963,-0.0,-0.01072465069591999,0.7459623217582703,0.0,-0.0012700967490673065
881.0,845.0,4.7779,0.7436,7.9238,-0.0305,0.0134,-0.1193,-1.6805912456908167,0.0,2.6791820526123047,-1.5688000917434692,-0.0,2.19264817237854,4.2439843851276855,0.0,0.30174458026885986,-1.6661680380450647,-0.0,0.0004528280405793339,0.7745513916015625,-0.0,0.004512043669819832,0.7459179162979126,0.0,-0.02199041284620762
881.0,845.0,4.7779,0.7436,7.9238,-0.0305,0.0134,-0.1193,-1.680570741693014,0.0,2.6579785346984863,-1.5688281059265137,-0.0,2.145157814025879,4.243935747737549,0.0,0.2950294017791748,-1.6661599318133753,-0.0,0.00968933291733265,0.774535059928894,-0.0,-0.0069276029244065285,0.745954155921936,0.0,-0.037327516824007034
881.0,845.0,4.7779,0.7436,7.9238,-0.0305,0.0134,-0.1193,-1.6806274853148402,0.0,2.653268337249756,-1.5688281059265137,-0.0,2.2131481170654297,4.244003935451172,0.0,0.2835819125175476,-1.6661680380450647,-0.0,-0.0009691761806607246,0.7745833396911621,-0.0,0.004199061077088118,0.7459621429443359,0.0,0.0039574988186359406
881.0,845.0,4.7779,0.7436,7.9238,-0.0305,0.0134,-0.1193,-1.6805907688536585,0.0,2.6808080673217773,-1.568820834159851,-0.0,2.184103488922119,4.243960066432617,0.0,0.28354644775390625,-1.666187588368551,-0.0,0.007160418201237917,0.7745755314826965,-0.0,-0.0068285223096609116,0.7459661960601807,0.0,-0.042977772653102875
881.0,845.0,4.7779,0.7436,7.9238,-0.0305,0.0134,-0.1193,-1.680615564385885,0.0,2.652808666229248,-1.568772315979004,-0.0,2.1927385330200195,4.243971987361572,0.0,0.2903851866722107,-1.6661642233477991,-0.0,0.0004097830969840288,0.7746198773384094,-0.0,-0.000999498413875699,0.7459944486618042,0.0,-0.0020798868499696255
881.0,845.0,4.7779,0.7436,7.9238,-0.0305,0.0134,-0.1193,-1.6806031666197718,0.0,2.615020513534546,-1.5688085556030273,-0.0,2.1585466861724854,4.243948145503662,0.0,0.29496631026268005,-1.6661236921893519,-0.0,-0.0028247330337762833,0.7745754718780518,-0.0,-0.011311238631606102,0.7459703087806702,0.0,-0.016511473804712296
881.0,845.0,4.7779,0.7436,7.9238,-0.0305,0.0134,-0.1193,-1.6806313000121058,0.0,2.620194911956787,-1.5688000917434692,-0.0,2.2032485008239746,4.243955774898193,0.0,0.29349857568740845,-1.6661399046527308,-0.0,0.0043131220154464245,0.7745993137359619,-0.0,0.0026701167225837708,0.7459743618965149,0.0,-0.0016720057465136051
881.0,845.0,4.7779,0.7436,7.9238,-0.0305,0.0134,-0.1193,-1.6806112728514613,0.0,2.6489601135253906,-1.5688444375991821,-0.0,2.2471776008605957,4.243951960200928,0.0,0.28516435623168945,-1.6661766211139124,-0.0,0.014834274537861347,0.77457594871521,-0.0,-0.005295730195939541,0.7459743618965149,0.0,-0.010766752995550632
866.0,773.0,4.6199,0.6221,8.2822,-0.035,0.0254,-0.1098,-1.6805945835509242,0.0,2.672194480895996,-1.5688003301620483,-0.0,2.1943838596343994,4.2438880640217285,0.0,0.3016585111618042,-1.6661399046527308,-0.0,0.003992184530943632,0.7745915055274963,-0.0,-0.014988360926508904,0.7459703087806702,0.0,-0.01742180809378624
866.0,773.0,4.6199,0.6221,8.2822,-0.035,0.0254,-0.1098,-1.6806112728514613,0.0,2.6515445709228516,-1.5688248872756958,-0.0,2.2259349822998047,4.243955774898193,0.0,0.2925494313240051,-1.6661847273456019,-0.0,-0.0038553921040147543,0.774559497833252,-0.0,-0.001236491953022778,0.7459138631820679,0.0,0.00955057144165039
866.0,773.0,4.6199,0.6221,8.2822,-0.035,0.0254,-0.1098,-1.680582662621969,0.0,2.6518890857696533,-1.5688000917434692,-0.0,2.1756045818328857,4.243976278895996,0.0,0.2774949073791504,-1.6661961714373987,-0.0,-0.0018670200370252132,0.7745432257652283,-0.0,-0.00870051234960556,0.74598628282547,0.0,0.004373354837298393
866.0,773.0,4.6199,0.6221,8.2822,-0.035,0.0254,-0.1098,-1.6805788479247035,0.0,2.6748929023742676,-1.5688085556030273,-0.0,2.180137872695923,4.24391953527417,0.0,0.29451316595077515,-1.6661275068866175,-0.0,0.0039443038403987885,0.7745673060417175,-0.0,-0.009001551195979118,0.7459500432014465,0.0,-0.008479351177811623
866.0,773.0,4.6199,0.6221,8.2822,-0.035,0.0254,-0.1098,-1.680598875085348,0.0,2.683854818344116,-1.568808674812317,1.8591832240399953e-10,2.186610698699951,4.243976278895996,0.0,0.28447145223617554,-1.6661399046527308,-0.0,0.002798657398670912,0.7745350003242493,-0.0,0.004861496388912201,0.7459500432014465,0.0,0.0008621482411399484
866.0,773.0,4.6199,0.6221,8.2822,-0.035,0.0254,-0.1098,-1.680615564385885,0.0,2.6719422340393066,-1.5688444375991821,4.489708195437668e-16,2.1502697467803955,4.243976278895996,0.0,0.2895733714103699,-1.6661723295794886,-0.0,0.0011993220541626215,0.7745473384857178,-0.0,-0.008243984542787075,0.7459903359413147,0.0,0.03895175829529762
866.0,773.0,4.6199,0.6221,8.2822,-0.035,0.0254,-0.1098,-1.6805626354613246,0.0,2.658433437347412,-1.5688042640686035,1.0842115388519132e-21,2.188678026199341,4.243947668666504,0.0,0.2805614173412323,-1.6661198774920862,-0.0,-0.004675352945923805,0.7745837569236755,-0.0,-0.005195526406168938,0.7459740042686462,0.0,0.054127901792526245
866.0,773.0,4.6199,0.6221,8.2822,-0.035,0.0254,-0.1098,-1.6806112728514613,0.0,2.6345911026000977,-1.5687525272369385,2.6182432111241378e-27,2.175723075866699,4.243927641505859,0.0,0.30009156465530396,-1.6661680380450647,-0.0,-0.0031243441626429558,0.7745267152786255,-0.0,0.00870070606470108,0.7459781169891357,0.0,0.019744446501135826
866.0,773.0,4.6199,0.6221,8.2822,-0.035,0.0254,-0.1098,-1.6805788479247035,0.0,2.661351203918457,-1.5688248872756958,6.322748279518951e-33,2.163419246673584,4.243995829219482,0.0,0.2830555737018585,-1.6661723295794886,-0.0,0.012279372662305832,0.7746034264564514,-0.0,-0.02031799778342247,0.7459698915481567,0.0,0.0041151936165988445
866.0,773.0,4.6199,0.6221,8.2822,-0.035,0.0254,-0.1098,-1.6806031666197718,0.0,2.6522860527038574,-1.5687763690948486,1.526869520362196e-38,2.2386980056762695,4.243947668666504,0.0,0.3011374771595001,-1.666187588368551,-0.0,-0.001708553172647953,0.7745673060417175,-0.0,-0.017453137785196304,0.7459498047828674,0.0,0.004220167640596628
866.0,773.0,4.6199,0.6221,8.2822,-0.035,0.0254,-0.1098,-1.6806031666197718,0.0,2.6873087882995605,-1.5687841176986694,3.6433760072445244e-44,2.1769118309020996,4.243952437038086,0.0,0.2846887707710266,-1.6661556402789515,-0.0,0.0012065439950674772,0.7745956778526306,-0.0,-0.0010010660625994205,0.7459661960601807,0.00026871144655160606,0.0387851819396019
866.0,773.0,4.6199,0.6221,8.2822,-0.035,0.0254,-0.1098,-1.680615564385885,0.0,2.671492099761963,-1.568784236907959,-0.0,2.204047203063965,4.243903799647949,0.0,0.2969498634338379,-1.6661885420428675,-0.0,0.013351622968912125,0.774539053440094,-0.0,-0.004798028618097305,0.7459703087806702,0.00022788711066823453,0.04051846265792847
866.0,773.0,4.6199,0.6221,8.2822,-0.035,0.0254,-0.1098,-1.6806031666197718,0.0,2.65083646774292,-1.568759799003601,-0.0,2.2027246952056885,4.2439562517353515,0.0,0.287380576133728,-1.6661437193499964,-0.0,-0.007996619679033756,0.7745636701583862,-0.0,-0.00905416440218687,0.7459781169891357,0.00019782991148531437,0.010674934834241867
866.0,773.0,4.6199,0.6221,8.2822,-0.035,0.0254,-0.1098,-1.6806193790831507,0.0,2.641697883605957,-1.5688608884811401,-0.0,2.2346670627593994,4.243940039271973,0.0,0.28236180543899536,-1.6661556402789515,-0.0,0.008538221940398216,0.7745590806007385,-0.0,-0.009621970355510712,0.7459781169891357,0.00017477726214565337,-0.07048113644123077
866.0,773.0,4.6199,0.6221,8.2822,-0.035,0.0254,-0.1098,-1.680586954156393,0.0,2.7015578746795654,-1.5687557458877563,-0.0,2.1656112670898438,4.2439843851276855,0.0,0.2817404568195343,-1.6661999861346644,-0.0,0.008924278430640697,0.7745473384857178,-0.0,-0.015880156308412552,0.7459664344787598,0.0001565372513141483,-0.01322232000529766
870.0,809.0,4.8,0.7143,7.9663,-0.0435,0.0258,-0.1199,-1.680582662621969,0.0,2.679917812347412,-1.5688042640686035,-0.0,2.186737537384033,4.243943853969238,0.0,0.29263341426849365,-1.6661961714373987,-0.0,-0.0059691802598536015,0.7745473384857178,-0.0,-0.013206103816628456,0.7459863424301147,0.0001417447201674804,0.015408485196530819
870.0,809.0,4.8,0.7143,7.9663,-0.0435,0.0258,-0.1199,-1.680615564385885,0.0,2.649256467819214,-1.5688281059265137,-0.0,2.1540205478668213,4.243988676662109,0.0,0.28338634967803955,-1.6661360899554651,-0.0,0.0075709205120801926,0.7745792269706726,-0.0,0.0013468796387314796,0.7459019422531128,0.00012950650125276297,0.046704113483428955
870.0,809.0,4.8,0.7143,7.9663,-0.0435,0.0258,-0.1199,-1.680615564385885,0.0,2.6697707176208496,-1.5688165426254272,-0.0,2.160645008087158,4.243971987361572,0.0,0.3008323907852173,-1.6661766211139124,-0.0,0.0021316222846508026,0.774555504322052,-0.0,0.0007882209029048681,0.745945930480957,0.0001192138297483325,-0.03583512827754021
870.0,809.0,4.8,0.7143,7.9663,-0.0435,0.0258,-0.1199,-1.6806231937804164,0.0,2.690939426422119,-1.5688289403915405,-0.0,2.202072858810425,4.243951960200928,0.0,0.2940782308578491,-1.6661160627948206,-0.0,-0.005082047078758478,0.7744951248168945,-0.0,-0.0049569993279874325,0.746010422706604,0.0001104366674553603,-0.02200043573975563
870.0,809.0,4.8,0.7143,7.9663,-0.0435,0.0258,-0.1199,-1.6805864773192347,0.0,2.597721576690674,-1.568820834159851,-0.0,2.15580415725708,4.243959589595459,0.0,0.2844833731651306,-1.6661117712603968,-0.0,0.009915711358189583,0.774535059928894,-0.0,-0.009090865030884743,0.7459220290184021,0.0001028635015245527,-0.019254639744758606
870.0,809.0,4.8,0.7143,7.9663,-0.0435,0.0258,-0.1199,-1.680615564385885,0.0,2.663024425506592,-1.5687923431396484,-0.0,2.2110061645507812,4.243987722987793,0.0,0.30243608355522156,-1.6661437193499964,-0.0,-0.0068751792423427105,0.7745956778526306,-0.0,-0.009464318864047527,0.7459500432014465,7.77810491854325e-05,-0.02270602062344551
870.0,809.0,4.8,0.7143,7.9663,-0.0435,0.0258,-0.1199,-1.680615564385885,0.0,2.629342555999756,-1.5687841176986694,-0.0,2.1849608421325684,4.243943853969238,0.0,0.300176739692688,-1.666180435811178,-0.0,-0.0042498353868722916,0.7745473384857178,-0.0,-0.001877188216894865,0.7459661960601807,7.236579403979704e-05,0.04127689450979233
870.0,809.0,4.8,0.7143,7.9663,-0.0435,0.0258,-0.1199,-1.6806193790831507,0.0,2.684049129486084,-1.5687638521194458,-0.0,2.1750857830047607,4.243976278895996,0.0,0.28966689109802246,-1.6661680380450647,-0.0,-0.0029161819256842136,0.7745554447174072,-0.0,-0.024179358035326004,0.7459661960601807,6.824997399235144e-05,0.041618961840867996
870.0,809.0,4.8,0.7143,7.9663,-0.0435,0.0258,-0.1199,-1.6806193790831507,0.0,2.6308817863464355,-1.5688610076904297,-0.0,2.173950672149658,4.243959589595459,0.0,0.29465252161026,-1.6661079565631312,-0.0,0.010195520706474781,0.7746034264564514,-0.0,-0.004022668115794659,0.7459661960601807,6.457723065977916e-05,-0.01796339824795723
870.0,809.0,4.8,0.7143,7.9663,-0.0435,0.0258,-0.1199,-1.680582662621969,0.0,2.6717522144317627,-1.5688403844833374,-0.0,2.1984822750091553,4.24389569341626,0.0,0.29391026496887207,-1.66612416902651,-0.0,-0.0013977091293781996,0.7745271921157837,-0.0,-0.004071807488799095,0.7459500432014465,6.127957749413326e-05,0.014140848070383072
870.0,809.0,4.8,0.7143,7.9663,-0.0435,0.0258,-0.1199,-1.6806031666197718,0.0,2.682629108428955,-1.5688403844833374,-0.0,2.2128965854644775,4.243915243739746,0.0,0.2916824221611023,-1.6661680380450647,-0.0,-0.002857897663488984,0.7744911313056946,-0.0,-0.014883611351251602,0.7459661960601807,5.8302306570112705e-05,-0.04293146729469299
870.0,809.0,4.8,0.7143,7.9663,-0.0435,0.0258,-0.1199,-1.6806112728514613,0.0,2.6611075401306152,-1.5687557458877563,-0.0,2.2056992053985596,4.2439843851276855,0.0,0.28445398807525635,-1.6661556402789515,-0.0,0.011965923942625523,0.7745797038078308,-0.0,-0.0007980614900588989,0.7459781169891357,1.7977532479562797e-05,0.014900894835591316
870.0,809.0,4.8,0.7143,7.9663,-0.0435,0.0258,-0.1199,-1.6806112728514613,0.0,2.6732254028320312,-1.5688331127166748,-0.0,2.1970207691192627,4.243927641505859,0.0,0.2859461307525635,-1.666191879902975,-0.0,0.007962321862578392,0.7745754718780518,-0.0,-0.0069503458216786385,0.7459258437156677,1.6804449842311442e-05,-0.021991802379488945
870.0,809.0,4.8,0.7143,7.9663,-0.0435,0.0258,-0.1199,-1.6805907688536585,0.0,2.686221122741699,-1.5688486099243164,-0.0,2.1865830421447754,4.243976278895996,0.0,0.28376975655555725,-1.6661236921893519,-0.0,0.010291623882949352,0.7745514512062073,-0.0,-0.0029394770972430706,0.7459459900856018,1.591309228388127e-05,-0.022470898926258087
868.0,824.0,4.7318,0.862,8.1015,-0.0165,0.0189,-0.1098,-1.6806193790831507,0.0,2.664609909057617,-1.5688321590423584,-0.0,2.1885995864868164,4.243976278895996,0.0,0.2881413698196411,-1.6661556402789515,-0.0,0.003277543466538191,0.7745394706726074,-0.0,0.005715290084481239,0.7459781169891357,1.1240992858763121e-10,-0.00868734810501337
868.0,824.0,4.7318,0.862,8.1015,-0.0165,0.0189,-0.1098,-1.680570741693014,0.0,2.681832790374756,-1.568772315979004,-0.0,2.181541919708252,4.243935747737549,0.0,0.28814515471458435,-1.6661399046527308,-0.0,0.012792732566595078,0.7745189666748047,-0.0,-0.006640661507844925,0.745942234992981,2.7145677482892335e-16,0.0021223106887191534
868.0,824.0,4.7318,0.862,8.1015,-0.0165,0.0189,-0.1098,-1.6805387936034144,0.0,2.66426420211792,-1.568772315979004,-0.0,2.14945125579834,4.244024916286133,0.0,0.2938916087150574,-1.6661236921893519,-0.0,-0.0017301030457019806,0.7745350003242493,-0.0,0.003291209228336811,0.7459459900856018,6.555362430707542e-22,0.009828690439462662
868.0,824.0,4.7318,0.862,8.1015,-0.0165,0.0189,-0.1098,-1.6806031666197718,0.0,2.6741437911987305,-1.5688083171844482,-0.0,2.174901247024536,4.2439562517353515,0.0,0.2754875123500824,-1.6661160627948206,-0.0,4.352000541985035e-05,0.7745230793952942,-0.0,-0.013236084021627903,0.7459661960601807,1.5830428659888739e-27,-0.003624110482633114
868.0,824.0,4.7318,0.862,8.1015,-0.0165,0.0189,-0.1098,-1.6806069813170375,0.0,2.644439697265625,-1.5687923431396484,-0.0,2.1849758625030518,4.243968172664307,0.0,0.29473981261253357,-1.6661599318133753,-0.0,0.0011411940213292837,0.774539053440094,-0.0,0.005715094041079283,0.7459821701049805,3.822862279849609e-33,0.006697836332023144
868.0,824.0,4.7318,0.862,8.1015,-0.0165,0.0189,-0.1098,-1.680586954156393,0.0,2.6662800312042236,-1.5687763690948486,-0.0,2.188680648803711,4.243947668666504,0.0,0.29433223605155945,-1.6661360899554651,-0.0,0.008179480209946632,0.7745553851127625,-0.0,-0.00579704437404871,0.7459582090377808,9.231762690762681e-39,0.06061537191271782
868.0,824.0,4.7318,0.862,8.1015,-0.0165,0.0189,-0.1098,-1.6806313000121058,0.0,2.6279542446136475,-1.568865180015564,-0.0,2.187551259994507,4.24398057043042,0.0,0.30441737174987793,-1.6661279837237757,-0.0,0.0003339345857966691,0.7745873928070068,-0.0,-0.0043328991159796715,0.7459498047828674,2.2420775429197073e-44,-0.03624782711267471
868.0,824.0,4.7318,0.862,8.1015,-0.0165,0.0189,-0.1098,-1.680582662621969,0.0,2.640101909637451,-1.568812608718872,-0.0,2.172769069671631,4.24391953527417,0.0,0.29812097549438477,-1.6661480108844202,-0.0,-0.0008788203704170883,0.7745308876037598,-0.0,-0.015731213614344597,0.7459903359413147,0.0,0.00025230180472135544
868.0,824.0,4.7318,0.862,8.1015,-0.0165,0.0189,-0.1098,-1.6806513271727503,0.0,2.679762601852417,-1.5688083171844482,-0.0,2.155202865600586,4.243964357967041,0.0,0.2931402623653412,-1.6661680380450647,-0.0,-0.007707082666456699,0.774571418762207,-0.0,-0.012006960809230804,0.7459740042686462,0.0,-0.0024423098657280207
868.0,824.0,4.7318,0.862,8.1015,-0.0165,0.0189,-0.1098,-1.6806274853148402,0.0,2.6749062538146973,-1.5687483549118042,-0.0,2.1636526584625244,4.243947668666504,0.0,0.2998819351196289,-1.6661480108844202,-0.0,-0.003995496779680252,0.774531364440918,-0.0,-0.016371097415685654,0.7459661960601807,0.0,-0.015998801216483116
868.0,824.0,4.7318,0.862,8.1015,-0.0165,0.0189,-0.1098,-1.6806193790831507,0.0,2.6623153686523438,-1.5688248872756958,-0.0,2.176957130432129,4.243955774898193,0.0,0.28478866815567017,-1.666168514882223,-0.0,0.0012132714036852121,0.7745636701583862,-0.0,-0.0016704968875274062,0.7459621429443359,0.0,-0.023977823555469513
868.0,824.0,4.7318,0.862,8.1015,-0.0165,0.0189,-0.1098,-1.6805912456908167,0.0,2.6572227478027344,-1.5688165426254272,-0.0,2.169793128967285,4.2439843851276855,0.0,0.2726653218269348,-1.6661279837237757,-0.0,0.009264256805181503,0.7746238112449646,-0.0,-0.001704685389995575,0.7459703087806702,0.0,0.009927652776241302
868.0,824.0,4.7318,0.862,8.1015,-0.0165,0.0189,-0.1098,-1.6805626354613246,0.0,2.70706844329834,-1.5688042640686035,-0.0,2.2108733654022217,4.24398057043042,0.0,0.28154972195625305,-1.6661236921893519,-0.0,-0.0008138245902955532,0.7745915055274963,-0.0,0.0054741548374295235,0.7459621429443359,0.0,0.007496205158531666
868.0,824.0,4.7318,0.862,8.1015,-0.0165,0.0189,-0.1098,-1.6805945835509242,0.0,2.6122589111328125,-1.568820834159851,-0.0,2.146674156188965,4.243923826808594,0.0,0.2987707257270813,-1.6661680380450647,-0.0,0.004994425922632217,0.7746037840843201,-0.0,-0.004330796655267477,0.7460144758224487,0.0,0.03422006219625473
868.0,824.0,4.7318,0.862,8.1015,-0.0165,0.0189,-0.1098,-1.6805945835509242,0.0,2.6499853134155273,-1.5687886476516724,-0.0,2.190615177154541,4.243911905879639,0.0,0.29124733805656433,-1.6661236921893519,-0.0,-0.00042846729047596455,0.7745956778526306,-0.0,-0.0033938256092369556,0.7459942698478699,0.0,-0.017211107537150383
864.0,799.0,5.147,0.3553,7.9125,-0.0486,0.0176,-0.1213,-1.680615564385885,0.0,2.669774293899536,-1.568812370300293,-0.0,2.1926231384277344,4.243976278895996,0.0,0.27979058027267456,-1.6661317984210413,-0.0,0.00024020473938435316,0.7745350003242493,-0.0,-0.015058673918247223,0.7459621429443359,0.0,-0.03273489326238632
864.0,799.0,5.147,0.3553,7.9125,-0.0486,0.0176,-0.1213,-1.680582662621969,0.0,2.644242286682129,-1.568772315979004,-0.0,2.1724610328674316,4.243935747737549,0.0,0.30354347825050354,-1.6661117712603968,-0.0,0.014214185997843742,0.7745391130447388,-0.0,-0.00810110755264759,0.7459621429443359,0.0,0.01568213850259781
864.0,799.0,5.147,0.3553,7.9125,-0.0486,0.0176,-0.1213,-1.6805507145323695,0.0,2.6339375972747803,-1.5688248872756958,-0.0,2.139282703399658,4.243955774898193,0.0,0.2936454713344574,-1.666152302418844,-0.0,0.009267044253647327,0.7745230793952942,-0.0,-0.007659866474568844,0.7459781169891357,0.0,-0.059645429253578186
864.0,799.0,5.147,0.3553,7.9125,-0.0486,0.0176,-0.1213,-1.6806193790831507,1.1115854903209765e-07,2.651182174682617,-1.568812608718872,-0.0,2.1965999603271484,4.243955774898193,4.026474016427528e-07,0.2766280770301819,-1.6661837736712855,-0.0,-0.017795149236917496,0.7745553851127625,-0.0,-0.012200546450912952,0.7460144758224487,0.0,-0.0430159829556942
864.0,799.0,5.147,0.3553,7.9125,-0.0486,0.0176,-0.1213,-1.6805507145323695,2.684348240650919e-13,2.6894092559814453,-1.5688248872756958,7.3135392186785e-10,2.1544268131256104,4.244000120753906,1.1207838129800862e-10,0.2866644263267517,-1.6661642233477991,-0.0,-0.0014379724161699414,0.7745391130447388,-0.0,-0.008889749646186829,0.7459661960601807,0.0,0.00020307116210460663
864.0,799.0,5.147,0.3553,7.9125,-0.0486,0.0176,-0.1213,-1.6805912456908167,6.482384400970212e-19,2.657245635986328,-1.568812370300293,1.76613389288072e-15,2.193178653717041,4.24400441228833,0.0003401944413781166,0.2927478551864624,-1.666140381489889,-0.0,0.00888746790587902,0.7745553851127625,-0.0,-0.01206577755510807,0.7459698915481567,0.0,0.01595088467001915
864.0,799.0,5.147,0.3553,7.9125,-0.0486,0.0176,-0.1213,-1.6805669269957484,1.5654197218403282e-24,2.6418843269348145,-1.5687360763549805,4.2650062462216325e-21,2.256282329559326,4.2439514833637695,0.0004838960594497621,0.29317814111709595,-1.6661441961871546,-0.0,-0.00020021572709083557,0.7745836973190308,-0.0,-0.002489701146259904,0.7459580302238464,0.0,0.027060970664024353
864.0,799.0,5.147,0.3553,7.9125,-0.0486,0.0176,-0.1213,-1.6806031666197718,3.7803040681766406e-30,2.6665704250335693,-1.568812370300293,1.0299487386222082e-26,2.1549675464630127,4.243983908290527,0.00043894548434764147,0.2903285026550293,-1.6661279837237757,-0.0,-0.0034328100737184286,0.7745837569236755,-0.0,-0.014999798499047756,0.7459860444068909,0.0,0.020457053557038307
864.0,799.0,5.147,0.3553,7.9125,-0.0486,0.0176,-0.1213,-1.6805669269957484,9.128989286573882e-36,2.6505985260009766,-1.5687963962554932,2.4872049870178617e-32,2.2025420665740967,4.243987722987793,0.0003528571396600455,0.29152727127075195,-1.666168514882223,-0.0,0.012599959038197994,0.7745636701583862,-0.0,-0.01100417785346508,0.746002197265625,0.0,0.01785091869533062
864.0,799.0,5.147,0.3553,7.9125,-0.0486,0.0176,-0.1213,-1.6805626354613246,2.2045227440758022e-41,2.6846656799316406,-1.5687557458877563,6.006307134921461e-38,2.2022387981414795,4.243959589595459,0.00029500009259209037,0.29144251346588135,-1.6661317984210413,-0.0,-0.007599398028105497,0.7745877504348755,-0.0,-0.0007676025852560997,0.7460144758224487,0.0,0.01847286894917488
864.0,799.0,5.147,0.3553,7.9125,-0.0486,0.0176,-0.1213,-1.680558820764059,0.0,2.698230266571045,-1.568812370300293,1.4573504028978098e-43,2.154994487762451,4.243976278895996,0.0002534491359256208,0.2882637679576874,-1.6661556402789515,-0.0,0.0074059139005839825,0.7745915055274963,-0.0,0.005220398306846619,0.7459901571273804,0.0,-0.02764149382710457
864.0,799.0,5.147,0.3553,7.9125,-0.0486,0.0176,-0.1213,-1.6806031666197718,0.0,2.6581573486328125,-1.5687763690948486,-0.0,2.233344316482544,4.243971987361572,0.0002221599715994671,0.30344563722610474,-1.6661203543292444,-0.0,-0.01267448253929615,0.7745673656463623,-0.0,-0.01192489080131054,0.746010422706604,0.0,-0.0016576256603002548
864.0,799.0,5.147,0.3553,7.9125,-0.0486,0.0176,-0.1213,-1.6806069813170375,0.0,2.658108949661255,-1.5687963962554932,-0.0,2.2130467891693115,4.243947668666504,0.00019774914835579693,0.292594850063324,-1.6661317984210413,-0.0,-0.0009049394866451621,0.7745267748832703,-0.0,-0.0035794973373413086,0.7459781169891357,0.0,0.04672585427761078
864.0,799.0,5.147,0.3553,7.9125,-0.0486,0.0176,-0.1213,-1.680643220941061,-0.00011706313671311364,2.715665817260742,-1.56876802444458,-0.0,2.242764949798584,4.244023485774658,0.00015048173372633755,0.28473928570747375,-1.6661480108844202,-0.0,0.0009448044002056122,0.774579644203186,-0.0,-0.01171492412686348,0.7459703087806702,0.0,-0.00910788495093584
864.0,799.0,5.147,0.3553,7.9125,-0.0486,0.0176,-0.1213,-1.6806351147093714,-0.0013759545981884003,2.673353672027588,-1.5688890218734741,-0.0,2.163957118988037,4.243915243739746,0.00013510309509001672,0.2887510061264038,-1.666140381489889,-0.0,0.004898044280707836,0.7745513319969177,-0.0,-0.011808672919869423,0.7459661960601807,0.0,0.016213171184062958
893.0,804.0,4.6379,0.4816,8.123,-0.0409,0.0005,-0.1,-1.6806584797301234,-0.0031119058839976788,2.6752753257751465,-1.568812370300293,-0.0,2.2001402378082275,4.243971987361572,9.917985153151676e-05,0.29064124822616577,-1.6661604086505335,-0.0,0.0024959093425422907,0.7745473384857178,-0.0,-0.008566047064960003,0.7459418773651123,0.0,-0.012134023010730743
893.0,804.0,4.6379,0.4816,8.123,-0.0409,0.0005,-0.1,-1.680695196191305,-0.005185786634683609,2.6442031860351562,-1.5688371658325195,-0.0,2.1952016353607178,4.2439562517353515,6.88894942868501e-05,0.29248031973838806,-1.6661041418658655,-0.0,0.0087332334369421,0.7746116518974304,-0.0,-0.004965486936271191,0.7460063099861145,0.0,0.0274928268045187
893.0,804.0,4.6379,0.4816,8.123,-0.0409,0.0005,-0.1,-1.6807667217650355,-0.007711092475801706,2.658006191253662,-1.5688165426254272,-0.0,2.1921229362487793,4.243927641505859,-4.966410415363498e-05,0.2996608018875122,-1.6661284605609339,-0.0,0.0008621502202004194,0.774579644203186,-0.0,-0.002001142129302025,0.7459860444068909,0.0,0.01567472144961357
893.0,804.0,4.6379,0.4816,8.123,-0.0409,0.0005,-0.1,-1.680814882318014,-0.008850335143506527,2.6101768016815186,-1.5688652992248535,-0.0,2.1826109886169434,4.243935747737549,-4.6089084207778797e-05,0.2858678698539734,-1.6661203543292444,-0.0,0.0032593111973255873,0.7745431661605835,-0.0,0.0007170324679464102,0.7459781169891357,0.0,0.034905947744846344
893.0,804.0,4.6379,0.4816,8.123,-0.0409,0.0005,-0.1,-1.6808911762633265,-0.008067595772445202,2.645005226135254,-1.5687360763549805,9.535132994642481e-05,2.189703941345215,4.243968172664307,-4.2801191739272326e-05,0.29706302285194397,-1.6661079565631312,-0.0,0.010926622897386551,0.774595320224762,-0.0,-0.01231249701231718,0.7459980845451355,0.0,0.01706928014755249
893.0,804.0,4.6379,0.4816,8.123,-0.0409,0.0005,-0.1,-1.6809426746764125,-0.0069647058844566345,2.6786048412323,-1.5687154531478882,0.00010791952081490308,2.166118621826172,4.243951960200928,-3.995116276200861e-05,0.29109036922454834,-1.6661079565631312,-0.0,-0.012757926248013973,0.7745473384857178,-0.0,-0.013500574044883251,0.7459459900856018,5.5568725656485185e-05,-0.012981721200048923
893.0,804.0,4.6379,0.4816,8.123,-0.0409,0.0005,-0.1,-1.681002756158346,-0.0069741676561534405,2.6512773036956787,-1.5687845945358276,0.00011879458179464564,2.206234931945801,4.243915243739746,-3.745697176782414e-05,0.28568941354751587,-1.6661117712603968,-0.0,0.0018980394816026092,0.774535059928894,-0.0,-0.00610260060057044,0.7459580302238464,5.373560270527378e-05,-0.012700055725872517
893.0,804.0,4.6379,0.4816,8.123,-0.0409,0.0005,-0.1,-1.6810747585692347,-0.00759122846648097,2.6589841842651367,-1.5687360763549805,0.00011243450717302039,2.2264559268951416,4.243960066432617,-3.525592910591513e-05,0.29400211572647095,-1.6661441961871546,-0.0,-0.005844868719577789,0.7745473384857178,-0.0,-0.002832764992490411,0.7459860444068909,7.221543637569994e-05,-0.03899414464831352
893.0,804.0,4.6379,0.4816,8.123,-0.0409,0.0005,-0.1,-1.6810862026610316,-0.008809457533061504,2.6513447761535645,-1.56876802444458,0.0001067207267624326,2.1883559226989746,4.243960066432617,-3.32992676703725e-05,0.28588709235191345,-1.6661003271686,-0.0,0.012858220376074314,0.7745553851127625,-0.0,-0.013335039839148521,0.7459983229637146,7.983018440427259e-05,-0.04526234045624733
893.0,804.0,4.6379,0.4816,8.123,-0.0409,0.0005,-0.1,-1.681150575677389,-0.009017261676490307,2.6552910804748535,-1.5688005685806274,0.00011606025509536266,2.1998395919799805,4.243963881129883,-3.15483302983921e-05,0.27538663148880005,-1.6661322752581995,-0.0,0.001339851412922144,0.7745758295059204,-0.0,-0.014660312794148922,0.7459860444068909,0.00023930580937303603,0.003750929608941078
893.0,804.0,4.6379,0.4816,8.123,-0.0409,0.0005,-0.1,-1.6812268696227015,-0.008432211354374886,2.6526145935058594,-1.5688005685806274,0.0001901788782561198,2.1851298809051514,4.243947668666504,-1.5242615518218372e-05,0.2882179021835327,-1.6661079565631312,-0.0,0.005563812330365181,0.7745591402053833,-0.0,-0.007221437990665436,0.746010422706604,0.00027688825502991676,0.034973762929439545
893.0,804.0,4.6379,0.4816,8.123,-0.0409,0.0005,-0.1,-1.681230207482809,-0.006655856501311064,2.6754837036132812,-1.568732738494873,0.00024144620692823082,2.2010040283203125,4.243976278895996,-1.427323786629131e-05,0.29236575961112976,-1.6661041418658655,-0.0,-0.00750122731551528,0.7745955586433411,-0.0,-0.012876232154667377,0.7459942698478699,0.0002337369223823771,0.0011941026896238327
893.0,804.0,4.6379,0.4816,8.123,-0.0409,0.0005,-0.1,-1.681270261804098,-0.004997728392481804,2.6444685459136963,-1.5687443017959595,0.0002484300057403743,2.1829209327697754,4.2440125185200195,-7.828352188710141e-09,0.2810227870941162,-1.6661317984210413,-0.0,0.006457881070673466,0.7745833396911621,-0.0,-0.013670684769749641,0.7459698915481567,0.0002425997518002987,-0.02641472779214382
893.0,804.0,4.6379,0.4816,8.123,-0.0409,0.0005,-0.1,-1.6812817058958949,-0.004221858456730843,2.627200126647949,-1.5687401294708252,0.00025383313186466694,2.199404239654541,4.243976278895996,-2.1790507766239475e-12,0.286776602268219,-1.6661322752581995,-0.0,-0.0024422723799943924,0.774559497833252,-0.0,-0.005105216056108475,0.7459860444068909,0.00021383684361353517,-0.03843415156006813
893.0,804.0,4.6379,0.4816,8.123,-0.0409,0.0005,-0.1,-1.6813861332335414,-0.004421713761985302,2.6457762718200684,-1.5687204599380493,0.00022959672787692398,2.168257236480713,4.243955774898193,-6.065466880620892e-16,0.29671308398246765,-1.66612416902651,-0.0,-0.00012619281187653542,0.7745636701583862,-0.0,-0.009485028684139252,0.7459860444068909,0.00019113007874693722,0.0008546514436602592
872.0,834.0,4.943,0.7795,8.0548,-0.037,0.0234,-0.1211,-1.681349893609518,-0.004390866495668888,2.672196388244629,-1.5687845945358276,0.00020954983483534306,2.2197818756103516,4.244007273311279,-1.6883450358440015e-19,0.2878238558769226,-1.6661360899554651,-0.0,-0.004026465117931366,0.774579644203186,-0.0,-0.004707970656454563,0.745993971824646,0.00014400204236153513,0.012315868400037289
872.0,834.0,4.943,0.7795,8.0548,-0.037,0.0234,-0.1211,-1.6813861332335414,-0.0038015409372746944,2.6666316986083984,-1.5687483549118042,0.00019272245117463171,2.1792562007904053,4.243987722987793,-4.699570685271967e-23,0.2962278127670288,-1.66612416902651,-0.0,0.0014694270212203264,0.7745758295059204,-0.0,-0.009502870962023735,0.746002197265625,0.00013137474888935685,-0.008102139458060265
872.0,834.0,4.943,0.7795,8.0548,-0.037,0.0234,-0.1211,-1.6814185581602992,-0.002861595945432782,2.6790263652801514,-1.5687525272369385,0.00017839712381828576,2.20829701423645,4.244015379542969,-1.3081427709271335e-26,0.2883627116680145,-1.6661322752581995,-0.0,0.0033797179348766804,0.774571418762207,-0.0,-0.000554229540284723,0.7459819316864014,0.00012079497537342831,-0.0053728362545371056
872.0,834.0,4.943,0.7795,8.0548,-0.037,0.0234,-0.1211,-1.6814142666258753,-0.0020205264445394278,2.647657632827759,-1.5687804222106934,0.00016605404380243272,2.1724472045898438,4.244015379542969,-3.6412635870958424e-30,0.2897375226020813,-1.6660760084735315,-0.0,0.003943842835724354,0.7745391130447388,-0.0,-0.008606198243796825,0.7459699511528015,0.00011179247667314485,-0.031331270933151245
872.0,834.0,4.943,0.7795,8.0548,-0.037,0.0234,-0.1211,-1.681446214715475,-0.0015556039288640022,2.657695770263672,-1.5687565803527832,0.00016540811338927597,2.161123037338257,4.243987722987793,-1.0135591674079708e-33,0.28387725353240967,-1.6661484877215784,-0.0,-0.004171374253928661,0.774523138999939,-0.0,-0.005064079537987709,0.7460063099861145,0.00010403861961094663,-0.022299019619822502
872.0,834.0,4.943,0.7795,8.0548,-0.037,0.0234,-0.1211,-1.681446214715475,-0.0011484215501695871,2.639072895050049,-1.5687565803527832,0.00020843218953814358,2.200744867324829,4.244011564845703,-2.821279263983767e-37,0.29747194051742554,-1.666112248097555,-0.0,-0.00761492969468236,0.7746033668518066,-0.0,-0.005615906789898872,0.7460306286811829,9.72906345850788e-05,-0.014297572895884514
872.0,834.0,4.943,0.7795,8.0548,-0.037,0.0234,-0.1211,-1.6814218960204066,-0.0008790863212198019,2.6795663833618164,-1.5687720775604248,0.0007405561627820134,2.2242183685302734,4.243964357967041,0.00016298894479405135,0.29579514265060425,-1.6660998503314417,-0.0,0.0027171592228114605,0.7745554447174072,-0.0,-0.005248453468084335,0.7459456324577332,9.136464359471574e-05,0.007231134921312332
872.0,834.0,4.943,0.7795,8.0548,-0.037,0.0234,-0.1211,-1.6814543209471644,-0.000810789642855525,2.720414161682129,-1.5687646865844727,0.002015980426222086,2.213918685913086,4.243992014522217,0.00016259988478850573,0.2811548709869385,-1.666096035634176,-0.0,-0.004635993391275406,0.7745751738548279,-0.0,-0.013298751786351204,0.7459980845451355,0.00010265415767207742,0.011751867830753326
872.0,834.0,4.943,0.7795,8.0548,-0.037,0.0234,-0.1211,-1.681430002252096,-0.0008325063390657306,2.6701982021331787,-1.5687121152877808,0.003916515968739986,2.2115707397460938,4.243987722987793,0.00014670027303509414,0.2880057096481323,-1.666096035634176,-0.0,-0.01399865560233593,0.7745956182479858,-0.0,-0.003643228905275464,0.7459781169891357,9.773208876140416e-05,0.001917252317070961
872.0,834.0,4.943,0.7795,8.0548,-0.037,0.0234,-0.1211,-1.6814419231810511,-0.001082256669178605,2.6526713371276855,-1.5686684846878052,0.006876850966364145,2.1821484565734863,4.243943853969238,0.00013362988829612732,0.28781089186668396,-1.666096035634176,-0.0,-0.006241967901587486,0.7745554447174072,-0.0,-0.003918899223208427,0.746002197265625,0.00011831767187686637,0.003476398531347513
872.0,834.0,4.943,0.7795,8.0548,-0.037,0.0234,-0.1211,-1.6814495525755824,-0.0017907008295878768,2.65372633934021,-1.568636417388916,0.007665746379643679,2.186784029006958,4.244000120753906,0.00012269828584976494,0.2977864444255829,-1.6660760084735315,-0.0,-0.010433614253997803,0.774579644203186,-0.0,-0.0018078790744766593,0.7460386157035828,9.361669071950018e-05,0.008637664839625359
872.0,834.0,4.943,0.7795,8.0548,-0.037,0.0234,-0.1211,-1.681514402429098,-0.0024446516763418913,2.6327333450317383,-1.5685887336730957,0.008204204961657524,2.182983636856079,4.2440196710773925,0.00011341998470015824,0.28561943769454956,-1.6660803000079554,-0.0,-0.003053436055779457,0.7744991183280945,-0.0,-0.004968624096363783,0.7460262775421143,0.001011760556139052,-0.0030597334261983633
872.0,834.0,4.943,0.7795,8.0548,-0.037,0.0234,-0.1211,-1.6815182171263636,-0.0035804633516818285,2.6505863666534424,-1.5685086250305176,0.008690577931702137,2.1560797691345215,4.24400441228833,0.00012108279770473018,0.2797865867614746,-1.6661198774920862,-0.0,-0.00277700531296432,0.7745351195335388,-0.0,-0.002510601421818137,0.7460386753082275,0.0017454276094213128,-0.023492764681577682
872.0,834.0,4.943,0.7795,8.0548,-0.037,0.0234,-0.1211,-1.6815220318236292,-0.0038578633684664965,2.6587443351745605,-1.568476915359497,0.008642124943435192,2.191986322402954,4.244008226985596,0.00011822302622022107,0.29891523718833923,-1.666140381489889,-0.0,-0.003972061909735203,0.7745473384857178,-0.0,-0.0035632227081805468,0.7460543513298035,0.003097596811130643,-0.014788022264838219
872.0,834.0,4.943,0.7795,8.0548,-0.037,0.0234,-0.1211,-1.6815782986082972,-0.0045582144521176815,2.6567978858947754,-1.5684447288513184,0.007924860343337059,2.230304479598999,4.244011564845703,0.00012003316805930808,0.29041236639022827,-1.6660602728473108,-0.0,-0.011569171212613583,0.7745873928070068,-0.0,-0.019608210772275925,0.7460783123970032,0.0056551117449998856,-0.0033801505342125893
870.0,840.0,4.5948,0.6491,8.0417,-0.0402,0.0292,-0.1185,-1.6816379032530726,-0.005098037421703339,2.664257526397705,-1.5684010982513428,0.007897877134382725,2.1996724605560303,4.2440196710773925,0.00013704426237381995,0.29153361916542053,-1.6661322752581995,-0.0,0.001228871289640665,0.7746320366859436,-0.0,-0.0022703998256474733,0.7460940480232239,0.007352977525442839,0.02356307953596115
870.0,840.0,4.5948,0.6491,8.0417,-0.0402,0.0292,-0.1185,-1.6816498241820277,-0.005308087915182114,2.6497485637664795,-1.5683574676513672,0.007080135866999626,2.191650390625,4.24408404409375,0.00016161058738362044,0.28779321908950806,-1.6661079565631312,-0.0,-0.004464574623852968,0.7745231986045837,-0.0,-0.007717772386968136,0.7461704611778259,0.007256393786519766,0.02645559422671795
870.0,840.0,4.5948,0.6491,8.0417,-0.0402,0.0292,-0.1185,-1.6816417179503382,-0.005798169411718845,2.7364377975463867,-1.5682975053787231,0.006867479532957077,2.2596240043640137,4.24406020223584,0.00018773801275528967,0.2931308448314667,-1.6661484877215784,-0.0,0.004003709182143211,0.774567723274231,-0.0,-0.01213674247264862,0.7461982369422913,0.0064585162326693535,-0.006871499121189117
870.0,840.0,4.5948,0.6491,8.0417,-0.0402,0.0292,-0.1185,-1.681685586968893,-0.00646025687456131,2.6702632904052734,-1.5682406425476074,0.006431822665035725,2.2354207038879395,4.244011564845703,0.0004955434123985469,0.2899031639099121,-1.6661284605609339,-0.0,-0.004100547172129154,0.7745952606201172,-0.0,-0.00018821796402335167,0.746218204498291,0.005797104444354773,-0.0019698566757142544
870.0,840.0,4.5948,0.6491,8.0417,-0.0402,0.0292,-0.1185,-1.6817742786803187,-0.006519986782222986,2.6999263763427734,-1.5681971311569214,0.0055690305307507515,2.2038919925689697,4.244063540095947,0.00043450118391774595,0.3037402629852295,-1.6661079565631312,-0.0,0.0030554900877177715,0.7745230793952942,-0.0,-0.005197979509830475,0.7462661266326904,0.005211828742176294,0.01623356342315674
870.0,840.0,4.5948,0.6491,8.0417,-0.0402,0.0292,-0.1185,-1.6817857227721156,-0.007123277988284826,2.6820623874664307,-1.5682213306427002,0.005029033869504929,2.2589704990386963,4.24399916707959,0.00040412996895611286,0.3045791685581207,-1.666112248097555,-0.0,0.014651541598141193,0.7745718359947205,-0.0,-0.0042338985949754715,0.7462620139122009,0.00477160420268774,0.023755807429552078
870.0,840.0,4.5948,0.6491,8.0417,-0.0402,0.0292,-0.1185,-1.6818458042540492,-0.006616146769374609,2.6808581352233887,-1.5681976079940796,0.00371134583838284,2.243114709854126,4.24405209600415,0.00033005326986312866,0.304754376411438,-1.6661165396319788,-0.0,-0.006317580118775368,0.774579644203186,-0.0,-0.007996072992682457,0.7462818622589111,0.004433457739651203,0.004684082232415676
870.0,840.0,4.5948,0.6491,8.0417,-0.0402,0.0292,-0.1185,-1.6818615398802699,-0.006764193996787071,2.721220016479492,-1.5681896209716797,0.0025840895250439644,2.2372806072235107,4.244079752559326,0.00027889301418326795,0.3127457797527313,-1.666084114705221,-0.0,-0.001279037562198937,0.7745833396911621,-0.0,-0.004425616469234228,0.7463260889053345,0.003960202913731337,-0.01605086959898472
870.0,840.0,4.5948,0.6491,8.0417,-0.0402,0.0292,-0.1185,-1.6819459400572718,-0.0074532050639390945,2.6847782135009766,-1.5681699514389038,0.0016172714531421661,2.250202178955078,4.244087858791016,0.00024146887881215662,0.3227778375148773,-1.6661046187030237,-0.0,-0.0003030396765097976,0.7745271325111389,-0.0,-0.010009584948420525,0.746330201625824,0.0029088137671351433,0.052777230739593506
870.0,840.0,4.5948,0.6491,8.0417,-0.0402,0.0292,-0.1185,-1.6819735966124476,-0.00806315615773201,2.6926727294921875,-1.5681452751159668,0.0010447489330545068,2.3112454414367676,4.2440478044697265,0.00021290240692906082,0.30782386660575867,-1.666084114705221,-0.0,0.0013196521904319525,0.7745755314826965,-0.0,-0.01205057930201292,0.7463983297348022,0.0024580059107393026,0.01893795281648636
870.0,840.0,4.5948,0.6491,8.0417,-0.0402,0.0292,-0.1185,-1.6820618114867152,-0.008154898881912231,2.6866068840026855,-1.5681452751159668,0.0007277161348611116,2.2491211891174316,4.244043512935303,0.00022207251458894461,0.29574054479599,-1.666084114705221,-0.0,-0.00780042540282011,0.7745148539543152,-0.0,-0.003955485764890909,0.7463700771331787,0.001857289345934987,0.024276357144117355
870.0,840.0,4.5948,0.6491,8.0417,-0.0402,0.0292,-0.1185,-1.6821257076659144,-0.00856695231050253,2.716564416885376,-1.5681132078170776,0.0004578874504659325,2.2502760887145996,4.24406020223584,0.0002008634473895654,0.31511390209198,-1.6661003271686,-0.0,-0.002500878181308508,0.7746034860610962,-0.0,-0.016437631100416183,0.7463783025741577,0.0015614740550518036,0.04393709450960159
870.0,840.0,4.5948,0.6491,8.0417,-0.0402,0.0292,-0.1185,-1.682101388970846,-0.0077834599651396275,2.7059855461120605,-1.5681617259979248,0.0003745941212400794,2.2445828914642334,4.24405209600415,0.00018332648323848844,0.306673526763916,-1.6660764853106897,-0.0,0.013584672473371029,0.7745554447174072,-0.0,-0.008450765162706375,0.7464022040367126,0.0014922857517376542,0.057182203978300095
870.0,840.0,4.5948,0.6491,8.0417,-0.0402,0.0292,-0.1185,-1.6821571789183558,-0.007879475131630898,2.7015726566314697,-1.5681854486465454,0.0003677961358334869,2.278231143951416,4.24402825414624,0.00016860623145475984,0.3054748475551605,-1.6660564581500452,-0.0,-0.008514468558132648,0.7745915055274963,-0.0,-0.0030300174839794636,0.7463899254798889,0.0013022697530686855,-0.008124659769237041
870.0,840.0,4.5948,0.6491,8.0417,-0.0402,0.0292,-0.1185,-1.6822167835631312,-0.008749635890126228,2.692537784576416,-1.5681095123291016,0.0004890726413577795,2.2344889640808105,4.24396721898999,0.00015607461682520807,0.31825798749923706,-1.6660807768451136,-0.0,-0.0013402258045971394,0.7745758891105652,-0.0,-0.006042327731847763,0.7464101314544678,0.0010198764503002167,0.02853519283235073
926.0,774.0,4.721,0.8231,7.9795,-0.0237,0.024,-0.1187,-1.682305475274557,-0.00865405984222889,2.6980233192443848,-1.5681772232055664,0.00051775953033939,2.2705531120300293,4.2440196710773925,0.00014527705207001418,0.32032865285873413,-1.6660483519183558,-0.0,-0.0007989802397787571,0.7744830250740051,-0.0,-0.0041938661597669125,0.7463617920875549,0.0008485303842462599,0.044294580817222595
926.0,774.0,4.721,0.8231,7.9795,-0.0237,0.024,-0.1187,-1.6823207340636195,-0.009295197203755379,2.7213172912597656,-1.5681456327438354,0.0006361031555570662,2.2662439346313477,4.243992014522217,0.00013587663124781102,0.32075297832489014,-1.6660922209369105,-0.0,-0.0028875742573291063,0.7745993137359619,-0.0,0.0006834960076957941,0.7463980913162231,0.0007667425088584423,0.0018724650144577026
926.0,774.0,4.721,0.8231,7.9795,-0.0237,0.024,-0.1187,-1.6823893986144007,-0.010174094699323177,2.6912896633148193,-1.5681618452072144,0.0006269354489631951,2.2697556018829346,4.244043512935303,0.00012761908874381334,0.3172615170478821,-1.6661165396319788,-0.0,0.004892908036708832,0.7745636701583862,-0.0,-0.00981983169913292,0.7464261651039124,0.0006137136369943619,0.026745975017547607
926.0,774.0,4.721,0.8231,7.9795,-0.0237,0.024,-0.1187,-1.6824494800963343,-0.010484656319022179,2.721238851547241,-1.5681251287460327,0.0007804727065376937,2.297329902648926,4.244043512935303,0.00012030770449200645,0.3222888112068176,-1.6660478750811976,-0.0,-0.004829224199056625,0.7745754718780518,-0.0,-0.012795993126928806,0.7464019656181335,0.0006073343683965504,0.03955474868416786
926.0,774.0,4.721,0.8231,7.9795,-0.0237,0.024,-0.1187,-1.6825210056700648,-0.011403106153011322,2.7353038787841797,-1.568089485168457,0.0009673897875472903,2.249573230743408,4.2440478044697265,0.00011378877388779074,0.31409111618995667,-1.6661284605609339,-0.0,0.005784152541309595,0.7745956778526306,-0.0,0.0009939721785485744,0.7464340329170227,0.0004758569994010031,0.016446717083454132
926.0,774.0,4.721,0.8231,7.9795,-0.0237,0.024,-0.1187,-1.6825767956175746,-0.012408844195306301,2.7220845222473145,-1.5680769681930542,0.0009627762483432889,2.2990989685058594,4.243987722987793,0.0001079398425645195,0.31066444516181946,-1.6660884062396448,-0.0,-0.000385090010240674,0.7746238112449646,-0.0,-0.024247348308563232,0.7464261054992676,0.0005026990547776222,0.04006300866603851
926.0,774.0,4.721,0.8231,7.9795,-0.0237,0.024,-0.1187,-1.6826406917967738,-0.01282294001430273,2.7238681316375732,-1.568029522895813,0.0009679741342552006,2.2738401889801025,4.24400441228833,0.00010266300523653626,0.3073000907897949,-1.6660807768451136,-0.0,0.004638715647161007,0.7745754718780518,-0.0,-0.008541101589798927,0.7464382648468018,0.0005991942016407847,0.03242246061563492
926.0,774.0,4.721,0.8231,7.9795,-0.0237,0.024,-0.1187,-1.6827765903868617,-0.0151061424985528,2.7026758193969727,-1.5681098699569702,0.0009144520154222846,2.301931619644165,4.244023962611816,9.787796443561092e-05,0.31854039430618286,-1.6661284605609339,-0.0,-0.005858059041202068,0.7745755314826965,-0.0,-0.018285132944583893,0.7464663982391357,0.0006801019771955907,-0.02792464941740036
926.0,774.0,4.721,0.8231,7.9795,-0.0237,0.024,-0.1187,-1.6828729114928187,-0.017363397404551506,2.7157230377197266,-1.5680975914001465,0.0008182142046280205,2.2866411209106445,4.244015379542969,9.351909830002114e-05,0.31376802921295166,-1.666072193776266,-0.0,0.01683160848915577,0.7745792865753174,-0.0,-0.01489650271832943,0.7464138269424438,0.0007849493995308876,0.0077229635789990425
926.0,774.0,4.721,0.8231,7.9795,-0.0237,0.024,-0.1187,-1.6829849682249964,-0.018911881372332573,2.6982998847961426,-1.56808602809906,0.0007085331599228084,2.299762487411499,4.243996306056641,8.953201904660091e-05,0.3222857713699341,-1.6660645643817347,-0.0,0.0013731811195611954,0.774579644203186,-0.0,-0.008595881052315235,0.7464419603347778,0.000707071740180254,0.06039555370807648
926.0,774.0,4.721,0.8231,7.9795,-0.0237,0.024,-0.1187,-1.6831003628172816,-0.02093961276113987,2.6830124855041504,-1.5681538581848145,0.0009570164838805795,2.288945198059082,4.244007273311279,8.587096817791462e-05,0.32771551609039307,-1.6660564581500452,-0.0,-0.006705960724502802,0.7745758891105652,-0.0,-0.004685709252953529,0.7464420199394226,0.0006366626475937665,0.01805579662322998
926.0,774.0,4.721,0.8231,7.9795,-0.0237,0.024,-0.1187,-1.6832524738707484,-0.023448679596185684,2.6694865226745605,-1.5680737495422363,0.001420222339220345,2.3114025592803955,4.244039698238037,9.425685129826888e-05,0.31309831142425537,-1.6660321394549769,-0.0,0.001985338516533375,0.7745836973190308,-0.0,-0.015248242765665054,0.7464502453804016,0.0005734137957915664,0.015984077006578445
926.0,774.0,4.721,0.8231,7.9795,-0.0237,0.024,-0.1187,-1.6834169826903285,-0.025671832263469696,2.675083875656128,-1.5680572986602783,0.0018644096562638879,2.300293445587158,4.244015856380127,9.071914246305823e-05,0.3218810260295868,-1.6661203543292444,-0.0,0.0038209296762943268,0.774579644203186,-0.0,-0.006451813504099846,0.746454119682312,0.000603980734013021,0.06984037160873413
926.0,774.0,4.721,0.8231,7.9795,-0.0237,0.024,-0.1187,-1.6835400066771449,-0.030156763270497322,2.6697001457214355,-1.5680333375930786,0.002275981940329075,2.2984073162078857,4.244055910701416,8.751815039431676e-05,0.3200395703315735,-1.6660645643817347,-0.0,0.0016168683068826795,0.7745472192764282,-0.0,0.0036761113442480564,0.7464582324028015,0.0005762077053077519,0.015275159850716591
926.0,774.0,4.721,0.8231,7.9795,-0.0237,0.024,-0.1187,-1.6837765179076136,-0.03522362560033798,2.6794376373291016,-1.568021535873413,0.002787875011563301,2.330653190612793,4.244043512935303,5.7398807257413864e-05,0.32469141483306885,-1.6660926977740687,-0.0,0.013087840750813484,0.7745915055274963,-0.0,-0.0029142512939870358,0.7464663982391357,0.0004705042520072311,0.038702428340911865
847.0,830.0,4.3418,0.9416,7.6822,-0.0283,0.0014,-0.1228,-1.6839238605894984,-0.0406377799808979,2.66013765335083,-1.568009614944458,0.004740301985293627,2.325103759765625,4.243995829219482,6.632821896346286e-05,0.3301249146461487,-1.6660688559161585,-0.0,-0.0017946047009900212,0.7745754718780518,-0.0,-0.007532734889537096,0.7464581727981567,0.00043927537626586854,-0.01161806657910347
847.0,830.0,4.3418,0.9416,7.6822,-0.0283,0.0014,-0.1228,-1.684256216088766,-0.04315225034952164,2.688894748687744,-1.5679535865783691,0.005915548652410507,2.294938325881958,4.244039698238037,7.988088327692822e-05,0.32026606798171997,-1.666044060383932,-0.0,0.0036087282933294773,0.7745473384857178,-0.0,-0.02172447182238102,0.7464741468429565,0.0003713079495355487,-0.013457250781357288
847.0,830.0,4.3418,0.9416,7.6822,-0.0283,0.0014,-0.1228,-1.6845151386656703,-0.04785926640033722,2.6979777812957764,-1.5678776502609253,0.007652792613953352,2.3074545860290527,4.24399916707959,0.000365988293197006,0.31078922748565674,-1.6661041418658655,-0.0,0.007737314328551292,0.774579644203186,-0.0,-0.008588505908846855,0.7464338541030884,0.00032155500957742333,0.014426839537918568
847.0,830.0,4.3418,0.9416,7.6822,-0.0283,0.0014,-0.1228,-1.684826990167135,-0.05515746399760246,2.671684980392456,-1.5678660869598389,0.009305891580879688,2.313873291015625,4.244027300471924,0.0003614982997532934,0.33364927768707275,-1.6660683790790003,-0.0,0.003953809849917889,0.7745873928070068,-0.0,-0.008957515470683575,0.7464340925216675,0.00028356118127703667,0.06117021664977074
847.0,830.0,4.3418,0.9416,7.6822,-0.0283,0.0014,-0.1228,-1.6851707897581996,-0.06160461902618408,2.5998172760009766,-1.5677739381790161,0.010919025167822838,2.3215816020965576,4.244079752559326,0.00035033663152717054,0.3145011365413666,-1.6660478750811976,-0.0,0.0059828851372003555,0.7745636701583862,-0.0,-0.0011616925476118922,0.7464461326599121,0.00020782544743269682,0.054518669843673706
847.0,830.0,4.3418,0.9416,7.6822,-0.0283,0.0014,-0.1228,-1.6855460606017054,-0.06681038439273834,2.6185028553009033,-1.5677659511566162,0.010502127930521965,2.3269200325012207,4.244015856380127,0.0003919409355148673,0.3313443660736084,-1.6660564581500452,-0.0,-0.007208377122879028,0.7745718359947205,-0.0,0.0020435114856809378,0.7464337944984436,0.0001823717320803553,0.02977113053202629
847.0,830.0,4.3418,0.9416,7.6822,-0.0283,0.0014,-0.1228,-1.6859575710692347,-0.06863458454608917,2.61464786529541,-1.5676583051681519,0.010505305603146553,2.382652759552002,4.244067354793213,0.00046348015894182026,0.335740864276886,-1.6660521666156214,-0.0,0.00308491219766438,0.7745993137359619,-0.0,0.006210358813405037,0.7464584708213806,0.000162601558258757,0.004514319822192192
847.0,830.0,4.3418,0.9416,7.6822,-0.0283,0.0014,-0.1228,-1.6864258251585902,-0.06842631846666336,2.6573543548583984,-1.567594051361084,0.010528193786740303,2.3737874031066895,4.244067354793213,0.0006481375894509256,0.34027573466300964,-1.6660478750811976,-0.0,0.0010049648117274046,0.7744951844215393,-0.0,-0.0077791824005544186,0.7464540600776672,0.00014669854135718197,0.07594234496355057
847.0,830.0,4.3418,0.9416,7.6822,-0.0283,0.0014,-0.1228,-1.6868568859496058,-0.06669320166110992,2.6520962715148926,-1.5675220489501953,0.009373681619763374,2.3323965072631836,4.244043512935303,0.0005643522599712014,0.33096760511398315,-1.6661208311664026,-0.0,0.006550639867782593,0.7745111584663391,-0.0,-0.011263149790465832,0.7464741468429565,0.0001592776970937848,0.049705877900123596
847.0,830.0,4.3418,0.9416,7.6822,-0.0283,0.0014,-0.1228,-1.687228342095846,-0.06453604251146317,2.616600275039673,-1.5675106048583984,0.006987123284488916,2.4134976863861084,4.2440478044697265,0.00044477058690972626,0.3457140624523163,-1.6660688559161585,-0.0,0.0075309136882424355,0.7745874524116516,-0.0,-0.014194542542099953,0.7464741468429565,0.00017173824016936123,0.03928719460964203
847.0,830.0,4.3418,0.9416,7.6822,-0.0283,0.0014,-0.1228,-1.687699934045309,-0.063377745449543,2.6876940727233887,-1.5674583911895752,0.004111517686396837,2.3542847633361816,4.2440549570271,0.00035659439163282514,0.3319329619407654,-1.6660602728473108,-0.0,-0.002214019652456045,0.774531364440918,-0.0,-0.00967373512685299,0.7464459538459778,0.00027822022093459964,-0.01161518506705761
847.0,830.0,4.3418,0.9416,7.6822,-0.0283,0.0014,-0.1228,-1.6881000004210414,-0.06546874344348907,2.666255474090576,-1.567502737045288,0.0021282657980918884,2.3641695976257324,4.244067354793213,0.000297607941320166,0.3361471891403198,-1.666044060383932,-0.0,0.0010301446309313178,0.7745391130447388,-0.0,-0.009045975282788277,0.7464742064476013,0.0013516326434910297,0.05562286078929901
847.0,830.0,4.3418,0.9416,7.6822,-0.0283,0.0014,-0.1228,-1.6884991131224574,-0.07011314481496811,2.660979747772217,-1.5674419403076172,0.0008601032313890755,2.3950212001800537,4.24405209600415,0.0002553710946813226,0.3391057848930359,-1.6660121122943323,-0.0,0.011622129008173943,0.7745473384857178,-0.0,-0.0030825817957520485,0.7464821338653564,0.001705477712675929,0.033812377601861954
847.0,830.0,4.3418,0.9416,7.6822,-0.0283,0.0014,-0.1228,-1.6889230213561,-0.07549338042736053,2.649617910385132,-1.5674422979354858,0.00015736158820800483,2.3836679458618164,4.244059248561523,0.0002583690220490098,0.3414102792739868,-1.6660688559161585,2.362332729433092e-08,0.007255373988300562,0.7745755314826965,-0.0,-0.005796240642666817,0.7464821338653564,0.0016553224995732307,0.0008787859696894884
847.0,830.0,4.3418,0.9416,7.6822,-0.0283,0.0014,-0.1228,-1.6893826923766078,-0.07889489829540253,2.656296491622925,-1.5674668550491333,0.0012183872750028968,2.35776948928833,4.244095965022705,0.00022486977104563266,0.34322667121887207,-1.6660688559161585,6.575639772271602e-12,0.002556612715125084,0.7745797038078308,-0.0,-0.008388783782720566,0.7464776039123535,0.001409750897437334,0.010551645420491695
908.0,783.0,4.3591,0.8973,7.5942,-0.0283,-0.0286,-0.1176,-1.6898499927916468,-0.08125708997249603,2.6716856956481934,-1.5673868656158447,0.00531964423134923,2.366455078125,4.244059248561523,0.001546879531815648,0.33413955569267273,-1.6660602728473108,1.8303534957218176e-15,0.007659340277314186,0.7745030522346497,-0.0,0.005499768536537886,0.7465342283248901,0.0013184151612222195,0.056726012378931046
908.0,783.0,4.3591,0.8973,7.5942,-0.0283,-0.0286,-0.1176,-1.6903773746886195,-0.0864911824464798,2.6883888244628906,-1.567354679107666,0.008279792964458466,2.4007556438446045,4.244115038509033,0.0033085758332163095,0.350869357585907,-1.6660359541522425,5.09485664882516e-19,-0.0029789323452860117,0.7745677828788757,-0.0,-0.011323502287268639,0.7465300559997559,0.0016897013410925865,0.02322378382086754
908.0,783.0,4.3591,0.8973,7.5942,-0.0283,-0.0286,-0.1176,-1.6908966503539027,-0.09151604026556015,2.6977195739746094,-1.567275047302246,0.010507205501198769,2.409630060195923,4.24416367589917,0.008677997626364231,0.35055890679359436,-1.6660602728473108,1.4181721048973048e-22,-0.002934068441390991,0.7746117115020752,-0.0,-0.019874827936291695,0.7465136051177979,0.0027704061940312386,0.049723245203495026
908.0,783.0,4.3591,0.8973,7.5942,-0.0283,-0.0286,-0.1176,-1.6915041408934535,-0.10117556899785995,2.645460605621338,-1.5672756433486938,0.012268519960343838,2.4592082500457764,4.244223280543945,0.01653607375919819,0.3691824674606323,-1.6660807768451136,3.9475342335845986e-26,0.010327635332942009,0.7745837569236755,-0.0,-0.009385460987687111,0.7465863227844238,0.0038666795007884502,0.07624909281730652
908.0,783.0,4.3591,0.8973,7.5942,-0.0283,-0.0286,-0.1176,-1.6921354732909144,-0.1033368855714798,2.665820598602295,-1.5671629905700684,0.014362970367074013,2.446009635925293,4.24431483327832,0.014604705385863781,0.36894917488098145,-1.6661046187030237,1.098810666515887e-29,0.007539261132478714,0.7745910882949829,-0.0,-0.009359645657241344,0.7466341257095337,0.004302203189581633,0.02938869781792164
908.0,783.0,4.3591,0.8973,7.5942,-0.0283,-0.0286,-0.1176,-1.6927343807616175,-0.0996694341301918,2.70111346244812,-1.567063570022583,0.015940766781568527,2.4093124866485596,4.2443505960651855,0.010657801292836666,0.36661556363105774,-1.666076962147848,3.0585802811869357e-33,0.017284691333770752,0.774571418762207,-0.0,0.005266958847641945,0.7466301321983337,0.004750142339617014,0.056956805288791656
908.0,783.0,4.3591,0.8973,7.5942,-0.0283,-0.0286,-0.1176,-1.6933666668333949,-0.0905405655503273,2.7404046058654785,-1.5669796466827393,0.016867082566022873,2.4437975883483887,4.244398279781006,0.006218020338565111,0.3506423234939575,-1.6660807768451136,8.513670655835743e-37,0.013433387503027916,0.7745391130447388,-0.0,-0.004796646069735289,0.746649980545044,0.005261080805212259,0.09994292259216309
908.0,783.0,4.3591,0.8973,7.5942,-0.0283,-0.0286,-0.1176,-1.6938935718932093,-0.08959858119487762,2.746079444885254,-1.56687593460083,0.015673751011490822,2.462066650390625,4.244370146388672,0.0014677316648885608,0.3639281392097473,-1.6660645643817347,2.3698058979429144e-40,0.005887385457754135,0.7745513916015625,-0.0,0.0011179787106812,0.7466980218887329,0.005465913098305464,0.059459418058395386
908.0,783.0,4.3591,0.8973,7.5942,-0.0283,-0.0286,-0.1176,-1.694461008111471,-0.09451919049024582,2.740424156188965,-1.5667957067489624,0.01292782835662365,2.4526162147521973,4.244366331691406,-0.0008507668972015381,0.3729918897151947,-1.6660807768451136,6.58610278232664e-44,0.006320342421531677,0.7745030522346497,-0.0,-0.011513506062328815,0.7467463612556458,0.005327276885509491,0.05217009037733078
908.0,783.0,4.3591,0.8973,7.5942,-0.0283,-0.0286,-0.1176,-1.69500794033193,-0.10397208482027054,2.739377021789551,-1.5666921138763428,0.01194050069898367,2.5017192363739014,4.244413538570068,-0.0005049760802648962,0.3689107894897461,-1.666088883076803,0.0,-0.0010640074033290148,0.7745754718780518,-0.0,0.006491695996373892,0.7467018365859985,0.004770634695887566,0.05995829030871391
908.0,783.0,4.3591,0.8973,7.5942,-0.0283,-0.0286,-0.1176,-1.6955629787840785,-0.1099143922328949,2.6776015758514404,-1.566571593284607,0.014105740003287792,2.490878105163574,4.244413538570068,-0.0002237398293800652,0.35033106803894043,-1.6660202185260218,0.0,0.005460433661937714,0.7745636701583862,-0.0,-0.009734965860843658,0.7467538714408875,0.003190388670191169,0.05956272780895233
908.0,783.0,4.3591,0.8973,7.5942,-0.0283,-0.0286,-0.1176,-1.696207662621969,-0.10752858221530914,2.749380111694336,-1.5665644407272339,0.021197009831666946,2.532498836517334,4.244530363673828,-4.827892325920402e-07,0.36943626403808594,-1.6660807768451136,0.0,0.014972005039453506,0.774579644203186,-0.0,-0.01484374888241291,0.7467741370201111,0.0017929095774888992,0.034753721207380295
908.0,783.0,4.3591,0.8973,7.5942,-0.0283,-0.0286,-0.1176,-1.6968261204161585,-0.10317803174257278,2.687593460083008,-1.5663321018218994,0.030590198934078217,2.5278587341308594,4.244490309352539,0.0021916483528912067,0.3656410574913025,-1.6660478750811976,0.0,0.0032968714367598295,0.7745267748832703,-0.0,-0.01512906700372696,0.7467496991157532,0.0008144296007230878,0.04068129509687424
908.0,783.0,4.3591,0.8973,7.5942,-0.0283,-0.0286,-0.1176,-1.6974536381163539,-0.09603921324014664,2.7320470809936523,-1.5661776065826416,0.03998787701129913,2.569342851638794,4.244501753444336,0.003900461830198765,0.37215349078178406,-1.6660235563861292,0.0,0.001730101415887475,0.7745878100395203,-0.0,-0.007955528795719147,0.746733546257019,0.0008309899712912738,0.0006601763889193535
908.0,783.0,4.3591,0.8973,7.5942,-0.0283,-0.0286,-0.1176,-1.698040624658102,-0.0928407832980156,2.7811319828033447,-1.56589674949646,0.046956807374954224,2.594625473022461,4.24452178060498,0.003199343103915453,0.37791121006011963,-1.6660359541522425,0.0,-0.0032897740602493286,0.7745070457458496,-0.0,-0.0003923760959878564,0.7468183636665344,0.0008384326938539743,0.04449547827243805
894.0,789.0,4.4495,1.2042,9.3715,-0.0339,-0.0339,-0.1223,-1.6986643276610316,-0.09480968117713928,2.7376790046691895,-1.5656057596206665,0.050212208181619644,2.590217113494873,4.244509859676025,0.0013072006404399872,0.37561821937561035,-1.6660688559161585,0.0,-0.011959154158830643,0.7745190262794495,-0.0,-0.0011988161131739616,0.7468060255050659,0.0024720251094549894,0.03468833863735199
894.0,789.0,4.4495,1.2042,9.3715,-0.0339,-0.0339,-0.1223,-1.6992517910399378,-0.10178559273481369,2.7666568756103516,-1.5652860403060913,0.051207661628723145,2.5805742740631104,4.244477911586426,0.0005429359734989703,0.38389766216278076,-1.6660807768451136,0.0,0.009758874773979187,0.7744869589805603,-0.0,0.000932438881136477,0.7468060255050659,0.0027082106098532677,0.10908536612987518
894.0,789.0,4.4495,1.2042,9.3715,-0.0339,-0.0339,-0.1223,-1.699878831902975,-0.10618630796670914,2.7512106895446777,-1.565002679824829,0.055520981550216675,2.562239170074463,4.244517965907715,0.0003732984187081456,0.3815206289291382,-1.6660321394549769,0.0,0.010152374394237995,0.7745673656463623,-0.0,0.0005854207556694746,0.7468101382255554,0.002046177862212062,0.0910932868719101
894.0,789.0,4.4495,1.2042,9.3715,-0.0339,-0.0339,-0.1223,-1.7005068264403285,-0.10707198083400726,2.7733654975891113,-1.564566731452942,0.06112181022763252,2.578500986099243,4.244477911586426,0.0002846428251359612,0.37899088859558105,-1.6660564581500452,0.0,0.014996254816651344,0.7745873928070068,-0.0,0.007388069294393063,0.7468101382255554,0.0011876889038830996,0.062146686017513275
894.0,789.0,4.4495,1.2042,9.3715,-0.0339,-0.0339,-0.1223,-1.7010981045165003,-0.10143103450536728,2.7704861164093018,-1.5641030073165894,0.07304397970438004,2.6243343353271484,4.2444655138203125,7.605666905874386e-05,0.3777385950088501,-1.6660602728473108,0.0,-0.002694074995815754,0.7746079564094543,-0.0,0.00014360807836055756,0.7467738389968872,0.0007942384690977633,0.03346303105354309
894.0,789.0,4.4495,1.2042,9.3715,-0.0339,-0.0339,-0.1223,-1.701676984826559,-0.09991297125816345,2.7772703170776367,-1.5636848211288452,0.08733449876308441,2.6220881938934326,4.244489832515381,5.310762207955122e-05,0.3767172694206238,-1.6660359541522425,0.0,0.012615323066711426,0.7745714783668518,-0.0,-0.012108465656638145,0.7467941045761108,0.0005966867320239544,0.03515787050127983
894.0,789.0,4.4495,1.2042,9.3715,-0.0339,-0.0339,-0.1223,-1.7023126087584437,-0.09791899472475052,2.778615951538086,-1.5630849599838257,0.09609802067279816,2.6225204467773438,4.24452178060498,9.021558798849583e-05,0.3850690722465515,-1.6660402456866663,0.0,0.014888094738125801,0.7745473384857178,-0.0,-0.01224694773554802,0.7468098402023315,0.0003348992031533271,0.05761467292904854
894.0,789.0,4.4495,1.2042,9.3715,-0.0339,-0.0339,-0.1223,-1.7028752766051234,-0.09865996986627579,2.76527738571167,-1.5624984502792358,0.10272658616304398,2.6844370365142822,4.24452988683667,0.00015413918299600482,0.3902970850467682,-1.6661046187030237,0.0,0.0077484529465436935,0.7745636701583862,-0.0,0.005628462880849838,0.7468340992927551,0.0003804943698924035,-0.007363274693489075
894.0,789.0,4.4495,1.2042,9.3715,-0.0339,-0.0339,-0.1223,-1.7035476169981898,-0.09707284718751907,2.7833099365234375,-1.5618400573730469,0.1056896522641182,2.647101879119873,4.244489355678223,0.00047310933587141335,0.3814605474472046,-1.6660001913653772,0.0,0.0022261221893131733,0.774559497833252,-0.0,-0.016323236748576164,0.7468340992927551,0.0009638495976105332,0.08237533271312714
894.0,789.0,4.4495,1.2042,9.3715,-0.0339,-0.0339,-0.1223,-1.7040864429869593,-0.10153216868638992,2.7995049953460693,-1.5611647367477417,0.1092504933476448,2.715052604675293,4.244501753444336,0.0009354297653771937,0.3855704665184021,-1.6660602728473108,0.0,0.020220816135406494,0.7745993137359619,-0.0,-0.005198044702410698,0.7468498349189758,0.001698796753771603,0.07615989446640015
894.0,789.0,4.4495,1.2042,9.3715,-0.0339,-0.0339,-0.1223,-1.7046576939024867,-0.10382749885320663,2.7802329063415527,-1.560453176498413,0.11346808820962906,2.6947903633117676,4.244481726283691,0.000745211960747838,0.38537222146987915,-1.6660402456866663,0.0,0.007612640969455242,0.7745792865753174,-0.0,-0.01682000607252121,0.7468176484107971,0.0013893954455852509,0.08545759320259094
894.0,789.0,4.4495,1.2042,9.3715,-0.0339,-0.0339,-0.1223,-1.7052413425841273,-0.09986092150211334,2.8303279876708984,-1.5597350597381592,0.11987986415624619,2.6801669597625732,4.244501753444336,0.000549980322830379,0.37638357281684875,-1.6660965124713343,0.0,0.013309214264154434,0.7745190262794495,-0.0,0.005538029596209526,0.7468539476394653,0.0011541333515197039,0.057482410222291946
894.0,789.0,4.4495,1.2042,9.3715,-0.0339,-0.0339,-0.1223,-1.705763956109518,-0.09864781051874161,2.802070379257202,-1.5589683055877686,0.1282392293214798,2.730001449584961,4.244485540980957,0.0004357582947704941,0.3867458999156952,-1.6660478750811976,0.0,0.017165929079055786,0.7745873928070068,-0.0,-0.008847493678331375,0.7468498349189758,0.0009491895325481892,0.04396591708064079
894.0,789.0,4.4495,1.2042,9.3715,-0.0339,-0.0339,-0.1223,-1.7064444027342738,-0.09682684391736984,2.8520359992980957,-1.558133840560913,0.14096719026565552,2.679196357727051,4.244513674373291,0.00036084200837649405,0.37012776732444763,-1.6660564581500452,0.0,0.008967340923845768,0.774559497833252,-0.0,-0.0033144045155495405,0.7469024658203125,0.0011046291328966618,0.08692033588886261
894.0,789.0,4.4495,1.2042,9.3715,-0.0339,-0.0339,-0.1223,-1.706998964349264,-0.09877463430166245,2.7956504821777344,-1.5572633743286133,0.15068860352039337,2.7320170402526855,4.244501753444336,0.0003079146263189614,0.38178080320358276,-1.6660926977740687,0.0,0.0028733029030263424,0.7745833396911621,-0.0,0.0026354568544775248,0.7469226121902466,0.002683547092601657,0.05644682049751282
896.0,789.0,5.1308,1.0612,8.6536,-0.0105,0.0835,-0.1333,-1.707630296746725,-0.09999031573534012,2.7878646850585938,-1.5563127994537354,0.1529177725315094,2.68554949760437,4.244517965907715,0.00011695071589201689,0.37655559182167053,-1.6660688559161585,0.0,0.011945074424147606,0.7745513916015625,-0.0,-0.0008043271955102682,0.7469182014465332,0.003735046600922942,0.03681045025587082
896.0,789.0,5.1308,1.0612,8.6536,-0.0105,0.0835,-0.1333,-1.7082258663573207,-0.101157546043396,2.8052687644958496,-1.5554308891296387,0.1600622981786728,2.721007823944092,4.2445337015339355,8.091644122032449e-05,0.37438082695007324,-1.6660564581500452,0.0,0.014454571530222893,0.7745230793952942,-0.0,-0.016633611172437668,0.7469503879547119,0.004801545292139053,0.0648484155535698
896.0,789.0,5.1308,1.0612,8.6536,-0.0105,0.0835,-0.1333,-1.7088490925230921,-0.10508907586336136,2.7479190826416016,-1.5543802976608276,0.16501908004283905,2.741241931915283,4.244501753444336,7.129376899683848e-05,0.3730909824371338,-1.6660202185260218,0.0,0.013543805107474327,0.7745431661605835,-0.0,-0.009038743562996387,0.7469660639762878,0.005911438725888729,0.07339028269052505
896.0,789.0,5.1308,1.0612,8.6536,-0.0105,0.0835,-0.1333,-1.7094203434386195,-0.10738372802734375,2.815747022628784,-1.553394079208374,0.17230308055877686,2.6585676670074463,4.24448220312085,3.214693060726859e-05,0.3664311170578003,-1.6660726706134241,0.0,0.015680041164159775,0.7745309472084045,-0.0,-0.0004638966638594866,0.7469980716705322,0.005018090829253197,0.05108640715479851
896.0,789.0,5.1308,1.0612,8.6536,-0.0105,0.0835,-0.1333,-1.710151811639303,-0.11390063911676407,2.8151354789733887,-1.5522633790969849,0.1765935719013214,2.719350814819336,4.244489832515381,3.8114990275062155e-06,0.3682512938976288,-1.6660359541522425,0.0,0.017594266682863235,0.7746238708496094,-0.0,-0.0022220187820494175,0.7469939589500427,0.0039498815312981606,0.05904262512922287
896.0,789.0,5.1308,1.0612,8.6536,-0.0105,0.0835,-0.1333,-1.7107874355711878,-0.11664879322052002,2.7948012351989746,-1.5512378215789795,0.17807626724243164,2.7071495056152344,4.244489832515381,1.0609448874987493e-09,0.3628811836242676,-1.6660483519183558,0.0,0.022204160690307617,0.7745636701583862,-0.0,-0.004865506663918495,0.7470343708992004,0.00289835873991251,0.032812945544719696
896.0,789.0,5.1308,1.0612,8.6536,-0.0105,0.0835,-0.1333,-1.711498876611227,-0.11797724664211273,2.690743923187256,-1.5501238107681274,0.1898907572031021,2.671919822692871,4.244489832515381,2.953178879824131e-13,0.3678876757621765,-1.6660445372210901,0.0,0.01670464314520359,0.7745513319969177,-0.0,-0.005953521467745304,0.7470419406890869,0.002136049559339881,0.04135379195213318
896.0,789.0,5.1308,1.0612,8.6536,-0.0105,0.0835,-0.1333,-1.7122184238829554,-0.11775323003530502,2.7279491424560547,-1.548998236656189,0.20049767196178436,2.7343854904174805,4.244469805354736,8.220282037791084e-17,0.35892581939697266,-1.6660006682025355,0.0,0.025490136817097664,0.774571418762207,-0.0,-0.005321640521287918,0.7470661401748657,0.0017369556007906795,0.012001552619040012
896.0,789.0,5.1308,1.0612,8.6536,-0.0105,0.0835,-0.1333,-1.7129551372923792,-0.11842937022447586,2.8065714836120605,-1.5476994514465332,0.20648933947086334,2.7060930728912354,4.244425936336182,2.288145717974478e-20,0.3735126256942749,-1.6660321394549769,0.0,0.025110822170972824,0.774555504322052,-0.0,-0.013267623260617256,0.7470501065254211,0.0016867398517206311,0.0833568274974823
896.0,789.0,5.1308,1.0612,8.6536,-0.0105,0.0835,-0.1333,-1.7137004337706507,-0.12016241252422333,2.783273220062256,-1.5464617013931274,0.20708008110523224,2.739193916320801,4.2444774347492675,6.369137914300972e-24,0.35924142599105835,-1.6660602728473108,0.0,0.010179070755839348,0.7745993733406067,-0.0,-0.006141670048236847,0.74711012840271,0.0028292459901422262,0.028025124222040176
896.0,789.0,5.1308,1.0612,8.6536,-0.0105,0.0835,-0.1333,-1.7144772015013636,-0.1278916895389557,2.7729973793029785,-1.5453250408172607,0.20877119898796082,2.6758713722229004,4.244514151210449,1.7728728250328823e-27,0.3553584814071655,-1.6660121122943323,0.0,0.021684426814317703,0.7745755314826965,-0.0,-0.013579066842794418,0.7471340298652649,0.0036429399624466896,-0.031421322375535965
896.0,789.0,5.1308,1.0612,8.6536,-0.0105,0.0835,-0.1333,-1.7152983150877894,-0.13897153735160828,2.7461562156677246,-1.5440502166748047,0.21613772213459015,2.679290533065796,4.24448220312085,4.934856469921515e-31,0.36326682567596436,-1.666015926991598,0.0,0.03007497638463974,0.7745873928070068,-0.0,-0.008906963281333447,0.747186541557312,0.0036664928775280714,0.08289381861686707
896.0,789.0,5.1308,1.0612,8.6536,-0.0105,0.0835,-0.1333,-1.7160865269102992,-0.15096990764141083,2.7091946601867676,-1.542784571647644,0.2204611748456955,2.6640305519104004,4.244437857265137,-0.000989701016806066,0.3546444773674011,-1.6660202185260218,0.0,0.01532350666821003,0.7745915055274963,-0.0,-0.008820116519927979,0.7471299171447754,0.0022199901286512613,-0.013615682721138
896.0,789.0,5.1308,1.0612,8.6536,-0.0105,0.0835,-0.1333,-1.7170120678343714,-0.15984809398651123,2.7390336990356445,-1.541374683380127,0.22136779129505157,2.6749701499938965,4.244554205531738,-0.001193811884149909,0.34813714027404785,-1.6660202185260218,0.0,0.019093133509159088,0.7745751142501831,-0.0,-0.008234705775976181,0.7471661567687988,0.0014235560083761811,0.029317986220121384
896.0,789.0,5.1308,1.0612,8.6536,-0.0105,0.0835,-0.1333,-1.7180019817748011,-0.15670867264270782,2.6934542655944824,-1.5400222539901733,0.23109957575798035,2.6996288299560547,4.244513674373291,-5.286281975713791e-06,0.3419111967086792,-1.6660521666156214,0.0,0.03123442828655243,0.774567723274231,-0.0,-0.004165926482528448,0.7471538782119751,0.0007365217315964401,-0.010181876830756664
916.0,751.0,3.792,0.7023,7.4507,-0.0347,0.1738,-0.1364,-1.7189747295775355,-0.14491210877895355,2.734696626663208,-1.5387001037597656,0.2458646446466446,2.774418830871582,4.244469805354736,0.00210643676109612,0.3547019958496094,-1.6660688559161585,0.0,0.026372315362095833,0.7745554447174072,-0.0,-0.002371276030316949,0.7471661567687988,0.0006825557793490589,0.007655549328774214
916.0,751.0,3.792,0.7023,7.4507,-0.0347,0.1738,-0.1364,-1.7198716602721156,-0.14346767961978912,2.787778377532959,-1.5372987985610962,0.25419604778289795,2.7294764518737793,4.244454069728516,-0.0015739608788862824,0.362018346786499,-1.6660564581500452,0.0,0.0210585817694664,0.7745350003242493,-0.0,-0.007475771941244602,0.747133731842041,0.0010052546858787537,0.018405945971608162
916.0,751.0,3.792,0.7023,7.4507,-0.0347,0.1738,-0.1364,-1.7208453617491664,-0.15980598330497742,2.711926221847534,-1.535788655281067,0.24574173986911774,2.690786123275757,4.244422121638916,-0.0035611644852906466,0.3472934067249298,-1.666027847920553,0.0,0.012883894145488739,0.7745149731636047,-0.0,-0.009427287615835667,0.7471535205841064,0.0040213423781096935,-0.007449080236256123
916.0,751.0,3.792,0.7023,7.4507,-0.0347,0.1738,-0.1364,-1.7219025097289027,-0.1806708574295044,2.732882022857666,-1.5343058109283447,0.24071645736694336,2.6699631214141846,4.244438334102295,-0.0007693988154642284,0.3512971103191376,-1.666027847920553,0.0,0.012367265298962593,0.7746554017066956,-0.0,-0.012430936098098755,0.7472218871116638,0.005740708205848932,0.05191660299897194
916.0,751.0,3.792,0.7023,7.4507,-0.0347,0.1738,-0.1364,-1.7229839764037074,-0.19707144796848297,2.704190254211426,-1.5327906608581543,0.24778833985328674,2.6639065742492676,4.244454069728516,0.0008999761193990707,0.34471508860588074,-1.6660445372210901,0.0,0.01873350515961647,0.7745833396911621,-0.0,-0.006858170032501221,0.7472379207611084,0.005976793821901083,0.020993255078792572
916.0,751.0,3.792,0.7023,7.4507,-0.0347,0.1738,-0.1364,-1.724137922326559,-0.18721529841423035,2.6945066452026367,-1.5313084125518799,0.2556237280368805,2.645340919494629,4.24445025503125,0.00038504114490933716,0.3314827084541321,-1.666076962147848,0.0,0.021504918113350868,0.7745149731636047,-0.0,-0.011376984417438507,0.7472376823425293,0.0033271065913140774,-0.03125184029340744
916.0,751.0,3.792,0.7023,7.4507,-0.0347,0.1738,-0.1364,-1.725198885003561,-0.16931554675102234,2.7280898094177246,-1.5297125577926636,0.2534952163696289,2.6426801681518555,4.244445963496826,0.00020344556833151728,0.3345033824443817,-1.6660082975970667,0.0,0.01264976430684328,0.7745874524116516,-0.0,-0.01570386253297329,0.7472821474075317,0.0019079316407442093,0.021049076691269875
916.0,751.0,3.792,0.7023,7.4507,-0.0347,0.1738,-0.1364,-1.7262560329832972,-0.1673492193222046,2.715836524963379,-1.5281249284744263,0.25748857855796814,2.698317527770996,4.24448220312085,0.00022768940834794194,0.33430397510528564,-1.6660521666156214,0.0,0.021337836980819702,0.7745832800865173,-0.0,-0.003488142741844058,0.7473343014717102,0.003428785130381584,-0.036840178072452545
916.0,751.0,3.792,0.7023,7.4507,-0.0347,0.1738,-0.1364,-1.7273537121214808,-0.18172654509544373,2.7284603118896484,-1.5266265869140625,0.2609175443649292,2.6455001831054688,4.24447409688916,-7.791359530529007e-05,0.3353480100631714,-1.6660321394549769,0.0,0.017441995441913605,0.7746074795722961,-0.0,-0.011912006884813309,0.7474145293235779,0.006655234377831221,0.016366761177778244
916.0,751.0,3.792,0.7023,7.4507,-0.0347,0.1738,-0.1364,-1.7284509144225062,-0.19979263842105865,2.6994752883911133,-1.5250351428985596,0.25383925437927246,2.6564435958862305,4.244477911586426,-0.00024604471400380135,0.336446613073349,-1.6660483519183558,0.0,0.01028386689722538,0.7745952606201172,-0.0,-0.015801506116986275,0.747409999370575,0.008784005418419838,-0.004174466244876385
916.0,751.0,3.792,0.7023,7.4507,-0.0347,0.1738,-0.1364,-1.7296325169005335,-0.20419736206531525,2.6658525466918945,-1.523460030555725,0.2499537467956543,2.658953905105591,4.244417830104492,-0.0007938254275359213,0.32473504543304443,-1.6660445372210901,0.0,0.026275083422660828,0.7745993733406067,-0.0,0.006521653383970261,0.7473814487457275,0.008496793918311596,-0.02987431176006794
916.0,751.0,3.792,0.7023,7.4507,-0.0347,0.1738,-0.1364,-1.7307940922179164,-0.1974213421344757,2.7243709564208984,-1.521981120109558,0.25247377157211304,2.6499359607696533,4.24448220312085,1.924524622154422e-05,0.31706148386001587,-1.6660359541522425,0.0,0.015775024890899658,0.7745473384857178,-0.0,0.005214341916143894,0.7474295496940613,0.006511233281344175,0.034252021461725235
916.0,751.0,3.792,0.7023,7.4507,-0.0347,0.1738,-0.1364,-1.7318865261473597,-0.18898671865463257,2.7169675827026367,-1.5204741954803467,0.2572489380836487,2.6663477420806885,4.24449793874707,0.0004486656398512423,0.33212029933929443,-1.6660240332232874,0.0,0.0160633847117424,0.7745673656463623,-0.0,-0.000518401269800961,0.7474936246871948,0.0041540986858308315,-0.042199064046144485
916.0,751.0,3.792,0.7023,7.4507,-0.0347,0.1738,-0.1364,-1.7330323658385218,-0.18754470348358154,2.6832633018493652,-1.5189470052719116,0.26389577984809875,2.625117778778076,4.244469805354736,0.00032666849438101053,0.33483999967575073,-1.6660602728473108,0.0,0.012713395059108734,0.7746197581291199,-0.0,-0.011667837388813496,0.7475175857543945,0.002812563208863139,0.03011247143149376
916.0,751.0,3.792,0.7023,7.4507,-0.0347,0.1738,-0.1364,-1.7342058620848597,-0.1901683658361435,2.7096407413482666,-1.5173678398132324,0.26337411999702454,2.6633198261260986,4.244422121638916,0.00010569286678219214,0.3296750783920288,-1.6660321394549769,0.0,0.017639480531215668,0.7745632529258728,-0.0,-0.00843870546668768,0.7475581765174866,0.003603882621973753,0.0024236375465989113
