ramyac6/ROB537/final_project/csv/test/good/good_131.csv
tof_0,tof_1,accelx,accely,accelz,gyrox,gyroy,gyroz,shoulder_lift_joint_position,shoulder_lift_joint_velocity,shoulder_lift_joint_effort,elbow_joint_position,elbow_joint_velocity,elbow_joint_effort,wrist_1_joint_position,wrist_1_joint_velocity,wrist_1_joint_effort,wrist_2_joint_position,wrist_2_joint_velocity,wrist_2_joint_effort,wrist_3_joint_position,wrist_3_joint_velocity,wrist_3_joint_effort,shoulder_pan_joint_position,shoulder_pan_joint_velocity,shoulder_pan_joint_effort
948.0,8190.0,3.7866,0.0891,8.5735,-0.0356,0.0223,-0.1151,-1.5252428402057667,0.0,1.926822304725647,-1.8482356071472168,-0.0,2.1659493446350098,4.478200598354004,0.0,0.2943630814552307,-1.6040337721454065,0.0,-0.013401657342910767,0.8113808631896973,-0.0,-0.008646050468087196,0.7987743020057678,0.0,-0.007086588069796562
948.0,8190.0,3.7866,0.0891,8.5735,-0.0356,0.0223,-0.1151,-1.5252866309932251,0.0,1.992464303970337,-1.8482552766799927,-0.0,2.125795364379883,4.478200598354004,0.0,0.2889801263809204,-1.604081932698385,0.0,-0.011325307190418243,0.8113653659820557,-0.0,-0.00929100252687931,0.7987663745880127,0.0,0.011824074201285839
948.0,8190.0,3.7866,0.0891,8.5735,-0.0356,0.0223,-0.1151,-1.5252786812237282,0.0,1.9596734046936035,-1.8482470512390137,-0.0,2.1364309787750244,4.478168650264404,0.0,0.2963102161884308,-1.604065243397848,0.0,0.0018093292601406574,0.8113287687301636,-0.0,-0.0014109326293691993,0.7987622618675232,0.0,0.07619693875312805
948.0,8190.0,3.7866,0.0891,8.5735,-0.0356,0.0223,-0.1151,-1.525282808845379,0.0,1.9511677026748657,-1.8482356071472168,-0.0,2.1235439777374268,4.478217287654541,0.0,0.3035299777984619,-1.6040695349322718,0.0,-0.00821083877235651,0.8113894462585449,-0.0,-0.00975471455603838,0.7987743020057678,0.0,-0.04163793474435806
948.0,8190.0,3.7866,0.0891,8.5735,-0.0356,0.0223,-0.1151,-1.5252464984408398,0.0,1.960399866104126,-1.8482470512390137,-0.0,2.1751322746276855,4.4782091814228515,0.0,0.29879462718963623,-1.604065243397848,0.0,-0.006842304021120071,0.8114086985588074,-0.0,-0.002117220312356949,0.7987704277038574,0.0,-0.016400720924139023
948.0,8190.0,3.7866,0.0891,8.5735,-0.0356,0.0223,-0.1151,-1.5252506297877808,0.0,1.9248414039611816,-1.8482149839401245,-0.0,2.1711931228637695,4.4782091814228515,0.0,0.2928791344165802,-1.6040456930743616,0.0,-0.0012156035518273711,0.8113529682159424,-0.0,0.003313937457278371,0.7987380623817444,0.0,0.008684651926159859
948.0,8190.0,3.7866,0.0891,8.5735,-0.0356,0.0223,-0.1151,-1.5252668012729664,0.0,1.9447734355926514,-1.8482275009155273,-0.0,2.1247498989105225,4.478172941798828,0.0,0.2890578508377075,-1.6040576140033167,0.0,-0.00204096594825387,0.8113852739334106,-0.0,-0.014238690957427025,0.7988105416297913,0.0,-0.040198564529418945
952.0,885.0,3.676,0.0538,8.7212,-0.0338,0.0208,-0.1156,-1.5252786812237282,0.0,1.9654896259307861,-1.8482232093811035,-0.0,2.1242496967315674,4.478221102351807,0.0,0.29404550790786743,-1.6040857473956507,0.0,-0.0016334389802068472,0.8113406300544739,-0.0,-0.014752952381968498,0.7987944483757019,0.0,-0.01714278757572174
952.0,885.0,3.676,0.0538,8.7212,-0.0338,0.0208,-0.1156,-1.5252264004996796,0.0,1.9388850927352905,-1.8481910228729248,-0.0,2.130760908126831,4.478241606349609,0.0,0.2891605496406555,-1.6040738264666956,0.0,0.0030516451224684715,0.8114053606987,-0.0,-0.0032217500265687704,0.7987704873085022,0.0,-0.04350607842206955
952.0,885.0,3.676,0.0538,8.7212,-0.0338,0.0208,-0.1156,-1.5252424117973824,0.0,1.928332805633545,-1.8482552766799927,-0.0,2.160722255706787,4.478248758906982,0.0,0.2902163565158844,-1.6040619055377405,0.0,-0.003582169534638524,0.811360776424408,-0.0,0.0010271144565194845,0.7988026142120361,0.0,0.0289996936917305
952.0,885.0,3.676,0.0538,8.7212,-0.0338,0.0208,-0.1156,-1.5252668012729664,0.0,1.9505271911621094,-1.8482024669647217,-0.0,2.167022466659546,4.478164835567139,0.0,0.29562893509864807,-1.6040414015399378,0.0,-0.012793334200978279,0.8113770484924316,-0.0,-0.0034126145765185356,0.7987462282180786,0.0,-0.010334694758057594
952.0,885.0,3.676,0.0538,8.7212,-0.0338,0.0208,-0.1156,-1.5252424117973824,0.0,1.9698643684387207,-1.8481827974319458,-0.0,2.1520400047302246,4.478244944209717,0.0,0.304974764585495,-1.6040976683246058,0.0,0.00020781531929969788,0.8113893270492554,-0.0,0.002146504819393158,0.7987421751022339,0.0,0.02775394171476364
952.0,885.0,3.676,0.0538,8.7212,-0.0338,0.0208,-0.1156,-1.525282808845379,0.0,1.9662374258041382,-1.848214864730835,-0.0,2.151524066925049,4.478224917049072,0.0,0.29704925417900085,-1.604053799306051,0.0,0.0004087344277650118,0.8113566637039185,-0.0,-0.004682644736021757,0.7987903356552124,0.0,0.025798987597227097
952.0,885.0,3.676,0.0538,8.7212,-0.0338,0.0208,-0.1156,-1.5252745759538193,0.0,1.9568688869476318,-1.848239779472351,-0.0,2.1398873329162598,4.4782373148151855,0.0,0.3017071485519409,-1.6040218512164515,0.0,-0.009110660292208195,0.8113006353378296,-0.0,-0.010170207358896732,0.7987784147262573,0.0,-0.003696891712024808
952.0,885.0,3.676,0.0538,8.7212,-0.0338,0.0208,-0.1156,-1.5252704595080395,0.0,1.9604637622833252,-1.8482511043548584,-0.0,2.142591953277588,4.478229208583496,0.0,0.2866514027118683,-1.6040094534503382,0.0,-0.0022242427803575993,0.8114013075828552,-0.0,-0.00033667520619928837,0.7987660765647888,0.0,-0.008162434212863445
952.0,885.0,3.676,0.0538,8.7212,-0.0338,0.0208,-0.1156,-1.5252464984408398,0.0,1.9430482387542725,-1.848259449005127,-0.0,2.1331539154052734,4.478212996120117,0.0,0.2926700711250305,-1.6040695349322718,0.0,-0.005286077037453651,0.8113853335380554,-0.0,-0.0016759926220402122,0.7987663745880127,0.0,0.014303218573331833
952.0,885.0,3.676,0.0538,8.7212,-0.0338,0.0208,-0.1156,-1.5252506372383614,0.0,1.9743273258209229,-1.8482439517974854,-0.0,2.1026558876037598,4.4782373148151855,0.0,0.3009263277053833,-1.6040332953082483,0.0,-0.007638230454176664,0.811369001865387,-0.0,-0.007191890385001898,0.7987540364265442,0.0,-0.0188708808273077
952.0,885.0,3.676,0.0538,8.7212,-0.0338,0.0208,-0.1156,-1.525214285855629,0.0,1.9859600067138672,-1.8481827974319458,-0.0,2.168086290359497,4.478221102351807,0.0,0.2931212782859802,-1.6040294806109827,0.0,-0.017223702743649483,0.8113729357719421,-0.0,-0.004975742660462856,0.7987903356552124,0.0,0.005901097320020199
952.0,885.0,3.676,0.0538,8.7212,-0.0338,0.0208,-0.1156,-1.5252989803305645,0.0,1.9360854625701904,-1.8482190370559692,-0.0,2.124183177947998,4.478229208583496,0.0,0.3015121519565582,-1.6040657202350062,0.0,-0.004637804348021746,0.8113812208175659,-0.0,-0.009123696945607662,0.7987622618675232,0.0,-0.06096210330724716
947.0,914.0,3.74,0.0837,8.5837,-0.0408,0.0217,-0.1179,-1.5252626848271866,0.0,1.974625825881958,-1.8482190370559692,-0.0,2.137263059616089,4.478245421046875,0.0,0.28237512707710266,-1.6040294806109827,0.0,-0.007493339478969574,0.8113526105880737,-0.0,-0.0040095774456858635,0.7987462282180786,0.0,-0.009930498898029327
947.0,914.0,3.74,0.0837,8.5837,-0.0408,0.0217,-0.1179,-1.525254451935627,0.0,1.9665952920913696,-1.848259449005127,-0.0,2.124122142791748,4.478212519282959,0.0,0.28579118847846985,-1.6040414015399378,0.0,-0.0013699645642191172,0.8113447427749634,-0.0,-0.007086400408297777,0.7987619638442993,0.0,-0.03747808560729027
947.0,914.0,3.74,0.0837,8.5837,-0.0408,0.0217,-0.1179,-1.525222272878029,0.0,1.9231317043304443,-1.8482470512390137,-0.0,2.152606964111328,4.478229208583496,0.0,0.2956676185131073,-1.6040533224688929,0.0,-0.005193083081394434,0.8113488554954529,-0.0,-0.016051214188337326,0.7988470792770386,0.0,3.104284405708313e-05
947.0,914.0,3.74,0.0837,8.5837,-0.0408,0.0217,-0.1179,-1.5252304908684273,0.0,1.9471814632415771,-1.848283290863037,-0.0,2.1433401107788086,4.478208704585693,0.0,0.3020222783088684,-1.604013744984762,0.0,-0.005732441786676645,0.8113852739334106,-0.0,-0.010531282052397728,0.7988391518592834,0.0,0.051484283059835434
947.0,914.0,3.74,0.0837,8.5837,-0.0408,0.0217,-0.1179,-1.525262677376606,0.0,1.9732366800308228,-1.8482470512390137,-0.0,2.1559040546417236,4.4782091814228515,0.0,0.29043543338775635,-1.6040814558612269,0.0,0.0030645483639091253,0.8113369345664978,-0.0,-0.006665270775556564,0.7987862229347229,0.0,0.055659566074609756
947.0,914.0,3.74,0.0837,8.5837,-0.0408,0.0217,-0.1179,-1.5252102215639134,0.0,1.9659545421600342,-1.8482067584991455,-0.0,2.171915292739868,4.478253050441406,0.0,0.29271751642227173,-1.604065243397848,0.0,-0.0031396178528666496,0.811360776424408,-0.0,-0.009015155956149101,0.7987581491470337,0.0,0.025050513446331024
947.0,914.0,3.74,0.0837,8.5837,-0.0408,0.0217,-0.1179,-1.5252585795572777,0.0,1.9634226560592651,-1.8482791185379028,-0.0,2.184037446975708,4.478224917049072,0.0,0.29858797788619995,-1.6040332953082483,0.0,-0.0038564945571124554,0.8113889694213867,-0.0,-0.005034927278757095,0.7987581491470337,0.0,0.022101683542132378
947.0,914.0,3.74,0.0837,8.5837,-0.0408,0.0217,-0.1179,-1.5252708879164238,0.0,1.9008140563964844,-1.8482273817062378,-0.0,2.157273530960083,4.478200598354004,0.0,0.3005790114402771,-1.6040414015399378,0.0,-0.010109789669513702,0.8113648891448975,-0.0,-0.0038376254960894585,0.7987825274467468,0.0,0.036616161465644836
947.0,914.0,3.74,0.0837,8.5837,-0.0408,0.0217,-0.1179,-1.5252506297877808,0.0,1.947074294090271,-1.848231554031372,-0.0,2.1768791675567627,4.478212519282959,0.0,0.29323554039001465,-1.6040294806109827,0.0,-0.00048104836605489254,0.8113971948623657,-0.0,0.002392804017290473,0.7987866401672363,0.0,0.022768251597881317
947.0,914.0,3.74,0.0837,8.5837,-0.0408,0.0217,-0.1179,-1.5252346222153683,0.0,1.9425148963928223,-1.8482470512390137,-0.0,2.1574225425720215,4.47823350011792,0.0,0.2935028374195099,-1.6040375868426722,0.0,-0.014309711754322052,0.8114292621612549,-0.0,-0.005089021287858486,0.7987622618675232,0.0,0.024128630757331848
947.0,914.0,3.74,0.0837,8.5837,-0.0408,0.0217,-0.1179,-1.5252745908549805,0.0,1.941422700881958,-1.8482275009155273,-0.0,2.1534318923950195,4.478277845973633,0.0,0.29803967475891113,-1.6040938536273401,0.0,0.0020440914668142796,0.8113206624984741,-0.0,-0.010487805120646954,0.7987663745880127,0.0,-0.012250348925590515
947.0,914.0,3.74,0.0837,8.5837,-0.0408,0.0217,-0.1179,-1.5252304908684273,0.0,1.9371732473373413,-1.8482675552368164,-0.0,2.1371800899505615,4.4782373148151855,0.0,0.2856479287147522,-1.604013744984762,0.0,-0.010740354657173157,0.8113410472869873,-0.0,-0.010012516751885414,0.7987743020057678,0.0,-0.04674883186817169
956.0,864.0,3.7615,0.1119,8.5226,-0.0386,0.0183,-0.1144,-1.5252424527755757,0.0,1.9558919668197632,-1.848259449005127,-0.0,2.1496994495391846,4.478200598354004,0.0,0.29593345522880554,-1.6040294806109827,0.0,0.003051714040338993,0.8113206624984741,-0.0,-0.00419138977304101,0.7987462878227234,0.0,-0.04611421748995781
956.0,864.0,3.7615,0.1119,8.5226,-0.0386,0.0183,-0.1144,-1.525226393049099,0.0,1.958431601524353,-1.8482552766799927,-0.0,2.145514965057373,4.478188677425049,0.0,0.2975901961326599,-1.6041019598590296,0.0,-0.02358599565923214,0.8113328814506531,-0.0,-0.0006523190531879663,0.7987784147262573,0.0,-0.025489116087555885
956.0,864.0,3.7615,0.1119,8.5226,-0.0386,0.0183,-0.1144,-1.5252827529660244,0.0,1.9536645412445068,-1.848242998123169,-0.0,2.0990569591522217,4.478244944209717,0.0,0.2994624078273773,-1.6040576140033167,0.0,0.0035002613440155983,0.8113287091255188,-0.0,-0.01063858438283205,0.7987701892852783,0.0,-0.0022906875237822533
956.0,864.0,3.7615,0.1119,8.5226,-0.0386,0.0183,-0.1144,-1.5252264377525826,0.0,1.9592654705047607,-1.8482067584991455,-0.0,2.1848411560058594,4.4782091814228515,0.0,0.2866746783256531,-1.6040776411639612,0.0,-0.0007590235327370465,0.8114330172538757,-0.0,0.0016470414120703936,0.7987462282180786,0.0,-0.016019323840737343
956.0,864.0,3.7615,0.1119,8.5226,-0.0386,0.0183,-0.1144,-1.5252626624754448,0.0,1.9656192064285278,-1.8482511043548584,-0.0,2.1790871620178223,4.478245421046875,0.0,0.28702983260154724,-1.6040619055377405,0.0,0.004538692533969879,0.8113770484924316,-0.0,0.0019777414854615927,0.7987784147262573,0.0,-0.0030101099982857704
956.0,864.0,3.7615,0.1119,8.5226,-0.0386,0.0183,-0.1144,-1.5252626363984128,0.0,1.8970189094543457,-1.848223328590393,-0.0,2.158543109893799,4.478204889888428,0.0,0.29540562629699707,-1.6040456930743616,0.0,0.0031356634572148323,0.8113893866539001,-0.0,-0.0006084331544116139,0.7988026738166809,0.0,-0.012498118914663792
956.0,864.0,3.7615,0.1119,8.5226,-0.0386,0.0183,-0.1144,-1.5252465021661301,0.0,1.9632525444030762,-1.8481829166412354,-0.0,2.13360595703125,4.478192492122314,0.0,0.28798070549964905,-1.6040337721454065,0.0,-0.011767392046749592,0.8114169836044312,-0.0,0.00074095738818869,0.7987462878227234,0.0,0.01699511893093586
956.0,864.0,3.7615,0.1119,8.5226,-0.0386,0.0183,-0.1144,-1.5252586168101807,0.0,1.9388247728347778,-1.8482717275619507,-0.0,2.1882193088531494,4.478229208583496,0.0,0.2982623279094696,-1.6040499846087855,0.0,-0.0034642177633941174,0.8113452196121216,-0.0,-0.003386689815670252,0.7987743616104126,0.0,-0.020674264058470726
956.0,864.0,3.7615,0.1119,8.5226,-0.0386,0.0183,-0.1144,-1.5252264452031632,0.0,1.938279390335083,-1.8482108116149902,-0.0,2.164832830429077,4.478200598354004,0.0,0.29300937056541443,-1.6040776411639612,0.0,-0.012756941840052605,0.811348557472229,-0.0,-0.018049631267786026,0.7987862229347229,0.0,-0.009510716423392296
956.0,864.0,3.7615,0.1119,8.5226,-0.0386,0.0183,-0.1144,-1.5252626699260254,0.0,1.9487292766571045,-1.848259449005127,-0.0,2.144252300262451,4.478212519282959,0.0,0.3033106029033661,-1.604053799306051,0.0,-0.005177008919417858,0.811377227306366,-0.0,-0.004995879717171192,0.7987865805625916,0.0,0.003653552383184433
956.0,864.0,3.7615,0.1119,8.5226,-0.0386,0.0183,-0.1144,-1.5252465207925816,0.0,1.923351764678955,-1.8482520580291748,-0.0,2.1549670696258545,4.478224917049072,0.0,0.2926778495311737,-1.6040619055377405,0.0,-0.006087800487875938,0.8113648891448975,-0.0,-3.7653459003195167e-05,0.7987380623817444,0.0,-0.0105277793481946
956.0,864.0,3.7615,0.1119,8.5226,-0.0386,0.0183,-0.1144,-1.5252585795572777,0.0,1.9486037492752075,-1.848242998123169,-0.0,2.159818649291992,4.4781691271015625,0.0,0.2898469567298889,-1.6040294806109827,0.0,-0.010106624104082584,0.8113812804222107,-0.0,-0.0006382403080351651,0.7987903356552124,0.0,-0.0015725954435765743
956.0,864.0,3.7615,0.1119,8.5226,-0.0386,0.0183,-0.1144,-1.5252342422357579,0.0,1.9384593963623047,-1.848231554031372,-0.0,2.178331136703491,4.478192968959473,0.0,0.28228962421417236,-1.6040337721454065,0.0,0.0019785410258919,0.8113729357719421,-0.0,-0.004132825415581465,0.7987743616104126,0.0,0.015438837930560112
953.0,877.0,3.7101,0.1017,8.5412,-0.0371,0.0188,-0.1136,-1.5253030036440869,0.0,2.0041873455047607,-1.8482275009155273,-0.0,2.1298677921295166,4.478216810817383,0.0,0.3012511134147644,-1.6040499846087855,0.0,-0.015568441711366177,0.8113488554954529,-0.0,-0.00619600061327219,0.7988147139549255,0.0,-0.028479531407356262
953.0,877.0,3.7101,0.1017,8.5412,-0.0371,0.0188,-0.1136,-1.5252745908549805,0.0,1.973862648010254,-1.8482675552368164,-0.0,2.155517339706421,4.478196783656738,0.0,0.2970934510231018,-1.6040499846087855,0.0,0.005186242982745171,0.8114017844200134,-0.0,-0.0029207272455096245,0.7987743020057678,0.0,-0.01030522771179676
953.0,877.0,3.7101,0.1017,8.5412,-0.0371,0.0188,-0.1136,-1.525242419247963,0.0,1.9654886722564697,-1.8482470512390137,-0.0,2.1814303398132324,4.478229208583496,0.0,0.2895687222480774,-1.6040776411639612,0.0,-0.011286371387541294,0.8113328814506531,-0.0,-0.006117148324847221,0.798802375793457,0.0,-0.03954546898603439
953.0,877.0,3.7101,0.1017,8.5412,-0.0371,0.0188,-0.1136,-1.5252305318466206,0.0,1.9471697807312012,-1.8482232093811035,-0.0,2.162829637527466,4.478188677425049,0.0,0.29400667548179626,-1.604081932698385,0.0,0.009393868036568165,0.8113489151000977,-0.0,-0.002719029551371932,0.7987298965454102,0.0,0.011669524945318699
953.0,877.0,3.7101,0.1017,8.5412,-0.0371,0.0188,-0.1136,-1.5252547052553673,0.0,1.9676549434661865,-1.8481746912002563,-0.0,2.175726890563965,4.478192968959473,0.0,0.31803712248802185,-1.6040456930743616,0.0,-0.0038319637533277273,0.8113086819648743,-0.0,0.002872563898563385,0.7987985014915466,0.0,0.03288065642118454
953.0,877.0,3.7101,0.1017,8.5412,-0.0371,0.0188,-0.1136,-1.5253030110946675,0.0,1.9657092094421387,-1.8482675552368164,-0.0,2.1721372604370117,4.478200598354004,0.0,0.29514509439468384,-1.6040499846087855,0.0,-0.018235772848129272,0.8114210367202759,-0.0,0.01456511951982975,0.7987743616104126,0.0,0.0029735714197158813
953.0,877.0,3.7101,0.1017,8.5412,-0.0371,0.0188,-0.1136,-1.525290997033455,0.0,1.966768741607666,-1.8482511043548584,-0.0,2.1746299266815186,4.478216810817383,0.0,0.2836608588695526,-1.6040414015399378,0.0,-0.0037779761478304863,0.8113409876823425,-0.0,-0.010728775523602962,0.7987462878227234,0.0,0.03281567618250847
953.0,877.0,3.7101,0.1017,8.5412,-0.0371,0.0188,-0.1136,-1.5252223213068028,0.0,1.9719460010528564,-1.848259449005127,-0.0,2.160580635070801,4.478208704585693,0.0,0.30379313230514526,-1.6040456930743616,0.0,-0.018669433891773224,0.8113770484924316,-0.0,-0.013487355783581734,0.7987499237060547,0.0,-0.02880026400089264
953.0,877.0,3.7101,0.1017,8.5412,-0.0371,0.0188,-0.1136,-1.5252264377525826,0.0,1.9615249633789062,-1.8482717275619507,-0.0,2.094871997833252,4.4782373148151855,0.0,0.30575090646743774,-1.6040857473956507,0.0,0.0005372550804167986,0.8113930225372314,-0.0,-0.006176541559398174,0.7987702488899231,0.0,0.03877963125705719
953.0,877.0,3.7101,0.1017,8.5412,-0.0371,0.0188,-0.1136,-1.525258594458439,0.0,1.9309678077697754,-1.8482511043548584,-0.0,2.094770908355713,4.478168650264404,0.0,0.30379343032836914,-1.604081932698385,0.0,0.011754688806831837,0.8113123178482056,-0.0,-0.004723262973129749,0.7988105416297913,0.0,-0.005763617344200611
953.0,877.0,3.7101,0.1017,8.5412,-0.0371,0.0188,-0.1136,-1.525270865564682,0.0,1.9590826034545898,-1.8482552766799927,-0.0,2.1424922943115234,4.478221102351807,0.0,0.3108634054660797,-1.6040456930743616,0.0,-0.004459593445062637,0.8114492893218994,-0.0,-0.0059306425973773,0.7987135052680969,0.0,-0.023233436048030853
953.0,877.0,3.7101,0.1017,8.5412,-0.0371,0.0188,-0.1136,-1.5252387088588257,0.0,1.945420265197754,-1.848242998123169,-0.0,2.1599040031433105,4.478204889888428,0.0,0.29985350370407104,-1.6040456930743616,0.0,-0.01233638171106577,0.8113813400268555,-0.0,-0.009239976294338703,0.7987746596336365,0.0,0.01809646375477314
967.0,838.0,3.7819,0.0939,8.5382,-0.04,0.0276,-0.1231,-1.525303018545248,0.0,1.9586286544799805,-1.848231554031372,-0.0,2.1952481269836426,4.478204889888428,0.0,0.29704633355140686,-1.6040857473956507,0.0,-0.002519752597436309,0.8113729953765869,-0.0,-0.004606339149177074,0.7987943887710571,0.0,0.028502851724624634
967.0,838.0,3.7819,0.0939,8.5382,-0.04,0.0276,-0.1231,-1.5252305057695885,0.0,1.9880952835083008,-1.8482356071472168,-0.0,2.145740509033203,4.478176756496094,0.0,0.2959325313568115,-1.6040657202350062,0.0,-0.002862822264432907,0.811292290687561,-0.0,0.007287171203643084,0.7987903356552124,0.0,0.016340922564268112
967.0,838.0,3.7819,0.0939,8.5382,-0.04,0.0276,-0.1231,-1.525246513342001,0.0,1.920178771018982,-1.8482552766799927,-0.0,2.154693841934204,4.478180571193359,0.0,0.3053267002105713,-1.6040452162372034,0.0,-0.01264574471861124,0.8113652467727661,-0.0,-0.0032860313076525927,0.7987300157546997,0.0,-0.0076440246775746346
967.0,838.0,3.7819,0.0939,8.5382,-0.04,0.0276,-0.1231,-1.5252827864936371,0.0,1.9679149389266968,-1.848231554031372,-0.0,2.129852294921875,4.478197260493896,0.0,0.29341837763786316,-1.6040619055377405,0.0,-0.004835053347051144,0.8113607168197632,-0.0,-0.013949191197752953,0.7987743020057678,0.0,0.013932368718087673
967.0,838.0,3.7819,0.0939,8.5382,-0.04,0.0276,-0.1231,-1.5252626699260254,0.0,1.9331506490707397,-1.8482273817062378,-0.0,2.1895501613616943,4.478201075191162,0.0,0.30038005113601685,-1.6040337721454065,0.0,-0.017337525263428688,0.8113446831703186,-0.0,0.010034704580903053,0.7987862229347229,0.0,0.028070660308003426
967.0,838.0,3.7819,0.0939,8.5382,-0.04,0.0276,-0.1231,-1.5252827864936371,0.0,1.9605176448822021,-1.8482024669647217,-0.0,2.163118600845337,4.478204889888428,0.0,0.2989792227745056,-1.604025665913717,0.0,-0.006579080130904913,0.8113446831703186,-0.0,0.005355917848646641,0.7988146543502808,0.0,0.0007504625245928764
967.0,838.0,3.7819,0.0939,8.5382,-0.04,0.0276,-0.1231,-1.5252465021661301,0.0,1.9551711082458496,-1.8482232093811035,-0.0,2.174129009246826,4.478221102351807,0.0,0.2920224070549011,-1.6040695349322718,0.0,-0.011413970030844212,0.8113889694213867,-0.0,-0.005549325607717037,0.7988187074661255,0.0,-0.017984524369239807
967.0,838.0,3.7819,0.0939,8.5382,-0.04,0.0276,-0.1231,-1.5252346333912392,0.0,1.911919355392456,-1.8482675552368164,-0.0,2.1387646198272705,4.478244944209717,0.0,0.29381492733955383,-1.6040456930743616,0.0,0.006915370933711529,0.8113446831703186,-0.0,-0.006632194388657808,0.7987421751022339,0.0,-0.005661981180310249
967.0,838.0,3.7819,0.0939,8.5382,-0.04,0.0276,-0.1231,-1.525258594458439,0.0,1.950599193572998,-1.8482800722122192,-0.0,2.1567606925964355,4.47816435872998,0.0,0.2924577295780182,-1.604053799306051,0.0,0.0023877392522990704,0.8113287091255188,-0.0,-0.007130145560950041,0.7987821102142334,0.0,-0.021947916597127914
967.0,838.0,3.7819,0.0939,8.5382,-0.04,0.0276,-0.1231,-1.5252387088588257,0.0,1.9529492855072021,-1.8482273817062378,-0.0,2.1303367614746094,4.4782373148151855,0.0,0.2988708019256592,-1.604058090840475,0.0,-0.008413206785917282,0.8113246560096741,-0.0,-0.005875416100025177,0.7987619638442993,0.0,0.00209735706448555
967.0,838.0,3.7819,0.0939,8.5382,-0.04,0.0276,-0.1231,-1.5252786812237282,0.0,1.9610029458999634,-1.8482635021209717,-0.0,2.1748220920562744,4.478216810817383,0.0,0.29497030377388,-1.6040499846087855,0.0,-0.002271191915497184,0.8113930821418762,-0.0,0.000698919640854001,0.7987862229347229,0.0,0.003543080762028694
967.0,838.0,3.7819,0.0939,8.5382,-0.04,0.0276,-0.1231,-1.5252346333912392,0.0,1.9564831256866455,-1.8482552766799927,-0.0,2.166461706161499,4.478201075191162,0.0,0.30575889348983765,-1.6040499846087855,0.0,-0.007792407646775246,0.811416745185852,-0.0,-0.014563662931323051,0.7987861633300781,0.0,0.0008743619546294212
925.0,815.0,3.7783,0.0628,8.6901,-0.0348,0.024,-0.1187,-1.525214360361435,0.0,1.9886667728424072,-1.8482356071472168,-0.0,2.1700892448425293,4.4782373148151855,0.0,0.2912464439868927,-1.6040094534503382,0.0,-0.0020946955773979425,0.8114047050476074,-0.0,-0.0012970471289008856,0.7987743616104126,0.0,0.013958325609564781
925.0,815.0,3.7783,0.0628,8.6901,-0.0348,0.024,-0.1187,-1.5252305541983624,0.0,1.9863770008087158,-1.848206639289856,-0.0,2.190187931060791,4.478200598354004,0.0,0.296673983335495,-1.6040056387530726,0.0,0.008987411856651306,0.8113083243370056,-0.0,-0.009856403805315495,0.798782467842102,0.0,-0.004863513633608818
925.0,815.0,3.7783,0.0628,8.6901,-0.0348,0.024,-0.1187,-1.5252428402057667,0.0,1.960167646408081,-1.8482109308242798,-0.0,2.146810531616211,4.478164835567139,0.0,0.2938946485519409,-1.6040857473956507,0.0,0.002059721853584051,0.8113853335380554,-0.0,-0.007758449297398329,0.798810601234436,0.0,-0.010855595581233501
925.0,815.0,3.7783,0.0628,8.6901,-0.0348,0.024,-0.1187,-1.525246513342001,0.0,1.9888887405395508,-1.8482190370559692,-0.0,2.19354248046875,4.478200598354004,0.0,0.29453861713409424,-1.6040380636798304,0.0,-0.013399569317698479,0.8113526105880737,-0.0,-0.012725619599223137,0.7987820506095886,0.0,-0.04896216839551926
925.0,815.0,3.7783,0.0628,8.6901,-0.0348,0.024,-0.1187,-1.525258620535471,0.0,1.9164507389068604,-1.8482108116149902,-0.0,2.161146879196167,4.478172941798828,0.0,0.2891221046447754,-1.6040213743792933,0.0,-0.004298422485589981,0.811369001865387,-0.0,-0.008266464807093143,0.7988187074661255,0.0,-0.015517177060246468
925.0,815.0,3.7783,0.0628,8.6901,-0.0348,0.024,-0.1187,-1.5252305132201691,0.0,1.965066909790039,-1.8482356071472168,-0.0,2.1755013465881348,4.478241606349609,0.0,0.28347790241241455,-1.604025665913717,0.0,-0.0013982872478663921,0.8113930821418762,-0.0,-0.008516808971762657,0.7987985014915466,0.0,0.034531231969594955
925.0,815.0,3.7783,0.0628,8.6901,-0.0348,0.024,-0.1187,-1.5252506633153935,0.0,1.9342596530914307,-1.8482511043548584,-0.0,2.153076648712158,4.478256865138672,0.0,0.2923600375652313,-1.6040456930743616,0.0,-0.0017957075033336878,0.811428964138031,-0.0,-0.0005739768967032433,0.7987582087516785,0.0,0.0005733780562877655
925.0,815.0,3.7783,0.0628,8.6901,-0.0348,0.024,-0.1187,-1.525234193806984,0.0,1.9591639041900635,-1.8482273817062378,-0.0,2.1588008403778076,4.47823350011792,0.0,0.2964816093444824,-1.604025665913717,0.0,-0.018474183976650238,0.8113406300544739,-0.0,-0.01031386386603117,0.7987943887710571,0.0,-0.011465317569673061
925.0,815.0,3.7783,0.0628,8.6901,-0.0348,0.024,-0.1187,-1.5252504025450726,0.0,1.9525129795074463,-1.848242998123169,-0.0,2.163968086242676,4.478245421046875,0.0,0.29099705815315247,-1.604081932698385,0.0,-0.017469432204961777,0.811369001865387,-0.0,-0.005421496462076902,0.7987943887710571,0.0,0.009978048503398895
925.0,815.0,3.7783,0.0628,8.6901,-0.0348,0.024,-0.1187,-1.5252989803305645,0.0,1.9412949085235596,-1.84824800491333,-0.0,2.144770622253418,4.478164835567139,0.0,0.30485883355140686,-1.6040175596820276,0.0,-0.0020297381561249495,0.811369001865387,-0.0,-0.0005118724657222629,0.7987422347068787,0.0,-0.017542531713843346
925.0,815.0,3.7783,0.0628,8.6901,-0.0348,0.024,-0.1187,-1.5252588477781792,0.0,1.9651341438293457,-1.8482916355133057,-0.0,2.17069411277771,4.478196783656738,0.0,0.2962324321269989,-1.6040337721454065,0.0,0.003688207594677806,0.8114053606987,-0.0,-0.0016336472472175956,0.7987903356552124,0.0,0.01349201425909996
925.0,815.0,3.7783,0.0628,8.6901,-0.0348,0.024,-0.1187,-1.525314987902977,0.0,1.9678280353546143,-1.8482635021209717,-0.0,2.163459300994873,4.478212996120117,0.0,0.2890933156013489,-1.604081932698385,0.0,-0.016532424837350845,0.8113853335380554,-0.0,-0.005686171352863312,0.7988067269325256,0.0,0.009042181074619293
925.0,815.0,3.7783,0.0628,8.6901,-0.0348,0.024,-0.1187,-1.5252143193832417,0.0,1.956897497177124,-1.848239779472351,-0.0,2.181432008743286,4.478216810817383,0.0,0.29600730538368225,-1.6040375868426722,0.0,-0.008897996507585049,0.8113971948623657,-0.0,0.00020947493612766266,0.7987784147262573,0.0,-0.016611134633421898
8190.0,878.0,3.8088,0.1005,8.5765,-0.0411,0.0257,-0.117,-1.5253067699125786,0.0,1.9709081649780273,-1.8482675552368164,-0.0,2.1283650398254395,4.478253050441406,0.0,0.29307490587234497,-1.6040576140033167,0.0,-0.01573842018842697,0.8113770484924316,-0.0,0.00648191012442112,0.7988226413726807,0.0,-0.014535707421600819
8190.0,878.0,3.8088,0.1005,8.5765,-0.0411,0.0257,-0.117,-1.5252387088588257,0.0,1.9577058553695679,-1.848275065422058,-0.0,2.137291669845581,4.478244944209717,0.0,0.2967994213104248,-1.6040456930743616,0.0,-0.008633255958557129,0.8113730549812317,-0.0,-0.0011679099407047033,0.7987985014915466,0.0,0.012207681313157082
8190.0,878.0,3.8088,0.1005,8.5765,-0.0411,0.0257,-0.117,-1.5252464984408398,0.0,1.9136152267456055,-1.8482232093811035,-0.0,2.175327777862549,4.478200598354004,0.0,0.3061710298061371,-1.6040857473956507,0.0,-0.0016645356081426144,0.8113452196121216,-0.0,-0.006192347966134548,0.7987862229347229,0.0,0.02051401510834694
8190.0,878.0,3.8088,0.1005,8.5765,-0.0411,0.0257,-0.117,-1.5252464835396786,0.0,1.9429659843444824,-1.8482190370559692,-0.0,2.149510145187378,4.478176756496094,0.0,0.3058089315891266,-1.6040414015399378,0.0,-0.00024388718884438276,0.811348557472229,-0.0,0.004868381191045046,0.7988064289093018,0.0,0.006719066761434078
8190.0,878.0,3.8088,0.1005,8.5765,-0.0411,0.0257,-0.117,-1.5252668012729664,0.0,1.994149923324585,-1.8482190370559692,-0.0,2.1266160011291504,4.478196783656738,0.0,0.2980009913444519,-1.604025665913717,0.0,-0.0003438136773183942,0.8113570809364319,-0.0,-0.00018194643780589104,0.7987622618675232,0.0,0.006702478043735027
8190.0,878.0,3.8088,0.1005,8.5765,-0.0411,0.0257,-0.117,-1.5252750192633648,0.0,1.977921724319458,-1.8482552766799927,-0.0,2.155025005340576,4.478196783656738,0.0,0.296844482421875,-1.6040657202350062,0.0,-0.007155250757932663,0.8114006519317627,-0.0,0.002594995079562068,0.7988187074661255,0.0,-0.005719761364161968
8190.0,878.0,3.8088,0.1005,8.5765,-0.0411,0.0257,-0.117,-1.5252585795572777,0.0,1.9446831941604614,-1.8482190370559692,-0.0,2.1349968910217285,4.478241606349609,0.0,0.2889694571495056,-1.604013744984762,0.0,-0.009501129388809204,0.8113853335380554,-0.0,0.003090520855039358,0.7987663745880127,0.0,0.023237163200974464
8190.0,878.0,3.8088,0.1005,8.5765,-0.0411,0.0257,-0.117,-1.5252626699260254,0.0,1.9716970920562744,-1.8482356071472168,-0.0,2.1816954612731934,4.478221102351807,0.0,0.29716235399246216,-1.604025665913717,0.0,0.006520266644656658,0.8113689422607422,-0.0,-0.0032729366794228554,0.7987821102142334,0.0,-0.03122149407863617
8190.0,878.0,3.8088,0.1005,8.5765,-0.0411,0.0257,-0.117,-1.5252304908684273,0.0,1.9645590782165527,-1.8482356071472168,-0.0,2.172213315963745,4.4782373148151855,0.0,0.2982102334499359,-1.6040375868426722,0.0,-0.011485708877444267,0.8114129304885864,-0.0,0.004279658198356628,0.7987582087516785,0.0,0.015073679387569427
8190.0,878.0,3.8088,0.1005,8.5765,-0.0411,0.0257,-0.117,-1.5252626624754448,0.0,1.9912962913513184,-1.848206639289856,-0.0,2.1711020469665527,4.4782091814228515,0.0,0.2993127703666687,-1.6040499846087855,0.0,-0.00013566204870585352,0.8113812208175659,-0.0,-0.009398744441568851,0.7988064885139465,0.0,0.015754882246255875
8190.0,878.0,3.8088,0.1005,8.5765,-0.0411,0.0257,-0.117,-1.5252990026823063,0.0,1.9644217491149902,-1.8482232093811035,-0.0,2.1308083534240723,4.478180571193359,0.0,0.2950865924358368,-1.6040332953082483,0.0,0.004500480834394693,0.8113529682159424,-0.0,0.004667345434427261,0.7987622618675232,0.0,-0.01627793349325657
8190.0,878.0,3.8088,0.1005,8.5765,-0.0411,0.0257,-0.117,-1.5252866309932251,0.0,1.9341683387756348,-1.8482232093811035,-0.0,2.1558475494384766,4.478208704585693,0.0,0.2855238914489746,-1.6040414015399378,0.0,-0.012757038697600365,0.8113976120948792,-0.0,-0.015631966292858124,0.7987622618675232,0.0,-0.0011363131925463676
975.0,874.0,3.8303,0.064,8.6333,-0.0396,0.0287,-0.1196,-1.5252745908549805,0.0,1.9716413021087646,-1.8482710123062134,-0.0,2.1555979251861572,4.478188677425049,0.0,0.29838815331459045,-1.6040619055377405,0.0,-0.008567949756979942,0.8113570213317871,-0.0,-0.013525981456041336,0.7987743616104126,0.0,0.017500247806310654
975.0,874.0,3.8303,0.064,8.6333,-0.0396,0.0287,-0.1196,-1.5252465096167107,0.0,1.9369726181030273,-1.8482109308242798,-0.0,2.135014533996582,4.478192968959473,0.0,0.29861900210380554,-1.6040776411639612,0.0,-0.00807502493262291,0.8113406300544739,-0.0,-0.008529976941645145,0.798754096031189,0.0,-0.015669578686356544
975.0,874.0,3.8303,0.064,8.6333,-0.0396,0.0287,-0.1196,-1.525250644688942,0.0,1.9445595741271973,-1.848195195198059,-0.0,2.182187557220459,4.478248758906982,0.0,0.29574283957481384,-1.6040414015399378,0.0,-0.014215251430869102,0.8113812208175659,-0.0,0.006660935934633017,0.7987422347068787,0.0,0.00960293598473072
975.0,874.0,3.8303,0.064,8.6333,-0.0396,0.0287,-0.1196,-1.5252745908549805,0.0,1.9250680208206177,-1.8482232093811035,-0.0,2.1590662002563477,4.478216810817383,0.0,0.3065341114997864,-1.604025665913717,0.0,-0.0049177552573382854,0.8113566040992737,-0.0,0.0016123782843351364,0.7987622618675232,0.0,0.02312120422720909
975.0,874.0,3.8303,0.064,8.6333,-0.0396,0.0287,-0.1196,-1.5252668012729664,0.0,1.9101150035858154,-1.8482356071472168,-0.0,2.1444573402404785,4.478208704585693,0.0,0.29719850420951843,-1.6040414015399378,0.0,-0.008318185806274414,0.8114054203033447,-0.0,0.0066187093034386635,0.7987943887710571,0.0,0.014896763488650322
975.0,874.0,3.8303,0.064,8.6333,-0.0396,0.0287,-0.1196,-1.525222522472479,0.0,1.9640436172485352,-1.8482273817062378,-0.0,2.1344218254089355,4.478241606349609,0.0,0.29743456840515137,-1.6039894262896937,0.0,-0.0023361833300441504,0.8113369941711426,-0.0,0.00017755664885044098,0.7988266944885254,0.0,0.0094551220536232
975.0,874.0,3.8303,0.064,8.6333,-0.0396,0.0287,-0.1196,-1.5252626438489933,0.0,1.9567158222198486,-1.8482356071472168,-0.0,2.147559404373169,4.478244944209717,0.0,0.29336029291152954,-1.604053799306051,0.0,-0.009363057091832161,0.8113607168197632,-0.0,-0.01073379348963499,0.7987097501754761,0.0,0.02737351320683956
975.0,874.0,3.8303,0.064,8.6333,-0.0396,0.0287,-0.1196,-1.5252465096167107,0.0,1.958768367767334,-1.8482718467712402,-0.0,2.148042678833008,4.478188677425049,0.0,0.28850504755973816,-1.6040456930743616,0.0,-0.015169023536145687,0.8113566637039185,-0.0,-0.007342837750911713,0.7987825274467468,0.0,-0.0031165936961770058
975.0,874.0,3.8303,0.064,8.6333,-0.0396,0.0287,-0.1196,-1.525282808845379,0.0,1.9447969198226929,-1.848259449005127,-0.0,2.1537420749664307,4.478192492122314,0.0,0.30001693964004517,-1.6040294806109827,0.0,-0.01933836005628109,0.8113405704498291,-0.0,0.0010564527474343777,0.7987582087516785,0.0,0.04881063103675842
975.0,874.0,3.8303,0.064,8.6333,-0.0396,0.0287,-0.1196,-1.5252749559334298,0.0,1.9755741357803345,-1.8482997417449951,-0.0,2.1061954498291016,4.478200598354004,0.0,0.29551467299461365,-1.6040619055377405,0.0,0.004595320671796799,0.8113325238227844,-0.0,-0.013543170876801014,0.7987784147262573,0.0,-0.011405829340219498
975.0,874.0,3.8303,0.064,8.6333,-0.0396,0.0287,-0.1196,-1.52528694019232,0.0,1.9531447887420654,-1.8482356071472168,-0.0,2.132235527038574,4.478156729335449,0.0,0.2932751774787903,-1.6040375868426722,0.0,0.001114059705287218,0.8113770484924316,-0.0,-0.009900039061903954,0.7987943887710571,0.0,-0.014738975092768669
975.0,874.0,3.8303,0.064,8.6333,-0.0396,0.0287,-0.1196,-1.5252424043468018,0.0,1.9220741987228394,-1.848267674446106,-0.0,2.136134624481201,4.478168650264404,0.0,0.30100199580192566,-1.6040456930743616,0.0,-0.013471473008394241,0.8113770484924316,-0.0,-0.011023781262338161,0.7987943887710571,0.0,0.06593792885541916
942.0,845.0,3.7639,0.0897,8.5825,-0.0356,0.0286,-0.1226,-1.5252668012729664,0.0,1.9977021217346191,-1.848242998123169,-0.0,2.193516731262207,4.47823350011792,0.0,0.2945820987224579,-1.6040938536273401,0.0,-0.010663572698831558,0.8113446831703186,-0.0,-0.014302517287433147,0.7988268733024597,0.0,0.007192184217274189
942.0,845.0,3.7639,0.0897,8.5825,-0.0356,0.0286,-0.1226,-1.5252708804658432,0.0,1.9621599912643433,-1.848251223564148,-0.0,2.138197898864746,4.47811667501416,0.0,0.2912050485610962,-1.6040533224688929,0.0,0.0009083457989618182,0.8113770484924316,-0.0,-0.0020381403155624866,0.7987704277038574,0.0,0.013530131429433823
942.0,845.0,3.7639,0.0897,8.5825,-0.0356,0.0286,-0.1226,-1.5252667900970955,0.0,1.9378563165664673,-1.8482511043548584,-0.0,2.1006920337677,4.478200598354004,0.0,0.2925609350204468,-1.6040619055377405,0.0,-0.011346451006829739,0.8114087581634521,-0.0,-0.007854384370148182,0.7987903952598572,0.0,0.017194518819451332
942.0,845.0,3.7639,0.0897,8.5825,-0.0356,0.0286,-0.1226,-1.5252667900970955,0.0,1.9666733741760254,-1.8482190370559692,-0.0,2.1931705474853516,4.478212519282959,0.0,0.31287986040115356,-1.6040294806109827,0.0,0.005038084927946329,0.8114047050476074,-0.0,-0.0005905281286686659,0.7987862229347229,0.0,-0.01319083571434021
942.0,845.0,3.7639,0.0897,8.5825,-0.0356,0.0286,-0.1226,-1.5252585646561165,0.0,1.960437536239624,-1.8482190370559692,-0.0,2.1706438064575195,4.4782373148151855,0.0,0.2940850853919983,-1.6039937178241175,0.0,-0.0031925044022500515,0.8113530278205872,-0.0,-0.009135004132986069,0.7987663745880127,0.0,0.01529724895954132
942.0,845.0,3.7639,0.0897,8.5825,-0.0356,0.0286,-0.1226,-1.5252387349358578,0.0,1.9373326301574707,-1.8482232093811035,-0.0,2.1314163208007812,4.478200598354004,0.0,0.29089832305908203,-1.604025665913717,0.0,0.0002915664226748049,0.8113607168197632,-0.0,0.0024214964359998703,0.7987784743309021,0.0,-0.03391740471124649
942.0,845.0,3.7639,0.0897,8.5825,-0.0356,0.0286,-0.1226,-1.5253067140332242,0.0,1.94945228099823,-1.8482192754745483,-0.0,2.158970832824707,4.478200598354004,0.0,0.29989904165267944,-1.6040332953082483,0.0,-0.021605785936117172,0.8113930225372314,-0.0,0.0016926702810451388,0.7987903356552124,0.0,0.018872637301683426
942.0,845.0,3.7639,0.0897,8.5825,-0.0356,0.0286,-0.1226,-1.5252102960697194,0.0,1.937412142753601,-1.8482760190963745,-0.0,2.1975789070129395,4.478224917049072,0.0,0.28339019417762756,-1.604053799306051,0.0,-0.00025724759325385094,0.8113729953765869,-0.0,-0.003985409624874592,0.7987664341926575,0.0,-0.009526642970740795
942.0,845.0,3.7639,0.0897,8.5825,-0.0356,0.0286,-0.1226,-1.5252184730819245,0.0,1.951634168624878,-1.8482149839401245,-0.0,2.160120964050293,4.478229208583496,0.0,0.2974955141544342,-1.6040175596820276,0.0,0.0002519916743040085,0.8113406300544739,-0.0,0.009269730187952518,0.7987862229347229,0.0,0.02001449093222618
942.0,845.0,3.7639,0.0897,8.5825,-0.0356,0.0286,-0.1226,-1.5252989430776616,0.0,1.9178454875946045,-1.8482552766799927,-0.0,2.103588581085205,4.478188677425049,0.0,0.28381580114364624,-1.6040332953082483,0.0,-0.0040373420342803,0.8113328218460083,-0.0,0.001888010185211897,0.7987861633300781,0.0,0.007931789383292198
942.0,845.0,3.7639,0.0897,8.5825,-0.0356,0.0286,-0.1226,-1.5252749820104619,0.0,1.9528517723083496,-1.8482024669647217,-0.0,2.1252613067626953,4.478204889888428,0.0,0.2936818599700928,-1.6040175596820276,0.0,-0.002108121756464243,0.8113570213317871,-0.0,0.004046434536576271,0.7987943887710571,0.0,-0.03717222064733505
942.0,845.0,3.7639,0.0897,8.5825,-0.0356,0.0286,-0.1226,-1.5252264377525826,0.0,1.9811903238296509,-1.8482273817062378,7.203950977419105e-13,2.146728515625,4.4782373148151855,0.0,0.30310630798339844,-1.6040213743792933,0.0,0.00243559293448925,0.8113812208175659,-0.0,-0.01496267318725586,0.7987701892852783,0.0,0.01974860578775406
942.0,845.0,3.7639,0.0897,8.5825,-0.0356,0.0286,-0.1226,-1.5252424341491242,0.0,1.9613510370254517,-1.8482635021209717,1.7396691888592616e-18,2.141798734664917,4.478156729335449,0.0,0.31064373254776,-1.6040213743792933,0.0,-0.0062019177712500095,0.8114013075828552,-0.0,0.0002401932142674923,0.7987743616104126,0.0,0.03293308988213539
954.0,854.0,3.7831,-0.0365,8.5143,-0.0365,0.0264,-0.1229,-1.5252588254264374,0.0,1.9737681150436401,-1.8482191562652588,5.636307629810319e-26,2.1412901878356934,4.4782373148151855,0.0,0.2899668514728546,-1.6040414015399378,0.0,-0.00574942771345377,0.8113652467727661,-0.0,-0.011627197265625,0.7987903356552124,0.0,-0.013703353703022003
954.0,854.0,3.7831,-0.0365,8.5143,-0.0365,0.0264,-0.1229,-1.525246513342001,0.0,1.999915599822998,-1.848267674446106,1.8260919030940373e-33,2.1397032737731934,4.478184862727783,0.0,0.2867320775985718,-1.6040619055377405,0.0,0.0037038964219391346,0.8114046454429626,-0.0,-0.005506784655153751,0.7987943887710571,0.0,-0.022640908136963844
954.0,854.0,3.7831,-0.0365,8.5143,-0.0365,0.0264,-0.1229,-1.5252184730819245,0.0,1.9398400783538818,-1.8481706380844116,5.916282116379378e-41,2.210761070251465,4.478229208583496,0.0,0.3023894429206848,-1.6040738264666956,0.0,-0.012665214017033577,0.8113328814506531,-0.0,-0.007086737081408501,0.7987663745880127,0.0,0.10682526975870132
954.0,854.0,3.7831,-0.0365,8.5143,-0.0365,0.0264,-0.1229,-1.5252827864936371,0.0,1.9840903282165527,-1.8482232093811035,0.0,2.1802191734313965,4.478172941798828,0.0,0.2972955107688904,-1.6040456930743616,0.0,-0.016687199473381042,0.811348557472229,-0.0,-0.0016742423176765442,0.798754096031189,0.0,-0.02275429479777813
954.0,854.0,3.7831,-0.0365,8.5143,-0.0365,0.0264,-0.1229,-1.5252745908549805,0.0,1.9401721954345703,-1.848214864730835,-0.0,2.1410398483276367,4.4782091814228515,0.0,0.28212636709213257,-1.60407001176943,0.0,-0.007574770133942366,0.8113972544670105,-0.0,-0.01507189217954874,0.7987943887710571,0.0,-0.008151404559612274
954.0,854.0,3.7831,-0.0365,8.5143,-0.0365,0.0264,-0.1229,-1.5252346333912392,0.0,1.9459701776504517,-1.8482232093811035,-0.0,2.154127836227417,4.478200598354004,0.0,0.2996755838394165,-1.6040576140033167,0.0,-0.008625427260994911,0.8114129900932312,-0.0,0.0007759502623230219,0.7987825274467468,0.0,-0.012307961471378803
954.0,854.0,3.7831,-0.0365,8.5143,-0.0365,0.0264,-0.1229,-1.5252102811685582,0.0,1.9448025226593018,-1.8482511043548584,-0.0,2.1729156970977783,4.478221102351807,0.0,0.2895664870738983,-1.6040533224688929,0.0,-0.017078328877687454,0.8113772869110107,-0.0,-0.0002586867194622755,0.7988266944885254,0.0,0.004239330068230629
954.0,854.0,3.7831,-0.0365,8.5143,-0.0365,0.0264,-0.1229,-1.5252469044974823,0.0,1.9610350131988525,-1.8482708930969238,-0.0,2.117008924484253,4.478245421046875,0.0,0.29177361726760864,-1.6040456930743616,0.0,-0.004717986099421978,0.8113930225372314,-0.0,-0.010126113891601562,0.7988064885139465,0.0,0.02200951799750328
954.0,854.0,3.7831,-0.0365,8.5143,-0.0365,0.0264,-0.1229,-1.5252184395543118,0.0,1.9820020198822021,-1.8482552766799927,2.2189637093106285e-05,2.137141704559326,4.478253050441406,0.0,0.29016828536987305,-1.6040175596820276,0.0,-0.01336924359202385,0.8113566637039185,-0.0,0.009375439956784248,0.7987984418869019,0.0,0.019497226923704147
954.0,854.0,3.7831,-0.0365,8.5143,-0.0365,0.0264,-0.1229,-1.5252506297877808,0.0,1.943812370300293,-1.8482635021209717,2.0200975995976478e-05,2.1849141120910645,4.478189154262207,0.0,0.2881290018558502,-1.6040657202350062,0.0,-0.0031716704834252596,0.8114370107650757,-0.0,0.0017782896757125854,0.7987825274467468,0.0,-0.012671058997511864
954.0,854.0,3.7831,-0.0365,8.5143,-0.0365,0.0264,-0.1229,-1.5252626699260254,0.0,1.946505069732666,-1.848242998123169,1.892653017421253e-05,2.180248260498047,4.478196783656738,0.0,0.28039437532424927,-1.604013744984762,0.0,-0.0024326806887984276,0.8113648891448975,-0.0,-0.008755506947636604,0.7987422347068787,0.0,0.03446436673402786
954.0,854.0,3.7831,-0.0365,8.5143,-0.0365,0.0264,-0.1229,-1.5252948266318818,0.0,1.9240305423736572,-1.8482067584991455,1.745801455399487e-05,2.1801342964172363,4.478224917049072,0.0,0.29729384183883667,-1.6040456930743616,0.0,0.0009136402513831854,0.8113648891448975,-0.0,-0.00977396871894598,0.7987338900566101,0.0,0.00784286204725504
925.0,8190.0,4.0696,0.4564,8.3916,-0.0188,0.0018,-0.1313,-1.525246513342001,0.0,2.0268867015838623,-1.848239779472351,1.6200976460822858e-05,2.114893913269043,4.478204889888428,0.0,0.2918127477169037,-1.6040414015399378,0.0,-0.015536121092736721,0.8113287091255188,-0.0,-0.0025925494264811277,0.798762321472168,0.0,0.003328124061226845
925.0,8190.0,4.0696,0.4564,8.3916,-0.0188,0.0018,-0.1313,-1.5252586354366322,0.0,1.9535419940948486,-1.848231554031372,1.537092430226039e-05,2.1504364013671875,4.478188677425049,0.0,0.2966305911540985,-1.6040695349322718,0.0,0.0034201745875179768,0.8113046288490295,-0.0,-0.013900448568165302,0.7987821102142334,0.0,0.003261987119913101
925.0,8190.0,4.0696,0.4564,8.3916,-0.0188,0.0018,-0.1313,-1.5252503988197823,0.0,1.9494037628173828,-1.8482552766799927,1.438801882613916e-05,2.1481919288635254,4.4782373148151855,0.0,0.30261802673339844,-1.6040976683246058,0.0,0.0035509797744452953,0.8114129304885864,-0.0,-0.0005361333023756742,0.7987582087516785,0.0,-0.024326900020241737
925.0,8190.0,4.0696,0.4564,8.3916,-0.0188,0.0018,-0.1313,-1.5252907586148758,0.0,1.9311959743499756,-1.8481788635253906,1.3523256711778231e-05,2.162531614303589,4.478224917049072,0.0,0.2957358956336975,-1.6040895620929163,0.0,-0.007190406788140535,0.8113812208175659,-0.0,-0.0012561669573187828,0.7987457513809204,0.0,-0.03525542840361595
925.0,8190.0,4.0696,0.4564,8.3916,-0.0188,0.0018,-0.1313,-1.5252102811685582,0.0,1.9252142906188965,-1.8482873439788818,1.2756565411109477e-05,2.1764087677001953,4.478221102351807,0.0,0.28648659586906433,-1.604025665913717,0.0,-0.010410538874566555,0.8113729357719421,-0.0,-0.00231228512711823,0.7987582087516785,0.0,0.0096787940710783
925.0,8190.0,4.0696,0.4564,8.3916,-0.0188,0.0018,-0.1313,-1.525198360239603,0.0,1.9349067211151123,-1.848178744316101,1.2236263501108624e-05,2.171304941177368,4.478200598354004,0.0,0.30591508746147156,-1.6041062513934534,0.0,3.977864980697632e-05,0.8113329410552979,-0.0,-0.0010546364355832338,0.7988147139549255,0.0,0.002700245939195156
925.0,8190.0,4.0696,0.4564,8.3916,-0.0188,0.0018,-0.1313,-1.5252506297877808,0.0,1.94869065284729,-1.848231554031372,1.1605151485127863e-05,2.1569905281066895,4.478224917049072,0.0,0.302458256483078,-1.6040571371661585,0.0,-0.01405603438615799,0.8113889694213867,-0.0,0.009063447825610638,0.798802375793457,0.0,0.013869360089302063
925.0,8190.0,4.0696,0.4564,8.3916,-0.0188,0.0018,-0.1313,-1.5252626699260254,0.0,1.9483871459960938,-1.8482024669647217,1.1035953320970293e-05,2.1116690635681152,4.478168650264404,0.0,0.29171282052993774,-1.6041019598590296,0.0,-0.006931432988494635,0.8113689422607422,-0.0,0.002300298074260354,0.7987943887710571,0.0,0.0038764504715800285
925.0,8190.0,4.0696,0.4564,8.3916,-0.0188,0.0018,-0.1313,-1.525246513342001,0.0,1.9561090469360352,-1.8482356071472168,1.0644380381563678e-05,2.1598093509674072,4.478180571193359,0.0,0.2906686067581177,-1.6040375868426722,0.0,-0.009392447769641876,0.8113245964050293,-0.0,-0.010338825173676014,0.7987701892852783,0.0,0.0365479551255703
925.0,8190.0,4.0696,0.4564,8.3916,-0.0188,0.0018,-0.1313,-1.525234592413046,0.0,1.9144530296325684,-1.8482470512390137,1.0163579645450227e-05,2.1581428050994873,4.47823350011792,0.0,0.3035251498222351,-1.6040414015399378,0.0,-0.004259433597326279,0.8113366365432739,-0.0,-0.004060952924191952,0.7987743020057678,0.0,0.0467512346804142
925.0,8190.0,4.0696,0.4564,8.3916,-0.0188,0.0018,-0.1313,-1.5252506148866196,0.0,1.9383909702301025,-1.848259449005127,1.789002501695336e-09,2.1876726150512695,4.4781762796589355,0.0,0.2968963384628296,-1.6040576140033167,0.0,-0.009288256987929344,0.8113447427749634,-0.0,-0.008603204041719437,0.7987704277038574,0.0,-0.009342274628579617
925.0,8190.0,4.0696,0.4564,8.3916,-0.0188,0.0018,-0.1313,-1.5252827864936371,0.0,1.9513345956802368,-1.8481943607330322,4.32023098461483e-15,2.132401466369629,4.478204889888428,0.0,0.2864273190498352,-1.6040576140033167,0.0,-0.013938766904175282,0.8113648891448975,-0.0,0.0040518743917346,0.7987903356552124,0.0,-0.0014082957059144974
940.0,807.0,3.4295,-0.6084,8.814,-0.089,0.0515,-0.1098,-1.5252102960697194,0.0,1.9565316438674927,-1.8482708930969238,1.3997000117229048e-22,2.1535143852233887,4.478204889888428,0.0,0.2989133298397064,-1.6040695349322718,0.0,-0.01136134285479784,0.8113730549812317,-0.0,-0.009855483658611774,0.7987784147262573,0.0,0.015265749767422676
940.0,807.0,3.4295,-0.6084,8.814,-0.089,0.0515,-0.1098,-1.5252667975476761,0.0,1.9637854099273682,-1.8482275009155273,4.5348503184666405e-30,2.156419038772583,4.478261156673096,0.0,0.292043000459671,-1.6040576140033167,0.0,-0.0037771740462630987,0.8113893866539001,-0.0,-0.005080043338239193,0.7987743020057678,0.0,0.0019797412678599358
940.0,807.0,3.4295,-0.6084,8.814,-0.089,0.0515,-0.1098,-1.525258594458439,0.0,2.0019562244415283,-1.8482635021209717,1.4692336380830385e-37,2.2069759368896484,4.478196783656738,0.0,0.2865017056465149,-1.6040938536273401,0.0,-0.006347412243485451,0.8113853335380554,-0.0,-0.006308470852673054,0.7987701892852783,0.0,0.024270517751574516
940.0,807.0,3.4295,-0.6084,8.814,-0.089,0.0515,-0.1098,-1.5252626699260254,0.0,1.9630093574523926,-1.8482190370559692,3.545285114741787e-43,2.182586431503296,4.478168650264404,0.0,0.3038542866706848,-1.604025665913717,0.0,-0.007530114613473415,0.8113971948623657,-0.0,-0.007435948587954044,0.7987622618675232,0.0,-0.003493044525384903
940.0,807.0,3.4295,-0.6084,8.814,-0.089,0.0515,-0.1098,-1.5252626699260254,0.0,1.919706106185913,-1.8482190370559692,-0.0,2.1143202781677246,4.478188677425049,0.0,0.2862936556339264,-1.6040857473956507,0.0,-0.014446528628468513,0.8113607168197632,-0.0,0.005220789462327957,0.7987702488899231,0.0,0.020632660016417503
940.0,807.0,3.4295,-0.6084,8.814,-0.089,0.0515,-0.1098,-1.5253108230284234,0.0,2.0051016807556152,-1.8482831716537476,-0.0,2.1639280319213867,4.478212519282959,0.0,0.29366666078567505,-1.6040094534503382,0.0,-0.002207416808232665,0.8113808631896973,-0.0,-0.009975387714803219,0.7987903356552124,0.0,-0.018583662807941437
940.0,807.0,3.4295,-0.6084,8.814,-0.089,0.0515,-0.1098,-1.5252626699260254,0.0,1.966817855834961,-1.8482232093811035,-0.0,2.1406750679016113,4.478256865138672,0.0,0.29997092485427856,-1.60407001176943,0.0,-0.005883422214537859,0.8113889694213867,-0.0,-0.0011826889822259545,0.7987862229347229,0.0,-0.004616529680788517
940.0,807.0,3.4295,-0.6084,8.814,-0.089,0.0515,-0.1098,-1.5252506297877808,1.3299883505624166e-07,1.9376418590545654,-1.8482675552368164,-0.0,2.132023334503174,4.478180571193359,0.0,0.300313800573349,-1.6040456930743616,0.0,-0.005329200532287359,0.8113689422607422,-0.0,-0.0004756161943078041,0.7987985610961914,0.0,-0.014178861863911152
940.0,807.0,3.4295,-0.6084,8.814,-0.089,0.0515,-0.1098,-1.5252750267139454,4.30899255147066e-15,1.9753339290618896,-1.8482024669647217,1.832187444961164e-05,2.116071939468384,4.478241606349609,0.0,0.3065851628780365,-1.6040657202350062,0.0,0.005294722504913807,0.8113447427749634,-0.0,-0.0032924292609095573,0.7987944483757019,0.0,-0.03879784792661667
940.0,807.0,3.4295,-0.6084,8.814,-0.089,0.0515,-0.1098,-1.525246513342001,1.3960588822198943e-22,1.9242112636566162,-1.8481953144073486,5.936054599253726e-13,2.1848456859588623,4.478184862727783,0.0,0.2971877455711365,-1.6040414015399378,0.0,-0.010751438327133656,0.811380922794342,-0.0,-0.008238507434725761,0.7987862229347229,0.0,-0.00766327790915966
940.0,807.0,3.4295,-0.6084,8.814,-0.089,0.0515,-0.1098,-1.5252588179758568,3.371317978714253e-28,1.9656667709350586,-1.848214864730835,1.4334874579421459e-18,2.180772542953491,4.478200598354004,0.0,0.2953897714614868,-1.6040175596820276,0.0,-0.009634523652493954,0.8113406300544739,-0.0,-0.007613045163452625,0.7987779974937439,0.0,0.005978726781904697
940.0,807.0,3.4295,-0.6084,8.814,-0.089,0.0515,-0.1098,-1.5252465207925816,1.092264414626151e-35,1.9245412349700928,-1.8481911420822144,4.6443168903876434e-26,2.1644539833068848,4.478221102351807,0.0,0.2999139428138733,-1.6040776411639612,0.0,-0.0023715365678071976,0.8113893270492554,-0.0,-0.009372335858643055,0.7987821102142334,0.0,-0.0060078357346355915
940.0,807.0,3.4295,-0.6084,8.814,-0.089,0.0515,-0.1098,-1.525250644688942,3.545285114741787e-43,1.951291799545288,-1.848198413848877,1.5046998089647233e-33,2.151583671569824,4.478196783656738,0.0,0.29857197403907776,-1.6040576140033167,0.0,-0.002518778434023261,0.8113889694213867,-0.0,-0.005008273757994175,0.7987784147262573,0.0,0.010412819683551788
952.0,838.0,4.2778,0.2423,8.2552,-0.0032,-0.0516,-0.1407,-1.5252106611481686,0.0,1.9834620952606201,-1.8482873439788818,3.633672015379075e-39,2.1687021255493164,4.478196783656738,0.0,0.2975548803806305,-1.6040738264666956,0.0,0.00013718102127313614,0.8113770484924316,-0.0,-0.0059553952887654305,0.7987862229347229,0.0,-0.008262649178504944
952.0,838.0,4.2778,0.2423,8.2552,-0.0032,-0.0516,-0.1407,-1.5252667751959343,0.0,1.9957802295684814,-1.848259449005127,0.0,2.1292219161987305,4.4782373148151855,0.0,0.27804034948349,-1.6040895620929163,0.0,-0.001938940491527319,0.8113971948623657,-0.0,-0.0071603478863835335,0.7987903356552124,0.0,0.02672797441482544
952.0,838.0,4.2778,0.2423,8.2552,-0.0032,-0.0516,-0.1407,-1.5252546829036255,0.0,1.8909775018692017,-1.8482314348220825,-0.0,2.0928831100463867,4.478212519282959,0.0,0.29881221055984497,-1.6040332953082483,0.0,0.0004178921226412058,0.8113729953765869,-0.0,-0.00802016444504261,0.7987784743309021,0.0,0.01102396473288536
952.0,838.0,4.2778,0.2423,8.2552,-0.0032,-0.0516,-0.1407,-1.5252225522748013,0.0,1.9941986799240112,-1.8481911420822144,-0.0,2.168276309967041,4.478245421046875,0.0,0.28917112946510315,-1.6040375868426722,0.0,-0.0020038518123328686,0.8114128708839417,-0.0,-0.003840961027890444,0.7987701892852783,0.0,-0.018026458099484444
952.0,838.0,4.2778,0.2423,8.2552,-0.0032,-0.0516,-0.1407,-1.525250644688942,0.0,1.9942831993103027,-1.848239779472351,-0.0,2.157959461212158,4.4782091814228515,0.0,0.29431578516960144,-1.6040976683246058,0.0,-0.005899128504097462,0.8113853335380554,-0.0,-0.007112676277756691,0.7987862229347229,0.0,-0.07492050528526306
952.0,838.0,4.2778,0.2423,8.2552,-0.0032,-0.0516,-0.1407,-1.5252547462335606,0.0,1.958487629890442,-1.848239779472351,-0.0,2.1333789825439453,4.4782091814228515,0.0,0.28833138942718506,-1.604065243397848,0.0,-0.0030144937336444855,0.8114095330238342,-0.0,-0.012700870633125305,0.7988064885139465,0.0,0.012081797234714031
952.0,838.0,4.2778,0.2423,8.2552,-0.0032,-0.0516,-0.1407,-1.525246513342001,0.0,1.9194339513778687,-1.848239779472351,-0.0,2.183095932006836,4.47823350011792,0.0,0.2861180603504181,-1.6040657202350062,0.0,-0.005383358336985111,0.8113889694213867,-0.0,-0.012407640926539898,0.7988105416297913,0.0,0.014126671478152275
952.0,838.0,4.2778,0.2423,8.2552,-0.0032,-0.0516,-0.1407,-1.5252547052553673,0.0,1.9544552564620972,-1.8482108116149902,-0.0,2.1492841243743896,4.47825734197583,0.0,0.2990638017654419,-1.6041062513934534,0.0,0.0030830479227006435,0.811369001865387,-0.0,-0.004578034393489361,0.7987825274467468,0.0,-0.019887005910277367
952.0,838.0,4.2778,0.2423,8.2552,-0.0032,-0.0516,-0.1407,-1.5252387088588257,0.0,1.975111484527588,-1.8482149839401245,-0.0,2.1780738830566406,4.478180571193359,0.0,0.295713871717453,-1.6040495077716272,0.0,0.0027773065958172083,0.8114169836044312,-0.0,-0.011152258142828941,0.7987702488899231,0.0,-0.014001026749610901
952.0,838.0,4.2778,0.2423,8.2552,-0.0032,-0.0516,-0.1407,-1.525250644688942,0.0,1.9224079847335815,-1.848267674446106,-0.0,2.14945650100708,4.478248758906982,0.0,0.3141995072364807,-1.6040857473956507,0.0,-0.001479104976169765,0.8114046454429626,-0.0,-0.016137029975652695,0.7988064885139465,0.0,-0.020219404250383377
952.0,838.0,4.2778,0.2423,8.2552,-0.0032,-0.0516,-0.1407,-1.5252348159304638,0.0,2.000746965408325,-1.8482470512390137,-0.0,2.15478777885437,4.478188677425049,0.0,0.2948789596557617,-1.604081932698385,0.0,-0.007248677313327789,0.8114054203033447,-0.0,-0.010040841065347195,0.798754096031189,0.0,-0.0037128706462681293
952.0,838.0,4.2778,0.2423,8.2552,-0.0032,-0.0516,-0.1407,-1.5251985763064404,9.768235759111121e-05,1.9428030252456665,-1.8482232093811035,-0.0,2.154758930206299,4.478269262904785,4.901507644206049e-09,0.2868032157421112,-1.6040776411639612,0.0,-0.012609576806426048,0.8113850355148315,-0.0,0.007391328923404217,0.7987702488899231,0.0,0.018146701157093048
8190.0,873.0,3.856,0.3452,8.5418,-0.0296,0.0124,-0.1382,-1.525186487739422,0.0017193782841786742,1.9476220607757568,-1.848214864730835,-0.0,2.128288745880127,4.4782373148151855,8.908248216778908e-14,0.2884831726551056,-1.6040576140033167,0.0,-0.00042581907473504543,0.8113489151000977,-0.0,-0.005877431482076645,0.7988105416297913,0.0,-0.03604409471154213
8190.0,873.0,3.856,0.3452,8.5418,-0.0296,0.0124,-0.1382,-1.525174656217434,0.002073617186397314,1.956581473350525,-1.8482273817062378,-0.0,2.147491693496704,4.478248758906982,0.0005399359506554902,0.31131190061569214,-1.6040495077716272,0.0,-0.0010727415792644024,0.8113452196121216,-0.0,0.00510729243978858,0.7987458109855652,0.0,-0.031943026930093765
8190.0,873.0,3.856,0.3452,8.5418,-0.0296,0.0124,-0.1382,-1.5251829002848645,0.0021939242724329233,1.9590774774551392,-1.8482314348220825,-0.0,2.1859798431396484,4.478244944209717,0.00048512109788134694,0.29030492901802063,-1.6040132681476038,0.0,0.0014810875291004777,0.8113529682159424,-0.0,-0.0028081980999559164,0.7987943887710571,0.0,-0.02793135866522789
8190.0,873.0,3.856,0.3452,8.5418,-0.0296,0.0124,-0.1382,-1.5251790036312123,0.002376324264332652,1.934981346130371,-1.8482232093811035,-0.0,2.140671968460083,4.4782726007648925,0.00042381923412904143,0.2948684096336365,-1.6039851347552698,0.0,0.003233229275792837,0.8113489151000977,-0.0,0.008501442149281502,0.7988147139549255,0.0,0.025534071028232574
8190.0,873.0,3.856,0.3452,8.5418,-0.0296,0.0124,-0.1382,-1.5251670640758057,0.0014349621487781405,1.92296302318573,-1.848239779472351,-0.0,2.1413989067077637,4.478208704585693,0.00030017446260899305,0.30344653129577637,-1.6040094534503382,0.0,-0.002322136890143156,0.8113489151000977,-0.0,-0.002513081533834338,0.7987903356552124,0.0,0.015184137970209122
8190.0,873.0,3.856,0.3452,8.5418,-0.0296,0.0124,-0.1382,-1.525154785518982,0.0008809114806354046,1.969373345375061,-1.8482439517974854,-0.0,2.11773419380188,4.478229208583496,0.00026260485174134374,0.3037840723991394,-1.6040414015399378,0.0,-0.011457350105047226,0.8114169836044312,-0.0,-0.011243338696658611,0.7987702488899231,0.0,0.03259033337235451
8190.0,873.0,3.856,0.3452,8.5418,-0.0296,0.0124,-0.1382,-1.5251427453807374,0.0005328843253664672,1.976887583732605,-1.8481911420822144,-0.0,2.1396002769470215,4.47823350011792,8.5748455603607e-05,0.2889828085899353,-1.604065243397848,0.0,-0.0028403704054653645,0.8113852143287659,-0.0,0.010218693874776363,0.7987582087516785,0.0,-0.02030622959136963
8190.0,873.0,3.856,0.3452,8.5418,-0.0296,0.0124,-0.1382,-1.5251106073013325,0.000318399746902287,1.957198143005371,-1.8482799530029297,-0.0,2.1408398151397705,4.478221102351807,7.179393287515268e-05,0.3041347861289978,-1.6040938536273401,0.0,-0.01163136400282383,0.8113328814506531,-0.0,0.002181843388825655,0.7987622618675232,0.0,0.021861258894205093
8190.0,873.0,3.856,0.3452,8.5418,-0.0296,0.0124,-0.1382,-1.5251226064613839,0.00019850823446176946,1.932405948638916,-1.848231554031372,-0.0,2.1606268882751465,4.478184862727783,3.150173870380968e-05,0.3005788326263428,-1.6040695349322718,0.0,0.0070291138254106045,0.811360776424408,-0.0,-0.00024914718233048916,0.7988109588623047,0.0,0.03511618450284004
8190.0,873.0,3.856,0.3452,8.5418,-0.0296,0.0124,-0.1382,-1.525154785518982,0.00012781594705302268,1.9413045644760132,-1.8482273817062378,-0.0,2.1422297954559326,4.478184862727783,2.806135489663575e-05,0.29730352759361267,-1.6040657202350062,0.0,-0.009701368398964405,0.8114129304885864,-0.0,0.0003496629651635885,0.7987421751022339,0.0,-0.006781781557947397
8190.0,873.0,3.856,0.3452,8.5418,-0.0296,0.0124,-0.1382,-1.525158481006958,-7.944212848087773e-05,1.9447851181030273,-1.8482997417449951,-0.0,2.123494863510132,4.478229208583496,2.494933687557932e-05,0.27988865971565247,-1.604081932698385,0.0,-0.015853194519877434,0.8114128708839417,-0.0,0.0009904294274747372,0.7987949252128601,0.0,-0.017398124560713768
8190.0,873.0,3.856,0.3452,8.5418,-0.0296,0.0124,-0.1382,-1.525162575100996,-0.00010129589645657688,1.980170726776123,-1.848214864730835,4.1505650187900756e-06,2.1578025817871094,4.47823350011792,2.245882569695823e-05,0.2901504933834076,-1.6040337721454065,0.0,-0.00619136868044734,0.811396598815918,-0.0,-0.010825702920556068,0.7987582087516785,0.0,-0.018076326698064804
8190.0,873.0,3.856,0.3452,8.5418,-0.0296,0.0124,-0.1382,-1.5251424771598359,-9.104792115977034e-05,1.9368679523468018,-1.848239779472351,1.0023126426061957e-11,2.138275146484375,4.47823350011792,2.0894516637781635e-05,0.2868439257144928,-1.6040337721454065,0.0,-0.001066731521859765,0.8114012479782104,-0.0,-0.005607353989034891,0.7987701892852783,0.0,-0.015530189499258995
938.0,874.0,3.5145,0.1669,8.6351,-0.0432,0.0363,-0.1555,-1.525162575100996,-0.00010684173321351409,1.9196956157684326,-1.8482356071472168,3.2473655527941656e-19,2.1512224674224854,4.4782373148151855,1.911898289108649e-05,0.2934930920600891,-1.6040738264666956,0.0,-0.016232207417488098,0.8113447427749634,-0.0,-0.0061066229827702045,0.7987586259841919,0.0,-0.0006100134924054146
938.0,874.0,3.5145,0.1669,8.6351,-0.0432,0.0363,-0.1555,-1.525166706447937,-0.00011946785525651649,1.9475834369659424,-1.8482273817062378,1.0521050218884279e-26,2.210767984390259,4.478192492122314,1.7621563529246487e-05,0.3129050135612488,-1.604041878377096,0.0,-0.01628265343606472,0.8113812208175659,-0.0,0.005179857835173607,0.7987907528877258,0.0,0.03651024028658867
938.0,874.0,3.5145,0.1669,8.6351,-0.0432,0.0363,-0.1555,-1.5252229993096371,-0.0002486083540134132,1.9549813270568848,-1.8481953144073486,3.408686120722488e-34,2.201429843902588,4.478216810817383,1.6341709851985797e-05,0.29833364486694336,-1.604029957448141,2.0247577225962488e-10,-0.006282152608036995,0.8113729953765869,-0.0,-0.0031792414374649525,0.7987784743309021,0.0,-0.03402184695005417
938.0,874.0,3.5145,0.1669,8.6351,-0.0432,0.0363,-0.1555,-1.5251584959081192,-0.0002222985785920173,1.9393131732940674,-1.848214864730835,8.231577504060057e-40,2.1243326663970947,4.478208704585693,1.5497500498895533e-05,0.28906261920928955,-1.6040294806109827,5.635987485627485e-14,-0.018577447161078453,0.8113930225372314,-0.0,0.004746853373944759,0.7988064885139465,0.0,-0.013357672840356827
938.0,874.0,3.5145,0.1669,8.6351,-0.0432,0.0363,-0.1555,-1.5251865287176152,-0.00022267817985266447,1.944061279296875,-1.8482273817062378,0.0,2.1711926460266113,4.478168650264404,1.4498846212518401e-05,0.29704561829566956,-1.6040056387530726,1.0243128485705933e-18,-0.00866064801812172,0.8113971948623657,-0.0,0.002602566033601761,0.798802375793457,0.0,0.01152355968952179
938.0,874.0,3.5145,0.1669,8.6351,-0.0432,0.0363,-0.1555,-1.5252106462470074,-0.00022296601673588157,1.9549105167388916,-1.8482273817062378,0.00016948649135883898,2.1358301639556885,4.47823350011792,1.36211192511837e-05,0.30117642879486084,-1.604001824055807,1.8616380567130402e-23,-0.011715054512023926,0.8113406896591187,-0.0,-0.011464596726000309,0.798810601234436,0.0,-0.0014949627220630646
938.0,874.0,3.5145,0.1669,8.6351,-0.0432,0.0363,-0.1555,-1.5252349127880116,-0.0003104490169789642,1.92234206199646,-1.8482439517974854,0.0001540102093713358,2.186147928237915,4.478240652675293,1.3029522961005569e-05,0.2965153753757477,-1.6040175596820276,5.181937923247407e-27,-0.00754144974052906,0.8113530278205872,-0.0,-0.00814871396869421,0.7988346815109253,0.0,-0.02252671867609024
938.0,874.0,3.5145,0.1669,8.6351,-0.0432,0.0363,-0.1555,-1.5252510730973263,-0.0005645900382660329,2.000594139099121,-1.8482717275619507,0.00013546501577366143,2.187499523162842,4.478221102351807,3.575060913973971e-09,0.29874899983406067,-1.6040142218219202,9.417914977488666e-32,-0.014056859537959099,0.8114168643951416,-0.0,-0.0073145548813045025,0.7988264560699463,0.0,-0.010749472305178642
938.0,874.0,3.5145,0.1669,8.6351,-0.0432,0.0363,-0.1555,-1.5252506037107487,-0.0006902641034685075,1.9532755613327026,-1.8482314348220825,0.00014508585445582867,2.1379637718200684,4.478216810817383,6.497496225950361e-14,0.2994614839553833,-1.604029957448141,1.7116592140838e-36,-0.008914005011320114,0.8113570213317871,-0.0,0.0024025116581469774,0.7987940907478333,0.0,0.0030606549698859453
938.0,874.0,3.5145,0.1669,8.6351,-0.0432,0.0363,-0.1555,-1.5252462339452286,-0.0015372755005955696,1.9680824279785156,-1.8481953144073486,0.00015273931785486639,2.156949758529663,4.478212519282959,1.1808880055643776e-18,0.30282920598983765,-1.6040099302874964,3.110882590801094e-41,-0.008940487168729305,0.8113287687301636,-0.0,-0.0051206378266215324,0.798785924911499,0.0,0.022090144455432892
938.0,874.0,3.5145,0.1669,8.6351,-0.0432,0.0363,-0.1555,-1.5253306751004239,-0.0022401001770049334,1.9860279560089111,-1.8481745719909668,0.00014247286890167743,2.153214454650879,4.478188677425049,3.2870450574076166e-22,0.2985280156135559,-1.6040380636798304,8.407790785948902e-45,0.00030418182723224163,0.8113489151000977,-0.0,0.0054097347892820835,0.7988342642784119,0.00024202809436246753,0.023755434900522232
938.0,874.0,3.5145,0.1669,8.6351,-0.0432,0.0363,-0.1555,-1.5252944205752392,-0.0035238731652498245,1.9611936807632446,-1.8481829166412354,0.00014931551413610578,2.140011787414551,4.478212996120117,5.9740432500527335e-27,0.2997523546218872,-1.6040337721454065,0.0,-0.01246996596455574,0.8114093542098999,-0.0,-0.0026134487707167864,0.7988264560699463,0.00019924333901144564,-0.01633363962173462
961.0,850.0,3.8022,0.1956,8.4036,-0.0269,0.0214,-0.1358,-1.52542299151931,-0.005157496780157089,1.9672131538391113,-1.8482437133789062,0.00026483050896786153,2.1566102504730225,4.478212996120117,1.0857528803008511e-31,0.29791703820228577,-1.6040499846087855,0.0,-0.00561061967164278,0.8113811612129211,-0.0,-0.001648981124162674,0.7988223433494568,0.00016926373064052314,0.06135524809360504
961.0,850.0,3.8022,0.1956,8.4036,-0.0269,0.0214,-0.1358,-1.5254271638444443,-0.004183033015578985,1.975588083267212,-1.8481671810150146,0.0011262418702244759,2.1906561851501465,4.478224917049072,3.0222332841344154e-35,0.2923438251018524,-1.6040218512164515,0.0,-0.006478750146925449,0.8113852143287659,-0.0,-0.007640953175723553,0.7988227009773254,0.00015210015408229083,-0.007378505542874336
961.0,850.0,3.8022,0.1956,8.4036,-0.0269,0.0214,-0.1358,-1.525450774734356,-0.0021938306745141745,1.9616180658340454,-1.8481590747833252,0.0017498420784249902,2.125058889389038,4.478208704585693,5.492753668521845e-40,0.2949596047401428,-1.6040142218219202,0.0,-0.0002313696313649416,0.8113489151000977,-0.0,-0.008466370403766632,0.798858642578125,0.00013398488226812333,-0.028185714036226273
961.0,850.0,3.8022,0.1956,8.4036,-0.0269,0.0214,-0.1358,-1.5254949082485219,-0.001838232041336596,1.9366248846054077,-1.8481311798095703,0.001943922252394259,2.1256465911865234,4.478204889888428,9.80908925027372e-45,0.3163265287876129,-1.6040223280536097,0.0,-0.01238887570798397,0.811344563961029,-0.0,-0.00848937314003706,0.7988301515579224,0.00011972542415605858,0.026339581236243248
961.0,850.0,3.8022,0.1956,8.4036,-0.0269,0.0214,-0.1358,-1.5255188357881089,-0.003199544968083501,1.9528841972351074,-1.8481547832489014,0.0019161126110702753,2.16060471534729,4.47822539388623,0.0,0.2996355891227722,-1.6039813200580042,0.0,-0.01978360116481781,0.8114287853240967,-0.0,-0.011321928352117538,0.7988383769989014,0.00011087561142630875,0.04136548936367035
961.0,850.0,3.8022,0.1956,8.4036,-0.0269,0.0214,-0.1358,-1.5254900504699727,-0.00550819281488657,1.9622395038604736,-1.8480751514434814,0.0015170658007264137,2.178523063659668,4.47822539388623,0.0,0.2934490740299225,-1.6040261427508753,0.0,-0.006055476609617472,0.8113649487495422,-0.0,0.007388504222035408,0.7987982630729675,0.00010092851880472153,0.030679747462272644
961.0,850.0,3.8022,0.1956,8.4036,-0.0269,0.0214,-0.1358,-1.5255222295275708,-0.004360763821750879,1.9364429712295532,-1.8481557369232178,0.0014936376828700304,2.1520419120788574,4.478248758906982,0.0,0.2978672981262207,-1.6039851347552698,2.9115532015566714e-05,-0.005953512154519558,0.8113649487495422,-0.0,0.007730986922979355,0.7988424897193909,9.261925879400223e-05,-0.014036530628800392
961.0,850.0,3.8022,0.1956,8.4036,-0.0269,0.0214,-0.1358,-1.5255178336850186,-0.0012827973114326596,1.9527535438537598,-1.8480989933013916,0.0015564332716166973,2.128033399581909,4.478261156673096,0.0,0.29958659410476685,-1.6040175596820276,2.7374055207474157e-05,-0.015088804997503757,0.811397135257721,-0.0,-0.006346146110445261,0.7987697124481201,8.557413093512878e-05,-0.012485427781939507
961.0,850.0,3.8022,0.1956,8.4036,-0.0269,0.0214,-0.1358,-1.5256307919374485,-0.0008712165872566402,1.9633076190948486,-1.8481475114822388,0.0008540954440832138,2.148909091949463,4.478212519282959,0.0,0.28921329975128174,-1.604058090840475,2.6179639462498017e-05,-0.021407674998044968,0.8113567233085632,-0.0,-0.0032914462499320507,0.7988627552986145,8.095570956356823e-05,-0.024876650422811508
961.0,850.0,3.8022,0.1956,8.4036,-0.0269,0.0214,-0.1358,-1.5256305423429986,-0.0022391504608094692,1.9463813304901123,-1.8480708599090576,0.0003882120654452592,2.181425094604492,4.478244944209717,0.0,0.2986425459384918,-1.604001824055807,2.474030952726025e-05,-0.001314840279519558,0.8113889694213867,-0.0,0.0046590231359004974,0.7988424897193909,7.552126044174656e-05,-0.0002738405019044876
961.0,850.0,3.8022,0.1956,8.4036,-0.0269,0.0214,-0.1358,-1.5256384958377858,-0.0027215853333473206,1.9465975761413574,-1.8481547832489014,9.193095320370048e-05,2.1830525398254395,4.478204889888428,0.0,0.3002825975418091,-1.604041878377096,2.345101529499516e-05,-0.0014285543002188206,0.8113487362861633,-0.0,-0.006762495264410973,0.7988585829734802,7.077041664160788e-05,-0.0033975401893258095
961.0,850.0,3.8022,0.1956,8.4036,-0.0269,0.0214,-0.1358,-1.5256707456758996,-0.001993963262066245,1.9837493896484375,-1.8481194972991943,0.00013726597535423934,2.17476224899292,4.478212519282959,0.0,0.30552124977111816,-1.6040218512164515,3.385013042134233e-05,-0.018811579793691635,0.8113248348236084,-0.0,0.010722242295742035,0.7987944483757019,6.758200470358133e-05,-0.022800743579864502
939.0,8190.0,3.8788,0.1717,8.3779,-0.0293,0.0104,-0.119,-1.5256100197187443,-0.001400571083649993,2.019132137298584,-1.8480627536773682,0.0004371913382783532,2.178400754928589,4.478204889888428,0.0,0.3107782304286957,-1.6040380636798304,3.2236610422842205e-05,-0.018044132739305496,0.8114166259765625,-0.0,-0.0025254073552787304,0.7988264560699463,5.100869384477846e-05,-0.011839662678539753
939.0,8190.0,3.8788,0.1717,8.3779,-0.0293,0.0104,-0.119,-1.525645976220705,-0.0019632407929748297,1.9682254791259766,-1.8480430841445923,0.0005210660747252405,2.1786856651306152,4.478221102351807,0.0,0.31530195474624634,-1.6040099302874964,3.07672489725519e-05,-0.014407888054847717,0.8113489151000977,-0.0,-0.0074601382948458195,0.7987903356552124,4.826665099244565e-05,0.019760511815547943
939.0,8190.0,3.8788,0.1717,8.3779,-0.0293,0.0104,-0.119,-1.5257342991283913,-0.0032994025386869907,1.9530305862426758,-1.84808349609375,0.00044945842819288373,2.165903091430664,4.478212519282959,0.0,0.31471115350723267,-1.604041878377096,9.846017974268761e-07,-0.028353137895464897,0.8113770484924316,-0.0,-0.00947730801999569,0.7988264560699463,4.5809923904016614e-05,0.022426128387451172
939.0,8190.0,3.8788,0.1717,8.3779,-0.0293,0.0104,-0.119,-1.5256943267634888,-0.004068960435688496,1.9454004764556885,-1.8480792045593262,0.0004544162075035274,2.1464550495147705,4.478212519282959,0.0,0.30672788619995117,-1.6040261427508753,2.7406751867964374e-10,-0.006781970150768757,0.8114246129989624,-0.0,-0.00399534497410059,0.7987982630729675,1.3931456123827957e-05,-0.03320402279496193
939.0,8190.0,3.8788,0.1717,8.3779,-0.0293,0.0104,-0.119,-1.5257137318006535,-0.003869391046464443,1.9624701738357544,-1.8481122255325317,0.00041462646913714707,2.165691614151001,4.478245897884033,0.0,0.3020050525665283,-1.6040218512164515,4.9810416208329045e-15,-0.011769996955990791,0.8113889694213867,-0.0,-0.002119219396263361,0.7988507151603699,1.3076707546133548e-05,-0.02405603975057602
939.0,8190.0,3.8788,0.1717,8.3779,-0.0293,0.0104,-0.119,-1.5258141320994874,-0.004338027443736792,1.9345810413360596,-1.8481194972991943,0.00045479112304747105,2.121425151824951,4.478216810817383,0.0,0.2923007607460022,-1.6040461699115198,9.052797101925314e-20,-0.0009373568464070559,0.8113884329795837,-0.0,-0.0025538471527397633,0.7988141775131226,1.235845593328122e-05,-0.0264850202947855
939.0,8190.0,3.8788,0.1717,8.3779,-0.0293,0.0104,-0.119,-1.5258421835354348,-0.004595041740685701,1.9242384433746338,-1.8480792045593262,0.0004196771769784391,2.143181800842285,4.478204889888428,0.0,0.29934778809547424,-1.6040380636798304,2.519879373247557e-23,0.00897369533777237,0.8113527894020081,-0.0,-0.010592924430966377,0.798850417137146,1.1869505215145182e-05,-0.03710135444998741
939.0,8190.0,3.8788,0.1717,8.3779,-0.0293,0.0104,-0.119,-1.5258661446026345,-0.006425457540899515,1.920743703842163,-1.8480429649353027,0.00042473888606764376,2.1919970512390137,4.478136225337646,0.0,0.30482861399650574,-1.6039932409869593,4.579755963088392e-28,-0.0044149053283035755,0.8113527894020081,-0.0,-0.00210161367431283,0.7988870739936829,2.210080492659472e-05,0.03403811901807785
939.0,8190.0,3.8788,0.1717,8.3779,-0.0293,0.0104,-0.119,-1.525893659596779,-0.00745175639167428,1.9294047355651855,-1.8480387926101685,0.00044543639523908496,2.218489170074463,4.478196783656738,0.0,0.28817152976989746,-1.6040099302874964,8.323480072236794e-33,-0.013902675360441208,0.8113768696784973,-0.0,0.003417717758566141,0.7988424897193909,2.1473442757269368e-05,-0.012665330432355404
939.0,8190.0,3.8788,0.1717,8.3779,-0.0293,0.0104,-0.119,-1.5260022369078179,-0.008097435347735882,1.9615318775177002,-1.8480429649353027,0.0004533710889518261,2.1506941318511963,4.478196783656738,0.0,0.29764989018440247,-1.6040342489825647,1.51275157846397e-37,-0.004363788291811943,0.8113852143287659,-0.0,-0.007860112935304642,0.7988182306289673,2.049545946647413e-05,-0.0031044650822877884
939.0,8190.0,3.8788,0.1717,8.3779,-0.0293,0.0104,-0.119,-1.5260779161802311,-0.00843052752315998,1.9121805429458618,-1.8480595350265503,0.0006960691534914076,2.1403017044067383,4.478204889888428,0.0,0.30260562896728516,-1.6040056387530726,4.210761755449643e-41,-0.010617595165967941,0.8114011287689209,-0.0,-0.006031746510416269,0.798858642578125,6.763347300875466e-06,0.014405792579054832
939.0,8190.0,3.8788,0.1717,8.3779,-0.0293,0.0104,-0.119,-1.526113824253418,-0.009607061743736267,1.9133086204528809,-1.8480397462844849,0.0009116781293414533,2.1239988803863525,4.478168650264404,0.0,0.29168617725372314,-1.6039775053607386,1.401298464324817e-45,-0.010507822968065739,0.811416745185852,-0.0,-0.005151869263499975,0.7988545298576355,2.1912385914004545e-13,0.007214426528662443
939.0,8190.0,3.8788,0.1717,8.3779,-0.0293,0.0104,-0.119,-1.5262300458601494,-0.01058795303106308,1.9075353145599365,-1.8479704856872559,0.0009699552902020514,2.1283764839172363,4.478172941798828,0.0,0.2947954535484314,-1.6039775053607386,0.0,0.0024366904981434345,0.8113930225372314,-0.0,-0.008824583142995834,0.7988259792327881,7.099334960579613e-21,-0.04407826066017151
952.0,8190.0,3.4714,-0.0126,8.3791,-0.0473,0.0073,-0.1156,-1.5263019774905224,-0.010959833860397339,1.9125399589538574,-1.8480552434921265,0.0011308202520012856,2.1527323722839355,4.478200598354004,0.0,0.29686105251312256,-1.6040142218219202,0.0,0.002848649164661765,0.8113811612129211,-0.0,-0.010723724961280823,0.798850417137146,1.7144058289671635e-26,-0.03330790996551514
952.0,8190.0,3.4714,-0.0126,8.3791,-0.0473,0.0073,-0.1156,-1.5264098842493077,-0.012605954892933369,1.8979852199554443,-1.8480479717254639,0.001263218466192484,2.1366705894470215,4.478164835567139,0.0,0.2896006405353546,-1.6040099302874964,2.354664684389718e-05,0.004288036376237869,0.8114488124847412,-0.0,-0.015896862372756004,0.7988909482955933,0.00010564860713202506,-0.01927017606794834
952.0,8190.0,3.4714,-0.0126,8.3791,-0.0473,0.0073,-0.1156,-1.526493379180767,-0.014479520730674267,1.8881404399871826,-1.8480315208435059,0.0012059696018695831,2.1766748428344727,4.478220625514648,-0.00015246793918777257,0.2804114818572998,-1.6039894262896937,3.0688996048411354e-05,-0.002537977183237672,0.8113689422607422,-0.0,0.004983101040124893,0.7988259792327881,0.0001159990206360817,-0.015128081664443016
952.0,8190.0,3.4714,-0.0126,8.3791,-0.0473,0.0073,-0.1156,-1.526589748715498,-0.01696120575070381,1.8713420629501343,-1.847942590713501,0.0012116708094254136,2.1777772903442383,4.478140040034912,-0.00014130736235529184,0.28672337532043457,-1.6040099302874964,3.2358198950532824e-05,-0.002653929404914379,0.811397135257721,-0.0,-0.009312865324318409,0.7988380193710327,0.0001090035802917555,-0.007237839046865702
952.0,8190.0,3.4714,-0.0126,8.3791,-0.0473,0.0073,-0.1156,-1.526709196423628,-0.01950608566403389,1.8630907535552979,-1.8479467630386353,0.0014520165277644992,2.133488178253174,4.4781691271015625,-0.0001279176794923842,0.2906346917152405,-1.6040056387530726,4.112674287171103e-05,0.004873641766607761,0.8114408254623413,-0.0,-0.014286132529377937,0.7988744974136353,0.00011766978423111141,-0.08124544471502304
952.0,8190.0,3.4714,-0.0126,8.3791,-0.0473,0.0073,-0.1156,-1.526969750677683,-0.024057287722826004,1.8530577421188354,-1.8479547500610352,0.0013612163020297885,2.120973825454712,4.478197260493896,-0.00013631915498990566,0.29730552434921265,-1.6040266195880335,2.5990411813836545e-06,0.012329885736107826,0.8114368319511414,-0.0,-0.005781563930213451,0.7988904714584351,0.0001251312787644565,-0.07642872631549835
952.0,8190.0,3.4714,-0.0126,8.3791,-0.0473,0.0073,-0.1156,-1.527169444864132,-0.02915041521191597,1.8595709800720215,-1.847975492477417,0.001374375424347818,2.0844645500183105,4.478204889888428,-0.0001254607195733115,0.28551676869392395,-1.6039693991290491,4.7236284328455724e-11,0.006713073700666428,0.8114127516746521,-0.0,0.006187764462083578,0.7988786697387695,0.00011699798051267862,-0.025071553885936737
952.0,8190.0,3.4714,-0.0126,8.3791,-0.0473,0.0073,-0.1156,-1.5273290251246472,-0.03147903457283974,1.8704705238342285,-1.8479878902435303,0.0015678302152082324,2.1329894065856934,4.478241606349609,-0.0001183876593131572,0.28526169061660767,-1.6040223280536097,1.3148392490340728e-14,0.00024526321794837713,0.811397135257721,-0.0,-0.010254301130771637,0.7988986968994141,0.00019120026263408363,-0.05996217578649521
952.0,8190.0,3.4714,-0.0126,8.3791,-0.0473,0.0073,-0.1156,-1.5276291754892846,-0.037181880325078964,1.7981235980987549,-1.8479961156845093,0.0017344956286251545,2.1247940063476562,4.4782091814228515,-0.00011011084279743955,0.2844695448875427,-1.604001824055807,0.0001525585539638996,0.014599798247218132,0.8114005327224731,-0.0,-0.0010588824516162276,0.7988703846931458,0.00016342524031642824,-0.06089765578508377
952.0,8190.0,3.4714,-0.0126,8.3791,-0.0473,0.0073,-0.1156,-1.527933021341898,-0.0439753383398056,1.7934178113937378,-1.8479278087615967,0.002151915105059743,2.1407947540283203,4.478212996120117,-6.220403884071857e-05,0.30082815885543823,-1.6040056387530726,0.00013616401702165604,-0.006078838836401701,0.8113650679588318,-0.0,-0.01041486393660307,0.7988864183425903,0.00014269561506807804,-0.07143086194992065
952.0,8190.0,3.4714,-0.0126,8.3791,-0.0473,0.0073,-0.1156,-1.528220673357584,-0.04873207211494446,1.8275078535079956,-1.8478751182556152,0.003033301094546914,2.1493566036224365,4.4782091814228515,-5.522770152310841e-05,0.3052785396575928,-1.6039693991290491,0.00012483142199926078,0.005617877934128046,0.8114245533943176,-0.0,-0.012205100618302822,0.798866331577301,0.00013030004629399627,-0.056419726461172104
952.0,8190.0,3.4714,-0.0126,8.3791,-0.0473,0.0073,-0.1156,-1.5286324818483372,-0.05637434870004654,1.8231127262115479,-1.8478833436965942,0.004947293549776077,2.182164430618286,4.478273554439209,-4.9189820856554434e-05,0.28641384840011597,-1.6039775053607386,0.00013480905909091234,0.004039754159748554,0.8114165663719177,-0.0,-0.0032331799156963825,0.7988259792327881,0.0001167746668215841,-0.04913783073425293
925.0,874.0,3.9063,0.1131,8.6722,-0.0203,-0.1086,-0.1216,-1.5291198690286656,-0.0646221861243248,1.7985225915908813,-1.8477911949157715,0.006088278256356716,2.1664679050445557,4.4782373148151855,-4.434242509887554e-05,0.2940188944339752,-1.6039536635028284,0.00012259055802132934,-0.0069695524871349335,0.8114246129989624,-0.0,-0.001381129608489573,0.7988380789756775,0.00010579330410109833,-0.051085300743579865
925.0,874.0,3.9063,0.1131,8.6722,-0.0203,-0.1086,-0.1216,-1.5296875026873131,-0.07443923503160477,1.8319764137268066,-1.8477673530578613,0.007087669335305691,2.1718907356262207,4.478224917049072,-2.0183959350106306e-05,0.2942429482936859,-1.6039374510394495,0.00013111518637742847,0.011428099125623703,0.8114165663719177,-0.0,-0.007485588081181049,0.7988581657409668,9.669985593063757e-05,-0.09246185421943665
925.0,874.0,3.9063,0.1131,8.6722,-0.0203,-0.1086,-0.1216,-1.5301832158914586,-0.07929304987192154,1.7963533401489258,-1.8476989269256592,0.007413096725940704,2.1919195652008057,4.478224917049072,-1.8910193830379285e-05,0.30557653307914734,-1.6039693991290491,0.00014102997374720871,-0.003936986438930035,0.8113810420036316,-0.0,-0.009365973062813282,0.7988421320915222,9.08434740267694e-05,-0.06966904550790787
925.0,874.0,3.9063,0.1131,8.6722,-0.0203,-0.1086,-0.1216,-1.5308021020940323,-0.08509979397058487,1.7743375301361084,-1.8476439714431763,0.0070580686442554,2.152988910675049,4.4782091814228515,-1.7444062905269675e-05,0.29671621322631836,-1.6039617697345179,0.00016403463087044656,0.015290550887584686,0.8114045858383179,-0.0,0.0005272066337056458,0.7989107966423035,8.405600965488702e-05,-0.05964600294828415
925.0,874.0,3.9063,0.1131,8.6722,-0.0203,-0.1086,-0.1216,-1.5315816973200818,-0.0828792154788971,1.8181519508361816,-1.8475871086120605,0.005871858447790146,2.229254722595215,4.478212519282959,-1.618892747501377e-05,0.2951444089412689,-1.6039693991290491,0.00017178912821691483,0.019011855125427246,0.8113889694213867,-0.0,-0.005789685063064098,0.798882782459259,9.322998812422156e-05,-0.10461675375699997
925.0,874.0,3.9063,0.1131,8.6722,-0.0203,-0.1086,-0.1216,-1.5321013641408463,-0.08136031776666641,1.8560343980789185,-1.8475229740142822,0.0033983499743044376,2.182722330093384,4.478233023280762,-1.5360034012701362e-05,0.30716970562934875,-1.6039617697345179,0.00018284196266904473,0.01028551533818245,0.8113770484924316,-0.0,-0.013902319595217705,0.7988703846931458,8.920358959585428e-05,-0.02540086954832077
925.0,874.0,3.9063,0.1131,8.6722,-0.0203,-0.1086,-0.1216,-1.532781047081091,-0.0848444476723671,1.8295106887817383,-1.847550868988037,0.0006650544819422066,2.1845831871032715,4.478224917049072,-1.4378456398844719e-05,0.29764652252197266,-1.6039937178241175,0.00018728047143667936,0.0008484867867082357,0.8114288449287415,-0.0,-0.0062744636088609695,0.798918604850769,0.00011172235826961696,-0.055537544190883636
925.0,874.0,3.9063,0.1131,8.6722,-0.0203,-0.1086,-0.1216,-1.5334679272821923,-0.0963083878159523,1.7624928951263428,-1.8475871086120605,-0.0004171510227024555,2.1498847007751465,4.478204889888428,-2.7025676899938844e-05,0.2963595986366272,-1.6039207617389124,0.00024154662969522178,0.002469913801178336,0.8113925457000732,-0.0,-0.004687893204391003,0.7988622188568115,0.00011389175779186189,-0.09820214658975601
925.0,874.0,3.9063,0.1131,8.6722,-0.0203,-0.1086,-0.1216,-1.5343443390778084,-0.10473820567131042,1.808531641960144,-1.8475518226623535,-5.539497749396105e-08,2.174973964691162,4.4782373148151855,-1.4413403732760344e-05,0.2965005934238434,-1.603945557271139,0.000273761193966493,0.0032079690136015415,0.8114045858383179,-0.0,-0.012657573446631432,0.7989025712013245,0.00010503208613954484,-0.07144658267498016
925.0,874.0,3.9063,0.1131,8.6722,-0.0203,-0.1086,-0.1216,-1.5349598725191136,-0.1086319237947464,1.7756922245025635,-1.847490906715393,0.0035968050360679626,2.1768503189086914,4.478248758906982,-4.1105568016064353e-07,0.2962785065174103,-1.603945557271139,0.0002723715442698449,0.013006381690502167,0.8114126920700073,-0.0,-0.0007310681976377964,0.7988905310630798,8.277835877379403e-05,-0.08760705590248108
925.0,874.0,3.9063,0.1131,8.6722,-0.0203,-0.1086,-0.1216,-1.5358305808952828,-0.11329086124897003,1.7697503566741943,-1.8474948406219482,0.007650457788258791,2.193756103515625,4.478168173427246,-7.470734100789578e-12,0.31141892075538635,-1.6039498488055628,0.0002434595226077363,0.01876946911215782,0.8113929629325867,-0.0,-0.0053567588329315186,0.7988662719726562,7.703796291025355e-05,-0.09479406476020813
925.0,874.0,3.9063,0.1131,8.6722,-0.0203,-0.1086,-0.1216,-1.5367655170014878,-0.1122685894370079,1.8219258785247803,-1.8473987579345703,0.007982778362929821,2.1942408084869385,4.47823350011792,-1.3577690652047159e-16,0.2976227402687073,-1.6039302984820765,0.0002725855156313628,0.007143191061913967,0.8113850355148315,-0.0,-0.011701260693371296,0.7988864183425903,8.652071846881881e-05,-0.07370811700820923
932.0,880.0,2.857,0.6915,8.8786,-0.0469,-0.0087,-0.1182,-1.537457251255848,-0.11220438033342361,1.810800313949585,-1.847427487373352,0.006667496170848608,2.197723388671875,4.478224917049072,-3.779400174099574e-20,0.3095070719718933,-1.6039660612689417,0.00023065629648044705,0.0062874723225831985,0.8113966584205627,-0.0,-0.000350960559444502,0.798874020576477,9.470550867263228e-05,-0.05110714212059975
932.0,880.0,2.857,0.6915,8.8786,-0.0469,-0.0087,-0.1182,-1.5384084408036252,-0.11813195794820786,1.8473806381225586,-1.847375750541687,0.0029003010131418705,2.226466417312622,4.4782091814228515,-6.868874198010336e-25,0.30284854769706726,-1.603889290486471,0.0002296364982612431,0.016385521739721298,0.8113811016082764,-0.0,-0.011801809072494507,0.798898458480835,0.00010366714559495449,-0.08823150396347046
932.0,880.0,2.857,0.6915,8.8786,-0.0469,-0.0087,-0.1182,-1.5393155638924618,-0.12492275983095169,1.8203537464141846,-1.8472990989685059,0.001042650663293898,2.2279748916625977,4.478200598354004,-1.2483841036015221e-29,0.30584612488746643,-1.603945557271139,0.0002284189104102552,0.011209329590201378,0.8113691210746765,-0.0,0.012777101248502731,0.7988864183425903,9.807579772314057e-05,-0.08996931463479996
932.0,880.0,2.857,0.6915,8.8786,-0.0469,-0.0087,-0.1182,-1.5400874086520453,-0.129475936293602,1.755378007888794,-1.8473353385925293,0.000790502002928406,2.2330610752105713,4.478253050441406,-3.47492293150392e-33,0.2931252121925354,-1.6039331595050257,0.00022831135720480233,0.010395463556051254,0.8113889694213867,-0.0,-0.004506396129727364,0.7988864183425903,9.422535367775708e-05,-0.11050362884998322
932.0,880.0,2.857,0.6915,8.8786,-0.0469,-0.0087,-0.1182,-1.541102373307087,-0.1335129588842392,1.8400840759277344,-1.8473073244094849,0.0033072654623538256,2.187558174133301,4.478280706996582,3.883938188664615e-05,0.3066226840019226,-1.603945557271139,0.00020862203382421285,0.0101317772641778,0.8113966584205627,-0.0,-0.004518348257988691,0.7988905310630798,7.834612188162282e-05,-0.07669166475534439
932.0,880.0,2.857,0.6915,8.8786,-0.0469,-0.0087,-0.1182,-1.5421329022249957,-0.13167056441307068,1.7865791320800781,-1.8472349643707275,0.008208950981497765,2.216503381729126,4.478276892299316,6.779578689020127e-05,0.30035313963890076,-1.6039541403399866,0.0001761980092851445,0.009543313644826412,0.8113369345664978,-0.0,-0.007978159002959728,0.798898458480835,7.463357906090096e-05,-0.05348213389515877
932.0,880.0,2.857,0.6915,8.8786,-0.0469,-0.0087,-0.1182,-1.5431921121529122,-0.12771043181419373,1.8118338584899902,-1.8471510410308838,0.010085506364703178,2.1843020915985107,4.478248758906982,8.838257053866982e-05,0.31619495153427124,-1.6039660612689417,0.0001523153332527727,-0.0037207710556685925,0.8114165663719177,-0.0,0.0015518658328801394,0.7988662719726562,8.142048318404704e-05,-0.028183329850435257
932.0,880.0,2.857,0.6915,8.8786,-0.0469,-0.0087,-0.1182,-1.5440279723009844,-0.12675891816616058,1.856564998626709,-1.8471674919128418,0.008183078840374947,2.2150275707244873,4.478229208583496,8.047910523600876e-05,0.3189586400985718,-1.6039698759662073,0.0001382731570629403,-0.003810190362855792,0.8113730549812317,-0.0,-0.01459844782948494,0.7988744974136353,3.13051214106963e-06,-0.052272818982601166
932.0,880.0,2.857,0.6915,8.8786,-0.0469,-0.0087,-0.1182,-1.5449981701425095,-0.13434135913848877,1.836695671081543,-1.8471074104309082,0.004326998721808195,2.261993646621704,4.478152437801025,7.190532051026821e-05,0.3076048791408539,-1.6039541403399866,0.00012313709885347635,0.008446300402283669,0.8113770484924316,-0.0,-0.00914699025452137,0.7988864183425903,1.0142461279475865e-13,-0.02524452656507492
932.0,880.0,2.857,0.6915,8.8786,-0.0469,-0.0087,-0.1182,-1.5461016048542042,-0.142392098903656,1.7859466075897217,-1.8470547199249268,0.0018678534543141723,2.281428098678589,4.478229208583496,0.00012462414451874793,0.3169141113758087,-1.6039136091815394,0.00011098814866272733,0.007620962802320719,0.811356782913208,-0.0,-0.0026794669684022665,0.7988905310630798,3.2860284996907126e-21,-0.06918030977249146
932.0,880.0,2.857,0.6915,8.8786,-0.0469,-0.0087,-0.1182,-1.546828556140401,-0.13903480768203735,1.8488984107971191,-1.8470916748046875,0.0021256483159959316,2.190939426422119,4.478253050441406,0.00015281325613614172,0.3201466202735901,-1.6039374510394495,0.00010334132093703374,0.0027488782070577145,0.8113730549812317,-0.0,0.011127757839858532,0.7988580465316772,7.935371401631818e-27,-0.048624925315380096
932.0,880.0,2.857,0.6915,8.8786,-0.0469,-0.0087,-0.1182,-1.5479240243187924,-0.127890482544899,1.8584105968475342,-1.8470555543899536,0.007196798920631409,2.2139205932617188,4.4782654482075195,0.0003569323744159192,0.31564193964004517,-1.603945557271139,9.464680624660105e-05,0.007968666031956673,0.8114006519317627,-0.0,0.000564615591429174,0.7988947033882141,2.5709595105269266e-34,-0.11362425982952118
932.0,880.0,2.857,0.6915,8.8786,-0.0469,-0.0087,-0.1182,-1.548983483841159,-0.12811994552612305,1.8664650917053223,-1.8469758033752441,0.009847204200923443,2.258816957473755,4.478253050441406,0.0006714984192512929,0.30482885241508484,-1.6039617697345179,8.737416646908969e-05,0.011287923902273178,0.8113929629325867,-0.0,0.0018801908008754253,0.7988781929016113,8.329318071946713e-42,-0.08696195483207703
928.0,796.0,4.2245,0.1627,8.3031,-0.0231,-0.0942,-0.1184,-1.5500627637705584,-0.13091982901096344,1.9098536968231201,-1.8468918800354004,0.010259589180350304,2.2689852714538574,4.478244944209717,0.0004211265768390149,0.3252902925014496,-1.6039541403399866,8.101481944322586e-05,0.007313596084713936,0.8114205598831177,-0.0,-0.0025432114489376545,0.798866331577301,0.0,-0.05348683148622513
928.0,796.0,4.2245,0.1627,8.3031,-0.0231,-0.0942,-0.1184,-1.550870108684041,-0.1323496252298355,1.891713261604309,-1.8468152284622192,0.009869717992842197,2.248878002166748,4.4782325464436035,0.0003287411527708173,0.32612013816833496,-1.6039417425738733,7.686341996304691e-05,0.003187183290719986,0.8113448619842529,-0.0,0.004702109377831221,0.7989025712013245,0.0,-0.038506362587213516
928.0,796.0,4.2245,0.1627,8.3031,-0.0231,-0.0942,-0.1184,-1.5518527266434212,-0.13147833943367004,1.8987467288970947,-1.8467354774475098,0.010106613859534264,2.272099733352661,4.47825734197583,0.00025436884607188404,0.3365287780761719,-1.6039374510394495,7.194771751528606e-05,0.00022884667851030827,0.8113449215888977,-0.0,-0.015179721638560295,0.7988905310630798,0.0,-0.09242523461580276
928.0,796.0,4.2245,0.1627,8.3031,-0.0231,-0.0942,-0.1184,-1.5528600581786414,-0.12384521961212158,1.9458935260772705,-1.846610426902771,0.01114357728511095,2.2905185222625732,4.47825734197583,0.0002380856458330527,0.3187977373600006,-1.6039331595050257,6.762295379303396e-05,0.0013834369601681828,0.8113770484924316,-0.0,-0.011938833631575108,0.7988946437835693,0.0,-0.014292025938630104
928.0,796.0,4.2245,0.1627,8.3031,-0.0231,-0.0942,-0.1184,-1.5535913177630682,-0.122379831969738,1.9051682949066162,-1.8466556072235107,0.014087362214922905,2.2881836891174316,4.47830502569165,0.00021868397016078234,0.31959909200668335,-1.6039617697345179,6.470588414231315e-05,0.007381214760243893,0.8113889694213867,-0.0,-0.007439751178026199,0.7988540530204773,0.0,-0.027903374284505844
928.0,796.0,4.2245,0.1627,8.3031,-0.0231,-0.0942,-0.1184,-1.5545943614891549,-0.1278964877128601,1.9440703392028809,-1.8464722633361816,0.01747565157711506,2.294677972793579,4.478216810817383,0.00018819580145645887,0.33569037914276123,-1.6039860884295862,6.118662713561207e-05,-0.010842314921319485,0.8113850355148315,-0.0,-0.0019342487212270498,0.7989025712013245,0.0,-0.07615910470485687
928.0,796.0,4.2245,0.1627,8.3031,-0.0231,-0.0942,-0.1184,-1.5556815921193738,-0.13202285766601562,1.9460115432739258,-1.8463366031646729,0.02186466008424759,2.2253596782684326,4.478284998531006,0.0001926326658576727,0.33344435691833496,-1.6039417425738733,5.8030535001307726e-05,-0.011561812832951546,0.8113569617271423,-0.0,-0.0032012476585805416,0.7988582253456116,1.3802321063849377e-06,-0.052466850727796555
928.0,796.0,4.2245,0.1627,8.3031,-0.0231,-0.0942,-0.1184,-1.5567237933031102,-0.13115112483501434,1.9601584672927856,-1.8461003303527832,0.02679896540939808,2.3243045806884766,4.47822014867749,0.00015506159979850054,0.33122944831848145,-1.6039541403399866,5.5183987569762394e-05,0.005399394314736128,0.8113608360290527,-0.0,-0.010269047692418098,0.7988904714584351,4.4717762750102336e-14,-0.04617882892489433
928.0,796.0,4.2245,0.1627,8.3031,-0.0231,-0.0942,-0.1184,-1.557587826890387,-0.12325067818164825,1.9726014137268066,-1.8458921909332275,0.030928021296858788,2.296112537384033,4.47822825490918,0.0001765886408975348,0.3334026336669922,-1.6039698759662073,5.3225863666739315e-05,-0.00742784608155489,0.8112849593162537,-0.0,-0.01448085531592369,0.7989025712013245,1.0798813170076513e-19,-0.07443114370107651
928.0,796.0,4.2245,0.1627,8.3031,-0.0231,-0.0942,-0.1184,-1.5586148745245119,-0.1218716949224472,1.96333909034729,-1.8457293510437012,0.03486369550228119,2.353257656097412,4.478221102351807,0.00016161552048288286,0.3306598961353302,-1.6039779821978968,5.082145071355626e-05,-0.003674113191664219,0.8114325404167175,-0.0,0.006359930615872145,0.7988905310630798,3.498678233340874e-27,-0.013086115941405296
928.0,796.0,4.2245,0.1627,8.3031,-0.0231,-0.0942,-0.1184,-1.5596018082327028,-0.13406342267990112,1.9430416822433472,-1.845449686050415,0.03468354046344757,2.3652830123901367,4.478212519282959,0.00015842466382309794,0.34982872009277344,-1.6039169470416468,2.118740525247631e-07,-0.01569712907075882,0.8113210797309875,-0.0,0.0001179042155854404,0.7988703846931458,1.1335273657880087e-34,0.03174973279237747
928.0,796.0,4.2245,0.1627,8.3031,-0.0231,-0.0942,-0.1184,-1.5603851920789857,-0.14039187133312225,1.9900801181793213,-1.8451255559921265,0.03482222184538841,2.3032822608947754,4.4782325464436035,0.00012563283962663263,0.33229970932006836,-1.6039779821978968,5.897592136872021e-11,-0.008113576099276543,0.8113929629325867,-0.0,0.006786297541111708,0.7988703846931458,2.7373384591660274e-40,0.011816281825304031
896.0,790.0,4.998,-0.2788,7.8909,-0.0437,-0.1048,-0.1145,-1.5614763556844373,-0.14091646671295166,1.9959042072296143,-1.8448188304901123,0.045253120362758636,2.3223111629486084,4.478276892299316,0.00019298164988867939,0.33241939544677734,-1.6039136091815394,1.0718582554660491e-15,-0.011924920603632927,0.8113568425178528,-0.0,-0.0010062932269647717,0.798866331577301,0.0,-0.03591082990169525
896.0,790.0,4.998,-0.2788,7.8909,-0.0437,-0.1048,-0.1145,-1.5625954328900953,-0.1270112544298172,1.9618723392486572,-1.8444114923477173,0.056517113000154495,2.364572525024414,4.478236837978027,0.00021646807726938277,0.34301161766052246,-1.603945557271139,1.9480496013297338e-20,-0.00862085446715355,0.8114326000213623,-0.0,-0.0026307145599275827,0.7988823056221008,0.0,-0.0180783960968256
896.0,790.0,4.998,-0.2788,7.8909,-0.0437,-0.1048,-0.1145,-1.5636500551230093,-0.11401695758104324,2.0623321533203125,-1.843920350074768,0.06721235066652298,2.37723708152771,4.478276892299316,0.00024443588335998356,0.3388189375400543,-1.6039779821978968,3.5404839170130614e-25,-0.02089235931634903,0.8114045858383179,-0.0,-0.012780364602804184,0.7988864183425903,0.0,0.010668125003576279
896.0,790.0,4.998,-0.2788,7.8909,-0.0437,-0.1048,-0.1145,-1.5644418655759473,-0.12048569321632385,2.056056499481201,-1.843508243560791,0.07100161910057068,2.3942432403564453,4.478192492122314,9.173045691568404e-05,0.3498389422893524,-1.6039374510394495,9.855066581158338e-29,-0.014174078591167927,0.8114010095596313,-0.0,-0.0063562290742993355,0.7988782525062561,0.0,-0.00761381583288312
896.0,790.0,4.998,-0.2788,7.8909,-0.0437,-0.1048,-0.1145,-1.5654608256048341,-0.14185009896755219,2.0039258003234863,-1.8429464101791382,0.07160034030675888,2.34700345993042,4.478253050441406,1.6671560798542373e-09,0.34197866916656494,-1.6039741675006312,1.791109742226543e-33,-0.009929636493325233,0.8113330602645874,-0.0,-0.0040292334742844105,0.7988823056221008,0.0,0.03559556603431702
896.0,790.0,4.998,-0.2788,7.8909,-0.0437,-0.1048,-0.1145,-1.5665923233940084,-0.1514488309621811,1.9915167093276978,-1.8422906398773193,0.07315327227115631,2.346308946609497,4.47828118383374,3.0299744104792664e-14,0.34080541133880615,-1.6039541403399866,3.255253887425394e-38,-0.0060652149841189384,0.8113290071487427,-0.0,-0.0053135124035179615,0.7988864183425903,0.0,0.07900400459766388
896.0,790.0,4.998,-0.2788,7.8909,-0.0437,-0.1048,-0.1145,-1.5673629474225272,-0.14348310232162476,2.0272889137268066,-1.8417590856552124,0.08019407838582993,2.3588342666625977,4.478284998531006,8.434045194973365e-18,0.31720930337905884,-1.6039331595050257,9.060795870324267e-42,-0.011857589706778526,0.8113850951194763,-0.0,-0.014158686622977257,0.7988301515579224,2.0914380002068356e-05,-0.03483062982559204
896.0,790.0,4.998,-0.2788,7.8909,-0.0437,-0.1048,-0.1145,-1.5684301501936098,-0.11576949805021286,2.0401976108551025,-1.8411011695861816,0.09601341187953949,2.384840488433838,4.478308840388916,0.0015217523323372006,0.33611243963241577,-1.6039417425738733,0.0,-0.008192695677280426,0.8113811612129211,-0.0,-0.005554571747779846,0.7988703846931458,1.845880615292117e-05,0.011039548553526402
896.0,790.0,4.998,-0.2788,7.8909,-0.0437,-0.1048,-0.1145,-1.5694413840868329,-0.10847306996583939,2.0386836528778076,-1.8403621912002563,0.0985855832695961,2.45125675201416,4.478244944209717,0.0004150301683694124,0.34085530042648315,-1.603945557271139,0.0,-0.002166871214285493,0.8113929629325867,-0.0,-0.010510551743209362,0.7988703846931458,3.411820944165811e-05,-0.04842125624418259
896.0,790.0,4.998,-0.2788,7.8909,-0.0437,-0.1048,-0.1145,-1.5701284241843787,-0.12022265046834946,2.035552501678467,-1.8397551774978638,0.0946904644370079,2.4438581466674805,4.478261156673096,-0.000545168062672019,0.3323255777359009,-1.6039617697345179,0.0,-0.0010900425259023905,0.8113608360290527,-0.0,-0.0075514959171414375,0.7988904714584351,4.842418275075033e-05,0.02056550607085228
896.0,790.0,4.998,-0.2788,7.8909,-0.0437,-0.1048,-0.1145,-1.571071287194723,-0.13723662495613098,1.9882149696350098,-1.8389521837234497,0.09399054199457169,2.404171943664551,4.478212519282959,-0.0006993156275711954,0.33129674196243286,-1.6039541403399866,0.0,0.00029369047842919827,0.8114284873008728,-0.0,-0.021356631070375443,0.7988703846931458,4.518289279076271e-05,-0.004950627684593201
896.0,790.0,4.998,-0.2788,7.8909,-0.0437,-0.1048,-0.1145,-1.572095056573385,-0.1385549157857895,1.9787354469299316,-1.8381541967391968,0.10331697762012482,2.3700437545776367,4.47822825490918,-0.00026478461222723126,0.32928580045700073,-1.6039374510394495,0.0,-0.007670847233384848,0.8113608360290527,-0.0,-0.004144573584198952,0.7988463044166565,-0.00012588211393449455,-0.012166301719844341
882.0,757.0,4.8604,-0.0712,7.736,-0.0473,-0.0205,-0.1323,-1.573057313958639,-0.12340085208415985,1.9876338243484497,-1.8372071981430054,0.114623062312603,2.4111504554748535,4.478304548854492,0.00027592532569542527,0.3243110775947571,-1.6039417425738733,0.0,-0.0009964973432943225,0.8113688230514526,-0.0,-0.006846841424703598,0.7988868951797485,-0.0006066329078748822,-0.043758098036050797
882.0,757.0,4.8604,-0.0712,7.736,-0.0473,-0.0205,-0.1323,-1.573801179925436,-0.10908723622560501,2.036893367767334,-1.8365005254745483,0.12264806777238846,2.386397123336792,4.478293104762695,0.0003162009525112808,0.33270591497421265,-1.6039179007159632,0.0,-0.0030859496910125017,0.8113208413124084,-0.0,-0.011936064809560776,0.7988463044166565,-0.0004332074895501137,-0.09721684455871582
882.0,757.0,4.8604,-0.0712,7.736,-0.0473,-0.0205,-0.1323,-1.574780126611227,-0.1041981503367424,2.035919666290283,-1.8354829549789429,0.13129575550556183,2.4341087341308594,4.4782726007648925,0.00038012064760550857,0.34184953570365906,-1.6039498488055628,0.0,0.006314325146377087,0.8113811016082764,-0.0,-0.00605152640491724,0.7988947033882141,-0.00025019116583280265,0.0019944687373936176
882.0,757.0,4.8604,-0.0712,7.736,-0.0473,-0.0205,-0.1323,-1.5757080517210902,-0.1150706484913826,2.043565273284912,-1.8344881534576416,0.12893541157245636,2.412930965423584,4.478244944209717,-0.0005369976279325783,0.3346090316772461,-1.6039302984820765,0.0,0.007573641836643219,0.8113449811935425,-0.0,-0.008287246339023113,0.79891037940979,-0.00014682213077321649,-0.04659068584442139
