ramyac6/ROB537/final_project/csv/test/good/good_120.csv
tof_0,tof_1,accelx,accely,accelz,gyrox,gyroy,gyroz,shoulder_lift_joint_position,shoulder_lift_joint_velocity,shoulder_lift_joint_effort,elbow_joint_position,elbow_joint_velocity,elbow_joint_effort,wrist_1_joint_position,wrist_1_joint_velocity,wrist_1_joint_effort,wrist_2_joint_position,wrist_2_joint_velocity,wrist_2_joint_effort,wrist_3_joint_position,wrist_3_joint_velocity,wrist_3_joint_effort,shoulder_pan_joint_position,shoulder_pan_joint_velocity,shoulder_pan_joint_effort
924.0,912.0,2.4473,0.4319,8.9378,-0.0322,0.0304,-0.1156,-1.8399211368956507,0.0,3.1938834190368652,-1.668236494064331,-0.0,2.053802013397217,4.766296478896894,-0.0,0.28767654299736023,-1.5005853811847132,0.0,-0.021082017570734024,0.40387654304504395,-0.0,-0.0027065728791058064,0.9012038707733154,0.0,0.007017981261014938
924.0,912.0,2.4473,0.4319,8.9378,-0.0322,0.0304,-0.1156,-1.8399659595885218,0.0,3.226306438446045,-1.668143630027771,-0.0,2.0399270057678223,4.766276004701414,-0.0,0.29291966557502747,-1.5005415121661585,0.0,-0.0075592538341879845,0.4038606286048889,-0.0,-0.013384348712861538,0.9011796116828918,0.0,0.051855407655239105
924.0,912.0,2.4473,0.4319,8.9378,-0.0322,0.0304,-0.1156,-1.8399411640562953,0.0,3.1949214935302734,-1.668236494064331,-0.0,2.093919277191162,4.766304633557358,-0.0,0.2771889567375183,-1.5005415121661585,0.0,-0.010673010721802711,0.4038327932357788,-0.0,-0.020566672086715698,0.9011677503585815,0.0,0.01635356992483139
924.0,912.0,2.4473,0.4319,8.9378,-0.0322,0.0304,-0.1156,-1.8399049244322718,0.0,3.2305307388305664,-1.6682004928588867,-0.0,2.0311758518218994,4.766292369901695,-0.0,0.29944154620170593,-1.5005090872394007,0.0,-0.010273751802742481,0.40377286076545715,-0.0,-0.0028768861666321754,0.901171863079071,0.0,-0.013084044679999352
924.0,912.0,2.4473,0.4319,8.9378,-0.0322,0.0304,-0.1156,-1.8399373493590296,0.0,3.239454746246338,-1.6682240962982178,-0.0,2.0677597522735596,4.766312479018726,-0.0,0.28723618388175964,-1.5006173292743128,0.0,-0.02141687087714672,0.40386858582496643,-0.0,-0.012561998330056667,0.9012038707733154,0.0,-0.028457194566726685
924.0,912.0,2.4473,0.4319,8.9378,-0.0322,0.0304,-0.1156,-1.8399092159666957,0.0,3.244722604751587,-1.6682085990905762,-0.0,2.0678324699401855,4.766280154674806,-0.0,0.2949402928352356,-1.5005171934710901,0.0,-0.019748810678720474,0.40391236543655396,-0.0,0.0005619313451461494,0.90121990442276,0.0,-0.0005987311014905572
924.0,912.0,2.4473,0.4319,8.9378,-0.0322,0.0304,-0.1156,-1.8398691616454066,0.0,3.212310314178467,-1.668196201324463,-0.0,2.063077449798584,4.766292444407501,-0.0,0.28923046588897705,-1.5005257765399378,0.0,-0.015299426391720772,0.4038885533809662,-0.0,0.003898417577147484,0.9012038707733154,0.0,-0.001955983228981495
932.0,918.0,2.3731,0.3811,9.0419,-0.0392,0.0217,-0.113,-1.839917322198385,0.0,3.1860270500183105,-1.668196201324463,-0.0,2.0744504928588867,4.766292321472921,-0.0,0.29516834020614624,-1.500577751790182,0.0,-0.018552057445049286,0.403892457485199,-0.0,0.0032607479952275753,0.9011997580528259,0.0,0.0076228235848248005
932.0,918.0,2.3731,0.3811,9.0419,-0.0392,0.0217,-0.113,-1.8398930035033167,0.0,3.198796272277832,-1.6682525873184204,-0.0,2.0613956451416016,4.766244015633621,-0.0,0.28934013843536377,-1.5005257765399378,0.0,-0.015858862549066544,0.4038805365562439,-0.0,-0.010237344540655613,0.9012279510498047,0.0,-0.037257224321365356
932.0,918.0,2.3731,0.3811,9.0419,-0.0392,0.0217,-0.113,-1.8399330578246058,0.0,3.2846758365631104,-1.6682240962982178,-0.0,2.0755040645599365,4.766332543432274,-0.0,0.29816100001335144,-1.500521485005514,0.0,-0.021500220522284508,0.40382879972457886,-0.0,0.00430206349119544,0.9012239575386047,0.0,-0.00014484114944934845
932.0,918.0,2.3731,0.3811,9.0419,-0.0392,0.0217,-0.113,-1.839933534661764,0.0,3.225461959838867,-1.668236494064331,-0.0,2.1200132369995117,4.766276004701414,-0.0,0.28560569882392883,-1.5005534330951136,0.0,-0.02120254747569561,0.40390443801879883,-0.0,-0.00039260106859728694,0.9012157917022705,0.0,0.009648668579757214
932.0,918.0,2.3731,0.3811,9.0419,-0.0392,0.0217,-0.113,-1.8399254284300746,0.0,3.1941747665405273,-1.66825270652771,-0.0,2.0487537384033203,4.7662842375929735,-0.0,0.28770092129707336,-1.5005534330951136,0.0,-0.013767680153250694,0.4038805365562439,-0.0,-0.0017650588415563107,0.9012198448181152,0.0,-0.025424405932426453
932.0,918.0,2.3731,0.3811,9.0419,-0.0392,0.0217,-0.113,-1.8399049244322718,0.0,3.239407539367676,-1.668196201324463,-0.0,2.072671890258789,4.766260004579582,-0.0,0.29241326451301575,-1.5005171934710901,0.0,-0.015101520344614983,0.4038964509963989,-0.0,-0.010647149756550789,0.9011998176574707,0.0,0.009733268059790134
932.0,918.0,2.3731,0.3811,9.0419,-0.0392,0.0217,-0.113,-1.8398930035033167,0.0,3.175571918487549,-1.6682242155075073,-0.0,2.062117099761963,4.766232191562214,-0.0,0.2917003631591797,-1.5005338827716272,0.0,-0.019118666648864746,0.4039003252983093,-0.0,-0.001515248790383339,0.9011997580528259,0.0,0.009996876120567322
932.0,918.0,2.3731,0.3811,9.0419,-0.0392,0.0217,-0.113,-1.8399211368956507,0.0,3.234635829925537,-1.668220043182373,-0.0,2.0067381858825684,4.7662842375929735,-0.0,0.294246643781662,-1.500573460255758,0.0,-0.013846945017576218,0.403888463973999,-0.0,0.0018606053199619055,0.9011755585670471,0.0,-0.0102149723097682
932.0,918.0,2.3731,0.3811,9.0419,-0.0392,0.0217,-0.113,-1.8398729763426722,0.0,3.219684362411499,-1.6682566404342651,-0.0,2.0211734771728516,4.766280162125387,-0.0,0.2916843891143799,-1.5005252997027796,0.0,-0.015609953552484512,0.4038209021091461,-0.0,0.0017349091358482838,0.9011919498443604,0.0,-0.018678149208426476
932.0,918.0,2.3731,0.3811,9.0419,-0.0392,0.0217,-0.113,-1.8399254284300746,0.0,3.274351119995117,-1.6682324409484863,-0.0,2.0504250526428223,4.766280169575968,-0.0,0.2799907922744751,-1.5005009810077112,0.0,-0.02490125223994255,0.40382882952690125,-0.0,-0.0013070580316707492,0.9011473059654236,0.0,0.040956974029541016
932.0,918.0,2.3731,0.3811,9.0419,-0.0392,0.0217,-0.113,-1.8398972950377406,0.0,3.2377142906188965,-1.6682004928588867,-0.0,2.0507757663726807,4.766280210554161,-0.0,0.2803100347518921,-1.5005458037005823,0.0,-0.016088195145130157,0.40390437841415405,-0.0,-0.006157174706459045,0.9012079834938049,0.0,0.0029818853363394737
932.0,918.0,2.3731,0.3811,9.0419,-0.0392,0.0217,-0.113,-1.8398853741087855,0.0,3.2131731510162354,-1.6681839227676392,-0.0,2.067579507827759,4.766308317869463,-0.0,0.2874491512775421,-1.5005129019366663,0.0,-0.02048175223171711,0.40383678674697876,-0.0,-0.010155860334634781,0.9012239575386047,0.0,0.024269144982099533
932.0,918.0,2.3731,0.3811,9.0419,-0.0392,0.0217,-0.113,-1.839917322198385,0.0,3.1918563842773438,-1.6682085990905762,-0.0,2.0717852115631104,4.766292321472921,-0.0,0.30121102929115295,-1.500573460255758,0.0,-0.023834291845560074,0.4039004445075989,-0.0,-0.0017174931708723307,0.9012038111686707,0.0,-0.014784007333219051
932.0,918.0,2.3731,0.3811,9.0419,-0.0392,0.0217,-0.113,-1.839917322198385,0.0,3.199307918548584,-1.6681963205337524,-0.0,2.0463995933532715,4.7662678500409505,-0.0,0.291474848985672,-1.5005691687213343,0.0,-0.025796685367822647,0.4038606584072113,-0.0,-0.005511019378900528,0.9012038707733154,0.0,0.03714941442012787
932.0,908.0,2.3414,0.4032,9.1041,-0.0345,0.0234,-0.1133,-1.8399092159666957,0.0,3.2389473915100098,-1.6682525873184204,-0.0,2.087766170501709,4.766276000976124,-0.0,0.288351833820343,-1.5005295912372034,0.0,-0.004028118681162596,0.40391626954078674,-0.0,-0.005723233334720135,0.901232123374939,0.0,-0.015256077982485294
932.0,908.0,2.3414,0.4032,9.1041,-0.0345,0.0234,-0.1133,-1.8399578533568324,0.0,3.2277979850769043,-1.668220043182373,-0.0,2.0799074172973633,4.766284248768844,-0.0,0.2984353303909302,-1.5005696455584925,0.0,-0.025364063680171967,0.40384477376937866,-0.0,0.0024428917095065117,0.9011473655700684,0.0,0.005935576744377613
932.0,908.0,2.3414,0.4032,9.1041,-0.0345,0.0234,-0.1133,-1.8399011097350062,0.0,3.202660083770752,-1.668220043182373,-0.0,2.0988197326660156,4.766280162125387,-0.0,0.2871064841747284,-1.5004852453814905,0.0,-0.0022254004143178463,0.4039003551006317,-0.0,-0.0005937439855188131,0.9012239575386047,0.0,-0.01811712607741356
932.0,908.0,2.3414,0.4032,9.1041,-0.0345,0.0234,-0.1133,-1.8399211368956507,0.0,3.245670795440674,-1.6682525873184204,-0.0,2.099688768386841,4.7663046708102605,-0.0,0.29072603583335876,-1.5005047957049769,0.0,-0.017595406621694565,0.4038805067539215,-0.0,-0.005699075758457184,0.9011678099632263,0.0,-0.006172545719891787
932.0,908.0,2.3414,0.4032,9.1041,-0.0345,0.0234,-0.1133,-1.8398930035033167,0.0,3.208968162536621,-1.668220043182373,-0.0,2.053895950317383,4.7662842375929735,-0.0,0.2963433861732483,-1.500573460255758,0.0,-0.03129540756344795,0.4038686156272888,-0.0,-0.02142902836203575,0.9012522101402283,0.0,0.03399073705077171
932.0,908.0,2.3414,0.4032,9.1041,-0.0345,0.0234,-0.1133,-1.839917322198385,0.0,3.2253990173339844,-1.668212652206421,-0.0,2.0332512855529785,4.766296463995733,-0.0,0.2873968183994293,-1.5005491415606897,0.0,-0.025247644633054733,0.4038923978805542,-0.0,-0.0007406878285109997,0.9011956453323364,0.0,0.0070540448650717735
932.0,908.0,2.3414,0.4032,9.1041,-0.0345,0.0234,-0.1133,-1.839945455590719,0.0,3.2261314392089844,-1.6682405471801758,-0.0,2.0779693126678467,4.766300558089771,-0.0,0.2820131182670593,-1.5005372206317347,0.0,-0.016633031889796257,0.4038606882095337,-0.0,-0.003703630529344082,0.9012157917022705,0.0,0.013907027430832386
932.0,908.0,2.3414,0.4032,9.1041,-0.0345,0.0234,-0.1133,-1.839917322198385,0.0,3.2488112449645996,-1.668236494064331,-0.0,2.0717034339904785,4.7662842375929735,-0.0,0.2884565591812134,-1.5005415121661585,0.0,-0.0174043420702219,0.4038923978805542,-0.0,-0.004159539006650448,0.9012120366096497,0.0,0.009152302518486977
932.0,908.0,2.3414,0.4032,9.1041,-0.0345,0.0234,-0.1133,-1.8398972950377406,0.0,3.2206640243530273,-1.6681675910949707,-0.0,2.0560789108276367,4.766264150827684,-0.0,0.2850373089313507,-1.500533405934469,0.0,-0.017638754099607468,0.4039003551006317,-0.0,0.0004728308704216033,0.9012480974197388,0.0,0.0428960844874382
932.0,908.0,2.3414,0.4032,9.1041,-0.0345,0.0234,-0.1133,-1.8398930035033167,0.0,3.166430950164795,-1.668228268623352,-0.0,2.054227352142334,4.766240346222677,-0.0,0.2901214361190796,-1.5004895369159144,0.0,-0.02140534669160843,0.403908371925354,-0.0,0.00038242817390710115,0.9011956453323364,0.0,-0.013798413798213005
932.0,908.0,2.3414,0.4032,9.1041,-0.0345,0.0234,-0.1133,-1.839877267877096,0.0,3.2186858654022217,-1.6681840419769287,-0.0,2.0339550971984863,4.766288234829464,-0.0,0.29098519682884216,-1.5005047957049769,0.0,-0.01514451764523983,0.4038328528404236,-0.0,-0.004963163286447525,0.9012481570243835,0.0,0.015401851385831833
932.0,908.0,2.3414,0.4032,9.1041,-0.0345,0.0234,-0.1133,-1.8399011097350062,0.0,3.279163122177124,-1.6682485342025757,-0.0,2.0503411293029785,4.766272316664018,-0.0,0.2886573076248169,-1.5005577246295374,0.0,-0.01397298276424408,0.40382489562034607,-0.0,0.004924601875245571,0.9011796116828918,0.0,0.03456030413508415
932.0,908.0,2.3414,0.4032,9.1041,-0.0345,0.0234,-0.1133,-1.8399292431273402,0.0,3.249732732772827,-1.6682405471801758,-0.0,2.1151368618011475,4.766280162125387,-0.0,0.2750929594039917,-1.500589672719137,0.0,-0.018715545535087585,0.40386858582496643,-0.0,-0.00042888475582003593,0.901252269744873,0.0,-0.007701556663960218
921.0,931.0,2.2702,0.3284,9.2919,-0.0379,0.0186,-0.1045,-1.8399211368956507,0.0,3.17628812789917,-1.6682689189910889,-0.0,2.0770983695983887,4.7663046708102605,-0.0,0.29120585322380066,-1.5005171934710901,0.0,-0.027522822842001915,0.40385669469833374,-0.0,-0.01134500652551651,0.9012038707733154,0.0,-0.006866719573736191
921.0,931.0,2.2702,0.3284,9.2919,-0.0379,0.0186,-0.1045,-1.8398891888060511,0.0,3.2237648963928223,-1.6681839227676392,-0.0,2.091296672821045,4.766296486347475,-0.0,0.29255059361457825,-1.500521485005514,0.0,-0.03549935668706894,0.4038328528404236,-0.0,-0.0036503560841083527,0.9011678099632263,0.0,-0.0014379648491740227
921.0,931.0,2.2702,0.3284,9.2919,-0.0379,0.0186,-0.1045,-1.8399092159666957,0.0,3.2220797538757324,-1.6682485342025757,-0.0,2.0448927879333496,4.766292444407501,-0.0,0.28171998262405396,-1.500549618397848,0.0,-0.025960061699151993,0.4038408100605011,-0.0,-0.008478828705847263,0.9011919498443604,0.0,0.035331226885318756
921.0,931.0,2.2702,0.3284,9.2919,-0.0379,0.0186,-0.1045,-1.8398968182005824,0.0,3.195046901702881,-1.6681840419769287,-0.0,2.067223072052002,4.766236244678058,-0.0,0.29094043374061584,-1.5005534330951136,0.0,-0.03305983543395996,0.4038527309894562,-0.0,-0.004316017497330904,0.9012198448181152,0.0,-0.0031283912248909473
921.0,931.0,2.2702,0.3284,9.2919,-0.0379,0.0186,-0.1045,-1.8398853741087855,0.0,3.2295055389404297,-1.6681880950927734,-0.0,2.045879602432251,4.766268226295271,-0.0,0.2852652668952942,-1.500521485005514,0.0,-0.01110959891229868,0.40386858582496643,-0.0,-0.00627200398594141,0.9012157917022705,0.0,-0.021454712375998497
921.0,931.0,2.2702,0.3284,9.2919,-0.0379,0.0186,-0.1045,-1.8399578533568324,0.0,3.236581325531006,-1.6682361364364624,-0.0,2.0659470558166504,4.766296478896894,-0.0,0.27666351199150085,-1.5005658308612269,0.0,-0.014523390680551529,0.40387654304504395,-0.0,0.00022984622046351433,0.9012038707733154,0.0,-0.007790172938257456
921.0,931.0,2.2702,0.3284,9.2919,-0.0379,0.0186,-0.1045,-1.839916845361227,0.0,3.2319836616516113,-1.66824471950531,-0.0,2.0662243366241455,4.766264147102394,-0.0,0.2903463840484619,-1.5005577246295374,0.0,-0.02385951392352581,0.4038725793361664,-0.0,-0.013659057207405567,0.901256263256073,0.0,0.025873377919197083
921.0,931.0,2.2702,0.3284,9.2919,-0.0379,0.0186,-0.1045,-1.8399292431273402,0.0,3.2573914527893066,-1.6682443618774414,-0.0,2.0663254261016846,4.766284133284845,-0.0,0.28457406163215637,-1.500549618397848,0.0,-0.010418404825031757,0.40392839908599854,-0.0,-0.01253541186451912,0.9011878967285156,0.0,0.013721558265388012
921.0,931.0,2.2702,0.3284,9.2919,-0.0379,0.0186,-0.1045,-1.8399292431273402,0.0,3.252734899520874,-1.6682406663894653,-0.0,2.0593061447143555,4.766300558089771,-0.0,0.2915148437023163,-1.5005491415606897,0.0,-0.017104465514421463,0.40388840436935425,-0.0,0.002352803712710738,0.9012402892112732,0.0,0.0007793210679665208
921.0,931.0,2.2702,0.3284,9.2919,-0.0379,0.0186,-0.1045,-1.839933534661764,0.0,3.1993584632873535,-1.668228268623352,-0.0,2.077145576477051,4.766264165728845,-0.0,0.29059338569641113,-1.5005257765399378,0.0,-0.021372565999627113,0.4038567543029785,-0.0,-0.007766608614474535,0.90121990442276,0.0,0.018925435841083527
921.0,931.0,2.2702,0.3284,9.2919,-0.0379,0.0186,-0.1045,-1.8399092159666957,0.0,3.2320165634155273,-1.6682239770889282,-0.0,2.0537688732147217,4.766276004701414,-0.0,0.2893182039260864,-1.5005577246295374,0.0,-0.021014664322137833,0.40393611788749695,-0.0,0.0010811625979840755,0.9012075662612915,0.0,-0.018186446279287338
921.0,931.0,2.2702,0.3284,9.2919,-0.0379,0.0186,-0.1045,-1.8399135075011195,0.0,3.2280869483947754,-1.6681963205337524,-0.0,2.0733916759490967,4.766340649663963,-0.0,0.2842063307762146,-1.500573460255758,0.0,-0.011140280403196812,0.40392017364501953,-0.0,-0.0026682051829993725,0.90122389793396,0.0,-0.02484622411429882
921.0,931.0,2.2702,0.3284,9.2919,-0.0379,0.0186,-0.1045,-1.8398891888060511,0.0,3.2451744079589844,-1.6682242155075073,-0.0,2.0545644760131836,4.766280162125387,-0.0,0.2932617962360382,-1.5005658308612269,0.0,-0.029019629582762718,0.40387654304504395,-0.0,0.004380130674690008,0.9012038707733154,0.0,-0.004761320538818836
921.0,931.0,2.2702,0.3284,9.2919,-0.0379,0.0186,-0.1045,-1.8399292431273402,0.0,3.2532711029052734,-1.6682283878326416,-0.0,2.0849199295043945,4.766248143255272,-0.0,0.2745676636695862,-1.5005491415606897,0.0,-0.024393510073423386,0.4039324223995209,-0.0,-0.011377125978469849,0.9012120366096497,0.0,0.055200643837451935
939.0,913.0,2.3665,0.3661,9.122,-0.0333,0.0202,-0.1156,-1.8398848972716273,0.0,3.2493538856506348,-1.6682085990905762,-0.0,2.0845627784729004,4.7662678500409505,-0.0,0.2964724004268646,-1.5005372206317347,0.0,-0.029354846104979515,0.4038766324520111,-0.0,0.008882460184395313,0.9012402892112732,0.0,0.02433919906616211
939.0,913.0,2.3665,0.3661,9.122,-0.0333,0.0202,-0.1156,-1.839877267877096,0.0,3.2699975967407227,-1.6682085990905762,-0.0,2.05979061126709,4.766236244678058,-0.0,0.2880561053752899,-1.500589672719137,0.0,-0.009894700720906258,0.4038487672805786,-0.0,-0.0009968996746465564,0.9012116193771362,0.0,0.011925920844078064
939.0,913.0,2.3665,0.3661,9.122,-0.0333,0.0202,-0.1156,-1.8399292431273402,0.0,3.2169666290283203,-1.668236494064331,-0.0,2.0784177780151367,4.766235853522577,-0.0,0.2938423752784729,-1.5005291144000452,0.0,-0.022619683295488358,0.4038567543029785,-0.0,0.009431010112166405,0.9011837840080261,0.0,0.017152613028883934
939.0,913.0,2.3665,0.3661,9.122,-0.0333,0.0202,-0.1156,-1.839877267877096,0.0,3.1926991939544678,-1.6682406663894653,-0.0,2.071333408355713,4.766308709024944,-0.0,0.29538244009017944,-1.500589672719137,0.0,-0.028178416192531586,0.4039003252983093,-0.0,0.0013052021386101842,0.9011998176574707,0.0,-0.025097791105508804
939.0,913.0,2.3665,0.3661,9.122,-0.0333,0.0202,-0.1156,-1.8399659595885218,0.0,3.211071252822876,-1.668211817741394,-0.0,2.0157108306884766,4.766312479018726,-0.0,0.2848956882953644,-1.5005372206317347,0.0,-0.013371882028877735,0.40386462211608887,-0.0,0.005070325452834368,0.9012239575386047,0.0,-0.019029177725315094
939.0,913.0,2.3665,0.3661,9.122,-0.0333,0.0202,-0.1156,-1.8399211368956507,0.0,3.235136032104492,-1.6682566404342651,-0.0,2.0662131309509277,4.766268241196432,-0.0,0.2939684987068176,-1.5005415121661585,0.0,-0.02460767701268196,0.4039043188095093,-0.0,0.0016183573752641678,0.9011678099632263,0.0,-0.03167495131492615
939.0,913.0,2.3665,0.3661,9.122,-0.0333,0.0202,-0.1156,-1.8399254284300746,0.0,3.2047877311706543,-1.6682240962982178,-0.0,2.0350840091705322,4.766280162125387,-0.0,0.2994241714477539,-1.500533405934469,0.0,-0.024239489808678627,0.40385663509368896,-0.0,0.005764874629676342,0.9011677503585815,0.0,-0.0038553900085389614
939.0,913.0,2.3665,0.3661,9.122,-0.0333,0.0202,-0.1156,-1.8398968182005824,0.0,3.2173285484313965,-1.66828453540802,-0.0,2.0903966426849365,4.766296478896894,-0.0,0.30006879568099976,-1.5005453268634241,0.0,-0.007451867219060659,0.4038487672805786,-0.0,-0.004134859889745712,0.9012280702590942,0.0,0.017100108787417412
939.0,913.0,2.3665,0.3661,9.122,-0.0333,0.0202,-0.1156,-1.8399373493590296,0.0,3.2244153022766113,-1.6682158708572388,-0.0,2.042741060256958,4.766292321472921,-0.0,0.29853010177612305,-1.5005257765399378,0.0,-0.027378570288419724,0.40392449498176575,-0.0,-0.004602508619427681,0.901211678981781,0.0,0.04556472226977348
939.0,913.0,2.3665,0.3661,9.122,-0.0333,0.0202,-0.1156,-1.8399011097350062,0.0,3.2396352291107178,-1.6682487726211548,-0.0,2.062513589859009,4.766260004579582,-0.0,0.2901257276535034,-1.5005453268634241,0.0,-0.016422659158706665,0.40386462211608887,-0.0,-0.0024239032063633204,0.9012402892112732,0.0,0.005807534325867891
939.0,913.0,2.3665,0.3661,9.122,-0.0333,0.0202,-0.1156,-1.8399578533568324,0.0,3.1876742839813232,-1.6682085990905762,-0.0,2.03613018989563,4.766348871379652,-0.0,0.3005831837654114,-1.5005129019366663,0.0,-0.015685494989156723,0.40380915999412537,-0.0,-0.011040035635232925,0.9012686610221863,0.0,0.017579294741153717
939.0,913.0,2.3665,0.3661,9.122,-0.0333,0.0202,-0.1156,-1.839916845361227,0.0,3.2188758850097656,-1.668228268623352,-0.0,2.064586877822876,4.766276395856895,-0.0,0.28791552782058716,-1.5005133787738245,0.0,-0.01168377697467804,0.4038724899291992,-0.0,-0.002041735453531146,0.9011678099632263,0.0,0.011892961338162422
939.0,913.0,2.3665,0.3661,9.122,-0.0333,0.0202,-0.1156,-1.8398729763426722,0.0,3.2306952476501465,-1.668220043182373,-0.0,2.0453121662139893,4.766264165728845,-0.0,0.29246437549591064,-1.5005090872394007,0.0,-0.01026988960802555,0.4038289487361908,-0.0,-0.012046385556459427,0.90122389793396,0.0,0.03348906710743904
951.0,911.0,2.3324,0.3811,9.2082,-0.0417,0.022,-0.1263,-1.8399135075011195,0.0,3.1865015029907227,-1.6682004928588867,-0.0,2.0422310829162598,4.7662842375929735,-0.0,0.2997412383556366,-1.5005539099322718,0.0,-0.03218182176351547,0.40384480357170105,-0.0,0.013575520366430283,0.9012444019317627,0.0,-0.002850862219929695
951.0,911.0,2.3324,0.3811,9.2082,-0.0417,0.022,-0.1263,-1.8399535618224085,0.0,3.1973471641540527,-1.6682608127593994,-0.0,2.0550124645233154,4.766264165728845,-0.0,0.28956207633018494,-1.5005372206317347,0.0,-0.02606663666665554,0.4038725197315216,-0.0,-0.006531424354761839,0.9012361764907837,0.0,-0.006107402965426445
951.0,911.0,2.3324,0.3811,9.2082,-0.0417,0.022,-0.1263,-1.8399330578246058,0.0,3.1821911334991455,-1.668211817741394,-0.0,2.0603537559509277,4.766271925508537,-0.0,0.29130101203918457,-1.5005372206317347,0.0,-0.021791517734527588,0.4038487672805786,-0.0,-0.010296011343598366,0.9012116193771362,0.0,-0.0021382300183176994
951.0,911.0,2.3324,0.3811,9.2082,-0.0417,0.022,-0.1263,-1.8399292431273402,0.0,3.205179214477539,-1.668229103088379,-0.0,2.060241460800171,4.76624400818304,-0.0,0.2751123309135437,-1.500549618397848,0.0,-0.027049792930483818,0.4038606882095337,-0.0,-0.0015871503856033087,0.9012362360954285,0.0,-0.006704289466142654
951.0,911.0,2.3324,0.3811,9.2082,-0.0417,0.022,-0.1263,-1.8399049244322718,0.0,3.1766278743743896,-1.668276309967041,-0.0,2.0441958904266357,4.766300558089771,-0.0,0.2876299321651459,-1.500573460255758,0.0,-0.014374522492289543,0.4038844406604767,-0.0,0.008068772964179516,0.901171863079071,0.0,0.05283331871032715
951.0,911.0,2.3324,0.3811,9.2082,-0.0417,0.022,-0.1263,-1.8398891888060511,0.0,3.214909553527832,-1.6682525873184204,-0.0,2.0982112884521484,4.766296478896894,-0.0,0.29114967584609985,-1.5005458037005823,0.0,-0.024694398045539856,0.40383288264274597,-0.0,-0.005802033469080925,0.9011837244033813,0.0,-0.00197928911074996
951.0,911.0,2.3324,0.3811,9.2082,-0.0417,0.022,-0.1263,-1.8399092159666957,0.0,3.2403383255004883,-1.6682443618774414,-0.0,2.0662741661071777,4.766271925508537,-0.0,0.2920141816139221,-1.5005458037005823,0.0,-0.005595790222287178,0.40386462211608887,-0.0,-0.015676718205213547,0.9011997580528259,0.0,-0.023375459015369415
951.0,911.0,2.3324,0.3811,9.2082,-0.0417,0.022,-0.1263,-1.839961668054098,0.0,3.2025561332702637,-1.6682606935501099,-0.0,2.0347704887390137,4.766280162125387,-0.0,0.2898373603820801,-1.500533405934469,0.0,-0.015720821917057037,0.40383288264274597,-0.0,-0.013388647697865963,0.9011837840080261,0.0,0.03217007964849472
951.0,911.0,2.3324,0.3811,9.2082,-0.0417,0.022,-0.1263,-1.8399373493590296,0.0,3.214001178741455,-1.6682566404342651,-0.0,2.0522351264953613,4.766280162125387,-0.0,0.2876596450805664,-1.5005372206317347,0.0,-0.018017835915088654,0.4038805067539215,-0.0,-0.008737676776945591,0.9012361764907837,0.0,-0.04466499388217926
951.0,911.0,2.3324,0.3811,9.2082,-0.0417,0.022,-0.1263,-1.8398930035033167,0.0,3.202725887298584,-1.6682323217391968,-0.0,2.060993194580078,4.76628831678585,-0.0,0.28869056701660156,-1.5005577246295374,0.0,-0.013585250824689865,0.4038209617137909,-0.0,-0.008290714584290981,0.9012038707733154,0.0,0.02204134687781334
951.0,911.0,2.3324,0.3811,9.2082,-0.0417,0.022,-0.1263,-1.8399092159666957,0.0,3.1748390197753906,-1.6682403087615967,-0.0,2.0683414936065674,4.766292392253437,-0.0,0.28005242347717285,-1.5005458037005823,0.0,-0.007498540915548801,0.40387657284736633,-0.0,-0.016808727756142616,0.9011878371238708,0.0,-0.0698804035782814
951.0,911.0,2.3324,0.3811,9.2082,-0.0417,0.022,-0.1263,-1.8398930035033167,0.0,3.2163350582122803,-1.6682685613632202,-0.0,2.114445447921753,4.766268241196432,-0.0,0.2868887782096863,-1.5005047957049769,0.0,-0.023693624883890152,0.40385663509368896,-0.0,-0.008234036155045033,0.9012120366096497,0.0,0.009405530989170074
951.0,911.0,2.3324,0.3811,9.2082,-0.0417,0.022,-0.1263,-1.8398968182005824,0.0,3.2005746364593506,-1.668236494064331,-0.0,2.056365966796875,4.7662481656070135,-0.0,0.27923858165740967,-1.5005534330951136,0.0,-0.015768008306622505,0.40382447838783264,-0.0,-0.007053751032799482,0.9011919498443604,0.0,-0.005045432597398758
951.0,911.0,2.3324,0.3811,9.2082,-0.0417,0.022,-0.1263,-1.8399049244322718,0.0,3.2123684883117676,-1.6681963205337524,-0.0,2.086587429046631,4.7662842375929735,-0.0,0.27855804562568665,-1.5005047957049769,0.0,-0.012389300391077995,0.4038567841053009,-0.0,0.004072720184922218,0.9012279510498047,0.0,0.0361253023147583
934.0,897.0,2.4598,0.4313,8.9988,-0.0431,0.0281,-0.1106,-1.839945455590719,0.0,3.1622791290283203,-1.6681963205337524,-0.0,2.0615897178649902,4.766288246005335,-0.0,0.2941931486129761,-1.5005257765399378,0.0,-0.020453723147511482,0.40386465191841125,-0.0,-0.0015402191784232855,0.9012722969055176,0.0,-0.047823160886764526
934.0,897.0,2.4598,0.4313,8.9988,-0.0431,0.0281,-0.1106,-1.8399135075011195,0.0,3.2235565185546875,-1.6682566404342651,-0.0,2.0758981704711914,4.7662559291119955,-0.0,0.2839756906032562,-1.5005491415606897,0.0,-0.0377478152513504,0.40386462211608887,-0.0,-0.007976488210260868,0.9011796116828918,0.0,0.037335559725761414
934.0,897.0,2.4598,0.4313,8.9988,-0.0431,0.0281,-0.1106,-1.8399135075011195,0.0,3.216874837875366,-1.6682077646255493,-0.0,2.0229790210723877,4.766280162125387,-0.0,0.2820415794849396,-1.5005577246295374,0.0,-0.008835090324282646,0.40393301844596863,-0.0,-0.005145960487425327,0.9011878371238708,0.0,0.010537108406424522
934.0,897.0,2.4598,0.4313,8.9988,-0.0431,0.0281,-0.1106,-1.8398930035033167,0.0,3.2105712890625,-1.6681679487228394,-0.0,2.0830678939819336,4.7662559291119955,-0.0,0.2895353436470032,-1.5005372206317347,0.0,-0.01249405276030302,0.4038843810558319,-0.0,0.00562631618231535,0.9012239575386047,0.0,-0.019705165177583694
934.0,897.0,2.4598,0.4313,8.9988,-0.0431,0.0281,-0.1106,-1.839921613732809,0.0,3.207341194152832,-1.668172001838684,-0.0,2.093822956085205,4.76624400818304,-0.0,0.29956209659576416,-1.5005534330951136,0.0,-0.00877754669636488,0.4038408100605011,-0.0,0.0015017520636320114,0.9012075066566467,0.0,-0.007982490584254265
934.0,897.0,2.4598,0.4313,8.9988,-0.0431,0.0281,-0.1106,-1.8399135075011195,0.0,3.2123236656188965,-1.6682045459747314,-0.0,2.062859058380127,4.766280009388485,-0.0,0.28611499071121216,-1.5005372206317347,0.0,-0.011119903065264225,0.403900682926178,-0.0,-0.012774595059454441,0.9012157917022705,0.0,0.024614576250314713
934.0,897.0,2.4598,0.4313,8.9988,-0.0431,0.0281,-0.1106,-1.8399135075011195,0.0,3.2396812438964844,-1.6682159900665283,-0.0,2.081869602203369,4.766276395856895,-0.0,0.28728047013282776,-1.5005295912372034,0.0,-0.010468794032931328,0.40388062596321106,-0.0,0.0012502233730629086,0.9011837840080261,0.0,-0.0007684665033593774
934.0,897.0,2.4598,0.4313,8.9988,-0.0431,0.0281,-0.1106,-1.8399135075011195,0.0,3.164229393005371,-1.6682926416397095,-0.0,2.0808207988739014,4.766296478896894,-0.0,0.2946217656135559,-1.5005372206317347,0.0,-0.02584613487124443,0.403900682926178,-0.0,0.005439001601189375,0.9011955857276917,0.0,0.0022994657047092915
934.0,897.0,2.4598,0.4313,8.9988,-0.0431,0.0281,-0.1106,-1.8398729763426722,0.0,3.2027323246002197,-1.6682045459747314,-0.0,2.0903306007385254,4.76624400818304,-0.0,0.286579966545105,-1.5005691687213343,0.0,-0.016216807067394257,0.4038486182689667,-0.0,-0.006775594316422939,0.9011595845222473,0.0,0.04110794514417648
934.0,897.0,2.4598,0.4313,8.9988,-0.0431,0.0281,-0.1106,-1.8399015865721644,0.0,3.2216548919677734,-1.6682566404342651,-0.0,2.0627620220184326,4.76628831678585,-0.0,0.29906901717185974,-1.5005653540240687,0.0,-0.018127821385860443,0.4038165807723999,-0.0,-0.0023219864815473557,0.901232123374939,0.0,0.016778288409113884
934.0,897.0,2.4598,0.4313,8.9988,-0.0431,0.0281,-0.1106,-1.8399411640562953,0.0,3.2275023460388184,-1.6682885885238647,-0.0,2.062958240509033,4.766276004701414,-0.0,0.29328277707099915,-1.5005772749530237,0.0,-0.008688285946846008,0.403860867023468,-0.0,-0.00023245828924700618,0.9011796116828918,0.0,0.04492323845624924
934.0,897.0,2.4598,0.4313,8.9988,-0.0431,0.0281,-0.1106,-1.8399254284300746,0.0,3.222322940826416,-1.668220043182373,-0.0,2.0417280197143555,4.766300580441513,-0.0,0.29110151529312134,-1.5005338827716272,0.0,-0.017488906159996986,0.40388062596321106,-0.0,-2.9775954317301512e-05,0.9011595249176025,0.0,-0.00429435633122921
934.0,897.0,2.4598,0.4313,8.9988,-0.0431,0.0281,-0.1106,-1.839917322198385,0.0,3.224123954772949,-1.6682077646255493,-0.0,2.073733329772949,4.766312479018726,-0.0,0.279118150472641,-1.5005691687213343,0.0,-0.008120629005134106,0.40390855073928833,-0.0,0.003042858559638262,0.901232123374939,0.0,0.01573902927339077
933.0,894.0,2.3504,0.3338,9.1388,-0.0308,0.02,-0.1165,-1.8399092159666957,0.0,3.1930646896362305,-1.6682324409484863,-0.0,2.1048107147216797,4.766264150827684,-0.0,0.30321845412254333,-1.5005534330951136,0.0,-0.01577172242105007,0.40388062596321106,-0.0,-0.012547946535050869,0.9012038707733154,0.0,-0.025843774899840355
933.0,894.0,2.3504,0.3338,9.1388,-0.0308,0.02,-0.1165,-1.8399659595885218,0.0,3.2210679054260254,-1.6682804822921753,-0.0,2.055710554122925,4.766296478896894,-0.0,0.28654447197914124,-1.5004966894732874,0.0,-0.031783442944288254,0.40389665961265564,-0.0,-0.0011781402863562107,0.9011878371238708,0.0,0.02761843428015709
933.0,894.0,2.3504,0.3338,9.1388,-0.0308,0.02,-0.1165,-1.8399092159666957,0.0,3.204702138900757,-1.6682085990905762,-0.0,2.0367586612701416,4.766300558089771,-0.0,0.2990785837173462,-1.5005252997027796,0.0,-0.01031516958028078,0.4038884937763214,-0.0,0.008258342742919922,0.901171863079071,0.0,-0.015717260539531708
933.0,894.0,2.3504,0.3338,9.1388,-0.0308,0.02,-0.1165,-1.8398848972716273,0.0,3.2174785137176514,-1.6682566404342651,-0.0,2.071457624435425,4.76625224479989,-0.0,0.2813352346420288,-1.5005252997027796,0.0,-0.026044249534606934,0.40384453535079956,-0.0,-0.001476211124099791,0.9012038707733154,0.0,0.023873837664723396
933.0,894.0,2.3504,0.3338,9.1388,-0.0308,0.02,-0.1165,-1.839877267877096,0.0,3.205761194229126,-1.6682522296905518,-0.0,2.074800491333008,4.766328475415268,-0.0,0.2865625023841858,-1.5005577246295374,0.0,-0.02588869258761406,0.40384456515312195,-0.0,0.005978961009532213,0.9012075066566467,0.0,-0.011039338074624538
933.0,894.0,2.3504,0.3338,9.1388,-0.0308,0.02,-0.1165,-1.8399092159666957,0.0,3.2013063430786133,-1.668220043182373,-0.0,2.0890207290649414,4.766292392253437,-0.0,0.27956539392471313,-1.5005415121661585,0.0,-0.02876616269350052,0.40388062596321106,-0.0,-0.009905551560223103,0.9011759757995605,0.0,-0.02281942032277584
933.0,894.0,2.3504,0.3338,9.1388,-0.0308,0.02,-0.1165,-1.8398729763426722,0.0,3.22904109954834,-1.6682045459747314,-0.0,2.0880398750305176,4.766296478896894,-0.0,0.2832847237586975,-1.500533405934469,0.0,-0.027366695925593376,0.40382447838783264,-0.0,-0.0019881995394825935,0.9012120366096497,0.0,0.013989388011395931
933.0,894.0,2.3504,0.3338,9.1388,-0.0308,0.02,-0.1165,-1.839921613732809,0.0,3.2088279724121094,-1.6682487726211548,-0.0,2.089031219482422,4.766336630075731,-0.0,0.2849218249320984,-1.500573460255758,0.0,-0.02440784126520157,0.40384048223495483,-0.0,-0.005284691229462624,0.901232123374939,0.0,-0.03903944045305252
933.0,894.0,2.3504,0.3338,9.1388,-0.0308,0.02,-0.1165,-1.8399254284300746,0.0,3.2245800495147705,-1.6682606935501099,-0.0,2.066185474395752,4.7662842375929735,-0.0,0.2871372401714325,-1.500521485005514,0.0,-0.02134782075881958,0.40383222699165344,-0.0,-0.006292801816016436,0.9012239575386047,0.0,-0.007176949176937342
933.0,894.0,2.3504,0.3338,9.1388,-0.0308,0.02,-0.1165,-1.8399011097350062,0.0,3.193988800048828,-1.668196201324463,-0.0,2.0152828693389893,4.766232169210472,-0.0,0.27924537658691406,-1.5005338827716272,0.0,-0.018941910937428474,0.403828501701355,-0.0,-0.01288917101919651,0.9011514186859131,0.0,-0.036572106182575226
933.0,894.0,2.3504,0.3338,9.1388,-0.0308,0.02,-0.1165,-1.8399135075011195,0.0,3.2226345539093018,-1.6682240962982178,-0.0,2.0298690795898438,4.766264165728845,-0.0,0.2953917980194092,-1.5005577246295374,0.0,-0.008523352444171906,0.40392088890075684,-0.0,-0.0027896836400032043,0.90121990442276,0.0,0.023318883031606674
933.0,894.0,2.3504,0.3338,9.1388,-0.0308,0.02,-0.1165,-1.8399135075011195,0.0,3.247065544128418,-1.668211817741394,-0.0,2.0714147090911865,4.766259963601389,-0.0,0.29672494530677795,-1.500533405934469,0.0,-0.0181603841483593,0.40390074253082275,-0.0,0.0064199999906122684,0.9011878371238708,0.0,0.006036644801497459
933.0,894.0,2.3504,0.3338,9.1388,-0.0308,0.02,-0.1165,-1.8399254284300746,0.0,3.2107622623443604,-1.668272614479065,-0.0,2.102882146835327,4.766292321472921,-0.0,0.28916478157043457,-1.500549618397848,0.0,-0.016950193792581558,0.40386053919792175,-0.0,0.004076498094946146,0.9012120366096497,0.0,0.012152488343417645
933.0,894.0,2.3504,0.3338,9.1388,-0.0308,0.02,-0.1165,-1.839877267877096,0.0,3.187281608581543,-1.6682159900665283,-0.0,2.095198154449463,4.766271925508537,-0.0,0.2882195711135864,-1.5005534330951136,0.0,-0.020762845873832703,0.40384453535079956,-0.0,-0.00023995415540412068,0.9011677503585815,0.0,0.029343150556087494
946.0,917.0,2.4365,0.4199,8.9545,-0.0316,0.0255,-0.1101,-1.8399092159666957,0.0,3.22509765625,-1.6682606935501099,-0.0,2.0582332611083984,4.766219927906551,-0.0,0.29040956497192383,-1.5005577246295374,0.0,-0.0164873655885458,0.4039085805416107,-0.0,0.00013995729386806488,0.9012239575386047,0.0,-0.006026170682162046
946.0,917.0,2.4365,0.4199,8.9545,-0.0316,0.0255,-0.1101,-1.8399292431273402,0.0,3.218318462371826,-1.6682405471801758,-0.0,2.0676448345184326,4.766308317869463,-0.0,0.29169613122940063,-1.5005658308612269,0.0,-0.029031096026301384,0.4038206934928894,-0.0,-0.00473953178152442,0.9011998176574707,0.0,0.003735124133527279
946.0,917.0,2.4365,0.4199,8.9545,-0.0316,0.0255,-0.1101,-1.839933534661764,0.0,3.20345401763916,-1.6682004928588867,-0.0,2.0836851596832275,4.766312467842855,-0.0,0.28592607378959656,-1.5005295912372034,0.0,-0.028079936280846596,0.4038448631763458,-0.0,-0.00663356576114893,0.9012402892112732,0.0,-0.02875078096985817
946.0,917.0,2.4365,0.4199,8.9545,-0.0316,0.0255,-0.1101,-1.8398691616454066,0.0,3.208510398864746,-1.6682045459747314,-0.0,2.0652670860290527,4.7662842375929735,-0.0,0.29313600063323975,-1.5005252997027796,0.0,-0.01105448603630066,0.40382441878318787,-0.0,-0.0003853549715131521,0.9012157917022705,0.0,-0.01808406598865986
946.0,917.0,2.4365,0.4199,8.9545,-0.0316,0.0255,-0.1101,-1.8398729763426722,0.0,3.2012436389923096,-1.6683005094528198,-0.0,2.028461456298828,4.766280162125387,-0.0,0.2950584292411804,-1.5004966894732874,0.0,-0.01818603090941906,0.4038683772087097,-0.0,0.0001470395363867283,0.90121990442276,0.0,-0.02903379127383232
946.0,917.0,2.4365,0.4199,8.9545,-0.0316,0.0255,-0.1101,-1.8399135075011195,0.0,3.1765928268432617,-1.6682240962982178,-0.0,2.051290512084961,4.766264165728845,-0.0,0.29414457082748413,-1.500533405934469,0.0,-0.020050643011927605,0.40389251708984375,-0.0,0.000495082582347095,0.9011878967285156,0.0,-0.03240060433745384
946.0,917.0,2.4365,0.4199,8.9545,-0.0316,0.0255,-0.1101,-1.8399130306639613,0.0,3.1788597106933594,-1.668228268623352,-0.0,2.0495309829711914,4.766304633557358,-0.0,0.2837282419204712,-1.5005252997027796,0.0,-0.021062027662992477,0.40386420488357544,-0.0,0.007739691995084286,0.9012079834938049,0.0,0.01759728603065014
946.0,917.0,2.4365,0.4199,8.9545,-0.0316,0.0255,-0.1101,-1.8398848972716273,0.0,3.1694464683532715,-1.6682240962982178,-0.0,2.008037567138672,4.766316554486313,-0.0,0.27834352850914,-1.5005129019366663,0.0,-0.02295006439089775,0.40389662981033325,-0.0,-0.007958861999213696,0.9012444019317627,0.0,-0.005025272723287344
946.0,917.0,2.4365,0.4199,8.9545,-0.0316,0.0255,-0.1101,-1.839917322198385,0.0,3.1742258071899414,-1.6681841611862183,-0.0,2.1152586936950684,4.766312479018726,-0.0,0.2808181941509247,-1.5005171934710901,0.0,-0.014196463860571384,0.40384823083877563,-0.0,-0.003150622360408306,0.9012079834938049,0.0,-0.02819158509373665
946.0,917.0,2.4365,0.4199,8.9545,-0.0316,0.0255,-0.1101,-1.8399373493590296,0.0,3.191140651702881,-1.6682566404342651,-0.0,2.067211627960205,4.766296478896894,-0.0,0.28185126185417175,-1.5005338827716272,0.0,-0.018997758626937866,0.4039248526096344,-0.0,-0.0012531530810520053,0.9011998176574707,0.0,0.0001233518705703318
946.0,917.0,2.4365,0.4199,8.9545,-0.0316,0.0255,-0.1101,-1.8399292431273402,0.0,3.1969661712646484,-1.6682885885238647,-0.0,2.053029775619507,4.766232169210472,-0.0,0.28436335921287537,-1.5005458037005823,0.0,-0.022839143872261047,0.40389284491539,-0.0,-0.008123583160340786,0.9012038707733154,0.0,-0.08126947283744812
946.0,917.0,2.4365,0.4199,8.9545,-0.0316,0.0255,-0.1101,-1.8399654827513636,0.0,3.255211591720581,-1.6682724952697754,-0.0,2.0468125343322754,4.766312479018726,-0.0,0.28640928864479065,-1.500561539326803,0.0,-0.019358135759830475,0.4038887619972229,-0.0,-0.006823915056884289,0.9012240171432495,0.0,0.0031097554601728916
946.0,917.0,2.4365,0.4199,8.9545,-0.0316,0.0255,-0.1101,-1.839877267877096,0.0,3.2218780517578125,-1.6682240962982178,-0.0,2.0558276176452637,4.7662678500409505,-0.0,0.2848736047744751,-1.5005534330951136,0.0,-0.009247109293937683,0.40387654304504395,-0.0,0.004340323619544506,0.9011960625648499,0.0,0.03412918001413345
921.0,927.0,2.2768,0.344,9.2973,-0.0371,0.0145,-0.1118,-1.8399011097350062,0.0,3.182298183441162,-1.668211817741394,-0.0,2.0622763633728027,4.7662678500409505,-0.0,0.2807677388191223,-1.5005458037005823,0.0,-0.021640479564666748,0.4038847088813782,-0.0,-0.0005800010403618217,0.9012038707733154,0.0,-0.004472825210541487
921.0,927.0,2.2768,0.344,9.2973,-0.0371,0.0145,-0.1118,-1.839877267877096,0.0,3.2326152324676514,-1.6682045459747314,-0.0,2.0332436561584473,4.766264165728845,-0.0,0.28713539242744446,-1.5005539099322718,0.0,-0.006888264790177345,0.40382441878318787,-0.0,-0.01594911515712738,0.9012038707733154,0.0,0.002908478258177638
921.0,927.0,2.2768,0.344,9.2973,-0.0371,0.0145,-0.1118,-1.8399015865721644,0.0,3.246431350708008,-1.6682525873184204,-0.0,2.0678789615631104,4.766276004701414,-0.0,0.28584024310112,-1.5005090872394007,0.0,-0.014100007712841034,0.4039085805416107,-0.0,-0.0033970759250223637,0.9012522101402283,0.0,-0.008167477324604988
921.0,927.0,2.2768,0.344,9.2973,-0.0371,0.0145,-0.1118,-1.8399135075011195,0.0,3.2867531776428223,-1.6682524681091309,-0.0,2.086759567260742,4.766312479018726,-0.0,0.3016984164714813,-1.5005338827716272,0.0,-0.02216174453496933,0.40390074253082275,-0.0,-0.0018001629505306482,0.9011915326118469,0.0,-0.014637995511293411
921.0,927.0,2.2768,0.344,9.2973,-0.0371,0.0145,-0.1118,-1.8398968182005824,0.0,3.239096164703369,-1.6681839227676392,-0.0,2.0483181476593018,4.766292321472921,-0.0,0.3055061101913452,-1.5005696455584925,0.0,-0.013195857405662537,0.40384453535079956,-0.0,0.004535624757409096,0.9011878371238708,0.0,0.08109237253665924
921.0,927.0,2.2768,0.344,9.2973,-0.0371,0.0145,-0.1118,-1.839933534661764,0.0,3.215132474899292,-1.6682240962982178,-0.0,2.074413776397705,4.766264128475942,-0.0,0.29176801443099976,-1.5005252997027796,0.0,-0.013992520980536938,0.4039047658443451,-0.0,-0.002151146996766329,0.9011637568473816,0.0,-0.023516962304711342
921.0,927.0,2.2768,0.344,9.2973,-0.0371,0.0145,-0.1118,-1.839945455590719,0.0,3.2346737384796143,-1.6682119369506836,-0.0,2.077366352081299,4.766276004701414,-0.0,0.2946493327617645,-1.500577751790182,0.0,-0.012808728031814098,0.40382853150367737,-0.0,-0.013942308723926544,0.9012079834938049,0.0,0.033193062990903854
921.0,927.0,2.2768,0.344,9.2973,-0.0371,0.0145,-0.1118,-1.8399254284300746,0.0,3.1998815536499023,-1.6682004928588867,-0.0,2.0970420837402344,4.7662842375929735,-0.0,0.29709991812705994,-1.5005372206317347,0.0,-0.011727381497621536,0.40393301844596863,-0.0,-0.0015045366017147899,0.9012038707733154,0.0,2.229493111371994e-05
921.0,927.0,2.2768,0.344,9.2973,-0.0371,0.0145,-0.1118,-1.839977880517477,0.0,3.213376998901367,-1.6682281494140625,-0.0,2.0341999530792236,4.766304626106777,-0.0,0.2893511950969696,-1.5005295912372034,0.0,-0.019342537969350815,0.40387243032455444,-0.0,0.004050613846629858,0.9012280702590942,0.0,-0.005801737774163485
921.0,927.0,2.2768,0.344,9.2973,-0.0371,0.0145,-0.1118,-1.8398810825743617,0.0,3.1993026733398438,-1.6681880950927734,-0.0,2.072777271270752,4.766280162125387,-0.0,0.2854822874069214,-1.5005658308612269,0.0,-0.01584387570619583,0.40388062596321106,-0.0,-0.01900285854935646,0.9012079238891602,0.0,-0.021134424954652786
921.0,927.0,2.2768,0.344,9.2973,-0.0371,0.0145,-0.1118,-1.8398729763426722,0.0,3.2383151054382324,-1.6682566404342651,5.13169007287928e-10,2.025845527648926,4.766280162125387,-0.0,0.2932889461517334,-1.500561539326803,0.0,-0.012532062828540802,0.40386050939559937,-0.0,-0.012385186739265919,0.9012157917022705,0.0,0.024113593623042107
921.0,927.0,2.2768,0.344,9.2973,-0.0371,0.0145,-0.1118,-1.8398930035033167,0.0,3.2447657585144043,-1.6682240962982178,1.2392427655135763e-15,2.096733808517456,4.766236244678058,-0.0,0.29310959577560425,-1.5005534330951136,0.0,-0.024230076000094414,0.4038366973400116,-0.0,-0.0028271465562283993,0.9012198448181152,0.0,-0.036422692239284515
921.0,927.0,2.2768,0.344,9.2973,-0.0371,0.0145,-0.1118,-1.8398810825743617,0.0,3.1869897842407227,-1.6682528257369995,2.992625355375523e-21,2.1284258365631104,4.766280162125387,-0.0,0.2852562963962555,-1.5005252997027796,0.0,-0.014126652851700783,0.40384823083877563,-0.0,-0.003765047062188387,0.9011919498443604,0.0,-0.036992669105529785
921.0,927.0,2.2768,0.344,9.2973,-0.0371,0.0145,-0.1118,-1.8399092159666957,0.0,3.2113757133483887,-1.6682281494140625,7.226837952903287e-27,2.0934839248657227,4.766276045679607,-0.0,0.2901032567024231,-1.5005577246295374,0.0,-0.014571478590369225,0.40389254689216614,-0.0,-0.0074460627511143684,0.9011915326118469,0.0,0.020123109221458435
939.0,911.0,2.3521,0.4361,9.1196,-0.0452,0.018,-0.1184,-1.8399211368956507,0.0,3.1633505821228027,-1.668256402015686,2.341403601321825e-34,2.0796658992767334,4.766320629953899,-0.0,0.3013073205947876,-1.5005691687213343,0.0,-0.012163260951638222,0.4038683772087097,-0.0,-0.0017028388101607561,0.9012239575386047,0.0,-0.021000923588871956
939.0,911.0,2.3521,0.4361,9.1196,-0.0452,0.018,-0.1184,-1.839949747125143,0.0,3.170858860015869,-1.668220043182373,5.65421127758135e-40,2.0711355209350586,4.766275993525543,-0.0,0.29854124784469604,-1.5005534330951136,0.0,-0.029216159135103226,0.40386053919792175,-0.0,-0.009167452342808247,0.9011837840080261,0.0,-0.010774931870400906
939.0,911.0,2.3521,0.4361,9.1196,-0.0452,0.018,-0.1184,-1.8398891888060511,0.0,3.204866409301758,-1.6682485342025757,1.401298464324817e-45,2.1112208366394043,4.7662842375929735,-0.0,0.29411938786506653,-1.5006020704852503,0.0,-0.02772148884832859,0.403868705034256,-0.0,-0.001616821507923305,0.9012116193771362,0.0,-0.022090325132012367
939.0,911.0,2.3521,0.4361,9.1196,-0.0452,0.018,-0.1184,-1.8398848972716273,0.0,3.224425792694092,-1.668276309967041,-0.0,2.0648255348205566,4.766276004701414,-0.0,0.2968233823776245,-1.5005491415606897,0.0,-0.016948603093624115,0.4038724899291992,-0.0,-0.0034468472003936768,0.9012361764907837,0.0,0.03616867959499359
939.0,911.0,2.3521,0.4361,9.1196,-0.0452,0.018,-0.1184,-1.839917322198385,0.0,3.1627886295318604,-1.6682405471801758,-0.0,2.098599672317505,4.7662842375929735,-0.0,0.2835601568222046,-1.5005415121661585,0.0,-0.021726183593273163,0.4038567841053009,-0.0,-0.004115825518965721,0.9012480974197388,0.0,0.024307947605848312
939.0,911.0,2.3521,0.4361,9.1196,-0.0452,0.018,-0.1184,-1.839945455590719,0.0,3.206268787384033,-1.6681880950927734,-0.0,2.0252740383148193,4.766219927906551,-0.0,0.2904689311981201,-1.5005577246295374,0.0,-0.012804124504327774,0.40389662981033325,-0.0,-0.0040686107240617275,0.9011998176574707,0.0,0.015285669825971127
939.0,911.0,2.3521,0.4361,9.1196,-0.0452,0.018,-0.1184,-1.8398891888060511,0.0,3.207688570022583,-1.668236494064331,-0.0,2.0529422760009766,4.766284166812458,-0.0,0.29123568534851074,-1.500561539326803,0.0,-0.015473037958145142,0.4038563668727875,-0.0,-0.007511086296290159,0.90122389793396,0.0,0.01206568069756031
939.0,911.0,2.3521,0.4361,9.1196,-0.0452,0.018,-0.1184,-1.839917322198385,0.0,3.224280834197998,-1.6682281494140625,-0.0,2.075962781906128,4.7662600232060335,-0.0,0.29171717166900635,-1.5005458037005823,0.0,-0.01711331307888031,0.4039003849029541,-0.0,-0.0031162837985903025,0.9011677503585815,0.0,-0.022466043010354042
939.0,911.0,2.3521,0.4361,9.1196,-0.0452,0.018,-0.1184,-1.8398810825743617,0.0,3.2238216400146484,-1.668220043182373,-0.0,2.068510055541992,4.766392468452015,-0.0,0.2931702435016632,-1.5005577246295374,0.0,-0.015901736915111542,0.40387651324272156,-0.0,-0.006335197016596794,0.9012402892112732,0.0,0.052218660712242126
939.0,911.0,2.3521,0.4361,9.1196,-0.0452,0.018,-0.1184,-1.8399135075011195,0.0,3.2130730152130127,-1.6682485342025757,-0.0,2.106266975402832,4.766316595464506,-0.0,0.30127328634262085,-1.5005853811847132,0.0,-0.018500398844480515,0.4038727879524231,-0.0,-0.0007353737019002438,0.9012198448181152,0.0,0.04721441492438316
939.0,911.0,2.3521,0.4361,9.1196,-0.0452,0.018,-0.1184,-1.839933534661764,0.0,3.233987808227539,-1.6681400537490845,-0.0,2.0237724781036377,4.766296501248636,-0.0,0.2899147570133209,-1.5005653540240687,0.0,-0.02828180603682995,0.40387654304504395,-0.0,-0.0020663633476942778,0.9012198448181152,0.0,-0.023910660296678543
939.0,911.0,2.3521,0.4361,9.1196,-0.0452,0.018,-0.1184,-1.8398648701109828,0.0,3.227386951446533,-1.6682566404342651,-0.0,2.060074806213379,4.76627195903615,-0.0,0.29014673829078674,-1.5005534330951136,0.0,-0.03617137297987938,0.4038684070110321,-0.0,-0.004140576347708702,0.9011998176574707,0.0,-0.005592675879597664
939.0,911.0,2.3521,0.4361,9.1196,-0.0452,0.018,-0.1184,-1.8399330578246058,0.0,3.1975653171539307,-1.668236494064331,-0.0,2.0782432556152344,4.766284133284845,-0.0,0.27950769662857056,-1.5005696455584925,0.0,-0.007200607098639011,0.403924822807312,-0.0,-0.004393829498440027,0.9012599587440491,0.0,-0.009351629763841629
914.0,895.0,2.4203,0.2189,9.1998,-0.0341,0.0171,-0.1086,-1.8399177990355433,0.0,3.249377965927124,-1.6682168245315552,-0.0,2.0575668811798096,4.7663285014923,-0.0,0.28823429346084595,-1.5005248228656214,0.0,-0.018071141093969345,0.40385645627975464,-0.0,0.0030246195383369923,0.9012317061424255,1.1083365336617135e-07,-0.015876444056630135
914.0,895.0,2.4203,0.2189,9.1998,-0.0341,0.0171,-0.1086,-1.8398968182005824,0.0,3.2522947788238525,-1.6681921482086182,-0.0,2.0392794609069824,4.766264124750652,-0.0,0.290320485830307,-1.5005939642535608,7.4213963863201116e-09,-0.024829447269439697,0.403888463973999,-0.0,0.0015253559686243534,0.9012923240661621,2.6765021405791845e-13,-0.018528740853071213
914.0,895.0,2.4203,0.2189,9.1998,-0.0341,0.0171,-0.1086,-1.8399492702879847,-1.560538087641561e-10,3.175114154815674,-1.6682045459747314,-0.0,2.0853099822998047,4.7663283226783655,-0.0,0.2930811941623688,-1.500629727040426,2.0657731168022275e-12,-0.018100569024682045,0.40388065576553345,-0.0,-0.0015394410584121943,0.9012841582298279,0.0007353898836299777,-0.017484236508607864
914.0,895.0,2.4203,0.2189,9.1998,-0.0341,0.0171,-0.1086,-1.8398448429503382,-5.0559450388349e-18,3.2261486053466797,-1.6682208776474,-0.0,2.035322904586792,4.7663324912782095,-0.0,0.29521799087524414,-1.5005930105792444,3.754440451480184e-17,-0.008447762578725815,0.40382447838783264,-0.0,-0.00797924492508173,0.9012517929077148,0.002061894629150629,0.031040050089359283
914.0,895.0,2.4203,0.2189,9.1998,-0.0341,0.0171,-0.1086,-1.8398896656432093,-1.2209511830163162e-23,3.2223823070526123,-1.668212652206421,-0.0,2.1005098819732666,4.766308358847656,-0.0,0.29449954628944397,-1.5006135145770472,1.0450623285008393e-20,-0.012405561283230782,0.4038888216018677,-0.0,-0.0015459605492651463,0.9013037085533142,0.004710048902779818,0.023320037871599197
914.0,895.0,2.4203,0.2189,9.1998,-0.0341,0.0171,-0.1086,-1.839877267877096,-2.9484533973313676e-29,3.2463202476501465,-1.6681801080703735,7.152639591367915e-05,2.0462119579315186,4.766328225820818,-0.0,0.2867928445339203,-1.5006335417376917,2.9089687642131734e-24,-0.01703626662492752,0.403888463973999,-0.0,-0.008548141457140446,0.9013639688491821,0.0098525146022439,0.02791324257850647
914.0,895.0,2.4203,0.2189,9.1998,-0.0341,0.0171,-0.1086,-1.8398972950377406,-9.552612619153031e-37,3.186528205871582,-1.6681560277938843,9.223279630532488e-05,2.053222417831421,4.766324299364843,-0.0,0.2895534932613373,-1.5006211439715784,5.286907003376966e-29,-0.02994328923523426,0.4038124978542328,-0.0,-0.009828997775912285,0.9014393091201782,0.012738600373268127,0.0014336095191538334
914.0,895.0,2.4203,0.2189,9.1998,-0.0341,0.0171,-0.1086,-1.8398567638792933,-2.306537272278649e-42,3.233196973800659,-1.6681921482086182,0.0004925087559968233,2.032456159591675,4.76631614842967,-0.0,0.2866513133049011,-1.5005853811847132,1.471630030469223e-32,-0.011616427451372147,0.4038486182689667,-0.0,0.0015091213863343,0.9015437960624695,0.010610704310238361,0.030401138588786125
914.0,895.0,2.4203,0.2189,9.1998,-0.0341,0.0171,-0.1086,-1.8398453197874964,0.0,3.238379955291748,-1.6681641340255737,0.0004491109575610608,2.0828137397766113,4.766343659698524,-0.0,0.284753680229187,-1.5005772749530237,4.096336296691066e-36,-0.017348390072584152,0.4039207994937897,-0.0,0.004965603351593018,0.9015592932701111,0.009091685526072979,-0.0156550370156765
914.0,895.0,2.4203,0.2189,9.1998,-0.0341,0.0171,-0.1086,-1.8399254284300746,0.0,3.202056884765625,-1.6682003736495972,0.0003931723767891526,2.0753190517425537,4.766355979233541,-0.0,0.2868151068687439,-1.5005729834186,7.444818481264888e-41,-0.028476987034082413,0.4039249122142792,-0.0,-0.012958087027072906,0.9015752077102661,0.005618429277092218,0.06974112242460251
914.0,895.0,2.4203,0.2189,9.1998,-0.0341,0.0171,-0.1086,-1.839917322198385,0.0,3.1891748905181885,-1.6681523323059082,0.0003326248552184552,2.004798412322998,4.766332506179371,-0.0,0.2893550992012024,-1.5006135145770472,2.1019476964872256e-44,-0.014387935400009155,0.4038047194480896,-0.0,-0.01126810908317566,0.9016356468200684,0.0034691919572651386,0.022430721670389175
914.0,895.0,2.4203,0.2189,9.1998,-0.0341,0.0171,-0.1086,-1.839917322198385,0.0,3.21675181388855,-1.6682405471801758,0.00012964593770448118,2.0989673137664795,4.766279998212614,-0.0,0.29826363921165466,-1.5005772749530237,0.0,-0.021474748849868774,0.40389254689216614,-0.0,-0.010218228213489056,0.9015948176383972,0.001701821805909276,0.005757496226578951
914.0,895.0,2.4203,0.2189,9.1998,-0.0341,0.0171,-0.1086,-1.839949747125143,0.0,3.1987481117248535,-1.668204426765442,5.056924055679701e-05,2.053679943084717,4.766324325441875,-0.0,0.2749255895614624,-1.500533405934469,0.0,-0.010395575314760208,0.4038847088813782,-0.0,-0.009633949026465416,0.9016356468200684,0.0002939646365121007,0.01630234159529209
914.0,895.0,2.4203,0.2189,9.1998,-0.0341,0.0171,-0.1086,-1.8399573765196742,-0.0012513971887528896,3.2491273880004883,-1.6681760549545288,4.3093015847261995e-05,2.1109352111816406,4.766316163330831,-0.0,0.285354882478714,-1.500521485005514,0.0,-0.019572479650378227,0.4038926064968109,-0.0,-0.012870615348219872,0.9016516208648682,1.4850432989987894e-06,0.0452883280813694
932.0,890.0,2.476,0.186,9.2327,-0.1008,-0.0127,-0.1365,-1.8399611912169398,-0.0029440661892294884,3.2570736408233643,-1.6682240962982178,7.402143342716272e-09,2.0549933910369873,4.766336559295215,-0.0,0.2857268750667572,-1.5005372206317347,0.0,-0.025200702250003815,0.40390440821647644,-2.2419508027837765e-08,-0.0022211940959095955,0.9016273617744446,3.586204683908578e-12,-0.007496759295463562
932.0,890.0,2.476,0.186,9.2327,-0.1008,-0.0127,-0.1365,-1.8400331936278285,-0.004745661746710539,3.1973888874053955,-1.6681921482086182,1.7875307286338397e-14,2.0753769874572754,4.766280169575968,-0.0,0.2994996905326843,-1.5004728476153772,0.0,-0.01019036304205656,0.4038527011871338,-6.240551912034542e-12,-0.006959389895200729,0.9015994071960449,-0.0015702698146924376,0.010847005993127823
932.0,890.0,2.476,0.186,9.2327,-0.1008,-0.0127,-0.1365,-1.8400613270201625,-0.0056374212726950645,3.2333500385284424,-1.6681880950927734,5.791371974799869e-22,2.067089080810547,4.766316163330831,-0.0,0.29644763469696045,-1.5004976431476038,0.0,-0.018481992185115814,0.403856486082077,-1.134189424821023e-16,-0.0005716386949643493,0.9015712141990662,-0.001333838328719139,-0.004650569520890713
932.0,890.0,2.476,0.186,9.2327,-0.1008,-0.0127,-0.1365,-1.8400770626463832,-0.005326434038579464,3.198276996612549,-1.6682168245315552,1.3985482143733042e-27,2.0770440101623535,4.766300140857258,-0.0,0.2819170355796814,-1.5005129019366663,0.0,-0.013061806559562683,0.4038642346858978,-3.157057915548233e-20,-0.0019696084782481194,0.9015874862670898,-0.0010255220113322139,-0.023655878379940987
932.0,890.0,2.476,0.186,9.2327,-0.1008,-0.0127,-0.1365,-1.840161462823385,-0.0037150667048990726,3.2137250900268555,-1.6682003736495972,3.377328982394838e-33,2.0427308082580566,4.766336533218183,-0.0,0.2949284613132477,-1.5004733244525355,0.0,-0.02344123274087906,0.4038962125778198,-8.787787421860857e-24,-0.022794613614678383,0.9015834927558899,-0.0006146529340185225,0.015125047415494919
932.0,890.0,2.476,0.186,9.2327,-0.1008,-0.0127,-0.1365,-1.8401209316649378,-0.0021290131844580173,3.1752471923828125,-1.6681238412857056,1.0942179188526767e-40,2.0807440280914307,4.766308008670368,-0.0,0.2869211435317993,-1.5005739370929163,0.0,-0.014188243076205254,0.40387243032455444,-1.5971368694701483e-28,0.00036196166183799505,0.9015793204307556,-0.00039739502244628966,0.003868362633511424
932.0,890.0,2.476,0.186,9.2327,-0.1008,-0.0127,-0.1365,-1.8401571712889613,-0.00142948841676116,3.2224669456481934,-1.6681923866271973,0.0008081760024651885,2.0661675930023193,4.766347805946626,-0.0,0.2966049015522003,-1.5005458037005823,0.0,-0.00420421501621604,0.40393301844596863,-4.4456893658303577e-32,-0.003467399859800935,0.9015916585922241,-0.00025131439906544983,-0.020273057743906975
932.0,890.0,2.476,0.186,9.2327,-0.1008,-0.0127,-0.1365,-1.8401252231993617,-0.001097826287150383,3.207874059677124,-1.6681644916534424,0.0015842452412471175,2.0640432834625244,4.766335929721155,-0.0,0.29542073607444763,-1.500521485005514,0.0,-0.009583255276083946,0.40387657284736633,-1.237473983686353e-35,0.0011268729576840997,0.9015551805496216,-0.000207789838896133,0.017056040465831757
932.0,890.0,2.476,0.186,9.2327,-0.1008,-0.0127,-0.1365,-1.8401051960387171,-0.0006820228882133961,3.1788711547851562,-1.668133020401001,0.004546172916889191,2.0494189262390137,4.766363839596071,9.298800432588905e-05,0.2896130681037903,-1.500533405934469,0.0,-0.021276865154504776,0.40388473868370056,-2.2490419962874017e-40,0.009134010411798954,0.9015792608261108,-0.00016881049668882042,-0.01992679387331009
932.0,890.0,2.476,0.186,9.2327,-0.1008,-0.0127,-0.1365,-1.8401009045042933,-0.0004646756569854915,3.210970163345337,-1.6680645942687988,0.008202712051570415,2.084256887435913,4.76636383214549,0.0001207105815410614,0.29663515090942383,-1.5005372206317347,0.0,-0.02612301893532276,0.4039441645145416,-6.305843089461677e-44,0.006518220528960228,0.9015794396400452,-0.0001486485853092745,0.051389433443546295
932.0,890.0,2.476,0.186,9.2327,-0.1008,-0.0127,-0.1365,-1.8400966129698695,-0.00013030295667704195,3.2264204025268555,-1.667983889579773,0.011659957468509674,2.0607826709747314,4.76635558807806,0.00011540162813616917,0.2959449887275696,-1.5005171934710901,0.0,-0.01385143119841814,0.40390855073928833,-0.0,0.019613411277532578,0.9015711545944214,-6.624767411267385e-05,0.015145017765462399
932.0,890.0,2.476,0.186,9.2327,-0.1008,-0.0127,-0.1365,-1.8401171169676722,-0.0001010363848763518,3.21096134185791,-1.6679123640060425,0.01320223044604063,2.113363027572632,4.7663519261176965,0.00010844881035154685,0.3065633773803711,-1.5005295912372034,0.0,-0.014769110828638077,0.4039483666419983,0.00011640324373729527,-0.0012959640007466078,0.9015514850616455,-0.0010135272750630975,0.020553816109895706
932.0,890.0,2.476,0.186,9.2327,-0.1008,-0.0127,-0.1365,-1.8401252231993617,-8.647333743283525e-05,3.2388806343078613,-1.6678284406661987,0.01428533811122179,2.0711169242858887,4.766356001585283,0.0001037602560245432,0.30183812975883484,-1.5005534330951136,0.0,-0.023755468428134918,0.40388399362564087,0.00013097995542921126,0.01492144726216793,0.9014994502067566,-0.004061377141624689,-0.0166833084076643
952.0,905.0,2.6028,0.5306,9.1077,-0.0657,0.0254,-0.1319,-1.8401209316649378,-0.00011330704728607088,3.2411551475524902,-1.6677278280258179,0.013091028667986393,2.1419873237609863,4.7663400051887415,9.946017962647602e-05,0.3027424216270447,-1.5005338827716272,0.0,-0.037289924919605255,0.40391600131988525,0.0006726676365360618,0.01825650781393051,0.9014716148376465,-0.005328112281858921,-0.0039018429815769196
952.0,905.0,2.6028,0.5306,9.1077,-0.0657,0.0254,-0.1319,-1.8401295147337855,-9.706616401672363e-05,3.238161087036133,-1.6676357984542847,0.011621607467532158,2.11100435256958,4.766343648522653,9.425226016901433e-05,0.3085634112358093,-1.5004852453814905,0.0,-0.03154571354389191,0.40392786264419556,0.000903987034689635,0.011535188183188438,0.9014196395874023,-0.007968687452375889,0.013409902341663837
952.0,905.0,2.6028,0.5306,9.1077,-0.0657,0.0254,-0.1319,-1.8401009045042933,4.0964296204037964e-05,3.222907781600952,-1.6676242351531982,0.010422583669424057,2.084463357925415,4.766344002425232,9.069073712453246e-05,0.30840057134628296,-1.5005577246295374,0.0,-0.021777784451842308,0.4039643108844757,0.0007377576548606157,0.032875724136829376,0.9013192653656006,-0.009342565201222897,0.006235698238015175
952.0,905.0,2.6028,0.5306,9.1077,-0.0657,0.0254,-0.1319,-1.840060373345846,0.00010676366946427152,3.222081422805786,-1.6675320863723755,0.009855006821453571,2.09517765045166,4.766380156367578,8.738857286516577e-05,0.29677414894104004,-1.5005171934710901,0.0,-0.032767727971076965,0.4038717746734619,0.0005777633632533252,0.02784508466720581,0.9012312293052673,-0.010267538949847221,-0.0010065853130072355
952.0,905.0,2.6028,0.5306,9.1077,-0.0657,0.0254,-0.1319,-1.8400727711119593,0.0005930500337854028,3.217487335205078,-1.6674563884735107,0.010189850814640522,2.114966869354248,4.766347828298368,8.431842434220016e-05,0.31222155690193176,-1.500521485005514,0.0,-0.030176807194948196,0.4038921594619751,0.0005176922422833741,0.026018165051937103,0.9012075662612915,-0.009876883588731289,0.02533167228102684
952.0,905.0,2.6028,0.5306,9.1077,-0.0657,0.0254,-0.1319,-1.8400451145567835,0.0006608933326788247,3.230851173400879,-1.6674211025238037,0.011478789150714874,2.1202194690704346,4.7663283226783655,0.00012993757263757288,0.30513542890548706,-1.500521485005514,0.0,-0.03125125914812088,0.40396806597709656,0.0003808255132753402,0.04148295521736145,0.9011199474334717,-0.013540633954107761,-0.051869045943021774
952.0,905.0,2.6028,0.5306,9.1077,-0.0657,0.0254,-0.1319,-1.8400331936278285,0.0005203252658247948,3.2112560272216797,-1.6672885417938232,0.01267750933766365,2.088923931121826,4.766316174506702,0.0001197795572807081,0.30113714933395386,-1.5004976431476038,0.0,-0.040446292608976364,0.4039643108844757,0.0003648575802799314,0.04591076821088791,0.9010598659515381,-0.01451860461384058,0.0054743667133152485
952.0,905.0,2.6028,0.5306,9.1077,-0.0657,0.0254,-0.1319,-1.8400489292540492,0.0004276025283616036,3.2172136306762695,-1.667224407196045,0.013238942250609398,2.124861001968384,4.766367937415399,0.00011092152999481186,0.2958681285381317,-1.5005295912372034,0.0,-0.04002111777663231,0.4039483070373535,0.00031347465119324625,0.0485251359641552,0.9009276628494263,-0.015046547167003155,4.934798926115036e-05
952.0,905.0,2.6028,0.5306,9.1077,-0.0657,0.0254,-0.1319,-1.840097566644186,0.00031719895196147263,3.220191240310669,-1.667133092880249,0.01255902647972107,2.138479709625244,4.76638429143981,8.077891106950119e-05,0.30292171239852905,-1.5005171934710901,0.0,-0.044792454689741135,0.4039725661277771,0.00029876959160901606,0.03709045425057411,0.9008888006210327,-0.015808945521712303,-0.04969076067209244
952.0,905.0,2.6028,0.5306,9.1077,-0.0657,0.0254,-0.1319,-1.8400570354857386,0.00026427500415593386,3.1969685554504395,-1.6670606136322021,0.010107340291142464,2.083101987838745,4.766339997738161,7.567869761260226e-05,0.2971724271774292,-1.50049335161318,0.0,-0.03934185951948166,0.4039401710033417,0.0002674805000424385,0.04904977232217789,0.9007642865180969,-0.01596902869641781,0.04416663199663162
952.0,905.0,2.6028,0.5306,9.1077,-0.0657,0.0254,-0.1319,-1.8400570354857386,8.746405364945531e-05,3.1895322799682617,-1.6669800281524658,0.007844047620892525,2.087498664855957,4.766372001707115,7.118903158698231e-05,0.2951285243034363,-1.5004690329181116,0.0,-0.054615747183561325,0.4039880931377411,0.0002289740223204717,0.042700283229351044,0.9006323218345642,-0.01717950962483883,0.0003586830571293831
952.0,905.0,2.6028,0.5306,9.1077,-0.0657,0.0254,-0.1319,-1.8400727711119593,3.8103135011624545e-05,3.214792490005493,-1.6669282913208008,0.003789444686844945,2.0839505195617676,4.7663283226783655,6.597075844183564e-05,0.3068302273750305,-1.5005419890033167,0.0,-0.03906840458512306,0.4039197564125061,0.00019024379434995353,0.04921030253171921,0.9005365967750549,-0.019998567178845406,-0.023800041526556015
952.0,905.0,2.6028,0.5306,9.1077,-0.0657,0.0254,-0.1319,-1.8400689564146937,3.263162579969503e-05,3.196812629699707,-1.6669721603393555,0.0017928641755133867,2.048570394515991,4.766348182200947,6.25328830210492e-05,0.3027331233024597,-1.50049335161318,0.0,-0.034468874335289,0.4039565622806549,0.00020255176059436053,0.05155341699719429,0.9004327654838562,-0.021495560184121132,-0.043185312300920486
952.0,905.0,2.6028,0.5306,9.1077,-0.0657,0.0254,-0.1319,-1.8400970898070277,2.9430291760945693e-05,3.1754984855651855,-1.66695237159729,0.0011056008515879512,2.073702335357666,4.766344002425232,4.6519944589817896e-05,0.303357869386673,-1.500510040913717,0.0,-0.04760254919528961,0.40400007367134094,0.00021217130415607244,0.055736295878887177,0.9002200365066528,-0.02311757020652294,-0.05610814690589905
922.0,917.0,2.278,0.7783,9.3027,-0.0258,-0.0017,-0.1335,-1.840060373345846,2.602603126433678e-05,3.2188291549682617,-1.6669844388961792,0.0006847101030871272,2.0744199752807617,4.766356016486444,4.1815284930635244e-05,0.30354201793670654,-1.5005014578448694,0.0,-0.018489232286810875,0.40398815274238586,0.0002492156927473843,0.044855669140815735,0.9000887870788574,-0.02646748535335064,-0.06244540959596634
922.0,917.0,2.278,0.7783,9.3027,-0.0258,-0.0017,-0.1335,-1.8400527439513148,3.876269971669899e-08,3.193910598754883,-1.666923999786377,0.0005326836253516376,2.0284013748168945,4.7663324950035,3.995871884399094e-05,0.29663553833961487,-1.5004890600787562,0.0,-0.02720135822892189,0.40395206212997437,0.0003067296929657459,0.06069381162524223,0.8998964428901672,-0.03023846261203289,-0.04586843028664589
922.0,917.0,2.278,0.7783,9.3027,-0.0258,-0.0017,-0.1335,-1.84014954189443,9.360735250081229e-14,3.1617865562438965,-1.6669198274612427,0.00029911918682046235,2.0512630939483643,4.76635197454647,3.826004103757441e-05,0.30167412757873535,-1.5005171934710901,0.0,-0.025435395538806915,0.40405625104904175,0.00031229251180775464,0.06605041772127151,0.8997124433517456,-0.03400950878858566,-0.08987860381603241
922.0,917.0,2.278,0.7783,9.3027,-0.0258,-0.0017,-0.1335,-1.8401009045042933,3.0327593670589003e-21,3.1775450706481934,-1.66691255569458,0.00028353941161185503,2.049582004547119,4.766332480102339,3.620770439738408e-05,0.300773024559021,-1.5005419890033167,0.0,-0.024406174197793007,0.404011994600296,0.0006823008880019188,0.07346328347921371,0.8993806838989258,-0.04025845602154732,-0.1298142820596695
922.0,917.0,2.278,0.7783,9.3027,-0.0258,-0.0017,-0.1335,-1.8401090107359828,7.323757681052652e-27,3.179645538330078,-1.6669198274612427,0.00028575261239893734,2.1003122329711914,4.766352235316791,3.480742088868283e-05,0.2951696217060089,-1.50049335161318,2.7082660380983725e-05,-0.028399210423231125,0.40406784415245056,0.0010286470642313361,0.08054722845554352,0.8991652131080627,-0.043387521058321,-0.10411515831947327
922.0,917.0,2.278,0.7783,9.3027,-0.0258,-0.0017,-0.1335,-1.8401333294310511,1.7686013396627993e-32,3.1409921646118164,-1.66691255569458,0.00028697564266622066,2.0641517639160156,4.7663283226783655,3.3511365472804755e-05,0.30803292989730835,-1.5005129019366663,7.538558222108804e-09,-0.03472720831632614,0.40409988164901733,0.0023457303177565336,0.09295141696929932,0.8988973498344421,-0.0442749485373497,-0.12151392549276352
922.0,917.0,2.278,0.7783,9.3027,-0.0258,-0.0017,-0.1335,-1.8400808773436488,4.2709649005933513e-38,3.198126792907715,-1.6669405698776245,0.0003468636132311076,2.078421115875244,4.7663519261176965,3.2308387744706124e-05,0.2847239375114441,-1.5005696455584925,2.0983854844697225e-12,-0.022798489779233932,0.4040071368217468,0.00752865569666028,0.09850160777568817,0.8986374735832214,-0.04439343884587288,-0.07090602815151215
922.0,917.0,2.278,0.7783,9.3027,-0.0258,-0.0017,-0.1335,-1.8400927982726039,-0.0001169501556432806,3.2014873027801514,-1.666896104812622,0.0012464590836316347,2.0733420848846436,4.766348182200947,3.083262708969414e-05,0.3010860085487366,-1.5005090872394007,3.813712243708794e-17,-0.03448055312037468,0.4042312502861023,0.015736347064375877,0.10165901482105255,0.8982783555984497,-0.04200645908713341,-0.10717250406742096
922.0,917.0,2.278,0.7783,9.3027,-0.0258,-0.0017,-0.1335,-1.8400966129698695,-9.803931607166305e-05,3.17737078666687,-1.6669042110443115,0.002479535760357976,2.069626808166504,4.766375995218315,2.981135003210511e-05,0.30591049790382385,-1.5005171934710901,1.061560946650221e-20,-0.03671102970838547,0.4042789041996002,0.011985334567725658,0.09645336866378784,0.8980185389518738,-0.0418938472867012,-0.03177015855908394
922.0,917.0,2.278,0.7783,9.3027,-0.0258,-0.0017,-0.1335,-1.8400846920409144,-4.2134586692554876e-05,3.1256189346313477,-1.6669083833694458,0.003576854011043906,2.0864381790161133,4.766312013357439,8.298099984926921e-09,0.3044999837875366,-1.5005539099322718,2.9548936823171987e-24,-0.032511889934539795,0.40432649850845337,0.006243467330932617,0.10857804864645004,0.8977785110473633,-0.04054965451359749,-0.007046238053590059
922.0,917.0,2.278,0.7783,9.3027,-0.0258,-0.0017,-0.1335,-1.8401299915709437,-3.548817039700225e-05,3.1644163131713867,-1.6668483018875122,0.00380617193877697,2.029299020767212,4.76634785065011,1.5081385034039496e-13,0.3082517981529236,-1.5004809538470667,5.370373196048063e-29,-0.044036563485860825,0.40426212549209595,0.001104014809243381,0.09333829581737518,0.8974108695983887,-0.040647223591804504,-0.03879449516534805
922.0,917.0,2.278,0.7783,9.3027,-0.0258,-0.0017,-0.1335,-1.8401051960387171,-3.1734096410218626e-05,3.2055716514587402,-1.6668121814727783,0.0038520374801009893,2.0877506732940674,4.766324314266004,4.1979594758078466e-17,0.296252965927124,-1.50049335161318,1.494863235502844e-32,-0.037489280104637146,0.40435850620269775,0.0004296709957998246,0.1139213889837265,0.8971710801124573,-0.04044727236032486,-0.018420390784740448
922.0,917.0,2.278,0.7783,9.3027,-0.0258,-0.0017,-0.1335,-1.8400770626463832,-2.8698275855276734e-05,3.209334135055542,-1.6667965650558472,0.0033962572924792767,2.108630657196045,4.766308008670368,1.1685171769991747e-20,0.30564701557159424,-1.5005014578448694,4.161006781339042e-36,-0.02713591977953911,0.40428629517555237,0.0002932198403868824,0.11540555953979492,0.8969430923461914,-0.03924013301730156,-0.07263854891061783
923.0,914.0,2.2666,0.3194,9.2949,-0.0521,0.0102,-0.1547,-1.8400646648802699,-2.5451905457885005e-05,3.198373794555664,-1.6668002605438232,0.001992118312045932,2.036959171295166,4.766375995218315,2.1237225182674974e-25,0.3006601929664612,-1.500510040913717,7.56238742242174e-41,-0.04125267267227173,0.40433433651924133,0.00020162657892797142,0.11037425696849823,0.8966113328933716,-0.03721965104341507,-0.07488273084163666
923.0,914.0,2.2666,0.3194,9.2949,-0.0521,0.0102,-0.1547,-1.8400966129698695,-2.3461418095394038e-05,3.2264461517333984,-1.666764497756958,0.0013798975851386786,2.0881950855255127,4.766380156367578,5.911459602805011e-29,0.31163084506988525,-1.5005138556109827,2.1019476964872256e-44,-0.032174251973629,0.40435439348220825,0.0003374547231942415,0.11115040630102158,0.896371603012085,-0.03690044954419136,-0.04416215419769287
923.0,914.0,2.2666,0.3194,9.2949,-0.0521,0.0102,-0.1547,-1.8401257000365199,-2.1759720766567625e-05,3.216585636138916,-1.6667799949645996,0.0008247277582995594,2.065631866455078,4.766291621118345,1.6454766818114143e-32,0.3013916313648224,-1.5005047957049769,0.0,-0.024318989366292953,0.40439796447753906,0.0021066537592560053,0.12242919206619263,0.8962082266807556,-0.03593688830733299,-0.030038710683584213
923.0,914.0,2.2666,0.3194,9.2949,-0.0521,0.0102,-0.1547,-1.840081354180807,-1.9840907043544576e-05,3.1547861099243164,-1.666764497756958,0.0006193705485202372,2.0656020641326904,4.766356016486444,2.990572261432514e-37,0.32090455293655396,-1.5005129019366663,0.0,-0.03679046779870987,0.4044142961502075,0.003429753240197897,0.13335789740085602,0.8959081768989563,-0.03471215069293976,-0.041927650570869446
923.0,914.0,2.2666,0.3194,9.2949,-0.0521,0.0102,-0.1547,-1.8400770626463832,-1.8610118786455132e-05,3.1356005668640137,-1.6667159795761108,0.0005891567561775446,2.1075050830841064,4.766327693104305,8.324413527321576e-41,0.3006223440170288,-1.5005458037005823,0.0,-0.034198760986328125,0.40441805124282837,0.00417643366381526,0.1404196321964264,0.8957042694091797,-0.03286252170801163,-0.035626620054244995
923.0,914.0,2.2666,0.3194,9.2949,-0.0521,0.0102,-0.1547,-1.8400966129698695,-1.7523094356874935e-05,3.1858510971069336,-1.6667848825454712,0.001319129136390984,2.1246368885040283,4.766335929721155,2.382207389352189e-44,0.30789101123809814,-1.5005129019366663,0.0,-0.03787752240896225,0.4044415056705475,0.005949581973254681,0.14102832973003387,0.8955285549163818,-0.03203612565994263,-0.054477524012327194
923.0,914.0,2.2666,0.3194,9.2949,-0.0521,0.0102,-0.1547,-1.8400851688780726,-1.6257003153441474e-05,3.20005464553833,-1.6666837930679321,0.0021939503494650126,2.101005792617798,4.7663400051887415,0.0,0.3103194236755371,-1.5005047957049769,0.0,-0.04415024816989899,0.40452930331230164,0.00732930563390255,0.1266484260559082,0.8952609896659851,-0.03200902044773102,-0.010815925896167755
923.0,914.0,2.2666,0.3194,9.2949,-0.0521,0.0102,-0.1547,-1.8400608501830042,-1.5421341231558472e-05,3.1872687339782715,-1.6667003631591797,0.0025050363037735224,2.112109422683716,4.7663400051887415,0.0,0.31537336111068726,-1.5005458037005823,0.0,-0.042087946087121964,0.40457698702812195,0.008539129048585892,0.1414017677307129,0.895052969455719,-0.03369460627436638,-0.0047479355707764626
923.0,914.0,2.2666,0.3194,9.2949,-0.0521,0.0102,-0.1547,-1.8401175938048304,-1.4667361938336398e-05,3.1891627311706543,-1.6667001247406006,0.002956259762868285,2.0227155685424805,4.766344002425232,0.0,0.3179049491882324,-1.5005372206317347,0.0,-0.03626931831240654,0.4046333134174347,0.010236143134534359,0.15527117252349854,0.894877016544342,-0.03562409058213234,-0.0291939415037632
923.0,914.0,2.2666,0.3194,9.2949,-0.0521,0.0102,-0.1547,-1.840060373345846,-1.3983704775455408e-05,3.190680980682373,-1.66667640209198,0.0037829321809113026,2.1224541664123535,4.766375995218315,0.0,0.31063172221183777,-1.500561539326803,0.0,-0.05378277227282524,0.4046443700790405,0.01130319107323885,0.144701287150383,0.8946571946144104,-0.0377010777592659,-0.03425869345664978
923.0,914.0,2.2666,0.3194,9.2949,-0.0521,0.0102,-0.1547,-1.8401009045042933,-1.3165490599931218e-05,3.2311441898345947,-1.666583776473999,0.0036787332501262426,2.0781500339508057,4.766372001707115,0.0,0.30945584177970886,-1.500573460255758,0.0,-0.05243796110153198,0.4047720432281494,0.013034643605351448,0.16121184825897217,0.8943173289299011,-0.04235706850886345,0.01790994219481945
923.0,914.0,2.2666,0.3194,9.2949,-0.0521,0.0102,-0.1547,-1.8400889835753382,-5.024510301154805e-07,3.17087459564209,-1.666592001914978,0.004516408778727055,2.1018576622009277,4.766359998821773,0.0,0.3258843421936035,-1.5005577246295374,0.0,-0.06853713095188141,0.4048759341239929,0.014742891304194927,0.16378271579742432,0.8940777778625488,-0.044737763702869415,-0.022156760096549988
923.0,914.0,2.2666,0.3194,9.2949,-0.0521,0.0102,-0.1547,-1.840093275109762,-1.2133601415276196e-12,3.2209534645080566,-1.6666042804718018,0.005942449904978275,2.1008927822113037,4.766363847046652,0.0,0.3241666853427887,-1.5005491415606897,0.0,-0.06763539463281631,0.40496301651000977,0.014374839141964912,0.1624658852815628,0.893818199634552,-0.04652943089604378,-0.0044973017647862434
923.0,914.0,2.2666,0.3194,9.2949,-0.0521,0.0102,-0.1547,-1.8401133022704066,-3.931132563423076e-20,3.23433256149292,-1.6665406227111816,0.00837420392781496,2.152493953704834,4.766375995218315,4.3582221165294754e-10,0.3231462836265564,-1.5005577246295374,0.0,-0.07026669383049011,0.4050385355949402,0.012546001002192497,0.16882196068763733,0.8934178948402405,-0.04765176400542259,0.02182118222117424
906.0,931.0,2.4724,0.4026,9.1579,-0.0696,0.0261,-0.1562,-1.8400446377196253,-9.493221775056445e-26,3.1814839839935303,-1.666472315788269,0.009293005801737309,2.084536075592041,4.766367922514238,1.213127363321187e-13,0.3316882848739624,-1.5005610624896448,0.0,-0.06540898233652115,0.40507063269615173,0.010747425258159637,0.17709563672542572,0.8931784629821777,-0.04655002802610397,0.087516650557518
906.0,931.0,2.4724,0.4026,9.1579,-0.0696,0.0261,-0.1562,-1.840065141717428,-2.2925015100216718e-31,3.190124988555908,-1.6664080619812012,0.010898452252149582,2.0959243774414062,4.766416235804119,3.376784856246444e-17,0.33273646235466003,-1.5005171934710901,0.0,-0.07420321553945541,0.40519407391548157,0.008019494824111462,0.17059102654457092,0.8928988575935364,-0.046833209693431854,0.10191020369529724
906.0,931.0,2.4724,0.4026,9.1579,-0.0696,0.0261,-0.1562,-1.8400970898070277,-7.42741295303951e-39,3.256399631500244,-1.666360855102539,0.012538004666566849,2.079956531524658,4.7663283226783655,6.13713993319557e-22,0.3170695900917053,-1.500573460255758,0.0,-0.0754825621843338,0.40517768263816833,0.0043052323162555695,0.17557713389396667,0.8924993276596069,-0.04839946702122688,0.0388900488615036
906.0,931.0,2.4724,0.4026,9.1579,-0.0696,0.0261,-0.1562,-1.8400608501830042,-1.8216880036222622e-44,3.2566914558410645,-1.6662360429763794,0.012231871485710144,2.105412483215332,4.766335929721155,1.7082954233288863e-25,0.33068063855171204,-1.5005696455584925,0.0,-0.06920622289180756,0.4052458107471466,0.0019294415833428502,0.17334216833114624,0.8922036290168762,-0.04979262501001358,0.05902321636676788
906.0,931.0,2.4724,0.4026,9.1579,-0.0696,0.0261,-0.1562,-1.8400451145567835,0.0,3.2449746131896973,-1.6661522388458252,0.012051766738295555,2.135580539703369,4.7663400051887415,4.755102676172303e-29,0.3277161121368408,-1.5005577246295374,0.0,-0.07211688160896301,0.40523794293403625,0.0009712752653285861,0.16280481219291687,0.8918758034706116,-0.051120541989803314,0.050023362040519714
906.0,931.0,2.4724,0.4026,9.1579,-0.0696,0.0261,-0.1562,-1.8401457271971644,0.0,3.262259006500244,-1.6660720109939575,0.012238322757184505,2.1023762226104736,4.766335929721155,8.642162835558455e-34,0.3311336636543274,-1.5005491415606897,0.0,-0.0670357421040535,0.4052257239818573,0.0006581504130735993,0.1572268158197403,0.8914960026741028,-0.050644468516111374,0.08556237816810608
906.0,931.0,2.4724,0.4026,9.1579,-0.0696,0.0261,-0.1562,-1.8401171169676722,0.0,3.2442550659179688,-1.6659594774246216,0.012425427325069904,2.1661646366119385,4.766363847046652,2.4055776846208126e-37,0.32310938835144043,-1.5005534330951136,0.0,-0.06854936480522156,0.40521761775016785,0.00042842712718993425,0.16867679357528687,0.8911200761795044,-0.04878091439604759,0.07026287168264389
906.0,931.0,2.4724,0.4026,9.1579,-0.0696,0.0261,-0.1562,-1.8400284252562464,5.271053305477835e-05,3.25571608543396,-1.665884017944336,0.012373673729598522,2.0859382152557373,4.76634785065011,6.695964581929706e-41,0.33385851979255676,-1.5005372206317347,0.0,-0.07954535633325577,0.40523362159729004,0.0010763317113742232,0.16238528490066528,0.8908364772796631,-0.04582097381353378,0.09861839562654495
906.0,931.0,2.4724,0.4026,9.1579,-0.0696,0.0261,-0.1562,-1.84000887493276,0.00042698378092609346,3.2193782329559326,-1.6658568382263184,0.013211277313530445,2.1265769004821777,4.76634785065011,1.401298464324817e-45,0.312960684299469,-1.5005534330951136,0.0,-0.08837337791919708,0.40524137020111084,0.003766553243622184,0.1860944926738739,0.8904887437820435,-0.041106902062892914,0.07293455302715302
906.0,931.0,2.4724,0.4026,9.1579,-0.0696,0.0261,-0.1562,-1.839996954003805,0.0004041195788886398,3.213665008544922,-1.665739893913269,0.013910938054323196,2.132596015930176,4.766384243011036,0.0,0.32290884852409363,-1.5005257765399378,0.0,-0.06645362079143524,0.40535709261894226,0.007824013009667397,0.1719190627336502,0.8902494311332703,-0.039201442152261734,0.09643200039863586
906.0,931.0,2.4724,0.4026,9.1579,-0.0696,0.0261,-0.1562,-1.8400575123228968,0.00034740433329716325,3.265533924102783,-1.6656440496444702,0.014538773335516453,2.1216888427734375,4.76635970452384,0.0,0.32687908411026,-1.5005534330951136,0.0,-0.07643217593431473,0.40541672706604004,0.014110899530351162,0.18794502317905426,0.8900217413902283,-0.0389980785548687,0.14819678664207458
906.0,931.0,2.4724,0.4026,9.1579,-0.0696,0.0261,-0.1562,-1.840025087396139,0.0003034719848074019,3.2753219604492188,-1.665563702583313,0.015925634652376175,2.136533260345459,4.766384243011036,0.0,0.33217930793762207,-1.5005291144000452,0.0,-0.09255041182041168,0.40553271770477295,0.02343752421438694,0.18631607294082642,0.8897855281829834,-0.03884629160165787,0.045954033732414246
906.0,931.0,2.4724,0.4026,9.1579,-0.0696,0.0261,-0.1562,-1.840081354180807,0.0002596882404759526,3.1786341667175293,-1.665395975112915,0.01738837920129299,2.1062538623809814,4.766380163818159,0.0,0.3286256194114685,-1.5005372206317347,0.0,-0.08091751486063004,0.40582770109176636,0.04439181089401245,0.22311528027057648,0.8895142078399658,-0.041536688804626465,0.09764961898326874
957.0,909.0,2.3462,1.8144,9.4409,0.0168,0.0487,-0.0678,-1.8400045833983363,0.00021508985082618892,3.2424824237823486,-1.6653399467468262,0.01949424296617508,2.124016523361206,4.766392304539242,0.0,0.333836168050766,-1.5005453268634241,0.0,-0.08286448568105698,0.40620914101600647,0.07633600383996964,0.22740542888641357,0.8892542719841003,-0.045774195343256,0.11166343837976456
957.0,909.0,2.3462,1.8144,9.4409,0.0168,0.0487,-0.0678,-1.8400732479491175,0.0001868010003818199,3.2854485511779785,-1.665268898010254,0.022408906370401382,2.1413936614990234,4.7663400051887415,0.0,0.33479636907577515,-1.50059682527651,-7.745098264422268e-05,-0.08337514102458954,0.40684664249420166,0.1336371749639511,0.24969345331192017,0.8889179229736328,-0.04730089753866196,0.14931371808052063
957.0,909.0,2.3462,1.8144,9.4409,0.0168,0.0487,-0.0678,-1.8400575123228968,0.00016699457773938775,3.2152905464172363,-1.6650079488754272,0.02832077443599701,2.1334903240203857,4.766384243011036,0.0,0.3339585065841675,-1.5006092230426233,-7.320469740079716e-05,-0.07270567119121552,0.4083717465400696,0.23437698185443878,0.2824092209339142,0.8885303735733032,-0.04839728772640228,0.10969707369804382
957.0,909.0,2.3462,1.8144,9.4409,0.0168,0.0487,-0.0678,-1.840053220788473,0.00015469307254534215,3.259150266647339,-1.6647837162017822,0.03233426809310913,2.1544551849365234,4.766331850528278,0.0,0.33239924907684326,-1.5005772749530237,-6.979831960052252e-05,-0.08259118348360062,0.4099012613296509,0.26634299755096436,0.29524487257003784,0.8882269859313965,-0.049733057618141174,0.08179773390293121
957.0,909.0,2.3462,1.8144,9.4409,0.0168,0.0487,-0.0678,-1.840025087396139,0.00014407980779651552,3.2619552612304688,-1.6645599603652954,0.03795573115348816,2.1525676250457764,4.766331828176536,0.0,0.338735967874527,-1.5005815664874476,-6.669484719168395e-05,-0.07169114053249359,0.4117605686187744,0.3121927082538605,0.31819847226142883,0.8879392147064209,-0.04997500032186508,0.1040831059217453
957.0,909.0,2.3462,1.8144,9.4409,0.0168,0.0487,-0.0678,-1.840053220788473,0.0001320041628787294,3.2464439868927,-1.6642476320266724,0.04519478604197502,2.188155174255371,4.7663283226783655,0.0,0.3326544463634491,-1.5005529562579554,-6.296215724432841e-05,-0.07760344445705414,0.41443556547164917,0.354191392660141,0.33014214038848877,0.8875115513801575,-0.05535964295268059,0.09211069345474243
957.0,909.0,2.3462,1.8144,9.4409,0.0168,0.0487,-0.0678,-1.8400689564146937,4.517371780821122e-05,3.263673782348633,-1.6640241146087646,0.049406182020902634,2.1471610069274902,4.766316163330831,0.0,0.3265998959541321,-1.5005815664874476,-6.0425823903642595e-05,-0.06607005000114441,0.4168207347393036,0.39870136976242065,0.3352015018463135,0.8871639966964722,-0.061174292117357254,0.07462616264820099
957.0,909.0,2.3462,1.8144,9.4409,0.0168,0.0487,-0.0678,-1.8400575123228968,4.190161416772753e-05,3.2340378761291504,-1.6636756658554077,0.05452095717191696,2.180044651031494,4.766335933446445,0.0,0.3359561562538147,-1.5005577246295374,-5.808589776279405e-05,-0.06234869360923767,0.4193519055843353,0.4376164674758911,0.3322224020957947,0.886779248714447,-0.06616631150245667,0.054991330951452255
957.0,909.0,2.3462,1.8144,9.4409,0.0168,0.0487,-0.0678,-1.840081354180807,1.916616747621447e-05,3.249798536300659,-1.6632483005523682,0.06344917416572571,2.2115652561187744,4.766324325441875,2.345760731259361e-05,0.3291991353034973,-1.5005410353290003,-4.419965625857003e-05,-0.07227839529514313,0.42315083742141724,0.5019510388374329,0.3514336347579956,0.8861986994743347,-0.06976116448640823,0.05298137664794922
957.0,909.0,2.3462,1.8144,9.4409,0.0168,0.0487,-0.0678,-1.8401009045042933,7.209889076875697e-07,3.2768497467041016,-1.6628152132034302,0.07210329174995422,2.234485626220703,4.766308008670368,2.2583828467759304e-05,0.3192518949508667,-1.5005453268634241,-4.261794674675912e-05,-0.06454375386238098,0.42631977796554565,0.5341719388961792,0.3424375355243683,0.8857987523078918,-0.06910257786512375,0.07134900987148285
957.0,909.0,2.3462,1.8144,9.4409,0.0168,0.0487,-0.0678,-1.8400608501830042,1.7411035720810153e-12,3.265409469604492,-1.6623915433883667,0.08035511523485184,2.2327232360839844,4.766359998821773,2.1764619305031374e-05,0.34153345227241516,-1.5005572477923792,-4.1156297811539844e-05,-0.06642965227365494,0.4297068119049072,0.5862663388252258,0.3668353259563446,0.8853541612625122,-0.06709500402212143,0.11678598076105118
957.0,909.0,2.3462,1.8144,9.4409,0.0168,0.0487,-0.0678,-1.8400451145567835,5.640953663661397e-20,3.2356739044189453,-1.6616995334625244,0.08752617985010147,2.1846225261688232,4.766324325441875,2.0760528059327044e-05,0.32697880268096924,-1.5005491415606897,-2.5981064482039073e-06,-0.061138395220041275,0.4346771538257599,0.6295110583305359,0.3432493209838867,0.8847734928131104,-0.06540828198194504,0.0734863132238388
957.0,909.0,2.3462,1.8144,9.4409,0.0168,0.0487,-0.0678,-1.8400970898070277,1.3622238698416586e-25,3.2890970706939697,-1.6611474752426147,0.09083175659179688,2.2792105674743652,4.766380156367578,2.00662252609618e-05,0.32275426387786865,-1.5005529562579554,-7.231924503692255e-10,-0.06226209178566933,0.43876513838768005,0.6842922568321228,0.35926222801208496,0.8843372464179993,-0.06866249442100525,0.09603194892406464
957.0,909.0,2.3462,1.8144,9.4409,0.0168,0.0487,-0.0678,-1.8400289020934046,3.289610126228144e-31,3.2159833908081055,-1.660526990890503,0.09231400489807129,2.2546308040618896,4.766363847046652,4.288317612122228e-08,0.3287661075592041,-1.5005815664874476,-2.0130327526429737e-13,-0.057214945554733276,0.4429919421672821,0.7320671677589417,0.3885759711265564,0.8839208483695984,-0.07204335182905197,0.13907773792743683
942.0,890.0,2.1386,0.5109,9.5366,-0.1055,0.1492,0.6174,-1.840053220788473,7.944022427182064e-37,3.2570979595184326,-1.6600315570831299,0.09349901974201202,2.188891887664795,4.76633961403326,1.1936686881985903e-11,0.3274937868118286,-1.5005653540240687,-2.0309391402406618e-05,-0.07189945876598358,0.4475487470626831,0.7719647288322449,0.33714860677719116,0.8834764957427979,-0.07517706602811813,0.016819845885038376
942.0,890.0,2.1386,0.5109,9.5366,-0.1055,0.1492,0.6174,-1.8400126896300257,2.5223372357846707e-44,3.263211727142334,-1.6592518091201782,0.10071924328804016,2.250006675720215,4.766388318478622,2.169434019397515e-16,0.33425626158714294,-1.500589672719137,-1.863101169874426e-05,-0.07281960546970367,0.4541398882865906,0.8389863967895508,0.3613049387931824,0.8828601837158203,-0.07598509639501572,0.08544232696294785
942.0,890.0,2.1386,0.5109,9.5366,-0.1055,0.1492,0.6174,-1.840037008325094,0.0,3.256242036819458,-1.6585756540298462,0.1076521947979927,2.2000865936279297,4.7663596896226785,6.038700230033253e-20,0.34040719270706177,-1.5006416479693812,-3.500538514344953e-05,-0.07560691237449646,0.45924755930900574,0.8771737217903137,0.36828598380088806,0.8823997378349304,-0.07414784282445908,0.10539025813341141
942.0,890.0,2.1386,0.5109,9.5366,-0.1055,0.1492,0.6174,-1.8399769268431605,0.0,3.2089600563049316,-1.6578994989395142,0.11358056217432022,2.266514778137207,4.766355643957414,1.680894403880983e-23,0.33287501335144043,-1.5005610624896448,-3.314505374873988e-05,-0.07215534895658493,0.4646308124065399,0.9213730692863464,0.39169740676879883,0.8819599151611328,-0.07469797879457474,0.09817011654376984
942.0,890.0,2.1386,0.5109,9.5366,-0.1055,0.1492,0.6174,-1.840037008325094,0.0,3.28019380569458,-1.6568949222564697,0.12631724774837494,2.27223801612854,4.766327708005466,3.054942818596088e-28,0.3375377058982849,-1.5005648771869105,-3.0871240596752614e-05,-0.07082260400056839,0.47210100293159485,0.9563140273094177,0.35851871967315674,0.881319522857666,-0.08063401281833649,0.09939806163311005
942.0,890.0,2.1386,0.5109,9.5366,-0.1055,0.1492,0.6174,-1.840041299859518,7.745299080852419e-05,3.295654773712158,-1.6561352014541626,0.13098330795764923,2.267612934112549,4.766335929721155,8.50354376626369e-32,0.32890111207962036,-1.5005815664874476,-2.9360520784393884e-05,-0.06572658568620682,0.47794309258461,0.9759495854377747,0.37802428007125854,0.880790114402771,-0.0852605551481247,0.051596544682979584
942.0,890.0,2.1386,0.5109,9.5366,-0.1055,0.1492,0.6174,-1.840069433251852,4.023561483990079e-09,3.2667531967163086,-1.655320167541504,0.13179631531238556,2.2743730545043945,4.766348182200947,2.366992758765658e-35,0.3285617232322693,-1.5006173292743128,-2.7990810849587433e-05,-0.07527729123830795,0.483824759721756,0.9849746227264404,0.3552352488040924,0.8802543878555298,-0.08934377878904343,0.006575985811650753
942.0,890.0,2.1386,0.5109,9.5366,-0.1055,0.1492,0.6174,-1.840037008325094,1.3035829117309802e-16,3.241095781326294,-1.654211163520813,0.13252711296081543,2.1981444358825684,4.7663400051887415,4.301888194584686e-40,0.3262321352958679,-1.5005691687213343,-2.6351674023317173e-05,-0.07499907910823822,0.49173304438591003,1.004592776298523,0.36089685559272766,0.8795409798622131,-0.09053897112607956,-0.004954283591359854
942.0,890.0,2.1386,0.5109,9.5366,-0.1055,0.1492,0.6174,-1.840053220788473,3.1479992982936576e-22,3.2581775188446045,-1.6534568071365356,0.13324032723903656,2.317619800567627,4.7663039332027815,1.1911036946760945e-43,0.31304556131362915,-1.5005815664874476,-2.5243027266697027e-05,-0.06296519935131073,0.49774089455604553,1.0000922679901123,0.3230569362640381,0.878977358341217,-0.09434830397367477,-0.001953971805050969
942.0,890.0,2.1386,0.5109,9.5366,-0.1055,0.1492,0.6174,-1.840069433251852,7.602048491337283e-28,3.2669167518615723,-1.6526607275009155,0.135234534740448,2.2942581176757812,4.766312013357439,0.0,0.3257432281970978,-1.5005977789508265,-1.212559436680749e-05,-0.06522730737924576,0.5037330985069275,0.9952276349067688,0.2937406003475189,0.8784170746803284,-0.09619951993227005,-0.007001703605055809
942.0,890.0,2.1386,0.5109,9.5366,-0.1055,0.1492,0.6174,-1.840053220788473,2.4629671659411196e-35,3.2288126945495605,-1.65146803855896,0.14244844019412994,2.2758054733276367,4.766344002425232,-1.4427848327613901e-05,0.33208927512168884,-1.5005691687213343,-1.1493258170958143e-05,-0.06751612573862076,0.5116762518882751,0.989724338054657,0.2855381369590759,0.8776721954345703,-0.09392020106315613,-0.03377572074532509
942.0,890.0,2.1386,0.5109,9.5366,-0.1055,0.1492,0.6174,-1.8400818310179652,5.46624833077658e-05,3.2627508640289307,-1.6506085395812988,0.14566776156425476,2.2893221378326416,4.766348159849205,-1.535185037937481e-05,0.31676483154296875,-1.5005372206317347,-1.106918807636248e-05,-0.06941501796245575,0.5175039768218994,0.9791495203971863,0.2651393413543701,0.8770958781242371,-0.09066202491521835,-0.0024340637028217316
942.0,890.0,2.1386,0.5109,9.5366,-0.1055,0.1492,0.6174,-1.8400613270201625,4.5686472731176764e-05,3.3025588989257812,-1.6497046947479248,0.14719471335411072,2.287811279296875,4.766308008670368,-2.8960146664758213e-05,0.32389938831329346,-1.5005372206317347,-1.8133229673367168e-07,-0.051199398934841156,0.5233854055404663,0.972504198551178,0.21687215566635132,0.8765512704849243,-0.09383060038089752,-0.005040687043219805
894.0,833.0,2.3551,-0.7304,9.4271,-0.0968,0.1617,0.7333,-1.8400408230223597,3.048196695054628e-10,3.2054290771484375,-1.6485172510147095,0.1477973610162735,2.24769926071167,4.766336559295215,-2.742939250310883e-05,0.3219164311885834,-1.5005853811847132,-3.295625057575524e-12,-0.04486386477947235,0.531044065952301,0.937603771686554,0.21917739510536194,0.8758874535560608,-0.09343887865543365,-0.03723528981208801
894.0,833.0,2.3551,-0.7304,9.4271,-0.0968,0.1617,0.7333,-1.8401051960387171,7.361035537181866e-16,3.303307056427002,-1.6476291418075562,0.14625900983810425,2.263357162475586,4.766312005906858,-0.00018381014524493366,0.3005494177341461,-1.5005210081683558,-9.17349387370616e-16,-0.04848773777484894,0.5365909934043884,0.9253080487251282,0.21830908954143524,0.8752862811088562,-0.09383957087993622,-0.05080951750278473
894.0,833.0,2.3551,-0.7304,9.4271,-0.0968,0.1617,0.7333,-1.840053220788473,1.7776032603891787e-21,3.2490200996398926,-1.6467174291610718,0.1472344696521759,2.274792432785034,4.76630016693429,-0.0003189966082572937,0.3187660276889801,-1.5005653540240687,-2.55347630716005e-19,-0.04907387122511864,0.5419897437095642,0.8935960531234741,0.21808302402496338,0.874734103679657,-0.09357520192861557,-0.06876149773597717
894.0,833.0,2.3551,-0.7304,9.4271,-0.0968,0.1617,0.7333,-1.840065141717428,4.2927033271147656e-27,3.2531790733337402,-1.6458299160003662,0.14725516736507416,2.272676944732666,4.766324317991295,-0.00027169115492142737,0.3086523711681366,-1.5005133787738245,-7.107694816203941e-23,-0.03909424692392349,0.5472764372825623,0.8713318705558777,0.20281168818473816,0.8742222189903259,-0.09523335099220276,-0.03629790619015694
894.0,833.0,2.3551,-0.7304,9.4271,-0.0968,0.1617,0.7333,-1.8400212726988734,1.3907813198118412e-34,3.2345495223999023,-1.64461350440979,0.14851678907871246,2.2867393493652344,4.76630016693429,-0.00022616326168645173,0.2933793067932129,-1.5005696455584925,-1.291788813841567e-27,-0.02634117379784584,0.5538498163223267,0.8258256316184998,0.20172882080078125,0.873432993888855,-0.1024554967880249,-0.07977666705846786
894.0,833.0,2.3551,-0.7304,9.4271,-0.0968,0.1617,0.7333,-1.840053220788473,3.3585761073551486e-40,3.277104377746582,-1.6436861753463745,0.15404795110225677,2.2855215072631836,4.766308317869463,-0.00021731517335865647,0.3083299696445465,-1.5005491415606897,-3.5957412988263504e-31,-0.02523016929626465,0.5587078332901001,0.7760841250419617,0.15950897336006165,0.8727116584777832,-0.10393644124269485,-0.09157570451498032
894.0,833.0,2.3551,-0.7304,9.4271,-0.0968,0.1617,0.7333,-1.8400289020934046,1.401298464324817e-45,3.2289109230041504,-1.6428059339523315,0.16011641919612885,2.230022668838501,4.766300144582548,-0.0002331506257178262,0.30184096097946167,-1.500577751790182,-1.0008878663602094e-34,-0.031328216195106506,0.563231885433197,0.7504772543907166,0.16428138315677643,0.8721358180046082,-0.10306383669376373,-0.10061123967170715
894.0,833.0,2.3551,-0.7304,9.4271,-0.0968,0.1617,0.7333,-1.8400770626463832,0.0,3.286479949951172,-1.6414902210235596,0.16738446056842804,2.297107696533203,4.766304611205616,-0.00033450828050263226,0.293783575296402,-1.5005372206317347,-1.819064772897046e-39,-0.016561083495616913,0.5689554810523987,0.6952053904533386,0.15935543179512024,0.8713072538375854,-0.09858494251966476,-0.1296079456806183
894.0,833.0,2.3551,-0.7304,9.4271,-0.0968,0.1617,0.7333,-1.8400570354857386,0.0,3.2243595123291016,-1.6404905319213867,0.16788814961910248,2.3009912967681885,4.766232191562214,-0.0009023433667607605,0.2889982759952545,-1.500561539326803,-5.05868745621259e-43,-0.017294973134994507,0.5728926062583923,0.646696925163269,0.14161401987075806,0.8706787824630737,-0.09872071444988251,-0.16057050228118896
894.0,833.0,2.3551,-0.7304,9.4271,-0.0968,0.1617,0.7333,-1.8401133022704066,-9.227244299836457e-05,3.260314464569092,-1.6394987106323242,0.16401374340057373,2.272968292236328,4.766280162125387,-0.0010125907137989998,0.2905663251876831,-1.5005129019366663,-0.0,-0.02055506780743599,0.57667076587677,0.6192591190338135,0.137873575091362,0.8700578808784485,-0.09897857159376144,-0.13061924278736115
894.0,833.0,2.3551,-0.7304,9.4271,-0.0968,0.1617,0.7333,-1.8400846920409144,-0.0005544077139347792,3.248520851135254,-1.6382272243499756,0.15982675552368164,2.267216205596924,4.766244399338522,-0.0011387016857042909,0.30468469858169556,-1.5005577246295374,-0.0,-0.03346971422433853,0.5813234448432922,0.5648956894874573,0.13346877694129944,0.8692936301231384,-0.10186100751161575,-0.12577778100967407
894.0,833.0,2.3551,-0.7304,9.4271,-0.0968,0.1617,0.7333,-1.8400689564146937,-0.0003532112168613821,3.269075632095337,-1.6372466087341309,0.16327106952667236,2.3312885761260986,4.766240331321516,-0.0008230353705585003,0.289037823677063,-1.5005458037005823,-0.0,-0.020406393334269524,0.5845066905021667,0.5211967825889587,0.10890044271945953,0.8687335252761841,-0.10859944671392441,-0.16576707363128662
894.0,833.0,2.3551,-0.7304,9.4271,-0.0968,0.1617,0.7333,-1.8400927982726039,-0.00028587738052010536,3.2329304218292236,-1.6362991333007812,0.1661674976348877,2.2768054008483887,4.766240308969774,-0.0006689445581287146,0.28955143690109253,-1.500521485005514,-0.0,-0.017725305631756783,0.5874539017677307,0.48053598403930664,0.12064562737941742,0.8680607080459595,-0.11787277460098267,-0.1929766833782196
894.0,833.0,2.3551,-0.7304,9.4271,-0.0968,0.1617,0.7333,-1.8400966129698695,-0.0002735351154115051,3.2146799564361572,-1.6349796056747437,0.16508623957633972,2.275519847869873,4.766244406789102,-0.0009581460035406053,0.2956267297267914,-1.500549618397848,-0.0,-0.030119555070996284,0.5910678505897522,0.42042630910873413,0.0920092910528183,0.8671680092811584,-0.1182633563876152,-0.18982058763504028
583.0,471.0,2.2499,0.0048,9.7011,-0.1304,0.1895,0.0883,-1.840137620965475,-0.0002770230930764228,3.2434892654418945,-1.6339675188064575,0.16251149773597717,2.2944953441619873,4.766236300557413,-0.0005976485554128885,0.285585880279541,-1.5005338827716272,-0.0,-0.018280675634741783,0.5932800769805908,0.3534184694290161,0.06278877705335617,0.8664308786392212,-0.11411324888467789,-0.17397640645503998
583.0,471.0,2.2499,0.0048,9.7011,-0.1304,0.1895,0.0883,-1.8400846920409144,-9.059332660399377e-05,3.2483325004577637,-1.63299560546875,0.16767987608909607,2.327643632888794,4.7662363713379285,-0.0004271368379704654,0.2923457622528076,-1.5005376974688929,-0.0,-0.011336930096149445,0.5952771306037903,0.32757481932640076,0.04489690810441971,0.8657472133636475,-0.11063075065612793,-0.1547936052083969
583.0,471.0,2.2499,0.0048,9.7011,-0.1304,0.1895,0.0883,-1.8401009045042933,-7.864281360525638e-05,3.2322096824645996,-1.6319432258605957,0.17209044098854065,2.2944023609161377,4.766272741347112,-0.0004927301197312772,0.28131937980651855,-1.5004809538470667,0.00014523575373459607,-0.022511735558509827,0.5970744490623474,0.27474191784858704,0.024695493280887604,0.8651103973388672,-0.10699068009853363,-0.1773824542760849
583.0,471.0,2.2499,0.0048,9.7011,-0.1304,0.1895,0.0883,-1.840076585809225,-0.00013252862845547497,3.2291312217712402,-1.6306045055389404,0.1820082664489746,2.287719249725342,4.766228376864948,-0.001333163701929152,0.27771949768066406,-1.5004494825946253,0.00019899781909771264,-0.010003413073718548,0.5988394618034363,0.1743907779455185,-0.023941772058606148,0.8642540574073792,-0.10413815826177597,-0.18633179366588593
583.0,471.0,2.2499,0.0048,9.7011,-0.1304,0.1895,0.0883,-1.840132852593893,-0.001860087038949132,3.150068998336792,-1.6294519901275635,0.17907722294330597,2.2873427867889404,4.766196715622701,-0.0020779070910066366,0.28295615315437317,-1.500481430684225,0.0006482298485934734,-0.00916280411183834,0.5995453000068665,0.09566497057676315,-0.048732783645391464,0.863694429397583,-0.1095750704407692,-0.20754370093345642
583.0,471.0,2.2499,0.0048,9.7011,-0.1304,0.1895,0.0883,-1.8401934109129847,-0.005074501037597656,3.201815128326416,-1.6284289360046387,0.1762000024318695,2.2973361015319824,4.7661762973065755,-0.0019211518811061978,0.2764213979244232,-1.5004695097552698,0.0008613636600784957,-0.011276747100055218,0.5998322367668152,0.0467253103852272,-0.0632031038403511,0.862956702709198,-0.11675228178501129,-0.2841287851333618
583.0,471.0,2.2499,0.0048,9.7011,-0.1304,0.1895,0.0883,-1.840189119378561,-0.007677420973777771,3.1917760372161865,-1.6270456314086914,0.17700909078121185,2.2783257961273193,4.766160323261776,-0.0009473569807596505,0.26805973052978516,-1.5004494825946253,0.0006893178215250373,-0.005703208968043327,0.6000316143035889,0.00615607388317585,-0.080604687333107,0.8620362877845764,-0.12436998635530472,-0.3209971785545349
583.0,471.0,2.2499,0.0048,9.7011,-0.1304,0.1895,0.0883,-1.840224405328268,-0.006684308405965567,3.1669671535491943,-1.6259253025054932,0.1791846603155136,2.3120317459106445,4.7661807900066755,-0.0006662476807832718,0.2778524160385132,-1.5004614035235804,0.0005189572111703455,0.008528444916009903,0.6000192761421204,-0.007927436381578445,-0.09753302484750748,0.8613080978393555,-0.12727445363998413,-0.3003363311290741
583.0,471.0,2.2499,0.0048,9.7011,-0.1304,0.1895,0.0883,-1.8403049908080042,-0.005172776523977518,3.114307403564453,-1.6247409582138062,0.18229006230831146,2.3304076194763184,4.766116025834837,-0.0006654790486209095,0.2738797664642334,-1.5004857222186487,0.00041606114245951176,0.01076066866517067,0.5999553799629211,-0.00943888071924448,-0.08672976493835449,0.860507071018219,-0.12679924070835114,-0.26753026247024536
583.0,471.0,2.2499,0.0048,9.7011,-0.1304,0.1895,0.0883,-1.8403288326659144,-0.0035740025341510773,3.1979212760925293,-1.6232777833938599,0.1808994710445404,2.2636075019836426,4.76617672571496,-0.0008618857245892286,0.266845703125,-1.5004733244525355,0.00036376205389387906,0.006714513525366783,0.5999919772148132,-0.007247767876833677,-0.10082893818616867,0.8594861030578613,-0.1216442734003067,-0.29576027393341064
583.0,471.0,2.2499,0.0048,9.7011,-0.1304,0.1895,0.0883,-1.8403774700560511,-0.0029611962381750345,3.1599912643432617,-1.6221692562103271,0.18588735163211823,2.286856174468994,4.766209027707138,-0.0006384419393725693,0.2650340497493744,-1.5004656950580042,0.0002937261597253382,0.016816549003124237,0.5999033451080322,-0.004299372900277376,-0.09466984868049622,0.8587296605110168,-0.11940867453813553,-0.2891332805156708
