ramyac6/ROB537/final_project/csv/test/good/good_107.csv
tof_0,tof_1,accelx,accely,accelz,gyrox,gyroy,gyroz,shoulder_lift_joint_position,shoulder_lift_joint_velocity,shoulder_lift_joint_effort,elbow_joint_position,elbow_joint_velocity,elbow_joint_effort,wrist_1_joint_position,wrist_1_joint_velocity,wrist_1_joint_effort,wrist_2_joint_position,wrist_2_joint_velocity,wrist_2_joint_effort,wrist_3_joint_position,wrist_3_joint_velocity,wrist_3_joint_effort,shoulder_pan_joint_position,shoulder_pan_joint_velocity,shoulder_pan_joint_effort
245.0,473.0,4.3968,1.9478,8.1248,-0.0341,0.0192,-0.1173,-1.6925307712950648,0.0,2.6981678009033203,-1.518273949623108,-0.0,2.2327637672424316,4.253453894252441,0.0,0.2849648892879486,-1.842886749898092,0.0,0.010302898474037647,0.8461606502532959,0.0,0.0038482816889882088,0.7170212268829346,0.0,0.008830969221889973
245.0,473.0,4.3968,1.9478,8.1248,-0.0341,0.0192,-0.1173,-1.6924706898131312,0.0,2.7468862533569336,-1.5182420015335083,-0.0,2.1978182792663574,4.253434343928955,0.0,0.29141220450401306,-1.8429105917560022,0.0,0.029054991900920868,0.8461520075798035,0.0,0.0010417071171104908,0.7169525623321533,0.0,0.028168514370918274
245.0,473.0,4.3968,1.9478,8.1248,-0.0341,0.0192,-0.1173,-1.6925026379027308,0.0,2.7067949771881104,-1.5181773900985718,-0.0,2.1443469524383545,4.253406210536621,0.0,0.3022419810295105,-1.8428462187396448,0.0,0.010426551103591919,0.8461807370185852,0.0,-0.008553095161914825,0.716992974281311,0.0,-0.0023087691515684128
245.0,473.0,4.3968,1.9478,8.1248,-0.0341,0.0192,-0.1173,-1.6925107441344203,0.0,2.711784839630127,-1.518209457397461,-0.0,2.2035670280456543,4.253401919002197,0.0,0.2949618399143219,-1.8429144064532679,0.0,0.022601813077926636,0.8461483716964722,0.0,-0.00747305154800415,0.7170170545578003,0.0,0.03499960899353027
245.0,473.0,4.3968,1.9478,8.1248,-0.0341,0.0192,-0.1173,-1.6924458942809046,0.0,2.7470951080322266,-1.5182615518569946,-0.0,2.1968226432800293,4.253450079555176,0.0,0.2914198637008667,-1.8428824583636683,0.0,0.032068297266960144,0.8461528420448303,0.0,0.003714748425409198,0.7170170545578003,0.0,0.0051454356871545315
251.0,460.0,4.6056,1.9825,7.788,-0.0428,0.0318,-0.1164,-1.6925388775267542,0.0,2.726738929748535,-1.5181934833526611,-0.0,2.2053041458129883,4.253421946162842,0.0,0.2853456139564514,-1.8428543249713343,0.0,0.015957405790686607,0.8461926579475403,0.0,-0.004034975543618202,0.7170212268829346,0.0,-0.005980038084089756
251.0,460.0,4.6056,1.9825,7.788,-0.0428,0.0318,-0.1164,-1.692454000512594,0.0,2.6739964485168457,-1.5181933641433716,-0.0,2.188413143157959,4.253438635463379,0.0,0.2893461287021637,-1.8428905645953577,0.0,0.017290901392698288,0.8462040424346924,0.0,-0.002328488975763321,0.7169966697692871,0.0,-0.0035360027104616165
251.0,460.0,4.6056,1.9825,7.788,-0.0428,0.0318,-0.1164,-1.6924296818175257,0.0,2.6958940029144287,-1.518237829208374,-0.0,2.2561774253845215,4.253490133876465,0.0,0.2960869371891022,-1.8429105917560022,0.0,0.012050163000822067,0.8462086319923401,0.0,-0.007080255076289177,0.7170130014419556,0.0,0.011532729491591454
251.0,460.0,4.6056,1.9825,7.788,-0.0428,0.0318,-0.1164,-1.692454000512594,0.0,2.676628828048706,-1.5182216167449951,-0.0,2.1991560459136963,4.253410025233887,0.0,0.29854437708854675,-1.8429024855243128,0.0,0.02037816494703293,0.8461889624595642,0.0,-0.01675243303179741,0.7169768214225769,0.0,0.01804996468126774
251.0,460.0,4.6056,1.9825,7.788,-0.0428,0.0318,-0.1164,-1.6925107441344203,0.0,2.744717836380005,-1.5182336568832397,-0.0,2.2315335273742676,4.253434343928955,0.0,0.28383415937423706,-1.8429063002215784,0.0,0.028746183961629868,0.846164345741272,0.0,-0.007030235603451729,0.716976523399353,0.0,0.007914692163467407
251.0,460.0,4.6056,1.9825,7.788,-0.0428,0.0318,-0.1164,-1.692454000512594,0.0,2.702523708343506,-1.5181773900985718,-0.0,2.1988189220428467,4.25344626485791,0.0,0.2874038517475128,-1.8428781668292444,0.0,0.01553972065448761,0.8462287187576294,0.0,0.005102560855448246,0.7170289754867554,0.0,-0.014451829716563225
251.0,460.0,4.6056,1.9825,7.788,-0.0428,0.0318,-0.1164,-1.6924497089781703,0.0,2.7155051231384277,-1.518249273300171,-0.0,2.2357754707336426,4.253434343928955,0.0,0.28786641359329224,-1.8429067770587366,0.0,0.01875320076942444,0.8461045026779175,0.0,-0.003743269946426153,0.7169966697692871,0.0,0.03640829026699066
251.0,460.0,4.6056,1.9825,7.788,-0.0428,0.0318,-0.1164,-1.6924745045103968,0.0,2.7575912475585938,-1.5182135105133057,-0.0,2.2029902935028076,4.253398104304932,0.0,0.30254989862442017,-1.8429268042193812,0.0,0.019571255892515182,0.8462045788764954,0.0,-0.013442222960293293,0.7169806361198425,0.0,-0.036627352237701416
251.0,460.0,4.6056,1.9825,7.788,-0.0428,0.0318,-0.1164,-1.692442079583639,0.0,2.7426726818084717,-1.5182461738586426,-0.0,2.1965577602386475,4.253438158626221,0.0,0.2882373631000519,-1.8428986708270472,0.0,0.008956884033977985,0.8461286425590515,0.0,-0.0037096396554261446,0.7169889211654663,0.0,0.025620846077799797
251.0,8190.0,4.5793,2.016,7.6235,-0.0429,0.0261,-0.1275,-1.6924778423705042,0.0,2.7612485885620117,-1.518273949623108,-0.0,2.2285850048065186,4.25344626485791,0.0,0.29545268416404724,-1.8428900877581995,0.0,0.013723539188504219,0.8461446762084961,0.0,-0.002508251229301095,0.7169846892356873,0.0,-0.040150731801986694
251.0,8190.0,4.5793,2.016,7.6235,-0.0429,0.0261,-0.1275,-1.6924621067442835,0.0,2.692902088165283,-1.518161416053772,-0.0,2.1817920207977295,4.253430052394531,0.0,0.2864580452442169,-1.8428900877581995,0.0,0.004761111456900835,0.8461803793907166,0.0,-0.012775844894349575,0.7169806361198425,0.0,-0.013389229774475098
251.0,8190.0,4.5793,2.016,7.6235,-0.0429,0.0261,-0.1275,-1.6924778423705042,0.0,2.689736843109131,-1.5182135105133057,-0.0,2.1923766136169434,4.253398104304932,0.0,0.28627917170524597,-1.8429144064532679,0.0,0.008898846805095673,0.8461807370185852,0.0,-0.0059134867042303085,0.7170129418373108,0.0,0.011943884193897247
251.0,8190.0,4.5793,2.016,7.6235,-0.0429,0.0261,-0.1275,-1.6924296818175257,0.0,2.779308795928955,-1.5182255506515503,-0.0,2.189006805419922,4.253421946162842,0.0,0.28869423270225525,-1.8429506460772913,0.0,0.011675696820020676,0.8461524844169617,0.0,-0.000383665319532156,0.7170048952102661,0.0,0.04605963081121445
251.0,8190.0,4.5793,2.016,7.6235,-0.0429,0.0261,-0.1275,-1.6924859486021937,0.0,2.7102832794189453,-1.5182052850723267,-0.0,2.2574474811553955,4.253382845515869,0.0,0.29346686601638794,-1.842931095753805,0.0,0.011212707497179508,0.8461807370185852,0.0,0.005217037163674831,0.7169970870018005,0.0,-0.02880050241947174
251.0,8190.0,4.5793,2.016,7.6235,-0.0429,0.0261,-0.1275,-1.692498346368307,0.0,2.6968955993652344,-1.5182052850723267,-0.0,2.164153575897217,4.253450556392334,0.0,0.28156954050064087,-1.8428624312030237,0.0,0.010420389473438263,0.8462368845939636,0.0,-0.017229700461030006,0.7170048952102661,0.0,-0.007022102829068899
251.0,8190.0,4.5793,2.016,7.6235,-0.0429,0.0261,-0.1275,-1.6924745045103968,0.0,2.7049641609191895,-1.5182175636291504,-0.0,2.2348411083221436,4.25344626485791,0.0,0.2808719277381897,-1.8429024855243128,0.0,0.018450457602739334,0.8461204767227173,0.0,0.0019033707212656736,0.7169485092163086,0.0,0.008202227763831615
251.0,8190.0,4.5793,2.016,7.6235,-0.0429,0.0261,-0.1275,-1.6924663982787074,0.0,2.6981921195983887,-1.518237829208374,-0.0,2.1969492435455322,4.2533861833759765,0.0,0.28880441188812256,-1.8429063002215784,0.0,0.018584880977869034,0.8461443185806274,0.0,-0.0028877141885459423,0.7169567346572876,0.0,0.029778584837913513
251.0,8190.0,4.5793,2.016,7.6235,-0.0429,0.0261,-0.1275,-1.6924902401366175,0.0,2.7286624908447266,-1.5182502269744873,-0.0,2.198425769805908,4.253413839931152,0.0,0.29794442653656006,-1.8428743521319788,0.0,0.025172479450702667,0.8461524844169617,0.0,-0.005989721976220608,0.71700119972229,0.0,0.015497689135372639
251.0,8190.0,4.5793,2.016,7.6235,-0.0429,0.0261,-0.1275,-1.692498346368307,0.0,2.725961446762085,-1.5182452201843262,-0.0,2.1741371154785156,4.253401919002197,0.0,0.29385101795196533,-1.8428581396686,0.0,0.02314862236380577,0.8461446762084961,0.0,0.0022988980636000633,0.7170330882072449,0.0,-0.02666163630783558
240.0,483.0,4.5452,1.9765,7.8897,-0.0423,0.025,-0.1162,-1.692425390283102,0.0,2.726383686065674,-1.5182135105133057,-0.0,2.2176671028137207,4.253394289607666,0.0,0.30093544721603394,-1.8429268042193812,0.0,0.015069697052240372,0.8461926579475403,0.0,-0.0003055548295378685,0.7170130014419556,0.0,-0.038867540657520294
240.0,483.0,4.5452,1.9765,7.8897,-0.0423,0.025,-0.1162,-1.6924706898131312,0.0,2.7759621143341064,-1.5182255506515503,-0.0,2.2030067443847656,4.253434343928955,0.0,0.29290640354156494,-1.8429229895221155,0.0,0.018157431855797768,0.8461684584617615,0.0,-0.02181091159582138,0.7170294523239136,0.0,0.020594432950019836
240.0,483.0,4.5452,1.9765,7.8897,-0.0423,0.025,-0.1162,-1.692458292047018,0.0,2.7576682567596436,-1.5182379484176636,-0.0,2.2031030654907227,4.253418131465576,0.0,0.30190354585647583,-1.8429186979876917,0.0,0.00865849293768406,0.8461647629737854,0.0,0.00498776463791728,0.7170212268829346,0.0,-0.007355312816798687
240.0,483.0,4.5452,1.9765,7.8897,-0.0423,0.025,-0.1162,-1.6924663982787074,0.0,2.7508034706115723,-1.5182297229766846,-0.0,2.193535566329956,4.2534825044819335,0.0,0.2955148220062256,-1.8429268042193812,0.0,0.008183147758245468,0.8462086915969849,0.0,-0.004089293070137501,0.7169727087020874,0.0,-0.008214329369366169
240.0,483.0,4.5452,1.9765,7.8897,-0.0423,0.025,-0.1162,-1.6925226650633753,0.0,2.7298197746276855,-1.518273949623108,-0.0,2.20902419090271,4.25347010671582,0.0,0.30742722749710083,-1.84288198152651,0.0,0.020609019324183464,0.846172571182251,0.0,-0.0009027777123264968,0.7170048952102661,0.0,-0.02192370966076851
240.0,483.0,4.5452,1.9765,7.8897,-0.0423,0.025,-0.1162,-1.6925026379027308,0.0,2.689507484436035,-1.5182255506515503,-0.0,2.1446027755737305,4.25347821294751,0.0,0.2907116413116455,-1.842931095753805,0.0,0.021606722846627235,0.8461804389953613,0.0,-0.0024036315735429525,0.7170130610466003,0.0,-0.002709022257477045
240.0,483.0,4.5452,1.9765,7.8897,-0.0423,0.025,-0.1162,-1.6925183735289515,0.0,2.7349984645843506,-1.518209457397461,-0.0,2.218363046646118,4.253462000484131,0.0,0.2893945872783661,-1.8428900877581995,0.0,0.02056201919913292,0.8461644053459167,0.0,-0.00742680486291647,0.7169888615608215,0.0,-0.010498253628611565
240.0,483.0,4.5452,1.9765,7.8897,-0.0423,0.025,-0.1162,-1.6924621067442835,0.0,2.7238564491271973,-1.5181691646575928,-0.0,2.2292592525482178,4.25347010671582,0.0,0.2960295081138611,-1.8429225126849573,0.0,0.009473132900893688,0.8462041020393372,0.0,-0.007258400786668062,0.7170615792274475,0.0,-0.032960690557956696
240.0,483.0,4.5452,1.9765,7.8897,-0.0423,0.025,-0.1162,-1.6924377880492152,0.0,2.6505026817321777,-1.5181530714035034,-0.0,2.195279598236084,4.253438158626221,0.0,0.2878838777542114,-1.8429024855243128,0.0,0.023892316967248917,0.8461484313011169,0.0,0.0043631321750581264,0.7169970870018005,0.0,0.014730656519532204
254.0,487.0,4.5577,1.9759,7.809,-0.0411,0.0246,-0.1124,-1.6924706898131312,0.0,2.714218854904175,-1.5181736946105957,-0.0,2.1716060638427734,4.253474398250244,0.0,0.28216293454170227,-1.8428662459002894,0.0,0.02288198098540306,0.846184492111206,0.0,0.006403421983122826,0.7170130014419556,0.0,-0.03657335042953491
254.0,487.0,4.5577,1.9759,7.809,-0.0411,0.0246,-0.1124,-1.692482133904928,0.0,2.724801540374756,-1.518153190612793,-0.0,2.2061614990234375,4.25344626485791,0.0,0.2913254201412201,-1.8428905645953577,0.0,0.014997167512774467,0.8461923599243164,0.0,-0.0025519588962197304,0.716976523399353,0.0,0.014702437445521355
254.0,487.0,4.5577,1.9759,7.809,-0.0411,0.0246,-0.1124,-1.6924497089781703,0.0,2.784830331802368,-1.5181893110275269,-0.0,2.153852701187134,4.253450556392334,0.0,0.2899734377861023,-1.8429105917560022,0.0,0.018508130684494972,0.8461647629737854,0.0,-0.010828712023794651,0.7170007228851318,0.0,0.0157751627266407
254.0,487.0,4.5577,1.9759,7.809,-0.0411,0.0246,-0.1124,-1.6924778423705042,0.0,2.6924710273742676,-1.5182135105133057,-0.0,2.2116384506225586,4.253426237697266,0.0,0.28607797622680664,-1.8428986708270472,0.0,0.019880030304193497,0.8461926579475403,0.0,-0.019944077357649803,0.7170090079307556,0.0,0.00451617781072855
254.0,487.0,4.5577,1.9759,7.809,-0.0411,0.0246,-0.1124,-1.6924778423705042,0.0,2.751939058303833,-1.5182299613952637,-0.0,2.168170928955078,4.253413839931152,0.0,0.29679644107818604,-1.842886749898092,0.0,0.011294014751911163,0.8461043834686279,0.0,-0.013827785849571228,0.7169966697692871,0.0,-0.01969492994248867
254.0,487.0,4.5577,1.9759,7.809,-0.0411,0.0246,-0.1124,-1.6924735508360804,0.0,2.721031665802002,-1.5182337760925293,-0.0,2.1857125759124756,4.253430052394531,0.0,0.3031783103942871,-1.8429349104510706,0.0,0.014254871755838394,0.8461845517158508,0.0,-0.008256764151155949,0.7170088291168213,0.0,-0.004996713250875473
254.0,487.0,4.5577,1.9759,7.809,-0.0411,0.0246,-0.1124,-1.692510267297262,0.0,2.724775791168213,-1.5181938409805298,-0.0,2.1801905632019043,4.253438158626221,0.0,0.28147944808006287,-1.8428824583636683,0.0,0.0231857318431139,0.8461606502532959,0.0,-0.0011293753050267696,0.7169727087020874,0.0,-0.027223436161875725
254.0,487.0,4.5577,1.9759,7.809,-0.0411,0.0246,-0.1124,-1.6924778423705042,0.0,2.673555374145508,-1.5182461738586426,-0.0,2.1360883712768555,4.253410025233887,0.0,0.29495948553085327,-1.8428900877581995,0.0,0.014313369989395142,0.8461484313011169,0.0,0.009084559045732021,0.7170615792274475,0.0,0.03231269493699074
254.0,487.0,4.5577,1.9759,7.809,-0.0411,0.0246,-0.1124,-1.692482133904928,0.0,2.714510440826416,-1.5182135105133057,-0.0,2.203389883041382,4.253438635463379,0.0,0.27823951840400696,-1.8428943792926233,0.0,0.013058548793196678,0.846172571182251,0.0,-0.0038392862770706415,0.7170252799987793,0.0,-0.019045870751142502
251.0,440.0,4.5763,1.9938,7.882,-0.0287,0.0247,-0.1129,-1.6924778423705042,0.0,2.7162833213806152,-1.5181893110275269,-0.0,2.1933846473693848,4.253450556392334,0.0,0.291861891746521,-1.8428862730609339,0.0,0.0295104943215847,0.8461847901344299,0.0,0.0012965708738192916,0.7169924974441528,0.0,0.005905423779040575
251.0,440.0,4.5763,1.9938,7.882,-0.0287,0.0247,-0.1129,-1.692498346368307,0.0,2.7109322547912598,-1.5181934833526611,-0.0,2.1803696155548096,4.253430052394531,0.0,0.28782039880752563,-1.8428781668292444,0.0,0.01838032901287079,0.8462086319923401,0.0,-0.015238545835018158,0.7170252799987793,0.0,0.04355486109852791
251.0,440.0,4.5763,1.9938,7.882,-0.0287,0.0247,-0.1129,-1.692510267297262,0.0,2.733074903488159,-1.5182135105133057,-0.0,2.1523401737213135,4.253426237697266,0.0,0.28270041942596436,-1.8428824583636683,0.0,0.01262111309915781,0.8461568355560303,0.0,-0.006430931389331818,0.7169889211654663,0.0,0.019347235560417175
251.0,440.0,4.5763,1.9938,7.882,-0.0287,0.0247,-0.1129,-1.6924458942809046,0.0,2.7799558639526367,-1.5182420015335083,-0.0,2.1762094497680664,4.253462000484131,0.0,0.2859128713607788,-1.8429020086871546,0.0,0.0091004753485322,0.8461565971374512,0.0,-0.008454929105937481,0.7169970870018005,0.0,0.013106069527566433
251.0,440.0,4.5763,1.9938,7.882,-0.0287,0.0247,-0.1129,-1.6924735508360804,0.0,2.748697280883789,-1.5182052850723267,-0.0,2.2123496532440186,4.253389998073242,0.0,0.29082190990448,-1.8428781668292444,0.0,0.02543463744223118,0.8462040424346924,0.0,-0.019244227558374405,0.7170130610466003,0.0,0.0003528200613800436
251.0,440.0,4.5763,1.9938,7.882,-0.0287,0.0247,-0.1129,-1.692498346368307,0.0,2.7580580711364746,-1.5182175636291504,-0.0,2.176784038543701,4.253462000484131,0.0,0.296463280916214,-1.8429186979876917,0.0,0.019717510789632797,0.846196711063385,0.0,-0.009240160696208477,0.7170131206512451,0.0,0.03073751926422119
251.0,440.0,4.5763,1.9938,7.882,-0.0287,0.0247,-0.1129,-1.6924735508360804,0.0,2.7248623371124268,-1.518221378326416,-0.0,2.214174270629883,4.253426237697266,0.0,0.2867840826511383,-1.8428705374347132,0.0,0.011323200538754463,0.8462045788764954,0.0,5.594082176685333e-05,0.7169890999794006,0.0,-0.03582743555307388
251.0,440.0,4.5763,1.9938,7.882,-0.0287,0.0247,-0.1129,-1.6924663982787074,0.0,2.738618850708008,-1.518229603767395,-0.0,2.2291576862335205,4.253434343928955,0.0,0.29517680406570435,-1.8428743521319788,0.0,0.013556651771068573,0.8461524844169617,0.0,-0.009336124174296856,0.7170131206512451,0.0,-0.012961380183696747
251.0,440.0,4.5763,1.9938,7.882,-0.0287,0.0247,-0.1129,-1.6925059757628382,0.0,2.663140296936035,-1.5182015895843506,-0.0,2.2276456356048584,4.253430052394531,0.0,0.27944040298461914,-1.842841927205221,0.0,0.011979036033153534,0.8461766242980957,0.0,-0.0009622859652154148,0.716992974281311,0.0,-0.004488720558583736
251.0,546.0,4.4566,1.9286,8.0536,-0.0312,0.0257,-0.1107,-1.6924735508360804,0.0,2.702394723892212,-1.5182095766067505,-0.0,2.215102434158325,4.253438635463379,0.0,0.2871478199958801,-1.8428781668292444,0.0,0.0027301101945340633,0.8461885452270508,0.0,-0.006558975670486689,0.7170007228851318,0.0,0.017820067703723907
251.0,546.0,4.4566,1.9286,8.0536,-0.0312,0.0257,-0.1107,-1.6924416027464808,0.0,2.734560012817383,-1.518173336982727,-0.0,2.2093217372894287,4.253421946162842,0.0,0.29152053594589233,-1.8428624312030237,0.0,0.011247961781919003,0.8461607098579407,0.0,-0.008133850060403347,0.7169685363769531,0.0,-0.0423346683382988
251.0,546.0,4.4566,1.9286,8.0536,-0.0312,0.0257,-0.1107,-1.6924663982787074,0.0,2.715087890625,-1.518209457397461,-0.0,2.1858339309692383,4.253426237697266,0.0,0.2967644929885864,-1.8428624312030237,0.0,0.01766922138631344,0.8462413549423218,0.0,0.0023185217287391424,0.7170491814613342,0.0,0.0031911153346300125
251.0,546.0,4.4566,1.9286,8.0536,-0.0312,0.0257,-0.1107,-1.6924416027464808,0.0,2.71223783493042,-1.518254280090332,-0.0,2.208674669265747,4.25344626485791,0.0,0.28875532746315,-1.8428862730609339,0.0,0.015416888520121574,0.8461647033691406,0.0,-0.002529577352106571,0.7170294523239136,0.0,0.03272409737110138
251.0,546.0,4.4566,1.9286,8.0536,-0.0312,0.0257,-0.1107,-1.692526479760641,0.0,2.7328805923461914,-1.51825749874115,-0.0,2.188821792602539,4.253450556392334,0.0,0.3000144362449646,-1.8429425398456019,0.0,0.02565995417535305,0.8462086915969849,0.0,-0.0005513057112693787,0.7169727087020874,0.0,-0.008790765888988972
251.0,546.0,4.4566,1.9286,8.0536,-0.0312,0.0257,-0.1107,-1.692458292047018,0.0,2.712017059326172,-1.518237829208374,-0.0,2.1965370178222656,4.253398104304932,0.0,0.2878284454345703,-1.8428624312030237,0.0,0.012844860553741455,0.8461606502532959,0.0,-0.0190763920545578,0.7170170545578003,0.0,-0.04029560834169388
251.0,546.0,4.4566,1.9286,8.0536,-0.0312,0.0257,-0.1107,-1.6924334965147914,0.0,2.738321542739868,-1.5182420015335083,-0.0,2.1424198150634766,4.25337473928418,0.0,0.2886059284210205,-1.8428781668292444,0.0,0.012628279626369476,0.8461644053459167,0.0,-0.010504099540412426,0.7169685363769531,0.0,-0.01918942481279373
251.0,546.0,4.4566,1.9286,8.0536,-0.0312,0.0257,-0.1107,-1.6924735508360804,0.0,2.7305984497070312,-1.518237829208374,-0.0,2.2184934616088867,4.253421946162842,0.0,0.2999427020549774,-1.8429229895221155,0.0,0.023746773600578308,0.8461840152740479,0.0,0.008584504947066307,0.7170131206512451,0.0,-0.018172021955251694
251.0,546.0,4.4566,1.9286,8.0536,-0.0312,0.0257,-0.1107,-1.692425390283102,0.0,2.729935884475708,-1.518221378326416,-0.0,2.20112943649292,4.253410025233887,0.0,0.29121363162994385,-1.8428900877581995,0.0,0.02761995419859886,0.8461484313011169,0.0,-0.009439571760594845,0.7170012593269348,0.0,-0.012461747042834759
251.0,546.0,4.4566,1.9286,8.0536,-0.0312,0.0257,-0.1107,-1.6925026379027308,0.0,2.714606761932373,-1.5181934833526611,-0.0,2.186890125274658,4.253438635463379,0.0,0.3051688075065613,-1.8429186979876917,0.0,0.006626160815358162,0.8461606502532959,0.0,0.00018783839186653495,0.7170212268829346,0.0,0.001334628090262413
249.0,517.0,4.5511,1.989,7.8748,-0.0345,0.0241,-0.1113,-1.6924859486021937,0.0,2.7466189861297607,-1.518237829208374,-0.0,2.1722500324249268,4.253389998073242,0.0,0.28544512391090393,-1.8429144064532679,0.0,0.01058024913072586,0.846148669719696,0.0,-0.005802722182124853,0.7170334458351135,0.0,-0.0004693759838119149
249.0,517.0,4.5511,1.989,7.8748,-0.0345,0.0241,-0.1113,-1.6924945316710414,0.0,2.726133346557617,-1.5182173252105713,-0.0,2.175936698913574,4.253418131465576,0.0,0.296373188495636,-1.842870060597555,0.0,0.02757779322564602,0.8461925983428955,0.0,-0.000564346497412771,0.7170413136482239,0.0,0.013233312405645847
249.0,517.0,4.5511,1.989,7.8748,-0.0345,0.0241,-0.1113,-1.6924816570677699,0.0,2.756608724594116,-1.518201231956482,-0.0,2.1620266437530518,4.253486319179199,0.0,0.2842765748500824,-1.842931095753805,0.0,0.02864477038383484,0.8461684584617615,0.0,-0.0034632724709808826,0.716992974281311,0.0,0.01706358976662159
249.0,517.0,4.5511,1.989,7.8748,-0.0345,0.0241,-0.1113,-1.6924859486021937,0.0,2.7099480628967285,-1.518221378326416,-0.0,2.1815102100372314,4.253389998073242,0.0,0.2840452790260315,-1.8428781668292444,0.0,0.027151409536600113,0.8462206125259399,0.0,-0.007618948817253113,0.7170372605323792,0.0,0.0014068055897951126
249.0,517.0,4.5511,1.989,7.8748,-0.0345,0.0241,-0.1113,-1.6924663982787074,0.0,2.7219114303588867,-1.5182533264160156,-0.0,2.1980228424072266,4.253457708949707,0.0,0.2839319705963135,-1.8428624312030237,0.0,0.018707523122429848,0.8461565375328064,0.0,0.00039951829239726067,0.7169727683067322,0.0,0.03310297429561615
249.0,517.0,4.5511,1.989,7.8748,-0.0345,0.0241,-0.1113,-1.6924621067442835,0.0,2.7105331420898438,-1.5181934833526611,-0.0,2.1700215339660645,4.253389998073242,0.0,0.2878357768058777,-1.842870060597555,0.0,0.02281235158443451,0.8461766242980957,0.0,-0.017323467880487442,0.7170170545578003,0.0,0.024677611887454987
249.0,517.0,4.5511,1.989,7.8748,-0.0345,0.0241,-0.1113,-1.6924621067442835,0.0,2.6772921085357666,-1.5181852579116821,-0.0,2.218294143676758,4.253410025233887,0.0,0.30157601833343506,-1.8428705374347132,0.0,0.014675348997116089,0.8461804389953613,0.0,-0.0032227556221187115,0.7170330286026001,0.0,0.0019235722720623016
249.0,517.0,4.5511,1.989,7.8748,-0.0345,0.0241,-0.1113,-1.6924416027464808,0.0,2.6861536502838135,-1.518173336982727,-0.0,2.2350335121154785,4.253413839931152,0.0,0.28985342383384705,-1.8429063002215784,0.0,0.030672723427414894,0.8462049961090088,0.0,-0.001971983816474676,0.7170213460922241,0.0,0.041099388152360916
249.0,517.0,4.5511,1.989,7.8748,-0.0345,0.0241,-0.1113,-1.692425390283102,0.0,2.686676263809204,-1.5182255506515503,-0.0,2.2189278602600098,4.253434343928955,0.0,0.3013778328895569,-1.8428705374347132,0.0,0.026541758328676224,0.8461326956748962,0.0,0.0009256568737328053,0.7169768214225769,0.0,-0.02649025060236454
255.0,465.0,4.5733,1.9998,7.7653,-0.0467,0.0195,-0.1184,-1.6925026379027308,0.0,2.6967382431030273,-1.5181931257247925,-0.0,2.192473888397217,4.253413839931152,0.0,0.29145094752311707,-1.8428943792926233,0.0,0.017490951344370842,0.8461323976516724,0.0,0.0034687770530581474,0.7170454859733582,0.0,0.022243492305278778
255.0,465.0,4.5733,1.9998,7.7653,-0.0467,0.0195,-0.1184,-1.692413946191305,0.0,2.7225372791290283,-1.5181654691696167,-0.0,2.173008680343628,4.253450079555176,0.0,0.2845999002456665,-1.8428624312030237,0.0,0.002051942516118288,0.8461446166038513,0.0,-0.009376666508615017,0.7170330286026001,0.0,0.017317982390522957
255.0,465.0,4.5733,1.9998,7.7653,-0.0467,0.0195,-0.1184,-1.6924735508360804,0.0,2.7157742977142334,-1.5182173252105713,-0.0,2.175006866455078,4.253465815181396,0.0,0.3050870895385742,-1.84288198152651,0.0,0.016497552394866943,0.8461685180664062,0.0,0.0046354783698916435,0.7169685363769531,0.0,-0.004918564576655626
255.0,465.0,4.5733,1.9998,7.7653,-0.0467,0.0195,-0.1184,-1.6924377880492152,0.0,2.729048728942871,-1.5181810855865479,-0.0,2.181407928466797,4.25347821294751,0.0,0.297421932220459,-1.8428986708270472,0.0,0.02227242849767208,0.8461245894432068,0.0,-0.0019424117635935545,0.7170454263687134,0.0,0.00041884591337293386
255.0,465.0,4.5733,1.9998,7.7653,-0.0467,0.0195,-0.1184,-1.6924621067442835,0.0,2.739471912384033,-1.518201231956482,-0.0,2.2169532775878906,4.253438635463379,0.0,0.2866016626358032,-1.8429186979876917,0.0,0.021367676556110382,0.8461685180664062,0.0,-0.009159126318991184,0.7170171141624451,0.0,-0.020939629524946213
255.0,465.0,4.5733,1.9998,7.7653,-0.0467,0.0195,-0.1184,-1.6924787960448207,0.0,2.73785138130188,-1.5182337760925293,-0.0,2.200507402420044,4.253450079555176,0.0,0.29003044962882996,-1.8429020086871546,0.0,0.02557927742600441,0.8462045788764954,0.0,-0.0038183003198355436,0.7170413136482239,0.0,0.013373009860515594
255.0,465.0,4.5733,1.9998,7.7653,-0.0467,0.0195,-0.1184,-1.6925026379027308,0.0,2.7808520793914795,-1.5182255506515503,-0.0,2.153183937072754,4.253413839931152,0.0,0.28033456206321716,-1.8428543249713343,0.0,0.02040538191795349,0.8461926579475403,0.0,-0.0016159305814653635,0.7170289158821106,0.0,0.009619577787816525
255.0,465.0,4.5733,1.9998,7.7653,-0.0467,0.0195,-0.1184,-1.6924859486021937,0.0,2.725468635559082,-1.5182173252105713,-0.0,2.212911367416382,4.253457708949707,0.0,0.2930549681186676,-1.8428900877581995,0.0,0.020707963034510612,0.8461726307868958,0.0,-0.005189867224544287,0.7170090079307556,0.0,-0.025563670322299004
255.0,465.0,4.5733,1.9998,7.7653,-0.0467,0.0195,-0.1184,-1.6924497089781703,0.0,2.718510150909424,-1.5182255506515503,-0.0,2.2077746391296387,4.253438635463379,0.0,0.28913772106170654,-1.8429105917560022,0.0,0.01723223179578781,0.8461807370185852,0.0,-0.012291587889194489,0.7170294523239136,0.0,0.02500990219414234
252.0,466.0,4.5254,1.9651,7.9167,-0.0334,0.0189,-0.1095,-1.6924706898131312,0.0,2.677307605743408,-1.5181691646575928,-0.0,2.212949275970459,4.253386660213135,0.0,0.30086180567741394,-1.8428986708270472,0.0,0.017274275422096252,0.8461644053459167,0.0,-0.0018012478249147534,0.7170171141624451,0.0,0.005705796182155609
252.0,466.0,4.5254,1.9651,7.9167,-0.0334,0.0189,-0.1095,-1.6924416027464808,0.0,2.7269723415374756,-1.518237829208374,-0.0,2.2118730545043945,4.253462000484131,0.0,0.2877260446548462,-1.8428824583636683,0.0,0.012707807123661041,0.8462005257606506,0.0,0.013890571892261505,0.7170171737670898,0.0,0.006579902023077011
252.0,466.0,4.5254,1.9651,7.9167,-0.0334,0.0189,-0.1095,-1.6924735508360804,0.0,2.7090768814086914,-1.5181975364685059,-0.0,2.2310924530029297,4.253457708949707,0.0,0.2832304835319519,-1.8428986708270472,0.0,0.011842289008200169,0.8462246656417847,0.0,0.0034509252291172743,0.7170048952102661,0.0,0.00666726753115654
252.0,466.0,4.5254,1.9651,7.9167,-0.0334,0.0189,-0.1095,-1.6924778423705042,0.0,2.718060255050659,-1.5182337760925293,-0.0,2.137967586517334,4.253406210536621,0.0,0.2920014262199402,-1.8429186979876917,0.0,0.024812381714582443,0.8461524844169617,0.0,-0.010012936778366566,0.7170170545578003,0.0,0.007502321619540453
252.0,466.0,4.5254,1.9651,7.9167,-0.0334,0.0189,-0.1095,-1.6924945316710414,0.0,2.717545986175537,-1.5181692838668823,-0.0,2.2014174461364746,4.253490133876465,0.0,0.2903560996055603,-1.8429268042193812,0.0,0.010641425848007202,0.8461729288101196,0.0,-0.009007899090647697,0.7170293927192688,0.0,-0.010898822918534279
252.0,466.0,4.5254,1.9651,7.9167,-0.0334,0.0189,-0.1095,-1.692482133904928,0.0,2.7249276638031006,-1.5181893110275269,-0.0,2.1756937503814697,4.253382845515869,0.0,0.2988346219062805,-1.842830006276266,0.0,0.01735873520374298,0.846184492111206,0.0,-0.006753469817340374,0.7170372009277344,0.0,-0.004251484293490648
252.0,466.0,4.5254,1.9651,7.9167,-0.0334,0.0189,-0.1095,-1.6924706898131312,0.0,2.779104232788086,-1.5182052850723267,-0.0,2.2166426181793213,4.25344626485791,0.0,0.2981418967247009,-1.842886749898092,0.0,0.012365582399070263,0.8461927175521851,0.0,-0.013711931183934212,0.7169567346572876,0.0,0.06445785611867905
252.0,466.0,4.5254,1.9651,7.9167,-0.0334,0.0189,-0.1095,-1.6924859486021937,0.0,2.6893856525421143,-1.5181893110275269,-0.0,2.182952642440796,4.253389998073242,0.0,0.2964017987251282,-1.8428943792926233,0.0,0.016980893909931183,0.8461926579475403,0.0,-0.018649600446224213,0.7170335054397583,0.0,-0.025873085483908653
252.0,466.0,4.5254,1.9651,7.9167,-0.0334,0.0189,-0.1095,-1.692482133904928,0.0,2.7344021797180176,-1.5182135105133057,-0.0,2.2185075283050537,4.25344626485791,0.0,0.29426664113998413,-1.8428900877581995,0.0,0.012727180495858192,0.846184492111206,0.0,0.007627543993294239,0.7169644832611084,0.0,0.008867483586072922
248.0,437.0,4.5099,1.9699,7.8903,-0.0426,0.0264,-0.117,-1.6924663982787074,0.0,2.72963285446167,-1.5181773900985718,-0.0,2.1818466186523438,4.253462000484131,0.0,0.28822028636932373,-1.8429186979876917,-3.562351746921877e-09,0.030010689049959183,0.846100389957428,0.0,-0.012056338600814342,0.7169690132141113,0.0,0.018124064430594444
248.0,437.0,4.5099,1.9699,7.8903,-0.0426,0.0264,-0.117,-1.6924458942809046,0.0,2.738205909729004,-1.5181893110275269,-0.0,2.2168710231781006,4.253462000484131,0.0,0.2772519588470459,-1.8428624312030237,-4.227319940630506e-15,0.017384812235832214,0.8461484313011169,0.0,-0.004815463442355394,0.7170130014419556,0.0,-0.014297875575721264
248.0,437.0,4.5099,1.9699,7.8903,-0.0426,0.0264,-0.117,-1.6924497089781703,0.0,2.697615146636963,-1.5182297229766846,-0.0,2.1733932495117188,4.253438635463379,0.0,0.2762329876422882,-1.8428824583636683,-5.016413802711178e-21,0.01334536261856556,0.8461647033691406,0.0,-0.010932771489024162,0.7169724702835083,0.0,0.0006676551420241594
248.0,437.0,4.5099,1.9699,7.8903,-0.0426,0.0264,-0.117,-1.692454000512594,0.0,2.729179859161377,-1.5182052850723267,-0.0,2.202208995819092,4.253401919002197,0.0,0.2854630947113037,-1.8429024855243128,-5.95280447981202e-27,0.02399206906557083,0.8462287783622742,0.0,-0.011526031419634819,0.7170376181602478,0.0,0.0008128387853503227
248.0,437.0,4.5099,1.9699,7.8903,-0.0426,0.0264,-0.117,-1.692442079583639,0.0,2.7171599864959717,-1.5181773900985718,-0.0,2.2133805751800537,4.253434343928955,0.0,0.29729318618774414,-1.8428900877581995,-1.081892909501056e-31,0.027437560260295868,0.8461365103721619,0.0,-0.00548963900655508,0.7169768214225769,0.0,-0.028990622609853745
248.0,437.0,4.5099,1.9699,7.8903,-0.0426,0.0264,-0.117,-1.6924497089781703,0.0,2.7591142654418945,-1.5181933641433716,-0.0,2.2237024307250977,4.253426237697266,0.0,0.2918495833873749,-1.8428943792926233,-1.2838448780575481e-37,0.02807236835360527,0.8462086319923401,0.0,-0.0016646288568153977,0.7170252799987793,0.0,0.006315164268016815
248.0,437.0,4.5099,1.9699,7.8903,-0.0426,0.0264,-0.117,-1.6924497089781703,0.0,2.706148862838745,-1.518229603767395,-0.0,2.2266852855682373,4.253438635463379,0.0,0.29207149147987366,-1.8428705374347132,-1.5274153261140506e-43,0.019373826682567596,0.8461685180664062,0.0,0.004739901050925255,0.7170170545578003,0.0,-0.0116927120834589
248.0,437.0,4.5099,1.9699,7.8903,-0.0426,0.0264,-0.117,-1.6925026379027308,0.0,2.736816644668579,-1.5182420015335083,-0.0,2.1834118366241455,4.253462000484131,0.0,0.28328973054885864,-1.8428900877581995,-0.0,0.024583401158452034,0.8461602926254272,0.0,-0.008696720004081726,0.716992974281311,0.0,0.02424570359289646
248.0,437.0,4.5099,1.9699,7.8903,-0.0426,0.0264,-0.117,-1.692498346368307,0.0,2.71102237701416,-1.518201231956482,-0.0,2.236635684967041,4.253453894252441,0.0,0.3076108694076538,-1.842853848134176,-0.0,0.023049406707286835,0.8461487293243408,0.0,-0.017489396035671234,0.7170170545578003,0.0,-0.013757863081991673
248.0,437.0,4.5099,1.9699,7.8903,-0.0426,0.0264,-0.117,-1.6924296818175257,0.0,2.715592861175537,-1.518209457397461,-0.0,2.2171010971069336,4.253418131465576,0.0,0.29634958505630493,-1.842870060597555,-0.0,0.023331671953201294,0.8461565375328064,0.0,-0.0037281690165400505,0.7170252799987793,0.0,0.025257349014282227
244.0,495.0,4.4094,1.9316,8.0291,-0.0461,0.0238,-0.1156,-1.692498346368307,0.0,2.7044689655303955,-1.5181773900985718,-0.0,2.1536567211151123,4.2534424501606445,0.0,0.2908552885055542,-1.8428624312030237,-0.0,0.018143797293305397,0.8461766839027405,0.0,-0.006095425225794315,0.7169809341430664,0.0,0.00888951774686575
244.0,495.0,4.4094,1.9316,8.0291,-0.0461,0.0238,-0.1156,-1.6924778423705042,0.0,2.7029967308044434,-1.5181691646575928,-0.0,2.211272954940796,4.253453894252441,0.0,0.2860468626022339,-1.8429229895221155,-0.0,0.0294460728764534,0.8461688160896301,0.0,0.008388197049498558,0.7170330286026001,0.0,-0.01998642459511757
244.0,495.0,4.4094,1.9316,8.0291,-0.0461,0.0238,-0.1156,-1.6924778423705042,0.0,2.7441439628601074,-1.518201231956482,-0.0,2.159520149230957,4.253398104304932,0.0,0.2875469923019409,-1.8429105917560022,-0.0,0.01725766621530056,0.8461126685142517,0.0,-0.00452924519777298,0.7170130014419556,0.0,-0.016310138627886772
244.0,495.0,4.4094,1.9316,8.0291,-0.0461,0.0238,-0.1156,-1.6924015484251917,0.0,2.7299740314483643,-1.5182173252105713,-0.0,2.2190043926239014,4.253434343928955,0.0,0.2844046652317047,-1.8428986708270472,-0.0,0.011426880955696106,0.8461004495620728,0.0,-0.0011204802431166172,0.7170294523239136,0.0,-0.006702288053929806
244.0,495.0,4.4094,1.9316,8.0291,-0.0461,0.0238,-0.1156,-1.6924859486021937,0.0,2.7567925453186035,-1.5181975364685059,-0.0,2.200479030609131,4.253426237697266,0.0,0.2872394621372223,-1.8429144064532679,-0.0,0.0062079960480332375,0.8461443185806274,0.0,-0.0028310627676546574,0.7170330286026001,0.0,-0.04490506649017334
244.0,495.0,4.4094,1.9316,8.0291,-0.0461,0.0238,-0.1156,-1.6924902401366175,0.0,2.749213218688965,-1.518201231956482,-0.0,2.2075138092041016,4.253434343928955,0.0,0.3021251857280731,-1.8429105917560022,-0.0,0.008913476951420307,0.8461606502532959,0.0,-0.014926636591553688,0.7170130014419556,0.0,-0.029251156374812126
244.0,495.0,4.4094,1.9316,8.0291,-0.0461,0.0238,-0.1156,-1.692514558831686,0.0,2.72538161277771,-1.518181562423706,-0.0,2.184600591659546,4.253426237697266,0.0,0.3017949163913727,-1.8428657690631312,-0.0,0.02792751044034958,0.8461647033691406,0.0,-0.003649763762950897,0.7169685363769531,0.0,-0.06493937969207764
244.0,495.0,4.4094,1.9316,8.0291,-0.0461,0.0238,-0.1156,-1.692482133904928,0.0,2.713355302810669,-1.5182015895843506,-0.0,2.201737403869629,4.25347010671582,0.0,0.29594793915748596,-1.8429024855243128,-0.0,0.0030653392896056175,0.8461364507675171,0.0,-0.014294488355517387,0.7169888615608215,0.0,0.01444277260452509
244.0,495.0,4.4094,1.9316,8.0291,-0.0461,0.0238,-0.1156,-1.6924621067442835,0.0,2.6881020069122314,-1.5182255506515503,-0.0,2.176039218902588,4.25347821294751,0.0,0.3027775287628174,-1.8429144064532679,-0.0,0.009905253536999226,0.846172571182251,0.0,-0.010457554832100868,0.7170131206512451,0.0,0.000694111455231905
248.0,533.0,4.5577,1.9525,7.9609,-0.0292,0.0234,-0.1156,-1.6924377880492152,0.0,2.7013416290283203,-1.5182420015335083,-0.0,2.2025294303894043,4.253474398250244,0.0,0.293268084526062,-1.8429105917560022,-0.0,0.019650110974907875,0.846184492111206,0.0,-0.012717708013951778,0.7169607877731323,0.0,0.011549360118806362
248.0,533.0,4.5577,1.9525,7.9609,-0.0292,0.0234,-0.1156,-1.6924458942809046,0.0,2.7260866165161133,-1.518273949623108,-0.0,2.2105495929718018,4.25347821294751,0.0,0.29107213020324707,-1.8429020086871546,-0.0,0.0032185225281864405,0.8461606502532959,0.0,-0.010239304974675179,0.7169809341430664,0.0,0.019536057487130165
248.0,533.0,4.5577,1.9525,7.9609,-0.0292,0.0234,-0.1156,-1.6924621067442835,0.0,2.7082581520080566,-1.518209457397461,-0.0,2.193786382675171,4.253450556392334,0.0,0.27873289585113525,-1.8428862730609339,-0.0,0.008302180096507072,0.8461565971374512,0.0,0.0022491426207125187,0.7170048952102661,0.0,-0.027451006695628166
248.0,533.0,4.5577,1.9525,7.9609,-0.0292,0.0234,-0.1156,-1.6925026379027308,0.0,2.725503444671631,-1.518201231956482,-0.0,2.1999294757843018,4.253438635463379,0.0,0.2932143807411194,-1.8429186979876917,-0.0,0.018975479528307915,0.8461605906486511,0.0,-0.015513130463659763,0.7170131206512451,0.0,-0.057249728590250015
248.0,533.0,4.5577,1.9525,7.9609,-0.0292,0.0234,-0.1156,-1.692458292047018,0.0,2.716681718826294,-1.518201231956482,-0.0,2.257079601287842,4.253378553981445,0.0,0.29508236050605774,-1.8429468313800257,-0.0,0.014299090951681137,0.8462086319923401,0.0,-0.011243714019656181,0.7170289754867554,0.0,0.04486657679080963
248.0,533.0,4.5577,1.9525,7.9609,-0.0292,0.0234,-0.1156,-1.692498346368307,0.0,2.762730836868286,-1.5181893110275269,-0.0,2.1721372604370117,4.253457708949707,0.0,0.29412323236465454,-1.842870060597555,-0.0,0.013523168861865997,0.8462167978286743,0.0,-0.008827820420265198,0.7170170545578003,0.0,-0.008388979360461235
248.0,533.0,4.5577,1.9525,7.9609,-0.0292,0.0234,-0.1156,-1.6924377880492152,0.0,2.717583417892456,-1.5182052850723267,-0.0,2.178041934967041,4.2534424501606445,0.0,0.2912919223308563,-1.8429468313800257,-0.0,0.004894206766039133,0.8461442589759827,0.0,-0.003803340485319495,0.7169567942619324,0.0,-0.032731011509895325
248.0,533.0,4.5577,1.9525,7.9609,-0.0292,0.0234,-0.1156,-1.6924458942809046,0.0,2.724256992340088,-1.518254280090332,-0.0,2.1412951946258545,4.253426237697266,0.0,0.296150803565979,-1.8429463545428675,-0.0,0.01829572208225727,0.8461728692054749,0.0,-0.003275706432759762,0.7170048952102661,0.0,-0.014707285910844803
248.0,533.0,4.5577,1.9525,7.9609,-0.0292,0.0234,-0.1156,-1.6924697361388148,0.0,2.7034707069396973,-1.518173336982727,-0.0,2.1907896995544434,4.253458662624023,0.0,0.2817646563053131,-1.8428986708270472,-0.0,0.027590489014983177,0.8461365103721619,0.0,-0.011897251941263676,0.7169726490974426,0.0,0.007108929567039013
253.0,468.0,4.4937,1.9328,7.946,-0.0373,0.0162,-0.1223,-1.6924859486021937,0.0,2.7017898559570312,-1.518237829208374,-0.0,2.1503641605377197,4.25344626485791,0.0,0.29548197984695435,-1.8428862730609339,-0.0,0.009541735053062439,0.8461807370185852,0.0,-0.006372786592692137,0.7170212268829346,0.0,-0.006268952041864395
253.0,468.0,4.4937,1.9328,7.946,-0.0373,0.0162,-0.1223,-1.6924663982787074,0.0,2.7184700965881348,-1.518156886100769,-0.0,2.2171387672424316,4.253405733699463,0.0,0.30315595865249634,-1.8428943792926233,-0.0,0.009718256071209908,0.8461729288101196,0.0,0.00209783180616796,0.7170011401176453,0.0,0.01777678355574608
253.0,468.0,4.4937,1.9328,7.946,-0.0373,0.0162,-0.1223,-1.6924663982787074,0.0,2.6949710845947266,-1.5182534456253052,-0.0,2.175536632537842,4.253382845515869,0.0,0.3003663420677185,-1.8428986708270472,-0.0,0.010626617819070816,0.8462246060371399,0.0,0.001241892110556364,0.7169727683067322,0.0,-0.02616467885673046
253.0,468.0,4.4937,1.9328,7.946,-0.0373,0.0162,-0.1223,-1.6924497089781703,0.0,2.7384185791015625,-1.5182781219482422,-0.0,2.2239160537719727,4.25347010671582,0.0,0.2957557141780853,-1.8429020086871546,-0.0,0.017356334254145622,0.8461647033691406,0.0,0.008084800094366074,0.716992974281311,0.0,0.0476858988404274
253.0,468.0,4.4937,1.9328,7.946,-0.0373,0.0162,-0.1223,-1.692458292047018,0.0,2.7492527961730957,-1.5181775093078613,-0.0,2.1943483352661133,4.253413839931152,0.0,0.28665536642074585,-1.8428624312030237,-0.0,0.012954728677868843,0.8461606502532959,0.0,-0.011453344486653805,0.7170089483261108,0.0,0.043277524411678314
253.0,468.0,4.4937,1.9328,7.946,-0.0373,0.0162,-0.1223,-1.6924416027464808,0.0,2.765867233276367,-1.5182420015335083,-0.0,2.2208123207092285,4.253494425410889,0.0,0.2879661023616791,-1.8428657690631312,-0.0,0.025109872221946716,0.8461004495620728,0.0,-0.01536485180258751,0.7169966101646423,0.0,-0.011031553149223328
253.0,468.0,4.4937,1.9328,7.946,-0.0373,0.0162,-0.1223,-1.6924497089781703,0.0,2.764029026031494,-1.51825749874115,-0.0,2.1759862899780273,4.253438158626221,0.0,0.2841245234012604,-1.8429067770587366,-0.0,0.03079407289624214,0.8462008833885193,0.0,-0.0016186884604394436,0.7169809341430664,0.0,0.025159059092402458
253.0,468.0,4.4937,1.9328,7.946,-0.0373,0.0162,-0.1223,-1.692458292047018,0.0,2.7109808921813965,-1.518221378326416,-0.0,2.2194626331329346,4.253410025233887,0.0,0.28116896748542786,-1.8428781668292444,-0.0,0.012544231489300728,0.8461365103721619,0.0,0.012427317909896374,0.7170293927192688,0.0,0.030871685594320297
253.0,468.0,4.4937,1.9328,7.946,-0.0373,0.0162,-0.1223,-1.6924621067442835,0.0,2.71872878074646,-1.518153190612793,-0.0,2.209547281265259,4.253430052394531,0.0,0.2856609523296356,-1.842938248311178,-0.0,0.022651322185993195,0.8461644053459167,0.0,-0.024232903495430946,0.7169765830039978,0.0,0.03995230048894882
253.0,468.0,4.4937,1.9328,7.946,-0.0373,0.0162,-0.1223,-1.6925026379027308,0.0,2.8021903038024902,-1.51825749874115,-0.0,2.214993476867676,4.253457708949707,0.0,0.3018271028995514,-1.8428824583636683,-0.0,0.019977888092398643,0.8461926579475403,0.0,-0.011852743104100227,0.7169768214225769,0.0,0.034706439822912216
242.0,8190.0,4.5661,2.0112,7.7204,-0.0382,0.0289,-0.1231,-1.692425390283102,0.0,2.7475509643554688,-1.5181812047958374,-0.0,2.1653871536254883,4.253462000484131,0.0,0.29916128516197205,-1.8429024855243128,-0.0,0.01311507262289524,0.8461685180664062,0.0,-0.0026649064384400845,0.7169809341430664,0.0,0.013797281309962273
242.0,8190.0,4.5661,2.0112,7.7204,-0.0382,0.0289,-0.1231,-1.6925026379027308,0.0,2.750821113586426,-1.5182173252105713,-0.0,2.2237000465393066,4.253421946162842,0.0,0.28272485733032227,-1.8428743521319788,-0.0,0.020752444863319397,0.8461524844169617,0.0,-0.0071962131187319756,0.7169525027275085,0.0,-0.012353465892374516
242.0,8190.0,4.5661,2.0112,7.7204,-0.0382,0.0289,-0.1231,-1.692458292047018,0.0,2.7058658599853516,-1.5182420015335083,-0.0,2.162079334259033,4.25347010671582,0.0,0.3077180087566376,-1.842886749898092,-0.0,0.019720884039998055,0.8461889028549194,0.0,-0.007807730231434107,0.716984748840332,0.0,-0.012318544089794159
242.0,8190.0,4.5661,2.0112,7.7204,-0.0382,0.0289,-0.1231,-1.6924220524229945,0.0,2.7436118125915527,-1.5182781219482422,-0.0,2.236110210418701,4.253462000484131,0.0,0.29584231972694397,-1.8428986708270472,-0.0,0.010743886232376099,0.8461685180664062,0.0,-0.009499484673142433,0.7169925570487976,0.0,0.015491485595703125
242.0,8190.0,4.5661,2.0112,7.7204,-0.0382,0.0289,-0.1231,-1.692458292047018,0.0,2.7528340816497803,-1.518201231956482,-0.0,2.1676883697509766,4.253421946162842,0.0,0.29904982447624207,-1.8428781668292444,-0.0,0.02034887671470642,0.8462287187576294,0.0,-0.01142758596688509,0.7169889211654663,0.0,0.0013024210929870605
242.0,8190.0,4.5661,2.0112,7.7204,-0.0382,0.0289,-0.1231,-1.692458292047018,0.0,2.6876842975616455,-1.5181775093078613,-0.0,2.200924873352051,4.253402395839355,0.0,0.28455066680908203,-1.8428900877581995,-0.0,0.020165473222732544,0.8461726307868958,0.0,-0.016854338347911835,0.7170330882072449,0.0,-0.024201368913054466
242.0,8190.0,4.5661,2.0112,7.7204,-0.0382,0.0289,-0.1231,-1.6924621067442835,0.0,2.7206687927246094,-1.5182337760925293,-0.0,2.198216438293457,4.25344626485791,0.0,0.29146987199783325,-1.8428862730609339,-0.0,0.01457543671131134,0.8461726307868958,0.0,0.007481895387172699,0.7170048952102661,0.0,0.03635527566075325
242.0,8190.0,4.5661,2.0112,7.7204,-0.0382,0.0289,-0.1231,-1.6924296818175257,0.0,2.767411231994629,-1.5182056427001953,-0.0,2.1880619525909424,4.253450079555176,0.0,0.29779988527297974,-1.8429468313800257,-0.0,0.014657024294137955,0.8461963534355164,0.0,-0.011840262450277805,0.7170048952102661,0.0,0.004785550758242607
242.0,8190.0,4.5661,2.0112,7.7204,-0.0382,0.0289,-0.1231,-1.692458292047018,0.0,2.698802947998047,-1.518246054649353,-0.0,2.204464912414551,4.253438158626221,0.0,0.2892680764198303,-1.8428743521319788,-0.0,0.026523733511567116,0.8462086319923401,0.0,-9.443564340472221e-05,0.7169690132141113,0.0,-0.016489647328853607
256.0,498.0,4.4788,1.9328,7.9992,-0.0336,0.0192,-0.1194,-1.6924497089781703,0.0,2.729544162750244,-1.5182255506515503,-0.0,2.1760802268981934,4.253450079555176,0.0,0.2863379418849945,-1.8429063002215784,-0.0,0.018793951719999313,0.8461208343505859,0.0,0.006571219302713871,0.7170130014419556,0.0,-0.010779867880046368
256.0,498.0,4.4788,1.9328,7.9992,-0.0336,0.0192,-0.1194,-1.6924416027464808,0.0,2.7337374687194824,-1.518161416053772,-0.0,2.184438467025757,4.253402395839355,0.0,0.3095332384109497,-1.8428581396686,-0.0,0.029707767069339752,0.8461606502532959,0.0,-0.004147046245634556,0.7169608473777771,0.0,0.014708206988871098
256.0,498.0,4.4788,1.9328,7.9992,-0.0336,0.0192,-0.1194,-1.6924663982787074,0.0,2.7275729179382324,-1.5182056427001953,-0.0,2.2241153717041016,4.2534424501606445,0.0,0.2857803404331207,-1.8428781668292444,-0.0,0.020805418491363525,0.8461484313011169,0.0,0.00644656689837575,0.7169966697692871,0.0,0.00023392308503389359
256.0,498.0,4.4788,1.9328,7.9992,-0.0336,0.0192,-0.1194,-1.6924902401366175,0.0,2.744476318359375,-1.5181893110275269,-0.0,2.203688144683838,4.2534424501606445,0.0,0.28670641779899597,-1.842910114918844,-0.0,0.03292207047343254,0.8461241126060486,0.0,-0.021530957892537117,0.7169849872589111,0.0,-0.0065986476838588715
256.0,498.0,4.4788,1.9328,7.9992,-0.0336,0.0192,-0.1194,-1.6924416027464808,0.0,2.7310755252838135,-1.5182135105133057,-0.0,2.1756222248077393,4.253381891841553,0.0,0.2803701162338257,-1.8429144064532679,-0.0,0.016797123476862907,0.8461245894432068,0.0,-0.0017325120279565454,0.7170007228851318,0.0,-0.04631069302558899
256.0,498.0,4.4788,1.9328,7.9992,-0.0336,0.0192,-0.1194,-1.6924663982787074,0.0,2.7198104858398438,-1.5181975364685059,-0.0,2.2301735877990723,4.253458662624023,0.0,0.2948834002017975,-1.8429186979876917,-0.0,0.012317387387156487,0.8461644053459167,0.0,-0.007976347580552101,0.716992974281311,0.0,0.013482573442161083
256.0,498.0,4.4788,1.9328,7.9992,-0.0336,0.0192,-0.1194,-1.692498346368307,0.0,2.745741844177246,-1.5182695388793945,-0.0,2.220665454864502,4.253457708949707,0.0,0.30013415217399597,-1.8428986708270472,-0.0,0.020080426707863808,0.8461524844169617,0.0,-0.01086333580315113,0.7170088887214661,0.0,-0.004139531869441271
256.0,498.0,4.4788,1.9328,7.9992,-0.0336,0.0192,-0.1194,-1.6924902401366175,0.0,2.7216920852661133,-1.5181609392166138,-0.0,2.244924783706665,4.253453894252441,0.0,0.2967676520347595,-1.8428662459002894,-0.0,0.013029227033257484,0.8462046384811401,0.0,0.0030454020015895367,0.7170007228851318,0.0,-0.00410017604008317
256.0,498.0,4.4788,1.9328,7.9992,-0.0336,0.0192,-0.1194,-1.6925064525999964,0.0,2.7276856899261475,-1.5182420015335083,-0.0,2.1627817153930664,4.2534424501606445,0.0,0.28980860114097595,-1.8428900877581995,-0.0,0.013798228465020657,0.8461003303527832,0.0,-0.006524030119180679,0.7170130610466003,0.0,0.034481652081012726
241.0,494.0,4.4417,1.9442,7.9801,-0.0362,0.0287,-0.113,-1.6924220524229945,0.0,2.7151846885681152,-1.5182135105133057,-0.0,2.2269535064697266,4.253378077144287,0.0,0.2971869707107544,-1.8429105917560022,-0.0,0.023625433444976807,0.8461365103721619,0.0,0.0009851234499365091,0.7169889211654663,0.0,-0.018472470343112946
241.0,494.0,4.4417,1.9442,7.9801,-0.0362,0.0287,-0.113,-1.6924497089781703,0.0,2.724600315093994,-1.5182255506515503,-0.0,2.1866259574890137,4.253398104304932,0.0,0.2849137485027313,-1.8429268042193812,-0.0,0.017371734604239464,0.8461606502532959,0.0,0.003720975946635008,0.7170049548149109,0.0,0.013228004798293114
241.0,494.0,4.4417,1.9442,7.9801,-0.0362,0.0287,-0.113,-1.6924621067442835,0.0,2.718301773071289,-1.5182135105133057,-0.0,2.226539134979248,4.253462000484131,0.0,0.2989923357963562,-1.8428743521319788,-0.0,0.015168305486440659,0.8461803793907166,0.0,-0.014288939535617828,0.7170252203941345,0.0,-0.011154389008879662
241.0,494.0,4.4417,1.9442,7.9801,-0.0362,0.0287,-0.113,-1.6924377880492152,0.0,2.73024845123291,-1.518221378326416,-0.0,2.2059619426727295,4.253438635463379,0.0,0.28753405809402466,-1.8428657690631312,-0.0,0.02059219963848591,0.8461647033691406,0.0,-0.009567399509251118,0.7170088291168213,0.0,-0.00015404564328491688
241.0,494.0,4.4417,1.9442,7.9801,-0.0362,0.0287,-0.113,-1.692454000512594,0.0,2.706063747406006,-1.518201231956482,-0.0,2.216341733932495,4.253438635463379,0.0,0.2876637578010559,-1.8428662459002894,-0.0,0.0063453479669988155,0.8461804389953613,0.0,-0.005946164485067129,0.7170048952102661,0.0,-0.0020660674199461937
241.0,494.0,4.4417,1.9442,7.9801,-0.0362,0.0287,-0.113,-1.6925069294371546,0.0,2.7262730598449707,-1.5181488990783691,-0.0,2.219459056854248,4.253453894252441,0.0,0.30164456367492676,-1.8428581396686,-0.0,0.01783805340528488,0.8461685180664062,0.0,-0.0016042080242186785,0.7170089483261108,0.0,-0.012562068179249763
241.0,494.0,4.4417,1.9442,7.9801,-0.0362,0.0287,-0.113,-1.692454000512594,0.0,2.674494981765747,-1.518229603767395,-0.0,2.161104679107666,4.253466292018555,0.0,0.30287328362464905,-1.8429105917560022,-0.0,0.013883084058761597,0.8461644053459167,0.0,-0.01177290640771389,0.7170372009277344,0.0,0.012538919225335121
241.0,494.0,4.4417,1.9442,7.9801,-0.0362,0.0287,-0.113,-1.6924458942809046,0.0,2.7663776874542236,-1.5182658433914185,-0.0,2.177154064178467,4.2534424501606445,0.0,0.29806479811668396,-1.8428381125079554,-0.0,0.00882151909172535,0.8461606502532959,0.0,-0.005643538665026426,0.7170171737670898,0.0,-0.005272584035992622
241.0,494.0,4.4417,1.9442,7.9801,-0.0362,0.0287,-0.113,-1.692498346368307,0.0,2.7229232788085938,-1.5182052850723267,-0.0,2.2032229900360107,4.253389998073242,0.0,0.28691136837005615,-1.8428943792926233,-0.0,0.013190154917538166,0.8461565375328064,0.0,-0.01631016656756401,0.7169889211654663,0.0,-0.009462207555770874
249.0,519.0,4.596,1.9627,7.8814,-0.0434,0.0215,-0.1197,-1.6924745045103968,0.0,2.7608532905578613,-1.5182698965072632,-0.0,2.1925363540649414,4.253457708949707,0.0,0.2947571873664856,-1.8429067770587366,-0.0,0.01847970113158226,0.8461286425590515,0.0,-0.00931323692202568,0.7169603705406189,0.0,-0.018774226307868958
249.0,519.0,4.596,1.9627,7.8814,-0.0434,0.0215,-0.1197,-1.6925107441344203,0.0,2.7285943031311035,-1.5181732177734375,-0.0,2.1520228385925293,4.253462000484131,0.0,0.2942167818546295,-1.8428705374347132,-0.0,0.009479552507400513,0.8461364507675171,0.0,-0.006943824701011181,0.7169971466064453,0.0,0.04362836480140686
249.0,519.0,4.596,1.9627,7.8814,-0.0434,0.0215,-0.1197,-1.6924621067442835,0.0,2.7183446884155273,-1.5182015895843506,-0.0,2.1814451217651367,4.253450079555176,0.0,0.3029991090297699,-1.8428824583636683,-0.0,0.023619141429662704,0.8461931943893433,0.0,-0.002450003521516919,0.7169768214225769,0.0,0.03552685305476189
249.0,519.0,4.596,1.9627,7.8814,-0.0434,0.0215,-0.1197,-1.6924296818175257,0.0,2.7349820137023926,-1.5181654691696167,-0.0,2.2056775093078613,4.253438635463379,0.0,0.31009331345558167,-1.8428381125079554,-0.0,0.024872660636901855,0.8461446762084961,0.0,-0.006383758503943682,0.7169970870018005,0.0,-0.007027411833405495
249.0,519.0,4.596,1.9627,7.8814,-0.0434,0.0215,-0.1197,-1.6924497089781703,0.0,2.775505542755127,-1.518229603767395,-0.0,2.209913730621338,4.253466292018555,0.0,0.29022154211997986,-1.842825714741842,-0.0,0.02592051587998867,0.8462331295013428,0.0,0.008394187316298485,0.7169727683067322,0.0,-0.0018567023798823357
249.0,519.0,4.596,1.9627,7.8814,-0.0434,0.0215,-0.1197,-1.692454000512594,0.0,2.738377332687378,-1.5182461738586426,-0.0,2.211596727371216,4.253434343928955,0.0,0.2965651750564575,-1.8428905645953577,-0.0,0.021165262907743454,0.8461886048316956,0.0,0.0023663088213652372,0.7170371413230896,0.0,0.01804652065038681
249.0,519.0,4.596,1.9627,7.8814,-0.0434,0.0215,-0.1197,-1.6925226650633753,0.0,2.7589919567108154,-1.518165111541748,-0.0,2.2085952758789062,4.253450556392334,0.0,0.29271894693374634,-1.8428462187396448,-0.0,0.026308374479413033,0.8461606502532959,0.0,-0.021088460460305214,0.716992974281311,0.0,-0.02276928536593914
249.0,519.0,4.596,1.9627,7.8814,-0.0434,0.0215,-0.1197,-1.692437311212057,0.0,2.7296383380889893,-1.5182501077651978,-0.0,2.184328556060791,4.253450556392334,0.0,0.30082082748413086,-1.842898193989889,-0.0,0.02456958219408989,0.8462007641792297,0.0,-0.007053212262690067,0.7170130014419556,0.0,-0.039085403084754944
249.0,519.0,4.596,1.9627,7.8814,-0.0434,0.0215,-0.1197,-1.6924621067442835,0.0,2.7453253269195557,-1.5182534456253052,-0.0,2.1927666664123535,4.253438635463379,0.0,0.28894537687301636,-1.8429268042193812,-0.0,0.02914384752511978,0.8461565971374512,0.0,-0.009865105152130127,0.7170211672782898,0.0,-0.0060002803802490234
249.0,519.0,4.596,1.9627,7.8814,-0.0434,0.0215,-0.1197,-1.6924945316710414,0.0,2.6976871490478516,-1.518237829208374,-0.0,2.1988024711608887,4.253462000484131,0.0,0.2937075197696686,-1.8429144064532679,-0.0,0.02074102684855461,0.8461323976516724,0.0,-0.01491385418921709,0.7170372009277344,0.0,-0.0328516885638237
239.0,8190.0,4.4895,2.2175,8.0632,-0.0432,0.0206,-0.1228,-1.692454000512594,0.0,2.709747314453125,-1.5181893110275269,-0.0,2.197021722793579,4.253413839931152,0.0,0.2940337359905243,-1.842914883290426,-0.0,0.020500266924500465,0.8461484313011169,0.0,-0.013631738722324371,0.7170170545578003,0.0,-0.0035553397610783577
239.0,8190.0,4.4895,2.2175,8.0632,-0.0432,0.0206,-0.1228,-1.6925026379027308,0.0,2.7332184314727783,-1.5181775093078613,-0.0,2.1896557807922363,4.253410025233887,0.0,0.3008296489715576,-1.8429186979876917,-0.0,0.015086655505001545,0.8461405634880066,0.0,-0.010226009413599968,0.7170732021331787,0.0003349619510117918,-0.01318485289812088
239.0,8190.0,4.4895,2.2175,8.0632,-0.0432,0.0206,-0.1228,-1.6924945316710414,0.0,2.6713476181030273,-1.5181934833526611,-0.0,2.2329208850860596,4.253426237697266,0.0,0.3004041910171509,-1.8429186979876917,-0.0,0.028099514544010162,0.8461926579475403,0.0,-0.003558504395186901,0.7170891761779785,0.0004346833156887442,0.03846001625061035
239.0,8190.0,4.4895,2.2175,8.0632,-0.0432,0.0206,-0.1228,-1.692498346368307,0.0,2.688145637512207,-1.5181934833526611,-0.0,2.196347713470459,4.253453894252441,0.0,0.29180073738098145,-1.8429186979876917,-0.0,0.016798915341496468,0.846132755279541,0.0,-0.005887222476303577,0.7170611619949341,0.00031576186302118003,0.027732625603675842
239.0,8190.0,4.4895,2.2175,8.0632,-0.0432,0.0206,-0.1228,-1.692458292047018,0.0,2.6858530044555664,-1.518237829208374,-0.0,2.219810962677002,4.253457708949707,0.0,0.3035830557346344,-1.8428900877581995,-0.0,0.01263127475976944,0.8462165594100952,0.0,-0.004094634670764208,0.717041015625,0.00023374163720291108,-0.016577085480093956
239.0,8190.0,4.4895,2.2175,8.0632,-0.0432,0.0206,-0.1228,-1.6924497089781703,0.0,2.693770170211792,-1.518229603767395,-0.0,2.184762477874756,4.25344626485791,0.0,0.2976951003074646,-1.8428943792926233,-0.0,0.00790056586265564,0.8462048768997192,0.0,-0.00943099707365036,0.717049241065979,0.00014850014122202992,0.025680432096123695
239.0,8190.0,4.4895,2.2175,8.0632,-0.0432,0.0206,-0.1228,-1.6924296818175257,0.0,2.6888396739959717,-1.5182420015335083,-0.0,2.2385566234588623,4.253413839931152,0.0,0.2934681177139282,-1.8428905645953577,-0.0,0.004972525872290134,0.846184492111206,0.0,-0.006689376197755337,0.716992974281311,-0.00013212287740316242,-0.03445589169859886
239.0,8190.0,4.4895,2.2175,8.0632,-0.0432,0.0206,-0.1228,-1.692498346368307,0.0,2.7565531730651855,-1.5182052850723267,-0.0,2.1716761589050293,4.253413839931152,9.658255351041589e-08,0.29096800088882446,-1.842886749898092,-0.0,0.021295636892318726,0.8461284041404724,0.0,-0.01654229499399662,0.7169604301452637,-0.00011093286593677476,-0.04129314422607422
239.0,8190.0,4.4895,2.2175,8.0632,-0.0432,0.0206,-0.1228,-1.6924859486021937,0.0,2.726285934448242,-1.5182862281799316,-0.0,2.239236354827881,4.253413839931152,1.1461114717871423e-13,0.29639768600463867,-1.842870060597555,-0.0,0.016488535329699516,0.8461484313011169,0.0,-0.000606986228376627,0.7169443964958191,-0.00015323192928917706,-0.025140471756458282
245.0,527.0,4.4447,1.7067,8.0267,-0.0432,0.0463,-0.1213,-1.692482133904928,5.421102003172647e-14,2.701223373413086,-1.5181975364685059,5.645569949030982e-12,2.1774823665618896,4.253438158626221,1.360050880147571e-19,0.2856142520904541,-1.8428986708270472,-0.0,0.014718091115355492,0.846172571182251,0.0,-0.00684742908924818,0.7170089483261108,-0.00013104485697112978,-0.014370635151863098
245.0,527.0,4.4447,1.7067,8.0267,-0.0432,0.0463,-0.1213,-1.692578455010885,2.3563918949450283e-23,2.727206230163574,-1.518221378326416,2.453961341902835e-21,2.216615915298462,4.253338499660156,1.6139251025729447e-25,0.29362040758132935,-1.8428824583636683,-0.0,0.014926428906619549,0.8461806774139404,0.0,0.007840019650757313,0.7169649004936218,-0.0002048625610768795,-0.04187474772334099
245.0,527.0,4.4447,1.7067,8.0267,-0.0432,0.0463,-0.1213,-1.6925379238524378,-0.0006910355878062546,2.681230068206787,-1.5182901620864868,1.066663980518074e-30,2.213326930999756,4.253410025233887,1.9151889823060323e-31,0.2893379330635071,-1.8428705374347132,-0.0,0.02437281608581543,0.8461885452270508,0.0,-0.0037730904296040535,0.7169971466064453,-0.00020335560839157552,-0.028289753943681717
245.0,527.0,4.4447,1.7067,8.0267,-0.0432,0.0463,-0.1213,-1.6925622425475062,-0.0006283036200329661,2.6974759101867676,-1.5182777643203735,4.636476228911522e-40,2.2091236114501953,4.253378077144287,2.27268862761319e-37,0.2957158088684082,-1.8428905645953577,-0.0,0.010638143867254257,0.8461685180664062,0.0,0.005484320223331451,0.7170011401176453,-0.0001996597566176206,0.035206906497478485
245.0,527.0,4.4447,1.7067,8.0267,-0.0432,0.0463,-0.1213,-1.6925622425475062,-0.0004870745469816029,2.698497772216797,-1.5182411670684814,-0.0,2.202735185623169,4.253350420589111,2.6904930515036488e-43,0.2813390791416168,-1.842886749898092,-0.0,0.024614421650767326,0.8461964130401611,0.0,-0.010602766647934914,0.7169809937477112,-0.00019696990784723312,0.012435966171324253
245.0,527.0,4.4447,1.7067,8.0267,-0.0432,0.0463,-0.1213,-1.6925622425475062,-0.0004769148654304445,2.7277002334594727,-1.5182979106903076,-0.0,2.1646485328674316,4.2533461290546875,0.0,0.2852860689163208,-1.8428705374347132,-0.0,0.013678047806024551,0.8461766242980957,0.0,-0.010991623625159264,0.7169727683067322,-0.00022838113363832235,-0.02506006881594658
245.0,527.0,4.4447,1.7067,8.0267,-0.0432,0.0463,-0.1213,-1.6925984821715296,-0.00035841696080751717,2.7322499752044678,-1.5182090997695923,-0.0,2.2084908485412598,4.253346605891846,0.0,0.2933396100997925,-1.8428662459002894,-0.0,0.016723038628697395,0.846144437789917,0.0,0.002315057907253504,0.716992974281311,-0.00018215437012258917,0.02069968730211258
245.0,527.0,4.4447,1.7067,8.0267,-0.0432,0.0463,-0.1213,-1.6925903759398402,-0.00028698128880932927,2.7618799209594727,-1.5182090997695923,-0.0,2.2019057273864746,4.253394289607666,0.0,0.2991458475589752,-1.8428624312030237,-0.0,-0.007270229980349541,0.8461525440216064,0.0,-0.005885077640414238,0.7169727683067322,-0.00012119374150643125,0.007183896377682686
245.0,527.0,4.4447,1.7067,8.0267,-0.0432,0.0463,-0.1213,-1.6925584278502406,-0.00023929070448502898,2.7330820560455322,-1.5182369947433472,-5.240955943008885e-05,2.175281047821045,4.253334208125732,0.0,0.30907103419303894,-1.8429186979876917,-0.0,0.027598295360803604,0.8461644649505615,0.0,-0.013803176581859589,0.7170090079307556,-7.780449232086539e-05,0.017195895314216614
237.0,451.0,4.5248,1.9256,7.873,-0.0418,0.0383,-0.1113,-1.6925059757628382,-0.00017954314535018057,2.7318027019500732,-1.518201231956482,-4.5742635848000646e-05,2.2309489250183105,4.25336663305249,0.0,0.2905994653701782,-1.8428743521319788,-0.0,0.01498999260365963,0.8462164402008057,0.0,-0.009131422266364098,0.7170656323432922,7.711959187872708e-05,-0.00527089461684227
237.0,451.0,4.5248,1.9256,7.873,-0.0418,0.0383,-0.1113,-1.6925460300841273,-0.00015715020708739758,2.722766399383545,-1.5182979106903076,-4.0585720853414387e-05,2.1598145961761475,4.253378077144287,0.0,0.293224960565567,-1.8428624312030237,-0.0,0.018770288676023483,0.8461647033691406,0.0,-0.0033278954215347767,0.7170048952102661,9.527081419946626e-05,0.038456276059150696
237.0,451.0,4.5248,1.9256,7.873,-0.0418,0.0383,-0.1113,-1.6925541363158167,-0.00015959014126565307,2.7539122104644775,-1.5182050466537476,-5.462517583509907e-05,2.2053728103637695,4.253322287196777,0.0,0.2816483676433563,-1.8428905645953577,-0.0,0.021911634132266045,0.8461561799049377,0.0,0.0009085431229323149,0.7169645428657532,8.0982776125893e-05,-0.02670598216354847
237.0,451.0,4.5248,1.9256,7.873,-0.0418,0.0383,-0.1113,-1.692533632318014,-0.00014667227515019476,2.7113022804260254,-1.5182256698608398,-5.0608705350896344e-05,2.208515167236328,4.253378553981445,-6.909427611390129e-05,0.2990553677082062,-1.8428824583636683,-0.0,0.021145187318325043,0.8462166786193848,0.0,-0.0031796784605830908,0.7170330286026001,7.230771007016301e-05,0.0021043866872787476
237.0,451.0,4.5248,1.9256,7.873,-0.0418,0.0383,-0.1113,-1.69256653408193,-9.529104136163369e-05,2.6896514892578125,-1.5182369947433472,-6.169622793095186e-05,2.1738414764404297,4.253346605891846,-8.726122177904472e-05,0.2947123944759369,-1.842841927205221,-0.0,0.011746179312467575,0.846233069896698,0.0,-0.004925577901303768,0.7170011401176453,2.1257646949379705e-05,0.012646052986383438
237.0,451.0,4.5248,1.9256,7.873,-0.0418,0.0383,-0.1113,-1.6926104031004847,-0.00010265318996971473,2.6847362518310547,-1.5182576179504395,-5.8014225942315534e-05,2.208167552947998,4.25336663305249,-8.759643242228776e-05,0.29707634449005127,-1.8428710142718714,-0.0,0.027720719575881958,0.8461525440216064,0.0,-0.011858749203383923,0.7170453667640686,8.91546747538996e-08,-0.02780112996697426
237.0,451.0,4.5248,1.9256,7.873,-0.0418,0.0383,-0.1113,-1.692549844781393,-0.0001246261381311342,2.703399419784546,-1.5182777643203735,-5.00183850817848e-05,2.2206385135650635,4.253334684962891,-9.452478116145357e-05,0.2905232310295105,-1.8428462187396448,-0.0,0.028964851051568985,0.8462164402008057,0.0,-0.019032517448067665,0.7169685959815979,3.8752892228684663e-17,-0.049747031182050705
237.0,451.0,4.5248,1.9256,7.873,-0.0418,0.0383,-0.1113,-1.692577978173727,-0.0003937632136512548,2.731564998626709,-1.5182337760925293,-4.3916632421314716e-05,2.1637208461761475,4.253330393428467,-8.793186134425923e-05,0.29007959365844727,-1.842858616505758,5.282160054775886e-05,0.01941245049238205,0.846152126789093,0.0,-0.001182681880891323,0.7169649600982666,1.6844734879946837e-26,-0.004694076254963875
237.0,451.0,4.5248,1.9256,7.873,-0.0418,0.0383,-0.1113,-1.692577978173727,-0.0005960729904472828,2.708926200866699,-1.5182576179504395,-3.914167973562144e-05,2.177274703979492,4.253370924586914,-9.091771062230691e-05,0.28049227595329285,-1.842830006276266,6.0328355175442994e-05,0.04221486300230026,0.8461923599243164,0.0,-0.007187702693045139,0.7170693278312683,7.321904203037961e-36,-0.06292274594306946
249.0,477.0,4.3914,1.8305,7.7444,-0.038,0.011,-0.1188,-1.6926466427245082,-0.0007461605709977448,2.6814141273498535,-1.5183138847351074,-3.530332105583511e-05,2.126375675201416,4.253334684962891,-8.818521746434271e-05,0.29005295038223267,-1.842830006276266,1.0844187769976088e-09,0.04865698516368866,0.846136212348938,0.0,-0.011713352054357529,0.7170334458351135,2.802596928649634e-45,-0.0344349630177021
249.0,477.0,4.3914,1.8305,7.7444,-0.038,0.011,-0.1188,-1.6925856075682582,-0.000647721637506038,2.639094591140747,-1.5182452201843262,-3.273519178037532e-05,2.2052626609802246,4.253326578731201,-8.406669076066464e-05,0.2904156744480133,-1.8428385893451136,1.970877786330611e-14,0.050756990909576416,0.8461925983428955,0.0,-0.003860688069835305,0.7169649600982666,0.0,-0.08765143156051636
249.0,477.0,4.3914,1.8305,7.7444,-0.038,0.011,-0.1188,-1.6926261387267054,-0.0006617872859351337,2.5955111980438232,-1.5182654857635498,-3.0006738597876392e-05,2.144132614135742,4.253378553981445,-4.026214446639642e-05,0.28006377816200256,-1.8427942434894007,0.000217756416532211,0.05841594189405441,0.8462249636650085,0.0,-0.008491793647408485,0.7169970870018005,-0.0003469472867436707,-0.06687939167022705
249.0,477.0,4.3914,1.8305,7.7444,-0.038,0.011,-0.1188,-1.6926943264403285,-0.001131630502641201,2.583724021911621,-1.5182737112045288,-2.7698053600033745e-05,2.1671032905578613,4.253338499660156,-4.777769846420199e-11,0.26343631744384766,-1.8427985350238245,0.0002467029553372413,0.06600892543792725,0.8461241722106934,0.0,3.620469942688942e-05,0.7169528603553772,-0.0008614311227574944,-0.09507666528224945
249.0,477.0,4.3914,1.8305,7.7444,-0.038,0.011,-0.1188,-1.69267000774526,-0.002923706080764532,2.5345969200134277,-1.5182369947433472,-3.857893170788884e-05,2.170680522918701,4.25339858114209,-9.165582741843536e-05,0.2783200442790985,-1.8428385893451136,0.000382475700462237,0.04938167333602905,0.8461485505104065,0.0,-0.011483297683298588,0.7169569134712219,-0.0012330064782872796,-0.10129845142364502
249.0,477.0,4.3914,1.8305,7.7444,-0.038,0.011,-0.1188,-1.6926495037474574,-0.006681818049401045,2.4994142055511475,-1.518297791481018,-3.6006600566906855e-05,2.1587352752685547,4.253334684962891,-9.556175791658461e-05,0.2786376476287842,-1.842790428792135,0.0004287537594791502,0.07176955044269562,0.8462249636650085,0.0,-0.007276229560375214,0.7169449329376221,-0.001066013821400702,-0.1130659431219101
249.0,477.0,4.3914,1.8305,7.7444,-0.038,0.011,-0.1188,-1.692737718621725,-0.004201949108392,2.4946465492248535,-1.5182819366455078,-3.3755815820768476e-05,2.1324615478515625,4.253302260036133,-9.140302427113056e-05,0.2721729874610901,-1.8427818457232874,0.0005359763745218515,0.0695912092924118,0.8461565971374512,0.0,-0.018571041524410248,0.7169408202171326,-0.0009958454174920917,-0.1298294961452484
249.0,477.0,4.3914,1.8305,7.7444,-0.038,0.011,-0.1188,-1.692773004571432,-0.0018563939956948161,2.534433364868164,-1.5182777643203735,-4.221610652166419e-05,2.132054328918457,4.253314657802246,-9.784334542928264e-05,0.2677558660507202,-1.8427827993976038,0.0005963309668004513,0.08197179436683655,0.8462249636650085,0.0,-0.005924075376242399,0.716933012008667,-0.0007600398967042565,-0.1330920308828354
249.0,477.0,4.3914,1.8305,7.7444,-0.038,0.011,-0.1188,-1.6928335628905238,-0.003561263671144843,2.4473037719726562,-1.518297553062439,-7.641622505616397e-05,2.104327440261841,4.253275080318115,-0.00010575560736469924,0.2655412256717682,-1.8427942434894007,0.000553679361473769,0.07086227834224701,0.8461644649505615,0.0,-0.010096680372953415,0.716957151889801,-0.0006479246076196432,-0.1954616904258728
249.0,477.0,4.3914,1.8305,7.7444,-0.038,0.011,-0.1188,-1.6928698025145472,-0.0033479530829936266,2.454036235809326,-1.5182452201843262,-7.053996523609385e-05,2.116666555404663,4.253326578731201,-0.00016928596596699208,0.25497767329216003,-1.8427460829364222,0.0009406092576682568,0.08669562637805939,0.8461604714393616,0.0,-0.004841563291847706,0.7169168591499329,-0.000610454473644495,-0.13362663984298706
247.0,8190.0,4.6505,1.7964,7.7115,-0.0421,0.009,-0.1093,-1.6928779087462367,-0.0017843048553913832,2.429471492767334,-1.5182369947433472,-6.541319453390315e-05,2.1319799423217773,4.253354712123535,-0.000142482400406152,0.2665162682533264,-1.8427303473102015,0.0038982522673904896,0.09245569258928299,0.8462408781051636,0.0,-0.0030014733783900738,0.7169090509414673,-0.0007464276277460158,-0.20113418996334076
247.0,8190.0,4.6505,1.7964,7.7115,-0.0421,0.009,-0.1093,-1.6929017506041468,-0.0016195294447243214,2.3801493644714355,-1.5182819366455078,-6.098108133301139e-05,2.0860118865966797,4.253309412593506,-0.00014123458822723478,0.25395509600639343,-1.842625919972555,0.022851327434182167,0.08139358460903168,0.8462249636650085,0.0,0.006933849770575762,0.7168888449668884,-0.0007453224970959127,-0.19007813930511475
247.0,8190.0,4.6505,1.7964,7.7115,-0.0421,0.009,-0.1093,-1.6929379902281703,-0.0031399426516145468,2.3517861366271973,-1.5182814598083496,-5.7111476053250954e-05,2.1223092079162598,4.2533508974262695,-0.00012985886132810265,0.27492770552635193,-1.8424299399005335,0.01780623570084572,0.08848362416028976,0.8462204337120056,0.0,-0.014277290552854538,0.7168808579444885,-0.000677614298183471,-0.19585300981998444
247.0,8190.0,4.6505,1.7964,7.7115,-0.0421,0.009,-0.1093,-1.69299378017568,-0.004431275650858879,2.4204225540161133,-1.5182815790176392,-5.370367944124155e-05,2.1463937759399414,4.253322287196777,-0.00013519631465896964,0.258944034576416,-1.8423221747027796,0.004792232532054186,0.09027162939310074,0.8461522459983826,0.0,-0.0025712985079735518,0.716893196105957,-0.0008204937912523746,-0.25858843326568604
247.0,8190.0,4.6505,1.7964,7.7115,-0.0421,0.009,-0.1093,-1.6930457554259242,-0.00607397872954607,2.3800065517425537,-1.5182174444198608,-5.067966048954986e-05,2.1103785037994385,4.253322287196777,-0.00015053518291097134,0.2607250213623047,-1.8422978560077112,0.0005774215678684413,0.09584886580705643,0.8461526036262512,0.0,-0.015963563695549965,0.7168448567390442,-0.002226108917966485,-0.20759864151477814
247.0,8190.0,4.6505,1.7964,7.7115,-0.0421,0.009,-0.1093,-1.6930777035155238,-0.007660636678338051,2.306553840637207,-1.5182534456253052,-3.0444802234796953e-09,2.1461520195007324,4.25331084310498,-0.00018437243124935776,0.2495076060295105,-1.8423345724688929,0.00036692596040666103,0.12000337243080139,0.8461685180664062,0.0,-0.013187617063522339,0.7168370485305786,-0.0032246827613562346,-0.276496022939682
247.0,8190.0,4.6505,1.7964,7.7115,-0.0421,0.009,-0.1093,-1.693197866479391,-0.00963334459811449,2.2887091636657715,-1.5182974338531494,-1.32334505065826e-18,2.109389305114746,4.253303213710449,-0.00018669052224140614,0.24149814248085022,-1.8423345724688929,6.854965613456443e-05,0.10204248130321503,0.8461526036262512,0.0,-0.01301620714366436,0.7168572545051575,-0.0038308482617139816,-0.2759147882461548
247.0,8190.0,4.6505,1.7964,7.7115,-0.0421,0.009,-0.1093,-1.6933051548399867,-0.010933483019471169,2.2988710403442383,-1.5182654857635498,-5.752187483445996e-28,2.1281464099884033,4.25331894933667,-0.00030688566039316356,0.24685600399971008,-1.8422897497760218,0.00014284998178482056,0.12758716940879822,0.8462204337120056,0.0,-0.005398284178227186,0.716797411441803,-0.004757481161504984,-0.2749819755554199
247.0,8190.0,4.6505,1.7964,7.7115,-0.0421,0.009,-0.1093,-1.6933933697142542,-0.011604053899645805,2.249215841293335,-1.5182737112045288,-2.500305236601416e-37,2.1071617603302,4.253298922176025,-0.00022965669631958008,0.24800077080726624,-1.8422978560077112,0.0003532648552209139,0.12130926549434662,0.8462083339691162,0.0,-0.0011124529410153627,0.7167009711265564,-0.0050099557265639305,-0.2362593114376068
254.0,468.0,4.063,1.9418,7.8072,-0.049,0.0027,-0.1116,-1.69350065807485,-0.012200020253658295,2.2652547359466553,-1.5182855129241943,-0.0,2.083944797515869,4.25331084310498,-0.00018295810150448233,0.25233086943626404,-1.842262093220846,0.0004301656153984368,0.11806139349937439,0.8462163805961609,0.0,0.0020113843493163586,0.7166565656661987,-0.004850401077419519,-0.2916003465652466
254.0,468.0,4.063,1.9418,7.8072,-0.049,0.0027,-0.1116,-1.69366516689443,-0.013277152553200722,2.2174742221832275,-1.5182576179504395,-0.0,2.054994583129883,4.253278895015381,-0.0001824512582970783,0.2442902773618698,-1.8422821203814905,0.0005643600597977638,0.11238463222980499,0.8461562991142273,0.0,-0.004366119857877493,0.7166413068771362,-0.004115678835660219,-0.33472704887390137
254.0,468.0,4.063,1.9418,7.8072,-0.049,0.0027,-0.1116,-1.6937972507872523,-0.01433064229786396,2.2539944648742676,-1.5183175802230835,-0.0,2.0973305702209473,4.25331894933667,-0.00015608270769007504,0.2322884500026703,-1.8423059622394007,0.0005077561363577843,0.11747634410858154,0.846184492111206,0.0,-0.014269975945353508,0.7166132926940918,-0.003745211288332939,-0.24777370691299438
254.0,468.0,4.063,1.9418,7.8072,-0.049,0.0027,-0.1116,-1.6938444576659144,-0.015590721741318703,2.264615058898926,-1.5182411670684814,-0.0,2.1139769554138184,4.253307028407715,-0.0001399058528477326,0.24069839715957642,-1.8422778288470667,0.00043213440221734345,0.12087246775627136,0.8461881875991821,0.0,0.00011303735664114356,0.7165650129318237,-0.003198122838512063,-0.28830087184906006
254.0,468.0,4.063,1.9418,7.8072,-0.049,0.0027,-0.1116,-1.6940766773619593,-0.01979389786720276,2.193222999572754,-1.5182493925094604,-2.4240591301349923e-05,2.0991506576538086,4.25331084310498,-0.00012385992158669978,0.23876182734966278,-1.842274014149801,0.0003599469200707972,0.11429294943809509,0.8461924195289612,0.0,0.015273160301148891,0.7165490388870239,-0.0029014330357313156,-0.2816295027732849
254.0,468.0,4.063,1.9418,7.8072,-0.049,0.0027,-0.1116,-1.6942597828307093,-0.023950286209583282,2.228942394256592,-1.5182255506515503,-2.2711346900905482e-05,2.0441131591796875,4.253330393428467,-0.00011111605999758467,0.2596171200275421,-1.8422778288470667,0.0003095725551247597,0.12356481701135635,0.8461964130401611,0.0,0.007075567729771137,0.7164846658706665,-0.0026414075400680304,-0.28665584325790405
254.0,468.0,4.063,1.9418,7.8072,-0.049,0.0027,-0.1116,-1.6945082149901332,-0.03087255358695984,2.2281322479248047,-1.5182814598083496,-2.1363606720115058e-05,2.1417181491851807,4.253275080318115,-0.00010075016325572506,0.24696756899356842,-1.8423059622394007,0.00026182792498730123,0.11297591030597687,0.8462249040603638,0.0,0.022034266963601112,0.716456949710846,-0.002249410143122077,-0.3135043978691101
254.0,468.0,4.063,1.9418,7.8072,-0.049,0.0027,-0.1116,-1.694831987420553,-0.03619619086384773,2.283705472946167,-1.5182695388793945,-2.01668735826388e-05,2.095578908920288,4.253307028407715,-9.215329919243231e-05,0.23664487898349762,-1.8422778288470667,0.00022154065663926303,0.11897200345993042,0.8462920188903809,0.0,0.002699216129258275,0.7165092825889587,-0.0016826583305373788,-0.2960989475250244
254.0,468.0,4.063,1.9418,7.8072,-0.049,0.0027,-0.1116,-1.6952067814269007,-0.04483071714639664,2.2600274085998535,-1.5182737112045288,-5.5476964168355014e-12,2.1169626712799072,4.253306551570557,-8.490827167406678e-05,0.256877601146698,-1.8422701994525355,0.00019199961388949305,0.09326891601085663,0.8462207317352295,0.0,0.003599858842790127,0.7164530754089355,-0.001446666195988655,-0.2901192605495453
254.0,622.0,4.8287,1.9507,7.9202,-0.0478,-0.0626,-0.0977,-1.6957470379271449,-0.05224798619747162,2.2618138790130615,-1.5182534456253052,-2.4114192975963907e-21,2.0999293327331543,4.253314657802246,-6.560054316651076e-05,0.26262611150741577,-1.8422496954547327,0.00016941035573836416,0.11534145474433899,0.8462249040603638,0.0,0.017985502257943153,0.7164695262908936,-0.0008741903584450483,-0.29506587982177734
254.0,622.0,4.8287,1.9507,7.9202,-0.0478,-0.0626,-0.0977,-1.6961990795531214,-0.05581796169281006,2.2813849449157715,-1.5182695388793945,-7.812691301214804e-29,2.1570444107055664,4.253290815944336,-6.198517803568393e-05,0.24263036251068115,-1.8422778288470667,0.00015483702009078115,0.10080650448799133,0.8461523056030273,0.0,0.006655092351138592,0.7163845896720886,-0.0006423679878935218,-0.2597332000732422
254.0,622.0,4.8287,1.9507,7.9202,-0.0478,-0.0626,-0.0977,-1.69677795986318,-0.06373889744281769,2.2981209754943848,-1.5182695388793945,-3.3959442532436056e-38,2.1143603324890137,4.25328700124707,-5.799116115667857e-05,0.24337613582611084,-1.8422983328448694,0.00013980396033730358,0.10773223638534546,0.8461998701095581,0.0,0.012924222275614738,0.7164651155471802,-0.0004441735509317368,-0.23507900536060333
254.0,622.0,4.8287,1.9507,7.9202,-0.0478,-0.0626,-0.0977,-1.6974054775633753,-0.06472732871770859,2.284292697906494,-1.5182777643203735,-0.0,2.1610896587371826,4.253302736873291,-5.448074443847872e-05,0.2508549094200134,-1.842318360005514,0.00011959009862039238,0.09857527911663055,0.8462083339691162,0.0,0.005427273456007242,0.7164327502250671,-0.0003394543600734323,-0.2592051327228546
254.0,622.0,4.8287,1.9507,7.9202,-0.0478,-0.0626,-0.0977,-1.6980968914427699,-0.06299121677875519,2.325249195098877,-1.5182777643203735,-0.0,2.1370718479156494,4.253346605891846,-5.137109837960452e-05,0.24621981382369995,-1.8422978560077112,0.0001024376178975217,0.09794953465461731,0.8461682796478271,0.0,0.0022463523782789707,0.7164730429649353,-0.00024035856768023223,-0.25592881441116333
254.0,622.0,4.8287,1.9507,7.9202,-0.0478,-0.0626,-0.0977,-1.6987601719298304,-0.06722719222307205,2.3691964149475098,-1.5182737112045288,-0.0,2.141388416290283,4.253354712123535,-2.117511144206219e-07,0.2524944543838501,-1.8422697226153772,9.473545651417226e-05,0.08737654238939285,0.8461722731590271,0.0,0.0075779687613248825,0.7164812684059143,-6.459149881266057e-05,-0.22688990831375122
254.0,622.0,4.8287,1.9507,7.9202,-0.0478,-0.0626,-0.0977,-1.699407239953512,-0.06729200482368469,2.332764148712158,-1.5182695388793945,-0.0,2.113588571548462,4.2533179956623535,-2.5127773126132347e-13,0.2764469087123871,-1.8423016707049769,8.811074803816155e-05,0.09311095625162125,0.8461605310440063,0.0,0.0017489042365923524,0.7164692282676697,-5.46032861166168e-05,-0.2054537683725357
254.0,622.0,4.8287,1.9507,7.9202,-0.0478,-0.0626,-0.0977,-1.7000943622984828,-0.06802789121866226,2.3450374603271484,-1.5182695388793945,-0.0,2.10534405708313,4.253322287196777,-2.9818258420099826e-19,0.2708719074726105,-1.8422697226153772,2.6304587663616985e-05,0.09431000798940659,0.8461564183235168,0.0,0.014378385618329048,0.716456949710846,-4.741195516544394e-05,-0.2101060450077057
254.0,622.0,4.8287,1.9507,7.9202,-0.0478,-0.0626,-0.0977,-1.7005979023375453,-0.06748166680335999,2.38855242729187,-1.5182133913040161,-0.0,2.1258232593536377,4.253314180965088,-5.419321774283191e-24,0.2595350444316864,-1.8423016707049769,2.4848162865964696e-05,0.10314466059207916,0.8462088108062744,0.0,0.00593763729557395,0.7164530754089355,-2.144777317880653e-05,-0.1504148691892624
264.0,736.0,5.0788,1.8144,7.7958,-0.0391,-0.0137,-0.1416,-1.7013050518431605,-0.06931088864803314,2.394400119781494,-1.5182369947433472,-0.0,2.156604528427124,4.253326578731201,-6.430921577868413e-30,0.27207475900650024,-1.8422897497760218,2.324381421203725e-05,0.1012827605009079,0.8462163805961609,0.0,0.005071460269391537,0.7164731025695801,-2.6269157160641043e-07,-0.1868983805179596
264.0,736.0,5.0788,1.8144,7.7958,-0.0391,-0.0137,-0.1416,-1.7019807300963343,-0.07228296250104904,2.3952724933624268,-1.5182174444198608,-0.0,2.141254425048828,4.253334684962891,-7.631353234384891e-36,0.2627699375152588,-1.8422940413104456,1.092019556381274e-05,0.08202691376209259,0.8461964130401611,0.0,0.017092179507017136,0.7164972424507141,-1.1418422351505675e-16,-0.15913629531860352
264.0,736.0,5.0788,1.8144,7.7958,-0.0391,-0.0137,-0.1416,-1.7027155361571253,-0.06668407469987869,2.42288875579834,-1.5182534456253052,-0.0,2.187871217727661,4.253318472499512,-9.055190676466968e-42,0.2820224165916443,-1.8422978560077112,4.490689420322269e-08,0.08456181734800339,0.846204400062561,0.0,0.006584908347576857,0.7164894938468933,-4.963249348434214e-26,-0.17933394014835358
264.0,736.0,5.0788,1.8144,7.7958,-0.0391,-0.0137,-0.1416,-1.7033754787840785,-0.06138835474848747,2.4774861335754395,-1.5182737112045288,2.049913200607989e-05,2.1734085083007812,4.253338499660156,-0.0,0.2708359956741333,-1.8422978560077112,5.3289454961377367e-14,0.07675103843212128,0.8462163805961609,0.0,0.0034175848122686148,0.7164731025695801,-2.1573769473483783e-35,-0.12206502258777618
264.0,736.0,5.0788,1.8144,7.7958,-0.0391,-0.0137,-0.1416,-1.7039462528624476,-0.061375562101602554,2.4768240451812744,-1.5183014869689941,-4.083389649167657e-05,2.1929259300231934,4.253330393428467,-0.0,0.2725730240345001,-1.8423665205584925,6.323674290815428e-20,0.05654986947774887,0.8462004065513611,0.0,0.01474018394947052,0.7164771556854248,-9.80908925027372e-45,-0.1304982602596283
264.0,736.0,5.0788,1.8144,7.7958,-0.0391,-0.0137,-0.1416,-1.7045136890807093,-0.05796508118510246,2.5121729373931885,-1.5182452201843262,-1.837580384744797e-05,2.1854920387268066,4.2533508974262695,-0.0,0.2742729187011719,-1.8423379103290003,7.504086199531122e-26,0.06826567649841309,0.84621661901474,0.0,0.008701401762664318,0.7164733409881592,0.00025454993010498583,-0.12175875902175903
264.0,736.0,5.0788,1.8144,7.7958,-0.0391,-0.0137,-0.1416,-1.7049290142455042,-0.051790524274110794,2.5550894737243652,-1.5182534456253052,-3.717278429515858e-10,2.1482925415039062,4.253326101894043,-5.3244644249161865e-09,0.2940705418586731,-1.8423059622394007,1.3638306451178134e-30,0.06518127769231796,0.8461843132972717,0.0,0.008773553185164928,0.7164651155471802,0.00020759888866450638,-0.09751707315444946
264.0,736.0,5.0788,1.8144,7.7958,-0.0391,-0.0137,-0.1416,-1.705320497552389,-0.04343153536319733,2.56943416595459,-1.5182453393936157,-1.6157910856124148e-19,2.1654300689697266,4.253318472499512,-6.318357143232254e-15,0.2840871214866638,-1.8422978560077112,1.618410670975159e-36,0.07113340497016907,0.8462366461753845,0.0,0.005568935535848141,0.7164731025695801,0.00019844091730192304,-0.11290621757507324
264.0,736.0,5.0788,1.8144,7.7958,-0.0391,-0.0137,-0.1416,-1.7058083019652308,-0.03877481073141098,2.5656888484954834,-1.5182576179504395,-7.023363357982278e-29,2.1481053829193115,4.253318472499512,-7.497774290714482e-21,0.2851419746875763,-1.8423259894000452,1.9211801945893242e-42,0.06377722322940826,0.846168577671051,0.0,0.009022739715874195,0.7165212035179138,0.0002269004180561751,-0.07412885129451752
264.0,736.0,5.0788,1.8144,7.7958,-0.0391,-0.0137,-0.1416,-1.7060915432372035,-0.031106702983379364,2.63960862159729,-1.518249273300171,-3.052847254381696e-38,2.160966396331787,4.253330393428467,-8.897347216205999e-27,0.27701812982559204,-1.842346493397848,-0.00019706804596353322,0.046629831194877625,0.8462163209915161,0.0,0.009632322937250137,0.7164849638938904,0.00086437031859532,-0.07552250474691391
275.0,745.0,4.8981,1.8646,8.0973,-0.0466,0.0333,-0.1242,-1.7063189945616664,-0.02214190922677517,2.6545708179473877,-1.5182452201843262,6.992273119976744e-05,2.2033190727233887,4.253338499660156,-1.0558177852438489e-32,0.2796171307563782,-1.842374626790182,-0.00020082206174265593,0.05281098932027817,0.8462249040603638,0.0,0.007290028501302004,0.7165411114692688,0.0009358703973703086,-0.000992529559880495
275.0,745.0,4.8981,1.8646,8.0973,-0.0466,0.0333,-0.1242,-1.7065793476500453,-0.0153355672955513,2.670746088027954,-1.5182533264160156,0.0001203772408189252,2.2007272243499756,4.253354712123535,-1.2529023582512833e-38,0.2837750017642975,-1.8423422018634241,-0.00019754469394683838,0.03257120028138161,0.8461882472038269,0.0,0.008282111957669258,0.7165291905403137,0.0006893134559504688,-0.09795919060707092
275.0,745.0,4.8981,1.8646,8.0973,-0.0466,0.0333,-0.1242,-1.706675191918844,-0.01208946481347084,2.737419605255127,-1.518213152885437,9.020863217301667e-05,2.1346099376678467,4.253330393428467,-1.5414283107572988e-44,0.29549381136894226,-1.8423221747027796,-0.00018352655752096325,0.04610885679721832,0.8462448120117188,0.0,0.01755293644964695,0.7165411114692688,0.00042407019645906985,-0.040021978318691254
275.0,745.0,4.8981,1.8646,8.0973,-0.0466,0.0333,-0.1242,-1.7067586384215296,-0.009163484908640385,2.705235242843628,-1.5182452201843262,7.514382741646841e-05,2.1637444496154785,4.253298445338867,-0.0,0.288419246673584,-1.8423054854022425,-0.00017674887203611434,0.0468706414103508,0.8462525606155396,0.0,0.004421703517436981,0.7165291905403137,0.00029618426924571395,-0.06255394220352173
275.0,745.0,4.8981,1.8646,8.0973,-0.0466,0.0333,-0.1242,-1.7068435154356898,-0.0037888928782194853,2.744725227355957,-1.5182658433914185,9.324478742200881e-05,2.207965850830078,4.253402872676514,-0.0,0.2946751117706299,-1.8423379103290003,-0.00015742536925245076,0.03798213601112366,0.8461924195289612,0.0,0.0091121606528759,0.7165168523788452,0.00022283873113337904,-0.041614651679992676
275.0,745.0,4.8981,1.8646,8.0973,-0.0466,0.0333,-0.1242,-1.7068187199034632,-0.001057791756466031,2.7366747856140137,-1.5182173252105713,0.00010602302791085094,2.183734655380249,4.253334684962891,7.507980626542121e-05,0.2993755340576172,-1.8423498312579554,-0.00015115605492610484,0.0441582053899765,0.8462288975715637,0.0,0.01290688943117857,0.7165613770484924,0.00017861169180832803,-0.03183490037918091
275.0,745.0,4.8981,1.8646,8.0973,-0.0466,0.0333,-0.1242,-1.7067944012083949,-0.00032221185392700136,2.747774839401245,-1.518209457397461,9.323815174866468e-05,2.1563634872436523,4.253346605891846,0.00010479223419679329,0.30654487013816833,-1.8423822561847132,-0.00012941846216563135,0.041345350444316864,0.846184253692627,0.0,0.0029789088293910027,0.716549277305603,0.00011922710109502077,-0.01924682781100273
275.0,745.0,4.8981,1.8646,8.0973,-0.0466,0.0333,-0.1242,-1.7067786655821742,-6.127797678345814e-05,2.7450428009033203,-1.5182420015335083,0.0001326907949987799,2.2151012420654297,4.253366156215332,0.00012749648885801435,0.2971332371234894,-1.8423221747027796,-0.00011314709990983829,0.038902491331100464,0.846200168132782,0.0,0.010616853833198547,0.7165654897689819,0.00010228840983472764,-0.003464853623881936
275.0,745.0,4.8981,1.8646,8.0973,-0.0466,0.0333,-0.1242,-1.706750055352682,-4.565123890643008e-05,2.7843704223632812,-1.5182052850723267,0.0003400295681785792,2.1945314407348633,4.253314180965088,0.0003525962238200009,0.2932405173778534,-1.8423097769366663,-0.00012061240704497322,0.04199346899986267,0.8462249040603638,0.0,0.0030565811321139336,0.716549277305603,8.95641278475523e-05,-0.028708402067422867
274.0,748.0,3.9583,1.5685,8.1392,-0.0565,0.0547,-0.1234,-1.706782957116598,-3.641672446974553e-05,2.765735626220703,-1.5181975364685059,0.0002467778685968369,2.189194679260254,4.25336663305249,0.0002658705343492329,0.2974514365196228,-1.842370335255758,-0.00010849550017155707,0.047718215733766556,0.8462123274803162,0.0,0.002746285405009985,0.7165011167526245,2.6325375074520707e-05,-0.020341629162430763
274.0,748.0,3.9583,1.5685,8.1392,-0.0565,0.0547,-0.1234,-1.7068149052061976,-6.141551421023905e-05,2.7465085983276367,-1.5182297229766846,0.00016190388123504817,2.18316650390625,4.25336663305249,0.00022211593750398606,0.29391980171203613,-1.842386547719137,-0.00011715936852851883,0.028447292745113373,0.8461884260177612,0.0,0.012317953631281853,0.7165130376815796,2.3567852622363716e-05,-0.01130356639623642
274.0,748.0,3.9583,1.5685,8.1392,-0.0565,0.0547,-0.1234,-1.7068349323668421,-5.339020208339207e-05,2.7265615463256836,-1.5181889533996582,9.913465328281745e-05,2.269052028656006,4.25336663305249,0.00018422174616716802,0.30728811025619507,-1.842346493397848,-0.00010719425335992128,0.04291020333766937,0.8462366461753845,0.0,0.0018606556113809347,0.7165253162384033,2.0839297576458193e-05,0.010721258819103241
274.0,748.0,3.9583,1.5685,8.1392,-0.0565,0.0547,-0.1234,-1.7068149052061976,-6.974198913667351e-05,2.7476258277893066,-1.5182740688323975,8.375787729164585e-05,2.1669139862060547,4.25339858114209,0.00015737474313937128,0.30294328927993774,-1.8423422018634241,-9.878960554488003e-05,0.04349479451775551,0.8462207913398743,0.0,0.0007049961714074016,0.7165374159812927,1.4053584684869946e-10,-0.007237107027322054
274.0,748.0,3.9583,1.5685,8.1392,-0.0565,0.0547,-0.1234,-1.7067462406554164,-6.176497845444828e-05,2.7251667976379395,-1.5182420015335083,7.251070928759873e-05,2.2067975997924805,4.253374262447021,0.00013735791435465217,0.29509633779525757,-1.8423259894000452,-9.160717308986932e-05,0.04178246855735779,0.8462525606155396,0.0,0.00492494273930788,0.7165130376815796,6.10867453997641e-20,-0.06546883285045624
274.0,748.0,3.9583,1.5685,8.1392,-0.0565,0.0547,-0.1234,-1.7068025074400843,-5.542540020542219e-05,2.7513318061828613,-1.518201231956482,8.523162978235632e-05,2.180795669555664,4.253358526820801,0.00012185866216896102,0.3014242947101593,-1.8423178831683558,-8.539838745491579e-05,0.03671271726489067,0.8462005257606506,0.0,0.00931918527930975,0.7165855169296265,2.655259452247577e-29,-0.027925122529268265
274.0,748.0,3.9583,1.5685,8.1392,-0.0565,0.0547,-0.1234,-1.7068311176695765,-6.699463119730353e-05,2.7788338661193848,-1.518161416053772,7.621331315021962e-05,2.2091636657714844,4.253362818355225,0.0001095028783311136,0.2861905097961426,-1.8423097769366663,-7.997783541213721e-05,0.04347345232963562,0.8462083339691162,0.0,0.007905373349785805,0.7165572643280029,1.1541625244297173e-38,-0.04235877841711044
274.0,748.0,3.9583,1.5685,8.1392,-0.0565,0.0547,-0.1234,-1.7068268261351527,-0.0007660985575057566,2.724207878112793,-1.5182337760925293,6.891830707900226e-05,2.1656391620635986,4.253290339107178,8.285174408229068e-05,0.2955990731716156,-1.8423221747027796,-7.520426879636943e-05,0.042943187057971954,0.8462493419647217,0.0,0.013434644788503647,0.7165411114692688,0.0,-0.028141988441348076
274.0,748.0,3.9583,1.5685,8.1392,-0.0565,0.0547,-0.1234,-1.7068749866881312,-0.00229011126793921,2.732497215270996,-1.5182576179504395,6.4016247051768e-05,2.1894240379333496,4.2532664972492675,6.18689737166278e-05,0.2915889620780945,-1.8423221747027796,-7.177705265348777e-05,0.03949931263923645,0.8461683988571167,0.0,0.015936655923724174,0.7165568470954895,0.0,-0.05021810904145241
267.0,732.0,4.3573,1.9131,7.7659,-0.0313,0.0082,-0.1203,-1.7068945370116175,-0.003012771951034665,2.712057590484619,-1.5182418823242188,5.8789293689187616e-05,2.212043523788452,4.2533909517475585,5.6859455071389675e-05,0.2900044322013855,-1.8423221747027796,-1.499773816249217e-07,0.042869001626968384,0.846224844455719,0.0,0.019894935190677643,0.7165567278862,0.00030756869819015265,-0.038565412163734436
267.0,732.0,4.3573,1.9131,7.7659,-0.0313,0.0082,-0.1203,-1.706902643243307,-0.0038202081341296434,2.7101359367370605,-1.5182255506515503,5.4351472499547526e-05,2.152880907058716,4.253370924586914,5.2697807404911146e-05,0.28729018568992615,-1.842330280934469,-2.5574905521352775e-05,0.042336516082286835,0.8462167382240295,0.0,0.02254316210746765,0.716569185256958,0.00028367474442347884,-0.0811719000339508
267.0,732.0,4.3573,1.9131,7.7659,-0.0313,0.0082,-0.1203,-1.7069508037962855,-0.005437999498099089,2.6785778999328613,-1.5182461738586426,5.053661880083382e-05,2.2056281566619873,4.253338976497314,4.91038772452157e-05,0.29387226700782776,-1.8422935644732874,-2.350075010326691e-05,0.048341989517211914,0.846267819404602,0.0,0.015408851206302643,0.716560959815979,0.0002646212815307081,-0.036794260144233704
267.0,732.0,4.3573,1.9131,7.7659,-0.0313,0.0082,-0.1203,-1.7070585689940394,-0.007675608154386282,2.6847763061523438,-1.518229603767395,4.7222176362993196e-05,2.204658031463623,4.253334684962891,4.5968812628416345e-05,0.282502681016922,-1.842330280934469,-2.206064891652204e-05,0.05510507524013519,0.8462485671043396,0.0,0.016972919926047325,0.7165490388870239,0.00025525243836455047,-0.04412219300866127
267.0,732.0,4.3573,1.9131,7.7659,-0.0313,0.0082,-0.1203,-1.7071463070311488,-0.008179055526852608,2.627971649169922,-1.518229603767395,1.6134492398123257e-05,2.2081103324890137,4.25334279119458,4.321006781538017e-05,0.27858585119247437,-1.8422978560077112,-1.0393619959359057e-05,0.05828963592648506,0.8462653756141663,0.0,0.014344453811645508,0.7165205478668213,0.00019885045185219496,-0.06622389703989029
267.0,732.0,4.3573,1.9131,7.7659,-0.0313,0.0082,-0.1203,-1.7072144947447718,-0.009938455186784267,2.6628360748291016,-1.5182297229766846,1.1611176887527108e-05,2.156339168548584,4.253346605891846,3.1900355679681525e-05,0.2679622173309326,-1.8422659079181116,-4.2825156754133786e-08,0.0734052062034607,0.8462162613868713,0.0,0.015758704394102097,0.7165531516075134,0.00016286424943245947,-0.09873872250318527
267.0,732.0,4.3573,1.9131,7.7659,-0.0313,0.0082,-0.1203,-1.7073303661742152,-0.011988034471869469,2.588839530944824,-1.5182132720947266,5.9674216679184156e-09,2.222182512283325,4.253338976497314,2.5145703830276034e-07,0.2783152461051941,-1.8423016707049769,-7.783259713817214e-13,0.06889205425977707,0.8462487459182739,0.0,0.010258886031806469,0.7165168523788452,0.00014226773055270314,-0.11202610284090042
267.0,732.0,4.3573,1.9131,7.7659,-0.0313,0.0082,-0.1203,-1.7074820003905238,-0.016755321994423866,2.587021827697754,-1.5182533264160156,2.5938615911103616e-18,2.155543327331543,4.253354712123535,-2.0714720449177548e-05,0.27456900477409363,-1.842274014149801,-9.23612294388694e-19,0.071907177567482,0.8462485671043396,0.0,0.013688543811440468,0.7165813446044922,0.00012284814147278666,-0.14587847888469696
267.0,732.0,4.3573,1.9131,7.7659,-0.0313,0.0082,-0.1203,-1.707637449304098,-0.021957917138934135,2.5101332664489746,-1.5181975364685059,1.1274744413692757e-27,2.122509241104126,4.253326578731201,-9.835117680268013e-07,0.27170276641845703,-1.8422659079181116,-1.0960187884183988e-24,0.08263738453388214,0.8462127447128296,5.499477956361076e-11,0.016881288960576057,0.716560959815979,0.00010809350351337343,-0.14460229873657227
265.0,744.0,3.2148,1.547,7.7228,-0.0608,-0.0171,-0.1098,-1.7079416714110316,-0.026470722630620003,2.4820854663848877,-1.5182420015335083,4.9007963199006066e-37,2.156247615814209,4.253406687373779,-1.1670992948117909e-12,0.27371910214424133,-1.8422535101519983,0.0003944861236959696,0.08287085592746735,0.846260666847229,6.526040119248132e-17,0.01815604604780674,0.7165731191635132,9.650315041653812e-05,-0.13054224848747253
265.0,744.0,3.2148,1.547,7.7228,-0.0608,-0.0171,-0.1098,-1.708217283288473,-0.03245669975876808,2.485640048980713,-1.5182135105133057,0.0,2.1429781913757324,4.253314180965088,-1.3849561510182004e-18,0.2699826657772064,-1.8422821203814905,0.00038441343349404633,0.09673723578453064,0.8462285399436951,7.744226680626775e-23,0.01400067750364542,0.7165449857711792,6.972644769120961e-05,-0.17197288572788239
265.0,744.0,3.2148,1.547,7.7228,-0.0608,-0.0171,-0.1098,-1.7085849247374476,-0.04067676514387131,2.4654479026794434,-1.5181934833526611,-0.0,2.1428260803222656,4.253362818355225,-1.6434793819565973e-24,0.2578074634075165,-1.8422659079181116,0.0003418701235204935,0.0886300802230835,0.8462485671043396,9.1898040356777e-29,0.012993121519684792,0.7165328860282898,-0.0001031252759275958,-0.21048001945018768
265.0,744.0,3.2148,1.547,7.7228,-0.0608,-0.0171,-0.1098,-1.7090126476683558,-0.05277474224567413,2.4042699337005615,-1.5182420015335083,-0.0,2.1015400886535645,4.25336663305249,-1.9502602324210075e-30,0.2501541078090668,-1.8422701994525355,0.0003463628236204386,0.09277279675006866,0.8462446928024292,1.090522295264034e-34,0.010615227743983269,0.716488778591156,-0.0015658451011404395,-0.18949240446090698
265.0,744.0,3.2148,1.547,7.7228,-0.0608,-0.0171,-0.1098,-1.7094761333861292,-0.0638468787074089,2.378502368927002,-1.5181773900985718,-0.0,2.0876646041870117,4.25337473928418,-3.544501463798986e-35,0.2613626718521118,-1.842262093220846,0.00041480554500594735,0.10042829066514969,0.8462207317352295,1.981969923270199e-39,-0.0010730908252298832,0.7165052890777588,-0.0011086884187534451,-0.25579023361206055
265.0,744.0,3.2148,1.547,7.7228,-0.0608,-0.0171,-0.1098,-1.7101718387999476,-0.0767129510641098,2.3382067680358887,-1.518133521080017,0.000189258687896654,2.1137518882751465,4.253309889430664,-4.206137470517371e-41,0.2515733242034912,-1.8422415892230433,0.0006646003457717597,0.10885283350944519,0.8462326526641846,2.802596928649634e-45,0.0003543328493833542,0.7164610028266907,-0.0006952402181923389,-0.22446107864379883
265.0,744.0,3.2148,1.547,7.7228,-0.0608,-0.0171,-0.1098,-1.7110187015929164,-0.08650335669517517,2.303642511367798,-1.5181448459625244,0.0009134271531365812,2.150787115097046,4.253322287196777,-0.0,0.25856634974479675,-1.8422139326678675,0.0007204904686659575,0.1087280809879303,0.8462042212486267,0.0,-0.0016905597876757383,0.7165052890777588,-0.0005119637935422361,-0.2643622159957886
265.0,744.0,3.2148,1.547,7.7228,-0.0608,-0.0171,-0.1098,-1.7119504414000453,-0.09415506571531296,2.3321785926818848,-1.5181938409805298,0.0009966238867491484,2.121173143386841,4.2533179956623535,-0.0,0.2463960200548172,-1.8422258535968226,0.0006519278394989669,0.11489157378673553,0.8461962938308716,0.0,0.02377166599035263,0.7165011167526245,-0.00028097874019294977,-0.24630442261695862
265.0,744.0,3.2148,1.547,7.7228,-0.0608,-0.0171,-0.1098,-1.7129551372923792,-0.10358212888240814,2.297261953353882,-1.518181562423706,0.0005895353970117867,2.1063170433044434,4.2533179956623535,-0.0001034958113450557,0.24832747876644135,-1.8422263304339808,0.0006845836178399622,0.11203573644161224,0.8461923003196716,0.0,0.0045935059897601604,0.7164692282676697,-0.0002997462870553136,-0.22293871641159058
265.0,744.0,3.2148,1.547,7.7228,-0.0608,-0.0171,-0.1098,-1.7140041790404261,-0.10918737202882767,2.268677234649658,-1.5181571245193481,0.0004182620323263109,2.127657651901245,4.253323240871094,-0.00012646337563637644,0.2512131929397583,-1.8422301451312464,0.0011909549357369542,0.11303829401731491,0.8462004065513611,0.0,0.0049425833858549595,0.7164209485054016,-0.0004585449059959501,-0.26985782384872437
297.0,793.0,4.797,1.5763,6.743,-0.0304,-0.2399,-0.0728,-1.7152101002135218,-0.12742213904857635,2.2566463947296143,-1.5182019472122192,0.0003235416370444,2.099048137664795,4.253314180965088,-0.0003484464541543275,0.2376769781112671,-1.8422020117389124,0.0019477715250104666,0.11912019550800323,0.8462042212486267,0.0,0.004724841099232435,0.716448962688446,-0.0007955912733450532,-0.32330140471458435
297.0,793.0,4.797,1.5763,6.743,-0.0304,-0.2399,-0.0728,-1.71632780651235,-0.14922066032886505,2.147775888442993,-1.5181654691696167,0.00031844107434153557,2.0693018436431885,4.253314180965088,-0.0002660324389580637,0.2417282611131668,-1.8421905676471155,0.002964350627735257,0.10863525420427322,0.8461527228355408,0.0,0.005042225122451782,0.7164410352706909,-0.0009110374958254397,-0.2990590035915375
297.0,793.0,4.797,1.5763,6.743,-0.0304,-0.2399,-0.0728,-1.717881818810934,-0.1541031301021576,2.2211358547210693,-1.5180453062057495,0.011119000613689423,2.1043612957000732,4.253362818355225,-0.00016425612557213753,0.24073100090026855,-1.842137638722555,0.0030365027487277985,0.11742386966943741,0.8462122678756714,0.0,-0.0059925648383796215,0.7164291143417358,-0.001392493024468422,-0.3116864562034607
297.0,793.0,4.797,1.5763,6.743,-0.0304,-0.2399,-0.0728,-1.7195235691466273,-0.14805828034877777,2.301537036895752,-1.5179126262664795,0.012981940992176533,2.0816586017608643,4.2533179956623535,-0.00013373931869864464,0.22713766992092133,-1.842126194630758,0.0017940757097676396,0.12132209539413452,0.8461606502532959,-2.5002475013025105e-05,-0.0069832950830459595,0.7164250016212463,-0.0010566816199570894,-0.34538835287094116
297.0,793.0,4.797,1.5763,6.743,-0.0304,-0.2399,-0.0728,-1.721233984033102,-0.18348559737205505,2.238618850708008,-1.5179497003555298,0.004472196567803621,2.061452865600586,4.25334279119458,-0.00011278663441771641,0.23674824833869934,-1.8421137968646448,0.0008741319179534912,0.11806702613830566,0.8461844325065613,-2.338081321795471e-05,-0.0020633800886571407,0.7164733409881592,-0.00010915148595813662,-0.30895712971687317
297.0,793.0,4.797,1.5763,6.743,-0.0304,-0.2399,-0.0728,-1.7232290707030238,-0.20768862962722778,2.19561767578125,-1.5177977085113525,0.0011238757288083434,2.0669360160827637,4.2533904749104,-7.634677604073659e-05,0.2288624346256256,-1.8421018759356897,0.0005828900029882789,0.109406977891922,0.8462122678756714,-2.1954927433398552e-05,-0.011795882135629654,0.7164088487625122,-0.00028415228007361293,-0.32467466592788696
297.0,793.0,4.797,1.5763,6.743,-0.0304,-0.2399,-0.0728,-1.725170751611227,-0.18551737070083618,2.2286534309387207,-1.5176972150802612,0.011562899686396122,2.05926775932312,4.253330393428467,5.5040571169229224e-05,0.2258877456188202,-1.8421137968646448,0.0007463666843250394,0.11584015190601349,0.8461407423019409,-3.1027837394503877e-05,-0.005835156887769699,0.7164415121078491,-0.0032226191833615303,-0.35084325075149536
297.0,793.0,4.797,1.5763,6.743,-0.0304,-0.2399,-0.0728,-1.727060934106344,-0.19247043132781982,2.2263431549072266,-1.5176944732666016,0.010512474924325943,2.1210777759552,4.253354235286377,4.854220969718881e-05,0.23448380827903748,-1.8421018759356897,0.0005136095569469035,0.12341815233230591,0.8461368083953857,-4.978294327884214e-07,-0.004827247932553291,0.716397225856781,-0.0014201861340552568,-0.3450426757335663
297.0,793.0,4.797,1.5763,6.743,-0.0304,-0.2399,-0.0728,-1.7286831341185511,-0.21589864790439606,2.2217226028442383,-1.5175130367279053,0.0052595897577703,2.040212631225586,4.253358526820801,4.381551843835041e-05,0.22933290898799896,-1.8420980612384241,0.00039954224484972656,0.11562629044055939,0.8461329340934753,-9.047804172546137e-12,-0.00378305371850729,0.7163931131362915,-0.00046102164196781814,-0.3419490158557892
