ramyac6/ROB537/final_project/csv/test/good/good_122.csv
tof_0,tof_1,accelx,accely,accelz,gyrox,gyroy,gyroz,shoulder_lift_joint_position,shoulder_lift_joint_velocity,shoulder_lift_joint_effort,elbow_joint_position,elbow_joint_velocity,elbow_joint_effort,wrist_1_joint_position,wrist_1_joint_velocity,wrist_1_joint_effort,wrist_2_joint_position,wrist_2_joint_velocity,wrist_2_joint_effort,wrist_3_joint_position,wrist_3_joint_velocity,wrist_3_joint_effort,shoulder_pan_joint_position,shoulder_pan_joint_velocity,shoulder_pan_joint_effort
830.0,745.0,5.0016,-0.5874,7.6696,-0.0374,0.0257,-0.1112,-1.5652116427994152,0.0,2.213651657104492,-1.724005103111267,-0.0,2.2113797664642334,4.254147215480469,-0.0,0.29253754019737244,-1.500150505696432,0.0,-0.020833613350987434,0.7492666840553284,-0.0,-0.0013901490019634366,0.8029654622077942,0.0,-0.021848434582352638
830.0,745.0,5.0016,-0.5874,7.6696,-0.0374,0.0257,-0.1112,-1.5652194216712196,0.0,2.1554927825927734,-1.723928689956665,-0.0,2.2165369987487793,4.254159613246582,-0.0,0.29985594749450684,-1.500122372304098,0.0,-0.021759407594799995,0.7493103742599487,-0.0,-0.0007737339474260807,0.8029534220695496,0.0,0.021350275725126266
830.0,745.0,5.0016,-0.5874,7.6696,-0.0374,0.0257,-0.1112,-1.5651872495985408,0.0,2.117281436920166,-1.723988652229309,-0.0,2.1654205322265625,4.254191561336182,-0.0,0.2864142060279846,-1.5001180807696741,0.0,-0.020564336329698563,0.7492985725402832,-0.0,0.002963815815746784,0.8029497265815735,0.0,-0.005622688680887222
830.0,745.0,5.0016,-0.5874,7.6696,-0.0374,0.0257,-0.1112,-1.5652317095412691,0.0,2.1310811042785645,-1.7239606380462646,-0.0,2.1698386669158936,4.254212065333984,-0.0,0.2831178903579712,-1.5001056830035608,0.0,-0.023515745997428894,0.7492261528968811,-0.0,0.0011677575530484319,0.8029615879058838,0.0,-0.004690506495535374
830.0,745.0,5.0016,-0.5874,7.6696,-0.0374,0.0257,-0.1112,-1.565231453427561,0.0,2.139352560043335,-1.7240010499954224,-0.0,2.1983251571655273,4.254166765803955,-0.0,0.2814137637615204,-1.5001018683062952,0.0,-0.02151510864496231,0.7492825984954834,-0.0,0.003044780343770981,0.802945613861084,0.0,-0.028055086731910706
830.0,745.0,5.0016,-0.5874,7.6696,-0.0374,0.0257,-0.1112,-1.565267677684762,0.0,2.179694175720215,-1.7239525318145752,-0.0,2.152355194091797,4.254110499019287,-0.0,0.2883305549621582,-1.5001018683062952,0.0,-0.008334824815392494,0.7492464780807495,-0.0,-0.01654260791838169,0.8029497265815735,0.0,0.02101793698966503
787.0,742.0,4.9484,-0.5928,7.876,-0.0421,0.0298,-0.0809,-1.565211610203125,0.0,2.1332781314849854,-1.7239328622817993,-0.0,2.193510055541992,4.254162951106689,-0.0,0.2944003939628601,-1.500134293233053,0.0,-0.007658807095140219,0.7493063807487488,-0.0,0.001793172094039619,0.802933394908905,0.0,-0.04958207532763481
787.0,742.0,4.9484,-0.5928,7.876,-0.0421,0.0298,-0.0809,-1.5652157280458887,0.0,2.174682378768921,-1.7239689826965332,-0.0,2.171848773956299,4.254166765803955,-0.0,0.27949222922325134,-1.5001300016986292,0.0,-0.018094349652528763,0.7493226528167725,-0.0,-0.020676201209425926,0.8029415607452393,0.0,-0.04192047938704491
787.0,742.0,4.9484,-0.5928,7.876,-0.0421,0.0298,-0.0809,-1.565211610203125,0.0,2.1210834980010986,-1.7239567041397095,-0.0,2.1652793884277344,4.254175348872803,-0.0,0.2887805104255676,-1.500150505696432,0.0,0.006160460412502289,0.749290406703949,-0.0,-0.011054989881813526,0.802945613861084,0.0,0.006354082375764847
787.0,742.0,4.9484,-0.5928,7.876,-0.0421,0.0298,-0.0809,-1.56521162650127,0.0,2.1443867683410645,-1.723948359489441,-0.0,2.2117819786071777,4.254142923946045,-0.0,0.2839857041835785,-1.500134293233053,0.0,-0.0023286568466573954,0.749274492263794,-0.0,-0.011097653768956661,0.8029415607452393,0.0,-0.005830304231494665
787.0,742.0,4.9484,-0.5928,7.876,-0.0421,0.0298,-0.0809,-1.5651913753575464,0.0,2.153258800506592,-1.7240134477615356,-0.0,2.199634552001953,4.2541186052509765,-0.0,0.2743546664714813,-1.5001261870013636,0.0,-0.007710772566497326,0.749254584312439,-0.0,-0.003081132424995303,0.8029736876487732,0.0,0.01786014810204506
787.0,742.0,4.9484,-0.5928,7.876,-0.0421,0.0298,-0.0809,-1.5652075333385547,0.0,2.145538806915283,-1.723940134048462,-0.0,2.2146873474121094,4.254179163570068,-0.0,0.29241734743118286,-1.500146214162008,0.0,-0.023651398718357086,0.7492585778236389,-0.0,-0.004461154341697693,0.8029493689537048,0.0,0.01637057587504387
787.0,742.0,4.9484,-0.5928,7.876,-0.0421,0.0298,-0.0809,-1.5652317258394142,0.0,2.1690986156463623,-1.723964810371399,-0.0,2.131772994995117,4.2541228967854,-0.0,0.2794438302516937,-1.5001385847674769,0.0,-0.018757687881588936,0.7492505311965942,-0.0,-0.0024758814834058285,0.8029294610023499,0.0,0.020404446870088577
787.0,742.0,4.9484,-0.5928,7.876,-0.0421,0.0298,-0.0809,-1.5651430862820526,0.0,2.095978021621704,-1.7239649295806885,-0.0,2.1632704734802246,4.254207296962402,-0.0,0.2758502662181854,-1.5001218954669397,0.0,-0.03185713291168213,0.7492583990097046,-0.0,-0.018903514370322227,0.8029053807258606,0.0,0.004315951839089394
787.0,742.0,4.9484,-0.5928,7.876,-0.0421,0.0298,-0.0809,-1.5652276326766987,0.0,2.14603853225708,-1.7240052223205566,-0.0,2.192667245864868,4.254183455104492,-0.0,0.2804942727088928,-1.5001056830035608,0.0,-0.015875812619924545,0.7492383122444153,-0.0,-0.0026482229586690664,0.8029696941375732,0.0,0.002282168250530958
787.0,742.0,4.9484,-0.5928,7.876,-0.0421,0.0298,-0.0809,-1.5652437659776588,0.0,2.16613507270813,-1.723948359489441,-0.0,2.181605577468872,4.254155798549316,-0.0,0.28863781690597534,-1.500134293233053,0.0,-0.012198081240057945,0.7492905855178833,-0.0,-0.004911200143396854,0.8029615879058838,0.0,0.019643500447273254
787.0,742.0,4.9484,-0.5928,7.876,-0.0421,0.0298,-0.0809,-1.5652355712703248,0.0,2.1508126258850098,-1.72398042678833,-0.0,2.169593334197998,4.254183455104492,-0.0,0.29003313183784485,-1.500146214162008,0.0,-0.01855120062828064,0.7492983341217041,-0.0,-0.011191034689545631,0.8029135465621948,0.0,0.010794606059789658
806.0,748.0,4.9585,-0.6054,7.8401,-0.0444,0.0278,-0.1167,-1.5652355219102283,0.0,2.1800320148468018,-1.7240257263183594,-0.0,2.217362403869629,4.254195852870605,-0.0,0.2872769832611084,-1.5001419226275843,0.0,-0.023691236972808838,0.7492585778236389,-0.0,-0.007184205111116171,0.8030140995979309,0.0,0.012682548724114895
806.0,748.0,4.9585,-0.6054,7.8401,-0.0444,0.0278,-0.1167,-1.5652276163785537,0.0,2.1116132736206055,-1.7239606380462646,-0.0,2.203873634338379,4.2542077737995605,-0.0,0.2902767062187195,-1.5001385847674769,0.0,-0.028615109622478485,0.74924236536026,-0.0,0.0022802038583904505,0.8029575347900391,0.0,0.03903988003730774
806.0,748.0,4.9585,-0.6054,7.8401,-0.0444,0.0278,-0.1167,-1.5651996194249769,0.0,2.128838300704956,-1.7239649295806885,-0.0,2.16336989402771,4.254179163570068,-0.0,0.28781282901763916,-1.5001180807696741,0.0,-0.041215527802705765,0.749310314655304,-0.0,-0.002646068576723337,0.8029375076293945,0.0,0.05291798710823059
806.0,748.0,4.9585,-0.6054,7.8401,-0.0444,0.0278,-0.1167,-1.5651792942411085,0.0,2.174879789352417,-1.7239608764648438,-0.0,2.18353533744812,4.254203482265137,-0.0,0.28598731756210327,-1.500162426625387,0.0,-0.02808268368244171,0.749274492263794,-0.0,0.00826241821050644,0.8029534816741943,0.0,0.02370884269475937
806.0,748.0,4.9585,-0.6054,7.8401,-0.0444,0.0278,-0.1167,-1.5651913590594013,0.0,2.1056971549987793,-1.7239441871643066,-0.0,2.1483471393585205,4.254139109248779,-0.0,0.29538750648498535,-1.5001543203936976,0.0,-0.018339592963457108,0.7493465542793274,-0.0,-0.0007202411070466042,0.8029616475105286,0.0,0.045301925390958786
806.0,748.0,4.9585,-0.6054,7.8401,-0.0444,0.0278,-0.1167,-1.5651993386312206,0.0,2.125039577484131,-1.7240009307861328,-0.0,2.1918797492980957,4.254187746638916,-0.0,0.28420180082321167,-1.500134293233053,0.0,-0.020768072456121445,0.7492425441741943,-0.0,-0.003769258037209511,0.8029334545135498,0.0,0.03394544869661331
806.0,748.0,4.9585,-0.6054,7.8401,-0.0444,0.0278,-0.1167,-1.5652275670184572,0.0,2.2060608863830566,-1.7239844799041748,-0.0,2.1861743927001953,4.2541515070148925,-0.0,0.2906883955001831,-1.5001266638385218,0.0,-0.018353886902332306,0.749270498752594,-0.0,-0.006059287581592798,0.8029938340187073,0.0,0.0009868107736110687
806.0,748.0,4.9585,-0.6054,7.8401,-0.0444,0.0278,-0.1167,-1.565215320126601,0.0,2.152702569961548,-1.7239845991134644,-0.0,2.198915719985962,4.254179163570068,-0.0,0.3004264235496521,-1.500122372304098,0.0,-0.006450731307268143,0.7492584586143494,-0.0,0.00416265893727541,0.8029534816741943,0.0,-0.03427380323410034
806.0,748.0,4.9585,-0.6054,7.8401,-0.0444,0.0278,-0.1167,-1.565263897912093,0.0,2.1120386123657227,-1.7239772081375122,-0.0,2.160902261734009,4.254187746638916,-0.0,0.29344022274017334,-1.500122372304098,0.0,-0.015433438122272491,0.749270498752594,-0.0,0.0019541282672435045,0.8030061721801758,0.0,0.019440021365880966
806.0,748.0,4.9585,-0.6054,7.8401,-0.0444,0.0278,-0.1167,-1.565211610203125,0.0,2.2012546062469482,-1.723996877670288,-0.0,2.150803327560425,4.254134817714355,-0.0,0.2906726896762848,-1.500134293233053,0.0,-0.01646951586008072,0.7492825388908386,-0.0,-0.004650496412068605,0.802945613861084,0.0,-0.022058390080928802
806.0,748.0,4.9585,-0.6054,7.8401,-0.0444,0.0278,-0.1167,-1.5651914084194978,0.0,2.0902504920959473,-1.72398042678833,-0.0,2.202052593231201,4.254191561336182,-0.0,0.2846938669681549,-1.5001385847674769,0.0,-0.020791204646229744,0.74924236536026,-0.0,0.0049105919897556305,0.8029094934463501,0.0,0.0360848605632782
810.0,754.0,4.949,-0.6126,7.9005,-0.0289,0.0289,-0.1133,-1.5652075249566515,0.0,2.1948795318603516,-1.72398042678833,-0.0,2.214080810546875,4.2541515070148925,-0.0,0.2870032489299774,-1.500134293233053,0.0,-0.030058056116104126,0.7492666244506836,-0.0,-0.004923956468701363,0.8029537200927734,0.0,0.004786762408912182
810.0,754.0,4.949,-0.6126,7.9005,-0.0289,0.0289,-0.1133,-1.5651913516088207,0.0,2.1672544479370117,-1.7240009307861328,-0.0,2.173544406890869,4.254142923946045,-0.0,0.2756009101867676,-1.500134293233053,0.0,-0.017461031675338745,0.749290406703949,-0.0,-0.0022183209657669067,0.8029497265815735,0.0,0.012954290956258774
810.0,754.0,4.949,-0.6126,7.9005,-0.0289,0.0289,-0.1133,-1.5651954401149233,0.0,2.1543049812316895,-1.7240208387374878,-0.0,2.166019916534424,4.254191561336182,-0.0,0.29059332609176636,-1.500150505696432,0.0,0.0005405335687100887,0.7491946816444397,-0.0,-0.010337511077523232,0.8029778599739075,0.0,-0.049980808049440384
810.0,754.0,4.949,-0.6126,7.9005,-0.0289,0.0289,-0.1133,-1.5652111249840637,0.0,2.1482138633728027,-1.7240009307861328,-0.0,2.1876766681671143,4.254175348872803,-0.0,0.28772032260894775,-1.5001385847674769,0.0,-0.022116269916296005,0.7492383718490601,-0.0,0.007606981787830591,0.8029496669769287,0.0,-0.03280550613999367
810.0,754.0,4.949,-0.6126,7.9005,-0.0289,0.0289,-0.1133,-1.5652194132893165,0.0,2.1891937255859375,-1.7239969968795776,-0.0,2.203225612640381,4.254167719478271,-0.0,0.28263336420059204,-1.5000975767718714,0.0,-0.01769201084971428,0.7493224143981934,-0.0,-0.006223961245268583,0.8029496669769287,0.0,-0.010325685143470764
810.0,754.0,4.949,-0.6126,7.9005,-0.0289,0.0289,-0.1133,-1.5651553089595218,0.0,2.1344146728515625,-1.7239649295806885,-0.0,2.1739706993103027,4.2541515070148925,-0.0,0.2866435647010803,-1.5000737349139612,0.0,-0.023589536547660828,0.7492625713348389,-0.0,0.00031046790536493063,0.8029537200927734,0.0,0.014793209731578827
810.0,754.0,4.949,-0.6126,7.9005,-0.0289,0.0289,-0.1133,-1.56519546060402,0.0,2.1453332901000977,-1.7239246368408203,-0.0,2.195366859436035,4.254134817714355,-0.0,0.28482481837272644,-1.5001829306231897,0.0,-0.022537395358085632,0.7492865324020386,-0.0,-0.014178285375237465,0.8029213547706604,0.0,-0.013530516996979713
810.0,754.0,4.949,-0.6126,7.9005,-0.0289,0.0289,-0.1133,-1.5652437897263844,0.0,2.13116455078125,-1.7239526510238647,-0.0,2.189199447631836,4.254167242641113,-0.0,0.28700461983680725,-1.500134293233053,0.0,-0.02166682854294777,0.749270498752594,-0.0,-0.012998114340007305,0.8029375672340393,0.0,0.013339661993086338
810.0,754.0,4.949,-0.6126,7.9005,-0.0289,0.0289,-0.1133,-1.5652396644330402,0.0,2.128070831298828,-1.723948359489441,-0.0,2.173875331878662,4.254155321712158,-0.0,0.2932125926017761,-1.5001385847674769,0.0,-0.017866749316453934,0.7492145299911499,-0.0,-0.008590194396674633,0.8029335737228394,0.0,0.010585783049464226
810.0,754.0,4.949,-0.6126,7.9005,-0.0289,0.0289,-0.1133,-1.5651913679069658,0.0,2.1510231494903564,-1.7239681482315063,-0.0,2.2162957191467285,4.254126711482666,-0.0,0.2804712951183319,-1.5001423994647425,0.0,-0.0069930776953697205,0.749286413192749,-0.0,-0.0070188469253480434,0.8029938340187073,0.0,-0.04365364462137222
810.0,754.0,4.949,-0.6126,7.9005,-0.0289,0.0289,-0.1133,-1.565227620103844,0.0,2.1409835815429688,-1.7239567041397095,-0.0,2.1894400119781494,4.254212065333984,-0.0,0.2873554825782776,-1.5001385847674769,0.0,-0.017073728144168854,0.7492344975471497,-0.0,0.0013007717207074165,0.8029415607452393,0.0,0.049331363290548325
796.0,741.0,4.989,-0.5815,7.8532,-0.0403,0.0232,-0.1119,-1.5652037409930308,0.0,2.2027931213378906,-1.724005103111267,-0.0,2.1936252117156982,4.2541515070148925,-0.0,0.28868603706359863,-1.500122372304098,0.0,-0.015472138300538063,0.7493143677711487,-0.0,-0.003959698136895895,0.8029858469963074,0.0,0.018976565450429916
796.0,741.0,4.989,-0.5815,7.8532,-0.0403,0.0232,-0.1119,-1.5651831326870997,0.0,2.1488142013549805,-1.7239723205566406,-0.0,2.211165428161621,4.254187746638916,-0.0,0.29139530658721924,-1.5000904242144983,0.0,-0.005332500673830509,0.749286413192749,-0.0,0.0016246252926066518,0.8029493689537048,0.0,0.021363044157624245
796.0,741.0,4.989,-0.5815,7.8532,-0.0403,0.0232,-0.1119,-1.5652075333385547,0.0,2.1177926063537598,-1.724021553993225,-0.0,2.183774709701538,4.254183455104492,-0.0,0.28580302000045776,-1.5001180807696741,0.0,-0.005882417317479849,0.7492743730545044,-0.0,-0.0046555534936487675,0.8029817938804626,0.0,-0.0035624755546450615
796.0,741.0,4.989,-0.5815,7.8532,-0.0403,0.0232,-0.1119,-1.5652157401530822,0.0,2.176372528076172,-1.7239608764648438,-0.0,2.1878743171691895,4.254195852870605,-0.0,0.28518691658973694,-1.5001423994647425,0.0,-0.007283903658390045,0.7492824196815491,-0.0,0.01010774727910757,0.8029375076293945,0.0,-0.03681579604744911
796.0,741.0,4.989,-0.5815,7.8532,-0.0403,0.0232,-0.1119,-1.5652033917470654,0.0,2.1761488914489746,-1.724005103111267,-0.0,2.217562437057495,4.254179163570068,-0.0,0.2782020568847656,-1.500134293233053,0.0,-0.019099939614534378,0.7492785453796387,-0.0,-0.016967929899692535,0.8029575347900391,0.0,0.04022602364420891
796.0,741.0,4.989,-0.5815,7.8532,-0.0403,0.0232,-0.1119,-1.5652437897263844,0.0,2.149322986602783,-1.724029779434204,-0.0,2.130181074142456,4.254159613246582,-0.0,0.2879098951816559,-1.5001056830035608,0.0,-0.009970124810934067,0.7492344379425049,-0.0,-0.013790002092719078,0.8029776811599731,0.0,-0.03302964195609093
796.0,741.0,4.989,-0.5815,7.8532,-0.0403,0.0232,-0.1119,-1.5652597996271034,0.0,2.1543869972229004,-1.7239689826965332,-0.0,2.2023093700408936,4.254199667567871,-0.0,0.27974116802215576,-1.5000975767718714,0.0,-0.0082676587626338,0.7492265105247498,-0.0,-0.011920779943466187,0.8029135465621948,0.0,0.029672671109437943
796.0,741.0,4.989,-0.5815,7.8532,-0.0403,0.0232,-0.1119,-1.565211610203125,0.0,2.195119619369507,-1.7240052223205566,-0.0,2.2122323513031006,4.254130526179932,-0.0,0.2772379517555237,-1.5001018683062952,0.0,-0.013297556899487972,0.7492825388908386,-0.0,-0.0021030809730291367,0.8029415607452393,0.0,0.026606187224388123
796.0,741.0,4.989,-0.5815,7.8532,-0.0403,0.0232,-0.1119,-1.565227620103844,0.0,2.1726608276367188,-1.7240371704101562,-0.0,2.192441701889038,4.254175348872803,-0.0,0.2741032540798187,-1.500122372304098,0.0,-0.008158110082149506,0.749302327632904,-0.0,-0.005289421882480383,0.802945613861084,0.0,0.022065285593271255
796.0,741.0,4.989,-0.5815,7.8532,-0.0403,0.0232,-0.1119,-1.56519539913673,0.0,2.133387327194214,-1.723996877670288,-0.0,2.1511964797973633,4.254163904781006,-0.0,0.2898481488227844,-1.5001385847674769,0.0,-0.018610697239637375,0.749274492263794,-0.0,0.00522618368268013,0.8029695749282837,0.0,-0.001315005123615265
845.0,757.0,4.9747,-0.5874,7.7605,-0.0411,0.0295,-0.1217,-1.5652358436821778,0.0,2.123818874359131,-1.7240010499954224,-0.0,2.1781303882598877,4.254147215480469,-0.0,0.2915964722633362,-1.5001180807696741,0.0,-0.018763920292258263,0.7492706179618835,-0.0,-0.008098173886537552,0.8029335737228394,0.0,0.018059788271784782
845.0,757.0,4.9747,-0.5874,7.7605,-0.0411,0.0295,-0.1217,-1.565215715473034,0.0,2.158041477203369,-1.7240009307861328,-0.0,2.149272918701172,4.254155321712158,-0.0,0.3149167001247406,-1.5001586119281214,0.0,-0.02489336021244526,0.7492225170135498,-0.0,0.001128047239035368,0.8029736280441284,0.0,0.0063136606477200985
845.0,757.0,4.9747,-0.5874,7.7605,-0.0411,0.0295,-0.1217,-1.5652153126760204,0.0,2.167778253555298,-1.7239928245544434,-0.0,2.1634485721588135,4.254203482265137,-0.0,0.2960122227668762,-1.5001543203936976,0.0,-0.01809411123394966,0.749330461025238,-0.0,-0.003369281068444252,0.8029817938804626,0.0,-0.06512320786714554
845.0,757.0,4.9747,-0.5874,7.7605,-0.0411,0.0295,-0.1217,-1.5652597996271034,0.0,2.1280715465545654,-1.724013328552246,-0.0,2.164489269256592,4.254155321712158,-0.0,0.2819273769855499,-1.500122372304098,0.0,-0.02095811441540718,0.7492666244506836,-0.0,-0.009873335249722004,0.802945613861084,0.0,-0.021438591182231903
845.0,757.0,4.9747,-0.5874,7.7605,-0.0411,0.0295,-0.1217,-1.5651831326870997,0.0,2.131093740463257,-1.7239887714385986,-0.0,2.1672191619873047,4.254163904781006,-0.0,0.2865876853466034,-1.5001018683062952,0.0,-0.009287288412451744,0.7493023872375488,-0.0,0.000991050386801362,0.8029938340187073,0.0,0.02216368168592453
845.0,757.0,4.9747,-0.5874,7.7605,-0.0411,0.0295,-0.1217,-1.5651913511431594,0.0,2.163233757019043,-1.7239969968795776,-0.0,2.1642467975616455,4.254147215480469,-0.0,0.2919657230377197,-1.500106159840719,0.0,-0.02193484641611576,0.7493022680282593,-0.0,-0.009665784426033497,0.802985668182373,0.0,0.03406894952058792
845.0,757.0,4.9747,-0.5874,7.7605,-0.0411,0.0295,-0.1217,-1.56521162650127,0.0,2.199446678161621,-1.7239360809326172,-0.0,2.1691904067993164,4.254155321712158,-0.0,0.30545270442962646,-1.5001543203936976,0.0,-0.026184357702732086,0.749290406703949,-0.0,-0.015071237459778786,0.8029053807258606,0.0,0.034183528274297714
845.0,757.0,4.9747,-0.5874,7.7605,-0.0411,0.0295,-0.1217,-1.5652397012202819,0.0,2.1800637245178223,-1.7239606380462646,-0.0,2.1512908935546875,4.25413100301709,-0.0,0.2913398742675781,-1.5000975767718714,0.0,-0.018322579562664032,0.74924236536026,-0.0,-0.018220286816358566,0.8029534816741943,0.0,-0.01754194125533104
845.0,757.0,4.9747,-0.5874,7.7605,-0.0411,0.0295,-0.1217,-1.565219869637378,0.0,2.1691458225250244,-1.7240175008773804,-0.0,2.2219526767730713,4.254215403194092,-0.0,0.2744818329811096,-1.500134293233053,0.0,-0.011138146743178368,0.7492067217826843,-0.0,0.003105887910351157,0.802985668182373,0.0,-0.014028538018465042
845.0,757.0,4.9747,-0.5874,7.7605,-0.0411,0.0295,-0.1217,-1.5652515481090923,0.0,2.152055263519287,-1.7240175008773804,-0.0,2.146376132965088,4.254158659572266,-0.0,0.28358110785484314,-1.5001304785357874,0.0,-0.005888953804969788,0.7492066025733948,-0.0,0.005075112916529179,0.8029415607452393,0.0,-0.008329865522682667
845.0,757.0,4.9747,-0.5874,7.7605,-0.0411,0.0295,-0.1217,-1.5651834083585818,0.0,2.134279251098633,-1.7239844799041748,-0.0,2.1446785926818848,4.254155321712158,-0.0,0.283699631690979,-1.500134293233053,0.0,-0.025425486266613007,0.7492705583572388,-0.0,0.008876957930624485,0.8029534816741943,0.0,-0.010076449252665043
777.0,716.0,5.0195,-0.5785,7.7982,-0.0402,0.0284,-0.1179,-1.5652557027390976,0.0,2.16623592376709,-1.7239928245544434,-0.0,2.195685863494873,4.254199667567871,-0.0,0.27799296379089355,-1.500150505696432,0.0,-0.004161016084253788,0.7493022680282593,-0.0,0.002980615012347698,0.8029135465621948,0.0,0.012859293259680271
777.0,716.0,5.0195,-0.5785,7.7982,-0.0402,0.0284,-0.1179,-1.565227620103844,0.0,2.1461596488952637,-1.724013328552246,-0.0,2.170517683029175,4.254155321712158,-0.0,0.2782691717147827,-1.5001586119281214,0.0,-0.032973513007164,0.7492384314537048,-0.0,-0.012923701666295528,0.8029295206069946,0.0,-0.003141986671835184
777.0,716.0,5.0195,-0.5785,7.7982,-0.0402,0.0284,-0.1179,-1.5652355712703248,0.0,2.1853227615356445,-1.7239606380462646,-0.0,2.18865704536438,4.254203482265137,-0.0,0.2859758138656616,-1.5001018683062952,0.0,-0.013505036942660809,0.7492586374282837,-0.0,-0.010831677354872227,0.8030018210411072,0.0,-0.009839565493166447
777.0,716.0,5.0195,-0.5785,7.7982,-0.0402,0.0284,-0.1179,-1.5651954401149233,0.0,2.1670079231262207,-1.7239288091659546,-0.0,2.1693668365478516,4.254134817714355,-0.0,0.2829972803592682,-1.5001300016986292,0.0,-0.010492389090359211,0.7492665648460388,-0.0,0.0021027643233537674,0.8029534816741943,0.0,-0.0073000406846404076
777.0,716.0,5.0195,-0.5785,7.7982,-0.0402,0.0284,-0.1179,-1.5652075459114094,0.0,2.1002137660980225,-1.7240175008773804,-0.0,2.2028069496154785,4.254159613246582,-0.0,0.27692630887031555,-1.5001180807696741,0.0,-0.008849197998642921,0.749286413192749,-0.0,-0.013899136334657669,0.8029534816741943,0.0,-0.0052491724491119385
777.0,716.0,5.0195,-0.5785,7.7982,-0.0402,0.0284,-0.1179,-1.5652193886092682,0.0,2.140958786010742,-1.723996877670288,-0.0,2.1798088550567627,4.254147215480469,-0.0,0.2786347270011902,-1.5001099745379847,0.0,-0.012368218973279,0.7493264079093933,-0.0,-0.0018143024062737823,0.802945613861084,0.0,0.057315126061439514
777.0,716.0,5.0195,-0.5785,7.7982,-0.0402,0.0284,-0.1179,-1.565231482298561,0.0,2.1563706398010254,-1.7239526510238647,-0.0,2.2081778049468994,4.254159613246582,-0.0,0.29037994146347046,-1.500122372304098,0.0,-0.011624401435256004,0.7492384314537048,-0.0,-0.0029365962836891413,0.802945613861084,0.0,0.022959962487220764
777.0,716.0,5.0195,-0.5785,7.7982,-0.0402,0.0284,-0.1179,-1.5652759054540475,0.0,2.18440580368042,-1.7240289449691772,-0.0,2.182954788208008,4.254199667567871,-0.0,0.2963413894176483,-1.500150505696432,0.0,-0.014512184076011181,0.7493181824684143,-0.0,0.002135814633220434,0.8029695749282837,0.0,0.01589546911418438
777.0,716.0,5.0195,-0.5785,7.7982,-0.0402,0.0284,-0.1179,-1.5652276079966505,0.0,2.101790428161621,-1.72398042678833,-0.0,2.1969034671783447,4.254119082088135,-0.0,0.294759601354599,-1.5001385847674769,0.0,-0.01359940879046917,0.7493101954460144,-0.0,-0.008514328859746456,0.8029496669769287,0.0,0.017618328332901
777.0,716.0,5.0195,-0.5785,7.7982,-0.0402,0.0284,-0.1179,-1.5651710515706618,0.0,2.1901357173919678,-1.7240331172943115,-0.0,2.1581883430480957,4.254171057338379,-0.0,0.2866847515106201,-1.5001018683062952,0.0,-0.01570541225373745,0.7492625713348389,-0.0,-0.0016151275485754013,0.8029736280441284,0.0,0.0017055664211511612
777.0,716.0,5.0195,-0.5785,7.7982,-0.0402,0.0284,-0.1179,-1.5652317495881398,0.0,2.165086030960083,-1.7239567041397095,-0.0,2.1961770057678223,4.254147215480469,-0.0,0.2738446891307831,-1.500134293233053,0.0,-0.019046619534492493,0.7492745518684387,-0.0,-0.008077968843281269,0.802997887134552,0.0,0.016492685303092003
830.0,690.0,4.986,-0.5928,7.867,-0.0382,0.0255,-0.1165,-1.5652235311320801,0.0,2.1650891304016113,-1.7239328622817993,-0.0,2.192483901977539,4.254166765803955,-0.0,0.27962130308151245,-1.5000904242144983,0.0,-0.003049134975299239,0.7492546439170837,-0.0,-0.01705818995833397,0.8029899597167969,0.0,-0.008588014170527458
830.0,690.0,4.986,-0.5928,7.867,-0.0382,0.0255,-0.1165,-1.5652396970293303,0.0,2.1436831951141357,-1.7240009307861328,-0.0,2.1728646755218506,4.254195376033447,-0.0,0.29433703422546387,-1.500162426625387,0.0,-0.020173490047454834,0.7492983937263489,-0.0,-0.011060494929552078,0.8030018210411072,0.0,-0.004685814958065748
830.0,690.0,4.986,-0.5928,7.867,-0.0382,0.0255,-0.1165,-1.5651954484968265,0.0,2.143535852432251,-1.7239689826965332,-0.0,2.2089309692382812,4.254119082088135,-0.0,0.2879719138145447,-1.5001099745379847,0.0,-0.024771414697170258,0.7492586374282837,-0.0,-0.007393810898065567,0.8030180931091309,0.0,-0.0021828189492225647
830.0,690.0,4.986,-0.5928,7.867,-0.0382,0.0255,-0.1165,-1.5652235311320801,0.0,2.1472134590148926,-1.7240092754364014,-0.0,2.2017908096313477,4.254166765803955,-0.0,0.2912880778312683,-1.5001056830035608,0.0,-0.018986776471138,0.7492586374282837,-0.0,0.001959367422387004,0.8029415607452393,0.0,0.020039528608322144
830.0,690.0,4.986,-0.5928,7.867,-0.0382,0.0255,-0.1165,-1.5652193765020748,0.0,2.147944450378418,-1.7239608764648438,-0.0,2.1833720207214355,4.254134817714355,-0.0,0.277479887008667,-1.500150505696432,0.0,-0.013243207708001137,0.7492226362228394,-0.0,0.0005326035898178816,0.8029696941375732,0.0,-0.005368831567466259
830.0,690.0,4.986,-0.5928,7.867,-0.0382,0.0255,-0.1165,-1.5652478591403742,0.0,2.173483371734619,-1.72398042678833,-0.0,2.2045905590057373,4.254195852870605,-0.0,0.30255836248397827,-1.500122372304098,0.0,-0.018762458115816116,0.7492705583572388,-0.0,0.005401154980063438,0.802945613861084,0.0,0.006893925368785858
830.0,690.0,4.986,-0.5928,7.867,-0.0382,0.0255,-0.1165,-1.56521162650127,0.0,2.170807361602783,-1.7239887714385986,-0.0,2.189425468444824,4.254187746638916,-0.0,0.28361964225769043,-1.5001423994647425,0.0,-0.024679403752088547,0.74924635887146,-0.0,0.00125834159553051,0.8029094934463501,0.0,-0.009296867996454239
830.0,690.0,4.986,-0.5928,7.867,-0.0382,0.0255,-0.1165,-1.565203399197646,0.0,2.1521379947662354,-1.724032998085022,-0.0,2.186542510986328,4.254167242641113,-0.0,0.28650516271591187,-1.5001385847674769,0.0,-0.0172688327729702,0.7492384910583496,-0.0,-0.014707306399941444,0.8029375672340393,0.0,0.0009688319405540824
830.0,690.0,4.986,-0.5928,7.867,-0.0382,0.0255,-0.1165,-1.5652193890749295,0.0,2.1557211875915527,-1.7240175008773804,-0.0,2.1817421913146973,4.254191561336182,-0.0,0.2780500650405884,-1.5001385847674769,0.0,-0.022649165242910385,0.749274492263794,-0.0,-0.0088433176279068,0.802997887134552,0.0,0.02167508378624916
830.0,690.0,4.986,-0.5928,7.867,-0.0382,0.0255,-0.1165,-1.5651913842051108,0.0,2.1093661785125732,-1.7239689826965332,-0.0,2.1723310947418213,4.254183455104492,-0.0,0.28736722469329834,-1.5001018683062952,0.0,-0.011344416067004204,0.7492903470993042,-0.0,-0.011898739263415337,0.8029736280441284,0.0,0.05643602833151817
830.0,690.0,4.986,-0.5928,7.867,-0.0382,0.0255,-0.1165,-1.5652033833651622,0.0,2.1757736206054688,-1.7239763736724854,-0.0,2.1684861183166504,4.254171057338379,-0.0,0.2898348271846771,-1.500134293233053,0.0,-0.018947402015328407,0.7492705583572388,-0.0,-0.007893338799476624,0.8030019402503967,0.0,0.027618572115898132
828.0,786.0,4.9795,-0.609,7.9053,-0.0292,0.009,-0.1098,-1.5652153126760204,0.0,2.108708381652832,-1.7239887714385986,-0.0,2.175891399383545,4.254187746638916,-0.0,0.2812332808971405,-1.500122372304098,0.0,-0.013712937012314796,0.7493184804916382,-0.0,-0.013135666027665138,0.802965521812439,0.0,-0.022210724651813507
828.0,786.0,4.9795,-0.609,7.9053,-0.0292,0.009,-0.1098,-1.56519549320031,0.0,2.1367552280426025,-1.7239402532577515,-0.0,2.202925443649292,4.254162951106689,-0.0,0.28756311535835266,-1.5001385847674769,0.0,-0.005308731459081173,0.7492586374282837,-0.0,0.002462076721712947,0.8029817938804626,0.0,-0.027652638033032417
828.0,786.0,4.9795,-0.609,7.9053,-0.0292,0.009,-0.1098,-1.5652157196639855,0.0,2.119084596633911,-1.723948359489441,-0.0,2.2047598361968994,4.254155321712158,-0.0,0.28248292207717896,-1.500122372304098,0.0,-0.01653154566884041,0.7492905259132385,-0.0,0.0013834097189828753,0.802945613861084,0.0,-0.014348110184073448
828.0,786.0,4.9795,-0.609,7.9053,-0.0292,0.009,-0.1098,-1.5652478917366643,0.0,2.172515630722046,-1.724005103111267,-0.0,2.1985843181610107,4.254166765803955,-0.0,0.2924443483352661,-1.5001099745379847,0.0,-0.014276722446084023,0.7492305040359497,-0.0,-0.012257182039320469,0.8029776811599731,0.0,-0.011976029723882675
828.0,786.0,4.9795,-0.609,7.9053,-0.0292,0.009,-0.1098,-1.5652556212483724,0.0,2.1811954975128174,-1.7239763736724854,-0.0,2.172269344329834,4.254126711482666,-0.0,0.2763146460056305,-1.5001142660724085,0.0,-0.004873589612543583,0.749197781085968,-0.0,-0.008873950690031052,0.8029175996780396,0.0,-0.016225382685661316
828.0,786.0,4.9795,-0.609,7.9053,-0.0292,0.009,-0.1098,-1.565223522750177,0.0,2.095273494720459,-1.7239844799041748,-0.0,2.19240403175354,4.2542077737995605,-0.0,0.2927060127258301,-1.5001300016986292,0.0,-0.008349761366844177,0.7493063807487488,-0.0,-0.006768939085304737,0.8029656410217285,0.0,0.022590437904000282
828.0,786.0,4.9795,-0.609,7.9053,-0.0292,0.009,-0.1098,-1.5652758891559024,0.0,2.181532382965088,-1.7239845991134644,-0.0,2.1601619720458984,4.254134817714355,-0.0,0.29297876358032227,-1.5001586119281214,0.0,-0.01266242004930973,0.7492823600769043,-0.0,-0.01087733544409275,0.8029496669769287,0.0,-0.055675674229860306
828.0,786.0,4.9795,-0.609,7.9053,-0.0292,0.009,-0.1098,-1.5652193890749295,0.0,2.124666213989258,-1.723988652229309,-0.0,2.17553448677063,4.254187746638916,-0.0,0.30267834663391113,-1.500122372304098,0.0,-0.023894809186458588,0.7492421865463257,-0.0,-0.002313479082658887,0.8029216527938843,0.0,0.008652947843074799
828.0,786.0,4.9795,-0.609,7.9053,-0.0292,0.009,-0.1098,-1.5651955425604065,0.0,2.1667895317077637,-1.7240092754364014,-0.0,2.2047064304351807,4.2541515070148925,-0.0,0.286048948764801,-1.500134293233053,0.0,-0.008947986178100109,0.7492421865463257,-0.0,-0.0029696894343942404,0.8029415607452393,0.0,-0.03062729351222515
828.0,786.0,4.9795,-0.609,7.9053,-0.0292,0.009,-0.1098,-1.5652194216712196,0.0,2.161623001098633,-1.7240257263183594,-0.0,2.2021236419677734,4.254183455104492,-0.0,0.30034273862838745,-1.500162426625387,0.0,-0.01493521686643362,0.7493064999580383,-0.0,-0.0024987361393868923,0.8029135465621948,0.0,0.02179292030632496
828.0,786.0,4.9795,-0.609,7.9053,-0.0292,0.009,-0.1098,-1.5652276079966505,0.0,2.1472268104553223,-1.7239681482315063,-0.0,2.1479063034057617,4.254166765803955,-0.0,0.2902671694755554,-1.5001466909991663,0.0,-0.0077035389840602875,0.749254047870636,-0.0,0.00040800729766488075,0.8029615879058838,0.0,-0.007719303015619516
796.0,746.0,4.9119,-0.6221,8.0178,-0.0408,0.0237,-0.1237,-1.5652037288858374,0.0,2.1655023097991943,-1.7240256071090698,-0.0,2.238419771194458,4.2542077737995605,-0.0,0.2857048511505127,-1.5001423994647425,0.0,-0.01392638310790062,0.7492584586143494,-0.0,-0.005919656716287136,0.8029656410217285,0.0,-0.03177531436085701
796.0,746.0,4.9119,-0.6221,8.0178,-0.0408,0.0237,-0.1237,-1.5652194216712196,0.0,2.111269950866699,-1.7240289449691772,-0.0,2.163804769515991,4.254158659572266,-0.0,0.2842385172843933,-1.5001180807696741,0.0,-0.008852805010974407,0.7492987513542175,-0.0,-0.016239628195762634,0.8029575347900391,0.0,0.046991899609565735
796.0,746.0,4.9119,-0.6221,8.0178,-0.0408,0.0237,-0.1237,-1.5652033996633072,0.0,2.1579010486602783,-1.723948359489441,-0.0,2.199371337890625,4.254195852870605,-0.0,0.27470940351486206,-1.5001018683062952,0.0,-0.017580008134245872,0.7492781281471252,-0.0,-0.006230128929018974,0.8029897212982178,0.0,0.021928858011960983
796.0,746.0,4.9119,-0.6221,8.0178,-0.0408,0.0237,-0.1237,-1.5652638653158029,0.0,2.1050522327423096,-1.72398042678833,-0.0,2.1934380531311035,4.254195376033447,-0.0,0.29001861810684204,-1.5001018683062952,0.0,-0.013966646045446396,0.749286413192749,-0.0,-0.011879181489348412,0.8029937744140625,0.0,-0.006763210520148277
796.0,746.0,4.9119,-0.6221,8.0178,-0.0408,0.0237,-0.1237,-1.565195476902165,0.0,2.111147403717041,-1.7239928245544434,-0.0,2.1866567134857178,4.254195376033447,-0.0,0.2643047571182251,-1.5001300016986292,0.0,-0.007385591045022011,0.7493146657943726,-0.0,0.0035391710698604584,0.8029375672340393,0.0,-0.018160533159971237
796.0,746.0,4.9119,-0.6221,8.0178,-0.0408,0.0237,-0.1237,-1.565259722792991,0.0,2.180856227874756,-1.7239762544631958,-0.0,2.2191696166992188,4.2541515070148925,-0.0,0.2902029752731323,-1.500150505696432,0.0,-0.0069815535098314285,0.7492703795433044,-0.0,0.001625373843125999,0.8029496669769287,0.0,-0.009990446269512177
796.0,746.0,4.9119,-0.6221,8.0178,-0.0408,0.0237,-0.1237,-1.5652275833166023,0.0,2.1509222984313965,-1.7239731550216675,-0.0,2.198554039001465,4.254147215480469,-0.0,0.28233692049980164,-1.500150505696432,0.0,-0.02157953381538391,0.7492987513542175,-0.0,-0.019786853343248367,0.8029736280441284,0.0,0.0042122057639062405
796.0,746.0,4.9119,-0.6221,8.0178,-0.0408,0.0237,-0.1237,-1.5651831643520673,0.0,2.146554946899414,-1.7239285707473755,-0.0,2.1940886974334717,4.254171057338379,-0.0,0.29353100061416626,-1.500150505696432,0.0,-0.004029424861073494,0.749286413192749,-0.0,0.0071729193441569805,0.8029695749282837,0.0,-0.03936779126524925
796.0,746.0,4.9119,-0.6221,8.0178,-0.0408,0.0237,-0.1237,-1.5652276000804086,0.0,2.13966703414917,-1.7240173816680908,-0.0,2.1457254886627197,4.254195376033447,-0.0,0.2976992130279541,-1.500134293233053,0.0,-0.013686221092939377,0.7492823600769043,-0.0,-0.009176991879940033,0.8029577732086182,0.0,0.004707246087491512
796.0,746.0,4.9119,-0.6221,8.0178,-0.0408,0.0237,-0.1237,-1.5651913753575464,0.0,2.1981306076049805,-1.7240009307861328,-0.0,2.1808929443359375,4.254199667567871,-0.0,0.28943631052970886,-1.500122372304098,0.0,-0.02239736169576645,0.7492138743400574,-0.0,0.003237671684473753,0.8029415607452393,0.0,0.004572889767587185
796.0,746.0,4.9119,-0.6221,8.0178,-0.0408,0.0237,-0.1237,-1.5652115771411736,0.0,2.157166004180908,-1.724032998085022,-0.0,2.1425819396972656,4.254212065333984,-0.0,0.28015196323394775,-1.5001381079303187,0.0,-0.03134401887655258,0.749282717704773,-0.0,-0.01399617362767458,0.8029453158378601,0.0,-0.046881381422281265
832.0,728.0,4.9962,-0.5539,7.8299,-0.0399,0.0244,-0.1176,-1.56519132599745,0.0,2.1353583335876465,-1.7239689826965332,-0.0,2.168734312057495,4.254187746638916,-0.0,0.29177558422088623,-1.500134293233053,0.0,-0.021702485159039497,0.7492945790290833,-0.0,-0.01193948183208704,0.8029775619506836,0.0006710197776556015,-0.04362542927265167
832.0,728.0,4.9962,-0.5539,7.8299,-0.0399,0.0244,-0.1176,-1.565211610203125,0.0,2.15905499458313,-1.7239608764648438,-0.0,2.1653733253479004,4.254130526179932,-0.0,0.28571411967277527,-1.5001142660724085,0.0,-0.015089301392436028,0.7493147850036621,-0.0,0.002774943131953478,0.8029412031173706,0.0006878423155285418,0.018191678449511528
832.0,728.0,4.9962,-0.5539,7.8299,-0.0399,0.0244,-0.1176,-1.5652157280458887,0.0,2.153801441192627,-1.7239731550216675,-0.0,2.155085325241089,4.254183455104492,-0.0,0.28792035579681396,-1.500146214162008,0.0,-0.023416314274072647,0.7492983341217041,-0.0,0.005273762624710798,0.8030018210411072,0.0006238999776542187,0.0021990486420691013
832.0,728.0,4.9962,-0.5539,7.8299,-0.0399,0.0244,-0.1176,-1.5652276163785537,0.0,2.144911289215088,-1.723988652229309,-0.0,2.143437147140503,4.254179163570068,-0.0,0.29286110401153564,-1.5001419226275843,0.0,-0.019347000867128372,0.7492461204528809,-0.0,-0.007436109706759453,0.8029816150665283,0.0004980481462553144,0.006817292422056198
832.0,728.0,4.9962,-0.5539,7.8299,-0.0399,0.0244,-0.1176,-1.5651832132465024,0.0,2.104006290435791,-1.7239607572555542,-0.0,2.2136967182159424,4.254147215480469,-0.0,0.29238200187683105,-1.5001142660724085,0.0,-0.016957594081759453,0.7493024468421936,-0.0,0.0009448092896491289,0.8030297756195068,0.0003783716820180416,0.0016529255080968142
832.0,728.0,4.9962,-0.5539,7.8299,-0.0399,0.0244,-0.1176,-1.5652157196639855,0.0,2.1441588401794434,-1.723948359489441,-0.0,2.18515944480896,4.254171057338379,-0.0,0.27779996395111084,-1.5001423994647425,0.0,-0.01578982174396515,0.7492905259132385,-0.0,-0.004350070375949144,0.8029053807258606,0.00030507284100167453,0.04324152320623398
832.0,728.0,4.9962,-0.5539,7.8299,-0.0399,0.0244,-0.1176,-1.5651995863630255,0.0,2.134899616241455,-1.724032998085022,-0.0,2.17012357711792,4.254203959102295,-0.0,0.27821505069732666,-1.500134293233053,0.0,-0.009127933531999588,0.749290943145752,-0.0,-0.011864260770380497,0.8029615879058838,0.00024560309248045087,0.014170398935675621
832.0,728.0,4.9962,-0.5539,7.8299,-0.0399,0.0244,-0.1176,-1.5651751568405707,0.0,2.1534881591796875,-1.723928689956665,-0.0,2.185305118560791,4.254203482265137,-0.0,0.2987968921661377,-1.500134293233053,0.0,-0.008784228935837746,0.7492297887802124,-0.0,-0.010442839004099369,0.8029857873916626,0.000212469749385491,0.0074483840726315975
832.0,728.0,4.9962,-0.5539,7.8299,-0.0399,0.0244,-0.1176,-1.5652193890749295,0.0,2.1710214614868164,-1.724009394645691,-0.0,2.185915946960449,4.254175348872803,-0.0,0.29328539967536926,-1.500190560017721,0.0,-0.0019529007840901613,0.7492179870605469,-0.0,0.001082681235857308,0.802985668182373,0.00018721372180152684,0.004168418701738119
832.0,728.0,4.9962,-0.5539,7.8299,-0.0399,0.0244,-0.1176,-1.565191631005593,0.0,2.1812350749969482,-1.7239689826965332,-0.0,2.186337947845459,4.254154844875,-0.0,0.2913875877857208,-1.5001300016986292,0.0,-0.013031329959630966,0.7492949962615967,-0.0,-0.005342905409634113,0.802985668182373,0.00016732439689803869,-0.023059487342834473
832.0,728.0,4.9962,-0.5539,7.8299,-0.0399,0.0244,-0.1176,-1.5652119431509455,0.0,2.1783828735351562,-1.7239689826965332,-0.0,2.151638984680176,4.254175348872803,-0.0,0.29521018266677856,-1.5001581350909632,0.0,-0.009177002124488354,0.7492262125015259,-0.0,0.0025432338006794453,0.8030379414558411,0.00015125542995519936,-0.0023218709975481033
834.0,720.0,4.8359,-1.1462,8.1284,-0.0226,0.0322,-0.0977,-1.5651313567398866,0.00045909135951660573,2.162137031555176,-1.723945140838623,-0.0,2.192362070083618,4.254195376033447,-0.0,0.2881951928138733,-1.5001781622516077,0.0,-0.017339669167995453,0.7492704391479492,-0.0,-0.013480877503752708,0.8029977083206177,0.0001577131188241765,-0.059778790920972824
834.0,720.0,4.8359,-1.1462,8.1284,-0.0226,0.0322,-0.0977,-1.5651995700648804,0.0004653222858905792,2.1918818950653076,-1.7239731550216675,-0.0,2.15277361869812,4.254211111659668,-0.0,0.2938212752342224,-1.5001581350909632,0.0,-0.010654458776116371,0.7492823600769043,-0.0,-0.0015387312741950154,0.8029858469963074,0.0001231915084645152,-0.05565597489476204
834.0,720.0,4.8359,-1.1462,8.1284,-0.0226,0.0322,-0.0977,-1.5651875299266358,0.0005617410060949624,2.2000887393951416,-1.7239689826965332,-0.0,2.138634204864502,4.254223032588623,-0.0,0.2911768853664398,-1.5001381079303187,0.0,-0.019460992887616158,0.7492461800575256,-0.0,0.0010241777636110783,0.8029775619506836,0.00015026648179627955,0.003616034984588623
834.0,720.0,4.8359,-1.1462,8.1284,-0.0226,0.0322,-0.0977,-1.5651754897883912,0.0003695168124977499,2.173638343811035,-1.723936915397644,-0.0,2.232813835144043,4.254211111659668,-0.0,0.2975049614906311,-1.5001338163958948,0.0,-0.010045081377029419,0.7492945790290833,-0.0,-0.009964877739548683,0.8030097484588623,0.00032572224154137075,-0.08436237275600433
834.0,720.0,4.8359,-1.1462,8.1284,-0.0226,0.0322,-0.0977,-1.565191659876593,0.0002900997060351074,2.1720008850097656,-1.7239410877227783,-0.0,2.213590621948242,4.254143400783203,-0.0,0.2857271432876587,-1.5001662413226526,0.0,-0.0315408930182457,0.7492781281471252,-0.0,-0.005430502817034721,0.8030216693878174,0.00026822430663742125,0.013835798017680645
834.0,720.0,4.8359,-1.1462,8.1284,-0.0226,0.0322,-0.0977,-1.5652037000148376,0.00020060778479091823,2.164547920227051,-1.723948359489441,-0.0,2.1428732872009277,4.254158659572266,-0.0,0.2769480347633362,-1.5001538435565394,0.0,-0.017416978254914284,0.7492502927780151,-0.0,-0.021153701469302177,0.8030056953430176,0.00021658057812601328,-0.018968595191836357
834.0,720.0,4.8359,-1.1462,8.1284,-0.0226,0.0322,-0.0977,-1.565179578760155,0.00010543868120294064,2.1900956630706787,-1.7239689826965332,5.6424029025947675e-05,2.2155826091766357,4.254187746638916,-0.0,0.28760942816734314,-1.5001261870013636,0.0,-0.03185843303799629,0.7492625713348389,-0.0,-0.00035295996349304914,0.8030018210411072,0.00018161465413868427,0.04003308340907097
834.0,720.0,4.8359,-1.1462,8.1284,-0.0226,0.0322,-0.0977,-1.565191659876593,-1.704662645352073e-05,2.143450975418091,-1.7239689826965332,5.013745612814091e-05,2.172591209411621,4.254195376033447,-0.0,0.2892867624759674,-1.500134293233053,0.0,-0.007893802598118782,0.7493147850036621,-0.0,0.0047857994213700294,0.8029894232749939,0.00015636974421795458,-0.042357318103313446
834.0,720.0,4.8359,-1.1462,8.1284,-0.0226,0.0322,-0.0977,-1.5651833999766787,-6.21896397206001e-05,2.1516952514648438,-1.7239443063735962,4.5111355575500056e-05,2.175236463546753,4.254163904781006,-0.0,0.2899572253227234,-1.5001581350909632,0.0,-0.004530177917331457,0.7493470907211304,-0.0,-0.003124818205833435,0.8030056953430176,0.00013728701742365956,-0.0279783234000206
834.0,720.0,4.8359,-1.1462,8.1284,-0.0226,0.0322,-0.0977,-1.5651872216588636,-5.463844718178734e-05,2.1621012687683105,-1.7239567041397095,4.100110163562931e-05,2.2095530033111572,4.254159613246582,-0.0,0.2870783805847168,-1.5001385847674769,0.0,-0.007957042194902897,0.7492261528968811,-0.0,-0.0118869012221694,0.8030016422271729,0.0001223554281750694,-0.02086477354168892
834.0,720.0,4.8359,-1.1462,8.1284,-0.0226,0.0322,-0.0977,-1.5651590114324172,-6.473658140748739e-05,2.1629343032836914,-1.7239608764648438,3.7577330658677965e-05,2.1612064838409424,4.254162951106689,-0.0,0.279909610748291,-1.5001581350909632,0.0,-0.008819520473480225,0.7493106126785278,-0.0,-0.002603042870759964,0.8030138611793518,0.00011035321222152561,-0.022250033915042877
828.0,741.0,4.788,-0.6042,7.7904,-0.0545,0.0226,-0.1202,-1.5652239995873352,-8.579432324040681e-05,2.10898494720459,-1.7239649295806885,3.402572110644542e-05,2.196859359741211,4.254171057338379,3.538473538355902e-05,0.2882349491119385,-1.500150505696432,0.0,-0.00351961818523705,0.7492786049842834,-0.0,0.001603307668119669,0.8029813766479492,9.830028284341097e-05,0.017150871455669403
828.0,741.0,4.788,-0.6042,7.7904,-0.0545,0.0226,-0.1202,-1.5652157401530822,-0.00025417961296625435,2.1040754318237305,-1.7239731550216675,3.163383007631637e-05,2.1687841415405273,4.254126711482666,3.2805219234433025e-05,0.2912600338459015,-1.5001142660724085,0.0,-0.0187517199665308,0.7492663264274597,-0.0,-0.004250644706189632,0.8030179142951965,9.04011758393608e-05,0.005449941381812096
828.0,741.0,4.788,-0.6042,7.7904,-0.0545,0.0226,-0.1202,-1.565227620103844,-0.00028578858473338187,2.1305854320526123,-1.7239524126052856,2.9556134904851206e-05,2.1357381343841553,4.254187746638916,2.3048793082125485e-05,0.2932441532611847,-1.5001180807696741,0.0,-0.01789776049554348,0.7493064999580383,-0.0,-0.0017595819663256407,0.802977442741394,8.36772596812807e-05,-0.032325662672519684
828.0,741.0,4.788,-0.6042,7.7904,-0.0545,0.0226,-0.1202,-1.5652235311320801,-0.00044662586878985167,2.142880439758301,-1.7239763736724854,1.3868151654605754e-05,2.196859836578369,4.254147215480469,1.431552300346084e-05,0.2877366244792938,-1.5001142660724085,0.0,-0.00582284526899457,0.7493146657943726,-0.0,-8.32493242342025e-05,0.8029493689537048,7.788430957589298e-05,0.016953397542238235
828.0,741.0,4.788,-0.6042,7.7904,-0.0545,0.0226,-0.1202,-1.5652597996271034,-0.0003836073447018862,2.1254825592041016,-1.723928689956665,1.306224748987006e-05,2.161229372024536,4.254126711482666,1.3459071851684712e-05,0.28957438468933105,-1.5001056830035608,0.0,-0.008926546201109886,0.7492823600769043,-0.0,-0.0030394906643778086,0.8030179142951965,7.284149614861235e-05,0.013767274096608162
828.0,741.0,4.788,-0.6042,7.7904,-0.0545,0.0226,-0.1202,-1.565231482298561,-0.00034841286833398044,2.1560864448547363,-1.7239928245544434,2.467150079610292e-05,2.2054784297943115,4.254187269801758,1.2699422768491786e-05,0.2886401414871216,-1.5001018683062952,0.0,-0.02155490033328533,0.7492823004722595,-0.0,-0.015456531196832657,0.8030098676681519,6.841203867224976e-05,0.008732168935239315
828.0,741.0,4.788,-0.6042,7.7904,-0.0545,0.0226,-0.1202,-1.5652235311320801,-0.00028535135788843036,2.144826889038086,-1.7239731550216675,2.340680111956317e-05,2.167694330215454,4.2541515070148925,1.2020930626022164e-05,0.29496967792510986,-1.5001180807696741,0.0,-0.012539668008685112,0.7493229508399963,-0.0,-0.009479273110628128,0.8030179738998413,6.449039210565388e-05,-0.03184425085783005
828.0,741.0,4.788,-0.6042,7.7904,-0.0545,0.0226,-0.1202,-1.565231482298561,-0.0003500202437862754,2.121809482574463,-1.7239607572555542,1.0988928806909826e-05,2.150938034057617,4.254179163570068,1.9159962505455042e-07,0.29426899552345276,-1.5000699202166956,0.0,-0.012120062485337257,0.7492987513542175,-0.0,0.003021480515599251,0.8029977679252625,6.0178357671247795e-05,0.02031566947698593
828.0,741.0,4.788,-0.6042,7.7904,-0.0545,0.0226,-0.1202,-1.5652513138814648,-0.0027478074189275503,2.20440936088562,-1.7239608764648438,4.166428766438912e-07,2.1702146530151367,4.254163904781006,3.482228611365046e-12,0.28904932737350464,-1.5001347700702112,0.0,-0.02838517166674137,0.7492302060127258,-0.0,-0.014237958006560802,0.8030298352241516,5.712282654712908e-05,0.033279065042734146
828.0,741.0,4.788,-0.6042,7.7904,-0.0545,0.0226,-0.1202,-1.5653594655780871,-0.006794572342187166,2.1429600715637207,-1.7239887714385986,1.3498699906336689e-14,2.223132610321045,4.254155321712158,6.328780042466896e-17,0.2932984232902527,-1.500078026448385,0.0,-0.01695321686565876,0.7492462396621704,-0.0,-0.011287184432148933,0.8029857277870178,5.436255378299393e-05,0.02620386704802513
815.0,741.0,5.4353,-0.6634,7.6253,-0.0447,0.005,-0.1142,-1.5654434298961242,-0.012103923596441746,2.1325523853302,-1.7240092754364014,4.3734080029637975e-22,2.187079429626465,4.254163904781006,1.1502246310911579e-21,0.2927525043487549,-1.5000699202166956,0.0,-0.009108249098062515,0.7492302060127258,-0.0,-0.021040569990873337,0.8029977083206177,5.185677946428768e-05,0.02104593813419342
815.0,741.0,5.4353,-0.6634,7.6253,-0.0447,0.005,-0.1142,-1.5655674671619018,-0.015490958467125893,2.105029821395874,-1.723972201347351,1.4169284772608407e-29,2.1596522331237793,4.25413100301709,2.090476314380628e-26,0.28402429819107056,-1.5000985304461878,0.0,-0.024532990530133247,0.7492339611053467,-0.0,-0.010079829022288322,0.8030056953430176,1.6917574612307362e-05,-0.008009208366274834
815.0,741.0,5.4353,-0.6634,7.6253,-0.0447,0.005,-0.1142,-1.5656869400157412,-0.017959818243980408,2.181483268737793,-1.7240175008773804,-0.0001435629092156887,2.1814632415771484,4.254167719478271,3.799337390586511e-31,0.2839013934135437,-1.5001428763019007,0.0,-0.02692454308271408,0.749286413192749,-0.0,-0.012581360526382923,0.8029734492301941,5.481078915389737e-13,-0.003208210226148367
815.0,741.0,5.4353,-0.6634,7.6253,-0.0447,0.005,-0.1142,-1.5658833051896472,-0.0199184138327837,2.109487533569336,-1.72398042678833,-0.00011572066432563588,2.188765525817871,4.254171057338379,6.905108803724918e-36,0.2921559810638428,-1.500094238911764,0.0,-0.01722567528486252,0.7492585182189941,-0.0,-0.0005510621704161167,0.8029894232749939,1.7758000631993628e-20,-0.012589611113071442
815.0,741.0,5.4353,-0.6634,7.6253,-0.0447,0.005,-0.1142,-1.5660351419686158,-0.02044755592942238,2.1303887367248535,-1.7240052223205566,-6.188690895214677e-05,2.194887399673462,4.254162951106689,1.2549748786800197e-40,0.2892288565635681,-1.5001142660724085,0.0,-0.006976241245865822,0.7492420673370361,-0.0,0.0051168096251785755,0.8030016422271729,5.753366634054447e-28,0.04205772280693054
815.0,741.0,5.4353,-0.6634,7.6253,-0.0447,0.005,-0.1142,-1.566259154384472,-0.01881946623325348,2.145021677017212,-1.7239203453063965,-8.507651250155845e-10,2.2098300457000732,4.254203482265137,0.0006116345175541937,0.2883831262588501,-1.5001423994647425,0.0,-0.005887599196285009,0.7492544054985046,-0.0,-0.006573858205229044,0.8030257225036621,3.2100752611619043e-10,-0.009834522381424904
815.0,741.0,5.4353,-0.6634,7.6253,-0.0447,0.005,-0.1142,-1.5663427564180274,-0.015754472464323044,2.1718099117279053,-1.7239649295806885,-2.7563709418186014e-17,2.2019009590148926,4.254199190730713,0.001009874977171421,0.28051328659057617,-1.5001385847674769,0.0,-0.023971132934093475,0.7493470311164856,-0.0,-0.012715540826320648,0.8030134439468384,0.0017385759856551886,-0.049703337252140045
815.0,741.0,5.4353,-0.6634,7.6253,-0.0447,0.005,-0.1142,-1.566450640825071,-0.012584725394845009,2.1685757637023926,-1.7239649295806885,-8.93029100286928e-25,2.180448055267334,4.2542077737995605,0.0005635556299239397,0.2913447618484497,-1.5000904242144983,0.0,-0.010627035982906818,0.7493188381195068,-0.0,-0.009750432334840298,0.8030819296836853,0.00310354121029377,0.017132766544818878
815.0,741.0,5.4353,-0.6634,7.6253,-0.0447,0.005,-0.1142,-1.5666027332520862,-0.01200300082564354,2.1493587493896484,-1.723940134048462,-9.233439777744934e-05,2.1855759620666504,4.254179163570068,0.0003003078163601458,0.3113025426864624,-1.5001180807696741,0.0,-0.024465851485729218,0.7492823004722595,-0.0,-0.007325645536184311,0.8030897378921509,0.006375500932335854,0.04061966389417648
815.0,741.0,5.4353,-0.6634,7.6253,-0.0447,0.005,-0.1142,-1.56670194704596,-0.01543999183923006,2.144805431365967,-1.723992943763733,-0.0007988593424670398,2.1966586112976074,4.254142923946045,1.5090362467162777e-05,0.2903168201446533,-1.500122372304098,0.0,-0.0143687529489398,0.7493104934692383,-0.0,-0.0005926655139774084,0.803178608417511,0.007571245077997446,-0.013153525069355965
815.0,741.0,5.4353,-0.6634,7.6253,-0.0447,0.005,-0.1142,-1.5668057131445785,-0.020913980901241302,2.1202423572540283,-1.7240372896194458,-0.0007692923536524177,2.139733076095581,4.254179163570068,-0.0001650686899665743,0.28542208671569824,-1.5000818411456507,0.0,-0.00990599486976862,0.7492667436599731,-0.0,0.007201883941888809,0.8032302856445312,0.006351117976009846,0.002201234921813011
848.0,752.0,4.7276,-0.6287,8.3115,-0.0136,0.0023,-0.1669,-1.5670661663501342,-0.023897597566246986,2.069657802581787,-1.7240331172943115,-0.0005170249496586621,2.1215195655822754,4.254155321712158,-0.00013271394709590822,0.27609187364578247,-1.5000618139850062,0.0,-0.0191907100379467,0.7492860555648804,-0.0,-0.006734646391123533,0.8032621741294861,0.004603483714163303,-0.04582700878381729
848.0,752.0,4.7276,-0.6287,8.3115,-0.0136,0.0023,-0.1669,-1.5672501949923863,-0.022692298516631126,2.089005708694458,-1.723972201347351,-0.00038922386011108756,2.1326324939727783,4.254191561336182,-0.00011090334737673402,0.2966648042201996,-1.500110928212301,0.0,-0.019116543233394623,0.7492900490760803,-0.0,0.00014036567881703377,0.8032538890838623,0.0018115153070539236,-0.017919087782502174
848.0,752.0,4.7276,-0.6287,8.3115,-0.0136,0.0023,-0.1669,-1.5674540510265906,-0.019113654270768166,2.08721661567688,-1.7239558696746826,-0.0002973571827169508,2.144198417663574,4.254155321712158,-0.0001226635358761996,0.2783720791339874,-1.5000742117511194,0.0,-0.005143213085830212,0.7492700815200806,-0.0,-0.01428080815821886,0.803305983543396,0.000903619104065001,0.008424289524555206
848.0,752.0,4.7276,-0.6287,8.3115,-0.0136,0.0023,-0.1669,-1.5676420778366555,-0.01663133129477501,2.0799477100372314,-1.7240445613861084,-0.00028580400976352394,2.123643636703491,4.254142923946045,-0.0002533150545787066,0.28110432624816895,-1.500094238911764,0.0,0.0029201325960457325,0.7492179870605469,-0.0,-0.01062850747257471,0.8032941222190857,0.00043825918692164123,-0.0663786381483078
848.0,752.0,4.7276,-0.6287,8.3115,-0.0136,0.0023,-0.1669,-1.5677859469181676,-0.01710306853055954,2.0532984733581543,-1.724025011062622,-0.0002140588330803439,2.083860397338867,4.25413100301709,-0.0006943524349480867,0.27593934535980225,-1.5000985304461878,0.0,0.0037694794591516256,0.7493223547935486,-0.0,-0.008552406914532185,0.8032498359680176,0.000253200123552233,-0.09415200352668762
848.0,752.0,4.7276,-0.6287,8.3115,-0.0136,0.0023,-0.1669,-1.5679294974873592,-0.017570866271853447,2.0128817558288574,-1.7240331172943115,-0.0006237485795281827,2.1158065795898438,4.25413100301709,-0.0006384066073223948,0.26886481046676636,-1.5000818411456507,0.0,0.0017223963513970375,0.7492941617965698,-0.0,-0.009333662688732147,0.8032620549201965,0.00019704400619957596,-0.13597039878368378
848.0,752.0,4.7276,-0.6287,8.3115,-0.0136,0.0023,-0.1669,-1.567976707858481,-0.01779945380985737,1.9636178016662598,-1.7240487337112427,-0.0006534556159749627,2.0670318603515625,4.2541515070148925,-0.0005194727564230561,0.2548268437385559,-1.50006610551943,0.0,0.0024827797897160053,0.7492704391479492,-0.0,0.004870581440627575,0.8032620549201965,0.00016164938278961927,-0.12034209072589874
848.0,752.0,4.7276,-0.6287,8.3115,-0.0136,0.0023,-0.1669,-1.5682255276809265,-0.019631914794445038,1.9705147743225098,-1.7240766286849976,-0.0006152229034341872,2.096670627593994,4.2541515070148925,-0.00040313240606337786,0.2475593090057373,-1.50006610551943,0.0,0.01699359156191349,0.7493184208869934,-0.0,-0.01507110521197319,0.8032338619232178,0.00010277637193212286,-0.13674715161323547
848.0,752.0,4.7276,-0.6287,8.3115,-0.0136,0.0023,-0.1669,-1.5683893354474385,-0.02115374244749546,1.9407316446304321,-1.7241013050079346,-0.0004225749580655247,2.1168975830078125,4.254155321712158,-0.00032934645423665643,0.2590354084968567,-1.5000699202166956,0.0,0.0003871087683364749,0.7493064999580383,-0.0,0.008502273820340633,0.8032218217849731,8.919492393033579e-05,-0.08283206075429916
848.0,752.0,4.7276,-0.6287,8.3115,-0.0136,0.0023,-0.1669,-1.5685206216624756,-0.02542051486670971,1.899860143661499,-1.7240643501281738,-0.0003218181664124131,2.116640329360962,4.254163904781006,-0.000278397579677403,0.2518126368522644,-1.500110928212301,0.0,0.013092409819364548,0.7493388056755066,-0.0,-0.0026279499288648367,0.803257942199707,7.878417090978473e-05,-0.09949147701263428
848.0,752.0,4.7276,-0.6287,8.3115,-0.0136,0.0023,-0.1669,-1.5687885245173057,-0.030547378584742546,1.9698033332824707,-1.7240610122680664,-0.00010818902956089005,2.095318078994751,4.254127188319824,-0.0002041323750745505,0.25553232431411743,-1.5000622908221644,0.0,0.020487911999225616,0.7492983341217041,-0.0,0.011374862864613533,0.8032416701316833,6.875325925648212e-05,-0.14172649383544922
851.0,737.0,5.7368,-0.0287,7.1055,-0.0295,-0.0382,-0.1234,-1.569064751649723,-0.03376712277531624,1.9660077095031738,-1.724008560180664,-4.5380387746263295e-05,2.120482921600342,4.254223509425781,-3.148434552713297e-05,0.2611316442489624,-1.5000861326800745,0.0,0.014720933511853218,0.7493545413017273,-0.0,-0.010595932602882385,0.8032538890838623,-5.06714713992551e-05,-0.15825209021568298
851.0,737.0,5.7368,-0.0287,7.1055,-0.0295,-0.0382,-0.1234,-1.5693445399268349,-0.037634678184986115,1.9424705505371094,-1.724036455154419,-3.652036321000196e-05,2.0881404876708984,4.254218741054199,-2.1475963229988793e-09,0.2649639844894409,-1.5000622908221644,0.0,0.007778426632285118,0.7492703795433044,-0.0,-0.019635867327451706,0.8032137155532837,-6.740263052051887e-05,-0.17171725630760193
851.0,737.0,5.7368,-0.0287,7.1055,-0.0295,-0.0382,-0.1234,-1.5696681712618847,-0.04434489831328392,1.9483349323272705,-1.7240487337112427,-3.704024265971384e-06,2.131570339202881,4.2542030054279785,-3.903149166178087e-14,0.26667964458465576,-1.5000904242144983,0.0,0.011382779106497765,0.7492457628250122,-0.0,-0.00016900191258173436,0.8032622337341309,-7.563935650978237e-05,-0.12193679809570312
851.0,737.0,5.7368,-0.0287,7.1055,-0.0295,-0.0382,-0.1234,-1.5700517679545847,-0.05068833380937576,1.9026681184768677,-1.7240290641784668,-1.200056764030788e-13,2.1518259048461914,4.254171057338379,0.0008347158436663449,0.2762501537799835,-1.5000622908221644,0.0,0.021240364760160446,0.749286413192749,-0.0,-0.005409023258835077,0.8032058477401733,-9.468411735724658e-05,-0.10659144073724747
851.0,737.0,5.7368,-0.0287,7.1055,-0.0295,-0.0382,-0.1234,-1.5704675042400886,-0.0555284284055233,1.9377696514129639,-1.7240208387374878,-3.888030798954094e-21,2.1499850749969482,4.254247351283691,0.0011975583620369434,0.28518858551979065,-1.50006610551943,0.0,0.02560386061668396,0.7493024468421936,-0.0,-0.01633341982960701,0.8032099008560181,-0.00024389391182921827,-0.11338944733142853
851.0,737.0,5.7368,-0.0287,7.1055,-0.0295,-0.0382,-0.1234,-1.5709110699095667,-0.062424905598163605,1.9484193325042725,-1.72398042678833,0.0008177848649211228,2.22821307182312,4.254310770625732,0.0027888305485248566,0.2916221022605896,-1.5000622908221644,8.414868352701887e-05,0.008456471376121044,0.7492261528968811,-0.0,0.00996772013604641,0.8031693696975708,-0.0002405239356448874,-0.11721806973218918
851.0,737.0,5.7368,-0.0287,7.1055,-0.0295,-0.0382,-0.1234,-1.5713988743224085,-0.06722242385149002,1.9565033912658691,-1.723996877670288,0.0007049159030430019,2.2341244220733643,4.2543064790913085,0.0066708833910524845,0.2956434488296509,-1.5000823179828089,7.830208051018417e-05,-0.0015475833788514137,0.749286413192749,-0.0,0.0013370118103921413,0.8032620549201965,-0.0002041492407443002,-0.09001302719116211
851.0,737.0,5.7368,-0.0287,7.1055,-0.0295,-0.0382,-0.1234,-1.5721060238280238,-0.07161027193069458,2.033656358718872,-1.7239928245544434,0.000428798288339749,2.314650535583496,4.25447051107373,0.01776057295501232,0.32209843397140503,-1.5001066366778772,7.203475979622453e-05,0.002270349068567157,0.7492503523826599,-0.0,-0.000899072561878711,0.8032258749008179,-0.0001442334323655814,-0.07247433066368103
851.0,737.0,5.7368,-0.0287,7.1055,-0.0295,-0.0382,-0.1234,-1.5727015934386195,-0.07721324265003204,2.0209333896636963,-1.7239845991134644,0.0003510228416416794,2.288750648498535,4.254581614131592,0.018720779567956924,0.33649519085884094,-1.5000904242144983,5.4615338740404695e-05,-0.000827521551400423,0.7492584586143494,-0.0,-0.00835380982607603,0.8032340407371521,-0.0001269342319574207,-0.09004641324281693
851.0,737.0,5.7368,-0.0287,7.1055,-0.0295,-0.0382,-0.1234,-1.5733205280699671,-0.07758048176765442,2.0166282653808594,-1.7240208387374878,0.0002919499238487333,2.3020102977752686,4.2547008234211425,0.014607503078877926,0.3265278935432434,-1.500049893056051,5.10857134941034e-05,-0.007920346222817898,0.7493147253990173,-0.0,-0.015357641503214836,0.803229808807373,-0.00011406419071136042,-0.11593209207057953
851.0,737.0,5.7368,-0.0287,7.1055,-0.0295,-0.0382,-0.1234,-1.5739690266051234,-0.07646656036376953,2.1075005531311035,-1.7240248918533325,0.00024003528233151883,2.342250108718872,4.254816694850586,0.006265668198466301,0.32875823974609375,-1.5000699202166956,4.83417279610876e-05,-0.007311913184821606,0.7492663264274597,-0.0,-0.006071125157177448,0.8032256960868835,-8.285108197014779e-05,-0.053507741540670395
823.0,702.0,4.5434,-0.7202,7.7097,-0.0431,0.0012,-0.1237,-1.57462801555776,-0.07847945392131805,2.101732015609741,-1.724016547203064,0.000203797229914926,2.3401830196380615,4.254804773921631,0.0008431622991338372,0.334383487701416,-1.500094238911764,4.5877484808443114e-05,-0.013440695591270924,0.7492904663085938,-0.0,0.004940450191497803,0.8032981157302856,-5.6900673371274024e-05,-0.07948565483093262
823.0,702.0,4.5434,-0.7202,7.7097,-0.0431,0.0012,-0.1237,-1.5752150020995082,-0.07943428307771683,2.0714926719665527,-1.7240413427352905,0.00017706640937831253,2.3216195106506348,4.254812403316162,0.0004570049641188234,0.3498513102531433,-1.5001028219806116,4.3652333260979503e-05,-0.0027719580102711916,0.7492704391479492,-0.0,-0.02410324104130268,0.8032661080360413,4.999106749892235e-05,-0.027308452874422073
823.0,702.0,4.5434,-0.7202,7.7097,-0.0431,0.0012,-0.1237,-1.5759197674193324,-0.08029947429895401,2.1362195014953613,-1.7240166664123535,0.00018260949582327157,2.3323774337768555,4.254804773921631,0.0001168672097264789,0.34770476818084717,-1.500049893056051,4.163306948612444e-05,-0.02162742428481579,0.7492544054985046,-0.0,-0.009885678999125957,0.8032415509223938,5.9962352679576725e-05,-0.030004329979419708
823.0,702.0,4.5434,-0.7202,7.7097,-0.0431,0.0012,-0.1237,-1.5766741238036097,-0.08678560703992844,2.1203315258026123,-1.7240084409713745,0.00013644549471791834,2.359466552734375,4.254816694850586,0.00020035493071191013,0.37094980478286743,-1.5000985304461878,1.9514475297910394e-06,-0.04388917237520218,0.7493106126785278,-0.0,-0.005234182346612215,0.8032376170158386,8.01997521193698e-05,-0.00040281168185174465
823.0,702.0,4.5434,-0.7202,7.7097,-0.0431,0.0012,-0.1237,-1.5773941479124964,-0.09157877415418625,2.180645704269409,-1.7240537405014038,0.00019426514336373657,2.369056224822998,4.254889174098633,0.002885861787945032,0.35079365968704224,-1.50006610551943,3.546659493869342e-11,-0.027391232550144196,0.7492781281471252,-0.0,0.0053296322003006935,0.8032899498939514,9.204778325511143e-05,-0.05945683643221855
823.0,702.0,4.5434,-0.7202,7.7097,-0.0431,0.0012,-0.1237,-1.578120847741598,-0.08839721232652664,2.1821746826171875,-1.7239607572555542,0.000758300710003823,2.3549387454986572,4.2548839288898925,0.004982840735465288,0.36844372749328613,-1.5000579992877405,6.445877847562271e-16,-0.029744591563940048,0.7492340207099915,-0.0,-0.009935435838997364,0.8033019304275513,0.00022365007316693664,-0.02208704873919487
823.0,702.0,4.5434,-0.7202,7.7097,-0.0431,0.0012,-0.1237,-1.5787316761412562,-0.08642291277647018,2.1283135414123535,-1.723996877670288,0.0005919260438531637,2.403726816177368,4.25494830190625,0.005457337945699692,0.372600257396698,-1.500094238911764,1.1715064170936596e-20,-0.027346143499016762,0.7492823004722595,-0.0,-0.0036737786140292883,0.8032217621803284,0.00023938575759530067,-0.0019948696717619896
823.0,702.0,4.5434,-0.7202,7.7097,-0.0431,0.0012,-0.1237,-1.5795480213561,-0.09460613876581192,2.1686317920684814,-1.7240092754364014,0.00023593351943418384,2.394810438156128,4.254920168513916,0.002539664739742875,0.3737075924873352,-1.5000861326800745,2.1291550581951085e-25,-0.029123812913894653,0.7492584586143494,-0.0,-0.012916642241179943,0.8032617568969727,0.0002706964442040771,0.0001883469521999359
823.0,702.0,4.5434,-0.7202,7.7097,-0.0431,0.0012,-0.1237,-1.5802308521666468,-0.10116948932409286,2.1607344150543213,-1.724021553993225,0.00022378373250830919,2.3802688121795654,4.2549401956745605,0.0010035722516477108,0.36729443073272705,-1.5000985304461878,3.869634115675289e-30,-0.028751568868756294,0.7492785453796387,-0.0,-0.0047448910772800446,0.8032335638999939,0.00023566481831949204,-0.012021620757877827
823.0,702.0,4.5434,-0.7202,7.7097,-0.0431,0.0012,-0.1237,-1.5810419521727503,-0.10180074721574783,2.1749792098999023,-1.7240092754364014,0.00011123994045192376,2.4088034629821777,4.254967852229736,0.0005839985096827149,0.3877254128456116,-1.5000699202166956,7.032867906599549e-35,-0.03775601461529732,0.7492904663085938,-0.0,-0.002738084876909852,0.8032941222190857,0.00020838189811911434,0.0352475680410862
823.0,702.0,4.5434,-0.7202,7.7097,-0.0431,0.0012,-0.1237,-1.5818211040892542,-0.09787420928478241,2.205747604370117,-1.7239731550216675,0.0009393584332428873,2.4263343811035156,4.254975958461426,0.004051177762448788,0.37281060218811035,-1.5000818411456507,-1.6486443200847134e-05,-0.021277736872434616,0.749274492263794,-0.0,-0.012510957196354866,0.8032620549201965,0.00018676089530345052,0.045093685388565063
825.0,721.0,4.7827,-0.4875,7.6666,-0.0423,-0.0457,-0.1298,-1.5828248463072718,-0.09607834368944168,2.2370166778564453,-1.7239731550216675,0.0008302892092615366,2.4823412895202637,4.255083246822021,0.007563961669802666,0.4011530578136444,-1.5000985304461878,-2.4296288756886497e-05,-0.03333140164613724,0.7492340207099915,-0.0,0.0005177506245672703,0.8032738566398621,0.00016531988512724638,-0.01252832356840372
825.0,721.0,4.7827,-0.4875,7.6666,-0.0423,-0.0457,-0.1298,-1.5835277042784632,-0.09463974833488464,2.2413954734802246,-1.7239927053451538,0.0005139636341482401,2.4799766540527344,4.255143805141113,0.009506406262516975,0.39163345098495483,-1.5000861326800745,-2.3051685275277123e-05,-0.04635709524154663,0.749282717704773,-0.0,-0.000758711714297533,0.8032335638999939,0.00015141320182010531,0.0716073289513588
825.0,721.0,4.7827,-0.4875,7.6666,-0.0423,-0.0457,-0.1298,-1.5843116245665492,-0.09182676672935486,2.287980556488037,-1.724005103111267,0.00043424242176115513,2.497246742248535,4.255239649409912,0.009270785376429558,0.40629443526268005,-1.5000618139850062,-2.1928401110926643e-05,-0.030006196349859238,0.7492184042930603,-0.0,-0.009604545310139656,0.8032698631286621,0.00013966493133921176,-0.0174647755920887
825.0,721.0,4.7827,-0.4875,7.6666,-0.0423,-0.0457,-0.1298,-1.5850311718382777,-0.09121935069561005,2.267214298248291,-1.723996877670288,0.0004081900406163186,2.5056967735290527,4.255375071162842,0.009410216473042965,0.40135109424591064,-1.5000818411456507,-2.0909501472488046e-05,-0.05329252779483795,0.7492384910583496,-0.0,-0.0047644032165408134,0.803257942199707,0.00012960852473042905,-0.03462081402540207
825.0,721.0,4.7827,-0.4875,7.6666,-0.0423,-0.0457,-0.1298,-1.5857020817198695,-0.09130711108446121,2.263770341873169,-1.723945140838623,0.004108497407287359,2.531092405319214,4.255430384273193,0.011816265992820263,0.40801674127578735,-1.5000298658954065,-1.9981065634055994e-05,-0.036856114864349365,0.7492184042930603,-0.0,-0.009615631774067879,0.8032416701316833,0.00012090309610357508,0.0498620830476284
825.0,721.0,4.7827,-0.4875,7.6666,-0.0423,-0.0457,-0.1298,-1.5864855251707972,-0.0922364741563797,2.2501611709594727,-1.723921298980713,0.009750230237841606,2.5591228008270264,4.255501909846924,0.01762029528617859,0.4238077700138092,-1.5000699202166956,-1.4133332282284528e-09,-0.0428672730922699,0.7492184042930603,-0.0,0.00795666966587305,0.8032056093215942,0.00011329347034916282,0.04783503711223602
825.0,721.0,4.7827,-0.4875,7.6666,-0.0423,-0.0457,-0.1298,-1.5871807537474574,-0.08937002718448639,2.3322296142578125,-1.723760962486267,0.012387527152895927,2.5431437492370605,4.255745096797607,0.02791917510330677,0.43154239654541016,-1.5000818411456507,-2.5686634961522188e-14,-0.038370780646800995,0.7492184042930603,-0.0,-0.012223527766764164,0.8032379150390625,0.0001065850374288857,0.060380060225725174
825.0,721.0,4.7827,-0.4875,7.6666,-0.0423,-0.0457,-0.1298,-1.5879765949644984,-0.08767503499984741,2.3635311126708984,-1.7236934900283813,0.01265313383191824,2.5750460624694824,4.256056948299072,0.04521830752491951,0.44231486320495605,-1.500094238911764,-4.668419193659932e-19,-0.04527110606431961,0.7492586374282837,-0.0,-0.02773445099592209,0.803205668926239,0.00010062663204735145,0.003982742317020893
825.0,721.0,4.7827,-0.4875,7.6666,-0.0423,-0.0457,-0.1298,-1.5888802013792933,-0.08038488775491714,2.386507511138916,-1.7236063480377197,0.008793115615844727,2.593865394592285,4.25675551473584,0.09923705458641052,0.46902889013290405,-1.5001147429095667,-5.539850648700551e-25,-0.04764370992779732,0.7492668032646179,-0.0,-0.03494114428758621,0.8032899498939514,9.405426681041718e-05,0.04361031576991081
825.0,721.0,4.7827,-0.4875,7.6666,-0.0423,-0.0457,-0.1298,-1.5895353756346644,-0.08065669983625412,2.346548080444336,-1.7235815525054932,0.002335137687623501,2.600226402282715,4.257748766536377,0.1484285145998001,0.4753628075122833,-1.5000579992877405,-1.006840289434105e-29,-0.04760989546775818,0.7492988109588623,-0.0,-0.02062245085835457,0.8032376766204834,8.938385144574568e-05,0.05178958177566528
825.0,721.0,4.7827,-0.4875,7.6666,-0.0423,-0.0457,-0.1298,-1.590142389337057,-0.08860248327255249,2.3052382469177246,-1.7236186265945435,-0.0007743437308818102,2.573141098022461,4.259017153377197,0.1655060350894928,0.5044834613800049,-1.5000823179828089,-1.8298824131979584e-34,-0.05900810286402702,0.7492146492004395,-0.0,-0.03548391908407211,0.8032015562057495,8.515534136677161e-05,0.028172943741083145
798.0,698.0,5.8409,-0.6592,7.2742,-0.0399,-0.0722,-0.1294,-1.5908500156798304,-0.09224089235067368,2.3080296516418457,-1.7235618829727173,-1.0344721204091911e-06,2.5373001098632812,4.260553522700928,0.20297928154468536,0.5210813283920288,-1.500110928212301,-3.325721263560589e-39,-0.030380621552467346,0.7492707967758179,-0.0,-0.03608792647719383,0.8032256960868835,8.130884816637263e-05,0.057130366563797
798.0,698.0,5.8409,-0.6592,7.2742,-0.0399,-0.0722,-0.1294,-1.591609617272848,-0.09784393757581711,2.381782293319702,-1.7235534191131592,0.002285066293552518,2.60679292678833,4.262316389674805,0.23845575749874115,0.5456032752990723,-1.5000742117511194,-6.025583396596713e-44,-0.051612041890621185,0.7492184042930603,-0.00010348045179853216,-0.031074687838554382,0.8032940626144409,1.4312055540699475e-08,0.027645394206047058
798.0,698.0,5.8409,-0.6592,7.2742,-0.0399,-0.0722,-0.1294,-1.5924412212767542,-0.09907475113868713,2.378457546234131,-1.7235387563705444,0.005601231940090656,2.619748592376709,4.264455481166504,0.2883903682231903,0.5499663949012756,-1.500122372304098,-0.0,-0.051333412528038025,0.7492184042930603,-0.00011366856779204682,-0.04730993136763573,0.8032539486885071,4.636924109857241e-16,0.028218157589435577
798.0,698.0,5.8409,-0.6592,7.2742,-0.0399,-0.0722,-0.1294,-1.5932957134642542,-0.09791430085897446,2.354430675506592,-1.7234302759170532,0.00526391202583909,2.5762391090393066,4.266985102290771,0.3417372703552246,0.5847406387329102,-1.5001066366778772,-0.0,-0.054185669869184494,0.7492188215255737,-0.00010498222400201485,-0.040539730340242386,0.8032217025756836,1.5023046568645413e-23,0.020330939441919327
798.0,698.0,5.8409,-0.6592,7.2742,-0.0399,-0.0722,-0.1294,-1.5941678486266078,-0.09668087959289551,2.312039375305176,-1.7234622240066528,0.0014688039664179087,2.543898582458496,4.269981070155762,0.3856494128704071,0.5885045528411865,-1.5000742117511194,-0.0,-0.042931340634822845,0.7492508292198181,-0.00011363242083461955,-0.045123785734176636,0.803281843662262,5.208411312196404e-05,0.0034477785229682922
798.0,698.0,5.8409,-0.6592,7.2742,-0.0399,-0.0722,-0.1294,-1.595198770562643,-0.10358983278274536,2.3213722705841064,-1.7234941720962524,-0.0027612040285021067,2.5407347679138184,4.274092360133789,0.44043490290641785,0.6343855857849121,-1.5000665823565882,-0.0,-0.04344157129526138,0.7492184042930603,-0.00010424006177345291,-0.053858887404203415,0.8032820224761963,1.9570509266486624e-06,-0.003790060058236122
798.0,698.0,5.8409,-0.6592,7.2742,-0.0399,-0.0722,-0.1294,-1.5961066685118617,-0.11683590710163116,2.269031047821045,-1.7235697507858276,-0.0019764620810747147,2.5417957305908203,4.277991934413574,0.4829989969730377,0.6364136338233948,-1.5000422636615198,-0.0,-0.032633330672979355,0.7492668032646179,-9.776926890481263e-05,-0.04701417684555054,0.8032416701316833,6.340597263811837e-14,0.019994989037513733
798.0,698.0,5.8409,-0.6592,7.2742,-0.0399,-0.0722,-0.1294,-1.5969935856261195,-0.12672635912895203,2.3311452865600586,-1.7234983444213867,-1.5667660591134336e-06,2.497507333755493,4.282168074245117,0.5353317856788635,0.6497167944908142,-1.5000699202166956,-0.0,-0.05793629214167595,0.749174177646637,-0.00010520505747990683,-0.05185360461473465,0.8032620549201965,2.0542727590166837e-21,0.0057342988438904285
798.0,698.0,5.8409,-0.6592,7.2742,-0.0399,-0.0722,-0.1294,-1.5980693302550257,-0.1291172057390213,2.286531925201416,-1.7234539985656738,0.004352881573140621,2.5198686122894287,4.286764307613037,0.5926296710968018,0.6386656761169434,-1.5000823179828089,-0.0,-0.040714774280786514,0.749238908290863,-9.939607843989506e-05,-0.03708646446466446,0.8032457828521729,6.655582359124123e-29,-0.01029959972947836
798.0,698.0,5.8409,-0.6592,7.2742,-0.0399,-0.0722,-0.1294,-1.5991484127440394,-0.12235947698354721,2.266117811203003,-1.7234383821487427,0.0025415339041501284,2.536990165710449,4.291711016292236,0.647182285785675,0.6285865306854248,-1.5000665823565882,-0.0,-0.026853937655687332,0.7491782903671265,-0.0001273554953513667,-0.060666561126708984,0.8032498955726624,2.156324534086352e-36,-0.04459424689412117
798.0,698.0,5.8409,-0.6592,7.2742,-0.0399,-0.0722,-0.1294,-1.6001392803587855,-0.11449821293354034,2.3395705223083496,-1.7234704494476318,1.774851284608303e-06,2.5388405323028564,4.297079725856445,0.7024433612823486,0.6369268298149109,-1.5000579992877405,-0.0,-0.019496165215969086,0.7491942644119263,-0.00013650988694280386,-0.06371423602104187,0.8032819032669067,7.006492321624085e-44,-0.054720766842365265
796.0,733.0,5.8899,-1.0229,8.1685,-0.0579,0.2153,-0.0903,-1.6010943851866664,-0.12708821892738342,2.2868475914001465,-1.723554253578186,-0.005992901977151632,2.4991602897644043,4.302808447475098,0.7430315017700195,0.6417646408081055,-1.5000065008746546,-0.0,-0.01693776063621044,0.7492064833641052,-0.00012461615551728755,-0.050546832382678986,0.8032055497169495,0.0,-0.03742652386426926
796.0,733.0,5.8899,-1.0229,8.1685,-0.0579,0.2153,-0.0903,-1.6021701298155726,-0.14582090079784393,2.201951265335083,-1.7235896587371826,-0.0058724237605929375,2.4544990062713623,4.3090149599262695,0.7633331418037415,0.6334356069564819,-1.5000622908221644,-0.0,-0.00839688815176487,0.7491782307624817,-0.00011408493446651846,-0.06677530705928802,0.8032137751579285,0.0,-0.08705794811248779
796.0,733.0,5.8899,-1.0229,8.1685,-0.0579,0.2153,-0.0903,-1.6035729847350062,-0.15595783293247223,2.2093420028686523,-1.723522424697876,0.002892580581828952,2.4055123329162598,4.316849394435547,0.7925780415534973,0.6077885627746582,-1.5000703970538538,-0.0,0.0007700787391513586,0.7491986751556396,-0.00010318481508875266,-0.05397307127714157,0.8032299876213074,-0.0006915809353813529,-0.08261507004499435
796.0,733.0,5.8899,-1.0229,8.1685,-0.0579,0.2153,-0.0903,-1.6047646007933558,-0.14776194095611572,2.213654041290283,-1.7234138250350952,0.007883400656282902,2.464557409286499,4.323365851039551,0.8277618288993835,0.6058658957481384,-1.5000703970538538,-0.0,-0.00870467722415924,0.749198317527771,-9.58579548751004e-05,-0.0680946409702301,0.8032299876213074,-0.0008553509833291173,-0.1498025357723236
796.0,733.0,5.8899,-1.0229,8.1685,-0.0579,0.2153,-0.0903,-1.6059509716429652,-0.1392931193113327,2.2279701232910156,-1.723389983177185,0.004810127895325422,2.4767906665802,4.330023451442383,0.8623817563056946,0.6074312925338745,-1.500042740498678,-0.0,0.005852565169334412,0.7491865158081055,-8.950264600571245e-05,-0.07108526676893234,0.8032058477401733,-0.000507540418766439,-0.09860827028751373
796.0,733.0,5.8899,-1.0229,8.1685,-0.0579,0.2153,-0.0903,-1.607114931146139,-0.14148180186748505,2.208352565765381,-1.7234580516815186,-0.002071475377306342,2.4601664543151855,4.337021513576172,0.8826282024383545,0.5876692533493042,-1.5000746885882776,-0.0,-0.009534035809338093,0.7492024302482605,-8.393768803216517e-05,-0.0541878379881382,0.8032458424568176,-0.0003838003322016448,-0.10044964402914047
796.0,733.0,5.8899,-1.0229,8.1685,-0.0579,0.2153,-0.0903,-1.6083256206908167,-0.15916632115840912,2.158845901489258,-1.7234976291656494,-0.008107089437544346,2.40097713470459,4.344137831325195,0.8871567249298096,0.6039980053901672,-1.500042740498678,-0.0,0.008554360829293728,0.7492347955703735,-7.902424840722233e-05,-0.04962201416492462,0.8032416105270386,-0.0003085916687268764,-0.14659376442432404
796.0,733.0,5.8899,-1.0229,8.1685,-0.0579,0.2153,-0.0903,-1.6095763645567835,-0.17066694796085358,2.09102463722229,-1.7235617637634277,-0.005337442271411419,2.3339648246765137,4.351150675410889,0.8779756426811218,0.5825141072273254,-1.5000503698932093,-0.0,0.01687462627887726,0.7492425441741943,-6.221282092155889e-05,-0.05454539507627487,0.8032059073448181,-0.00029488588916137815,-0.14247235655784607
796.0,733.0,5.8899,-1.0229,8.1685,-0.0579,0.2153,-0.0903,-1.6107994518675746,-0.16992180049419403,2.0582804679870605,-1.723565936088562,-4.7819670726312324e-05,2.2909598350524902,4.357969446773193,0.8541067242622375,0.546074390411377,-1.5000465551959437,-0.0,0.01879950612783432,0.7491940855979919,-5.0194015784654766e-05,-0.029836095869541168,0.8031734824180603,-0.00025338047998957336,-0.15965496003627777
796.0,733.0,5.8899,-1.0229,8.1685,-0.0579,0.2153,-0.0903,-1.6125222645201625,-0.1721956580877304,1.9636027812957764,-1.7234976291656494,0.0016344103496521711,2.2462048530578613,4.36637990056958,0.8287237286567688,0.5026580095291138,-1.5000622908221644,-0.0,0.009050410240888596,0.7493187785148621,-4.4262207666179165e-05,-0.05077769607305527,0.8032218217849731,-0.00018853272194974124,-0.10331115126609802
837.0,736.0,3.5366,0.2788,7.8586,-0.0509,0.8421,-0.089,-1.613873144189352,-0.17515653371810913,1.9697153568267822,-1.7234934568405151,0.00014250499953050166,2.194955348968506,4.372991724605225,0.8074477314949036,0.5102260112762451,-1.5000465551959437,4.654822259908542e-05,0.02177005261182785,0.7492704391479492,-3.1640807719668373e-05,-0.04133518785238266,0.8032217025756836,-1.109165964408021e-06,-0.07705956697463989
837.0,736.0,3.5366,0.2788,7.8586,-0.0509,0.8421,-0.089,-1.6152926884093226,-0.18113413453102112,1.9492378234863281,-1.7235864400863647,4.616981710142687e-12,2.203958749771118,4.379289789790771,0.7777084708213806,0.5198801159858704,-1.5000785032855433,4.421185440151021e-05,0.010838652960956097,0.7492662668228149,3.150676275254227e-05,-0.017858151346445084,0.8033059239387512,0.001701724948361516,-0.08549187332391739
837.0,736.0,3.5366,0.2788,7.8586,-0.0509,0.8421,-0.089,-1.6167713604369105,-0.19469976425170898,1.9253764152526855,-1.7235419750213623,1.4958434344436902e-19,2.1949572563171387,4.385274572963379,0.742308497428894,0.49477532505989075,-1.50006610551943,4.0256560168927535e-05,4.0681246900931e-05,0.7492340207099915,4.2329902498750016e-05,-0.025417841970920563,0.8032779097557068,0.0017174134263768792,-0.024940986186265945
837.0,736.0,3.5366,0.2788,7.8586,-0.0509,0.8421,-0.089,-1.618378301660055,-0.20496489107608795,1.8564751148223877,-1.723530650138855,4.846341934136009e-27,2.127253293991089,4.391040964717529,0.7098462581634521,0.48392051458358765,-1.5000579992877405,3.695089617394842e-05,-0.003620605682954192,0.7492905259132385,4.153571353526786e-05,-0.019155604764819145,0.8032974600791931,0.0028506878297775984,0.0006896019913256168
837.0,736.0,3.5366,0.2788,7.8586,-0.0509,0.8421,-0.089,-1.620044847527975,-0.20354297757148743,1.8522186279296875,-1.7235140800476074,-2.2254063878790475e-05,2.157140016555786,4.3965183931538085,0.6803330779075623,0.48403191566467285,-1.5000861326800745,1.7083373677451164e-05,0.0030083185993134975,0.749302327632904,5.1948169129900634e-05,-0.006937107536941767,0.8033784031867981,0.003923297394067049,0.01592383347451687
837.0,736.0,3.5366,0.2788,7.8586,-0.0509,0.8421,-0.089,-1.6217357120909632,-0.208648681640625,1.8823668956756592,-1.7235534191131592,-7.210034435808921e-13,2.1350533962249756,4.401840372676514,0.6485792398452759,0.46749868988990784,-1.5000861326800745,1.5869232811382972e-05,-0.007220612373203039,0.7493544816970825,4.931212970404886e-05,-0.01169457845389843,0.8033942580223083,0.006365950684994459,0.0484577938914299
837.0,736.0,3.5366,0.2788,7.8586,-0.0509,0.8421,-0.089,-1.623519083062643,-0.229631707072258,1.8167463541030884,-1.7235101461410522,-2.3359593423194573e-20,2.121572732925415,4.406874819392822,0.6171013712882996,0.4766862988471985,-1.500122372304098,1.482370680605527e-05,-0.016130652278661728,0.7493064999580383,4.6750563342357054e-05,-0.015606699511408806,0.8034747242927551,0.009891681373119354,0.06714950501918793
837.0,736.0,3.5366,0.2788,7.8586,-0.0509,0.8421,-0.089,-1.6258841953673304,-0.23758330941200256,1.8395605087280273,-1.723557710647583,-1.015372083856102e-29,2.1124935150146484,4.4127442079731445,0.5703437924385071,0.4732029438018799,-1.5000422636615198,1.3695804227609187e-05,-0.01794634759426117,0.7492504119873047,5.487350426847115e-05,-0.019147198647260666,0.803517758846283,0.009639507159590721,0.07837910950183868
837.0,736.0,3.5366,0.2788,7.8586,-0.0509,0.8421,-0.089,-1.6278759441771449,-0.24488867819309235,1.77982497215271,-1.7235782146453857,-3.2896772886689802e-37,2.0663187503814697,4.417067213649414,0.5271995663642883,0.4546131491661072,-1.5000823179828089,1.2909961697005201e-05,-0.018245887011289597,0.749274492263794,5.232291005086154e-05,-0.004304144531488419,0.8035898804664612,0.008049667812883854,0.05500800907611847
837.0,736.0,3.5366,0.2788,7.8586,-0.0509,0.8421,-0.089,-1.6299625835814417,-0.26402369141578674,1.8179435729980469,-1.7235864400863647,-1.1210387714598537e-44,2.0809178352355957,4.421012564296387,0.49059155583381653,0.4603074789047241,-1.5000904242144983,1.2209419764985796e-05,-0.02111959457397461,0.7493104934692383,4.999761949875392e-05,-0.011425837874412537,0.8036620616912842,0.0071730464696884155,0.15071840584278107
837.0,736.0,3.5366,0.2788,7.8586,-0.0509,0.8421,-0.089,-1.6320535145201625,-0.26174241304397583,1.8216568231582642,-1.7235493659973145,-0.00010170423047384247,2.080950975418091,4.424743815059326,0.4507768154144287,0.4273204207420349,-1.500054184590475,1.1580990758375265e-05,-0.02141914889216423,0.7492625713348389,3.536494208589147e-09,-0.00822663214057684,0.8036894798278809,0.005753807723522186,0.07861974090337753
897.0,859.0,1.87,-0.7053,7.864,-0.036,0.4997,-0.0857,-1.6341949901976527,-0.2774069905281067,1.8247768878936768,-1.7234697341918945,-0.00016421190230175853,2.0667483806610107,4.428026362056396,0.40128257870674133,0.42572277784347534,-1.5000861326800745,1.101408815884497e-05,-0.014149131253361702,0.7492663264274597,0.00010317833221051842,-0.0036132854875177145,0.8037905097007751,0.00572655675932765,0.061863768845796585
897.0,859.0,1.87,-0.7053,7.864,-0.036,0.4997,-0.0857,-1.6364299259581507,-0.28641703724861145,1.8334174156188965,-1.723514199256897,-0.0004559791414067149,2.0394845008850098,4.431080980891846,0.35423338413238525,0.3893440365791321,-1.5000785032855433,1.0500099961063825e-05,-0.018999341875314713,0.7492663264274597,9.481557208346203e-05,-0.01100139506161213,0.8038144111633301,0.006385560613125563,0.06819302588701248
897.0,859.0,1.87,-0.7053,7.864,-0.036,0.4997,-0.0857,-1.6386476955809535,-0.2881978750228882,1.803666591644287,-1.7234853506088257,-0.0001728008792269975,2.05881929397583,4.433683558101318,0.30973541736602783,0.379355788230896,-1.5001066366778772,1.0031940291810315e-05,-0.01218770258128643,0.7492462992668152,8.744526712689549e-05,-0.006944064516574144,0.803830087184906,0.004183385521173477,0.07993057370185852
897.0,859.0,1.87,-0.7053,7.864,-0.036,0.4997,-0.0857,-1.640897890130514,-0.287321537733078,1.799379587173462,-1.7234894037246704,0.0002391622110735625,2.12247896194458,4.435914679164551,0.24146050214767456,0.3438553810119629,-1.5000904242144983,1.3998491255051704e-09,-0.006264110095798969,0.7493146657943726,8.1138416135218e-05,-0.01645737513899803,0.8038864135742188,0.0025482981000095606,0.11450748890638351
897.0,859.0,1.87,-0.7053,7.864,-0.036,0.4997,-0.0857,-1.643776079217428,-0.29125818610191345,1.8836941719055176,-1.7235264778137207,0.0005686932126991451,2.053356647491455,4.438081427211426,0.1911352425813675,0.33417174220085144,-1.5000579992877405,1.6611524176397851e-15,-0.009615350514650345,0.7492823600769043,7.442824426107109e-05,-0.008882306516170502,0.803881824016571,0.002594392281025648,0.07024236023426056
897.0,859.0,1.87,-0.7053,7.864,-0.036,0.4997,-0.0857,-1.6461221180357875,-0.29355746507644653,1.9227497577667236,-1.723522424697876,0.00026364330551587045,2.1232171058654785,4.439364119166992,0.13825148344039917,0.3000389635562897,-1.500078026448385,3.0190625405067936e-20,-0.017720259726047516,0.7492585778236389,6.980969192227349e-05,-0.0035599502734839916,0.8038740754127502,0.0019511354621499777,0.043883249163627625
897.0,859.0,1.87,-0.7053,7.864,-0.036,0.4997,-0.0857,-1.6484610042967738,-0.2954355478286743,2.018436908721924,-1.7235099077224731,0.00024214386940002441,2.135711908340454,4.4403320985981445,0.12118180841207504,0.3224602937698364,-1.5000579992877405,5.486996475012678e-25,-0.012640191242098808,0.7493347525596619,6.57308119116351e-05,-0.010559351183474064,0.8039383292198181,0.00105543271638453,0.025581464171409607
897.0,859.0,1.87,-0.7053,7.864,-0.036,0.4997,-0.0857,-1.6508423290648402,-0.29584211111068726,2.0106306076049805,-1.723470687866211,0.000580548366997391,2.1562814712524414,4.441234751338623,0.09848040342330933,0.3221528232097626,-1.500054184590475,9.972346386048352e-30,-0.00375946331769228,0.7493064999580383,6.210237188497558e-05,-0.010524500161409378,0.8039183616638184,0.0006317227962426841,0.026066914200782776
897.0,859.0,1.87,-0.7053,7.864,-0.036,0.4997,-0.0857,-1.6531998119749964,-0.28856486082077026,2.1225738525390625,-1.7235139608383179,0.0015406555030494928,2.2011609077453613,4.441858931178711,0.05565512180328369,0.32743290066719055,-1.5000622908221644,1.812424370583954e-34,-0.009055032394826412,0.7493147850036621,5.8853453083429486e-05,-0.0061183106154203415,0.8039546012878418,0.000450831837952137,0.01637149229645729
897.0,859.0,1.87,-0.7053,7.864,-0.036,0.4997,-0.0857,-1.6556374035277308,-0.29583489894866943,2.116947650909424,-1.7234541177749634,0.0014653634279966354,2.2317771911621094,4.442057772273682,0.008293240331113338,0.2910660207271576,-1.500094238911764,3.293990261134418e-39,-0.009091057814657688,0.7492703795433044,5.592765592155047e-05,-0.017828891053795815,0.8039183616638184,0.00035048869904130697,-0.044005971401929855
897.0,859.0,1.87,-0.7053,7.864,-0.036,0.4997,-0.0857,-1.6580549679198207,-0.28595131635665894,2.207744598388672,-1.7234829664230347,0.0018450467614457011,2.289538860321045,4.442078276271484,-0.01636500097811222,0.2912001311779022,-1.5001347700702112,6.025583396596713e-44,0.0012150350958108902,0.749299168586731,5.3278963605407625e-05,-0.005127004813402891,0.8039705753326416,0.0002866858267225325,-0.005411949940025806
901.0,886.0,1.8903,-0.7801,8.9037,-0.0379,-0.0345,-0.1234,-1.6603480778136195,-0.29003670811653137,2.2468209266662598,-1.7234704494476318,0.0010614570928737521,2.2880754470825195,4.441933794612549,-0.013093844056129456,0.31404292583465576,-1.50006610551943,0.0,-0.011828350834548473,0.7492987513542175,5.086982127977535e-05,-0.0026496462523937225,0.8038862943649292,0.00024253592710010707,-0.015428128652274609
901.0,886.0,1.8903,-0.7801,8.9037,-0.0379,-0.0345,-0.1234,-1.663220544854635,-0.2778487205505371,2.3277010917663574,-1.7234870195388794,0.0001700512075331062,2.2715301513671875,4.4418861108967285,-6.666004628641531e-05,0.3194414973258972,-1.5001261870013636,0.0,-0.009752616286277771,0.7492827773094177,1.1089469786895734e-08,-0.01442137360572815,0.8039183616638184,0.00020338532340247184,-0.023668397217988968
901.0,886.0,1.8903,-0.7801,8.9037,-0.0379,-0.0345,-0.1234,-1.665478845635885,-0.2810332775115967,2.3357768058776855,-1.7234829664230347,6.7278009829863095e-09,2.3229012489318848,4.441882296199463,0.001798858749680221,0.3348962664604187,-1.500054184590475,0.0,-0.018380388617515564,0.7492101192474365,2.015456215549022e-13,-0.004189361818134785,0.8039546012878418,0.0001801246835384518,-0.006801070645451546
901.0,886.0,1.8903,-0.7801,8.9037,-0.0379,-0.0345,-0.1234,-1.6676398716368617,-0.28050366044044495,2.4065909385681152,-1.7234870195388794,2.1797220286353064e-16,2.3547511100769043,4.441897554988525,0.000750852981582284,0.3576199412345886,-1.5001180807696741,0.0,-0.018739983439445496,0.7492302060127258,3.6629919124496904e-18,-0.012984465807676315,0.8038982152938843,0.0001847299572546035,0.014622801914811134
901.0,886.0,1.8903,-0.7801,8.9037,-0.0379,-0.0345,-0.1234,-1.6697732410826625,-0.26617011427879333,2.4132580757141113,-1.7234580516815186,0.003291051834821701,2.3344452381134033,4.441974325770996,0.0006264941184781492,0.36135655641555786,-1.5001066366778772,0.0,-0.027375105768442154,0.749214231967926,6.657305726420677e-23,-0.009069165214896202,0.8039143681526184,0.000146595441037789,0.023697292432188988
901.0,886.0,1.8903,-0.7801,8.9037,-0.0379,-0.0345,-0.1234,-1.6718231640257777,-0.25844240188598633,2.434907913208008,-1.7233742475509644,0.007426149677485228,2.364435911178589,4.441957636470459,0.0029640840366482735,0.36192378401756287,-1.500094238911764,0.0,-0.02357408031821251,0.749222457408905,1.2099327467522263e-27,-0.011250550858676434,0.8039424419403076,0.00015102715406101197,0.000255785183981061
901.0,886.0,1.8903,-0.7801,8.9037,-0.0379,-0.0345,-0.1234,-1.6738330326476039,-0.24525246024131775,2.4887337684631348,-1.7233141660690308,0.007020089775323868,2.40567684173584,4.441973848933838,0.0032136079389601946,0.3791946768760681,-1.500150505696432,-3.838538032141514e-05,-0.01929509826004505,0.7492426037788391,2.1989927270426438e-32,-0.013098691590130329,0.8039261698722839,9.235819015884772e-05,0.014395955950021744
901.0,886.0,1.8903,-0.7801,8.9037,-0.0379,-0.0345,-0.1234,-1.6757108173766078,-0.24063430726528168,2.52978515625,-1.7232260704040527,0.005664175841957331,2.443523645401001,4.4420458513447265,0.004717801697552204,0.37751346826553345,-1.5001266638385218,-3.5369866964174435e-05,-0.025156352669000626,0.7492343783378601,3.9965601690239684e-37,-0.01798802800476551,0.8039584159851074,0.00013616756768897176,0.01760045625269413
901.0,886.0,1.8903,-0.7801,8.9037,-0.0379,-0.0345,-0.1234,-1.677556654016012,-0.23117029666900635,2.5792994499206543,-1.7232425212860107,0.003771033603698015,2.4416332244873047,4.442062063808105,0.006265765521675348,0.38551729917526245,-1.5001099745379847,-4.918611375615001e-05,-0.02912599965929985,0.7492384910583496,7.262929940595527e-42,-0.025516247376799583,0.8039623498916626,0.0006847278564237058,0.0166134312748909
901.0,886.0,1.8903,-0.7801,8.9037,-0.0379,-0.0345,-0.1234,-1.679753919641012,-0.2228618711233139,2.5840978622436523,-1.723175287246704,0.003995808772742748,2.4529504776000977,4.442174120540283,0.008314508013427258,0.3875628113746643,-1.5000975767718714,-5.623709148494527e-05,-0.04337291419506073,0.7492703199386597,0.0,-0.026506371796131134,0.8039583563804626,0.000507654738612473,-0.009235136210918427
901.0,886.0,1.8903,-0.7801,8.9037,-0.0379,-0.0345,-0.1234,-1.6814524135985316,-0.2077224999666214,2.624795436859131,-1.7231431007385254,0.007130112498998642,2.4825429916381836,4.442229910487793,0.011597716249525547,0.3907080292701721,-1.5001099745379847,-5.634596891468391e-05,-0.03277052938938141,0.7491860389709473,-2.027585833275225e-05,-0.02543000504374504,0.8039465546607971,0.00035355158615857363,-0.010530485771596432
911.0,803.0,6.186,-0.3266,7.3974,0.0124,-0.3144,-0.1614,-1.6830984554686488,-0.19140619039535522,2.596769094467163,-1.7230634689331055,0.00885358639061451,2.4979021549224854,4.442378206843994,0.02091829851269722,0.4121129512786865,-1.5001538435565394,-6.28702764515765e-05,-0.04752470925450325,0.7491622567176819,-4.285801580294901e-08,-0.028578240424394608,0.8039261698722839,0.00031637083156965673,-0.00015588710084557533
911.0,803.0,6.186,-0.3266,7.3974,0.0124,-0.3144,-0.1614,-1.6846724949278773,-0.19059039652347565,2.7067079544067383,-1.722990870475769,0.007266364060342312,2.446843385696411,4.442589445705078,0.03271025791764259,0.4372996985912323,-1.5001018683062952,-6.259477231651545e-05,-0.04600479081273079,0.7492106556892395,-7.789231499383265e-13,-0.02806008979678154,0.8039664030075073,0.0005082279094494879,-0.015483923256397247
911.0,803.0,6.186,-0.3266,7.3974,0.0124,-0.3144,-0.1614,-1.6861902676024378,-0.19447508454322815,2.655848741531372,-1.722975254058838,0.003998622298240662,2.519944667816162,4.442964716548584,0.058244384825229645,0.4337833523750305,-1.5001218954669397,-5.929563849349506e-05,-0.035629477351903915,0.7492430210113525,-1.4156541056799927e-17,-0.028330840170383453,0.803978443145752,0.0010641227709129453,0.03230469673871994
911.0,803.0,6.186,-0.3266,7.3974,0.0124,-0.3144,-0.1614,-1.6877333126463832,-0.17455826699733734,2.6737914085388184,-1.7229596376419067,0.0027634708676487207,2.463567018508911,4.443703337306641,0.11586149781942368,0.44664278626441956,-1.500122372304098,-5.6326833146158606e-05,-0.04501217603683472,0.7492668032646179,-2.5728818330640894e-22,-0.04609580338001251,0.803950309753418,0.000694315298460424,0.004024935886263847
911.0,803.0,6.186,-0.3266,7.3974,0.0124,-0.3144,-0.1614,-1.6890832386412562,-0.15943069756031036,2.6794395446777344,-1.722930908203125,0.0022786175832152367,2.4750938415527344,4.444828673,0.15991127490997314,0.4819808900356293,-1.5001824537860315,-8.196471026167274e-05,-0.039320625364780426,0.7492348551750183,-4.676085104820311e-27,-0.03227514028549194,0.8040147423744202,0.0004818217421416193,0.0029139379039406776
911.0,803.0,6.186,-0.3266,7.3974,0.0124,-0.3144,-0.1614,-1.6906849346556605,-0.1639678180217743,2.665804862976074,-1.7229554653167725,0.00031235182541422546,2.4574954509735107,4.446604414577148,0.19136935472488403,0.4824292063713074,-1.500146214162008,-9.912643145071343e-05,-0.05521634221076965,0.7492024898529053,-5.548947899021486e-33,-0.04604899883270264,0.803990364074707,0.0003485217166598886,-0.013858472928404808
911.0,803.0,6.186,-0.3266,7.3974,0.0124,-0.3144,-0.1614,-1.6920887432494105,-0.16418986022472382,2.660550355911255,-1.7228997945785522,0.00017599329294171184,2.4504764080047607,4.4483887392231445,0.23142461478710175,0.5056549310684204,-1.5001419226275843,-9.109927486861125e-05,-0.047979071736335754,0.7491621971130371,-1.0084937655572988e-37,-0.04499514400959015,0.8039824962615967,0.00028536812169477344,0.04254873842000961
911.0,803.0,6.186,-0.3266,7.3974,0.0124,-0.3144,-0.1614,-1.6932865581908167,-0.14127503335475922,2.646477222442627,-1.7229242324829102,0.0002742848882917315,2.4070165157318115,4.45024745046582,0.2522713541984558,0.5050362944602966,-1.500134293233053,-0.00010111986921401694,-0.05000052973628044,0.7492466568946838,-1.8328983913368607e-42,-0.04543498158454895,0.803970456123352,0.0002415921917418018,0.05587439239025116
911.0,803.0,6.186,-0.3266,7.3974,0.0124,-0.3144,-0.1614,-1.6943332157530726,-0.1215273067355156,2.705571174621582,-1.7229233980178833,0.001530368230305612,2.456892490386963,4.452593966121338,0.30658194422721863,0.5330322980880737,-1.5002144018756312,-9.408185724169016e-05,-0.06299948692321777,0.7491544485092163,-0.0,-0.05336923524737358,0.8039459586143494,0.0002291141136083752,0.09295733273029327
911.0,803.0,6.186,-0.3266,7.3974,0.0124,-0.3144,-0.1614,-1.6953641376891078,-0.126919686794281,2.6271631717681885,-1.7229794263839722,2.151980815767729e-08,2.435807943344116,4.455211325282715,0.3514866828918457,0.5450963377952576,-1.5001781622516077,-0.0001026089012157172,-0.0693911612033844,0.7492347955703735,-0.0,-0.04908965528011322,0.8040228486061096,0.00016463064821437,0.11499349772930145
911.0,803.0,6.186,-0.3266,7.3974,0.0124,-0.3144,-0.1614,-1.6963831386961878,-0.13530908524990082,2.661879777908325,-1.7229554653167725,-0.0015226047253236175,2.4355201721191406,4.458152456874512,0.3762786388397217,0.5457159876823425,-1.5001781622516077,-9.633490117266774e-05,-0.06504567712545395,0.7492270469665527,-9.086779755307361e-05,-0.04520494118332863,0.8040146827697754,0.00018028225167654455,0.06320217996835709
871.0,766.0,6.7005,-0.7962,8.0016,-0.0255,-0.013,-0.1217,-1.6973821125426234,-0.12616005539894104,2.596616506576538,-1.7229079008102417,0.0033856378868222237,2.4456770420074463,4.461396856898926,0.41827392578125,0.5621069073677063,-1.5001376310931605,-9.717153443489224e-05,-0.08112899214029312,0.749150276184082,-8.630938100395724e-05,-0.05204034969210625,0.8039866089820862,0.00016176622011698782,0.09552296996116638
871.0,766.0,6.7005,-0.7962,8.0016,-0.0255,-0.013,-0.1217,-1.698301454583639,-0.1086316928267479,2.5985872745513916,-1.722867488861084,0.004625721834599972,2.4500019550323486,4.46503130971875,0.4729858934879303,0.5787259936332703,-1.5001419226275843,-9.809668699745089e-05,-0.07949671149253845,0.7492228746414185,-8.805110701359808e-05,-0.053188569843769073,0.803990364074707,0.00016765572945587337,0.16653013229370117
871.0,766.0,6.7005,-0.7962,8.0016,-0.0255,-0.013,-0.1217,-1.699343820611471,-0.09462492167949677,2.6240549087524414,-1.722847819328308,0.0027247152756899595,2.4037251472473145,4.47013966619458,0.5371735095977783,0.6207002401351929,-1.500162426625387,-9.184044756693766e-05,-0.083955317735672,0.7492228746414185,-8.832445746520534e-05,-0.0548483282327652,0.8039865493774414,0.0016014071879908442,0.17364858090877533
871.0,766.0,6.7005,-0.7962,8.0016,-0.0255,-0.013,-0.1217,-1.70013489345693,-0.09774183481931686,2.6281187534332275,-1.7228716611862183,6.295250045695866e-07,2.447129249572754,4.474583788509033,0.5840367078781128,0.6133075952529907,-1.5001581350909632,-8.738198812352493e-05,-0.08593863248825073,0.7491626739501953,-8.290065306937322e-05,-0.07229797542095184,0.8040102124214172,0.003438668791204691,0.15560102462768555
871.0,766.0,6.7005,-0.7962,8.0016,-0.0255,-0.013,-0.1217,-1.700914045373434,-0.10410493612289429,2.5814146995544434,-1.7229037284851074,-0.0032600127160549164,2.386143207550049,4.479428930873535,0.6190506815910339,0.6067588329315186,-1.5001142660724085,-8.33364247228019e-05,-0.09052987396717072,0.7491786479949951,-9.112114639719948e-05,-0.06206045299768448,0.8040264844894409,0.004325540736317635,0.24869021773338318
871.0,766.0,6.7005,-0.7962,8.0016,-0.0255,-0.013,-0.1217,-1.7017013035216273,-0.10202738642692566,2.5991411209106445,-1.7229077816009521,0.0007776921847835183,2.3830082416534424,4.484503431911133,0.6495254039764404,0.5818601846694946,-1.500134293233053,-7.964888209244236e-05,-0.0846366211771965,0.7492029070854187,-8.613806858193129e-05,-0.06717751175165176,0.804037868976593,0.0040659294463694096,0.20314742624759674
871.0,766.0,6.7005,-0.7962,8.0016,-0.0255,-0.013,-0.1217,-1.7024561367430628,-0.09653270989656448,2.5668156147003174,-1.722875714302063,0.0024081000592559576,2.3008930683135986,4.489836855525635,0.6898335218429565,0.5957780480384827,-1.5000985304461878,-1.4475792786683428e-09,-0.07757449150085449,0.7491462826728821,-8.167142368620262e-05,-0.0824785977602005,0.8041225671768188,0.003719193395227194,0.22339752316474915
871.0,766.0,6.7005,-0.7962,8.0016,-0.0255,-0.013,-0.1217,-1.703167577783102,-0.0830579325556755,2.5462470054626465,-1.7228199243545532,0.0013501672074198723,2.369370460510254,4.495610876674316,0.7160313725471497,0.5958477258682251,-1.5001180807696741,-2.630903985336233e-14,-0.08012042939662933,0.7491462826728821,-7.764516340103e-05,-0.06325479596853256,0.8041099905967712,0.004438453353941441,0.1687387377023697
871.0,766.0,6.7005,-0.7962,8.0016,-0.0255,-0.013,-0.1217,-1.7037702999510707,-0.07932300120592117,2.5737977027893066,-1.7229036092758179,-0.0010206128936260939,2.346736431121826,4.501420183772705,0.7307873964309692,0.5665086507797241,-1.5001142660724085,-4.781537176402325e-19,-0.07539330422878265,0.7491782307624817,-7.39971874281764e-05,-0.07330489903688431,0.8041868805885315,0.006073514465242624,0.15183790028095245
871.0,766.0,6.7005,-0.7962,8.0016,-0.0255,-0.013,-0.1217,-1.7044092617430628,-0.07919570058584213,2.601315975189209,-1.7228832244873047,-0.0014166422188282013,2.330052137374878,4.507334871883057,0.7487213015556335,0.5837401747703552,-1.5001266638385218,-8.690206905606828e-24,-0.0800425261259079,0.7492066025733948,-7.067661499604583e-05,-0.06558704376220703,0.8041495680809021,0.006497522350400686,0.19759829342365265
871.0,766.0,6.7005,-0.7962,8.0016,-0.0255,-0.013,-0.1217,-1.7052051029601039,-0.07919009774923325,2.55604887008667,-1.7229201793670654,-0.0010708424961194396,2.260326862335205,4.514747305507324,0.7547746300697327,0.5494577884674072,-1.5001099745379847,-1.0312367060780765e-29,-0.07528860867023468,0.749198317527771,-4.943772946575109e-09,-0.06678598374128342,0.8042948842048645,0.0050060441717505455,0.2036430984735489
884.0,780.0,6.9123,-1.258,8.1523,-0.0773,0.4511,-0.0689,-1.7057763538756312,-0.07513441145420074,2.5456390380859375,-1.7228519916534424,-2.031745225394843e-06,2.253200054168701,4.520771189326904,0.7587915062904358,0.5548522472381592,-1.5000985304461878,-1.8742216238923683e-34,-0.08207370340824127,0.7491942644119263,-8.985063940699506e-14,-0.06634243577718735,0.8043314814567566,0.003243310609832406,0.19004571437835693
884.0,780.0,6.9123,-1.258,8.1523,-0.0773,0.4511,-0.0689,-1.7063476047911585,-0.06870924681425095,2.5187554359436035,-1.7228552103042603,-6.582597287347822e-14,2.206160545349121,4.526922865504883,0.7574837803840637,0.5586219429969788,-1.5001428763019007,-3.406304333050052e-39,-0.06673956662416458,0.749222457408905,-1.632991220775901e-18,-0.05015992373228073,0.8043350577354431,0.002582953777164221,0.19451725482940674
