ramyac6/ROB537/final_project/csv/test/good/good_136.csv
tof_0,tof_1,accelx,accely,accelz,gyrox,gyroy,gyroz,shoulder_lift_joint_position,shoulder_lift_joint_velocity,shoulder_lift_joint_effort,elbow_joint_position,elbow_joint_velocity,elbow_joint_effort,wrist_1_joint_position,wrist_1_joint_velocity,wrist_1_joint_effort,wrist_2_joint_position,wrist_2_joint_velocity,wrist_2_joint_effort,wrist_3_joint_position,wrist_3_joint_velocity,wrist_3_joint_effort,shoulder_pan_joint_position,shoulder_pan_joint_velocity,shoulder_pan_joint_effort
976.0,948.0,2.1075,0.0502,9.2279,-0.0383,0.0223,-0.1229,-1.7079011402525843,0.0,2.6696293354034424,-1.8629637956619263,-0.0,2.0460939407348633,4.8352685300405405,-0.0,0.3029615879058838,-1.5830581823932093,-0.0,0.0016905388329178095,0.769830048084259,-0.0,-0.006624420173466206,0.8108680248260498,0.0,-0.004820872098207474
976.0,948.0,2.1075,0.0502,9.2279,-0.0383,0.0223,-0.1229,-1.7079011402525843,0.0,2.6303462982177734,-1.862959623336792,-0.0,2.026456356048584,4.835305008083143,-0.0,0.2954805791378021,-1.583033863698141,-0.0,0.005863262806087732,0.7698624730110168,-0.0,-0.010546785779297352,0.8108395934104919,0.0,-0.05950117111206055
976.0,948.0,2.1075,0.0502,9.2279,-0.0383,0.0223,-0.1229,-1.7079254589476527,0.0,2.6587414741516113,-1.8629482984542847,-0.0,2.0188822746276855,4.835256176977911,-0.0,0.3000556230545044,-1.583033863698141,-0.0,-0.007045085541903973,0.7698825001716614,-0.0,-0.007945092394948006,0.81088787317276,0.0,0.039060622453689575
976.0,948.0,2.1075,0.0502,9.2279,-0.0383,0.0223,-0.1229,-1.7079903088011683,0.0,2.598680019378662,-1.8629721403121948,-0.0,1.993593454360962,4.83524019548253,-0.0,0.2907482981681824,-1.5830219427691858,-0.0,-0.01866546832025051,0.7698423862457275,-0.0,-0.006956273689866066,0.8108436465263367,0.0,-0.05670657753944397
976.0,948.0,2.1075,0.0502,9.2279,-0.0383,0.0223,-0.1229,-1.7078854046263636,0.0,2.6354498863220215,-1.862923502922058,-0.0,2.0167477130889893,4.835280771344461,-0.0,0.2954171299934387,-1.5830381552325647,-0.0,-0.015486030839383602,0.7699268460273743,-0.0,-0.010128813795745373,0.8108721971511841,0.0,-0.009430869482457638
976.0,948.0,2.1075,0.0502,9.2279,-0.0383,0.0223,-0.1229,-1.7079130611815394,0.0,2.6330528259277344,-1.8629916906356812,-0.0,2.01637601852417,4.835276695876875,-0.0,0.29028820991516113,-1.5829976240741175,-0.0,-0.0008709190879017115,0.7698225975036621,-0.0,-0.0057005551643669605,0.8108516335487366,0.0,-0.008608288131654263
976.0,948.0,2.1075,0.0502,9.2279,-0.0383,0.0223,-0.1229,-1.7079335651793421,0.0,2.5944974422454834,-1.8629441261291504,-0.0,2.0459885597229004,4.835200208216467,-0.0,0.3006760776042938,-1.5830262343036097,-0.0,-0.0030842507258057594,0.7698543071746826,-0.0,-0.004026041366159916,0.8108354210853577,0.0,0.017978567630052567
968.0,918.0,2.1422,0.0903,9.2578,-0.029,0.0221,-0.1184,-1.7079416714110316,0.0,2.6131832599639893,-1.8629441261291504,-0.0,1.9757211208343506,4.835272553354063,-0.0,0.29167264699935913,-1.5830381552325647,-0.0,-0.023339755833148956,0.7698748111724854,-0.0,0.0012880628928542137,0.8108676075935364,0.0,0.0024821890983730555
968.0,918.0,2.1422,0.0903,9.2578,-0.029,0.0221,-0.1184,-1.7078892193236292,0.0,2.5925042629241943,-1.8628954887390137,-0.0,2.068718671798706,4.835264469474115,-0.0,0.2989494800567627,-1.5830419699298304,-0.0,-0.01634238101541996,0.769838273525238,-0.0,-0.004271354526281357,0.8108757734298706,0.0,-0.06886801868677139
968.0,918.0,2.1422,0.0903,9.2578,-0.029,0.0221,-0.1184,-1.7079693279662074,0.0,2.619906187057495,-1.862923502922058,-0.0,1.9624476432800293,4.835220481246271,-0.0,0.29321807622909546,-1.5830462614642542,-0.0,-0.014465849846601486,0.7698423266410828,-0.0,-0.00225609983317554,0.8108799457550049,0.0,-0.0022921785712242126
968.0,918.0,2.1422,0.0903,9.2578,-0.029,0.0221,-0.1184,-1.7079011402525843,0.0,2.566316843032837,-1.8629803657531738,-0.0,2.0184438228607178,4.835200141161241,-0.0,0.2995719611644745,-1.5830662886248987,-0.0,-0.02506232261657715,0.7698341608047485,-0.0,-0.007511701434850693,0.810859739780426,0.0,0.026509253308176994
968.0,918.0,2.1422,0.0903,9.2578,-0.029,0.0221,-0.1184,-1.707921644250387,0.0,2.621398448944092,-1.862959623336792,-0.0,1.9876272678375244,4.835264469474115,-0.0,0.297732412815094,-1.5829976240741175,-0.0,-0.011663919314742088,0.7698222994804382,-0.0,0.0007487207185477018,0.8108799457550049,0.0,-0.004246710799634457
968.0,918.0,2.1422,0.0903,9.2578,-0.029,0.0221,-0.1184,-1.707916875878805,0.0,2.5739150047302246,-1.8629679679870605,-0.0,2.0381481647491455,4.835236172169008,-0.0,0.2976572513580322,-1.5830019156085413,-0.0,-0.00748382369056344,0.7698423862457275,-0.0,-0.002393112750723958,0.8109079599380493,0.0,-0.006079769693315029
968.0,918.0,2.1422,0.0903,9.2578,-0.029,0.0221,-0.1184,-1.7078973255553187,0.0,2.608652114868164,-1.862931728363037,-0.0,2.067558765411377,4.835256206780233,-0.0,0.2984963655471802,-1.583017651234762,-0.0,-0.0008944858564063907,0.7698866128921509,-0.0,0.005941301584243774,0.8108274936676025,0.0,-0.0013470600824803114
968.0,918.0,2.1422,0.0903,9.2578,-0.029,0.0221,-0.1184,-1.7079130611815394,0.0,2.6183228492736816,-1.862923502922058,-0.0,1.9953582286834717,4.835232491582193,-0.0,0.29328906536102295,-1.5830219427691858,-0.0,0.0068193417973816395,0.7698584198951721,-0.0,-0.0010407371446490288,0.8108919262886047,0.0,0.01867779903113842
968.0,918.0,2.1422,0.0903,9.2578,-0.029,0.0221,-0.1184,-1.7079173527159632,0.0,2.6381664276123047,-1.8629151582717896,-0.0,2.0311591625213623,4.835244382708826,-0.0,0.2963397204875946,-1.5830586592303675,-0.0,-0.011461826041340828,0.7699063420295715,-0.0,0.0002903772983700037,0.8108436465263367,0.0,-0.04263469576835632
968.0,918.0,2.1422,0.0903,9.2578,-0.029,0.0221,-0.1184,-1.7079817257323207,0.0,2.615709066390991,-1.862899661064148,-0.0,2.0321974754333496,4.835264439671793,-0.0,0.296224445104599,-1.5830705801593226,-0.0,-0.012205570936203003,0.7698988914489746,-0.0,-0.010861383751034737,0.8108436465263367,0.0,-0.01883050985634327
968.0,918.0,2.1422,0.0903,9.2578,-0.029,0.0221,-0.1184,-1.7078854046263636,0.0,2.5859081745147705,-1.8629803657531738,-0.0,2.0125370025634766,4.835292692273416,-0.0,0.2948884069919586,-1.583050552998678,-0.0,-0.001141704386100173,0.7698301076889038,-0.0,-0.012752296403050423,0.8108234405517578,0.0,-0.012265095487236977
968.0,918.0,2.1422,0.0903,9.2578,-0.029,0.0221,-0.1184,-1.7079092464842738,0.0,2.6519534587860107,-1.862959623336792,-0.0,1.9790294170379639,4.835236142366686,-0.0,0.2999734878540039,-1.5830662886248987,-0.0,-0.006337396334856749,0.7698984742164612,-0.0,-0.0025055482983589172,0.8108758330345154,0.0,0.017476698383688927
964.0,943.0,2.1015,0.0718,9.2034,-0.0389,0.024,-0.1156,-1.7079416714110316,0.0,2.643235683441162,-1.8629482984542847,-0.0,2.0274770259857178,4.835248458176412,-0.0,0.28610026836395264,-1.583029572163717,-0.0,-0.012465586885809898,0.7698624134063721,-0.0,-0.0031433654949069023,0.8108717203140259,0.0,0.018106253817677498
964.0,943.0,2.1015,0.0718,9.2034,-0.0389,0.024,-0.1156,-1.7079249821104945,0.0,2.5698037147521973,-1.8629399538040161,-0.0,2.0502965450286865,4.83527264276103,-0.0,0.2952664792537689,-1.5830214659320276,-0.0,-0.00886102020740509,0.7698222994804382,-0.0,0.008097251877188683,0.8108798861503601,0.0,-0.05822425335645676
964.0,943.0,2.1015,0.0718,9.2034,-0.0389,0.024,-0.1156,-1.7079335651793421,0.0,2.618499279022217,-1.8629151582717896,-0.0,2.0064854621887207,4.835260386555948,-0.0,0.2969248294830322,-1.5830825010882776,-0.0,-0.013897349126636982,0.7698460817337036,-0.0,0.0023335993755608797,0.8108557462692261,0.0,0.02341538295149803
964.0,943.0,2.1015,0.0718,9.2034,-0.0389,0.024,-0.1156,-1.7078854046263636,0.0,2.587916851043701,-1.8629111051559448,-0.0,2.0430219173431396,4.835232461779871,-0.0,0.2923545837402344,-1.5830019156085413,-0.0,-0.0044564977288246155,0.7699030041694641,-0.0,-0.010501588694751263,0.8108680248260498,0.0,0.03815959393978119
964.0,943.0,2.1015,0.0718,9.2034,-0.0389,0.024,-0.1156,-1.7078691921629847,0.0,2.5906357765197754,-1.8629400730133057,-0.0,2.003929615020752,4.835248458176412,-0.0,0.2896960973739624,-1.5830419699298304,-0.0,-0.0021066670306026936,0.7698501348495483,-0.0,0.0018727036658674479,0.8108717203140259,0.0,-0.014508823864161968
964.0,943.0,2.1015,0.0718,9.2034,-0.0389,0.024,-0.1156,-1.7079373798766078,0.0,2.6287732124328613,-1.8629482984542847,-0.0,2.044675827026367,4.835236537247457,-0.0,0.29727035760879517,-1.5830462614642542,-0.0,-0.020363910123705864,0.7698304653167725,-0.0,-0.009563272818922997,0.8108557462692261,0.0,0.00015513505786657333
964.0,943.0,2.1015,0.0718,9.2034,-0.0389,0.024,-0.1156,-1.7079173527159632,0.0,2.633598566055298,-1.862927794456482,-0.0,1.9963172674179077,4.835240225284853,-0.0,0.28702259063720703,-1.5830748716937464,-0.0,-0.005183625966310501,0.7698984742164612,-0.0,-0.004114942159503698,0.8108919262886047,0.0,0.015252893790602684
964.0,943.0,2.1015,0.0718,9.2034,-0.0389,0.024,-0.1156,-1.7079211674132289,0.0,2.5834078788757324,-1.8629555702209473,-0.0,2.076792001724243,4.8352685300405405,-0.0,0.29414764046669006,-1.583033863698141,-0.0,-0.0028322478756308556,0.7698301076889038,-0.0,0.0018058351706713438,0.8108475208282471,0.0,0.006323705427348614
964.0,943.0,2.1015,0.0718,9.2034,-0.0389,0.024,-0.1156,-1.7078892193236292,0.0,2.643465280532837,-1.8629400730133057,-0.0,1.9728689193725586,4.835196065693655,-0.0,0.2911946773529053,-1.5830581823932093,-0.0,-0.0012507771607488394,0.7698825001716614,-0.0,-0.007013863418251276,0.810940682888031,0.0,-0.018727850168943405
964.0,943.0,2.1015,0.0718,9.2034,-0.0389,0.024,-0.1156,-1.7079254589476527,0.0,2.596797466278076,-1.862899661064148,-0.0,2.0550661087036133,4.835240225284853,-0.0,0.29374200105667114,-1.5830662886248987,-0.0,-0.026916278526186943,0.7698984742164612,-0.0,-0.01197726372629404,0.8108354210853577,0.0,0.02154131978750229
964.0,943.0,2.1015,0.0718,9.2034,-0.0389,0.024,-0.1156,-1.7078849277892054,0.0,2.615826368331909,-1.862931728363037,-0.0,2.0437493324279785,4.835248830705442,-0.0,0.27880150079727173,-1.583062473927633,-0.0,-0.006986947264522314,0.7698664665222168,-0.0,0.00872388668358326,0.8108717799186707,0.0,0.02402496337890625
964.0,943.0,2.1015,0.0718,9.2034,-0.0389,0.024,-0.1156,-1.7079011402525843,0.0,2.6227753162384033,-1.862874984741211,-0.0,2.043811321258545,4.8352685300405405,-0.0,0.311764657497406,-1.583050552998678,-0.0,-0.00489511713385582,0.7699068188667297,-0.0,-0.0004904833622276783,0.8108757734298706,0.0,-0.017816022038459778
964.0,943.0,2.1015,0.0718,9.2034,-0.0389,0.024,-0.1156,-1.7079454861082972,0.0,2.644867181777954,-1.8629359006881714,-0.0,2.0007576942443848,4.835224221437731,-0.0,0.29305440187454224,-1.583033863698141,-0.0,-0.008358949795365334,0.7698460817337036,-0.0,0.014752684161067009,0.8108798861503601,0.0,-0.0028643421828746796
941.0,936.0,2.1218,0.1089,9.2064,-0.036,0.0215,-0.1197,-1.7079173527159632,0.0,2.57387375831604,-1.8629523515701294,-0.0,2.0347845554351807,4.835296775191583,-0.0,0.28609126806259155,-1.5830257574664515,-0.0,-0.02093386836349964,0.7698623538017273,-0.0,-0.011392803862690926,0.8108797073364258,0.0,-4.842458292841911e-05
941.0,936.0,2.1218,0.1089,9.2064,-0.036,0.0215,-0.1197,-1.7079493008055628,0.0,2.6263785362243652,-1.8629399538040161,-0.0,1.9867095947265625,4.835276695876875,-0.0,0.2887524664402008,-1.5829857031451624,-0.0,-0.009194793179631233,0.7698906660079956,-0.0,-0.0024461685679852962,0.8108915090560913,0.0,0.013433801010251045
941.0,936.0,2.1218,0.1089,9.2064,-0.036,0.0215,-0.1197,-1.7079173527159632,0.0,2.628424644470215,-1.8629721403121948,-0.0,1.9941163063049316,4.835280771344461,-0.0,0.2878599762916565,-1.583017651234762,-0.0,-0.002966362750157714,0.7698304653167725,-0.0,-0.0029828264378011227,0.8108030557632446,0.0,-0.023247141391038895
941.0,936.0,2.1218,0.1089,9.2064,-0.036,0.0215,-0.1197,-1.70790495494985,0.0,2.582608222961426,-1.8629844188690186,-0.0,2.0556821823120117,4.835264454572954,-0.0,0.2921636700630188,-1.583005730305807,-0.0,-0.008516842499375343,0.76988285779953,-0.0,-0.008381699211895466,0.8108837604522705,0.0,-0.012652778998017311
941.0,936.0,2.1218,0.1089,9.2064,-0.036,0.0215,-0.1197,-1.7079292736449183,0.0,2.593046188354492,-1.8629357814788818,-0.0,2.0117275714874268,4.8352525410945795,-0.0,0.2975917160511017,-1.5829933325396937,-0.0,-0.000262638321146369,0.7698583602905273,-0.0,-0.00584457628428936,0.8108799457550049,0.0,0.01702776364982128
941.0,936.0,2.1218,0.1089,9.2064,-0.036,0.0215,-0.1197,-1.7079173527159632,0.0,2.6185264587402344,-1.862931728363037,-0.0,2.054654359817505,4.835296827345648,-0.0,0.2931661903858185,-1.583062473927633,-0.0,-0.011002130806446075,0.7699071168899536,-0.0,0.014809198677539825,0.8108395934104919,0.0,0.03589503467082977
941.0,936.0,2.1218,0.1089,9.2064,-0.036,0.0215,-0.1197,-1.7079373798766078,0.0,2.6099584102630615,-1.862915277481079,-0.0,2.020195960998535,4.835264454572954,-0.0,0.2942259609699249,-1.5830419699298304,-0.0,-0.013338103890419006,0.7698706388473511,-0.0,-0.0029349103569984436,0.8108518719673157,0.0,-0.04238223657011986
941.0,936.0,2.1218,0.1089,9.2064,-0.036,0.0215,-0.1197,-1.7079011402525843,0.0,2.621612071990967,-1.862959623336792,-0.0,2.027836561203003,4.835256199329653,-0.0,0.29238662123680115,-1.583050552998678,-0.0,-0.005842225626111031,0.7698944211006165,-0.0,-0.004297180101275444,0.8108798861503601,0.0,-0.017695734277367592
941.0,936.0,2.1218,0.1089,9.2064,-0.036,0.0215,-0.1197,-1.7079173527159632,0.0,2.551600456237793,-1.8629193305969238,-0.0,2.0025475025177,4.835236537247457,-0.0,0.28283169865608215,-1.5829818884478968,-0.0,-0.004788173828274012,0.7698907256126404,-0.0,-0.0025423422921448946,0.8108597993850708,0.0,0.0456710010766983
941.0,936.0,2.1218,0.1089,9.2064,-0.036,0.0215,-0.1197,-1.7079173527159632,0.0,2.5812177658081055,-1.862931728363037,-0.0,1.998307228088379,4.835244360357084,-0.0,0.29071515798568726,-1.583033863698141,-0.0,-0.004210395738482475,0.7698423862457275,-0.0,0.0095144622027874,0.8108073472976685,0.0,-0.003236141987144947
941.0,936.0,2.1218,0.1089,9.2064,-0.036,0.0215,-0.1197,-1.7079173527159632,0.0,2.6546783447265625,-1.862931728363037,-0.0,2.0410382747650146,4.835244360357084,-0.0,0.2841258645057678,-1.583050552998678,-0.0,-0.005628045182675123,0.7698825001716614,-0.0,0.001232619397342205,0.8108436465263367,0.0,0.0078496765345335
941.0,936.0,2.1218,0.1089,9.2064,-0.036,0.0215,-0.1197,-1.7078930340208949,0.0,2.5974228382110596,-1.862923502922058,-0.0,2.0208544731140137,4.835292692273416,-0.0,0.28248247504234314,-1.583062473927633,-0.0,-0.013523354195058346,0.7698788046836853,-0.0,-0.0055183060467243195,0.8108436465263367,0.0,0.034932829439640045
941.0,936.0,2.1218,0.1089,9.2064,-0.036,0.0215,-0.1197,-1.7079297504820765,0.0,2.5809788703918457,-1.8629482984542847,-0.0,2.0383028984069824,4.835248458176412,-0.0,0.28992363810539246,-1.5830419699298304,-0.0,-0.012697789818048477,0.7698259949684143,-0.0,-0.015756424516439438,0.8108717203140259,0.0,0.023716365918517113
956.0,937.0,2.1182,0.0802,9.2387,-0.0356,0.0224,-0.1159,-1.7079249821104945,0.0,2.610795021057129,-1.8629761934280396,-0.0,2.011672258377075,4.8353168470557115,-0.0,0.2786123752593994,-1.5830257574664515,-0.0,-0.01793043501675129,0.7698423862457275,-0.0,-0.01589788682758808,0.8108798861503601,0.0,0.04884957894682884
956.0,937.0,2.1182,0.0802,9.2387,-0.0356,0.0224,-0.1159,-1.7078772983946742,0.0,2.648648500442505,-1.8629876375198364,-0.0,1.997550129890442,4.835244442313471,-0.0,0.2875553071498871,-1.5830462614642542,-0.0,-0.019318578764796257,0.7698103785514832,-0.0,-0.01541610062122345,0.8108717203140259,0.0,-0.03715018182992935
956.0,937.0,2.1182,0.0802,9.2387,-0.0356,0.0224,-0.1159,-1.7078930340208949,0.0,2.5947318077087402,-1.8629679679870605,-0.0,2.089280366897583,4.835256221681394,-0.0,0.30459439754486084,-1.583029572163717,-0.0,-0.015500355511903763,0.7698984146118164,-0.0,-0.00147680239751935,0.8108315467834473,0.0,-0.004149536602199078
956.0,937.0,2.1182,0.0802,9.2387,-0.0356,0.0224,-0.1159,-1.7079416714110316,0.0,2.6232571601867676,-1.8629193305969238,-0.0,2.0250818729400635,4.835248458176412,-0.0,0.30224692821502686,-1.583033863698141,-0.0,-0.004461771808564663,0.7698665261268616,-0.0,-0.010762236081063747,0.8108597993850708,0.0,0.005731174256652594
956.0,937.0,2.1182,0.0802,9.2387,-0.0356,0.0224,-0.1159,-1.7079092464842738,0.0,2.6506247520446777,-1.8629679679870605,-0.0,2.0160977840423584,4.835256214230814,-0.0,0.29178303480148315,-1.5830586592303675,-0.0,-0.01757412776350975,0.7698862552642822,-0.0,0.0030480551067739725,0.8108113408088684,0.0,-0.021614128723740578
956.0,937.0,2.1182,0.0802,9.2387,-0.0356,0.0224,-0.1159,-1.7079173527159632,0.0,2.6539430618286133,-1.8629473447799683,-0.0,1.9876911640167236,4.8351918561156175,-0.0,0.29104429483413696,-1.5830462614642542,-0.0,-0.006860233843326569,0.769850492477417,-0.0,-0.010387655347585678,0.8108275532722473,0.0,-0.02005212940275669
956.0,937.0,2.1182,0.0802,9.2387,-0.0356,0.0224,-0.1159,-1.707921644250387,0.0,2.5855789184570312,-1.8629276752471924,-0.0,2.0672616958618164,4.835252533643999,-0.0,0.2991607189178467,-1.583029572163717,-0.0,0.005829778034240007,0.7698501944541931,-0.0,0.00556806568056345,0.810904324054718,0.0,0.019970107823610306
956.0,937.0,2.1182,0.0802,9.2387,-0.0356,0.0224,-0.1159,-1.7079493008055628,0.0,2.6507887840270996,-1.8629441261291504,-0.0,2.0510215759277344,4.835280793696203,-0.0,0.2947537899017334,-1.5830019156085413,-0.0,-0.01997534930706024,0.769850492477417,-0.0,-0.0022654198110103607,0.8108597993850708,0.0,-0.02509474940598011
956.0,937.0,2.1182,0.0802,9.2387,-0.0356,0.0224,-0.1159,-1.7079292736449183,0.0,2.6218714714050293,-1.8629275560379028,-0.0,2.0435280799865723,4.835248458176412,-0.0,0.2922540605068207,-1.5830586592303675,-0.0,-0.013938387855887413,0.7698543071746826,-0.0,-0.002331993542611599,0.8108395934104919,0.0,0.017944123595952988
956.0,937.0,2.1182,0.0802,9.2387,-0.0356,0.0224,-0.1159,-1.7079254589476527,0.0,2.6506052017211914,-1.8629441261291504,-0.0,1.9913294315338135,4.835228401213445,-0.0,0.2960120737552643,-1.5830262343036097,-0.0,-0.0019409673986956477,0.7698984742164612,-0.0,-0.0029892984312027693,0.8109039068222046,0.0,0.0009708020370453596
956.0,937.0,2.1182,0.0802,9.2387,-0.0356,0.0224,-0.1159,-1.7079173527159632,0.0,2.6214499473571777,-1.8629555702209473,-0.0,2.032231330871582,4.835260379105367,-0.0,0.29595667123794556,-1.583033863698141,-0.0,-0.0190050657838583,0.7697941660881042,-0.0,0.00029409152921289206,0.8108155131340027,0.0,0.009719879366457462
956.0,937.0,2.1182,0.0802,9.2387,-0.0356,0.0224,-0.1159,-1.7078973255553187,0.0,2.6361939907073975,-1.8629441261291504,-0.0,2.01824951171875,4.835260379105367,-0.0,0.29612720012664795,-1.5830419699298304,-0.0,-0.0028086798265576363,0.7698461413383484,-0.0,-0.004904832690954208,0.8108839988708496,0.0,0.04768115654587746
934.0,932.0,2.0991,0.0969,9.2189,-0.0327,0.0217,-0.12,-1.7079254589476527,0.0,2.586735725402832,-1.8629679679870605,-0.0,2.006188154220581,4.835244382708826,-0.0,0.2979089021682739,-1.583050552998678,-0.0,-0.002774537540972233,0.7698461413383484,-0.0,-0.0027718753553926945,0.8108960390090942,0.0,0.034304969012737274
934.0,932.0,2.0991,0.0969,9.2189,-0.0327,0.0217,-0.12,-1.7079011402525843,0.0,2.5876805782318115,-1.8629555702209473,-0.0,1.9992625713348389,4.835293087154188,-0.0,0.2773689031600952,-1.5830214659320276,-0.0,-0.00423190975561738,0.7698420882225037,-0.0,-0.009415809065103531,0.810831606388092,0.0,-0.027562584728002548
934.0,932.0,2.0991,0.0969,9.2189,-0.0327,0.0217,-0.12,-1.7079574070372523,0.0,2.6228013038635254,-1.86288321018219,-0.0,1.9967327117919922,4.835256199329653,-0.0,0.2965230345726013,-1.5830219427691858,-0.0,0.004766892176121473,0.7698583602905273,-0.0,0.0011185015318915248,0.8108798861503601,0.0,-0.0010284604504704475
934.0,932.0,2.0991,0.0969,9.2189,-0.0327,0.0217,-0.12,-1.707921644250387,0.0,2.6279029846191406,-1.8629761934280396,-0.0,1.9909636974334717,4.835272545903482,-0.0,0.2858179211616516,-1.5830381552325647,-0.0,-0.00807876605540514,0.7699026465415955,-0.0,-0.0039079394191503525,0.8108680248260498,0.0,0.006363621912896633
934.0,932.0,2.0991,0.0969,9.2189,-0.0327,0.0217,-0.12,-1.7079173527159632,0.0,2.616152286529541,-1.8629275560379028,-0.0,2.0080323219299316,4.835216465383329,-0.0,0.3021628260612488,-1.5830825010882776,-0.0,-0.0035098502412438393,0.7698583602905273,-0.0,-0.007908270694315434,0.8108676075935364,0.0,0.0002800207585096359
934.0,932.0,2.0991,0.0969,9.2189,-0.0327,0.0217,-0.12,-1.7079173527159632,0.0,2.6680588722229004,-1.862931728363037,-0.0,2.045443534851074,4.835244382708826,-0.0,0.2773519456386566,-1.5829933325396937,-0.0,0.0010342597961425781,0.7698624730110168,-0.0,-0.00834895670413971,0.8109038472175598,0.0,0.011290952563285828
934.0,932.0,2.0991,0.0969,9.2189,-0.0327,0.0217,-0.12,-1.7078854046263636,0.0,2.6469435691833496,-1.8629359006881714,-0.0,1.9886653423309326,4.835264491825857,-0.0,0.2912811040878296,-1.5830300490008753,-0.0,-0.007338759955018759,0.7698341608047485,-0.0,0.005615283735096455,0.8108316659927368,0.0,0.004838227294385433
934.0,932.0,2.0991,0.0969,9.2189,-0.0327,0.0217,-0.12,-1.7079693279662074,0.0,2.612976551055908,-1.8629400730133057,-0.0,2.025351047515869,4.835268559842863,-0.0,0.2821926474571228,-1.5830543676959437,-0.0,-0.0016768311616033316,0.7698583602905273,-0.0,-0.0012217205949127674,0.8108557462692261,0.0,0.01600112020969391
934.0,932.0,2.0991,0.0969,9.2189,-0.0327,0.0217,-0.12,-1.7079173527159632,0.0,2.6492128372192383,-1.8629555702209473,-0.0,2.0377309322357178,4.835260394006529,-0.0,0.29055023193359375,-1.583017651234762,-0.0,-0.00133175915107131,0.7698788046836853,-0.0,0.0003252550959587097,0.8108638525009155,0.0,-0.008631066419184208
934.0,932.0,2.0991,0.0969,9.2189,-0.0327,0.0217,-0.12,-1.7079130611815394,0.0,2.6290252208709717,-1.862952470779419,-0.0,2.048610210418701,4.835232461779871,-0.0,0.30331751704216003,-1.583033863698141,-0.0,-0.007591148838400841,0.7698341608047485,-0.0,-0.001240204437635839,0.8108798861503601,0.0,-0.04160543531179428
934.0,932.0,2.0991,0.0969,9.2189,-0.0327,0.0217,-0.12,-1.7079011402525843,0.0,2.5539164543151855,-1.8629803657531738,-0.0,2.006239414215088,4.835284854262628,-0.0,0.3067096471786499,-1.5829933325396937,-0.0,-0.026171833276748657,0.7698584198951721,-0.0,-0.011708608828485012,0.8108757734298706,0.0,0.0036734631285071373
934.0,932.0,2.0991,0.0969,9.2189,-0.0327,0.0217,-0.12,-1.7079574070372523,0.0,2.6539900302886963,-1.862907886505127,-0.0,2.0640392303466797,4.835252094059744,-0.0,0.2845531105995178,-1.5830586592303675,-0.0,-0.013545732013881207,0.7698021531105042,-0.0,-0.005923149175941944,0.8108717203140259,0.0,-0.021661823615431786
934.0,932.0,2.0991,0.0969,9.2189,-0.0327,0.0217,-0.12,-1.7079254589476527,0.0,2.6394333839416504,-1.8629027605056763,-0.0,2.04502272605896,4.835256609111585,-0.0,0.30122098326683044,-1.5830019156085413,-0.0,-0.019268162548542023,0.7698784470558167,-0.0,0.00187964690849185,0.8108717203140259,0.0,0.0018134750425815582
956.0,947.0,2.0859,0.0616,9.2261,-0.042,0.0281,-0.1164,-1.70790495494985,0.0,2.5882339477539062,-1.862951397895813,-0.0,2.037353277206421,4.835256653815069,-0.0,0.2845282256603241,-1.5830219427691858,-0.0,-0.01080955471843481,0.7698664665222168,-0.0,-0.002549072727560997,0.8108717203140259,0.0,-0.0009712944738566875
956.0,947.0,2.0859,0.0616,9.2261,-0.042,0.0281,-0.1164,-1.7079411945738734,0.0,2.610530376434326,-1.8629639148712158,-0.0,2.0095672607421875,4.8352443529065035,-0.0,0.2844647169113159,-1.5830219427691858,-0.0,-0.008840121328830719,0.7698020935058594,-0.0,-0.002394213806837797,0.8108476996421814,0.0,-0.030093537643551826
956.0,947.0,2.0859,0.0616,9.2261,-0.042,0.0281,-0.1164,-1.7079655132689417,0.0,2.630551338195801,-1.8629193305969238,-0.0,2.008194923400879,4.835244375258245,-0.0,0.28780633211135864,-1.583029572163717,-0.0,-0.0009823073633015156,0.7698501348495483,-0.0,-0.0006897312123328447,0.8108477592468262,0.0,-0.011241438798606396
956.0,947.0,2.0859,0.0616,9.2261,-0.042,0.0281,-0.1164,-1.7079335651793421,0.0,2.609647750854492,-1.8629555702209473,-0.0,2.0222959518432617,4.835256191879072,-0.0,0.30324500799179077,-1.5830701033221644,-0.0,-0.009559949859976768,0.7698706388473511,-0.0,-0.0011709112441167235,0.8108757734298706,0.0,0.008843442425131798
956.0,947.0,2.0859,0.0616,9.2261,-0.042,0.0281,-0.1164,-1.7079173527159632,0.0,2.5891690254211426,-1.8629357814788818,-0.0,2.023627996444702,4.835248458176412,-0.0,0.29591453075408936,-1.583005730305807,-0.0,-0.014870673418045044,0.7698140740394592,-0.0,0.0022012549452483654,0.8108597993850708,0.0,0.02299632877111435
956.0,947.0,2.0859,0.0616,9.2261,-0.042,0.0281,-0.1164,-1.707909723321432,0.0,2.624046802520752,-1.862959623336792,-0.0,2.0267066955566406,4.8352644620235345,-0.0,0.2918098568916321,-1.583062473927633,-0.0,-0.012251421809196472,0.7697899341583252,-0.0,0.0080174021422863,0.8108717203140259,0.0,0.017308766022324562
956.0,947.0,2.0859,0.0616,9.2261,-0.042,0.0281,-0.1164,-1.7078973255553187,0.0,2.6096673011779785,-1.862923502922058,-0.0,1.9844410419464111,4.835232476681032,-0.0,0.29717352986335754,-1.5830219427691858,-0.0,-0.017651205882430077,0.7698747515678406,-0.0,-0.024193599820137024,0.8108797073364258,0.0,-0.019796159118413925
956.0,947.0,2.0859,0.0616,9.2261,-0.042,0.0281,-0.1164,-1.7079130611815394,0.0,2.6262717247009277,-1.8629721403121948,-0.0,2.0476558208465576,4.835208225041189,-0.0,0.3034801185131073,-1.5830257574664515,-0.0,-0.00760760810226202,0.7699108123779297,-0.0,0.00991045031696558,0.8108639121055603,0.0,0.009950549341738224
956.0,947.0,2.0859,0.0616,9.2261,-0.042,0.0281,-0.1164,-1.7079817257323207,0.0,2.604290008544922,-1.862959623336792,-0.0,2.0377116203308105,4.835260751634397,-0.0,0.30591845512390137,-1.583033863698141,-0.0,-0.009848002344369888,0.7698783874511719,-0.0,-0.004175287205725908,0.8108193278312683,0.0,0.04009149223566055
956.0,947.0,2.0859,0.0616,9.2261,-0.042,0.0281,-0.1164,-1.707921644250387,0.0,2.6547393798828125,-1.8629069328308105,-0.0,2.0517449378967285,4.835240612715044,-0.0,0.29804882407188416,-1.5830705801593226,-0.0,-0.01361683290451765,0.7698140144348145,-0.0,-0.006835766136646271,0.8108597993850708,0.0,0.007867256179451942
956.0,947.0,2.0859,0.0616,9.2261,-0.042,0.0281,-0.1164,-1.7079173527159632,0.0,2.594907283782959,-1.8629359006881714,-0.0,2.037933349609375,4.835236120014944,-0.0,0.2902213931083679,-1.583029572163717,-0.0,-0.02217528037726879,0.7698624730110168,-0.0,0.00290142884477973,0.8108274936676025,0.0,0.004188044928014278
956.0,947.0,2.0859,0.0616,9.2261,-0.042,0.0281,-0.1164,-1.7079130611815394,0.0,2.6211414337158203,-1.862959623336792,-0.0,2.0034990310668945,4.83524842837409,-0.0,0.295872300863266,-1.583062473927633,-0.0,-0.008209814317524433,0.769838809967041,-0.0,-4.885345697402954e-05,0.810831606388092,0.0,-0.01417855080217123
956.0,947.0,2.0859,0.0616,9.2261,-0.042,0.0281,-0.1164,-1.7079493008055628,0.0,2.6275930404663086,-1.8629193305969238,-0.0,2.0253047943115234,4.835228341608801,-0.0,0.29452794790267944,-1.5830419699298304,-0.0,-0.005204023793339729,0.7698140144348145,-0.0,-0.014097028411924839,0.810831606388092,0.0,0.01168003212660551
944.0,939.0,2.12,0.0796,9.3027,-0.0377,0.0224,-0.12,-1.707909723321432,0.0,2.566016674041748,-1.8629359006881714,-0.0,2.0729782581329346,4.835212389915743,-0.0,0.28584831953048706,-1.5830705801593226,-0.0,-0.009945960715413094,0.7698583602905273,-0.0,-0.02056693844497204,0.8108798861503601,0.0,0.006999906152486801
944.0,939.0,2.12,0.0796,9.3027,-0.0377,0.0224,-0.12,-1.7079130611815394,0.0,2.5929923057556152,-1.8629318475723267,-0.0,2.0180299282073975,4.835244382708826,-0.0,0.29525241255760193,-1.5830100218402308,-0.0,0.004800053313374519,0.7698222994804382,-0.0,0.004803484305739403,0.8108395934104919,0.0,0.05992604419589043
944.0,939.0,2.12,0.0796,9.3027,-0.0377,0.0224,-0.12,-1.7079454861082972,0.0,2.6497137546539307,-1.8629523515701294,-0.0,1.973909854888916,4.835240225284853,-0.0,0.3023667335510254,-1.5830419699298304,-0.0,0.010919729247689247,0.7698948383331299,-0.0,0.0012152098352089524,0.8108557462692261,0.0,0.007784035988152027
944.0,939.0,2.12,0.0796,9.3027,-0.0377,0.0224,-0.12,-1.7078772983946742,0.0,2.633035182952881,-1.862931728363037,-0.0,1.985919713973999,4.835272538452902,-0.0,0.28681015968322754,-1.583005730305807,-0.0,-0.007418949622660875,0.7698144316673279,-0.0,-0.0017563699511811137,0.8108639121055603,0.0,-0.02084578573703766
944.0,939.0,2.12,0.0796,9.3027,-0.0377,0.0224,-0.12,-1.70790495494985,0.0,2.5972912311553955,-1.8630280494689941,-0.0,1.9689290523529053,4.835264320462503,-0.0,0.2945849895477295,-1.5830581823932093,-0.0,-0.010788393206894398,0.7698501348495483,-0.0,-0.006367592606693506,0.810831606388092,0.0,0.003265415783971548
944.0,939.0,2.12,0.0796,9.3027,-0.0377,0.0224,-0.12,-1.7079335651793421,0.0,2.610757827758789,-1.8629523515701294,-0.0,2.0395379066467285,4.835244360357084,-0.0,0.3048899471759796,-1.5830138365374964,-0.0,-0.0015969369560480118,0.7698947787284851,-0.0,-0.0008408818393945694,0.810879647731781,0.0,-0.04674963653087616
944.0,939.0,2.12,0.0796,9.3027,-0.0377,0.0224,-0.12,-1.7079373798766078,0.0,2.5951309204101562,-1.8630123138427734,-0.0,2.0057499408721924,4.835224608867922,-0.0,0.28284233808517456,-1.5830381552325647,-0.0,-0.012405451387166977,0.7698783874511719,-0.0,-0.002519541420042515,0.8108757734298706,0.0,0.010769947431981564
944.0,939.0,2.12,0.0796,9.3027,-0.0377,0.0224,-0.12,-1.7079292736449183,0.0,2.614283800125122,-1.8629523515701294,-0.0,2.0183653831481934,4.835264491825857,-0.0,0.3038126230239868,-1.5829933325396937,-0.0,-0.006922093220055103,0.7698505520820618,-0.0,0.0020607467740774155,0.8108717203140259,0.0,0.02409987710416317
944.0,939.0,2.12,0.0796,9.3027,-0.0377,0.0224,-0.12,-1.7079373798766078,0.0,2.5952365398406982,-1.862931728363037,-0.0,2.0469424724578857,4.835268559842863,-0.0,0.29630932211875916,-1.583062473927633,-0.0,-0.00241271685808897,0.7698664665222168,-0.0,-0.0013355417177081108,0.8108717203140259,0.0,0.024646326899528503
944.0,939.0,2.12,0.0796,9.3027,-0.0377,0.0224,-0.12,-1.7079173527159632,0.0,2.587799549102783,-1.862923502922058,-0.0,2.061267852783203,4.835264491825857,-0.0,0.3132782280445099,-1.5830095450030726,-0.0,-0.009470854885876179,0.769818127155304,-0.0,0.005018346942961216,0.8108639121055603,0.0,-0.0208938866853714
944.0,939.0,2.12,0.0796,9.3027,-0.0377,0.0224,-0.12,-1.7079335651793421,0.0,2.590869426727295,-1.8629441261291504,-0.0,2.021876335144043,4.83524019548253,-0.0,0.2945226728916168,-1.5830543676959437,-0.0,-0.0056797657161951065,0.7698943614959717,-0.0,-0.008357497863471508,0.8108193278312683,0.0,0.05549180507659912
944.0,939.0,2.12,0.0796,9.3027,-0.0377,0.0224,-0.12,-1.7079173527159632,0.0,2.630115509033203,-1.8629316091537476,-0.0,1.9961919784545898,4.835228408664026,-0.0,0.28464025259017944,-1.5830381552325647,-0.0,0.0024353652261197567,0.7698222398757935,-0.0,-0.0038488912396132946,0.8108837604522705,0.0,0.054401397705078125
963.0,943.0,2.1033,0.0939,9.1807,-0.0283,0.0267,-0.1165,-1.707921644250387,0.0,2.632573127746582,-1.8628790378570557,-0.0,2.0464565753936768,4.8352521164114854,-0.0,0.29553672671318054,-1.583033863698141,-0.0,0.003424600698053837,0.7698021531105042,-0.0,-0.004226521588861942,0.8108518719673157,0.0,-0.017043212428689003
963.0,943.0,2.1033,0.0939,9.1807,-0.0283,0.0267,-0.1165,-1.7079011402525843,0.0,2.632990837097168,-1.862959623336792,-0.0,2.0306382179260254,4.835200170963564,-0.0,0.29716184735298157,-1.5830543676959437,-0.0,-0.006836400367319584,0.7698345184326172,-0.0,-0.007672679144889116,0.8108680248260498,0.0,0.027475113049149513
963.0,943.0,2.1033,0.0939,9.1807,-0.0283,0.0267,-0.1165,-1.7079054317870082,0.0,2.5906827449798584,-1.8629555702209473,-0.0,1.9945948123931885,4.835280801146784,-0.0,0.2948276400566101,-1.5830138365374964,-0.0,-0.004121137782931328,0.7698341608047485,-0.0,0.006604366935789585,0.8108436465263367,0.0,-0.03757142648100853
963.0,943.0,2.1033,0.0939,9.1807,-0.0283,0.0267,-0.1165,-1.7079292736449183,0.0,2.6295180320739746,-1.8629151582717896,-0.0,1.9849002361297607,4.835228341608801,-0.0,0.30954843759536743,-1.5830419699298304,-0.0,-0.012061597779393196,0.769854724407196,-0.0,-0.0035529057495296,0.8108518719673157,0.0,-0.01020048838108778
963.0,943.0,2.1033,0.0939,9.1807,-0.0283,0.0267,-0.1165,-1.7078691921629847,0.0,2.622523784637451,-1.8629440069198608,-0.0,2.0335841178894043,4.835228423565187,-0.0,0.2870503067970276,-1.583033863698141,-0.0,-0.02564261481165886,0.7699107527732849,-0.0,0.0015835303347557783,0.810867965221405,0.0,0.048137567937374115
963.0,943.0,2.1033,0.0939,9.1807,-0.0283,0.0267,-0.1165,-1.707921644250387,0.0,2.6255850791931152,-1.8629565238952637,-0.0,2.038459062576294,4.835264454572954,-0.0,0.2972354292869568,-1.5830462614642542,-0.0,-0.0002781962975859642,0.7698583602905273,-0.0,-0.0098367715254426,0.8108717203140259,0.0,-0.02679126337170601
963.0,943.0,2.1033,0.0939,9.1807,-0.0283,0.0267,-0.1165,-1.7079173527159632,0.0,2.647256374359131,-1.8629275560379028,-0.0,2.0376739501953125,4.835256229131975,-0.0,0.29406124353408813,-1.583062473927633,-0.0,0.0011209556832909584,0.769838273525238,-0.0,-0.0022129202261567116,0.8108518719673157,0.0,-0.01763998530805111
963.0,943.0,2.1033,0.0939,9.1807,-0.0283,0.0267,-0.1165,-1.7079211674132289,0.0,2.5736680030822754,-1.8629275560379028,-0.0,2.0297980308532715,4.835272538452902,-0.0,0.294342577457428,-1.5830214659320276,-0.0,0.0081208860501647,0.7698624730110168,-0.0,0.0020879367366433144,0.8108235001564026,0.0,0.0407722108066082
963.0,943.0,2.1033,0.0939,9.1807,-0.0283,0.0267,-0.1165,-1.7079130611815394,0.0,2.6050705909729004,-1.862951397895813,-0.0,2.001905918121338,4.835260371654787,-0.0,0.30407458543777466,-1.5830543676959437,-0.0,-0.006731083616614342,0.7698743939399719,-0.0,-0.011409074068069458,0.8108516335487366,0.0,-0.009813029319047928
963.0,943.0,2.1033,0.0939,9.1807,-0.0283,0.0267,-0.1165,-1.7079292736449183,0.0,2.592496871948242,-1.8629639148712158,-0.0,2.0286331176757812,4.835260379105367,-0.0,0.30359789729118347,-1.5830381552325647,-0.0,-0.0028897912707179785,0.7698784470558167,-0.0,-0.0027291779406368732,0.8108234405517578,0.0,-0.006551342085003853
963.0,943.0,2.1033,0.0939,9.1807,-0.0283,0.0267,-0.1165,-1.7079011402525843,0.0,2.62890362739563,-1.8629275560379028,-0.0,2.036445140838623,4.835248458176412,-0.0,0.29581889510154724,-1.5830419699298304,-0.0,-0.0022073141299188137,0.7698907256126404,-0.0,-0.00610719807446003,0.8108676075935364,0.0,0.01930602267384529
963.0,943.0,2.1033,0.0939,9.1807,-0.0283,0.0267,-0.1165,-1.7079335651793421,0.0,2.6493334770202637,-1.8629761934280396,-0.0,2.013091564178467,4.835248033493318,-0.0,0.2869375944137573,-1.5830586592303675,-0.0,-0.0014925195137038827,0.769834578037262,-0.0,-0.008300462737679482,0.8108639121055603,0.0,-0.012592753395438194
963.0,943.0,2.1033,0.0939,9.1807,-0.0283,0.0267,-0.1165,-1.7079054317870082,0.0,2.6031484603881836,-1.8628872632980347,-0.0,1.9979419708251953,4.835232461779871,-0.0,0.2877311408519745,-1.5830138365374964,-0.0,-0.0008188231731764972,0.7697980999946594,-0.0,-0.0058128722012043,0.8108680248260498,0.0,0.004082545638084412
960.0,953.0,2.1111,0.0897,9.1555,-0.0238,0.0226,-0.1167,-1.7078854046263636,0.0,2.556218147277832,-1.8630123138427734,-0.0,2.060595989227295,4.835260394006529,-0.0,0.297555148601532,-1.5830419699298304,-0.0,-0.0026461267843842506,0.7698341608047485,-0.0,-0.005544929765164852,0.810847818851471,0.0,-0.011184709146618843
960.0,953.0,2.1111,0.0897,9.1555,-0.0238,0.0226,-0.1167,-1.7079335651793421,0.0,2.6515917778015137,-1.8629357814788818,-0.0,1.9841762781143188,4.835228408664026,-0.0,0.2789255678653717,-1.5830381552325647,-0.0,-0.004044072702527046,0.7698706388473511,-0.0,-0.016925152391195297,0.8108638525009155,0.0,0.04261212795972824
960.0,953.0,2.1111,0.0897,9.1555,-0.0238,0.0226,-0.1167,-1.7079531155028285,0.0,2.5998079776763916,-1.8629834651947021,-0.0,2.055126190185547,4.835252533643999,-0.0,0.29536741971969604,-1.5830586592303675,-0.0,-0.019997093826532364,0.7698984742164612,-0.0,-0.004283817019313574,0.8108880519866943,0.0,0.01875191740691662
960.0,953.0,2.1111,0.0897,9.1555,-0.0238,0.0226,-0.1167,-1.7079373798766078,0.0,2.604116916656494,-1.862959623336792,-0.0,2.026665687561035,4.83523244687871,-0.0,0.29921582341194153,-1.5830019156085413,-0.0,-0.008248859085142612,0.7698746919631958,-0.0,-0.00048104277811944485,0.810847818851471,0.0,-0.007311045657843351
960.0,953.0,2.1111,0.0897,9.1555,-0.0238,0.0226,-0.1167,-1.7079249821104945,0.0,2.606147289276123,-1.862951397895813,-0.0,2.025826930999756,4.8352807564433,-0.0,0.2929801344871521,-1.5830019156085413,-0.0,-0.002568183233961463,0.7698824405670166,-0.0,-0.007921116426587105,0.8108680248260498,0.0,-0.012933552265167236
960.0,953.0,2.1111,0.0897,9.1555,-0.0238,0.0226,-0.1167,-1.7079092464842738,0.0,2.663360595703125,-1.862915277481079,-0.0,2.0133657455444336,4.835260386555948,-0.0,0.2878277599811554,-1.583062473927633,-0.0,0.0018301578238606453,0.7699148654937744,-0.0,-0.01055068988353014,0.8108597993850708,0.0,0.027342604473233223
960.0,953.0,2.1111,0.0897,9.1555,-0.0238,0.0226,-0.1167,-1.7079292736449183,0.0,2.6364495754241943,-1.8629605770111084,-0.0,2.028052806854248,4.835244367807665,-0.0,0.2920430898666382,-1.5830219427691858,-0.0,-0.01174819003790617,0.7698341608047485,-0.0,-0.010230802930891514,0.8108757734298706,0.0,0.023796170949935913
960.0,953.0,2.1111,0.0897,9.1555,-0.0238,0.0226,-0.1167,-1.7078896961607875,0.0,2.655442237854004,-1.8629111051559448,-0.0,2.033188581466675,4.835248465626993,-0.0,0.2865249812602997,-1.5830462614642542,-0.0,-0.011890517547726631,0.7698584198951721,-0.0,-0.0010616547660902143,0.8108757734298706,0.0,0.016356777399778366
960.0,953.0,2.1111,0.0897,9.1555,-0.0238,0.0226,-0.1167,-1.7078973255553187,0.0,2.623995304107666,-1.862915277481079,-0.0,2.0307934284210205,4.835248458176412,-0.0,0.29506516456604004,-1.5830019156085413,-0.0,-0.00454544834792614,0.7698063254356384,-0.0,-0.01117296889424324,0.8108798265457153,0.0,-0.01725495420396328
960.0,953.0,2.1111,0.0897,9.1555,-0.0238,0.0226,-0.1167,-1.7078973255553187,0.0,2.617248058319092,-1.8629359006881714,-0.0,2.010148286819458,4.835212382465162,-0.0,0.2859840393066406,-1.5830138365374964,-0.0,-0.004570185672491789,0.7698624730110168,-0.0,-0.0010514468885958195,0.8108597993850708,0.0,0.03201914578676224
960.0,953.0,2.1111,0.0897,9.1555,-0.0238,0.0226,-0.1167,-1.707909723321432,0.0,2.5757360458374023,-1.8629441261291504,-0.0,2.0650413036346436,4.835264454572954,-0.0,0.28961193561553955,-1.583050552998678,-0.0,-0.009407246485352516,0.7698337435722351,-0.0,0.009463615715503693,0.8109079003334045,0.0,0.027305539697408676
960.0,953.0,2.1111,0.0897,9.1555,-0.0238,0.0226,-0.1167,-1.7079254589476527,0.0,2.629134178161621,-1.8629876375198364,-0.0,2.0003347396850586,4.835240225284853,-0.0,0.2935674786567688,-1.5830581823932093,-0.0,-0.008688225410878658,0.7698341012001038,-0.0,0.0071700322441756725,0.8108235001564026,0.0,-0.05111626163125038
960.0,953.0,2.1111,0.0897,9.1555,-0.0238,0.0226,-0.1167,-1.7078854046263636,0.0,2.5818686485290527,-1.862923502922058,-0.0,2.041367769241333,4.835248458176412,-0.0,0.30112773180007935,-1.5830581823932093,-0.0,-0.006675326265394688,0.7698542475700378,-0.0,0.008442744612693787,0.8108680844306946,0.0,0.01135953702032566
962.0,938.0,2.1392,0.1244,9.2507,-0.0411,0.0278,-0.1144,-1.707921644250387,0.0,2.5883970260620117,-1.8629069328308105,-0.0,2.014538049697876,4.835196020990171,-0.0,0.30920279026031494,-1.5830543676959437,-0.0,0.0009091798565350473,0.7698100209236145,-0.0,-0.0053641945123672485,0.8107995390892029,0.0,0.046673160046339035
962.0,938.0,2.1392,0.1244,9.2507,-0.0411,0.0278,-0.1144,-1.707961221734518,0.0,2.6108875274658203,-1.8629357814788818,-0.0,2.0028772354125977,4.835244382708826,-0.0,0.29906994104385376,-1.583029572163717,-0.0,-0.012938804924488068,0.7698460817337036,-0.0,-0.005604422185570002,0.8108757734298706,0.0,-0.03668111190199852
962.0,938.0,2.1392,0.1244,9.2507,-0.0411,0.0278,-0.1144,-1.7079130611815394,0.0,2.6101503372192383,-1.8629679679870605,-0.0,2.023451805114746,4.835272538452902,-0.0,0.30106788873672485,-1.583033863698141,-0.0,-0.012164253741502762,0.7698706388473511,-0.0,0.0070851934142410755,0.8108597993850708,0.0,0.018383340910077095
962.0,938.0,2.1392,0.1244,9.2507,-0.0411,0.0278,-0.1144,-1.7079092464842738,0.0,2.6046018600463867,-1.8629637956619263,-0.0,2.0580062866210938,4.835236529796877,-0.0,0.3055506646633148,-1.5829976240741175,-0.0,-0.006938854232430458,0.7698783874511719,-0.0,-0.00513874227181077,0.8108839988708496,0.0,0.006520416587591171
962.0,938.0,2.1392,0.1244,9.2507,-0.0411,0.0278,-0.1144,-1.7078854046263636,0.0,2.631603717803955,-1.8629441261291504,-0.0,1.9904983043670654,4.835224221437731,-0.0,0.2986880838871002,-1.5830543676959437,-0.0,-0.00760648213326931,0.7698542475700378,-0.0,-0.006593541242182255,0.8108757734298706,0.0,-0.008729693479835987
962.0,938.0,2.1392,0.1244,9.2507,-0.0411,0.0278,-0.1144,-1.7079173527159632,0.0,2.632077693939209,-1.8629523515701294,-0.0,2.059023857116699,4.835296775191583,-0.0,0.27830737829208374,-1.5830419699298304,-0.0,0.0012787349987775087,0.7698788046836853,-0.0,0.0007519733626395464,0.8108234405517578,0.0,0.005730070173740387
962.0,938.0,2.1392,0.1244,9.2507,-0.0411,0.0278,-0.1144,-1.7079011402525843,0.0,2.608102321624756,-1.8629275560379028,-0.0,2.0348381996154785,4.835240225284853,-0.0,0.2849477529525757,-1.583050552998678,-0.0,0.012921207584440708,0.7698501348495483,-0.0,-0.0016050622798502445,0.8108597993850708,0.0,0.030066601932048798
962.0,938.0,2.1392,0.1244,9.2507,-0.0411,0.0278,-0.1144,-1.7079411945738734,0.0,2.575002670288086,-1.8629639148712158,-0.0,2.020047187805176,4.835284854262628,-0.0,0.3043626546859741,-1.583017651234762,-0.0,-0.014945965260267258,0.769830048084259,-0.0,0.005807932000607252,0.8108716607093811,0.0,-0.026850545778870583
962.0,938.0,2.1392,0.1244,9.2507,-0.0411,0.0278,-0.1144,-1.707921644250387,0.0,2.6304447650909424,-1.8629193305969238,-0.0,2.029191017150879,4.835260379105367,-0.0,0.29758015275001526,-1.5830586592303675,-0.0,-0.022401299327611923,0.7698989510536194,-0.0,0.002952540758997202,0.8108274340629578,0.0,0.011755908839404583
962.0,938.0,2.1392,0.1244,9.2507,-0.0411,0.0278,-0.1144,-1.7079054317870082,0.0,2.613933563232422,-1.8629679679870605,-0.0,2.033721923828125,4.83524019548253,-0.0,0.2901439070701599,-1.583050552998678,-0.0,-0.01673995703458786,0.7698623538017273,-0.0,-0.007234977558255196,0.8108437061309814,0.0,-0.01311628520488739
962.0,938.0,2.1392,0.1244,9.2507,-0.0411,0.0278,-0.1144,-1.7079054317870082,0.0,2.6060686111450195,-1.8629473447799683,-0.0,2.0199170112609863,4.835232461779871,-0.0,0.29748156666755676,-1.583017651234762,-0.0,-0.010267657227814198,0.7697780132293701,-0.0,0.0038909013383090496,0.8108716607093811,0.0,-0.017026633024215698
962.0,938.0,2.1392,0.1244,9.2507,-0.0411,0.0278,-0.1144,-1.7079130611815394,0.0,2.6375837326049805,-1.862951397895813,-0.0,2.0546720027923584,4.835264447122373,-0.0,0.301606684923172,-1.5829976240741175,-0.0,-0.015921201556921005,0.7698264122009277,-0.0,-0.004354244563728571,0.8109120726585388,0.0,0.07242406159639359
965.0,939.0,2.0465,0.0562,9.2692,-0.038,0.0266,-0.1229,-1.7078772983946742,0.0,2.6139211654663086,-1.8629637956619263,-0.0,2.0193257331848145,4.835232431977548,-0.0,0.3001064360141754,-1.5830262343036097,-0.0,-0.008455004543066025,0.7698144912719727,-0.0,0.0090443454682827,0.8108274936676025,0.0,0.006291772238910198
965.0,939.0,2.0465,0.0562,9.2692,-0.038,0.0266,-0.1229,-1.707893510858053,0.0,2.6469807624816895,-1.8628995418548584,-0.0,2.059532880783081,4.835248465626993,-0.0,0.27758798003196716,-1.5830419699298304,-0.0,-0.01441118959337473,0.7698746919631958,-0.0,-0.0007912905421108007,0.8108234405517578,0.0,0.016125764697790146
965.0,939.0,2.0465,0.0562,9.2692,-0.038,0.0266,-0.1229,-1.7078930340208949,0.0,2.653249740600586,-1.862899661064148,-0.0,2.016263246536255,4.835256616562166,-0.0,0.3044705390930176,-1.583033863698141,-0.0,0.0003313599154353142,0.7698907256126404,-0.0,-0.005043453071266413,0.8108234405517578,0.0,-0.014274584129452705
965.0,939.0,2.0465,0.0562,9.2692,-0.038,0.0266,-0.1229,-1.7079369030394496,0.0,2.648841619491577,-1.8629441261291504,-0.0,1.9821048974990845,4.835204171925344,-0.0,0.3012124001979828,-1.5830867926227015,-0.0,-0.01797211542725563,0.7698947787284851,-0.0,-1.2699048966169357e-05,0.8108516335487366,0.0,0.01957683078944683
965.0,939.0,2.0465,0.0562,9.2692,-0.038,0.0266,-0.1229,-1.7079292736449183,0.0,2.6497602462768555,-1.862915277481079,-0.0,2.0007247924804688,4.835240210383692,-0.0,0.2918417751789093,-1.583017651234762,-0.0,-0.005524156149476767,0.7698824405670166,-0.0,0.0013521569781005383,0.8108233213424683,0.0,-0.000827268697321415
965.0,939.0,2.0465,0.0562,9.2692,-0.038,0.0266,-0.1229,-1.7079011402525843,0.0,2.561666250228882,-1.8629803657531738,-0.0,2.037017345428467,4.835244397609987,-0.0,0.29595494270324707,-1.5830743948565882,-0.0,-0.020036794245243073,0.7698022127151489,-0.0,-0.0042446935549378395,0.8108556866645813,0.0,0.02237376943230629
965.0,939.0,2.0465,0.0562,9.2692,-0.038,0.0266,-0.1229,-1.7079369030394496,0.0,2.6197147369384766,-1.8629555702209473,-0.0,2.0136756896972656,4.835232461779871,-0.0,0.28220969438552856,-1.583017651234762,-0.0,-0.012899321503937244,0.7698747515678406,-0.0,-0.008754887618124485,0.8108395338058472,0.0,-0.001641593873500824
965.0,939.0,2.0465,0.0562,9.2692,-0.038,0.0266,-0.1229,-1.707933088342184,0.0,2.605135917663574,-1.8629441261291504,-0.0,2.0394444465637207,4.835248458176412,-0.0,0.3039363920688629,-1.5830581823932093,-0.0,-0.0024421894922852516,0.7698341012001038,-0.0,-0.013215262442827225,0.810831606388092,0.0,-0.019560348242521286
965.0,939.0,2.0465,0.0562,9.2692,-0.038,0.0266,-0.1229,-1.7079493008055628,0.0,2.6060211658477783,-1.862959623336792,-0.0,2.005681037902832,4.835216465383329,-0.0,0.2811014950275421,-1.583017651234762,-0.0,-0.01923365890979767,0.7697579264640808,-0.0,-0.004101104103028774,0.8108516335487366,0.0,-0.038188494741916656
965.0,939.0,2.0465,0.0562,9.2692,-0.038,0.0266,-0.1229,-1.7079011402525843,0.0,2.655731201171875,-1.862923502922058,-0.0,2.022648811340332,4.835264387517729,-0.0,0.2997923493385315,-1.5830419699298304,-0.0,-0.0013393738772720098,0.7698584198951721,-0.0,-0.00230245478451252,0.81088787317276,0.0,0.001758107217028737
965.0,939.0,2.0465,0.0562,9.2692,-0.038,0.0266,-0.1229,-1.7079173527159632,0.0,2.5918424129486084,-1.8629523515701294,-0.0,2.035815715789795,4.835228386312284,-0.0,0.287763386964798,-1.583005730305807,-0.0,-0.009139291942119598,0.7698304653167725,-0.0,-0.0024748854339122772,0.8108395934104919,0.0,0.06340983510017395
965.0,939.0,2.0465,0.0562,9.2692,-0.038,0.0266,-0.1229,-1.7078930340208949,0.0,2.5898547172546387,-1.862899661064148,-0.0,1.9771904945373535,4.835256609111585,-0.0,0.3011816143989563,-1.5830500761615198,-0.0,-0.007029480300843716,0.7698341012001038,-0.0,-0.007317396346479654,0.8108435869216919,0.0,0.04065309092402458
965.0,939.0,2.0465,0.0562,9.2692,-0.038,0.0266,-0.1229,-1.7079173527159632,0.0,2.6118485927581787,-1.862995982170105,-0.0,2.048940658569336,4.835224199085989,-0.0,0.29774484038352966,-1.5830381552325647,-0.0,-0.008047881536185741,0.7698103785514832,-0.0,-0.007196038495749235,0.8108717203140259,0.0,-0.012049851939082146
960.0,922.0,3.0395,0.2243,8.6046,-0.0283,0.0185,-0.1344,-1.7079411945738734,0.0,2.603456974029541,-1.862931728363037,-0.0,2.0241987705230713,4.835212382465162,-0.0,0.29539912939071655,-1.5830462614642542,-0.0,0.004790076985955238,0.7698222994804382,-0.0,-0.012556886300444603,0.810875415802002,0.0,0.009603158570826054
960.0,922.0,3.0395,0.2243,8.6046,-0.0283,0.0185,-0.1344,-1.70790495494985,0.0,2.63850736618042,-1.8629482984542847,-0.0,2.0539045333862305,4.835256258934297,-0.0,0.2949395179748535,-1.583017651234762,-0.0,-0.021254774183034897,0.7698378562927246,-0.0,0.0020162509754300117,0.810823380947113,0.0,-0.02468845620751381
960.0,922.0,3.0395,0.2243,8.6046,-0.0283,0.0185,-0.1344,-1.7079130611815394,0.0,2.6369171142578125,-1.8629275560379028,-0.0,2.0006861686706543,4.835244405060568,-0.0,0.29600366950035095,-1.5830543676959437,-0.0,-0.018498290330171585,0.7698100209236145,-0.0,0.007422268390655518,0.8108758330345154,0.0,0.022442352026700974
960.0,922.0,3.0395,0.2243,8.6046,-0.0283,0.0185,-0.1344,-1.7079249821104945,0.0,2.6262402534484863,-1.8629400730133057,-0.0,2.056642770767212,4.835296775191583,-0.0,0.2984234094619751,-1.583029572163717,-0.0,-0.014152303338050842,0.769910454750061,-0.0,0.00492530083283782,0.8108593821525574,0.0,-0.003323884680867195
960.0,922.0,3.0395,0.2243,8.6046,-0.0283,0.0185,-0.1344,-1.7078610859312953,0.0,2.590613603591919,-1.862915277481079,-0.0,2.032325029373169,4.835252555995741,-0.0,0.2933575510978699,-1.5830381552325647,-0.0,-0.0207290668040514,0.7698543071746826,-0.0,0.003557294374331832,0.810896098613739,0.0,-0.013490118086338043
960.0,922.0,3.0395,0.2243,8.6046,-0.0283,0.0185,-0.1344,-1.7078811130919398,0.0,2.61063814163208,-1.8629275560379028,-0.0,2.048997402191162,4.835280801146784,-0.0,0.30198368430137634,-1.5830581823932093,-0.0,-0.008237580768764019,0.7698907256126404,-0.0,-0.00939225684851408,0.8108642101287842,0.0,-0.009273337200284004
960.0,922.0,3.0395,0.2243,8.6046,-0.0283,0.0185,-0.1344,-1.7079011402525843,0.0,2.6339423656463623,-1.862967848777771,-0.0,2.0092287063598633,4.835260379105367,-0.0,0.29328373074531555,-1.583062473927633,-0.0,-0.0022606176789849997,0.7698584198951721,-0.0,-0.003029298037290573,0.8109201788902283,0.0,0.02208462730050087
960.0,922.0,3.0395,0.2243,8.6046,-0.0283,0.0185,-0.1344,-1.7078892193236292,0.0,2.595428943634033,-1.8629359006881714,-0.0,1.990847110748291,4.835280816047945,-0.0,0.2913880944252014,-1.5830095450030726,-0.0,-0.0032827616669237614,0.7698501348495483,-0.0,-0.0021993680857121944,0.810847818851471,0.0,-0.02388041839003563
960.0,922.0,3.0395,0.2243,8.6046,-0.0283,0.0185,-0.1344,-1.7079373798766078,0.0,2.618070602416992,-1.8629400730133057,-0.0,2.030275583267212,4.8353087333734415,-0.0,0.28717857599258423,-1.5830662886248987,-0.0,-0.0036893340293318033,0.7698583006858826,-0.0,0.0008261678740382195,0.8108518719673157,0.0,0.003036041744053364
960.0,922.0,3.0395,0.2243,8.6046,-0.0283,0.0185,-0.1344,-1.7079297504820765,0.0,2.62931489944458,-1.8628429174423218,-0.0,2.008669853210449,4.835240225284853,-0.0,0.30825966596603394,-1.5830257574664515,-0.0,-0.01893693394958973,0.7698624134063721,-0.0,-0.005997151136398315,0.8109039068222046,0.0,0.009892777539789677
960.0,922.0,3.0395,0.2243,8.6046,-0.0283,0.0185,-0.1344,-1.7079292736449183,0.0,2.592249870300293,-1.862915277481079,-0.0,1.993660569190979,4.83523244687871,-0.0,0.2923868000507355,-1.583050552998678,-0.0,-0.018576733767986298,0.7698866128921509,-0.0,-0.006973784416913986,0.8108477592468262,0.0,-0.019892143085598946
960.0,922.0,3.0395,0.2243,8.6046,-0.0283,0.0185,-0.1344,-1.7079173527159632,0.0,2.5645432472229004,-1.8629028797149658,-0.0,2.047822952270508,4.835296819895067,-0.0,0.29147058725357056,-1.583017651234762,-0.0,-0.018681801855564117,0.769846498966217,-0.0,0.005790769122540951,0.8108680844306946,0.0,0.05964517593383789
960.0,922.0,3.0395,0.2243,8.6046,-0.0283,0.0185,-0.1344,-1.7078930340208949,0.0,2.609269618988037,-1.8629193305969238,-0.0,2.0268642902374268,4.835260364204206,-0.0,0.3065248727798462,-1.5830586592303675,-0.0,-0.02046824060380459,0.7698624730110168,-0.0,-0.005125865340232849,0.8108556866645813,0.0,0.011625560000538826
951.0,936.0,2.613,-0.1352,8.5107,-0.0075,0.08,-0.1025,-1.7079254589476527,0.0,2.5820446014404297,-1.8629441261291504,-0.0,2.04013729095459,4.835232476681032,-0.0,0.2836105227470398,-1.5830257574664515,-0.0,-0.00503187533468008,0.7698543071746826,-0.0,0.003948700148612261,0.810896098613739,0.0,0.03606255352497101
951.0,936.0,2.613,-0.1352,8.5107,-0.0075,0.08,-0.1025,-1.7079173527159632,0.0,2.607715129852295,-1.8628708124160767,-0.0,2.007429599761963,4.835240582912721,-0.0,0.30357736349105835,-1.583033863698141,-0.0,-0.007277328986674547,0.7698341012001038,-0.0,-0.010163309052586555,0.8108233213424683,0.0,-0.009520599618554115
951.0,936.0,2.613,-0.1352,8.5107,-0.0075,0.08,-0.1025,-1.7078854046263636,0.0,2.6472091674804688,-1.862923502922058,-0.0,2.0318479537963867,4.8352927369769,-0.0,0.2941676378250122,-1.5830138365374964,-0.0,-0.010876278392970562,0.7698907256126404,-0.0,-0.008651334792375565,0.8109647631645203,0.0,0.005053738597780466
951.0,936.0,2.613,-0.1352,8.5107,-0.0075,0.08,-0.1025,-1.7079493008055628,0.0,2.6115059852600098,-1.8629803657531738,-0.0,2.039680242538452,4.835248450725832,-0.0,0.2944786846637726,-1.5830257574664515,-0.0,-0.023921893909573555,0.7698746919631958,-0.0,-0.0036694100126624107,0.8108515739440918,0.0,0.028140664100646973
951.0,936.0,2.613,-0.1352,8.5107,-0.0075,0.08,-0.1025,-1.7079373798766078,0.0,2.604074239730835,-1.8629916906356812,-0.0,2.0268378257751465,4.835248458176412,-0.0,0.2942580580711365,-1.5830581823932093,-0.0,-0.01597336307168007,0.7698829174041748,-0.0,0.002370662521570921,0.8108556866645813,0.0,-0.006772794760763645
951.0,936.0,2.613,-0.1352,8.5107,-0.0075,0.08,-0.1025,-1.7079411945738734,0.0,2.595994234085083,-1.8629802465438843,-0.0,2.0042598247528076,4.83526040890769,-0.0,0.29621636867523193,-1.5830262343036097,-0.0,0.006271816790103912,0.7698543071746826,-0.0,0.0028524675872176886,0.8108758330345154,0.0,0.025490961968898773
951.0,936.0,2.613,-0.1352,8.5107,-0.0075,0.08,-0.1025,-1.7079292736449183,0.0,2.637911319732666,-1.8629555702209473,-0.0,2.0267863273620605,4.8352521164114854,-0.0,0.2960796654224396,-1.583050552998678,-0.0,0.003471091389656067,0.7698543071746826,-0.0,0.0030793272890150547,0.8108717203140259,0.0,0.00019846996292471886
951.0,936.0,2.613,-0.1352,8.5107,-0.0075,0.08,-0.1025,-1.7079411945738734,0.0,2.612321615219116,-1.8629639148712158,-0.0,2.0456206798553467,4.835296775191583,-0.0,0.30181780457496643,-1.5830257574664515,-0.0,-0.024178558960556984,0.7698783874511719,-0.0,-0.005798458121716976,0.8108515739440918,0.0,-0.04303956776857376
951.0,936.0,2.613,-0.1352,8.5107,-0.0075,0.08,-0.1025,-1.7078892193236292,0.0,2.6232519149780273,-1.8629637956619263,-0.0,2.019847869873047,4.835248450725832,-0.0,0.3011508584022522,-1.5830419699298304,-0.0,0.004105708561837673,0.7698104381561279,-0.0,0.002054727403447032,0.8108800053596497,0.0,-0.04141095653176308
951.0,936.0,2.613,-0.1352,8.5107,-0.0075,0.08,-0.1025,-1.707909723321432,0.0,2.6023058891296387,-1.8629400730133057,-0.0,2.0198464393615723,4.835280801146784,-0.0,0.2944893538951874,-1.5830662886248987,-0.0,-0.01563120074570179,0.7698460221290588,-0.0,-0.018973978236317635,0.8108477592468262,0.0,-0.01878206431865692
951.0,936.0,2.613,-0.1352,8.5107,-0.0075,0.08,-0.1025,-1.7079173527159632,0.0,2.580186367034912,-1.862898826599121,-0.0,2.031224012374878,4.835260379105367,-0.0,0.2945576310157776,-1.5830381552325647,-0.0,-0.01233767718076706,0.7698543071746826,-0.0,-0.0132765993475914,0.8108838200569153,0.0,-0.018074680119752884
951.0,936.0,2.613,-0.1352,8.5107,-0.0075,0.08,-0.1025,-1.7079054317870082,0.0,2.620767593383789,-1.8629357814788818,-0.0,2.0063977241516113,4.835280324309625,-0.0,0.2932339012622833,-1.5830462614642542,-0.0,-0.005282487720251083,0.7698345184326172,-0.0,0.011559367179870605,0.8108436465263367,0.0,-0.034736089408397675
957.0,928.0,2.2899,0.3846,9.0562,-0.0469,0.0202,-0.1109,-1.707893510858053,0.0,2.6220202445983887,-1.8629482984542847,-0.0,1.9999369382858276,4.835272545903482,-0.0,0.2839970588684082,-1.583017651234762,-0.0,-0.0037055546417832375,0.7698584198951721,-0.0,0.0007112198509275913,0.8108758330345154,0.0,0.005984424613416195
957.0,928.0,2.2899,0.3846,9.0562,-0.0469,0.0202,-0.1109,-1.7079011402525843,0.0,2.6442511081695557,-1.862959623336792,-0.0,2.050290584564209,4.835284489184179,-0.0,0.29504162073135376,-1.5829976240741175,-0.0,-0.01657702401280403,0.7698103189468384,-0.0,-0.007200941909104586,0.8108153939247131,0.0,0.023896746337413788
957.0,928.0,2.2899,0.3846,9.0562,-0.0469,0.0202,-0.1109,-1.7079254589476527,0.0,2.6114273071289062,-1.862951397895813,-0.0,2.0006699562072754,4.835248458176412,-0.0,0.29102838039398193,-1.583029572163717,-0.0,-0.009219067171216011,0.7698583602905273,-0.0,0.010568170808255672,0.8108837604522705,0.0,-0.03190511465072632
957.0,928.0,2.2899,0.3846,9.0562,-0.0469,0.0202,-0.1109,-1.707921644250387,0.0,2.628053665161133,-1.862899661064148,-0.0,2.0469305515289307,4.835191848665037,-0.0,0.2897484302520752,-1.583017651234762,-0.0,-0.007367284037172794,0.7698304653167725,-0.0,-0.010935676284134388,0.8109362721443176,0.0,0.03796982020139694
957.0,928.0,2.2899,0.3846,9.0562,-0.0469,0.0202,-0.1109,-1.707893510858053,0.0,2.612003803253174,-1.8629441261291504,-0.0,2.063443660736084,4.835268462985315,-0.0,0.28637248277664185,-1.5830825010882776,-0.0,-0.005048142280429602,0.7698746919631958,-0.0,-0.016541283577680588,0.8109161257743835,3.4317685049245483e-07,0.014192983508110046
957.0,928.0,2.2899,0.3846,9.0562,-0.0469,0.0202,-0.1109,-1.7079373798766078,0.0,2.6263928413391113,-1.8629555702209473,-0.0,2.035341262817383,4.8352766809757135,-0.0,0.29429203271865845,-1.5830777327166956,-0.0,0.0007209768518805504,0.7698989510536194,-0.0,-0.006190318614244461,0.8108758330345154,8.287315603726364e-13,0.0013875863514840603
957.0,928.0,2.2899,0.3846,9.0562,-0.0469,0.0202,-0.1109,-1.7078734836974085,9.45181236602366e-05,2.6677567958831787,-1.8629153966903687,-0.0,2.0156173706054688,4.835304493993082,-0.0,0.2931397259235382,-1.5830419699298304,-0.0,-0.022552751004695892,0.7698304653167725,-0.0,0.001424929010681808,0.8109280467033386,2.6849846474945127e-20,0.01680469512939453
957.0,928.0,2.2899,0.3846,9.0562,-0.0469,0.0202,-0.1109,-1.707921644250387,7.811463729012758e-05,2.653989315032959,-1.862931728363037,-0.0,2.0064971446990967,4.83531283119277,-0.0,0.28695181012153625,-1.5830782095538538,-0.0,-0.0032354434952139854,0.7698063254356384,-0.0,0.001029143575578928,0.8108915090560913,0.0005163323949091136,0.006521342787891626
957.0,928.0,2.2899,0.3846,9.0562,-0.0469,0.0202,-0.1109,-1.707909723321432,0.00010227107850369066,2.6204843521118164,-1.862931728363037,-0.0,1.9954543113708496,4.835288549750604,-0.0,0.29628226161003113,-1.5830538908587855,-0.0,-0.010435262694954872,0.7698664665222168,-0.0,-0.0024801441468298435,0.8108956813812256,0.0004931943258270621,-0.016333632171154022
957.0,928.0,2.2899,0.3846,9.0562,-0.0469,0.0202,-0.1109,-1.7079135380186976,8.987006731331348e-05,2.5746703147888184,-1.8629441261291504,-0.0,2.0123260021209717,4.8352562365825555,-0.0,0.2978571951389313,-1.583062473927633,-0.0,-0.008585523813962936,0.7699025273323059,-0.0,-0.01397878210991621,0.8108837604522705,0.000527462107129395,0.012224916368722916
957.0,928.0,2.2899,0.3846,9.0562,-0.0469,0.0202,-0.1109,-1.7079335651793421,7.931043364806101e-05,2.5999999046325684,-1.8629482984542847,-0.0,1.9906165599822998,4.835264491825857,-0.0,0.2934199273586273,-1.5830782095538538,-0.0,-0.02064644545316696,0.7699029445648193,-0.0,-0.004637093283236027,0.8108996152877808,0.0005918833776377141,0.01237616315484047
957.0,928.0,2.2899,0.3846,9.0562,-0.0469,0.0202,-0.1109,-1.7079054317870082,7.288732740562409e-05,2.664547920227051,-1.862923502922058,-0.0,2.0559234619140625,4.835256221681394,-0.0,0.2884843647480011,-1.5830743948565882,-0.0,-0.0015853727236390114,0.7698584198951721,-0.0,0.008733888156712055,0.810935914516449,0.0006031101220287383,-0.020214278250932693
957.0,928.0,2.2899,0.3846,9.0562,-0.0469,0.0202,-0.1109,-1.7079173527159632,6.578378815902397e-05,2.5379230976104736,-1.862931728363037,-0.0,1.9874870777130127,4.835276733129778,-0.0,0.2935095727443695,-1.5830743948565882,-0.0,-0.012780866585671902,0.7698907256126404,-0.0,-0.00656313169747591,0.8108996152877808,0.0004991350579075515,-0.026840994134545326
960.0,887.0,2.0979,0.332,9.0688,-0.0243,-0.0093,-0.1339,-1.7079454861082972,-3.3175761927850544e-05,2.6730408668518066,-1.8629237413406372,-0.0,2.0551693439483643,4.835260394006529,-0.0,0.2988765835762024,-1.5830419699298304,-0.0,-0.0017154715023934841,0.769834578037262,-0.0,-0.004468720871955156,0.8109161257743835,0.0004131887690164149,-0.04420187324285507
960.0,887.0,2.0979,0.332,9.0688,-0.0243,-0.0093,-0.1339,-1.7078811130919398,-2.8914131689816713e-05,2.6234376430511475,-1.8629761934280396,-0.0,2.021833896636963,4.8352398229535005,-0.0,0.30780190229415894,-1.5830662886248987,-0.0,-0.023425940424203873,0.7697980999946594,-0.0,-0.0015858295373618603,0.8109115362167358,0.00029424039530567825,0.02664187178015709
960.0,887.0,2.0979,0.332,9.0688,-0.0243,-0.0093,-0.1339,-1.7079173527159632,-2.5621560780564323e-05,2.6371312141418457,-1.8629521131515503,-0.0,2.067988395690918,4.835240225284853,-0.0,0.300369530916214,-1.5830867926227015,-0.0,-0.01939765363931656,0.7698460817337036,-0.0,-0.0014393206220120192,0.8109115362167358,0.00024777642101980746,-0.019003864377737045
960.0,887.0,2.0979,0.332,9.0688,-0.0243,-0.0093,-0.1339,-1.7079493008055628,-2.3605491151101887e-05,2.5803136825561523,-1.8629361391067505,-0.0,2.008979082107544,4.835248391121187,-0.0,0.2921912968158722,-1.5830052534686487,-0.0,-0.00550598930567503,0.7698185443878174,-0.0,-0.0034204027615487576,0.8109037280082703,8.426130807492882e-05,-0.021400313824415207
960.0,887.0,2.0979,0.332,9.0688,-0.0243,-0.0093,-0.1339,-1.7079173527159632,-5.676604268955998e-05,2.5923798084259033,-1.862911343574524,-0.0,2.024038076400757,4.835252533643999,-1.2154364181782285e-09,0.28477340936660767,-1.583062473927633,-0.0,-0.0034465081989765167,0.7698787450790405,-0.0,0.0056930663995444775,0.8109481930732727,7.08115185261704e-05,-0.025308357551693916
960.0,887.0,2.0979,0.332,9.0688,-0.0243,-0.0093,-0.1339,-1.70790495494985,-7.804224878782406e-05,2.5874173641204834,-1.8629282712936401,-0.0,1.9988110065460205,4.835216517537393,-2.2089955190561505e-14,0.2902567684650421,-1.5830419699298304,-0.0,-0.01234532706439495,0.7698383331298828,-0.0,0.0008075230289250612,0.8109362125396729,6.118341843830422e-05,0.03717096894979477
960.0,887.0,2.0979,0.332,9.0688,-0.0243,-0.0093,-0.1339,-1.7079736195006312,-0.0002199651498813182,2.6036057472229004,-1.8629401922225952,-0.0,2.0263476371765137,4.835248875408926,-6.148821440813942e-18,0.29275602102279663,-1.5830419699298304,-0.0,-0.011493686586618423,0.769818127155304,-0.0,-0.011415531858801842,0.8109197616577148,5.552171205636114e-05,-0.03451494127511978
960.0,887.0,2.0979,0.332,9.0688,-0.0243,-0.0093,-0.1339,-1.7079493008055628,-0.00019025453366339207,2.630499839782715,-1.8629913330078125,-0.0,1.9903810024261475,4.835284884064951,-1.1175179026026174e-22,0.29165488481521606,-1.5830381552325647,-0.0,-0.016644878312945366,0.769838273525238,-0.0,-1.4104647561907768e-05,0.8108552694320679,4.9423611926613376e-05,0.0054860650561749935
960.0,887.0,2.0979,0.332,9.0688,-0.0243,-0.0093,-0.1339,-1.7079774341978968,-0.00020074511121492833,2.6078085899353027,-1.8629441261291504,-0.0,2.0248703956604004,4.835224616318502,-3.110652345204631e-26,0.2904766798019409,-1.583029572163717,-0.0,-0.001996832899749279,0.7698707580566406,-0.0,-0.0027978618163615465,0.8108750581741333,4.5662229240406305e-05,-0.049085695296525955
960.0,887.0,2.0979,0.332,9.0688,-0.0243,-0.0093,-0.1339,-1.7079774341978968,-0.0002827752032317221,2.597546100616455,-1.8629595041275024,-0.0,2.0626423358917236,4.835256176977911,-5.653457795675234e-31,0.29842960834503174,-1.5830705801593226,-0.0,-0.0026288970839232206,0.7698988318443298,-0.0,-0.0007896798197180033,0.810912013053894,4.145568891544826e-05,-0.012503192760050297
960.0,887.0,2.0979,0.332,9.0688,-0.0243,-0.0093,-0.1339,-1.7080017528929652,-0.00033614312997087836,2.612351894378662,-1.8629196882247925,-0.0,1.9691190719604492,4.835252533643999,-1.0274881039181492e-35,0.28207987546920776,-1.5829976240741175,-0.0,0.00039527317858301103,0.7697899341583252,-0.0,-0.004535589832812548,0.8108838200569153,5.693809725926258e-05,0.008600381202995777
960.0,887.0,2.0979,0.332,9.0688,-0.0243,-0.0093,-0.1339,-1.7079774341978968,-0.0003457851707935333,2.5858612060546875,-1.8629595041275024,-0.0,1.994778037071228,4.835236142366686,-2.860051566985416e-39,0.29509472846984863,-1.5830262343036097,-0.0,-0.009494269266724586,0.7698103785514832,-0.0,0.0004701520665548742,0.8109078407287598,7.157163054216653e-05,0.007377183064818382
960.0,887.0,2.0979,0.332,9.0688,-0.0243,-0.0093,-0.1339,-1.708041330377096,-0.0006101216422393918,2.6221578121185303,-1.8629401922225952,-0.0,2.0379467010498047,4.83530085065917,-5.184804318001823e-44,0.28281325101852417,-1.5830543676959437,-0.0,-0.011993263848125935,0.769891083240509,-0.0,0.0036534506361931562,0.8108792304992676,0.00010376318823546171,0.0022085467353463173
945.0,914.0,2.077,0.3176,9.0604,-0.0564,0.0341,-0.1216,-1.708017488519186,-0.0006860298453830183,2.642852544784546,-1.8629401922225952,-0.0,1.993509292602539,4.835260386555948,-0.0,0.2982438802719116,-1.5830257574664515,-0.0,-0.02096492052078247,0.7698584198951721,-0.0,0.0069074854254722595,0.8109437227249146,0.0008502008859068155,-0.04277314245700836
945.0,914.0,2.077,0.3176,9.0604,-0.0564,0.0341,-0.1216,-1.7080375156798304,-0.0006621887441724539,2.6295366287231445,-1.862931728363037,-0.0,1.9879710674285889,4.835280771344461,-0.0,0.29053783416748047,-1.583017651234762,-0.0,-0.017611468210816383,0.7698222994804382,-0.0,0.003851914079859853,0.8109679222106934,0.0013676566304638982,-0.029053600504994392
945.0,914.0,2.077,0.3176,9.0604,-0.0564,0.0341,-0.1216,-1.7080208263792933,-0.0010495723690837622,2.650963306427002,-1.8629322052001953,-0.0,2.0368566513061523,4.835272538452902,-0.0,0.293303519487381,-1.583005730305807,-0.0,-0.01299317181110382,0.7697899341583252,-0.0,-0.004854286555200815,0.8110001087188721,0.0017426501726731658,0.012212824076414108
945.0,914.0,2.077,0.3176,9.0604,-0.0564,0.0341,-0.1216,-1.7080370388426722,-0.0019066112581640482,2.609369993209839,-1.8629595041275024,-0.0,2.0580902099609375,4.835288534849443,-0.0,0.29844754934310913,-1.5830100218402308,-0.0,-0.015589977614581585,0.7698583602905273,-0.0,0.004410515073686838,0.8109798431396484,0.0014074001228436828,-0.012035922147333622
945.0,914.0,2.077,0.3176,9.0604,-0.0564,0.0341,-0.1216,-1.7080327473082484,-0.0021758745424449444,2.596284866333008,-1.8629714250564575,-0.0,2.0551018714904785,4.835232461779871,-0.0,0.2943842113018036,-1.583029572163717,-0.0,-0.023023009300231934,0.7698063254356384,-0.0,-0.00652504526078701,0.8109354376792908,0.0006768606253899634,-0.03184095397591591
945.0,914.0,2.077,0.3176,9.0604,-0.0564,0.0341,-0.1216,-1.7081099949278773,-0.0019404767081141472,2.6189961433410645,-1.8629674911499023,-0.0,2.033310651779175,4.835264454572954,-0.0,0.2976462244987488,-1.583033863698141,-0.0,-0.016680827364325523,0.7698103785514832,-0.0,-0.005271928384900093,0.8109354376792908,0.0004260576097294688,0.02685062773525715
945.0,914.0,2.077,0.3176,9.0604,-0.0564,0.0341,-0.1216,-1.7080608807005824,-0.0017462848918512464,2.6278061866760254,-1.8629356622695923,-0.0,2.0288920402526855,4.835280801146784,-0.0,0.2872270345687866,-1.5829780737506312,-0.0,-0.014051366597414017,0.7699145078659058,-0.0,-0.0011865440756082535,0.8109515905380249,0.0002716153394430876,0.043460652232170105
945.0,914.0,2.077,0.3176,9.0604,-0.0564,0.0341,-0.1216,-1.7080651722350062,-0.0015215822495520115,2.6377570629119873,-1.8629038333892822,-0.0,2.0114071369171143,4.835276695876875,-0.0,0.2831525504589081,-1.5829899946795862,-0.0,-0.011772380210459232,0.7698624730110168,-0.0,-0.009047122672200203,0.8109153509140015,0.0001530333247501403,-0.000903518870472908
945.0,914.0,2.077,0.3176,9.0604,-0.0564,0.0341,-0.1216,-1.7081128559508265,-0.0020454449113458395,2.608487367630005,-1.8629276752471924,-0.0,2.041219711303711,4.835244360357084,-0.0,0.30340051651000977,-1.5830062071429651,-0.0,-0.012974049896001816,0.769838273525238,-0.0,0.0025462941266596317,0.8109156489372253,-0.00010366957576479763,0.0005046818405389786
945.0,914.0,2.077,0.3176,9.0604,-0.0564,0.0341,-0.1216,-1.708104749719137,-0.0023322002962231636,2.628096103668213,-1.8629153966903687,-0.0,2.0465986728668213,4.8352685300405405,-0.0,0.29350554943084717,-1.5830343405352991,-0.0,-0.014993113465607166,0.7698264122009277,-0.0,-0.00121464510448277,0.8108872771263123,-0.0001749883231241256,-0.045846305787563324
945.0,914.0,2.077,0.3176,9.0604,-0.0564,0.0341,-0.1216,-1.7081614933409632,-0.0026228262577205896,2.6457161903381348,-1.8629635572433472,-0.0,2.0672690868377686,4.835232476681032,-0.0,0.29276835918426514,-1.5829694906817835,-0.0,-0.022744987159967422,0.7697702050209045,-0.0,0.001830466790124774,0.810912013053894,-0.0005410126177594066,0.010746734216809273
945.0,914.0,2.077,0.3176,9.0604,-0.0564,0.0341,-0.1216,-1.708172460595602,-0.002150887157768011,2.5924935340881348,-1.8628919124603271,-0.0,2.0571670532226562,4.835248465626993,-0.0,0.29812201857566833,-1.58299428621401,-0.0,-0.005612603854387999,0.7698304653167725,-0.0,-0.020871123299002647,0.8108997941017151,-0.0019617127254605293,-0.016778426244854927
959.0,918.0,2.0375,0.0227,9.1597,-0.0357,0.015,-0.1379,-1.7081886730589808,-0.0022058915346860886,2.6224732398986816,-1.862931728363037,-0.0,2.0456125736236572,4.835293087154188,-0.0,0.2972560524940491,-1.5829618612872522,-0.0,-0.012151297181844711,0.7698706388473511,-0.0,-0.009787816554307938,0.8108510971069336,-0.0029617256950587034,0.0007795281708240509
959.0,918.0,2.0375,0.0227,9.1597,-0.0357,0.015,-0.1379,-1.708200593987936,-0.0024650271516293287,2.5871987342834473,-1.8629153966903687,-0.0,2.0612294673919678,4.83525254854516,-0.0,0.2955537438392639,-1.5829499403582972,0.00035166399902664125,-0.01771896705031395,0.769846498966217,-0.0,-0.004344988614320755,0.810795247554779,-0.004357583820819855,-0.062347013503313065
959.0,918.0,2.0375,0.0227,9.1597,-0.0357,0.015,-0.1379,-1.708233495751852,-0.002394548850134015,2.596405267715454,-1.862956166267395,-0.0,2.0700573921203613,4.8352205259497545,-0.0,0.2852526307106018,-1.582966152821676,0.0003875382535625249,-0.013555905781686306,0.7698341608047485,-0.0,-0.004927131347358227,0.8108200430870056,-0.004793789237737656,-0.05774116516113281
959.0,918.0,2.0375,0.0227,9.1597,-0.0357,0.015,-0.1379,-1.7082811794676722,-0.0028074546717107296,2.520838975906372,-1.8629193305969238,0.00011521473788889125,1.9923961162567139,4.835256206780233,-0.0,0.2863847315311432,-1.582954231892721,0.0005111958598718047,-0.004087044857442379,0.7698264122009277,-0.0,-0.009564281441271305,0.8107801675796509,-0.0055061206221580505,-0.08177424967288971
959.0,918.0,2.0375,0.0227,9.1597,-0.0357,0.015,-0.1379,-1.7083212337889613,-0.003821973456069827,2.5653531551361084,-1.8629521131515503,0.00012459330901037902,1.9968607425689697,4.835272612958708,-0.0,0.28663259744644165,-1.582926098500387,0.00044608773896470666,-0.005382268689572811,0.7697941064834595,-0.0,-0.011689232662320137,0.8107039928436279,-0.006790489889681339,-0.05527488887310028
959.0,918.0,2.0375,0.0227,9.1597,-0.0357,0.015,-0.1379,-1.7083054981627406,-0.004715905524790287,2.5291085243225098,-1.8629276752471924,0.00011726086813723668,2.0168426036834717,4.83523244687871,-0.0,0.2754501402378082,-1.582966152821676,0.00041426203097216785,-0.008552930317819118,0.7698021531105042,-0.0,0.010810299776494503,0.8105869293212891,-0.00844595767557621,-0.08947953581809998
959.0,918.0,2.0375,0.0227,9.1597,-0.0357,0.015,-0.1379,-1.7083856068053187,-0.005486785899847746,2.52142333984375,-1.862939715385437,0.00012587087985593826,2.042743682861328,4.835236537247457,-0.0,0.27580583095550537,-1.5829179922686976,0.0003414223901927471,0.0053240046836435795,0.7698304653167725,-0.0,-0.005842924118041992,0.8104907870292664,-0.011053420603275299,-0.08786729723215103
959.0,918.0,2.0375,0.0227,9.1597,-0.0357,0.015,-0.1379,-1.708416601220602,-0.006178982090204954,2.515777826309204,-1.862907886505127,0.00013297959230840206,2.0759031772613525,4.835248853057184,-0.0,0.27449941635131836,-1.5829580465899866,0.00028697631205432117,-0.004995287396013737,0.7698423862457275,-0.0,-0.0010080387583002448,0.8104150295257568,-0.014326677657663822,-0.14462891221046448
959.0,918.0,2.0375,0.0227,9.1597,-0.0357,0.015,-0.1379,-1.708484788934225,-0.007148383650928736,2.49556303024292,-1.8628872632980347,0.00012626130774151534,2.0377047061920166,4.835240620165624,-0.0,0.2694263458251953,-1.582909886037008,0.00022248983441386372,0.004671055823564529,0.7698264122009277,-0.0,0.011224477551877499,0.8103834986686707,-0.015487109310925007,-0.12216027081012726
959.0,918.0,2.0375,0.0227,9.1597,-0.0357,0.015,-0.1379,-1.7085167370238246,-0.007657094858586788,2.488964796066284,-1.8628835678100586,0.000221178779611364,2.0353589057922363,4.835232461779871,-0.0,0.27337443828582764,-1.5829218069659632,0.00022261762933339924,0.006779457908123732,0.7698870301246643,-0.0,-0.006809423677623272,0.8102192282676697,-0.017507510259747505,-0.14113663136959076
959.0,918.0,2.0375,0.0227,9.1597,-0.0357,0.015,-0.1379,-1.7085534534850062,-0.008770777843892574,2.517406940460205,-1.862851858139038,0.00020049473096150905,1.9903481006622314,4.835224616318502,-0.0,0.2651183605194092,-1.582914177571432,0.000198248220840469,0.014180137775838375,0.7698501348495483,-0.0,0.006241257302463055,0.8100783824920654,-0.018837710842490196,-0.12999030947685242
959.0,918.0,2.0375,0.0227,9.1597,-0.0357,0.015,-0.1379,-1.7086321316161097,-0.010269510559737682,2.473658800125122,-1.8628711700439453,0.0002036622609011829,2.0640242099761963,4.835244382708826,-8.3931750850752e-05,0.2731795608997345,-1.5829060713397425,0.00020166125614196062,0.020781230181455612,0.7698992490768433,-0.0,-0.0017956069204956293,0.8099590539932251,-0.019232017919421196,-0.09186993539333344
959.0,918.0,2.0375,0.0227,9.1597,-0.0357,0.015,-0.1379,-1.7087165317931117,-0.011600985191762447,2.46519136428833,-1.8629436492919922,0.00020598336413968354,2.044586420059204,4.835208180337705,-9.320394019596279e-05,0.26669707894325256,-1.5829218069659632,0.00020094559295102954,0.009346448816359043,0.7698021531105042,-0.0,-0.015874072909355164,0.8097582459449768,-0.01888357847929001,-0.1624038815498352
958.0,924.0,2.2104,0.5103,9.3906,-0.0389,0.0093,-0.1631,-1.708792348901266,-0.012763077393174171,2.467838764190674,-1.8629037141799927,0.0002841465175151825,2.0445961952209473,4.835220540850916,-8.909142343327403e-05,0.2634263038635254,-1.5829022566424769,0.00018875650130212307,0.026167908683419228,0.7698383331298828,-0.0,0.0029453416354954243,0.8096704483032227,-0.018685396760702133,-0.15852470695972443
958.0,924.0,2.2104,0.5103,9.3906,-0.0389,0.0093,-0.1631,-1.7089086971678675,-0.014712881296873093,2.4758057594299316,-1.862831950187683,0.0006282925605773926,2.002290725708008,4.835204194277086,-9.748971933731809e-05,0.28016769886016846,-1.5828736464129847,0.00021749972074758261,0.023302676156163216,0.769826352596283,-0.0,0.0019802511669695377,0.8094820976257324,-0.018135474994778633,-0.23410075902938843
958.0,924.0,2.2104,0.5103,9.3906,-0.0389,0.0093,-0.1631,-1.7090374432005824,-0.01661871187388897,2.3814127445220947,-1.862846851348877,0.0011850292794406414,2.0527050495147705,4.835216435581007,-9.182094800053164e-05,0.2701783776283264,-1.582869831715719,0.00022484484361484647,0.02963957190513611,0.7698706388473511,-0.0,-0.007257319986820221,0.8093904852867126,-0.0198358241468668,-0.24084819853305817
958.0,924.0,2.2104,0.5103,9.3906,-0.0389,0.0093,-0.1631,-1.709137579003805,-0.01785893924534321,2.397064208984375,-1.8628995418548584,0.001891023712232709,1.9819340705871582,4.8352767629321,-0.00010053494770545512,0.2617334723472595,-1.5828898588763636,0.000232181599130854,0.029526181519031525,0.7698186039924622,-0.0,0.009648425504565239,0.8092460036277771,-0.01984116993844509,-0.20814430713653564
958.0,924.0,2.2104,0.5103,9.3906,-0.0389,0.0093,-0.1631,-1.7092482052245082,-0.01879573054611683,2.4300999641418457,-1.8628557920455933,0.005881267134100199,2.0290017127990723,4.8352685300405405,-0.00017537284293211997,0.2516634464263916,-1.582886044179098,0.00029938117950223386,0.031773049384355545,0.769846498966217,-0.0,-0.009515836834907532,0.8090865015983582,-0.020736290141940117,-0.22160501778125763
958.0,924.0,2.2104,0.5103,9.3906,-0.0389,0.0093,-0.1631,-1.7093755207457484,-0.021705880761146545,2.384868860244751,-1.8627876043319702,0.007895183749496937,2.0621402263641357,4.835220540850916,-0.00018334829655941576,0.25650280714035034,-1.5828583876239222,0.00030836177757009864,0.03466249257326126,0.7698907852172852,-0.0,0.004305791575461626,0.8089138269424438,-0.022814065217971802,-0.195390522480011
958.0,924.0,2.2104,0.5103,9.3906,-0.0389,0.0093,-0.1631,-1.7095638714232386,-0.02391456998884678,2.341670274734497,-1.8626914024353027,0.008311493322253227,2.043349266052246,4.835196020990171,-0.000180066519533284,0.25099751353263855,-1.5828583876239222,0.0003072500112466514,0.04681842774152756,0.7698017358779907,-0.0,-0.005405263975262642,0.8087373971939087,-0.022206004709005356,-0.25188368558883667
958.0,924.0,2.2104,0.5103,9.3906,-0.0389,0.0093,-0.1631,-1.70973600963735,-0.026246698573231697,2.3605170249938965,-1.8625919818878174,0.010104794055223465,2.0729949474334717,4.835244799941339,-0.00017288043454755098,0.2477950155735016,-1.5828498045550745,0.00036211186670698225,0.037957075983285904,0.7698543071746826,-0.0,0.005401738919317722,0.8085854649543762,-0.023677268996834755,-0.2723056674003601
958.0,924.0,2.2104,0.5103,9.3906,-0.0389,0.0093,-0.1631,-1.7098757229247035,-0.026268335059285164,2.342061996459961,-1.862544059753418,0.010829011909663677,1.9516348838806152,4.835256638913908,-0.00015973011613823473,0.2401876151561737,-1.582785431538717,0.00034494700958020985,0.04242155700922012,0.7698543071746826,-0.0,0.0023741512559354305,0.8084657192230225,-0.026226548478007317,-0.25087854266166687
958.0,924.0,2.2104,0.5103,9.3906,-0.0389,0.0093,-0.1631,-1.7100793323912562,-0.02640584483742714,2.2773537635803223,-1.8624354600906372,0.012203370220959187,2.075770139694214,4.835240612715044,-0.00014502194244414568,0.2526613473892212,-1.5828741232501429,0.00031415847479365766,0.05152082443237305,0.7698543071746826,-0.0,0.006265104748308659,0.8082213997840881,-0.02854318916797638,-0.2639046311378479
958.0,924.0,2.2104,0.5103,9.3906,-0.0389,0.0093,-0.1631,-1.7103201351561488,-0.02833980694413185,2.3212835788726807,-1.8623754978179932,0.013220291584730148,2.0186877250671387,4.835188227682867,-0.00015176321903709322,0.23108744621276855,-1.58282977739443,0.00027035028324462473,0.06178342178463936,0.7698423862457275,-0.0,0.00705407839268446,0.808037519454956,-0.03127545118331909,-0.25815051794052124
958.0,924.0,2.2104,0.5103,9.3906,-0.0389,0.0093,-0.1631,-1.7104999027647914,-0.0296594500541687,2.2844347953796387,-1.8622965812683105,0.01388524193316698,2.0083441734313965,4.83523656704978,-0.00014273817942012101,0.23820562660694122,-1.5828583876239222,0.0002395095507381484,0.06222860887646675,0.7698185443878174,-0.0,0.0037151770666241646,0.8078494668006897,-0.033185459673404694,-0.27716463804244995
958.0,924.0,2.2104,0.5103,9.3906,-0.0389,0.0093,-0.1631,-1.7107635937132777,-0.030655931681394577,2.3039345741271973,-1.862175464630127,0.015230596996843815,2.0221142768859863,4.835204194277086,-0.00013225078873801976,0.2360634207725525,-1.58282977739443,0.00023758529277984053,0.047119200229644775,0.769854724407196,-0.0,-0.0022851666435599327,0.8074806928634644,-0.03798612579703331,-0.27959176898002625
978.0,948.0,2.6375,0.8686,9.0461,-0.0221,0.0745,-0.2248,-1.710994382897848,-0.029857248067855835,2.2406506538391113,-1.8620562553405762,0.019197281450033188,2.055934429168701,4.8352608037884615,-0.00012319892994128168,0.23047992587089539,-1.5828784147845667,0.00020988403412047774,0.05309157818555832,0.7699349522590637,-0.0,-0.007018217816948891,0.807172417640686,-0.04479525238275528,-0.33103466033935547
978.0,948.0,2.6375,0.8686,9.0461,-0.0221,0.0745,-0.2248,-1.7111298046507777,-0.02996889501810074,2.2715325355529785,-1.8618555068969727,0.021002477034926414,2.013352870941162,4.835240612715044,-0.00011718345922417939,0.23357293009757996,-1.5828703085528772,0.0001930035650730133,0.05401304364204407,0.7698706388473511,-0.0,-0.0015850390773266554,0.8069203495979309,-0.05138644576072693,-0.3073728084564209
978.0,948.0,2.6375,0.8686,9.0461,-0.0221,0.0745,-0.2248,-1.7114092312254847,-0.030774639919400215,2.28322172164917,-1.8617122173309326,0.024106107652187347,2.0221400260925293,4.835224616318502,-0.00011002091923728585,0.23986512422561646,-1.5828741232501429,0.00017431212472729385,0.05386047065258026,0.769846498966217,-0.0,-0.01279069297015667,0.8064029812812805,-0.06358063220977783,-0.3711169958114624
978.0,948.0,2.6375,0.8686,9.0461,-0.0221,0.0745,-0.2248,-1.7116548023619593,-0.032261960208415985,2.332615375518799,-1.8615351915359497,0.02831600233912468,2.054870843887329,4.835252533643999,-0.00010519836359890178,0.22897638380527496,-1.5828421751605433,0.00016250857152044773,0.050897665321826935,0.7698387503623962,-0.0,0.006829970516264439,0.8059786558151245,-0.07491794228553772,-0.4086248278617859
978.0,948.0,2.6375,0.8686,9.0461,-0.0221,0.0745,-0.2248,-1.7119227848448695,-0.03348448500037193,2.2834486961364746,-1.8612754344940186,0.03220731019973755,2.0544726848602295,4.835248458176412,-9.93896828731522e-05,0.2505570352077484,-1.582886044179098,0.0001490514405304566,0.06793732196092606,0.7698906660079956,-0.0,-0.0003987433738075197,0.8053582906723022,-0.08372627943754196,-0.35683324933052063
978.0,948.0,2.6375,0.8686,9.0461,-0.0221,0.0745,-0.2248,-1.7121616802611292,-0.03135986253619194,2.3228068351745605,-1.8610596656799316,0.037179846316576004,2.101557731628418,4.835228393762865,-9.418896661372855e-05,0.24359291791915894,-1.5828498045550745,0.0001376526925014332,0.052071161568164825,0.7698788046836853,-0.0,-0.0121822664514184,0.8047305941581726,-0.0890982523560524,-0.3694796562194824
978.0,948.0,2.6375,0.8686,9.0461,-0.0221,0.0745,-0.2248,-1.7123214207091273,-0.028833389282226562,2.332028865814209,-1.8607882261276245,0.04085277020931244,2.085435152053833,4.835244382708826,-9.06320710782893e-05,0.24440833926200867,-1.5828583876239222,0.00013018552272114903,0.041523512452840805,0.76992267370224,-0.0,-0.01603914052248001,0.8041698932647705,-0.08800920099020004,-0.3843597173690796
978.0,948.0,2.6375,0.8686,9.0461,-0.0221,0.0745,-0.2248,-1.712517877618307,-0.024365346878767014,2.3523130416870117,-1.860488772392273,0.04591800272464752,2.058180093765259,4.8352525410945795,-8.628738578408957e-05,0.2431003451347351,-1.5828173796283167,0.00012140480248490348,0.04863067716360092,0.7698706388473511,-0.0,-0.002156512811779976,0.8034211993217468,-0.08744897693395615,-0.35832732915878296
978.0,948.0,2.6375,0.8686,9.0461,-0.0221,0.0745,-0.2248,-1.7127014599242152,-0.021005021408200264,2.3752481937408447,-1.8600683212280273,0.0500742644071579,2.1046338081359863,4.835204194277086,-8.234023698605597e-05,0.23530414700508118,-1.5828254858600062,0.00011373370216460899,0.04036007449030876,0.7698140740394592,-0.0,0.001118611777201295,0.8027324080467224,-0.0827893391251564,-0.32571515440940857
978.0,948.0,2.6375,0.8686,9.0461,-0.0221,0.0745,-0.2248,-1.7129112682738246,-0.019926175475120544,2.349519729614258,-1.8597275018692017,0.05137234926223755,2.093123197555542,4.835240225284853,-7.960904622450471e-05,0.24498377740383148,-1.5828502813922327,0.00010858781024580821,0.05210932344198227,0.7698862552642822,-0.0,-0.009095600806176662,0.8022603392601013,-0.08293134719133377,-0.3701798915863037
978.0,948.0,2.6375,0.8686,9.0461,-0.0221,0.0745,-0.2248,-1.713050981561178,-0.01577843353152275,2.371582269668579,-1.8593637943267822,0.053882498294115067,2.1285948753356934,4.835264454572954,-1.4468554132562872e-09,0.24659833312034607,-1.5828540960894983,0.00010240981646347791,0.04429785907268524,0.7698341608047485,-0.0,0.00030816602520644665,0.8015998005867004,-0.08413290977478027,-0.3801809549331665
978.0,948.0,2.6375,0.8686,9.0461,-0.0221,0.0745,-0.2248,-1.7130328617491664,-0.01242896355688572,2.3382155895233154,-1.8590489625930786,0.057151105254888535,2.122264862060547,4.835280771344461,-4.0273749504597667e-13,0.24651578068733215,-1.582801644002096,9.82187339104712e-05,0.04942028969526291,0.7698464393615723,-0.0,0.00010641384869813919,0.8010870814323425,-0.08840958774089813,-0.32971763610839844
966.0,941.0,1.7336,-0.2363,10.0511,-0.0812,0.1477,-0.181,-1.7131463489928187,-0.008105809800326824,2.3891072273254395,-1.858485460281372,0.05797005817294121,2.1009879112243652,4.83525254854516,-7.319554149998006e-18,0.24728325009346008,-1.5828784147845667,9.313660120824352e-05,0.047580864280462265,0.7698743343353271,-0.0,0.00811458658427,0.8003706336021423,-0.09544094651937485,-0.3303784132003784
966.0,941.0,1.7336,-0.2363,10.0511,-0.0812,0.1477,-0.181,-1.7131902180113734,-0.004385716747492552,2.3978190422058105,-1.8581163883209229,0.057757217437028885,2.1228485107421875,4.835236537247457,-1.3302928738379393e-22,0.23505859076976776,-1.5828741232501429,8.855453052092344e-05,0.0482560470700264,0.7698103785514832,-0.0,0.0009868000634014606,0.7996141910552979,-0.09943462908267975,-0.35943683981895447
966.0,941.0,1.7336,-0.2363,10.0511,-0.0812,0.1477,-0.181,-1.713165899316305,-0.0019378374563530087,2.4338135719299316,-1.8577723503112793,0.05676567927002907,2.1420297622680664,4.835236142366686,-3.7029189439344604e-26,0.24237608909606934,-1.5828421751605433,8.540341514162719e-05,0.04733438044786453,0.7698866724967957,-0.0,-0.00728644197806716,0.7989932894706726,-0.10169966518878937,-0.3335645794868469
966.0,941.0,1.7336,-0.2363,10.0511,-0.0812,0.1477,-0.181,-1.7131864033141078,-0.0005685031064786017,2.44064998626709,-1.8572728633880615,0.05452517792582512,2.120737075805664,4.835260394006529,-6.729871608457672e-31,0.26388558745384216,-1.5828903357135218,8.153489034157246e-05,0.055756159126758575,0.7698664665222168,-0.0,-0.001205437583848834,0.7982050180435181,-0.10122645646333694,-0.32774680852890015
966.0,941.0,1.7336,-0.2363,10.0511,-0.0812,0.1477,-0.181,-1.7132183514037074,-0.0003480013401713222,2.41274356842041,-1.856852412223816,0.05506865307688713,2.136737108230591,4.835248458176412,-1.9862582689711417e-07,0.2637022137641907,-1.5828421751605433,6.70533665925177e-07,0.047851014882326126,0.7698464393615723,-0.0,-0.00411182688549161,0.7973842620849609,-0.09023217111825943,-0.3074600398540497
966.0,941.0,1.7336,-0.2363,10.0511,-0.0812,0.1477,-0.181,-1.713198801080221,-0.00020231524831615388,2.46848201751709,-1.8565694093704224,0.05807744339108467,2.1644322872161865,4.835264387517729,-5.528822885625395e-11,0.2680535912513733,-1.5828617254840296,1.866454907295534e-10,0.057647012174129486,0.769822359085083,-0.0,-0.006645359098911285,0.796884298324585,-0.08299149572849274,-0.3054353594779968
966.0,941.0,1.7336,-0.2363,10.0511,-0.0812,0.1477,-0.181,-1.7132021389403285,-0.0001556499337311834,2.4459774494171143,-1.855988621711731,0.06571520119905472,2.1417407989501953,4.835288534849443,-1.0048361382398422e-15,0.2635737359523773,-1.5828784147845667,3.39218971210926e-15,0.04181603342294693,0.7698336839675903,-0.0,-0.000933383998926729,0.7962399125099182,-0.08217336982488632,-0.32692915201187134
966.0,941.0,1.7336,-0.2363,10.0511,-0.0812,0.1477,-0.181,-1.713266988793844,-8.86038105818443e-05,2.4651870727539062,-1.8554683923721313,0.07364258170127869,2.191563606262207,4.835268537491121,-1.826239985989198e-20,0.2593761384487152,-1.5828540960894983,6.165137371601397e-20,0.04290098324418068,0.7698746919631958,-0.0,-0.003775340970605612,0.7955747246742249,-0.08316337317228317,-0.30875644087791443
966.0,941.0,1.7336,-0.2363,10.0511,-0.0812,0.1477,-0.181,-1.7132626972594203,-0.00015546896611340344,2.385127544403076,-1.8549777269363403,0.0804201140999794,2.200975179672241,4.835216465383329,-5.083405868178359e-24,0.2612422704696655,-1.5828617254840296,1.7160888020786943e-23,0.026476413011550903,0.769890308380127,-0.0,-0.004883956164121628,0.7951308488845825,-0.08281522989273071,-0.3639819025993347
966.0,941.0,1.7336,-0.2363,10.0511,-0.0812,0.1477,-0.181,-1.713205953637594,-0.002361704595386982,2.4256715774536133,-1.854353427886963,0.09044909477233887,2.143941640853882,4.835240225284853,-9.238840619474229e-29,0.2685035169124603,-1.5828822294818323,3.118906563167834e-28,0.028585385531187057,0.7698746919631958,-0.0,-0.0037887049838900566,0.7944381237030029,-0.08237672597169876,-0.38604918122291565
966.0,941.0,1.7336,-0.2363,10.0511,-0.0812,0.1477,-0.181,-1.713262220422262,-0.002734238049015403,2.4878220558166504,-1.8537609577178955,0.09532362967729568,2.214977741241455,4.835212456970968,-2.5716657254923816e-32,0.2688632011413574,-1.582886044179098,8.681590018110988e-32,0.031248154118657112,0.7698423862457275,-0.0,-0.0006191444117575884,0.7939416170120239,-0.08131479471921921,-0.34009063243865967
966.0,941.0,1.7336,-0.2363,10.0511,-0.0812,0.1477,-0.181,-1.713266511956686,-0.0014368299162015319,2.451021194458008,-1.8529610633850098,0.09983760863542557,2.2175254821777344,4.835220540850916,-4.673875651781703e-37,0.26314711570739746,-1.5828779379474085,1.5778362420964496e-36,0.04356149211525917,0.769914448261261,-0.0,0.010037090629339218,0.7932491898536682,-0.08537504822015762,-0.3078445792198181
966.0,941.0,1.7336,-0.2363,10.0511,-0.0812,0.1477,-0.181,-1.7132588825621546,-0.0002775541797745973,2.4758970737457275,-1.8521654605865479,0.10145112127065659,2.2846922874450684,4.835284459381857,-8.494671290737041e-42,0.2645837664604187,-1.5828378836261194,2.8676171773943057e-41,0.046459391713142395,0.769818127155304,-0.0,-0.0036617848090827465,0.7925768494606018,-0.0857742577791214,-0.3979233503341675
957.0,948.0,1.8156,0.0664,9.6018,-0.0568,0.2025,-0.1973,-1.7132379017271937,-9.535360004520044e-05,2.474283218383789,-1.8515501022338867,0.10757622122764587,2.213186740875244,4.835232461779871,-2.802596928649634e-45,0.26623257994651794,-1.5828617254840296,8.407790785948902e-45,0.0489819273352623,0.7699263095855713,-0.0,0.010033301077783108,0.7920242547988892,-0.08241675049066544,-0.3340279757976532
957.0,948.0,1.8156,0.0664,9.6018,-0.0568,0.2025,-0.1973,-1.7132302723326625,-7.225708920088891e-11,2.4595916271209717,-1.8506430387496948,0.11554508656263351,2.292271852493286,4.835244367807665,-0.0,0.27652934193611145,-1.5828660170184534,0.0,0.05151621997356415,0.7699307799339294,-0.0,0.010741351172327995,0.7913919687271118,-0.07812772691249847,-0.3099327087402344
957.0,948.0,1.8156,0.0664,9.6018,-0.0568,0.2025,-0.1973,-1.7132464847960414,-2.3410379727865914e-18,2.482113838195801,-1.8497018814086914,0.12622389197349548,2.2546520233154297,4.835280771344461,-0.0,0.2731627821922302,-1.5828703085528772,0.0,0.053017161786556244,0.769890308380127,-0.0,-0.0015375373186543584,0.7907634377479553,-0.07661546766757965,-0.35618752241134644
957.0,948.0,1.8156,0.0664,9.6018,-0.0568,0.2025,-0.1973,-1.7132297954955042,-5.653331445360215e-24,2.47001314163208,-1.8489114046096802,0.13690921664237976,2.29848575592041,4.835264476924696,-0.0,0.2611031234264374,-1.5828660170184534,0.0,0.0690956860780716,0.7698783874511719,-0.0,6.77966236253269e-05,0.7902706265449524,-0.07815271615982056,-0.32613396644592285
957.0,948.0,1.8156,0.0664,9.6018,-0.0568,0.2025,-0.1973,-1.713351388970846,-0.0028991776052862406,2.470795154571533,-1.8477336168289185,0.14283087849617004,2.2969155311584473,4.835224601417341,-0.0,0.26488035917282104,-1.5828421751605433,0.0,0.045432187616825104,0.7699066996574402,-0.0,-0.002255344996228814,0.7896586060523987,-0.07762739807367325,-0.32990336418151855
957.0,948.0,1.8156,0.0664,9.6018,-0.0568,0.2025,-0.1973,-1.7133547268309535,-0.004972758237272501,2.42055082321167,-1.8468860387802124,0.1360386162996292,2.261761426925659,4.835236529796877,-0.0,0.25247812271118164,-1.5828540960894983,0.0,0.051731862127780914,0.7698379158973694,-0.0,-0.00504972692579031,0.7891941666603088,-0.07737712562084198,-0.34164947271347046
957.0,948.0,1.8156,0.0664,9.6018,-0.0568,0.2025,-0.1973,-1.7133666477599085,-0.003775219200178981,2.4415276050567627,-1.8457531929016113,0.14153030514717102,2.265591621398926,4.835293079703607,-0.0,0.2508508563041687,-1.5828540960894983,3.1567424230161123e-06,0.05874671787023544,0.7698341608047485,-0.0,0.0005158230196684599,0.7885655164718628,-0.07862135767936707,-0.34711235761642456
957.0,948.0,1.8156,0.0664,9.6018,-0.0568,0.2025,-0.1973,-1.7133704624571742,-0.0010859095491468906,2.420717477798462,-1.8445475101470947,0.14898714423179626,2.3021645545959473,4.835232476681032,-0.0,0.2513473331928253,-1.5828540960894983,5.737224237356564e-11,0.07504361122846603,0.7698866128921509,-0.0,0.004633503500372171,0.7879452109336853,-0.0826004147529602,-0.3210727274417877
957.0,948.0,1.8156,0.0664,9.6018,-0.0568,0.2025,-0.1973,-1.7134109936156214,-0.0001766679488355294,2.413513422012329,-1.8436440229415894,0.1559942364692688,2.3007826805114746,4.835228773742475,-0.0,0.2513471245765686,-1.5828540960894983,1.5969772840284183e-14,0.07339932024478912,0.7698783874511719,-0.0,0.006688753608614206,0.7874366641044617,-0.08198310434818268,-0.3452080488204956
957.0,948.0,1.8156,0.0664,9.6018,-0.0568,0.2025,-0.1973,-1.713374753991598,-0.0012056033592671156,2.4503626823425293,-1.8423272371292114,0.16288425028324127,2.316803216934204,4.835228796094217,-2.6876285119215026e-05,0.2529464662075043,-1.5828741232501429,2.9024273599504317e-19,0.05700767785310745,0.7699026465415955,-0.0,-0.010384425520896912,0.7868121862411499,-0.07994046807289124,-0.38148796558380127
957.0,948.0,1.8156,0.0664,9.6018,-0.0568,0.2025,-0.1973,-1.7134305439391078,-0.004906241316348314,2.4547688961029053,-1.841032862663269,0.16644808650016785,2.3161768913269043,4.835236522346296,-2.536209831305314e-05,0.25378239154815674,-1.5828421751605433,5.275018604334732e-24,0.06774867326021194,0.7698746919631958,-0.0,0.0036074304953217506,0.7861800193786621,-0.07754084467887878,-0.3661513328552246
957.0,948.0,1.8156,0.0664,9.6018,-0.0568,0.2025,-0.1973,-1.7134467564024867,-0.005284072365611792,2.384230852127075,-1.8399416208267212,0.17100609838962555,2.340500831604004,4.835228773742475,-2.4333516194019467e-05,0.24091249704360962,-1.5828421751605433,1.4683209006950622e-27,0.07479268312454224,0.7698543071746826,-0.0,-0.00632487703114748,0.7857072353363037,-0.07796506583690643,-0.37710779905319214
957.0,948.0,1.8156,0.0664,9.6018,-0.0568,0.2025,-0.1973,-1.7134911022581996,-0.0039448668248951435,2.391571521759033,-1.8385728597640991,0.17500975728034973,2.280874252319336,4.835220607906141,-3.460219886619598e-05,0.24383869767189026,-1.5828254858600062,2.6686008100178276e-32,0.06998162716627121,0.7698824405670166,-0.0,0.00037577003240585327,0.7850992679595947,-0.07849770784378052,-0.3665650486946106
919.0,918.0,1.4034,-0.5438,9.8136,-0.0632,0.241,-0.1852,-1.713510652581686,-0.0037940421607345343,2.384615421295166,-1.83748197555542,0.18082568049430847,2.3338730335235596,4.835172223835745,-3.3344869734719396e-05,0.2554919421672821,-1.5828502813922327,7.428147827585365e-36,0.07039937376976013,0.7698783874511719,-0.0,0.004145149141550064,0.7846428155899048,-0.07692620903253555,-0.35035908222198486
919.0,918.0,1.4034,-0.5438,9.8136,-0.0632,0.241,-0.1852,-1.713550706902975,-0.004288843832910061,2.403268814086914,-1.8360310792922974,0.18555569648742676,2.327671527862549,4.835200565844335,-4.236388122080825e-05,0.24007648229599,-1.5827978293048304,1.350024953515172e-40,0.07326088100671768,0.7698501348495483,-0.0,0.001853693276643753,0.7840301394462585,-0.0705282911658287,-0.38152915239334106
919.0,918.0,1.4034,-0.5438,9.8136,-0.0632,0.241,-0.1852,-1.7135950527586878,-0.006013988051563501,2.4517033100128174,-1.8344818353652954,0.19251497089862823,2.294168710708618,4.835172223835745,-4.9260070227319375e-05,0.2307625114917755,-1.5828421751605433,2.802596928649634e-45,0.08052036166191101,0.7698984742164612,-0.0,-0.007293293252587318,0.7835303544998169,-0.06699234247207642,-0.3536182940006256
919.0,918.0,1.4034,-0.5438,9.8136,-0.0632,0.241,-0.1852,-1.7136475048460902,-0.007127287797629833,2.4138805866241455,-1.8333414793014526,0.19608061015605927,2.3548684120178223,4.835224631219663,-8.29479006370093e-07,0.23844552040100098,-1.5828378836261194,0.0,0.07947519421577454,0.7698664665222168,-0.0,-0.00046273390762507915,0.7831180095672607,-0.06659384816884995,-0.3467639982700348
919.0,918.0,1.4034,-0.5438,9.8136,-0.0632,0.241,-0.1852,-1.7137557468810023,-0.009211024269461632,2.384584426879883,-1.831750512123108,0.20338128507137299,2.3683550357818604,4.83515256920413,-0.0001613724889466539,0.2366730272769928,-1.582869831715719,0.00010469972767168656,0.07998882234096527,0.7698907256126404,-0.0,0.0028263404965400696,0.782544732093811,-0.06655379384756088,-0.4109485149383545
919.0,918.0,1.4034,-0.5438,9.8136,-0.0632,0.241,-0.1852,-1.7137581310667933,-0.013315049931406975,2.3623061180114746,-1.8300822973251343,0.20896564424037933,2.338392734527588,4.835212471872129,-0.0001960265071829781,0.2357746660709381,-1.5828140417682093,0.00010084943642141297,0.07313036173582077,0.7698543667793274,-0.0,0.011488865129649639,0.7820326685905457,-0.0657893642783165,-0.39920690655708313
919.0,918.0,1.4034,-0.5438,9.8136,-0.0632,0.241,-0.1852,-1.7138997517027796,-0.01586519181728363,2.338376760482788,-1.8288291692733765,0.2176835685968399,2.3525547981262207,4.835208292096414,-0.00042423250852152705,0.22819381952285767,-1.5828378836261194,9.44961211644113e-05,0.07929430902004242,0.7698542475700378,-0.0,0.015093796886503696,0.7817004919052124,-0.06306948512792587,-0.3945873975753784
919.0,918.0,1.4034,-0.5438,9.8136,-0.0632,0.241,-0.1852,-1.7140351734557093,-0.01995996944606304,2.3620529174804688,-1.8270350694656372,0.22373603284358978,2.412529468536377,4.835128697543897,-0.0004684058949351311,0.23355138301849365,-1.5828378836261194,8.717352466192096e-05,0.06830301880836487,0.7698743343353271,-0.0,0.01135361660271883,0.7811843752861023,-0.06429801881313324,-0.3852434456348419
919.0,918.0,1.4034,-0.5438,9.8136,-0.0632,0.241,-0.1852,-1.7142483196654261,-0.02533918246626854,2.299816608428955,-1.825175404548645,0.22520901262760162,2.346223831176758,4.8352165324385545,-0.00036813196493312716,0.22765380144119263,-1.582846466694967,8.090431219898164e-05,0.07539493590593338,0.7698783874511719,-0.0,0.0010266947792842984,0.7807039022445679,-0.067837193608284,-0.39835548400878906
919.0,918.0,1.4034,-0.5438,9.8136,-0.0632,0.241,-0.1852,-1.7143846950926722,-0.02737967111170292,2.3413338661193848,-1.8238821029663086,0.23604904115200043,2.3421263694763184,4.835180479079046,-0.00033549830550327897,0.21832109987735748,-1.5828583876239222,7.676387031096965e-05,0.08471859246492386,0.7698783874511719,-0.0,0.007674059364944696,0.780299723148346,-0.07036393880844116,-0.3799562156200409
919.0,918.0,1.4034,-0.5438,9.8136,-0.0632,0.241,-0.1852,-1.714616437951559,-0.031306393444538116,2.352958917617798,-1.821945071220398,0.24667026102542877,2.3577799797058105,4.835172618716516,-0.00028382253367453814,0.23157133162021637,-1.5828540960894983,7.231234485516325e-05,0.07497412711381912,0.7698824405670166,-0.0,0.0020490677561610937,0.7797392010688782,-0.06716209650039673,-0.38690614700317383
919.0,918.0,1.4034,-0.5438,9.8136,-0.0632,0.241,-0.1852,-1.7147919140257777,-0.035464830696582794,2.3833463191986084,-1.820451021194458,0.24451743066310883,2.334846258163452,4.83520087131814,-0.00023690995294600725,0.22499489784240723,-1.5828822294818323,6.857530388515443e-05,0.0809234082698822,0.7699266672134399,-0.0,-0.003310807514935732,0.779362678527832,-0.06110281124711037,-0.36803990602493286
668.0,680.0,0.8112,0.35,9.9535,-0.0383,0.257,-0.1194,-1.7151133022704066,-0.04100407287478447,2.2929444313049316,-1.8184828758239746,0.2549421191215515,2.305237054824829,4.835208686977186,-0.00015656226605642587,0.2171105146408081,-1.5828340689288538,6.463527824962512e-05,0.0869237631559372,0.7698706388473511,-0.0,0.013244854286313057,0.7789385318756104,-0.049983225762844086,-0.3631030321121216
