ramyac6/ROB537/final_project/csv/all/bad_140.csv
tof_0,tof_1,accelx,accely,accelz,gyrox,gyroy,gyroz,shoulder_lift_joint_position,shoulder_lift_joint_velocity,shoulder_lift_joint_effort,elbow_joint_position,elbow_joint_velocity,elbow_joint_effort,wrist_1_joint_position,wrist_1_joint_velocity,wrist_1_joint_effort,wrist_2_joint_position,wrist_2_joint_velocity,wrist_2_joint_effort,wrist_3_joint_position,wrist_3_joint_velocity,wrist_3_joint_effort,shoulder_pan_joint_position,shoulder_pan_joint_velocity,shoulder_pan_joint_effort
816.0,1001.0,-0.1633,0.3452,9.5342,-0.0415,0.0217,-0.1133,-1.5522666809013863,0.0,1.7132303714752197,-2.196929931640625,-0.0,1.8522796630859375,5.203410196095266,-0.0,0.2837655544281006,-1.5973060766803187,0.0,-0.006898161955177784,0.7427412867546082,-0.0,-0.01209298800677061,0.7958841919898987,0.0,0.012914631515741348
816.0,1001.0,-0.1633,0.3452,9.5342,-0.0415,0.0217,-0.1133,-1.552282690336444,0.0,1.7452400922775269,-2.19691801071167,-0.0,1.878138780593872,5.203446733742513,-0.0,0.283639520406723,-1.5972698370562952,0.0,-0.013563049025833607,0.7427453398704529,-0.0,-0.004248055629432201,0.7958964109420776,0.0,-0.019940664991736412
816.0,1001.0,-0.1633,0.3452,9.5342,-0.0415,0.0217,-0.1133,-1.5522790172002097,0.0,1.770698070526123,-2.19694185256958,-0.0,1.837141990661621,5.203418421536245,-0.0,0.2855094075202942,-1.5972941557513636,0.0,-0.0026524770073592663,0.7428135275840759,-0.0,-0.006347990594804287,0.7958882451057434,0.0,-0.00543768797069788
816.0,1001.0,-0.1633,0.3452,9.5342,-0.0415,0.0217,-0.1133,-1.5522988599589844,0.0,1.7500617504119873,-2.1969220638275146,-0.0,1.8220809698104858,5.203422534256735,-0.0,0.27837905287742615,-1.5973261038409632,0.0,-0.01155946683138609,0.7427694797515869,-0.0,-0.00297678355127573,0.7959082722663879,0.0,-0.009629711508750916
816.0,1001.0,-0.1633,0.3452,9.5342,-0.0415,0.0217,-0.1133,-1.5523391862264653,0.0,1.7675846815109253,-2.1969058513641357,-0.0,1.8223707675933838,5.203454512148657,-0.0,0.2821018099784851,-1.5972941557513636,0.0,0.0016970750875771046,0.742769718170166,-0.0,-0.00386631628498435,0.7959082722663879,0.0,0.012329747900366783
816.0,1001.0,-0.1633,0.3452,9.5342,-0.0415,0.0217,-0.1133,-1.552290917640068,0.0,1.7472202777862549,-2.196866273880005,-0.0,1.8655741214752197,5.2034504292304895,-0.0,0.28546613454818726,-1.5973461310016077,0.0,0.0036855496000498533,0.7427331805229187,-0.0,-0.005407439544796944,0.7958720922470093,0.0,-0.04032336175441742
816.0,1001.0,-0.1633,0.3452,9.5342,-0.0415,0.0217,-0.1133,-1.5522546407631417,0.0,1.7379188537597656,-2.196866035461426,-0.0,1.9101192951202393,5.203426587372579,-0.0,0.2772727906703949,-1.597274128590719,0.0,-0.006468355655670166,0.7427331805229187,-0.0,-0.014722868800163269,0.795863926410675,0.0,-0.030063169077038765
816.0,1001.0,-0.1633,0.3452,9.5342,-0.0415,0.0217,-0.1133,-1.5522546966424962,0.0,1.716025948524475,-2.196890354156494,-0.0,1.8301560878753662,5.20347489693717,-0.0,0.286224901676178,-1.5972817579852503,0.0,-0.0018450580537319183,0.7427453398704529,-0.0,0.002350345952436328,0.7958519458770752,0.0,0.004843953996896744
755.0,8190.0,-0.1412,0.2632,9.4241,-0.0396,0.0215,-0.1184,-1.5522868030569335,0.0,1.7761008739471436,-2.1969141960144043,-0.0,1.8461629152297974,5.203422504454412,-0.0,0.2770904004573822,-1.5972898642169397,0.0,-0.0012907830532640219,0.7427973747253418,-0.0,0.007138743065297604,0.7958642840385437,0.0,-0.036211032420396805
755.0,8190.0,-0.1412,0.2632,9.4241,-0.0396,0.0215,-0.1184,-1.552282690336444,0.0,1.7905206680297852,-2.1969141960144043,-0.0,1.8247994184494019,5.203410255699911,-0.0,0.2932012677192688,-1.5973218123065394,0.0,-0.008141049183905125,0.7427895069122314,-0.0,0.008156565949320793,0.7958882451057434,0.0,0.034293536096811295
755.0,8190.0,-0.1412,0.2632,9.4241,-0.0396,0.0215,-0.1184,-1.552254631449916,0.0,1.8004684448242188,-2.1969261169433594,-0.0,1.8325867652893066,5.203386115818777,-0.0,0.2822406589984894,-1.5973342100726526,0.0,-0.005166494287550449,0.7427657246589661,-0.0,0.008688758127391338,0.7959083318710327,0.0,-0.00012234225869178772
755.0,8190.0,-0.1412,0.2632,9.4241,-0.0396,0.0215,-0.1184,-1.5523191199502726,0.0,1.7772921323776245,-2.1969375610351562,-0.0,1.8367712497711182,5.203438508301534,-0.0,0.282570481300354,-1.5972736517535608,0.0,-0.015116591937839985,0.7427412867546082,-0.0,0.003183073829859495,0.7959206104278564,0.0,-0.018198758363723755
755.0,8190.0,-0.1412,0.2632,9.4241,-0.0396,0.0215,-0.1184,-1.5522142008743067,0.0,1.7728015184402466,-2.19691801071167,-0.0,1.8658115863800049,5.203426170140066,-0.0,0.2828471064567566,-1.597245995198385,0.0,-0.0010495756287127733,0.7428015470504761,-0.0,-0.006779818795621395,0.795904278755188,0.0,0.021533964201807976
755.0,8190.0,-0.1412,0.2632,9.4241,-0.0396,0.0215,-0.1184,-1.5523112409612914,0.0,1.7797579765319824,-2.1969261169433594,-0.0,1.8413057327270508,5.2034184513385675,-0.0,0.286479115486145,-1.5972736517535608,0.0,-0.007777275051921606,0.7428097128868103,-0.0,0.004431156441569328,0.7958923578262329,0.0,-0.008687426336109638
755.0,8190.0,-0.1412,0.2632,9.4241,-0.0396,0.0215,-0.1184,-1.552274915655591,0.0,1.7456727027893066,-2.1969141960144043,-0.0,1.8452301025390625,5.203458595066824,-0.0,0.28451651334762573,-1.5972698370562952,0.0,-0.006986414082348347,0.7427533864974976,-0.0,-0.010267019271850586,0.7959164977073669,0.0,0.06353512406349182
755.0,8190.0,-0.1412,0.2632,9.4241,-0.0396,0.0215,-0.1184,-1.5522867378643532,0.0,1.7127931118011475,-2.196929931640625,-0.0,1.8421765565872192,5.203458595066824,-0.0,0.2842085063457489,-1.5972698370562952,0.0,0.001025671255774796,0.7426894307136536,-0.0,-0.0073357922956347466,0.7958841323852539,0.0,0.0010395627468824387
755.0,8190.0,-0.1412,0.2632,9.4241,-0.0396,0.0215,-0.1184,-1.5523029894432803,0.0,1.8106787204742432,-2.196890354156494,-0.0,1.8906490802764893,5.2034504292304895,-0.0,0.28123772144317627,-1.597253147755758,0.0,-0.007111470215022564,0.7427170276641846,-0.0,-0.007754088379442692,0.79585200548172,0.0,-0.01677408069372177
755.0,8190.0,-0.1412,0.2632,9.4241,-0.0396,0.0215,-0.1184,-1.552282690336444,0.0,1.746962070465088,-2.196882486343384,-0.0,1.8221261501312256,5.20343445518569,-0.0,0.2793535590171814,-1.5972941557513636,0.0,-0.01555071584880352,0.7427535653114319,-0.0,-0.003949848935008049,0.795843780040741,0.0,-0.04440601170063019
755.0,8190.0,-0.1412,0.2632,9.4241,-0.0396,0.0215,-0.1184,-1.5522950303605576,0.0,1.7460787296295166,-2.196882486343384,-0.0,1.8605096340179443,5.203374135285177,-0.0,0.2856840193271637,-1.5972898642169397,0.0,-0.013004093430936337,0.742721676826477,-0.0,0.0005498266546055675,0.7958720922470093,0.0,-0.01698741875588894
755.0,8190.0,-0.1412,0.2632,9.4241,-0.0396,0.0215,-0.1184,-1.5522909083268424,0.0,1.739105224609375,-2.1968979835510254,-0.0,1.7979190349578857,5.203434425383367,-0.0,0.2766958475112915,-1.597285572682516,0.0,-0.0003672814927995205,0.7427412867546082,-0.0,0.015932103618979454,0.7958882451057434,0.0,-0.04595599323511124
755.0,8190.0,-0.1412,0.2632,9.4241,-0.0396,0.0215,-0.1184,-1.5522708103856822,0.0,1.7418768405914307,-2.1969375610351562,-0.0,1.8179502487182617,5.203430759697714,-0.0,0.28938838839530945,-1.5972817579852503,0.0,-0.00755314901471138,0.7427494525909424,-0.0,-0.0010570082813501358,0.7959001660346985,0.0,-0.04742758721113205
755.0,8190.0,-0.1412,0.2632,9.4241,-0.0396,0.0215,-0.1184,-1.552274915655591,0.0,1.7424309253692627,-2.1969141960144043,-0.0,1.882162094116211,5.203454512148657,-0.0,0.2943747043609619,-1.5972941557513636,0.0,-0.00645278487354517,0.7427775859832764,-0.0,-0.005901236552745104,0.7958882451057434,0.0,0.007331544999033213
755.0,8190.0,-0.1412,0.2632,9.4241,-0.0396,0.0215,-0.1184,-1.5522505541196843,0.0,1.7854340076446533,-2.1969141960144043,-0.0,1.8555577993392944,5.2034785626228235,-0.0,0.2827575206756592,-1.5973418394671839,0.0,-0.011782104149460793,0.7426894307136536,-0.0,-0.00040578795596957207,0.7958397269248962,0.0,0.02239931747317314
755.0,8190.0,-0.1412,0.2632,9.4241,-0.0396,0.0215,-0.1184,-1.5523070388338347,0.0,1.7554121017456055,-2.196882486343384,-0.0,1.8179987668991089,5.203442561417379,-0.0,0.28796783089637756,-1.5972612539874476,0.0,-0.010102505795657635,0.7427453398704529,-0.0,-0.003687270451337099,0.7958882451057434,0.0,-0.015565197914838791
818.0,8190.0,-0.1657,0.2949,9.6401,-0.0305,0.0226,-0.1104,-1.5522785515389224,0.0,1.7563660144805908,-2.196866512298584,-0.0,1.8408238887786865,5.203418421536245,-0.0,0.29251331090927124,-1.5972736517535608,0.0,-0.016869869083166122,0.7427775859832764,-0.0,-0.0010305384639650583,0.7959042191505432,0.0,0.004700622521340847
818.0,8190.0,-0.1657,0.2949,9.6401,-0.0305,0.0226,-0.1104,-1.5522908729365845,0.0,1.7519118785858154,-2.1969220638275146,-0.0,1.8340175151824951,5.203414308815756,-0.0,0.284109503030777,-1.5972941557513636,0.0,0.008082777261734009,0.7427976131439209,-0.0,0.006327842827886343,0.7958556413650513,0.0,0.004026820417493582
818.0,8190.0,-0.1657,0.2949,9.6401,-0.0305,0.0226,-0.1104,-1.5522748821279784,0.0,1.756460428237915,-2.1969141960144043,-0.0,1.8484442234039307,5.203370171576299,-0.0,0.29077601432800293,-1.5973017851458948,0.0,-0.0013965810649096966,0.7427576184272766,-0.0,-0.008029642514884472,0.79594486951828,0.0,0.002047519898042083
818.0,8190.0,-0.1657,0.2949,9.6401,-0.0305,0.0226,-0.1104,-1.5522785683027287,0.0,1.7682406902313232,-2.196873903274536,-0.0,1.8362849950790405,5.203438508301534,-0.0,0.2853847146034241,-1.5972822348224085,0.0,-0.007529434747993946,0.7428135871887207,-0.0,-0.0037612984888255596,0.7958597540855408,0.0,0.037145357578992844
818.0,8190.0,-0.1657,0.2949,9.6401,-0.0305,0.0226,-0.1104,-1.552270834600069,0.0,1.7384934425354004,-2.1968343257904053,-0.0,1.8140449523925781,5.203430282860555,-0.0,0.27702561020851135,-1.5972736517535608,0.0,-0.008239440619945526,0.7428297996520996,-0.0,-0.005900196265429258,0.7958882451057434,0.0,0.04560784995555878
818.0,8190.0,-0.1657,0.2949,9.6401,-0.0305,0.0226,-0.1104,-1.5523350921324273,0.0,1.7931666374206543,-2.1969220638275146,-0.0,1.83286452293396,5.203454512148657,-0.0,0.2766813039779663,-1.5973017851458948,0.0,0.002631950657814741,0.7427816390991211,-0.0,-0.01447216421365738,0.7959164381027222,0.0,0.04397496581077576
818.0,8190.0,-0.1657,0.2949,9.6401,-0.0305,0.0226,-0.1104,-1.5522505224547167,0.0,1.7421140670776367,-2.1969141960144043,-0.0,1.841535210609436,5.203434425383367,-0.0,0.2937047481536865,-1.5972779432879847,0.0,-0.0026258823927491903,0.7427976131439209,-0.0,-0.01029968075454235,0.7958601713180542,0.0,0.017870914191007614
818.0,8190.0,-0.1657,0.2949,9.6401,-0.0305,0.0226,-0.1104,-1.5523152326098462,0.0,1.7905670404434204,-2.196901798248291,-0.0,1.8484165668487549,5.203450459032812,-0.0,0.28475022315979004,-1.5972698370562952,0.0,-0.009693276137113571,0.7427656650543213,-0.0,0.002558239735662937,0.7958399057388306,0.0,0.04947587102651596
818.0,8190.0,-0.1657,0.2949,9.6401,-0.0305,0.0226,-0.1104,-1.5522947174361725,0.0,1.7789101600646973,-2.1968863010406494,-0.0,1.8471825122833252,5.203378218203344,-0.0,0.2861916422843933,-1.597257439290182,0.0,-0.005359037779271603,0.7427576184272766,-0.0,0.0023216153495013714,0.7958918809890747,0.0,-0.04565585404634476
818.0,8190.0,-0.1657,0.2949,9.6401,-0.0305,0.0226,-0.1104,-1.5522708625397463,0.0,1.7280306816101074,-2.1969141960144043,-0.0,1.8091373443603516,5.203422534256735,-0.0,0.2935110330581665,-1.5972941557513636,0.0,-0.006706136278808117,0.7427338361740112,-0.0,-0.009185721166431904,0.7958762049674988,0.0,-0.0274745412170887
818.0,8190.0,-0.1657,0.2949,9.6401,-0.0305,0.0226,-0.1104,-1.5522585094771166,0.0,1.7609665393829346,-2.1969220638275146,-0.0,1.802644968032837,5.203430253058233,-0.0,0.2855696380138397,-1.5973017851458948,0.0,-0.011410584673285484,0.7427377700805664,-0.0,-0.0011298535391688347,0.7959083318710327,0.0,-0.016705628484487534
818.0,8190.0,-0.1657,0.2949,9.6401,-0.0305,0.0226,-0.1104,-1.552270797347166,0.0,1.7826001644134521,-2.1968941688537598,-0.0,1.830129623413086,5.2034184513385675,-0.0,0.2786489427089691,-1.5973017851458948,0.0,-0.0028626827988773584,0.7428015470504761,-0.0,0.007837668061256409,0.795876145362854,0.0,0.0181565098464489
818.0,8190.0,-0.1657,0.2949,9.6401,-0.0305,0.0226,-0.1104,-1.552250537355878,0.0,1.7703742980957031,-2.1969141960144043,-0.0,1.818247675895691,5.203438478499212,-0.0,0.277814656496048,-1.5972936789142054,0.0,-0.0033872313797473907,0.7427495718002319,-0.0,-0.00449570594355464,0.795843780040741,0.0,-0.005102685187011957
818.0,8190.0,-0.1657,0.2949,9.6401,-0.0305,0.0226,-0.1104,-1.5523272820613165,0.0,1.7603321075439453,-2.19686222076416,-0.0,1.8019180297851562,5.203434753208914,-0.0,0.28741270303726196,-1.5972698370562952,0.0,-0.002039347542449832,0.7427338361740112,-0.0,0.00017576594837009907,0.7958882451057434,0.0,-0.04790463671088219
818.0,8190.0,-0.1657,0.2949,9.6401,-0.0305,0.0226,-0.1104,-1.5522949819317837,0.0,1.7434402704238892,-2.1969261169433594,-0.0,1.852033019065857,5.2034504292304895,-0.0,0.28935110569000244,-1.597285572682516,0.0,-0.013543861918151379,0.7427176833152771,-0.0,0.009126564487814903,0.795876145362854,0.0,0.0006650649011135101
818.0,8190.0,-0.1657,0.2949,9.6401,-0.0305,0.0226,-0.1104,-1.5522950303605576,0.0,1.7349038124084473,-2.1969261169433594,-0.0,1.8204429149627686,5.203486817866125,-0.0,0.2902202904224396,-1.597297493611471,0.0,-0.0033298602793365717,0.7427413463592529,-0.0,-0.010192323476076126,0.7958560585975647,0.0,0.0066075921058654785
809.0,996.0,-0.134,0.2973,9.5157,-0.0368,0.0276,-0.1187,-1.5522868030569335,0.0,1.7572352886199951,-2.196882486343384,-0.0,1.850369930267334,5.20344631651,-0.0,0.28658485412597656,-1.5973017851458948,0.0,-0.005973109044134617,0.742821455001831,-0.0,0.009955664165318012,0.7958522439002991,0.0,0.03403575345873833
809.0,996.0,-0.134,0.2973,9.5157,-0.0368,0.0276,-0.1187,-1.552266688351967,0.0,1.7611744403839111,-2.196929693222046,-0.0,1.852889060974121,5.203438478499212,-0.0,0.2851437032222748,-1.5972941557513636,0.0,-0.010055562481284142,0.7427735328674316,-0.0,-0.0008475111098960042,0.7958275675773621,0.0,-0.025172244757413864
809.0,996.0,-0.134,0.2973,9.5157,-0.0368,0.0276,-0.1187,-1.5522831094316025,0.0,1.7453608512878418,-2.1969141960144043,-0.0,1.8677823543548584,5.203450459032812,-0.0,0.28319036960601807,-1.5972941557513636,0.0,0.002576081547886133,0.7427372932434082,-0.0,-0.0056269909255206585,0.7958679795265198,0.0,-0.02157205529510975
809.0,996.0,-0.134,0.2973,9.5157,-0.0368,0.0276,-0.1187,-1.552286786293127,0.0,1.7374190092086792,-2.196929931640625,-0.0,1.865635633468628,5.20341848114089,-0.0,0.2849341034889221,-1.5972779432879847,0.0,-0.01850593090057373,0.7428255677223206,-0.0,0.006628027651458979,0.7958601713180542,0.0,0.010258541442453861
809.0,996.0,-0.134,0.2973,9.5157,-0.0368,0.0276,-0.1187,-1.5522546798786898,0.0,1.7335317134857178,-2.196866035461426,-0.0,1.851030945777893,5.203454512148657,-0.0,0.2834165692329407,-1.5972941557513636,0.0,0.0005155750550329685,0.7427576184272766,-0.0,-0.00022363360039889812,0.795876145362854,0.0,0.005215844139456749
809.0,996.0,-0.134,0.2973,9.5157,-0.0368,0.0276,-0.1187,-1.552266688351967,0.0,1.7449244260787964,-2.19691801071167,-0.0,1.8732130527496338,5.2034102258975885,-0.0,0.2877300977706909,-1.5972898642169397,0.0,-0.004584984853863716,0.7427894473075867,-0.0,0.0035212680231779814,0.7959082722663879,0.0,0.019582249224185944
809.0,996.0,-0.134,0.2973,9.5157,-0.0368,0.0276,-0.1187,-1.552286771391966,0.0,1.7454180717468262,-2.1968982219696045,-0.0,1.8534059524536133,5.203454541950979,-0.0,0.2880910634994507,-1.5973017851458948,0.0,-0.006999925244599581,0.7427695393562317,-0.0,-0.001039037830196321,0.795904278755188,0.0,-0.0015502888709306717
809.0,996.0,-0.134,0.2973,9.5157,-0.0368,0.0276,-0.1187,-1.5522827015123148,0.0,1.7520744800567627,-2.19691801071167,-0.0,1.811371922492981,5.2034504292304895,-0.0,0.29178765416145325,-1.5973179976092737,0.0,-0.012970185838639736,0.7427058815956116,-0.0,-0.011957129463553429,0.7958679795265198,0.0,0.003937487490475178
809.0,996.0,-0.134,0.2973,9.5157,-0.0368,0.0276,-0.1187,-1.5522988599589844,0.0,1.7756271362304688,-2.196929931640625,-0.0,1.8490087985992432,5.203470843821325,-0.0,0.2778010964393616,-1.597257439290182,0.0,0.0036032863426953554,0.7427495718002319,-0.0,0.008338605053722858,0.7958481311798096,0.0,0.007518458180129528
809.0,996.0,-0.134,0.2973,9.5157,-0.0368,0.0276,-0.1187,-1.552307053734996,0.0,1.723585844039917,-2.19683837890625,-0.0,1.8699183464050293,5.2034504292304895,-0.0,0.28532880544662476,-1.5972936789142054,0.0,-0.020032109692692757,0.7427179217338562,-0.0,-0.006095075514167547,0.7958399653434753,0.0,-0.02035418339073658
809.0,996.0,-0.134,0.2973,9.5157,-0.0368,0.0276,-0.1187,-1.5522790283760806,0.0,1.8076426982879639,-2.196866035461426,-0.0,1.8524739742279053,5.203482734947958,-0.0,0.29230397939682007,-1.5972817579852503,0.0,-0.009516429156064987,0.7428134083747864,-0.0,-0.0069020092487335205,0.795876145362854,0.0,-0.0573815293610096
809.0,996.0,-0.134,0.2973,9.5157,-0.0368,0.0276,-0.1187,-1.5522947267493983,0.0,1.7755573987960815,-2.1969141960144043,-0.0,1.8696742057800293,5.203458505659857,-0.0,0.27450960874557495,-1.597285572682516,0.0,-0.01209770143032074,0.7427775859832764,-0.0,0.008411552757024765,0.7958481311798096,0.0,-0.06876960396766663
809.0,996.0,-0.134,0.2973,9.5157,-0.0368,0.0276,-0.1187,-1.5522830926677962,0.0,1.7675981521606445,-2.196866035461426,-0.0,1.8450345993041992,5.203494268446722,-0.0,0.2883254885673523,-1.5973098913775843,0.0,-0.0156403798609972,0.7428093552589417,-0.0,-0.0009242731612175703,0.7958720922470093,0.0,-0.027048343792557716
809.0,996.0,-0.134,0.2973,9.5157,-0.0368,0.0276,-0.1187,-1.5522347682020445,0.0,1.7810441255569458,-2.196882486343384,-0.0,1.8493156433105469,5.2034504292304895,-0.0,0.28332391381263733,-1.597285572682516,0.0,-0.01272025890648365,0.7428095936775208,-0.0,-0.0016603459371253848,0.7958802580833435,0.0,-0.019765885546803474
809.0,996.0,-0.134,0.2973,9.5157,-0.0368,0.0276,-0.1187,-1.5522872109762211,0.0,1.7821755409240723,-2.1968507766723633,-0.0,1.8559445142745972,5.203406142979421,-0.0,0.2821030616760254,-1.5973060766803187,0.0,-0.017085665836930275,0.7427494525909424,-0.0,-0.003576404880732298,0.7958720922470093,0.0,-0.01741856522858143
809.0,996.0,-0.134,0.2973,9.5157,-0.0368,0.0276,-0.1187,-1.5522790283760806,0.0,1.7429225444793701,-2.1969375610351562,-0.0,1.8543871641159058,5.2034504292304895,-0.0,0.27937448024749756,-1.597257439290182,0.0,0.001743245404213667,0.7427576184272766,-0.0,-0.008429961279034615,0.7958720922470093,0.0,0.017218157649040222
814.0,989.0,-0.0837,0.35,9.3697,-0.0344,0.0206,-0.1122,-1.5523070872626086,0.0,1.7520289421081543,-2.196866035461426,-0.0,1.8511242866516113,5.203446256905355,-0.0,0.27963492274284363,-1.5972774664508265,0.0,-0.010237026028335094,0.7427453398704529,-0.0,-0.002398223616182804,0.7958399653434753,0.0,-0.02098599448800087
814.0,989.0,-0.0837,0.35,9.3697,-0.0344,0.0206,-0.1122,-1.5522546407631417,0.0,1.752697229385376,-2.1969220638275146,-0.0,1.8515623807907104,5.203406202584066,-0.0,0.2755816578865051,-1.5972817579852503,0.0,-0.009404044598340988,0.7427733540534973,-0.0,0.007652421481907368,0.7958358526229858,0.0,0.01067410595715046
814.0,989.0,-0.0837,0.35,9.3697,-0.0344,0.0206,-0.1122,-1.5522468493184824,0.0,1.7293559312820435,-2.1969141960144043,-0.0,1.8144516944885254,5.203446256905355,-0.0,0.28613120317459106,-1.597330395375387,0.0,-0.005823331419378519,0.7427973747253418,-0.0,-0.005604030564427376,0.7959001064300537,0.0,0.01761731505393982
814.0,989.0,-0.0837,0.35,9.3697,-0.0344,0.0206,-0.1122,-1.5522744704834004,0.0,1.7773597240447998,-2.196906328201294,-0.0,1.81368088722229,5.203454512148657,-0.0,0.2881670296192169,-1.597257439290182,0.0,0.009023655205965042,0.7428174018859863,-0.0,-0.005412241909652948,0.7959042191505432,0.0,-0.03161819651722908
814.0,989.0,-0.0837,0.35,9.3697,-0.0344,0.0206,-0.1122,-1.5523029894432803,0.0,1.7363181114196777,-2.1969220638275146,-0.0,1.8491580486297607,5.203430282860555,-0.0,0.30038565397262573,-1.5972736517535608,0.0,0.0033554364927113056,0.7428134679794312,-0.0,-0.002526333322748542,0.7958720922470093,0.0,0.003837245050817728
814.0,989.0,-0.0837,0.35,9.3697,-0.0344,0.0206,-0.1122,-1.5522868198207398,0.0,1.7802010774612427,-2.1969096660614014,-0.0,1.8419952392578125,5.203446256905355,-0.0,0.27009615302085876,-1.5973299185382288,0.0,0.007122069597244263,0.7427894473075867,-0.0,-0.008208909071981907,0.795863926410675,0.0,0.036025140434503555
814.0,989.0,-0.0837,0.35,9.3697,-0.0344,0.0206,-0.1122,-1.5522790283760806,0.0,1.7211521863937378,-2.196901798248291,-0.0,1.8272125720977783,5.20347489693717,-0.0,0.27749329805374146,-1.597302261983053,0.0,-0.004678830504417419,0.7427533864974976,-0.0,0.0015126941725611687,0.7958882451057434,0.0,-0.009883793070912361
814.0,989.0,-0.0837,0.35,9.3697,-0.0344,0.0206,-0.1122,-1.5522909083268424,0.0,1.7728530168533325,-2.196882486343384,-0.0,1.847520351409912,5.203454512148657,-0.0,0.2822932004928589,-1.5973299185382288,0.0,-0.00555810471996665,0.7427736520767212,-0.0,-0.004960050340741873,0.7959001064300537,0.0,-0.009239638224244118
814.0,989.0,-0.0837,0.35,9.3697,-0.0344,0.0206,-0.1122,-1.5522748988917847,0.0,1.7631032466888428,-2.196866035461426,-0.0,1.8791940212249756,5.203458595066824,-0.0,0.2802125811576843,-1.5973098913775843,0.0,0.001435905578546226,0.7427975535392761,-0.0,-0.009581533260643482,0.7958922982215881,0.0,-0.006216517183929682
814.0,989.0,-0.0837,0.35,9.3697,-0.0344,0.0206,-0.1122,-1.5522831168821831,0.0,1.7045679092407227,-2.1969141960144043,-0.0,1.8292274475097656,5.203466820507803,-0.0,0.28210538625717163,-1.5973098913775843,0.0,-0.008763093501329422,0.7427494525909424,-0.0,-0.006496494170278311,0.7958964109420776,0.0,0.006370467133820057
814.0,989.0,-0.0837,0.35,9.3697,-0.0344,0.0206,-0.1122,-1.5522748988917847,0.0,1.719588279724121,-2.1969141960144043,-0.0,1.7741879224777222,5.203470814019003,-0.0,0.2942163944244385,-1.5972698370562952,0.0,-0.007451530545949936,0.7427058219909668,-0.0,-0.006184346973896027,0.795876145362854,0.0,0.005661975126713514
814.0,989.0,-0.0837,0.35,9.3697,-0.0344,0.0206,-0.1122,-1.5522790283760806,0.0,1.7007372379302979,-2.196901798248291,-0.0,1.8461337089538574,5.203482734947958,-0.0,0.2798599302768707,-1.5972860495196741,0.0,-0.01015985757112503,0.7427814602851868,-0.0,-0.005896283313632011,0.7958399653434753,0.0,-0.024079110473394394
814.0,989.0,-0.0837,0.35,9.3697,-0.0344,0.0206,-0.1122,-1.5522988599589844,0.0,1.7350599765777588,-2.196882486343384,-0.0,1.837815523147583,5.203430282860555,-0.0,0.28023725748062134,-1.5973017851458948,0.0,-0.006998530123382807,0.742705762386322,-0.0,0.0011808837298303843,0.795863926410675,0.0,0.003932878375053406
814.0,989.0,-0.0837,0.35,9.3697,-0.0344,0.0206,-0.1122,-1.5523314674249669,0.0,1.7701025009155273,-2.196866035461426,-0.0,1.8607357740402222,5.203458505659857,-0.0,0.28756457567214966,-1.597302261983053,0.0,-0.005917282775044441,0.7426936626434326,-0.0,-0.00863730814307928,0.7958399653434753,0.0,0.0013545923866331577
814.0,989.0,-0.0837,0.35,9.3697,-0.0344,0.0206,-0.1122,-1.5523232494345685,0.0,1.7429454326629639,-2.196882486343384,-0.0,1.8162859678268433,5.203466760903158,2.1544924777572305e-07,0.28000274300575256,-1.5972612539874476,0.0,7.36103393137455e-05,0.7427219152450562,-0.0,-0.009324884042143822,0.7959001064300537,0.0,0.010644243098795414
814.0,989.0,-0.0837,0.35,9.3697,-0.0344,0.0206,-0.1122,-1.552258526240923,0.0,1.7442963123321533,-2.196882486343384,-0.0,1.8310198783874512,5.203446256905355,5.997108365463077e-11,0.2868528962135315,-1.5972979704486292,0.0,0.004007797688245773,0.7427657246589661,-0.0,0.010254253633320332,0.7959001064300537,0.0,0.025407658889889717
816.0,985.0,-0.1531,0.3314,9.6347,-0.0438,0.0203,-0.1119,-1.5522749063423653,0.0,1.7630836963653564,-2.196890354156494,-0.0,1.864288330078125,5.2034422037895105,1.6693172858557245e-14,0.29696783423423767,-1.5972779432879847,0.0,-0.006242828443646431,0.7427815794944763,-0.0,-0.011219646781682968,0.7959164381027222,0.0,-0.023419974371790886
816.0,985.0,-0.1531,0.3314,9.6347,-0.0438,0.0203,-0.1119,-1.5522587199560185,0.0,1.7738139629364014,-2.196885824203491,-0.0,1.8476970195770264,5.203483122378149,4.6466056137262965e-18,0.2875532805919647,-1.5973337332354944,0.0,-0.00459704315289855,0.7428295016288757,-0.0,0.0089893052354455,0.7958679795265198,0.0,-0.0059412261471152306
816.0,985.0,-0.1531,0.3314,9.6347,-0.0438,0.0203,-0.1119,-1.5523111645928402,0.0,1.7993839979171753,-2.196901798248291,-0.0,1.8446359634399414,5.203446733742513,1.2933998814064444e-21,0.2930184304714203,-1.5972417036639612,0.0,-0.01518930308520794,0.7427735328674316,-0.0,-0.0035069631412625313,0.7958844304084778,0.0,-0.02151145227253437
816.0,985.0,-0.1531,0.3314,9.6347,-0.0438,0.0203,-0.1119,-1.5522748988917847,0.0,1.7719736099243164,-2.1969141960144043,-0.0,1.8420701026916504,5.203438508301534,3.600225832479646e-25,0.2825561761856079,-1.5972779432879847,0.0,-0.0031347223557531834,0.7427616119384766,-0.0,-0.00561328511685133,0.7958479523658752,0.0,-0.011054725386202335
816.0,985.0,-0.1531,0.3314,9.6347,-0.0438,0.0203,-0.1119,-1.55226285875354,0.0,1.7973666191101074,-2.196890354156494,-0.0,1.8633835315704346,5.2034504292304895,1.534832698731481e-27,0.2868192195892334,-1.5972617308246058,0.0,-0.004323314875364304,0.7427815794944763,-0.0,-0.0003832055954262614,0.7958922982215881,0.0,0.014882572926580906
816.0,985.0,-0.1531,0.3314,9.6347,-0.0438,0.0203,-0.1119,-1.5522707936218758,0.0,1.7990903854370117,-2.1969337463378906,-0.0,1.8585193157196045,5.203430282860555,4.272263688402555e-31,0.2849035859107971,-1.597285572682516,0.0,-0.0026406364049762487,0.7427695393562317,-0.0,0.005539442878216505,0.7958720922470093,0.0,-0.010317221283912659
816.0,985.0,-0.1531,0.3314,9.6347,-0.0438,0.0203,-0.1119,-1.5522505224547167,0.0,1.7276620864868164,-2.1969141960144043,-0.0,1.8324315547943115,5.203462588578024,1.189200339446387e-34,0.27780723571777344,-1.5972898642169397,0.0,-0.003376669017598033,0.7427695393562317,-0.0,-0.01718655601143837,0.7958117127418518,0.0,0.002708545420318842
816.0,985.0,-0.1531,0.3314,9.6347,-0.0438,0.0203,-0.1119,-1.5522950378111382,0.0,1.7807481288909912,-2.1969101428985596,-0.0,1.8345602750778198,5.203430282860555,3.3101833859284625e-38,0.2848421037197113,-1.5972898642169397,0.0,-0.01169049646705389,0.7427974939346313,-0.0,-0.005642883479595184,0.7958802580833435,0.0,0.00616485346108675
816.0,985.0,-0.1531,0.3314,9.6347,-0.0438,0.0203,-0.1119,-1.552254331564047,2.522923647774178e-09,1.7748267650604248,-2.1969141960144043,-0.0,1.8461410999298096,5.2034425912197015,9.213537402935672e-42,0.2866418659687042,-1.5972779432879847,0.0,-0.010267280042171478,0.7427453994750977,-0.0,-0.0013527919072657824,0.7958440184593201,0.0,0.006765641737729311
816.0,985.0,-0.1531,0.3314,9.6347,-0.0438,0.0203,-0.1119,-1.5522908971509715,6.0925635704826755e-15,1.7728605270385742,-2.1969141960144043,-0.0,1.8572402000427246,5.203434425383367,2.802596928649634e-45,0.2809062600135803,-1.5972779432879847,0.0,-0.008799728006124496,0.7427695989608765,-0.0,-0.004307273775339127,0.7959042191505432,0.0,-0.017214231193065643
816.0,985.0,-0.1531,0.3314,9.6347,-0.0438,0.0203,-0.1119,-1.5523029540530224,1.4712825679759155e-20,1.7744777202606201,-2.19691801071167,-0.0,1.8729121685028076,5.203454482346334,0.0,0.2852468490600586,-1.5972941557513636,0.0,-0.004979000426828861,0.7427414059638977,-0.0,-0.0027646489907056093,0.795876145362854,0.0,0.043171338737010956
816.0,985.0,-0.1531,0.3314,9.6347,-0.0438,0.0203,-0.1119,-1.552314992328622,3.552974050333039e-26,1.781921148300171,-2.196901798248291,-0.0,1.8728768825531006,5.20347489693717,0.0,0.27875494956970215,-1.5972941557513636,0.0,0.0026426014956086874,0.7428053617477417,-0.0,-0.006271141581237316,0.7958679795265198,0.0,0.017046110704541206
816.0,985.0,-0.1531,0.3314,9.6347,-0.0438,0.0203,-0.1119,-1.5522505708834906,8.580014963509259e-32,1.776790976524353,-2.1969141960144043,-0.0,1.78572416305542,5.203430282860555,0.0,0.2864667475223541,-1.5973261038409632,0.0,-0.013532686978578568,0.7427735328674316,-0.0,-0.006005047354847193,0.7958237528800964,0.0,0.028069302439689636
816.0,985.0,-0.1531,0.3314,9.6347,-0.0438,0.0203,-0.1119,-1.552258764659502,1.544372140634532e-35,1.7865337133407593,-2.1968700885772705,-0.0,1.8518275022506714,5.203410196095266,0.0,0.28451207280158997,-1.5972941557513636,0.0,-0.006722826045006514,0.7427616119384766,-0.0,-0.0009360634721815586,0.7959001064300537,0.0,-0.05285479128360748
816.0,985.0,-0.1531,0.3314,9.6347,-0.0438,0.0203,-0.1119,-1.5522546146861096,3.729415732954068e-41,1.751922845840454,-2.196882486343384,-0.0,1.8525511026382446,5.2034504292304895,0.0,0.2838308811187744,-1.5972655455218714,0.0,-0.0033861652482300997,0.7427338361740112,-0.0,-0.010133462026715279,0.7958882451057434,0.0,-0.019902637228369713
816.0,985.0,-0.1531,0.3314,9.6347,-0.0438,0.0203,-0.1119,-1.5522587497583409,0.0,1.7699215412139893,-2.19691801071167,-0.0,1.870019793510437,5.20346679070548,0.0,0.2888784408569336,-1.5972822348224085,0.0,0.004169318359345198,0.7427655458450317,-0.0,-0.004000251181423664,0.7958561182022095,0.0,0.02260424941778183
805.0,1002.0,-0.2046,0.274,9.5659,-0.0374,0.0195,-0.1113,-1.552302937289216,0.0,1.7797331809997559,-2.196882486343384,-0.0,1.8245372772216797,5.203482824354925,0.0,0.2860662639141083,-1.597257439290182,0.0,-0.013640142977237701,0.7427775263786316,-0.0,-0.00872426200658083,0.7958800792694092,0.0,-0.04348280280828476
805.0,1002.0,-0.2046,0.274,9.5659,-0.0374,0.0195,-0.1113,-1.5522908878377457,0.0,1.7476389408111572,-2.1969141960144043,-0.0,1.8508237600326538,5.203462767391958,0.0,0.2884041666984558,-1.5972817579852503,0.0,-0.010670062154531479,0.7428134083747864,-0.0,0.0010723522864282131,0.7958278059959412,0.0,-0.03365855664014816
805.0,1002.0,-0.2046,0.274,9.5659,-0.0374,0.0195,-0.1113,-1.5522909139147778,0.0,1.770151972770691,-2.1968979835510254,-0.0,1.8293640613555908,5.203446256905355,0.0,0.2858079671859741,-1.5972979704486292,0.0,-0.015228208154439926,0.7427616119384766,-0.0,-0.011019470170140266,0.7958561182022095,0.0,-0.022136371582746506
805.0,1002.0,-0.2046,0.274,9.5659,-0.0374,0.0195,-0.1113,-1.552307053734996,0.0,1.7588163614273071,-2.1969339847564697,-0.0,1.8478658199310303,5.203466731100836,0.0,0.2868996858596802,-1.5972617308246058,0.0,-0.010416042059659958,0.7428136467933655,-0.0,-0.00964348204433918,0.795843780040741,0.0,-0.01407144870609045
805.0,1002.0,-0.2046,0.274,9.5659,-0.0374,0.0195,-0.1113,-1.5522868365845461,0.0,1.7762222290039062,-2.196882486343384,-0.0,1.8479167222976685,5.203446256905355,0.0,0.2846153676509857,-1.5973218123065394,0.0,0.000232199439778924,0.7427695393562317,-0.0,0.006017015781253576,0.7958720922470093,0.0,0.011622734367847443
805.0,1002.0,-0.2046,0.274,9.5659,-0.0374,0.0195,-0.1113,-1.552290904601552,0.0,1.7643569707870483,-2.1969141960144043,-0.0,1.875740885734558,5.203438508301534,0.0,0.29421061277389526,-1.5973098913775843,0.0,-0.014349688775837421,0.7428255677223206,-0.0,-0.008798529393970966,0.795876145362854,0.0,0.004629048984497786
805.0,1002.0,-0.2046,0.274,9.5659,-0.0374,0.0195,-0.1113,-1.5523112167469044,0.0,1.7908775806427002,-2.1969058513641357,-0.0,1.8588755130767822,5.203446286707678,0.0,0.2914379835128784,-1.5972736517535608,0.0,-0.00385526311583817,0.7427334785461426,-0.0,-0.000134542235173285,0.795896053314209,0.0,0.01902276836335659
805.0,1002.0,-0.2046,0.274,9.5659,-0.0374,0.0195,-0.1113,-1.5522831168821831,0.0,1.7412868738174438,-2.1969220638275146,-0.0,1.8104593753814697,5.203470814019003,0.0,0.28067004680633545,-1.5972779432879847,0.0,-0.008741496130824089,0.7427775263786316,-0.0,0.004254411906003952,0.7958561182022095,0.0,0.013907930813729763
805.0,1002.0,-0.2046,0.274,9.5659,-0.0374,0.0195,-0.1113,-1.5522909083268424,0.0,1.7815196514129639,-2.1969096660614014,-0.0,1.8519090414047241,5.203430282860555,0.0,0.29072314500808716,-1.5972736517535608,0.0,0.005629495717585087,0.742717981338501,-0.0,-0.007724203169345856,0.7958720326423645,0.0,0.002517394721508026
805.0,1002.0,-0.2046,0.274,9.5659,-0.0374,0.0195,-0.1113,-1.5522587292692442,0.0,1.751976728439331,-2.1968507766723633,-0.0,1.7877590656280518,5.203438478499212,0.0,0.29166269302368164,-1.5972979704486292,0.0,-0.012045366689562798,0.7427815794944763,-0.0,-0.003320117713883519,0.79585200548172,0.0,-0.019499871879816055
805.0,1002.0,-0.2046,0.274,9.5659,-0.0374,0.0195,-0.1113,-1.5522666809013863,0.0,1.7698025703430176,-2.1969261169433594,-0.0,1.7962672710418701,5.203454512148657,0.0,0.2805511951446533,-1.597285572682516,0.0,-0.0025458715390414,0.7428374886512756,-0.0,-0.0013512753648683429,0.7958882451057434,0.0,0.018728217110037804
805.0,1002.0,-0.2046,0.274,9.5659,-0.0374,0.0195,-0.1113,-1.5522505708834906,0.0,1.7161478996276855,-2.1969141960144043,-0.0,1.8513007164001465,5.2034708736236475,0.0,0.2894047498703003,-1.597285572682516,0.0,-0.015923719853162766,0.7427616119384766,-0.0,-0.0030750310979783535,0.7958720922470093,0.0,0.016544092446565628
805.0,1002.0,-0.2046,0.274,9.5659,-0.0374,0.0195,-0.1113,-1.5522546407631417,0.0,1.7583143711090088,-2.1969175338745117,-0.0,1.8435375690460205,5.203434395581045,0.0,0.2838814854621887,-1.5973299185382288,0.0,-0.006333364639431238,0.7427573204040527,-0.0,-0.003232348710298538,0.7958720922470093,0.0,-0.0059633259661495686
805.0,1002.0,-0.2046,0.274,9.5659,-0.0374,0.0195,-0.1113,-1.5522708103856822,0.0,1.741424798965454,-2.196882486343384,-0.0,1.853274941444397,5.203442263394155,0.0,0.28250107169151306,-1.5973017851458948,0.0,-0.0059021711349487305,0.742733895778656,-0.0,-0.006843965966254473,0.7958720922470093,0.0,0.013051586225628853
805.0,1002.0,-0.2046,0.274,9.5659,-0.0374,0.0195,-0.1113,-1.5522785683027287,0.0,1.7940276861190796,-2.196882486343384,-0.0,1.7894072532653809,5.2034504292304895,0.0,0.2775958180427551,-1.5972335974322718,0.0,-0.0009357009548693895,0.7427576184272766,-0.0,-0.006900349631905556,0.7958720922470093,0.0,-0.019302411004900932
805.0,1002.0,-0.2046,0.274,9.5659,-0.0374,0.0195,-0.1113,-1.5523474768600245,0.0,1.7629477977752686,-2.196890354156494,-0.0,1.8907032012939453,5.203438508301534,0.0,0.28349602222442627,-1.5973218123065394,0.0,-0.01640346460044384,0.7427258491516113,-0.0,-0.002108752727508545,0.7958679795265198,0.0,-0.008248217403888702
774.0,997.0,-0.1591,0.3661,9.5928,-0.0305,0.0089,-0.1139,-1.5522988599589844,0.0,1.7346246242523193,-2.1969101428985596,-0.0,1.8400671482086182,5.20348276475028,0.0,0.2850872278213501,-1.5973179976092737,0.0,-0.016667570918798447,0.7428333163261414,-0.0,0.003738382365554571,0.7958882451057434,0.0,0.010463187471032143
774.0,997.0,-0.1591,0.3661,9.5928,-0.0305,0.0089,-0.1139,-1.5522666809013863,0.0,1.798755407333374,-2.1969141960144043,-0.0,1.8364959955215454,5.2034224448497675,0.0,0.29220476746559143,-1.5973261038409632,0.0,-0.005944178439676762,0.7427453994750977,-0.0,-0.005893504247069359,0.7958679795265198,0.0,0.03444506600499153
774.0,997.0,-0.1591,0.3661,9.5928,-0.0305,0.0089,-0.1139,-1.5523231712034722,0.0,1.7769849300384521,-2.19691801071167,-0.0,1.8542933464050293,5.203450488835134,0.0,0.28102707862854004,-1.5972736517535608,0.0,-0.008533613756299019,0.7427695393562317,-0.0,0.005341167561709881,0.7958882451057434,0.0,0.024297036230564117
774.0,997.0,-0.1591,0.3661,9.5928,-0.0305,0.0089,-0.1139,-1.5523310390165825,0.0,1.7215616703033447,-2.196878433227539,-0.0,1.853581190109253,5.203434425383367,0.0,0.2847219407558441,-1.5972736517535608,0.0,-0.0052566369995474815,0.7427453994750977,-0.0,-0.00028412509709596634,0.7958718538284302,0.0,-0.048977188766002655
774.0,997.0,-0.1591,0.3661,9.5928,-0.0305,0.0089,-0.1139,-1.5522667442313214,0.0,1.7583870887756348,-2.1968741416931152,-0.0,1.8890677690505981,5.203426229744711,0.0,0.28770530223846436,-1.597253147755758,0.0,-0.009875628165900707,0.7426937222480774,-0.0,0.0022817058488726616,0.7958720922470093,0.0,0.014896777458488941
774.0,997.0,-0.1591,0.3661,9.5928,-0.0305,0.0089,-0.1139,-1.5523433958045025,0.0,1.7887012958526611,-2.196902275085449,-0.0,1.887755036354065,5.203450399428167,0.0,0.28998544812202454,-1.5973017851458948,0.0,-0.003836429677903652,0.7427974939346313,-0.0,-0.006388064008206129,0.7958882451057434,0.0,0.01526170875877142
774.0,997.0,-0.1591,0.3661,9.5928,-0.0305,0.0089,-0.1139,-1.5522587199560185,0.0,1.7408901453018188,-2.196925640106201,-0.0,1.8476618528366089,5.203442561417379,0.0,0.2874162793159485,-1.597285572682516,0.0,-0.009226316586136818,0.7428135871887207,-0.0,-0.004389770328998566,0.7958802580833435,0.0,0.02872786670923233
774.0,997.0,-0.1591,0.3661,9.5928,-0.0305,0.0089,-0.1139,-1.5522947304746886,0.0,1.743310809135437,-2.19691801071167,-0.0,1.8676960468292236,5.203466760903158,0.0,0.28778186440467834,-1.597253147755758,0.0,-0.012233462184667587,0.7427218556404114,-0.0,0.0010681101121008396,0.7958720922470093,0.0,0.003285433165729046
774.0,997.0,-0.1591,0.3661,9.5928,-0.0305,0.0089,-0.1139,-1.5522748821279784,0.0,1.7617782354354858,-2.1968979835510254,-0.0,1.8044898509979248,5.203422504454412,0.0,0.294643759727478,-1.5973017851458948,0.0,-0.013525520451366901,0.7427735328674316,-0.0,-0.010938693769276142,0.7958561182022095,0.0,-0.013778941705822945
774.0,997.0,-0.1591,0.3661,9.5928,-0.0305,0.0089,-0.1139,-1.552270821561553,1.081804384739371e-06,1.7719464302062988,-2.19695782661438,-0.0,1.8552054166793823,5.203434425383367,0.0,0.30537962913513184,-1.5972979704486292,0.0,-0.01936522126197815,0.7428013682365417,-0.0,0.0044059064239263535,0.79585200548172,0.0,0.0038728611543774605
774.0,997.0,-0.1591,0.3661,9.5928,-0.0305,0.0089,-0.1139,-1.5522748988917847,1.947209615771328e-10,1.7794616222381592,-2.1969375610351562,-0.0,1.8543002605438232,5.203434812813558,0.0,0.2809053659439087,-1.5973218123065394,0.0,0.0016275260131806135,0.7427453994750977,-0.0,0.0002832902828231454,0.7959082722663879,0.0,0.012524073012173176
774.0,997.0,-0.1591,0.3661,9.5928,-0.0305,0.0089,-0.1139,-1.552279058178403,4.702282230858567e-16,1.7284324169158936,-2.1968979835510254,-0.0,1.819378137588501,5.203474509506979,0.0,0.28020575642585754,-1.5972698370562952,0.0,0.004427130334079266,0.7428215146064758,-0.0,-0.0067127058282494545,0.7958720922470093,0.0,-0.032469525933265686
774.0,997.0,-0.1591,0.3661,9.5928,-0.0305,0.0089,-0.1139,-1.5522830926677962,1.135545709315197e-21,1.8036363124847412,-2.1969141960144043,-0.0,1.8130050897598267,5.203426587372579,0.0,0.2713749408721924,-1.597314182912008,0.0,-0.019878627732396126,0.7427298426628113,-0.0,0.004345191642642021,0.795863926410675,0.0,0.06036524474620819
774.0,997.0,-0.1591,0.3661,9.5928,-0.0305,0.0089,-0.1139,-1.552278983672597,2.7422093512615165e-27,1.7709424495697021,-2.196882486343384,-0.0,1.840590000152588,5.203438508301534,2.7704089688995737e-08,0.28024041652679443,-1.5973017851458948,0.0,-0.011705448850989342,0.7427656650543213,-0.0,0.00029902439564466476,0.7958720922470093,0.0,0.05333869904279709
774.0,997.0,-0.1591,0.3661,9.5928,-0.0305,0.0089,-0.1139,-1.55226285875354,6.622112895210801e-33,1.7252171039581299,-2.196929693222046,-0.0,1.8277575969696045,5.203446286707678,7.711536270660346e-12,0.284568190574646,-1.5972898642169397,0.0,-0.004752224311232567,0.7427019476890564,-0.0,0.004261290188878775,0.7958481311798096,0.0,0.03212905302643776
774.0,997.0,-0.1591,0.3661,9.5928,-0.0305,0.0089,-0.1139,-1.5522748988917847,1.5991622278770205e-38,1.737548589706421,-2.1969141960144043,-0.0,1.8894643783569336,5.203462707787313,2.1465343777893765e-15,0.2880825996398926,-1.5973342100726526,0.0,-0.005570926237851381,0.7427854537963867,-0.0,0.0022823046892881393,0.7958561182022095,-7.654969436110548e-10,0.011590739712119102
854.0,976.0,-0.3314,0.4032,9.6191,-0.0318,0.0223,-0.111,-1.5523268685540934,3.923635700109488e-44,1.740165114402771,-2.1968746185302734,-0.0,1.8391591310501099,5.203446256905355,5.974957175042034e-19,0.2843760848045349,-1.5972779432879847,0.0,-0.010730031877756119,0.7427933812141418,-0.0,0.005266043823212385,0.79585200548172,-1.848585032878519e-15,0.0004351809620857239
854.0,976.0,-0.3314,0.4032,9.6191,-0.0318,0.0223,-0.111,-1.5522790172002097,0.0,1.7867398262023926,-2.1968979835510254,-0.0,1.8185925483703613,5.203458505659857,1.6631516599451141e-22,0.277064710855484,-1.597314182912008,0.0,-0.023772668093442917,0.7427374720573425,-0.0,-0.0064652953296899796,0.795860230922699,-4.464115243570395e-21,0.03399081900715828
854.0,976.0,-0.3314,0.4032,9.6191,-0.0318,0.0223,-0.111,-1.5522386909327288,0.0,1.726083755493164,-2.196901798248291,-0.0,1.8613698482513428,5.203450846463003,4.629443780836316e-26,0.27617985010147095,-1.5972779432879847,0.0,-0.0076233940199017525,0.7427536845207214,-0.0,0.006312409415841103,0.7958238124847412,-1.0780313515393844e-26,-0.02557733841240406
854.0,976.0,-0.3314,0.4032,9.6191,-0.0318,0.0223,-0.111,-1.552226585601904,0.0,1.7492960691452026,-2.1969141960144043,-0.0,1.8408284187316895,5.203479009657659,1.9736044142305975e-28,0.2830561399459839,-1.5972979704486292,0.0,-0.014286600053310394,0.7427854537963867,-0.0,0.004312004894018173,0.7958399653434753,-1.9404182413995388e-30,0.00029595475643873215
854.0,976.0,-0.3314,0.4032,9.6191,-0.0318,0.0223,-0.111,-1.5522505094162007,0.0,1.7868125438690186,-2.1969335079193115,-0.0,1.7895839214324951,5.203466731100836,5.493600555665385e-32,0.27643492817878723,-1.5972779432879847,0.0,-0.000719352625310421,0.7426937818527222,-0.0,-0.000149943633005023,0.7958117127418518,-0.0002828142896760255,-0.0060759843327105045
854.0,976.0,-0.3314,0.4032,9.6191,-0.0318,0.0223,-0.111,-1.5522427440485735,0.0,1.7803356647491455,-2.196929454803467,-0.0,1.847122073173523,5.203430282860555,1.5291638954848432e-35,0.2788929343223572,-1.597274128590719,0.0,-0.0061546629294753075,0.7427775263786316,-0.0,-0.006471850909292698,0.7958725094795227,-0.00023795917513780296,0.03807297721505165
854.0,976.0,-0.3314,0.4032,9.6191,-0.0318,0.0223,-0.111,-1.5523191590658207,0.0,1.7567479610443115,-2.1969141960144043,-0.0,1.8414671421051025,5.203414308815756,4.256483321743633e-39,0.2910749316215515,-1.5972526709186,3.3340252230118494e-06,-0.013868427835404873,0.7427656650543213,-0.0,0.005672621540725231,0.795876145362854,-0.0002458727976772934,-0.027611762285232544
854.0,976.0,-0.3314,0.4032,9.6191,-0.0318,0.0223,-0.111,-1.5523070779493828,0.0,1.7474687099456787,-2.1968705654144287,-0.0,1.8734122514724731,5.203410285502233,1.1854985008187952e-42,0.28486818075180054,-1.5972736517535608,9.280382018417299e-10,-0.0022886344231665134,0.7427616119384766,-0.0,0.0003016877453774214,0.7958522439002991,-0.00021676906908396631,0.03560604527592659
854.0,976.0,-0.3314,0.4032,9.6191,-0.0318,0.0223,-0.111,-1.5522748988917847,0.0,1.739295244216919,-2.1969058513641357,-0.0,1.8678231239318848,5.203438508301534,0.0,0.27520114183425903,-1.5973179976092737,2.5832284987307996e-13,-0.0075784530490636826,0.7427298426628113,-0.0,-0.002087182132527232,0.7958400249481201,-0.00021464079327415675,-0.00894075259566307
854.0,976.0,-0.3314,0.4032,9.6191,-0.0318,0.0223,-0.111,-1.5522909083268424,0.0,1.7771337032318115,-2.19691801071167,-0.0,1.839543104171753,5.203458595066824,0.0,0.28849759697914124,-1.5973017851458948,7.190512320078509e-17,-0.010744052939116955,0.7427616119384766,-0.0,-0.006309863645583391,0.7958158254623413,-0.00020380750356707722,0.04132087901234627
854.0,976.0,-0.3314,0.4032,9.6191,-0.0318,0.0223,-0.111,-1.5523232121816655,0.0,1.7612578868865967,-2.196890354156494,-0.0,1.8190546035766602,5.203394281655111,0.0,0.2869618237018585,-1.5972655455218714,2.0015058252985464e-20,0.0055479621514678,0.7427775263786316,-0.0,-0.0020028972066938877,0.7958522439002991,-9.272120223613456e-05,-0.006839620880782604
854.0,976.0,-0.3314,0.4032,9.6191,-0.0318,0.0223,-0.111,-1.5522988599589844,0.0,1.7391008138656616,-2.1969261169433594,-0.0,1.855711817741394,5.203398424177923,0.0,0.2921454608440399,-1.5972941557513636,5.5712646676682625e-24,-0.0038345963694155216,0.7427180409431458,-0.0,-0.0017610490322113037,0.7958561182022095,-7.739687862340361e-05,-0.0076614851132035255
854.0,976.0,-0.3314,0.4032,9.6191,-0.0318,0.0223,-0.111,-1.5522947304746886,0.0,1.777637243270874,-2.1968863010406494,-0.0,1.8602277040481567,5.2034508166606805,-5.7556906540412456e-05,0.2771930396556854,-1.5972941557513636,1.5507819986764322e-27,-0.00795556977391243,0.7426937222480774,-0.0,0.0009774534264579415,0.7959287166595459,-6.855325045762584e-05,-0.016395054757595062
854.0,976.0,-0.3314,0.4032,9.6191,-0.0318,0.0223,-0.111,-1.552278560852148,0.0,1.7253466844558716,-2.1969175338745117,-0.0,1.8472568988800049,5.203422504454412,-7.491352153010666e-05,0.279448926448822,-1.597314182912008,6.611226236482285e-30,-0.014951903373003006,0.7427258491516113,-0.0,0.0005860058590769768,0.7958720922470093,-4.278587221051566e-05,0.0020462721586227417
854.0,976.0,-0.3314,0.4032,9.6191,-0.0318,0.0223,-0.111,-1.5522824221155425,0.0,1.748682975769043,-2.1969101428985596,-0.0,1.8511629104614258,5.203442978649893,-0.00045934997615404427,0.27656641602516174,-1.5973261038409632,1.8402591814153383e-33,-0.0030358624644577503,0.7427577376365662,-0.0,-0.00018464738968759775,0.7958561182022095,-2.8793512683478184e-05,0.004162133671343327
776.0,8190.0,-0.0419,0.4606,9.4576,-0.0267,0.0215,-0.1127,-1.552310488452651,0.0,1.742739200592041,-2.1969497203826904,-0.0,1.815946102142334,5.203418510943212,-0.0005084499716758728,0.28581005334854126,-1.5973179976092737,5.122428375511271e-37,0.0076501513831317425,0.7427494525909424,-0.0,-0.004962085746228695,0.7958318591117859,-1.7223735770954818e-09,-0.0546206496655941
776.0,8190.0,-0.0419,0.4606,9.4576,-0.0267,0.0215,-0.1127,-1.552318650563695,-0.0005707551026716828,1.7319045066833496,-2.1969141960144043,-0.0,1.8377525806427002,5.203418510943212,-0.00046619484783150256,0.2915165424346924,-1.59731370607485,1.4258492134197879e-40,-0.00882747583091259,0.7427494525909424,-0.0,-0.005335564259439707,0.7958597540855408,-4.1593294529873506e-15,-0.002863965928554535
776.0,8190.0,-0.0419,0.4606,9.4576,-0.0267,0.0215,-0.1127,-1.5523590625128527,-0.0006591083947569132,1.7753995656967163,-2.1968863010406494,-0.0,1.8387904167175293,5.203386503248968,-0.00041147691081278026,0.28002655506134033,-1.5972736517535608,2.802596928649634e-45,0.004851609002798796,0.7427453994750977,-0.0,0.006093710660934448,0.7959001064300537,-1.347570063621983e-22,-0.033074431121349335
776.0,8190.0,-0.0419,0.4606,9.4576,-0.0267,0.0215,-0.1127,-1.5523467895439644,-0.000549625139683485,1.7301127910614014,-2.196878671646118,-0.0,1.8489564657211304,5.203398811608114,-0.0003373411309439689,0.2830929458141327,-1.597285572682516,0.0,-0.01130619551986456,0.7428092360496521,-0.0,-0.0021441674325615168,0.7958841323852539,-3.2542233640254533e-28,-0.003003248944878578
776.0,8190.0,-0.0419,0.4606,9.4576,-0.0267,0.0215,-0.1127,-1.5523587887040158,-0.0004911447176709771,1.7540874481201172,-2.1969096660614014,-0.0,1.8211324214935303,5.203378724842825,-0.0002753825392574072,0.28467094898223877,-1.5973060766803187,0.0,-0.016082921996712685,0.7427695989608765,-0.0,0.0035787655506283045,0.7959282994270325,-7.858566362685817e-34,-0.026082031428813934
776.0,8190.0,-0.0419,0.4606,9.4576,-0.0267,0.0215,-0.1127,-1.552315029581525,-0.00017177998961415142,1.7765376567840576,-2.1969261169433594,-0.0,1.8580102920532227,5.203390973597326,-0.00023265238269232213,0.28492844104766846,-1.5972936789142054,0.0,-0.008556904271245003,0.7427933216094971,-0.0,-0.0005661272443830967,0.795896053314209,-1.8977518855642776e-39,-0.03336891531944275
776.0,8190.0,-0.0419,0.4606,9.4576,-0.0267,0.0215,-0.1127,-1.552362934952118,-0.00013345883053261787,1.7712719440460205,-2.1969375610351562,-0.0,1.8354524374008179,5.20340250709609,-0.0002014053607126698,0.27940499782562256,-1.5973218123065394,0.0,-0.009297052398324013,0.7427219748497009,-0.0,-0.008158382028341293,0.7959001064300537,-4.203895392974451e-45,0.008316496387124062
776.0,8190.0,-0.0419,0.4606,9.4576,-0.0267,0.0215,-0.1127,-1.5523026821068306,-0.00011622050806181505,1.7912750244140625,-2.1969101428985596,-0.0,1.8360280990600586,5.2033541975315,-0.00018485425971448421,0.28891146183013916,-1.5973218123065394,0.0,0.0008304975926876068,0.7427494525909424,-0.0,0.002498843241482973,0.7959042191505432,0.0,0.01570916920900345
776.0,8190.0,-0.0419,0.4606,9.4576,-0.0267,0.0215,-0.1127,-1.5523307763836165,-9.735919593367726e-05,1.7471542358398438,-2.196906328201294,-0.0,1.8409470319747925,5.203418510943212,-0.00016456982120871544,0.28181692957878113,-1.5972698370562952,0.0,-0.008610992692410946,0.742733895778656,-0.0,-0.009026661515235901,0.7959405779838562,0.0,-0.020878326147794724
776.0,8190.0,-0.0419,0.4606,9.4576,-0.0267,0.0215,-0.1127,-1.55235909045253,-8.37654952192679e-05,1.7619214057922363,-2.1968979835510254,-0.0,1.834487795829773,5.203414428025045,-0.0001482978113926947,0.2816464602947235,-1.5972407499896448,0.0,-0.0030100441072136164,0.7427414655685425,-0.0,-0.008442206308245659,0.7959123253822327,0.0,0.00021542212925851345
776.0,8190.0,-0.0419,0.4606,9.4576,-0.0267,0.0215,-0.1127,-1.552366967578866,-7.350314990617335e-05,1.781671166419983,-2.1968979835510254,-0.0,1.8594841957092285,5.203390586167135,-0.0001349538069916889,0.2803707718849182,-1.59731370607485,0.0,-0.008889881893992424,0.7428295016288757,-0.0,-0.012982675805687904,0.795876145362854,0.0,0.039233624935150146
776.0,8190.0,-0.0419,0.4606,9.4576,-0.0267,0.0215,-0.1127,-1.5523430791548272,-6.548094097524881e-05,1.77126944065094,-2.1969141960144043,-0.0,1.8365662097930908,5.203394669085302,-0.0001238137629115954,0.28887292742729187,-1.597309414540426,0.0,-0.0016823343466967344,0.7428053021430969,-0.0,0.006012002471834421,0.7958597540855408,0.0,-0.013698870316147804
776.0,8190.0,-0.0419,0.4606,9.4576,-0.0267,0.0215,-0.1127,-1.5523629517159243,-8.814696775516495e-05,1.7509326934814453,-2.196901798248291,-0.0,1.864560842514038,5.203378277807989,-0.00013423497148323804,0.2817901074886322,-1.5973261038409632,0.0,-8.66306945681572e-05,0.7427219152450562,-0.0,-0.002557815285399556,0.7959082126617432,0.0,-0.017547253519296646
776.0,8190.0,-0.0419,0.4606,9.4576,-0.0267,0.0215,-0.1127,-1.5523307726583262,-8.062325650826097e-05,1.814192295074463,-2.19695782661438,-0.0,1.8197996616363525,5.203390556364813,-0.00014328016550280154,0.29377514123916626,-1.597309414540426,0.0,-0.01612742803990841,0.7428053021430969,-0.0,0.002531684935092926,0.7959323525428772,0.0,0.020519521087408066
776.0,8190.0,-0.0419,0.4606,9.4576,-0.0267,0.0215,-0.1127,-1.5523389906487246,-7.39945680834353e-05,1.7259107828140259,-2.1969141960144043,-0.0,1.870124101638794,5.203394669085302,-0.00014486676082015038,0.28431859612464905,-1.597309414540426,0.0,-0.012213261798024178,0.7427616119384766,-0.0,-0.0016808905638754368,0.79588782787323,0.00011867627472383901,0.01512820366770029
776.0,8190.0,-0.0419,0.4606,9.4576,-0.0267,0.0215,-0.1127,-1.5523588222316285,-6.837316323071718e-05,1.7615348100662231,-2.1968581676483154,-0.0,1.8320138454437256,5.203350442438879,-0.00017960413242690265,0.29007184505462646,-1.597285572682516,0.0,-0.006189500913023949,0.7427815198898315,-0.0,-0.010554859414696693,0.7959201335906982,0.00015386624727398157,-0.0059965020045638084
806.0,1025.0,-0.1585,0.2225,9.6197,-0.0396,0.0156,-0.1161,-1.5523384895971795,-8.676548895891756e-05,1.7383320331573486,-2.196866035461426,-0.0,1.8270325660705566,5.203370588808813,-0.0004984287661500275,0.2816728949546814,-1.5973337332354944,0.0,-0.03450722247362137,0.7427815198898315,-0.0,0.002458551898598671,0.7958919405937195,0.00014697614824399352,-0.01000429131090641
806.0,1025.0,-0.1585,0.2225,9.6197,-0.0396,0.0156,-0.1161,-1.552395238806941,-5.055172005086206e-05,1.7030534744262695,-2.1968979835510254,-0.0,1.8658483028411865,5.203306245594778,-0.0007362281903624535,0.2847232222557068,-1.5973218123065394,0.0,-0.004940413869917393,0.7428135871887207,-0.0,0.0035701398737728596,0.7959485054016113,0.00015619932673871517,0.009070475585758686
806.0,1025.0,-0.1585,0.2225,9.6197,-0.0396,0.0156,-0.1161,-1.5523261737874527,-6.980427860980853e-05,1.7922139167785645,-2.19691801071167,-0.0,1.8188295364379883,5.203382956772604,-0.0006432366790249944,0.2759852409362793,-1.597325627003805,0.0,-0.0068437992595136166,0.7427695989608765,-0.0,-0.0038997596129775047,0.7959362864494324,0.00014734758588019758,0.020071661099791527
806.0,1025.0,-0.1585,0.2225,9.6197,-0.0396,0.0156,-0.1161,-1.5523670402220269,-8.620228618383408e-05,1.7809911966323853,-2.196882486343384,-0.0,1.8270318508148193,5.203362750798025,-0.0005452248151414096,0.2772294580936432,-1.597309414540426,0.0,-0.004687914624810219,0.7427335381507874,-0.0,0.002691714558750391,0.7959323525428772,0.00013882444181945175,0.0018169879913330078
806.0,1025.0,-0.1585,0.2225,9.6197,-0.0396,0.0156,-0.1161,-1.552374991854169,-0.00010084336099680513,1.7310571670532227,-2.1969096660614014,-0.0,1.876854658126831,5.2033307431037805,-0.0005200690939091146,0.28127244114875793,-1.5972936789142054,0.0,-0.005157778970897198,0.7427815198898315,-0.0,-0.01586197130382061,0.7959082126617432,0.00013123360986355692,-0.04263261333107948
806.0,1025.0,-0.1585,0.2225,9.6197,-0.0396,0.0156,-0.1161,-1.552370862369873,-0.0003938301233574748,1.7618207931518555,-2.196878433227539,-0.0,1.8443520069122314,5.203338640719213,-0.0004772300599142909,0.2822458744049072,-1.5973017851458948,0.0,-0.016857454553246498,0.7427973747253418,-0.0,-0.008188674226403236,0.7958837151527405,0.00012442977458704263,-0.0097424341365695
806.0,1025.0,-0.1585,0.2225,9.6197,-0.0396,0.0156,-0.1161,-1.5523989007673045,-0.0007778435829095542,1.7544337511062622,-2.1969141960144043,-0.0,1.8633413314819336,5.2033307431037805,-0.0004363880434539169,0.28278666734695435,-1.5973418394671839,0.0,-0.019367508590221405,0.7427695393562317,-0.0,-0.01017201878130436,0.7958759665489197,0.0001857863098848611,0.04156375676393509
806.0,1025.0,-0.1585,0.2225,9.6197,-0.0396,0.0156,-0.1161,-1.5523870319924136,-0.0008662153268232942,1.738950490951538,-2.1969058513641357,-0.0,1.8523802757263184,5.203318643360891,-0.00042435101931914687,0.2760984003543854,-1.5973337332354944,0.0,-0.013645501807332039,0.7428532242774963,-0.0,-0.0057749501429498196,0.7959082126617432,0.00016531077562831342,0.040792517364025116
806.0,1025.0,-0.1585,0.2225,9.6197,-0.0396,0.0156,-0.1161,-1.5524068635753174,-0.0013243131106719375,1.7424371242523193,-2.19691801071167,-0.0,1.844468355178833,5.203366982727804,-0.0004034060111735016,0.266729474067688,-1.597285572682516,0.0,-0.02520292066037655,0.742801308631897,-0.0,0.006460024043917656,0.7958878874778748,0.00014890027523506433,0.06540732830762863
806.0,1025.0,-0.1585,0.2225,9.6197,-0.0396,0.0156,-0.1161,-1.5524549924633284,-0.0016431398689746857,1.7812577486038208,-2.196877956390381,-0.0,1.8309385776519775,5.20329840758399,-0.00042270595440641046,0.28430262207984924,-1.5973175207721155,0.0,-0.017948433756828308,0.7427854537963867,-0.0,0.005756907165050507,0.7959281206130981,0.00016253965441137552,0.06750734150409698
806.0,1025.0,-0.1585,0.2225,9.6197,-0.0396,0.0156,-0.1161,-1.552467170437314,-0.002094830386340618,1.7303123474121094,-2.1969141960144043,-0.0,1.8403788805007935,5.203326779394903,-0.0004248400800861418,0.2755318284034729,-1.59731370607485,0.0,-0.009101161733269691,0.7427616119384766,-0.0,-0.013474355451762676,0.7958918809890747,0.00017886230489239097,0.07330821454524994
806.0,1025.0,-0.1585,0.2225,9.6197,-0.0396,0.0156,-0.1161,-1.5524427623352786,-0.0025318441912531853,1.7737451791763306,-2.196866273880005,-0.0,1.8361990451812744,5.20329840758399,-0.0004307895724195987,0.27391234040260315,-1.597309414540426,0.0,-0.012101524509489536,0.7427973747253418,-0.0,-0.003843271639198065,0.7959201335906982,0.00018837452807929367,0.07468178123235703
806.0,1025.0,-0.1585,0.2225,9.6197,-0.0396,0.0156,-0.1161,-1.552462588330247,-0.0020745499059557915,1.7527287006378174,-2.1969141960144043,-0.0,1.8889778852462769,5.203326749592581,-0.0004485452373046428,0.26595941185951233,-1.5973299185382288,0.0,-0.005735266488045454,0.742801308631897,-0.0,-0.008236994035542011,0.7959362864494324,0.0001746654015732929,0.04412292689085007
806.0,1025.0,-0.1585,0.2225,9.6197,-0.0396,0.0156,-0.1161,-1.5524704878083249,-0.002311243209987879,1.7867364883422852,-2.1969141960144043,-0.0,1.815688133239746,5.203274655133047,-0.0004811242688447237,0.26812314987182617,-1.5973823706256312,8.017516961444926e-07,-0.012241091579198837,0.7428175210952759,-1.1259396615059813e-06,-0.0035147543530911207,0.7959644198417664,0.00019589735893532634,0.09357509762048721
806.0,1025.0,-0.1585,0.2225,9.6197,-0.0396,0.0156,-0.1161,-1.55248240873728,-0.003638204885646701,1.7517832517623901,-2.19691801071167,-0.0,1.8769677877426147,5.203270870238104,-0.0005874402704648674,0.27008742094039917,-1.597342316304342,2.231705098498793e-10,-0.029782734811306,0.7428373098373413,-3.13409437291412e-10,-0.001033285167068243,0.7959644198417664,0.00020931914332322776,0.08199287950992584
806.0,1025.0,-0.1585,0.2225,9.6197,-0.0396,0.0156,-0.1161,-1.5525348869017144,-0.0038945197593420744,1.7018694877624512,-2.1968746185302734,-0.0,1.8647165298461914,5.203282820969381,-0.0005285983788780868,0.2634793519973755,-1.5973213354693812,6.212033247824864e-14,-0.021067924797534943,0.7428654432296753,-8.72386676244695e-14,-0.0033736058976501226,0.7959000468254089,0.0002499865659046918,0.11002068966627121
760.0,1014.0,-0.5318,0.0395,9.3069,-0.0528,0.0299,-0.1064,-1.5525225431523104,-0.0030943681485950947,1.6908533573150635,-2.19691801071167,-0.0,1.8458073139190674,5.203298795014181,-0.00041600133408792317,0.2546848952770233,-1.5973780790912073,1.7291423229477893e-17,-0.031248047947883606,0.742809534072876,-2.4283203753029312e-17,-0.004727189429104328,0.7959685921669006,0.0006403790903277695,0.10657757520675659
760.0,1014.0,-0.5318,0.0395,9.3069,-0.0528,0.0299,-0.1064,-1.5525547222099085,-0.0019388329237699509,1.683626413345337,-2.1969096660614014,-0.0,1.8503355979919434,5.20333086231307,-0.00033786066342145205,0.27658653259277344,-1.5973499456988733,4.813131743795571e-21,-0.02792888879776001,0.7428175210952759,-6.75931970407092e-21,-0.002755002584308386,0.7959358096122742,0.0008901221444830298,0.13354961574077606
760.0,1014.0,-0.5318,0.0395,9.3069,-0.0528,0.0299,-0.1064,-1.5525786721012373,-0.001339803682640195,1.6670706272125244,-2.1969220638275146,-0.0,1.8401927947998047,5.20325459817008,-0.0002844505070243031,0.25497764348983765,-1.597309414540426,-0.00025759165873751044,-0.03857684135437012,0.7428253889083862,-1.8814813794673316e-24,0.006837410852313042,0.7959480881690979,0.0012535558780655265,0.13289636373519897
760.0,1014.0,-0.5318,0.0395,9.3069,-0.0528,0.0299,-0.1064,-1.5525304575315495,-0.001171289011836052,1.6938095092773438,-2.1969141960144043,-0.0,1.8640962839126587,5.203266817122259,-0.00028899297467432916,0.24000756442546844,-1.5973456541644495,-0.00029944785637781024,-0.04239852353930473,0.7428135871887207,-8.021049861881784e-27,0.012889713980257511,0.7959640622138977,0.0015073131071403623,0.15851405262947083
760.0,1014.0,-0.5318,0.0395,9.3069,-0.0528,0.0299,-0.1064,-1.552602620129921,-0.001336315181106329,1.6439707279205322,-2.1969058513641357,-0.0,1.8848507404327393,5.203298437386312,-0.00026265846099704504,0.25223293900489807,-1.5973499456988733,-0.0002996980329044163,-0.031076863408088684,0.7427735328674316,-2.2326888309687813e-30,0.0026173957157880068,0.7959921360015869,0.003103744238615036,0.19581878185272217
760.0,1014.0,-0.5318,0.0395,9.3069,-0.0528,0.0299,-0.1064,-1.5525944393924256,-0.0024723997339606285,1.6122620105743408,-2.1968626976013184,-0.0,1.8358666896820068,5.203314411431112,-0.00023345372756011784,0.23734965920448303,-1.5973618666278284,-0.00030918553238734603,-0.051293954253196716,0.7428452968597412,-6.214770674530277e-34,0.008420862257480621,0.7960526943206787,0.005471483338624239,0.15832915902137756
760.0,1014.0,-0.5318,0.0395,9.3069,-0.0528,0.0299,-0.1064,-1.5526225131801148,-0.00412151450291276,1.617557168006897,-2.1968624591827393,0.0018758855294436216,1.8994882106781006,5.203334885626592,-0.00021009700139984488,0.2544492185115814,-1.597381893788473,-0.00035788107197731733,-0.0526268295943737,0.7427774667739868,-1.729903963143881e-37,-0.0004055409226566553,0.7961047887802124,0.00947832316160202,0.1787520945072174
760.0,1014.0,-0.5318,0.0395,9.3069,-0.0528,0.0299,-0.1064,-1.5526386828026553,-0.007022181525826454,1.6236028671264648,-2.1968624591827393,0.002041138708591461,1.859705924987793,5.203318613558569,-0.00019098659686278552,0.23804309964179993,-1.5973294417010706,-0.00033983660978265107,-0.06151678413152695,0.7428570985794067,-4.815281912959369e-41,0.015106151811778545,0.7961602807044983,0.012017682194709778,0.19906865060329437
760.0,1014.0,-0.5318,0.0395,9.3069,-0.0528,0.0299,-0.1064,-1.5527346053025504,-0.0094308378174901,1.5836046934127808,-2.1968183517456055,0.001457392587326467,1.9007540941238403,5.203298795014181,-0.0001999604282900691,0.23931172490119934,-1.5973127524005335,-0.00033306528348475695,-0.06003681570291519,0.742829442024231,-1.401298464324817e-44,0.03189404681324959,0.7961880564689636,0.014555685222148895,0.21051833033561707
760.0,1014.0,-0.5318,0.0395,9.3069,-0.0528,0.0299,-0.1064,-1.5528106179884453,-0.012965156696736813,1.5868717432022095,-2.1968743801116943,0.0008844377589412034,1.8895691633224487,5.203274655133047,-0.00016292405780404806,0.22989755868911743,-1.5973857084857386,-0.0003499096492305398,-0.07457372546195984,0.7428654432296753,-0.0,0.014272777363657951,0.7963528037071228,0.01847352460026741,0.2697370648384094
760.0,1014.0,-0.5318,0.0395,9.3069,-0.0528,0.0299,-0.1064,-1.5529226337424298,-0.017910968512296677,1.6400011777877808,-2.196826219558716,0.0008493965724483132,1.9201068878173828,5.20330290773467,-0.00020227997447364032,0.23163628578186035,-1.5973661581622522,-0.0004299235879443586,-0.07652239501476288,0.7428333759307861,-0.0,0.022608110681176186,0.7964362502098083,0.02574768103659153,0.33301985263824463
760.0,1014.0,-0.5318,0.0395,9.3069,-0.0528,0.0299,-0.1064,-1.553046378572919,-0.022131362929940224,1.582525372505188,-2.19682240486145,0.0012119997991248965,1.8825294971466064,5.203286576062002,-0.0009014884708449244,0.23717033863067627,-1.5973900000201624,-0.0004078148049302399,-0.07481327652931213,0.7428412437438965,-0.0,0.016492776572704315,0.7966892719268799,0.032862164080142975,0.31411105394363403
760.0,1014.0,-0.5318,0.0395,9.3069,-0.0528,0.0299,-0.1064,-1.5531661429307242,-0.024999337270855904,1.5975117683410645,-2.1967780590057373,0.0021090377122163773,1.9097797870635986,5.203270900040426,-0.0012405996676534414,0.2209022343158722,-1.5973575750934046,-0.0003906623460352421,-0.09694796800613403,0.742829442024231,-0.0,0.013216009363532066,0.796885073184967,0.045232273638248444,0.3368750512599945
760.0,1014.0,-0.5318,0.0395,9.3069,-0.0528,0.0299,-0.1064,-1.553282407378294,-0.027629587799310684,1.573798418045044,-2.1967899799346924,0.0027772323228418827,1.8817217350006104,5.203262734204092,-0.001209855079650879,0.2228400707244873,-1.5973175207721155,-0.0004206452576909214,-0.08358170092105865,0.7428016662597656,-0.0,0.015728501603007317,0.7971217036247253,0.05311420559883118,0.3941480219364166
760.0,1014.0,-0.5318,0.0395,9.3069,-0.0528,0.0299,-0.1064,-1.5535144091448565,-0.03394957631826401,1.5014728307724,-2.19681453704834,0.0032441308721899986,1.9261314868927002,5.203298824816503,-0.0010980813531205058,0.22142258286476135,-1.5974105040179651,-0.0003450791700743139,-0.08727948367595673,0.7427977919578552,-0.0,0.03743753582239151,0.797501802444458,0.06899211555719376,0.4205704927444458
760.0,1014.0,-0.5318,0.0395,9.3069,-0.0528,0.0299,-0.1064,-1.5537544519505282,-0.04194095358252525,1.5180959701538086,-2.196798086166382,0.003656249726191163,1.857679843902588,5.203262734204092,-0.0016237435629591346,0.2215750515460968,-1.5973418394671839,-0.00028051104163751006,-0.09192076325416565,0.7428931593894958,-0.0,0.033095285296440125,0.798014760017395,0.0834050327539444,0.43870529532432556
840.0,1024.0,-1.3095,0.6879,9.1627,0.0073,-0.0643,-0.0186,-1.5540623732707282,-0.05143769457936287,1.5433349609375,-2.196798324584961,0.004926661029458046,1.9445997476577759,5.203202891140737,-0.005949178710579872,0.21482419967651367,-1.5973618666278284,-0.00028353132074698806,-0.09315052628517151,0.7428932189941406,-0.0,0.022886943072080612,0.7985429763793945,0.09422355145215988,0.4284093379974365
840.0,1024.0,-1.3095,0.6879,9.1627,0.0073,-0.0643,-0.0186,-1.5543457877686997,-0.06129878759384155,1.5300806760787964,-2.19671893119812,0.006233007647097111,1.886927843093872,5.203178721457281,-0.014740187674760818,0.2227586805820465,-1.5973780790912073,-0.00028032742557115853,-0.09429962933063507,0.7428693771362305,-0.0,0.03156345337629318,0.7991556525230408,0.10205439478158951,0.4509066045284271
840.0,1024.0,-1.3095,0.6879,9.1627,0.0073,-0.0643,-0.0186,-1.5547375802746792,-0.0708344504237175,1.4613888263702393,-2.196678876876831,0.009240789338946342,1.9027955532073975,5.203075128584661,-0.01973109506070614,0.2135602980852127,-1.597393814717428,-0.0002515449596103281,-0.08373881131410599,0.7428773045539856,-0.0,0.028649743646383286,0.7998082041740417,0.10674866288900375,0.5023548007011414
840.0,1024.0,-1.3095,0.6879,9.1627,0.0073,-0.0643,-0.0186,-1.5551973285949607,-0.07963522523641586,1.4904141426086426,-2.1965272426605225,0.013368474319577217,1.9125072956085205,5.20299186089591,-0.025552036240696907,0.20732241868972778,-1.597353760396139,-0.0002566500334069133,-0.10007226467132568,0.7428654432296753,-0.0,0.0331200510263443,0.8004445433616638,0.11260002106428146,0.4856882691383362
840.0,1024.0,-1.3095,0.6879,9.1627,0.0073,-0.0643,-0.0186,-1.5557170382565637,-0.08911947906017303,1.4663398265838623,-2.1965153217315674,0.016488147899508476,1.9487390518188477,5.202820080309667,-0.03496204689145088,0.2058371603488922,-1.5973857084857386,-0.00020985813171137124,-0.10598708689212799,0.7428532242774963,-0.0,0.0326681062579155,0.8011577725410461,0.11739125847816467,0.5092542171478271
840.0,1024.0,-1.3095,0.6879,9.1627,0.0073,-0.0643,-0.0186,-1.5562483605793496,-0.09491001069545746,1.4233083724975586,-2.196324348449707,0.020182540640234947,1.9574626684188843,5.202564286976614,-0.050992194563150406,0.20761163532733917,-1.597353760396139,-0.00022054865257814527,-0.0902988612651825,0.7428574562072754,-0.0,0.03156290948390961,0.8018618822097778,0.1239464059472084,0.5188357830047607
840.0,1024.0,-1.3095,0.6879,9.1627,0.0073,-0.0643,-0.0186,-1.556692205635347,-0.09760115295648575,1.458003282546997,-2.196335792541504,0.022952647879719734,1.9374217987060547,5.202300387411871,-0.06549318134784698,0.18670693039894104,-1.5973299185382288,-0.00020417523046489805,-0.10370689630508423,0.7427815198898315,-0.0,0.03234364464879036,0.8024064898490906,0.13062156736850739,0.5504611730575562
840.0,1024.0,-1.3095,0.6879,9.1627,0.0073,-0.0643,-0.0186,-1.557291281675436,-0.10303040593862534,1.4450006484985352,-2.1961164474487305,0.026530440896749496,1.9464468955993652,5.201837646752157,-0.0826573297381401,0.18875734508037567,-1.597381893788473,-0.00018337326764594764,-0.10118429362773895,0.7428693771362305,0.00011193294631084427,0.04183562844991684,0.8031871318817139,0.14671635627746582,0.5923543572425842
840.0,1024.0,-1.3095,0.6879,9.1627,0.0073,-0.0643,-0.0186,-1.5579350462979455,-0.10426383465528488,1.4446097612380981,-2.1959850788116455,0.028737403452396393,1.9361590147018433,5.201278972416677,-0.08997507393360138,0.18075263500213623,-1.5974062124835413,-0.00016641775437165052,-0.09402180463075638,0.7428894639015198,0.00010419364116387442,0.03669566661119461,0.8041361570358276,0.15739186108112335,0.6036340594291687
840.0,1024.0,-1.3095,0.6879,9.1627,0.0073,-0.0643,-0.0186,-1.5586183129674573,-0.11291354894638062,1.4184576272964478,-2.1958329677581787,0.028884846717119217,1.9176626205444336,5.200792568712988,-0.08086780458688736,0.17376205325126648,-1.5973981062518519,-0.00015233269368764013,-0.10368916392326355,0.7428333759307861,9.742606926010922e-05,0.03018617257475853,0.8050644993782043,0.162375345826149,0.5427881479263306
840.0,1024.0,-1.3095,0.6879,9.1627,0.0073,-0.0643,-0.0186,-1.5593383538401504,-0.12343908846378326,1.4827574491500854,-2.195594072341919,0.02759510464966297,1.9083583354949951,5.200321751623907,-0.06701145321130753,0.19625109434127808,-1.59733754793276,-0.00014044601994100958,-0.1006711795926094,0.7428616285324097,8.248299855040386e-05,0.03840044513344765,0.806029200553894,0.16341066360473633,0.5694835186004639
840.0,1024.0,-1.3095,0.6879,9.1627,0.0073,-0.0643,-0.0186,-1.5600936229205509,-0.13601632416248322,1.4299689531326294,-2.1953985691070557,0.02837234176695347,1.9456274509429932,5.200026947050848,-0.04665231332182884,0.18914085626602173,-1.5973580519305628,-0.00013028028479311615,-0.1025671660900116,0.7428935766220093,6.898256833665073e-05,0.03762242570519447,0.807054877281189,0.16444797813892365,0.5672067999839783
840.0,1024.0,-1.3095,0.6879,9.1627,0.0073,-0.0643,-0.0186,-1.5609447930804272,-0.14793048799037933,1.4166536331176758,-2.195239543914795,0.02870756946504116,1.9515845775604248,5.19981129744605,-0.02413499914109707,0.19322948157787323,-1.5973380247699183,-0.00012148684618296102,-0.09989511221647263,0.7428333759307861,6.523016782011837e-05,0.03842205926775932,0.8080072999000549,0.16952182352542877,0.600060224533081
840.0,1024.0,-1.3095,0.6879,9.1627,0.0073,-0.0643,-0.0186,-1.5618719982779403,-0.15352030098438263,1.3945777416229248,-2.1950597763061523,0.02965894155204296,1.9104316234588623,5.199727374106207,-0.0063847266137599945,0.20738479495048523,-1.5973299185382288,-0.00011380553769413382,-0.10298356413841248,0.7428054213523865,6.186711834743619e-05,0.019718624651432037,0.8089995384216309,0.17789290845394135,0.586266279220581
840.0,1024.0,-1.3095,0.6879,9.1627,0.0073,-0.0643,-0.0186,-1.562815454123058,-0.150179922580719,1.4357157945632935,-2.194864511489868,0.031085537746548653,1.958580732345581,5.1997839389140985,0.0064172218553721905,0.21629419922828674,-1.5973175207721155,-0.00010703790030675009,-0.11096906661987305,0.7428292632102966,5.883383346372284e-05,0.02328890934586525,0.8101779222488403,0.18409579992294312,0.582162082195282
840.0,1024.0,-1.3095,0.6879,9.1627,0.0073,-0.0643,-0.0186,-1.5638145420565088,-0.14832065999507904,1.435987949371338,-2.1946887969970703,0.03112689033150673,1.9525632858276367,5.199775683670797,0.005887501407414675,0.2115214765071869,-1.5973461310016077,-8.422949758823961e-05,-0.11275197565555573,0.7428493499755859,5.608407809631899e-05,0.027403967455029488,0.8112941980361938,0.18544544279575348,0.5947061777114868
1012.0,1053.0,-1.2502,0.3846,9.6604,-0.0053,-0.0956,0.0615,-1.5644418693012376,-0.15509359538555145,1.432529330253601,-2.194584369659424,0.031062308698892593,1.9219388961791992,5.199799525528707,0.0026877776253968477,0.21704360842704773,-1.5973418394671839,-8.11550416983664e-05,-0.08234618604183197,0.7428656816482544,5.438942389446311e-05,0.024612097069621086,0.8120349049568176,0.18507330119609833,0.5746591091156006
1012.0,1053.0,-1.2502,0.3846,9.6604,-0.0053,-0.0956,0.0615,-1.5654368682629247,-0.17458009719848633,1.4139271974563599,-2.1943624019622803,0.03120863251388073,1.945037603378296,5.199811833887853,4.8158885874727275e-06,0.21872186660766602,-1.5973213354693812,-7.698947592871264e-05,-0.08324165642261505,0.7428370714187622,5.203111868468113e-05,0.03299037367105484,0.8131676316261292,0.18849843740463257,0.5597602128982544
1012.0,1053.0,-1.2502,0.3846,9.6604,-0.0053,-0.0956,0.0615,-1.5664760165712615,-0.19137999415397644,1.3838411569595337,-2.194185733795166,0.03190848231315613,1.9648798704147339,5.199795830040731,1.3405203613814365e-09,0.22010667622089386,-1.5973337332354944,-5.9078014601254836e-05,-0.10935401916503906,0.7428251504898071,4.9868795031215996e-05,0.03373424708843231,0.8142722249031067,0.19354252517223358,0.5779626369476318
1012.0,1053.0,-1.2502,0.3846,9.6604,-0.0053,-0.0956,0.0615,-1.5675467653530468,-0.1966792792081833,1.3876807689666748,-2.1939547061920166,0.0381283201277256,1.8948743343353271,5.1998236058051965,0.0005029383464716375,0.21524178981781006,-1.597309414540426,-5.5857708503026515e-05,-0.08395925164222717,0.7428173422813416,4.787908255821094e-05,0.018051397055387497,0.8154253959655762,0.1945939064025879,0.5527759790420532
1012.0,1053.0,-1.2502,0.3846,9.6604,-0.0053,-0.0956,0.0615,-1.5687261675814916,-0.18790839612483978,1.3985059261322021,-2.193695545196533,0.047203417867422104,1.996476650238037,5.199819522887029,0.0013975745532661676,0.22556042671203613,-1.5973299185382288,-4.003377762273885e-05,-0.08298379927873611,0.7428328990936279,3.5292785469209775e-05,0.01609291322529316,0.8165938854217529,0.1966918706893921,0.5659297108650208
1012.0,1053.0,-1.2502,0.3846,9.6604,-0.0053,-0.0956,0.0615,-1.5698974329028097,-0.18477046489715576,1.4660940170288086,-2.1933324337005615,0.05808696150779724,1.955936074256897,5.1998236058051965,0.0011141852010041475,0.21549755334854126,-1.597309414540426,3.3975349651882425e-05,-0.06913118064403534,0.7428178191184998,3.325577199575491e-05,0.016817811876535416,0.8178191781044006,0.19324944913387299,0.448646605014801
1012.0,1053.0,-1.2502,0.3846,9.6604,-0.0053,-0.0956,0.0615,-1.571092268029684,-0.1951931118965149,1.3652629852294922,-2.1929619312286377,0.06769789010286331,1.9586920738220215,5.1998116848762415,0.0005865569692105055,0.22896525263786316,-1.597325627003805,3.3280084608122706e-05,-0.06718478351831436,0.7428013682365417,3.207050758646801e-05,0.02030310593545437,0.8189960718154907,0.19666169583797455,0.4681232273578644
1012.0,1053.0,-1.2502,0.3846,9.6604,-0.0053,-0.0956,0.0615,-1.5722228489317835,-0.21439187228679657,1.396375298500061,-2.1924753189086914,0.07696522772312164,2.0044026374816895,5.199819522887029,0.00041697020060382783,0.21345780789852142,-1.5972698370562952,4.729249485535547e-05,-0.061837516725063324,0.7428255677223206,3.096705404459499e-05,0.032621223479509354,0.8202007412910461,0.19667382538318634,0.4763171970844269
1012.0,1053.0,-1.2502,0.3846,9.6604,-0.0053,-0.0956,0.0615,-1.5735742054381312,-0.2240781933069229,1.4165763854980469,-2.1920130252838135,0.08894066512584686,2.0528762340545654,5.199803519039907,0.00032620341517031193,0.2203512191772461,-1.5973060766803187,7.389378151856363e-05,-0.07012423872947693,0.7427931427955627,-2.9915709092165343e-05,0.01177024282515049,0.8213537931442261,0.196928933262825,0.46416738629341125
1012.0,1053.0,-1.2502,0.3846,9.6604,-0.0053,-0.0956,0.0615,-1.5744253597655238,-0.22746345400810242,1.3844622373580933,-2.1916141510009766,0.10046717524528503,2.0037126541137695,5.199835526734152,0.00031258800299838185,0.2235608994960785,-1.597285572682516,0.00034338567638769746,-0.058991074562072754,0.7428616285324097,-3.2899399229791015e-05,-0.000745161494705826,0.8221380710601807,0.19549314677715302,0.4558054804801941
1012.0,1053.0,-1.2502,0.3846,9.6604,-0.0053,-0.0956,0.0615,-1.5758005581297816,-0.22930878400802612,1.4079868793487549,-2.1909046173095703,0.11731710284948349,2.0502045154571533,5.199907350331106,0.00037613054155372083,0.22134128212928772,-1.5973504225360315,0.0003949362435378134,-0.05277029424905777,0.7428333759307861,-3.120548353763297e-05,0.011483841575682163,0.8233271241188049,0.19596439599990845,0.44085150957107544
1012.0,1053.0,-1.2502,0.3846,9.6604,-0.0053,-0.0956,0.0615,-1.5771995983519496,-0.23292018473148346,1.4745962619781494,-2.1901347637176514,0.13335174322128296,2.067763328552246,5.1998314438159845,0.0003131448174826801,0.21836867928504944,-1.5972779432879847,0.0003433132078498602,-0.05268235504627228,0.7427731156349182,-2.9662713131983764e-05,0.012396477162837982,0.8245077133178711,0.19615210592746735,0.48229777812957764
1012.0,1053.0,-1.2502,0.3846,9.6604,-0.0053,-0.0956,0.0615,-1.5785452328123988,-0.23489810526371002,1.4023234844207764,-2.189281940460205,0.14311423897743225,2.030272960662842,5.199887293368139,0.0018031708896160126,0.2037476897239685,-1.5973380247699183,0.0003364587901160121,-0.07597362250089645,0.7427850365638733,-2.826531999744475e-05,-0.00156699912622571,0.8257287740707397,0.19135791063308716,0.4611416459083557
1012.0,1053.0,-1.2502,0.3846,9.6604,-0.0053,-0.0956,0.0615,-1.5800172291197718,-0.24560339748859406,1.4011671543121338,-2.1883606910705566,0.15085430443286896,2.124317169189453,5.199895131378927,0.0025679138489067554,0.23237751424312592,-1.597285572682516,0.0002956623211503029,-0.04667941480875015,0.7428780198097229,-2.6993675419362262e-05,-0.0019014623248949647,0.8268857002258301,0.19080288708209991,0.3945811986923218
1012.0,1053.0,-1.2502,0.3846,9.6604,-0.0053,-0.0956,0.0615,-1.5814749203123988,-0.253899484872818,1.3877029418945312,-2.18743896484375,0.1635545790195465,2.1245672702789307,5.199927437096395,0.00311749754473567,0.2206571400165558,-1.5973218123065394,0.0002632287214510143,-0.04963936656713486,0.742809534072876,-2.5831508537521586e-05,-0.0007164609851315618,0.8280588984489441,0.19059734046459198,0.4309108853340149
1012.0,1053.0,-1.2502,0.3846,9.6604,-0.0053,-0.0956,0.0615,-1.5830308399596156,-0.26087480783462524,1.3728790283203125,-2.1863150596618652,0.1763511449098587,2.030585527420044,5.199922907143392,0.0020573639776557684,0.2206592708826065,-1.5972617308246058,0.00023720845638308674,-0.052672870457172394,0.7428457140922546,-3.08669768855907e-05,0.001027613296173513,0.8292039036750793,0.19638819992542267,0.4530198574066162
1004.0,1049.0,-0.3129,0.8668,10.0098,0.0098,-0.0211,0.0773,-1.5845324001707972,-0.2632984220981598,1.4069323539733887,-2.1852223873138428,0.19064360857009888,2.1500704288482666,5.199931132584371,0.001742968219332397,0.2244008183479309,-1.5972774664508265,0.00020522660634014755,-0.04863676428794861,0.742821455001831,-2.3833943487261422e-05,0.0031444437336176634,0.8302881121635437,0.19033454358577728,0.41101211309432983
1004.0,1049.0,-0.3129,0.8668,10.0098,0.0098,-0.0211,0.0773,-1.5861560306944789,-0.2671341896057129,1.4619261026382446,-2.1839938163757324,0.20401182770729065,2.1155037879943848,5.1999511299426935,0.0018319282680749893,0.22760272026062012,-1.59731370607485,0.00018050847575068474,-0.03417884185910225,0.7428095936775208,-3.4311906347284093e-05,0.0025458354502916336,0.8314208984375,0.183321014046669,0.3861934542655945
1004.0,1049.0,-0.3129,0.8668,10.0098,0.0098,-0.0211,0.0773,-1.5872823200621546,-0.27459976077079773,1.3635787963867188,-2.1831321716308594,0.21132200956344604,2.1572093963623047,5.199995445996084,0.0018803206039592624,0.20918458700180054,-1.5973098913775843,0.00016710037016309798,-0.0556362122297287,0.7428337931632996,-3.346453740959987e-05,0.0030278214253485203,0.8321413397789001,0.17737701535224915,0.34159040451049805
1004.0,1049.0,-0.3129,0.8668,10.0098,0.0098,-0.0211,0.0773,-1.5889975033202113,-0.27686673402786255,1.410643219947815,-2.1817820072174072,0.22657102346420288,2.147099733352661,5.200007217913427,0.0035795096773654222,0.2294304519891739,-1.5973261038409632,0.00015034913667477667,-0.047860343009233475,0.7428337931632996,-3.226488843210973e-05,0.002542455680668354,0.8332424163818359,0.17901603877544403,0.3653538227081299
1004.0,1049.0,-0.3129,0.8668,10.0098,0.0098,-0.0211,0.0773,-1.5906878910460414,-0.28324538469314575,1.3733384609222412,-2.180349826812744,0.2437223494052887,2.1984763145446777,5.199922400503912,0.003126104362308979,0.21945665776729584,-1.5973418394671839,0.00013665063306689262,-0.049069128930568695,0.742809534072876,-3.114821811323054e-05,0.0121372165158391,0.8343114852905273,0.18463930487632751,0.37378740310668945
1004.0,1049.0,-0.3129,0.8668,10.0098,0.0098,-0.0211,0.0773,-1.592459341088766,-0.29679352045059204,1.3956215381622314,-2.178865909576416,0.25378847122192383,2.1867260932922363,5.199970769673147,0.000678275537211448,0.23063237965106964,-1.5972817579852503,0.00012524030171334743,-0.047860704362392426,0.7428013682365417,-3.0106270060059614e-05,2.6190420612692833e-05,0.8354080319404602,0.1860949993133545,0.42455804347991943
1004.0,1049.0,-0.3129,0.8668,10.0098,0.0098,-0.0211,0.0773,-1.5943380794920863,-0.3005754351615906,1.3683985471725464,-2.1773433685302734,0.2640741467475891,2.182793617248535,5.1999671933944605,0.00028177749481983483,0.21525143086910248,-1.597325627003805,0.00011558864935068414,-0.05790219455957413,0.7428173422813416,-6.43407460643175e-08,-0.0007942322408780456,0.836505115032196,0.18280000984668732,0.39997372031211853
1004.0,1049.0,-0.3129,0.8668,10.0098,0.0098,-0.0211,0.0773,-1.5961643658080042,-0.30255550146102905,1.4096543788909912,-2.1756680011749268,0.27955305576324463,2.1782522201538086,5.200023191958227,0.00019384879851713777,0.21079176664352417,-1.5972936789142054,8.867749420460314e-05,-0.05247983708977699,0.7428699731826782,-1.7909482924460818e-11,-0.0059187705628573895,0.837597668170929,0.17675243318080902,0.41722404956817627
1004.0,1049.0,-0.3129,0.8668,10.0098,0.0098,-0.0211,0.0773,-1.5980550251402796,-0.3135635554790497,1.3978755474090576,-2.173985004425049,0.2954671382904053,2.2330851554870605,5.199991214066305,0.00014646808267571032,0.21841728687286377,-1.5973299185382288,8.012286707526073e-05,-0.06054292619228363,0.7428493499755859,-4.985169635901348e-15,-0.010543298907577991,0.8385862708091736,0.1759318709373474,0.40894031524658203
1004.0,1049.0,-0.3129,0.8668,10.0098,0.0098,-0.0211,0.0773,-1.5999981365599574,-0.3162461221218109,1.4000869989395142,-2.172182083129883,0.30404308438301086,2.2399778366088867,5.1999511299426935,8.142208571371157e-06,0.2169312983751297,-1.5973175207721155,7.510710565838963e-05,-0.058686263859272,0.7428013682365417,-1.3876404555035115e-18,0.002282677683979273,0.8396633863449097,0.17651858925819397,0.41742193698883057
1004.0,1049.0,-0.3129,0.8668,10.0098,0.0098,-0.0211,0.0773,-1.6018673382201136,-0.3218303620815277,1.3977670669555664,-2.1703436374664307,0.31402722001075745,2.245286464691162,5.199983137636938,2.266413723361893e-09,0.21709772944450378,-1.5973299185382288,7.068303239066154e-05,-0.06615012139081955,0.7428374886512756,-3.8625484965008914e-22,0.003016133327037096,0.8406838178634644,0.17742127180099487,0.45751523971557617
1004.0,1049.0,-0.3129,0.8668,10.0098,0.0098,-0.0211,0.0773,-1.6038223705687464,-0.33458593487739563,1.3987798690795898,-2.1683928966522217,0.3203488290309906,2.243161678314209,5.199959414988317,-0.0014313200954347849,0.2090512216091156,-1.5972979704486292,6.675114127574489e-05,-0.05753159523010254,0.7428297400474548,-1.0751546747223707e-25,0.0021109392400830984,0.8417768478393555,0.17713220417499542,0.4321601390838623
1004.0,1049.0,-0.3129,0.8668,10.0098,0.0098,-0.0211,0.0773,-1.6051174602904261,-0.33795472979545593,1.4266645908355713,-2.167145252227783,0.3318268656730652,2.278534412384033,5.199971246510305,-0.0009950491366907954,0.21555030345916748,-1.5972817579852503,6.436419062083587e-05,-0.06303523480892181,0.7427608966827393,-4.583552452491265e-28,-0.010400953702628613,0.8424850106239319,0.1730838268995285,0.38675612211227417
1004.0,1049.0,-0.3129,0.8668,10.0098,0.0098,-0.0211,0.0773,-1.6071483097472132,-0.34055638313293457,1.345550537109375,-2.1651272773742676,0.3548923432826996,2.3490211963653564,5.199915128737249,-0.00032990906038321555,0.21043798327445984,-1.5973299185382288,6.108760862844065e-05,-0.043845005333423615,0.7427892088890076,-1.2758485369912528e-31,-0.003813274670392275,0.8434613943099976,0.17055998742580414,0.4520934224128723
1004.0,1049.0,-0.3129,0.8668,10.0098,0.0098,-0.0211,0.0773,-1.6091624699034632,-0.3448648452758789,1.424229383468628,-2.162966012954712,0.3651854991912842,2.366976737976074,5.199951249151983,-0.0004570774035528302,0.1908567100763321,-1.59731370607485,5.812846211483702e-05,-0.062366582453250885,0.7428738474845886,-3.5513713328834546e-35,0.008570587262511253,0.8444746136665344,0.1696302592754364,0.4835320711135864
1004.0,1049.0,-0.3129,0.8668,10.0098,0.0098,-0.0211,0.0773,-1.6112166843810023,-0.3502456247806549,1.3937019109725952,-2.1607887744903564,0.3703753650188446,2.291031837463379,5.199919211655416,-0.0016708847833797336,0.20921188592910767,-1.5973461310016077,5.5442811571992934e-05,-0.06492163240909576,0.7428534030914307,-9.885374537373098e-39,-0.005635387264192104,0.8454713225364685,0.16709457337856293,0.42772242426872253
994.0,1037.0,-0.5378,-0.064,9.5964,-0.053,0.0637,0.0541,-1.6133676968016566,-0.3583745062351227,1.3359074592590332,-2.1584486961364746,0.3856502175331116,2.3263888359069824,5.199907260924139,-0.0009445012547075748,0.18310174345970154,-1.5972979704486292,5.299432450556196e-05,-0.057446107268333435,0.7427891492843628,-2.7521501839339407e-42,-0.0016632522456347942,0.8465041518211365,0.1670886129140854,0.4347003400325775
994.0,1037.0,-0.5378,-0.064,9.5964,-0.053,0.0637,0.0541,-1.6155578098692835,-0.36789819598197937,1.3300710916519165,-2.1560449600219727,0.3956272304058075,2.285919189453125,5.199931520014562,-0.0005787539994344115,0.20303355157375336,-1.597358528767721,5.075297667644918e-05,-0.06472057104110718,0.7427932024002075,-1.401298464324817e-45,-0.0010507581755518913,0.847560703754425,0.17545367777347565,0.4629744291305542
994.0,1037.0,-0.5378,-0.064,9.5964,-0.053,0.0637,0.0541,-1.6177689037718714,-0.37702038884162903,1.3993502855300903,-2.153611898422241,0.41315871477127075,2.3503847122192383,5.199931579619207,-0.00045768925338052213,0.19718864560127258,-1.5973218123065394,4.8693538701627403e-05,-0.05802202969789505,0.7428174018859863,-0.0,-0.005073812790215015,0.8485208749771118,0.17743906378746033,0.49604442715644836
994.0,1037.0,-0.5378,-0.064,9.5964,-0.053,0.0637,0.0541,-1.6200186214842738,-0.3801940977573395,1.366828441619873,-2.151064395904541,0.41873791813850403,2.324293613433838,5.199879127531805,-0.0004723438760265708,0.18368953466415405,-1.597325627003805,4.6794717491138726e-05,-0.053787678480148315,0.7427809834480286,-0.0,-0.009639700874686241,0.8496019244194031,0.17158640921115875,0.49458903074264526
994.0,1037.0,-0.5378,-0.064,9.5964,-0.053,0.0637,0.0541,-1.6223932705321253,-0.38645949959754944,1.4044256210327148,-2.148435354232788,0.43063557147979736,2.3277587890625,5.199851560383596,-0.0019524903036653996,0.18822720646858215,-1.5973218123065394,4.503841046243906e-05,-0.062364086508750916,0.7427850365638733,-0.0,0.0026293578557670116,0.8506311178207397,0.16505539417266846,0.4179796278476715
994.0,1037.0,-0.5378,-0.064,9.5964,-0.053,0.0637,0.0541,-1.6240245304503382,-0.3945416808128357,1.393747091293335,-2.1466941833496094,0.439574658870697,2.322722911834717,5.199907290726461,-0.0014064625138416886,0.18482738733291626,-1.5973299185382288,4.393903509480879e-05,-0.055265139788389206,0.742821455001831,-0.0,-0.0009038004791364074,0.8513477444648743,0.16515758633613586,0.44810760021209717
994.0,1037.0,-0.5378,-0.064,9.5964,-0.053,0.0637,0.0541,-1.6264153919615687,-0.3953395187854767,1.4117227792739868,-2.143998861312866,0.45695817470550537,2.473468780517578,5.199890959053793,-0.00030243382207117975,0.19238850474357605,-1.597342316304342,4.2387007852084935e-05,-0.060764215886592865,0.7427973747253418,-0.0,-0.004517076537013054,0.852360188961029,0.16994665563106537,0.4620586335659027
994.0,1037.0,-0.5378,-0.064,9.5964,-0.053,0.0637,0.0541,-1.628848215142721,-0.40791431069374084,1.3703300952911377,-2.1412858963012695,0.46699345111846924,2.3950464725494385,5.199883210449972,-0.0010408974485471845,0.19620168209075928,-1.5973055998431605,4.094088581041433e-05,-0.04432018846273422,0.742805540561676,-0.0,-0.004163684323430061,0.8534329533576965,0.17064188420772552,0.3946748971939087
994.0,1037.0,-0.5378,-0.064,9.5964,-0.053,0.0637,0.0541,-1.631395002404684,-0.4169069826602936,1.401930332183838,-2.13848614692688,0.4731719493865967,2.4485974311828613,5.199835526734152,-0.0032286278437823057,0.18978843092918396,-1.5973580519305628,1.0172201655223034e-05,-0.060502760112285614,0.7428333759307861,-0.0,0.001236849231645465,0.8544257879257202,0.17041483521461487,0.44196000695228577
994.0,1037.0,-0.5378,-0.064,9.5964,-0.053,0.0637,0.0541,-1.633864542047018,-0.42887598276138306,1.3073620796203613,-2.1355700492858887,0.4793342351913452,2.3847272396087646,5.199819940119543,-0.005833175033330917,0.17995820939540863,-1.5973337332354944,1.2247426639078185e-05,-0.050955526530742645,0.7428054213523865,-0.0,0.004246310330927372,0.855490505695343,0.16863900423049927,0.4611208438873291
994.0,1037.0,-0.5378,-0.064,9.5964,-0.053,0.0637,0.0541,-1.636435171166891,-0.44209107756614685,1.4213039875030518,-2.132732629776001,0.4980461299419403,2.5137412548065186,5.199795323401251,-0.002876739948987961,0.18924959003925323,-1.5972936789142054,1.1711490515153855e-05,-0.04737699031829834,0.7427690029144287,-0.0,0.013152053579688072,0.8565352559089661,0.1637076586484909,0.4264087975025177
994.0,1037.0,-0.5378,-0.064,9.5964,-0.053,0.0637,0.0541,-1.6390611133971156,-0.44565045833587646,1.382386565208435,-2.129750967025757,0.504642128944397,2.467710494995117,5.1998116848762415,-0.0016169652808457613,0.18187332153320312,-1.5972898642169397,1.127146060753148e-05,-0.03697991371154785,0.7427731156349182,-0.0,-0.0030366070568561554,0.8574795722961426,0.16142143309116364,0.3926089406013489
994.0,1037.0,-0.5378,-0.064,9.5964,-0.053,0.0637,0.0541,-1.6416908703246058,-0.4497804045677185,1.3863013982772827,-2.126643180847168,0.5125405192375183,2.493882656097412,5.199751186161794,-0.0015586637891829014,0.1843475103378296,-1.597309414540426,2.154204048565589e-05,-0.0491408035159111,0.7427690625190735,-0.0,0.002069479087367654,0.8584243655204773,0.15712402760982513,0.41291388869285583
994.0,1037.0,-0.5378,-0.064,9.5964,-0.053,0.0637,0.0541,-1.6444503269591273,-0.4559950530529022,1.368638277053833,-2.1234798431396484,0.5172960758209229,2.5009074211120605,5.199775683670797,-0.0013911027926951647,0.1695108413696289,-1.5973175207721155,2.0967328964616172e-05,-0.029937922954559326,0.7428297400474548,-0.0,-0.006961836013942957,0.8593651652336121,0.15584558248519897,0.38205480575561523
994.0,1037.0,-0.5378,-0.064,9.5964,-0.053,0.0637,0.0541,-1.6471263370909632,-0.46334612369537354,1.403505563735962,-2.120345115661621,0.5334014296531677,2.410673141479492,5.199791687517919,-5.344519649952417e-06,0.16799300909042358,-1.59731370607485,2.0259414668544196e-05,-0.03720325976610184,0.7427932024002075,-0.0,0.0038270633667707443,0.8603100776672363,0.15983283519744873,0.4211660623550415
994.0,1037.0,-0.5378,-0.064,9.5964,-0.053,0.0637,0.0541,-1.6490427456297816,-0.46955960988998413,1.3972721099853516,-2.118101119995117,0.5388414263725281,2.4860892295837402,5.19977160075263,-2.2784524489338764e-08,0.18817585706710815,-1.5973060766803187,1.377447279082844e-05,-0.03297971934080124,0.7427731156349182,-0.0,-0.005607998929917812,0.8609341979026794,0.1569995880126953,0.37730956077575684
1026.0,1015.0,-0.6311,0.2662,9.5157,-0.0053,0.089,0.024,-1.651919504205221,-0.47470560669898987,1.4291146993637085,-2.114865303039551,0.5489333271980286,2.4376401901245117,5.199828105955877,-6.342155533384242e-12,0.1780969500541687,-1.5973218123065394,3.834175199557421e-09,-0.031021466478705406,0.742789089679718,-0.0,0.007177446968853474,0.8618950843811035,0.1483491063117981,0.38614535331726074
1026.0,1015.0,-0.6311,0.2662,9.5157,-0.0053,0.089,0.024,-1.6548482380309046,-0.4838167726993561,1.4075268507003784,-2.111574411392212,0.5563659071922302,2.4076356887817383,5.199832248478689,-1.7653622458657712e-15,0.17922243475914001,-1.597297493611471,0.00018210014968644828,-0.02255461923778057,0.742805540561676,-0.0,-0.0060392022132873535,0.8627233505249023,0.13674740493297577,0.31523141264915466
1026.0,1015.0,-0.6311,0.2662,9.5157,-0.0053,0.089,0.024,-1.6578132114806117,-0.48508691787719727,1.4408687353134155,-2.108170986175537,0.568809449672699,2.444504737854004,5.199799525528707,-4.913950697896165e-19,0.18916013836860657,-1.5972860495196741,0.0001955730258487165,-0.01874874159693718,0.7428054213523865,-0.0,-0.003067201701924205,0.8634915947914124,0.12804348766803741,0.33138641715049744
1026.0,1015.0,-0.6311,0.2662,9.5157,-0.0053,0.089,0.024,-1.6608144245543421,-0.49916693568229675,1.4068048000335693,-2.1048672199249268,0.5780390501022339,2.42323637008667,5.1997757134731195,-1.3678163996355337e-22,0.1777382791042328,-1.5972655455218714,0.00020578883413691074,-0.025534529238939285,0.742817759513855,-0.0,0.0065270839259028435,0.8642323613166809,0.12086528539657593,0.2759518027305603
1026.0,1015.0,-0.6311,0.2662,9.5157,-0.0053,0.089,0.024,-1.6638256512083949,-0.5060696601867676,1.48026442527771,-2.101412296295166,0.5909290909767151,2.4903035163879395,5.199731546431341,-3.8073675174224244e-26,0.18092498183250427,-1.5973299185382288,0.0002106900210492313,-0.004655228462070227,0.7427895069122314,-0.0,0.003224191488698125,0.8649649024009705,0.12036921828985214,0.29091769456863403
1026.0,1015.0,-0.6311,0.2662,9.5157,-0.0053,0.089,0.024,-1.666898866693014,-0.5221171379089355,1.4657936096191406,-2.0978336334228516,0.5907828211784363,2.4647512435913086,5.19976760724143,-1.0597947864979704e-29,0.18185478448867798,-1.597253147755758,0.00019667063315864652,-0.02023385837674141,0.7427493929862976,-0.0,-0.004863819573074579,0.8656573295593262,0.12270054221153259,0.21591490507125854
1026.0,1015.0,-0.6311,0.2662,9.5157,-0.0053,0.089,0.024,-1.6700636349120082,-0.5312919020652771,1.4509748220443726,-2.0942633152008057,0.586868941783905,2.377389669418335,5.199759769230642,-0.002604303415864706,0.17398370802402496,-1.5972860495196741,0.00026789758703671396,-0.010075327008962631,0.7428178191184998,-0.0,0.0003198429476469755,0.866374135017395,0.1175195500254631,0.24938607215881348
1026.0,1015.0,-0.6311,0.2662,9.5157,-0.0053,0.089,0.024,-1.6732012234129847,-0.5371150970458984,1.5040555000305176,-2.0905914306640625,0.5969738960266113,2.4717414379119873,5.199779826193609,-0.0007303057354874909,0.18636806309223175,-1.5972936789142054,0.0003122916677966714,-0.001509335357695818,0.7428218722343445,-0.0,-0.0054441108368337154,0.8670504689216614,0.10587182641029358,0.22815480828285217
1026.0,1015.0,-0.6311,0.2662,9.5157,-0.0053,0.089,0.024,-1.6752659283080042,-0.5402280688285828,1.5103408098220825,-2.0881283283233643,0.6033170223236084,2.453324794769287,5.199775653868475,0.002211795188486576,0.1739273965358734,-1.5972335974322718,0.00032767129596322775,0.0060613094829022884,0.742781400680542,-0.0,-0.01420522853732109,0.8673985004425049,0.09882041066884995,0.15141485631465912
1026.0,1015.0,-0.6311,0.2662,9.5157,-0.0053,0.089,0.024,-1.678446432153219,-0.5369610786437988,1.507339596748352,-2.0844552516937256,0.6113498210906982,2.4224555492401123,5.199759381800451,0.0009477389394305646,0.19041883945465088,-1.5972583929644983,0.000487845711177215,0.005875593516975641,0.7428014278411865,-0.0,-0.0028399580623954535,0.8680073618888855,0.08912627398967743,0.17929744720458984
1026.0,1015.0,-0.6311,0.2662,9.5157,-0.0053,0.089,0.024,-1.681723257104391,-0.538615882396698,1.5371427536010742,-2.0807793140411377,0.6190707683563232,2.399245500564575,5.199823993235388,0.00031074800062924623,0.1728670299053192,-1.5972374121295374,0.0004811057588085532,0.019111212342977524,0.7428137063980103,-0.0,0.006267153657972813,0.8684751391410828,0.07609337568283081,0.1388530284166336
1026.0,1015.0,-0.6311,0.2662,9.5157,-0.0053,0.089,0.024,-1.6850153408446253,-0.5397709012031555,1.5441818237304688,-2.077070713043213,0.6247802376747131,2.469430446624756,5.199779855995931,9.545169450575486e-05,0.17793074250221252,-1.5972583929644983,0.000391834182664752,0.010431014001369476,0.7427973747253418,-0.0,-0.00693467166274786,0.8689113855361938,0.06484899669885635,0.09021251648664474
1026.0,1015.0,-0.6311,0.2662,9.5157,-0.0053,0.089,0.024,-1.6883932552733363,-0.5453619956970215,1.6186964511871338,-2.0733020305633545,0.6294926404953003,2.4478631019592285,5.1998281357581995,2.655095386216999e-06,0.2020491659641266,-1.5972822348224085,0.000377336866222322,0.003885785350576043,0.7428255081176758,-0.0,-0.0028674271889030933,0.8692634105682373,0.0576564259827137,0.10298465192317963
1026.0,1015.0,-0.6311,0.2662,9.5157,-0.0053,0.089,0.024,-1.6917444668211878,-0.5576151609420776,1.5398626327514648,-2.069573402404785,0.6391898989677429,2.3939642906188965,5.199783909111776,7.390555389896747e-10,0.19276529550552368,-1.5972612539874476,0.00032608004403300583,0.0155775872990489,0.742809534072876,-0.0,-0.0061376579105854034,0.8695799112319946,0.05062178522348404,0.06422106921672821
1026.0,1015.0,-0.6311,0.2662,9.5157,-0.0053,0.089,0.024,-1.695160528222555,-0.5610007643699646,1.6389999389648438,-2.065809488296509,0.6426113843917847,2.4458258152008057,5.199715512781896,2.0571881058448899e-13,0.19097669422626495,-1.5972736517535608,0.0002870688331313431,0.002683485159650445,0.7427534461021423,-0.0,0.0005641037132591009,0.8698440790176392,0.044232435524463654,0.0442303828895092
974.0,983.0,-0.6455,1.4166,9.2082,0.0182,0.1182,-0.1081,-1.6985742054381312,-0.5748138427734375,1.7049342393875122,-2.0619165897369385,0.6315984725952148,2.409498691558838,5.199768054276266,-0.001960768597200513,0.19563952088356018,-1.5972541014300745,0.00025322585133835673,0.0122038209810853,0.7428498268127441,-0.0,-0.007371251471340656,0.8700842261314392,0.03985799103975296,0.05495843663811684
974.0,983.0,-0.6455,1.4166,9.2082,0.0182,0.1182,-0.1081,-1.701944490472311,-0.5824263095855713,1.717158317565918,-2.0580098628997803,0.6298338770866394,2.3960556983947754,5.199759769230642,-0.0007162392721511424,0.19202518463134766,-1.5972583929644983,0.00027450232300907373,0.010702596046030521,0.7428173422813416,-0.0,-0.015415050089359283,0.8702720403671265,0.03745582327246666,0.038936272263526917
974.0,983.0,-0.6455,1.4166,9.2082,0.0182,0.1182,-0.1081,-1.7053972683348597,-0.5827237367630005,1.708977222442627,-2.054185390472412,0.6377035975456238,2.439995765686035,5.199799912958898,0.001651628641411662,0.19691389799118042,-1.5972541014300745,0.0005565593601204455,0.023426566272974014,0.742805540561676,-0.0,0.015287699177861214,0.8704233169555664,0.03500641509890556,0.0449400469660759
974.0,983.0,-0.6455,1.4166,9.2082,0.0182,0.1182,-0.1081,-1.7076627216734828,-0.5786521434783936,1.6808497905731201,-2.051710605621338,0.6438180804252625,2.413820505142212,5.199779379158773,0.0018024008022621274,0.1986686736345291,-1.5972374121295374,0.0006864063325338066,0.019307387992739677,0.7427772283554077,-0.0,-0.006175432354211807,0.8706968426704407,0.034013889729976654,0.02891690842807293
974.0,983.0,-0.6455,1.4166,9.2082,0.0182,0.1182,-0.1081,-1.7111240826048792,-0.5719470381736755,1.7264652252197266,-2.047865629196167,0.6468626856803894,2.3754043579101562,5.199719208269872,0.0003906898491550237,0.2048874795436859,-1.5972583929644983,0.000973738671746105,0.028451472520828247,0.7427932024002075,-0.0,0.005579650402069092,0.8707959651947021,0.02980741113424301,-0.027689505368471146
974.0,983.0,-0.6455,1.4166,9.2082,0.0182,0.1182,-0.1081,-1.7145863972105921,-0.5665885210037231,1.7418992519378662,-2.0440008640289307,0.6467382311820984,2.4463489055633545,5.199763524323263,0.00021965573250781745,0.21210390329360962,-1.5972097555743616,0.0008767087711021304,0.013085421174764633,0.7428014874458313,-0.0,0.0045275017619132996,0.8709443807601929,0.02406366355717182,-0.01523224264383316
974.0,983.0,-0.6455,1.4166,9.2082,0.0182,0.1182,-0.1081,-1.7180372677245082,-0.5718275308609009,1.77994966506958,-2.040098190307617,0.652367115020752,2.4850738048553467,5.199783909111776,0.0001496201875852421,0.19650518894195557,-1.5972254912005823,0.000781702809035778,0.02549172006547451,0.7427453398704529,-0.0,0.004356681369245052,0.8710603713989258,0.018158141523599625,0.0034264251589775085
974.0,983.0,-0.6455,1.4166,9.2082,0.0182,0.1182,-0.1081,-1.721597810784811,-0.5746341943740845,1.8057076930999756,-2.036273717880249,0.6550622582435608,2.4129347801208496,5.199775683670797,5.4562988225370646e-05,0.19548261165618896,-1.5972455183612269,0.0007828351808711886,0.02255278453230858,0.7427372336387634,-2.0878644590993645e-08,-0.0075443503446877,0.8711562156677246,0.013826660811901093,-0.06600676476955414
974.0,983.0,-0.6455,1.4166,9.2082,0.0182,0.1182,-0.1081,-1.725086351434225,-0.5827057361602783,1.8043817281723022,-2.032372236251831,0.6471704244613647,2.3749914169311523,5.199703293829717,-0.0007857595337554812,0.20521801710128784,-1.5971978346454065,0.0007447426323778927,0.022317592054605484,0.7427331209182739,-5.8116467367697044e-12,0.01038803718984127,0.8712726831436157,0.00888344831764698,-0.0143324239179492
