ramyac6/ROB537/final_project/csv/all/bad_122.csv
tof_0,tof_1,accelx,accely,accelz,gyrox,gyroy,gyroz,shoulder_lift_joint_position,shoulder_lift_joint_velocity,shoulder_lift_joint_effort,elbow_joint_position,elbow_joint_velocity,elbow_joint_effort,wrist_1_joint_position,wrist_1_joint_velocity,wrist_1_joint_effort,wrist_2_joint_position,wrist_2_joint_velocity,wrist_2_joint_effort,wrist_3_joint_position,wrist_3_joint_velocity,wrist_3_joint_effort,shoulder_pan_joint_position,shoulder_pan_joint_velocity,shoulder_pan_joint_effort
509.0,931.0,0.8148,-0.3834,9.5527,-0.0391,0.0173,-0.1162,-1.7544323406615199,0.0,2.7716336250305176,-1.8637317419052124,-0.0,1.9679903984069824,5.008184391051092,-0.0,0.28444668650627136,-1.5346997419940394,0.0,-0.012280231341719627,0.7704336643218994,0.0,-0.009562857449054718,0.7500814199447632,0.0,0.03674973547458649
509.0,931.0,0.8148,-0.3834,9.5527,-0.0391,0.0173,-0.1162,-1.7544242344298304,0.0,2.7679340839385986,-1.8637069463729858,-0.0,1.9790165424346924,5.0082245645816705,-0.0,0.2865581512451172,-1.5346677939044397,0.0,-0.023798801004886627,0.7703607678413391,0.0,-0.00011100783012807369,0.7500855922698975,0.0,-0.013380661606788635
509.0,931.0,0.8148,-0.3834,9.5527,-0.0391,0.0173,-0.1162,-1.7544285259642542,0.0,2.7828879356384277,-1.8637232780456543,-0.0,1.995652675628662,5.008196341782369,-0.0,0.2832438349723816,-1.534647289906637,0.0,-0.018111519515514374,0.7703569531440735,0.0,0.006645078305155039,0.7500613331794739,0.0,0.010012357495725155
509.0,931.0,0.8148,-0.3834,9.5527,-0.0391,0.0173,-0.1162,-1.754420896569723,0.0,2.78285551071167,-1.8637148141860962,-0.0,1.9939193725585938,5.00823267081336,-0.0,0.29294973611831665,-1.5346716086017054,0.0,0.0008425347041338682,0.7704295516014099,0.0,-0.007240877486765385,0.7500170469284058,0.0,0.0011686300858855247
509.0,931.0,0.8148,-0.3834,9.5527,-0.0391,0.0173,-0.1162,-1.7544285259642542,0.0,2.7529995441436768,-1.8637311458587646,-0.0,2.046795129776001,5.0082245645816705,-0.0,0.28799939155578613,-1.5346391836749476,0.0,-0.012236779555678368,0.770369291305542,0.0,0.0016848419327288866,0.7500855922698975,0.0,-0.012794439680874348
509.0,931.0,0.8148,-0.3834,9.5527,-0.0391,0.0173,-0.1162,-1.7544123135008753,0.0,2.793487310409546,-1.8637475967407227,-0.0,1.9651665687561035,5.008184420853414,-0.0,0.29660606384277344,-1.5347078482257288,0.0,-0.017351020127534866,0.7703812122344971,0.0,-0.0026442341040819883,0.7500814199447632,0.0,0.010838128626346588
509.0,931.0,0.8148,-0.3834,9.5527,-0.0391,0.0173,-0.1162,-1.754404684106344,0.0,2.787984848022461,-1.8637028932571411,-0.0,1.9497984647750854,5.008200394898214,-0.0,0.2939709424972534,-1.5346830526935022,0.0,-0.01865406520664692,0.770369291305542,0.0,-0.004720416851341724,0.7501019239425659,0.0,0.006648830603808165
509.0,931.0,0.8148,-0.3834,9.5527,-0.0391,0.0173,-0.1162,-1.7544123135008753,0.0,2.7620456218719482,-1.8637232780456543,-0.0,2.0175788402557373,5.008224475174703,-0.0,0.2909596562385559,-1.5346749464618128,0.0,-0.017055261880159378,0.7703611254692078,0.0,-0.007949481718242168,0.7500936985015869,0.0,0.0001919567584991455
509.0,931.0,0.8148,-0.3834,9.5527,-0.0391,0.0173,-0.1162,-1.754383226434225,0.0,2.761094093322754,-1.863698959350586,-0.0,2.0110883712768555,5.008176165610113,-0.0,0.2897721529006958,-1.5346677939044397,0.0,-0.009122386574745178,0.7703853249549866,0.0,0.0018713579047471285,0.7500572204589844,0.0,-0.023145418614149094
509.0,931.0,0.8148,-0.3834,9.5527,-0.0391,0.0173,-0.1162,-1.754449029962057,0.0,2.722510814666748,-1.863687515258789,-0.0,1.9653655290603638,5.008200394898214,-0.0,0.28978368639945984,-1.534659210835592,0.0,-0.00741496542468667,0.7703770995140076,0.0,0.006521505303680897,0.7500531077384949,0.0,0.006957473233342171
518.0,918.0,0.8554,-0.3948,9.4917,-0.0353,0.0304,-0.1191,-1.7544166050352992,0.0,2.778522253036499,-1.8637152910232544,-0.0,1.9697363376617432,5.00823267081336,-0.0,0.2870329022407532,-1.534687344227926,0.0,-0.024189934134483337,0.7704496383666992,0.0,-0.0012654090533033013,0.7500209808349609,0.0,0.004442822188138962
518.0,918.0,0.8554,-0.3948,9.4917,-0.0353,0.0304,-0.1191,-1.7544242344298304,0.0,2.7560417652130127,-1.8636915683746338,-0.0,1.9933135509490967,5.00812395194129,-0.0,0.2794603705406189,-1.5347040335284632,0.0,-0.02597654238343239,0.7703931927680969,0.0,-0.004515077918767929,0.7500613331794739,0.0,-0.004577425308525562
518.0,918.0,0.8554,-0.3948,9.4917,-0.0353,0.0304,-0.1191,-1.754510065118307,0.0,2.7498745918273926,-1.8637311458587646,-0.0,2.0008044242858887,5.008256780892172,-0.0,0.2870980501174927,-1.534687344227926,0.0,-0.0037739495746791363,0.7703972458839417,0.0,0.004435693379491568,0.7500936985015869,0.0,-0.028373561799526215
518.0,918.0,0.8554,-0.3948,9.4917,-0.0353,0.0304,-0.1191,-1.7544447384276332,0.0,2.7953555583953857,-1.863672137260437,-0.0,1.9510501623153687,5.008248615055837,-0.0,0.2974450886249542,-1.534687344227926,0.0,-0.011912438087165356,0.7704012989997864,0.0,-0.015608241781592369,0.7500088214874268,0.0,-0.01788705587387085
518.0,918.0,0.8554,-0.3948,9.4917,-0.0353,0.0304,-0.1191,-1.7544242344298304,0.0,2.798938274383545,-1.863707423210144,-0.0,1.9560458660125732,5.008212315827169,-0.0,0.2961689829826355,-1.5347040335284632,0.0,-0.007516310550272465,0.7703972458839417,0.0,-0.007812195923179388,0.7500694990158081,0.0,0.02120622992515564
518.0,918.0,0.8554,-0.3948,9.4917,-0.0353,0.0304,-0.1191,-1.7544528446593226,0.0,2.744783401489258,-1.8637317419052124,-0.0,2.0051097869873047,5.008188473969259,-0.0,0.27783527970314026,-1.534663502370016,0.0,-0.020491596311330795,0.7704094648361206,0.0,-0.004257489927113056,0.7500452399253845,0.0,-0.010219653137028217
518.0,918.0,0.8554,-0.3948,9.4917,-0.0353,0.0304,-0.1191,-1.7544523678221644,0.0,2.725978136062622,-1.8637069463729858,-0.0,1.985063076019287,5.008188473969259,-0.0,0.28999659419059753,-1.53469163576235,0.0,-0.02681899443268776,0.7703168392181396,0.0,-0.011660929769277573,0.7500613331794739,0.0,0.05643514543771744
518.0,918.0,0.8554,-0.3948,9.4917,-0.0353,0.0304,-0.1191,-1.7544251881041468,0.0,2.753781795501709,-1.8637028932571411,-0.0,1.951155185699463,5.008200394898214,-0.0,0.280020147562027,-1.534663502370016,0.0,-0.0055159516632556915,0.7704052925109863,0.0,-0.013722160831093788,0.750004768371582,0.0,-0.00629696249961853
518.0,918.0,0.8554,-0.3948,9.4917,-0.0353,0.0304,-0.1191,-1.7544404468932093,0.0,2.7700181007385254,-1.8636915683746338,-0.0,2.0059406757354736,5.0081921992595575,-0.0,0.2909466326236725,-1.5346234480487269,0.0,-0.01858062855899334,0.7704337239265442,0.0,0.01233573816716671,0.750012993812561,0.0,-0.013509504497051239
518.0,918.0,0.8554,-0.3948,9.4917,-0.0353,0.0304,-0.1191,-1.7544204197325648,0.0,2.793736457824707,-1.8636994361877441,-0.0,2.035501003265381,5.008244591742315,-0.0,0.2837802767753601,-1.5346716086017054,0.0,-0.010855266824364662,0.7704295516014099,0.0,0.011812090873718262,0.7500572204589844,0.0,0.006764011923223734
518.0,918.0,0.8554,-0.3948,9.4917,-0.0353,0.0304,-0.1191,-1.754420896569723,0.0,2.7695937156677246,-1.8637475967407227,-0.0,1.9657267332077026,5.008204477816381,-0.0,0.2834746241569519,-1.534687344227926,0.0,-0.007660219445824623,0.7703812122344971,0.0,-0.0037368042394518852,0.7500653862953186,0.0,0.029253337532281876
518.0,918.0,0.8554,-0.3948,9.4917,-0.0353,0.0304,-0.1191,-1.7544447384276332,0.0,2.7573623657226562,-1.8636950254440308,-0.0,1.9743452072143555,5.008208590536871,-0.0,0.2966853082180023,-1.5347197691546839,0.0,-0.02923160418868065,0.7704094648361206,0.0,0.011522912420332432,0.7500250339508057,0.0,-0.0036475006490945816
518.0,918.0,0.8554,-0.3948,9.4917,-0.0353,0.0304,-0.1191,-1.7544485531248988,0.0,2.7619049549102783,-1.863667607307434,-0.0,2.014700412750244,5.008200365095892,-0.0,0.2778485119342804,-1.5346954504596155,0.0,-0.011149675585329533,0.7703857421875,0.0,0.0007586497813463211,0.7500694990158081,0.0,0.03141946345567703
518.0,918.0,0.8554,-0.3948,9.4917,-0.0353,0.0304,-0.1191,-1.7544084988036097,0.0,2.749077320098877,-1.863684058189392,-0.0,1.9691944122314453,5.008168148785391,-0.0,0.2804393172264099,-1.534687344227926,0.0,-0.021104494109749794,0.770377516746521,0.0,-0.00616002082824707,0.7500655055046082,0.0,-0.0214993879199028
518.0,918.0,0.8554,-0.3948,9.4917,-0.0353,0.0304,-0.1191,-1.7544533214964808,0.0,2.7472927570343018,-1.8637148141860962,-0.0,1.9694323539733887,5.008216368943014,-0.0,0.28455039858818054,-1.5346997419940394,0.0,-0.015214146114885807,0.7703652381896973,0.0,-0.007301785983145237,0.7500332593917847,0.0,0.01851848140358925
518.0,918.0,0.8554,-0.3948,9.4917,-0.0353,0.0304,-0.1191,-1.7544366321959437,0.0,2.769252061843872,-1.8637350797653198,-0.0,1.9508981704711914,5.0082004247005365,-0.0,0.292022705078125,-1.5346954504596155,0.0,-0.01946422830224037,0.7703852653503418,0.0,-0.002766283694654703,0.7500572204589844,0.0,0.019119232892990112
518.0,918.0,0.8554,-0.3948,9.4917,-0.0353,0.0304,-0.1191,-1.7544447384276332,0.0,2.782546043395996,-1.8637069463729858,-0.0,2.0468344688415527,5.008212315827169,-0.0,0.2929542064666748,-1.534635368977682,0.0,-0.019442720338702202,0.7704094648361206,0.0,-0.0031208971049636602,0.7500813603401184,0.0,-0.06112614646553993
518.0,918.0,0.8554,-0.3948,9.4917,-0.0353,0.0304,-0.1191,-1.7543884716429652,0.0,2.7921738624572754,-1.863710880279541,-0.0,1.9908840656280518,5.008188473969259,-0.0,0.2860710024833679,-1.53469163576235,0.0,-0.014118848368525505,0.7704217433929443,0.0,0.007709722965955734,0.7500410079956055,0.0,0.03967545926570892
518.0,918.0,0.8554,-0.3948,9.4917,-0.0353,0.0304,-0.1191,-1.7544285259642542,0.0,2.7534074783325195,-1.863722801208496,-0.0,1.9479119777679443,5.008196759014883,-0.0,0.28663456439971924,-1.534663502370016,0.0,-0.012385299429297447,0.7703652381896973,0.0,-0.0001456340542063117,0.7500691413879395,0.0,0.025875819846987724
518.0,918.0,0.8554,-0.3948,9.4917,-0.0353,0.0304,-0.1191,-1.754432817498678,0.0,2.7506260871887207,-1.863695502281189,-0.0,1.9817404747009277,5.00823267081336,-0.0,0.29172059893608093,-1.5347040335284632,0.0,-0.0029005648102611303,0.7703571915626526,0.0,-8.702580817043781e-05,0.7500209808349609,0.0,-0.03241121396422386
526.0,896.0,0.804,-0.4325,9.5426,-0.0431,0.0231,-0.12,-1.7544251881041468,0.0,2.759096145629883,-1.863663673400879,-0.0,1.9266283512115479,5.008208173304357,-0.0,0.2876957058906555,-1.5346716086017054,0.0,-0.008035543374717236,0.7704135775566101,0.0,0.014419770799577236,0.7500654458999634,0.0,0.007411723956465721
526.0,896.0,0.804,-0.4325,9.5426,-0.0431,0.0231,-0.12,-1.7544404468932093,0.0,2.779400110244751,-1.863680124282837,-0.0,2.0255861282348633,5.0082004247005365,-0.0,0.2899002134799957,-1.5347240606891077,0.0,-0.01751728542149067,0.7703008055686951,0.0,-0.008154362440109253,0.7500613331794739,0.0,0.046684104949235916
526.0,896.0,0.804,-0.4325,9.5426,-0.0431,0.0231,-0.12,-1.7544084988036097,0.0,2.761716842651367,-1.8637272119522095,-0.0,1.9575822353363037,5.008240866452017,-0.0,0.27876797318458557,-1.5347197691546839,0.0,-0.018081869930028915,0.7704135775566101,0.0,-0.003823039121925831,0.7500209212303162,0.0,-0.01463225856423378
526.0,896.0,0.804,-0.4325,9.5426,-0.0431,0.0231,-0.12,-1.7544285259642542,0.0,2.765204906463623,-1.863695502281189,-0.0,1.9743938446044922,5.008172201901235,-0.0,0.28119996190071106,-1.5347121397601526,0.0,-0.01812116429209709,0.7704213261604309,0.0,-0.002029870869591832,0.7500691413879395,0.0,-0.012627674266695976
526.0,896.0,0.804,-0.4325,9.5426,-0.0431,0.0231,-0.12,-1.7544166050352992,0.0,2.7561373710632324,-1.8637595176696777,-0.0,1.976327657699585,5.00824864485816,-0.0,0.29376333951950073,-1.534687344227926,0.0,-0.024907782673835754,0.7703853249549866,0.0,-0.007776388432830572,0.7500328421592712,0.0,0.0014707655645906925
526.0,896.0,0.804,-0.4325,9.5426,-0.0431,0.0231,-0.12,-1.7544728718199671,0.0,2.7716684341430664,-1.8637152910232544,-0.0,1.999037265777588,5.008248674660482,-0.0,0.2831159830093384,-1.534731690083639,0.0,-0.014410285279154778,0.7703770995140076,0.0,2.648227382451296e-05,0.7500451803207397,0.0,-0.026406429708003998
526.0,896.0,0.804,-0.4325,9.5426,-0.0431,0.0231,-0.12,-1.754420896569723,0.0,2.7075438499450684,-1.8637192249298096,-0.0,1.9508116245269775,5.008204149990835,-0.0,0.28771528601646423,-1.534687344227926,0.0,-0.001137029379606247,0.7703848481178284,0.0,-0.0037734925281256437,0.7500129342079163,0.0,-0.01668330654501915
526.0,896.0,0.804,-0.4325,9.5426,-0.0431,0.0231,-0.12,-1.7544084988036097,0.0,2.7658159732818604,-1.8637471199035645,-0.0,1.965888261795044,5.008192258864202,-0.0,0.295579195022583,-1.5346997419940394,0.0,-0.009114284999668598,0.7704052925109863,0.0,0.007145697716623545,0.7500574588775635,0.0,-0.03374996408820152
526.0,896.0,0.804,-0.4325,9.5426,-0.0431,0.0231,-0.12,-1.754420896569723,0.0,2.7796592712402344,-1.8637317419052124,-0.0,1.9867360591888428,5.008196341782369,-0.0,0.29050207138061523,-1.5346997419940394,0.0,-0.011365987360477448,0.7704176306724548,0.0,-0.003957443404942751,0.7500773668289185,0.0,-0.009281199425458908
526.0,896.0,0.804,-0.4325,9.5426,-0.0431,0.0231,-0.12,-1.7544533214964808,0.0,2.734142303466797,-1.8637311458587646,-0.0,1.9788191318511963,5.008224445372381,-0.0,0.28688669204711914,-1.5346954504596155,0.0,-0.014023073017597198,0.770369291305542,0.0,0.006640072446316481,0.7500653862953186,0.0,0.005467880517244339
526.0,896.0,0.804,-0.4325,9.5426,-0.0431,0.0231,-0.12,-1.7543965778746546,0.0,2.737370014190674,-1.863663673400879,-0.0,1.9703457355499268,5.008212315827169,-0.0,0.281169056892395,-1.534680191670553,0.0,-0.001574221532791853,0.7703365683555603,0.0,-0.004691264592111111,0.7500410676002502,0.0,0.05246802791953087
526.0,896.0,0.804,-0.4325,9.5426,-0.0431,0.0231,-0.12,-1.7544242344298304,0.0,2.7688257694244385,-1.8637516498565674,-0.0,1.963977336883545,5.008212315827169,-0.0,0.2785719335079193,-1.5346553961383265,0.0,-0.01633445918560028,0.7703611254692078,0.0,-0.009781291708350182,0.7500373125076294,0.0,0.04037180915474892
526.0,896.0,0.804,-0.4325,9.5426,-0.0431,0.0231,-0.12,-1.7544166050352992,0.0,2.7920286655426025,-1.8637192249298096,-0.0,1.9758131504058838,5.008200394898214,-0.0,0.2875860333442688,-1.534687344227926,0.0,0.00875867623835802,0.7703811526298523,0.0,0.004008008632808924,0.7500327825546265,0.0,-0.0064784931018948555
526.0,896.0,0.804,-0.4325,9.5426,-0.0431,0.0231,-0.12,-1.7544404468932093,0.0,2.743530035018921,-1.8636682033538818,-0.0,2.0194973945617676,5.008176195412435,-0.0,0.30051398277282715,-1.5346830526935022,0.0,-0.01845921017229557,0.7703852653503418,0.0,0.01491713896393776,0.7500088810920715,0.0,-0.0369877815246582
526.0,896.0,0.804,-0.4325,9.5426,-0.0431,0.0231,-0.12,-1.7544003925719203,0.0,2.7517600059509277,-1.8637148141860962,-0.0,1.985877513885498,5.008184391051092,-0.0,0.2730965316295624,-1.534680191670553,0.0,-0.016709979623556137,0.7703734636306763,0.0,-0.007462069857865572,0.7500895261764526,0.0,0.03819527104496956
526.0,896.0,0.804,-0.4325,9.5426,-0.0431,0.0231,-0.12,-1.7544123135008753,0.0,2.7414286136627197,-1.8636915683746338,-0.0,2.006558656692505,5.008200394898214,-0.0,0.2851259112358093,-1.534659210835592,0.0,-0.00800998229533434,0.7704333066940308,0.0,-0.00107864523306489,0.7500369548797607,0.0,-0.0006946814246475697
526.0,896.0,0.804,-0.4325,9.5426,-0.0431,0.0231,-0.12,-1.7544447384276332,0.0,2.7819032669067383,-1.8637192249298096,-0.0,1.9963467121124268,5.008216368943014,-0.0,0.2889820635318756,-1.5346830526935022,0.0,-0.010072937235236168,0.7703405618667603,0.0,0.007523678708821535,0.7500649690628052,0.0,-0.06471223384141922
526.0,896.0,0.804,-0.4325,9.5426,-0.0431,0.0231,-0.12,-1.7544123135008753,0.0,2.7874584197998047,-1.8637350797653198,-0.0,1.9842281341552734,5.00823666432456,-0.0,0.2747889757156372,-1.534687344227926,0.0,-0.006278080865740776,0.7703934907913208,0.0,-0.010799644514918327,0.7500534057617188,0.0,-0.017525339499115944
526.0,896.0,0.804,-0.4325,9.5426,-0.0431,0.0231,-0.12,-1.7544123135008753,0.0,2.743546485900879,-1.8637148141860962,-0.0,1.9546310901641846,5.008244949370184,-0.0,0.29747289419174194,-1.5347197691546839,0.0,-0.0052426522597670555,0.7703447341918945,0.0,-0.0013867949601262808,0.7500695586204529,0.0,-0.006743760779500008
526.0,896.0,0.804,-0.4325,9.5426,-0.0431,0.0231,-0.12,-1.7544166050352992,0.0,2.7644896507263184,-1.8637069463729858,-0.0,2.0233256816864014,5.008216398745336,-0.0,0.28260594606399536,-1.5346716086017054,0.0,-0.008665131404995918,0.7703775763511658,0.0,-0.010840383358299732,0.7500328421592712,0.0,-0.021543826907873154
504.0,891.0,0.8865,-0.4086,9.4511,-0.0391,0.0177,-0.121,-1.754404207269186,0.0,2.7641024589538574,-1.8637272119522095,-0.0,1.9533511400222778,5.008176195412435,-0.0,0.28615909814834595,-1.5346391836749476,0.0,-0.015888294205069542,0.7703771591186523,0.0,-0.00543980672955513,0.750053346157074,0.0,-0.039950061589479446
504.0,891.0,0.8865,-0.4086,9.4511,-0.0391,0.0177,-0.121,-1.7544361553587855,0.0,2.739455223083496,-1.8637397289276123,-0.0,1.9910386800765991,5.00823267081336,-0.0,0.30242958664894104,-1.534663502370016,0.0,-0.01636509969830513,0.7703086733818054,0.0,0.0011480934917926788,0.7500613331794739,0.0,-0.016657331958413124
504.0,891.0,0.8865,-0.4086,9.4511,-0.0391,0.0177,-0.121,-1.7544604740538539,0.0,2.8003811836242676,-1.8637152910232544,-0.0,1.9417288303375244,5.008228587895193,-0.0,0.2897147834300995,-1.5347078482257288,0.0,-0.009235642850399017,0.7703571319580078,0.0,-0.009009157307446003,0.7500814199447632,0.0,0.005021783523261547
504.0,891.0,0.8865,-0.4086,9.4511,-0.0391,0.0177,-0.121,-1.7543918095030726,0.0,2.7730278968811035,-1.863710880279541,-0.0,2.005338668823242,5.00818811634139,-0.0,0.2850261926651001,-1.534680191670553,0.0,-0.027805360034108162,0.7703894376754761,0.0,0.003309406340122223,0.7500613331794739,0.0,-0.04830644279718399
504.0,891.0,0.8865,-0.4086,9.4511,-0.0391,0.0177,-0.121,-1.754428049127096,0.0,2.7471671104431152,-1.8637028932571411,-0.0,2.011502742767334,5.0081921992595575,-0.0,0.29499712586402893,-1.5346759001361292,0.0,-0.02355293184518814,0.7703086733818054,0.0,0.005598756019026041,0.7500292062759399,0.0,-0.03711168095469475
504.0,891.0,0.8865,-0.4086,9.4511,-0.0391,0.0177,-0.121,-1.7544576130309046,0.0,2.7768983840942383,-1.8636397123336792,-0.0,1.9722599983215332,5.00818036773757,-0.0,0.2839824855327606,-1.5347116629229944,0.0,-0.0022104887757450342,0.7704052925109863,0.0,-0.0050765834748744965,0.7500369548797607,0.0,0.02985292673110962
504.0,891.0,0.8865,-0.4086,9.4511,-0.0391,0.0177,-0.121,-1.7544447384276332,0.0,2.7891016006469727,-1.8636597394943237,-0.0,1.9996304512023926,5.00818036773757,-0.0,0.2827386260032654,-1.5346997419940394,0.0,-0.010518007911741734,0.7704095244407654,0.0,-0.003140339395031333,0.750081479549408,0.0,-0.0021306597627699375
504.0,891.0,0.8865,-0.4086,9.4511,-0.0391,0.0177,-0.121,-1.754408975640768,0.0,2.801466464996338,-1.8636953830718994,-0.0,2.014296531677246,5.008200394898214,-0.0,0.29372361302375793,-1.534680191670553,0.0,-0.017333045601844788,0.770369291305542,0.0,-0.01013374887406826,0.7500572204589844,0.0,0.008795442059636116
504.0,891.0,0.8865,-0.4086,9.4511,-0.0391,0.0177,-0.121,-1.7544080219664515,0.0,2.7510738372802734,-1.8637551069259644,-0.0,2.0120420455932617,5.008196311980047,-0.0,0.29527345299720764,-1.5346997419940394,0.0,-0.01726182922720909,0.7703729867935181,0.0,-0.009334661066532135,0.7500250935554504,0.0,0.010742943733930588
504.0,891.0,0.8865,-0.4086,9.4511,-0.0391,0.0177,-0.121,-1.7543841801085414,0.0,2.7781200408935547,-1.8637311458587646,-0.0,1.9505479335784912,5.008200394898214,-0.0,0.29339921474456787,-1.534680191670553,0.0,-0.015012459829449654,0.7703971862792969,0.0,-0.0014919276582077146,0.7500292062759399,0.0,0.0020056525245308876
504.0,891.0,0.8865,-0.4086,9.4511,-0.0391,0.0177,-0.121,-1.7544084988036097,0.0,2.7718801498413086,-1.8637148141860962,-0.0,2.019318103790283,5.008184420853414,-0.0,0.28528958559036255,-1.53469163576235,0.0,-0.012576702050864697,0.7703812122344971,0.0,-0.007481183856725693,0.7500773072242737,0.0,-0.025987114757299423
504.0,891.0,0.8865,-0.4086,9.4511,-0.0391,0.0177,-0.121,-1.754387994805807,0.0,2.771749973297119,-1.8637272119522095,-0.0,2.00968074798584,5.008164036064901,-0.0,0.2858802080154419,-1.5347159544574183,0.0,-0.0043360283598303795,0.7703452110290527,0.0,-0.0057634711265563965,0.7500492930412292,0.0,0.017651956528425217
504.0,891.0,0.8865,-0.4086,9.4511,-0.0391,0.0177,-0.121,-1.7544447384276332,0.0,2.772867202758789,-1.8636994361877441,-0.0,1.9548671245574951,5.008236694126882,-0.0,0.28742915391921997,-1.5347397963153284,0.0,-0.0081461938098073,0.7704135775566101,0.0,0.003097735345363617,0.7500653862953186,0.0,0.003068087622523308
504.0,891.0,0.8865,-0.4086,9.4511,-0.0391,0.0177,-0.121,-1.754432817498678,0.0,2.805901050567627,-1.8637187480926514,-0.0,2.0063858032226562,5.008196311980047,-0.0,0.28209251165390015,-1.534647289906637,0.0,-0.02064438723027706,0.7704012989997864,0.0,-0.009295814670622349,0.7500572204589844,0.0,-0.0014083543792366982
504.0,891.0,0.8865,-0.4086,9.4511,-0.0391,0.0177,-0.121,-1.7544447384276332,0.0,2.7666869163513184,-1.8637794256210327,-0.0,2.0098817348480225,5.008151846915045,-0.0,0.29682010412216187,-1.5346677939044397,0.0,-0.016364386305212975,0.7704336047172546,0.0,0.002217682311311364,0.750053346157074,0.0,0.005168421193957329
504.0,891.0,0.8865,-0.4086,9.4511,-0.0391,0.0177,-0.121,-1.7544166050352992,0.0,2.816019296646118,-1.863743782043457,-0.0,1.9845151901245117,5.008172172098913,-0.0,0.28960779309272766,-1.534663502370016,0.0,-0.00769404973834753,0.7703849077224731,0.0,-0.01603046990931034,0.7500209808349609,0.0,-0.06298413127660751
504.0,891.0,0.8865,-0.4086,9.4511,-0.0391,0.0177,-0.121,-1.7544242344298304,0.0,2.7330164909362793,-1.8636914491653442,-0.0,1.9538506269454956,5.008196341782369,-0.0,0.27948248386383057,-1.534687344227926,0.0,-0.020891638472676277,0.7703812122344971,0.0,-0.001613701693713665,0.7500653862953186,0.0,-0.06575539708137512
504.0,891.0,0.8865,-0.4086,9.4511,-0.0391,0.0177,-0.121,-1.754460950891012,0.0,2.7685041427612305,-1.863672137260437,-0.0,1.967524766921997,5.008196341782369,-0.0,0.28962838649749756,-1.534663502370016,0.0,-0.013650286011397839,0.7703734040260315,0.0,0.003820169949904084,0.7500250935554504,0.0,-0.002187877893447876
504.0,891.0,0.8865,-0.4086,9.4511,-0.0391,0.0177,-0.121,-1.7544323406615199,0.0,2.7200698852539062,-1.8637193441390991,-0.0,2.0227627754211426,5.008200394898214,-0.0,0.2878088057041168,-1.534687344227926,0.0,-0.018582530319690704,0.770348846912384,0.0,-0.010239098221063614,0.7500492334365845,0.0,-0.032566752284765244
498.0,903.0,0.8483,-0.3942,9.5228,-0.0354,0.0157,-0.1211,-1.7543965778746546,0.0,2.761984348297119,-1.863718867301941,-0.0,1.9910794496536255,5.008155870228567,-0.0,0.2835128903388977,-1.5347116629229944,0.0,-0.021252155303955078,0.7703812122344971,0.0,-0.016798363998532295,0.7500613331794739,0.0,0.010885065421462059
498.0,903.0,0.8483,-0.3942,9.5228,-0.0354,0.0157,-0.1211,-1.7544003925719203,0.0,2.770782470703125,-1.8636994361877441,-0.0,2.0159645080566406,5.008212286024847,-0.0,0.2856672406196594,-1.5347197691546839,0.0,-0.018721245229244232,0.7703611254692078,0.0,-0.011879267171025276,0.7500572204589844,0.0,-0.0024370686151087284
498.0,903.0,0.8483,-0.3942,9.5228,-0.0354,0.0157,-0.1211,-1.7544084988036097,0.0,2.7589447498321533,-1.863687515258789,-0.0,1.983891487121582,5.008220451861181,-0.0,0.2830999791622162,-1.5346830526935022,0.0,-0.015982143580913544,0.7703688740730286,0.0,-0.01656796596944332,0.7500854730606079,0.0,-0.0304415263235569
498.0,903.0,0.8483,-0.3942,9.5228,-0.0354,0.0157,-0.1211,-1.7544485531248988,0.0,2.8132472038269043,-1.8637351989746094,-0.0,1.9779300689697266,5.00819222906188,-0.0,0.29294413328170776,-1.5346830526935022,0.0,-0.011212809011340141,0.7703648209571838,0.0,0.0028920373879373074,0.750089704990387,0.0,-0.006224378012120724
498.0,903.0,0.8483,-0.3942,9.5228,-0.0354,0.0157,-0.1211,-1.7543884716429652,0.0,2.780510187149048,-1.863775372505188,-0.0,2.0110833644866943,5.008216368943014,-0.0,0.2989656925201416,-1.5346997419940394,0.0,-0.022437725216150284,0.7703734636306763,0.0,-0.00785253569483757,0.7500327825546265,0.0,-0.0065971603617072105
498.0,903.0,0.8483,-0.3942,9.5228,-0.0354,0.0157,-0.1211,-1.7544485531248988,0.0,2.806644916534424,-1.8637350797653198,-0.0,1.989213466644287,5.008143591671743,-0.0,0.2896934151649475,-1.5346954504596155,0.0,-0.012910881079733372,0.7703734040260315,0.0,0.006866226904094219,0.750012993812561,0.0,-0.009921879507601261
498.0,903.0,0.8483,-0.3942,9.5228,-0.0354,0.0157,-0.1211,-1.7544242344298304,0.0,2.7723727226257324,-1.8637356758117676,-0.0,2.018080949783325,5.008212315827169,-0.0,0.3004026710987091,-1.5346759001361292,0.0,-0.0180605910718441,0.7703689336776733,0.0,0.01481608860194683,0.7500695586204529,0.0,0.003984822425991297
498.0,903.0,0.8483,-0.3942,9.5228,-0.0354,0.0157,-0.1211,-1.7544485531248988,0.0,2.7878575325012207,-1.8637510538101196,-0.0,1.95818293094635,5.008196341782369,-0.0,0.2911377251148224,-1.5346749464618128,0.0,-0.007452391088008881,0.7704094648361206,0.0,-0.009883809834718704,0.7500492334365845,0.0,-0.05650065839290619
498.0,903.0,0.8483,-0.3942,9.5228,-0.0354,0.0157,-0.1211,-1.7544003925719203,0.0,2.800286293029785,-1.8637113571166992,-0.0,2.014357089996338,5.008188473969259,-0.0,0.2924436032772064,-1.5346954504596155,0.0,-0.006102549843490124,0.7704254388809204,0.0,-0.0025885291397571564,0.7500613331794739,0.0,0.024669263511896133
498.0,903.0,0.8483,-0.3942,9.5228,-0.0354,0.0157,-0.1211,-1.7544123135008753,0.0,2.760329008102417,-1.8637069463729858,-0.0,1.9535589218139648,5.008240896254339,-0.0,0.28886741399765015,-1.5347040335284632,0.0,-0.02508709393441677,0.7703729271888733,0.0,0.003850886132568121,0.750001072883606,0.0,0.022259298712015152
498.0,903.0,0.8483,-0.3942,9.5228,-0.0354,0.0157,-0.1211,-1.7544528446593226,0.0,2.783914804458618,-1.8637515306472778,-0.0,2.0280308723449707,5.008216368943014,-0.0,0.2908005118370056,-1.5346716086017054,0.0,-0.004425640683621168,0.7703049778938293,0.0,-0.011008860543370247,0.750073254108429,0.0,-0.02582642436027527
498.0,903.0,0.8483,-0.3942,9.5228,-0.0354,0.0157,-0.1211,-1.7544003925719203,0.0,2.7719850540161133,-1.8637187480926514,-0.0,1.95655357837677,5.0081477937992,-0.0,0.2861005663871765,-1.5346759001361292,0.0,-0.016931431367993355,0.7703611254692078,0.0,0.002197019290179014,0.7500088810920715,0.0,-0.02244836650788784
498.0,903.0,0.8483,-0.3942,9.5228,-0.0354,0.0157,-0.1211,-1.7544523678221644,0.0,2.735344171524048,-1.8637148141860962,-0.0,1.9706835746765137,5.008228617697515,-0.0,0.29787570238113403,-1.5346553961383265,0.0,-0.004554539918899536,0.7704254388809204,0.0,-0.010719485580921173,0.7500327825546265,0.0,0.02349517121911049
498.0,903.0,0.8483,-0.3942,9.5228,-0.0354,0.0157,-0.1211,-1.7544242344298304,0.0,2.7936339378356934,-1.8637272119522095,-0.0,1.991213083267212,5.008220451861181,-0.0,0.29718372225761414,-1.534687344227926,0.0,-0.01333233155310154,0.7704095244407654,0.0,0.0019754599779844284,0.7500936985015869,0.0,0.0007870385888963938
498.0,903.0,0.8483,-0.3942,9.5228,-0.0354,0.0157,-0.1211,-1.7544318638243617,0.0,2.7619354724884033,-1.8637148141860962,-0.0,2.0349762439727783,5.008176225214758,-0.0,0.2939220666885376,-1.5346759001361292,0.0,-0.009630790911614895,0.7703894376754761,0.0,-0.015251342207193375,0.7500410676002502,0.0,0.0037980687338858843
498.0,903.0,0.8483,-0.3942,9.5228,-0.0354,0.0157,-0.1211,-1.7544485531248988,0.0,2.7455978393554688,-1.863695502281189,-0.0,1.9332616329193115,5.008208620339193,-0.0,0.2995831370353699,-1.5346997419940394,0.0,-0.011163728311657906,0.7703328728675842,0.0,0.0002750987187027931,0.7499970197677612,0.0,0.03459345921874046
498.0,903.0,0.8483,-0.3942,9.5228,-0.0354,0.0157,-0.1211,-1.7544366321959437,0.0,2.7857072353363037,-1.8637232780456543,-0.0,1.9993619918823242,5.008208173304357,-0.0,0.2836834490299225,-1.534680191670553,0.0,-0.01480142679065466,0.7703889608383179,0.0,0.009416164830327034,0.7500613331794739,0.0,-0.023686591535806656
498.0,903.0,0.8483,-0.3942,9.5228,-0.0354,0.0157,-0.1211,-1.7544361553587855,0.0,2.7848544120788574,-1.863692045211792,-0.0,1.9699316024780273,5.008192616492071,-0.0,0.2720101475715637,-1.5346759001361292,0.0,-0.0004019220359623432,0.7704176306724548,0.0,-0.012325276620686054,0.7500209808349609,0.0,0.024309858679771423
498.0,903.0,0.8483,-0.3942,9.5228,-0.0354,0.0157,-0.1211,-1.7543965778746546,0.0,2.742088794708252,-1.8637028932571411,-0.0,2.004941463470459,5.008216398745336,-0.0,0.2952271103858948,-1.5346830526935022,0.0,-0.0236593596637249,0.7704295516014099,0.0,-0.0030949078500270844,0.7500977516174316,0.0,-0.006343534681946039
498.0,903.0,0.8483,-0.3942,9.5228,-0.0354,0.0157,-0.1211,-1.7544204197325648,0.0,2.757962703704834,-1.8636473417282104,-0.0,2.005502223968506,5.00818811634139,-0.0,0.28716468811035156,-1.5347040335284632,0.0,-0.013359811156988144,0.7703852653503418,0.0,-0.010864290408790112,0.7500369548797607,0.0,0.06215747818350792
523.0,936.0,0.8489,-0.3864,9.4708,-0.0371,0.0214,-0.1182,-1.7544199428954066,0.0,2.7619094848632812,-1.863687515258789,-0.0,1.9290435314178467,5.008176225214758,-0.0,0.2890682816505432,-1.5346716086017054,0.0,-0.014106757938861847,0.7703775763511658,0.0,0.010088345967233181,0.750073254108429,0.0,0.01574331521987915
523.0,936.0,0.8489,-0.3864,9.4708,-0.0371,0.0214,-0.1182,-1.7544166050352992,0.0,2.7828307151794434,-1.8637232780456543,-0.0,1.990282416343689,5.008208173304357,-0.0,0.29369837045669556,-1.534659210835592,0.0,-0.014264469966292381,0.770369291305542,0.0,0.0010272327344864607,0.7500168085098267,0.0,-0.0041573988273739815
523.0,936.0,0.8489,-0.3864,9.4708,-0.0371,0.0214,-0.1182,-1.7544285259642542,0.0,2.7683253288269043,-1.8636994361877441,-0.0,1.9594837427139282,5.008188146143713,-0.0,0.28758105635643005,-1.534748379384176,0.0,-0.029149970039725304,0.770369291305542,0.0,0.000561797060072422,0.7500653862953186,0.0,0.024310605600476265
523.0,936.0,0.8489,-0.3864,9.4708,-0.0371,0.0214,-0.1182,-1.7544366321959437,0.0,2.7717747688293457,-1.863695502281189,-0.0,1.9908814430236816,5.008228736906805,-0.0,0.29498788714408875,-1.534659210835592,0.0,-0.018378429114818573,0.7704011797904968,0.0,-0.002724476857110858,0.750081479549408,0.0,0.032743170857429504
523.0,936.0,0.8489,-0.3864,9.4708,-0.0371,0.0214,-0.1182,-1.7544247112669886,0.0,2.712388515472412,-1.8637397289276123,-0.0,2.0166072845458984,5.008224475174703,-0.0,0.288565993309021,-1.534663502370016,0.0,-0.011443141847848892,0.7703164219856262,0.0,0.0020208682399243116,0.7500613331794739,0.0,-0.006680652499198914
523.0,936.0,0.8489,-0.3864,9.4708,-0.0371,0.0214,-0.1182,-1.7544242344298304,0.0,2.702700614929199,-1.8637397289276123,-0.0,1.9997459650039673,5.008208173304357,-0.0,0.2987728416919708,-1.5346792379962366,0.0,-0.0166991725564003,0.7704257965087891,0.0,0.005223127081990242,0.7500410676002502,0.0,-0.03685809299349785
523.0,936.0,0.8489,-0.3864,9.4708,-0.0371,0.0214,-0.1182,-1.754437109033102,0.0,2.7492380142211914,-1.8637510538101196,-0.0,1.9695079326629639,5.008164125471868,-0.0,0.27890026569366455,-1.534663502370016,0.0,-0.004161222837865353,0.7703447937965393,0.0,0.0031824037432670593,0.7500649690628052,0.0,0.007056055590510368
523.0,936.0,0.8489,-0.3864,9.4708,-0.0371,0.0214,-0.1182,-1.7543922863402308,0.0,2.775790214538574,-1.8637232780456543,-0.0,1.990587830543518,5.008168118983068,-0.0,0.29823020100593567,-1.5346997419940394,0.0,-0.02678314410150051,0.7704013586044312,0.0,-0.013922658748924732,0.7500654458999634,0.0,-0.04281418025493622
523.0,936.0,0.8489,-0.3864,9.4708,-0.0371,0.0214,-0.1182,-1.7544003925719203,0.0,2.774843692779541,-1.8637069463729858,-0.0,1.9842740297317505,5.008192616492071,-0.0,0.29485073685646057,-1.53469163576235,0.0,-0.018929075449705124,0.7703692317008972,0.0,-0.012622675858438015,0.7500492930412292,0.0,0.012512379325926304
523.0,936.0,0.8489,-0.3864,9.4708,-0.0371,0.0214,-0.1182,-1.7544242344298304,0.0,2.7372729778289795,-1.8637670278549194,-0.0,2.001600742340088,5.008232700615682,-0.0,0.2683939039707184,-1.53469163576235,0.0,-0.020929325371980667,0.770369291305542,0.0,0.001617078436538577,0.7500572204589844,9.353028768144256e-11,0.00964873842895031
523.0,936.0,0.8489,-0.3864,9.4708,-0.0371,0.0214,-0.1182,-1.754420896569723,0.0,2.7621402740478516,-1.8637356758117676,-0.0,1.9313799142837524,5.0082245645816705,-0.0,0.28067728877067566,-1.5346759001361292,0.0,-0.0186954103410244,0.7703931331634521,0.0,-0.01411798968911171,0.7500895857810974,1.683512202798991e-14,-0.0091617526486516
523.0,936.0,0.8489,-0.3864,9.4708,-0.0371,0.0214,-0.1182,-1.7543798885741175,0.0,2.744396209716797,-1.8637192249298096,-0.0,1.9521257877349854,5.0081640658672235,-0.0,0.29257360100746155,-1.534663502370016,0.0,-0.01394077017903328,0.7703971862792969,0.0,0.005558083765208721,0.7500531077384949,3.0302622299586377e-18,-0.00825459510087967
523.0,936.0,0.8489,-0.3864,9.4708,-0.0371,0.0214,-0.1182,-1.7544166050352992,0.0,2.7811338901519775,-1.8636597394943237,-0.0,1.9992825984954834,5.008232641011038,-0.0,0.2909631133079529,-1.5346716086017054,0.0,-0.010642437264323235,0.7703325152397156,0.0,-0.006845336873084307,0.7500332593917847,7.317727770041587e-24,0.008092718198895454
523.0,936.0,0.8489,-0.3864,9.4708,-0.0371,0.0214,-0.1182,-1.7543751202025355,0.0,2.7388014793395996,-1.863722801208496,-0.0,1.9733631610870361,5.008228617697515,-0.0,0.29311004281044006,-1.5346716086017054,0.0,-0.01579432375729084,0.7704090476036072,0.0,-0.008493481203913689,0.7500489354133606,1.3171650593818077e-27,0.008740618824958801
523.0,936.0,0.8489,-0.3864,9.4708,-0.0371,0.0214,-0.1182,-1.7544170818724574,0.0,2.782457113265991,-1.8637148141860962,-0.0,1.9267923831939697,5.008216398745336,-0.0,0.2864900231361389,-1.5346997419940394,0.0,-0.008636785671114922,0.7703447937965393,0.0,0.0023997495882213116,0.7500369548797607,2.370850559492679e-31,-0.015451543033123016
523.0,936.0,0.8489,-0.3864,9.4708,-0.0371,0.0214,-0.1182,-1.7544123135008753,0.0,2.795095920562744,-1.8637033700942993,-0.0,1.920555830001831,5.008176225214758,-0.0,0.283844918012619,-1.5346954504596155,0.0,-0.01874050684273243,0.7704135179519653,0.0,0.0003719880769494921,0.7500773072242737,4.267447421724297e-35,0.013528465293347836
523.0,936.0,0.8489,-0.3864,9.4708,-0.0371,0.0214,-0.1182,-1.7543841801085414,0.0,2.796302318572998,-1.8637187480926514,-0.0,1.993086576461792,5.008184420853414,-0.0,0.28662925958633423,-1.5346716086017054,0.0,-0.020869750529527664,0.7703611254692078,0.0,-0.0004647425375878811,0.7500895857810974,1.030542916633757e-40,0.023297438398003578
523.0,936.0,0.8489,-0.3864,9.4708,-0.0371,0.0214,-0.1182,-1.754408975640768,0.0,2.7897591590881348,-1.8637232780456543,-0.0,1.9927399158477783,5.008248615055837,-0.0,0.29486238956451416,-1.53469163576235,0.0,-0.014827238395810127,0.770369291305542,0.0,-0.011066016741096973,0.7500332593917847,1.8216880036222622e-44,-0.0075156837701797485
523.0,936.0,0.8489,-0.3864,9.4708,-0.0371,0.0214,-0.1182,-1.7544285259642542,0.0,2.774980068206787,-1.863684058189392,-0.0,2.004897117614746,5.008196341782369,-0.0,0.2777949571609497,-1.5347116629229944,0.0,-0.013751930557191372,0.7704052925109863,0.0,-0.0009765138383954763,0.7500410676002502,0.0,-0.000986594706773758
545.0,888.0,0.8429,-0.6239,9.521,-0.0379,0.0237,-0.1214,-1.754420896569723,0.0,2.7761363983154297,-1.8637113571166992,-0.0,1.9698655605316162,5.008188473969259,-9.368890374616967e-08,0.2901763319969177,-1.53469163576235,0.0,-0.006590527016669512,0.7704377770423889,0.0,-0.001001322059892118,0.7500649690628052,0.0,-0.0004645765293389559
545.0,888.0,0.8429,-0.6239,9.521,-0.0379,0.0237,-0.1214,-1.7544242344298304,0.0,2.7659735679626465,-1.8637551069259644,-0.0,1.9779436588287354,5.008212762862005,-3.994104491589212e-10,0.30098962783813477,-1.534731690083639,0.0,-0.010609783232212067,0.7703569531440735,0.0,-0.009712830185890198,0.7500168681144714,0.0001622566196601838,-0.059322092682123184
545.0,888.0,0.8429,-0.6239,9.521,-0.0379,0.0237,-0.1214,-1.7544242344298304,0.0,2.7400765419006348,-1.8637629747390747,-0.0,1.9941821098327637,5.008155900030889,-1.7027494865484716e-12,0.29419365525245667,-1.5346997419940394,0.0,-0.025548473000526428,0.770377516746521,0.0,0.0005267325323075056,0.7500730752944946,0.00021420198027044535,-0.0010159800294786692
545.0,888.0,0.8429,-0.6239,9.521,-0.0379,0.0237,-0.1214,-1.7544366321959437,0.0,2.7386651039123535,-1.8637272119522095,-0.0,1.9966089725494385,5.008184420853414,-7.259087604562404e-15,0.28941163420677185,-1.5347073713885706,0.0,-0.012420646846294403,0.7703651785850525,0.0,-0.004194693174213171,0.750125527381897,0.0009934898698702455,0.036187078803777695
545.0,888.0,0.8429,-0.6239,9.521,-0.0379,0.0237,-0.1214,-1.7544361553587855,0.0,2.7892441749572754,-1.8636879920959473,-0.0,1.9621007442474365,5.00818811634139,-2.0205937869526832e-18,0.2956003248691559,-1.5347192923175257,0.0,-0.010701467283070087,0.7703008055686951,0.0,-0.005430980119854212,0.7501860857009888,0.0012747185537591577,-0.016638990491628647
545.0,888.0,0.8429,-0.6239,9.521,-0.0379,0.0237,-0.1214,-1.7544242344298304,0.0,2.785121440887451,-1.863695502281189,-0.0,2.003272771835327,5.008192616492071,-8.614108649523778e-21,0.27994662523269653,-1.5347555319415491,0.0,-0.006847976706922054,0.7703529596328735,0.0,0.005870061460882425,0.7501093745231628,0.0014799744822084904,-0.048604339361190796
545.0,888.0,0.8429,-0.6239,9.521,-0.0379,0.0237,-0.1214,-1.7544242344298304,0.0,2.7779273986816406,-1.863710880279541,-0.0,1.9842262268066406,5.008168089180746,-3.672329582900735e-23,0.2962805926799774,-1.53471547762026,0.0,-0.015687912702560425,0.7703369855880737,0.0,-0.0026471195742487907,0.7501131892204285,0.002634915756061673,-0.02053401619195938
545.0,888.0,0.8429,-0.6239,9.521,-0.0379,0.0237,-0.1214,-1.7544647655882777,0.0,2.7723007202148438,-1.8636994361877441,-0.0,1.9809926748275757,5.0081640658672235,-1.0222062691341782e-26,0.2959766089916229,-1.534771744404928,2.418109623647524e-08,-0.016959575936198235,0.7703611254692078,0.0,0.001809878507629037,0.7501453757286072,0.005048105493187904,0.026947837322950363
545.0,888.0,0.8429,-0.6239,9.521,-0.0379,0.0237,-0.1214,-1.7544485531248988,0.0,2.769667863845825,-1.863687515258789,-0.0,1.9816261529922485,5.008220481663503,-4.3578257592893034e-29,0.2876991629600525,-1.5347636381732386,1.0308780218348801e-10,-0.007313786074519157,0.7704135775566101,0.0,-0.000517844338901341,0.7501810789108276,0.007206423673778772,0.039591919630765915
545.0,888.0,0.8429,-0.6239,9.521,-0.0379,0.0237,-0.1214,-1.7544366321959437,0.0,2.8185648918151855,-1.8636473417282104,-0.0,1.9955195188522339,5.008196341782369,-1.8578092239110387e-31,0.28823626041412354,-1.5347188154803675,4.3947945326319737e-13,-0.016077345237135887,0.7703611254692078,0.0,0.0017753997817635536,0.750237226486206,0.008559957146644592,0.029399840161204338
545.0,888.0,0.8429,-0.6239,9.521,-0.0379,0.0237,-0.1214,-1.7543679676451625,0.0,2.7312469482421875,-1.8637192249298096,-0.0,1.9663174152374268,5.008196341782369,-7.920131960955173e-34,0.29639479517936707,-1.5347917715655726,1.8735697519654424e-15,-0.011737475171685219,0.7703935503959656,0.0,-0.00820191390812397,0.7502491474151611,0.00978335365653038,0.041698258370161057
545.0,888.0,0.8429,-0.6239,9.521,-0.0379,0.0237,-0.1214,-1.7544166050352992,0.0,2.7389702796936035,-1.863663673400879,-0.0,1.9667611122131348,5.008236723929205,-2.20459785367349e-37,0.28328198194503784,-1.5347712675677698,5.215149906393567e-19,-0.028928473591804504,0.7704012989997864,0.0,-0.001325799385085702,0.7503575086593628,0.010718932375311852,0.07438720762729645
545.0,888.0,0.8429,-0.6239,9.521,-0.0379,0.0237,-0.1214,-1.7544404468932093,0.0,2.751070022583008,-1.863707423210144,-0.0,2.001628875732422,5.008196341782369,-9.398550839180478e-40,0.2821316123008728,-1.5347636381732386,2.2233003317259326e-21,-0.02137313410639763,0.7704336047172546,0.0,0.008104216307401657,0.7504096031188965,0.01142027135938406,0.10009557753801346
545.0,888.0,0.8429,-0.6239,9.521,-0.0379,0.0237,-0.1214,-1.754404684106344,0.0,2.7279462814331055,-1.8636631965637207,-0.0,1.9943000078201294,5.0081921992595575,-4.006312309504652e-42,0.29796257615089417,-1.534783665333883,9.478278161061714e-24,-0.006594066508114338,0.7704135775566101,0.0,-0.008212210610508919,0.7504172325134277,0.011188900098204613,0.015183502808213234
545.0,888.0,0.8429,-0.6239,9.521,-0.0379,0.0237,-0.1214,-1.7544123135008753,0.0,2.748779296875,-1.8637069463729858,-0.0,1.9709246158599854,5.00820409038619,-1.401298464324817e-45,0.2879435122013092,-1.5347431341754358,2.638313327074597e-27,-0.021024463698267937,0.7703324556350708,0.0,-0.008700135163962841,0.7505014538764954,0.010523461736738682,0.045829735696315765
545.0,888.0,0.8429,-0.6239,9.521,-0.0379,0.0237,-0.1214,-1.7544003925719203,0.0,2.7889151573181152,-1.8637229204177856,-0.0,1.9908077716827393,5.0081921992595575,-0.0,0.2705034911632538,-1.5347355047809046,1.1247544474995521e-29,-0.035069528967142105,0.7703651785850525,0.0,-0.001980387605726719,0.75051349401474,0.009172191843390465,0.029497448354959488
545.0,888.0,0.8429,-0.6239,9.521,-0.0379,0.0237,-0.1214,-1.7544528446593226,0.0,2.7516136169433594,-1.8637187480926514,-0.0,2.0016331672668457,5.008232611208715,-0.0,0.2732177972793579,-1.5347474257098597,4.795005144592463e-32,-0.019645679742097855,0.7703529596328735,0.0,0.004193233326077461,0.7505011558532715,0.007695425767451525,0.030666276812553406
545.0,888.0,0.8429,-0.6239,9.521,-0.0379,0.0237,-0.1214,-1.7544447384276332,0.0,2.725067615509033,-1.8636994361877441,1.2490281697807859e-08,1.9665780067443848,5.008168148785391,-0.0,0.2843376100063324,-1.5347712675677698,1.334707254623993e-35,-0.0116597730666399,0.7703611254692078,0.0,-0.007197859697043896,0.7505733966827393,0.006020769011229277,0.03927266225218773
545.0,888.0,0.8429,-0.6239,9.521,-0.0379,0.0237,-0.1214,-1.7544285259642542,0.0,2.714745044708252,-1.8637187480926514,2.2482066121959354e-12,1.9820040464401245,5.008220422058859,-0.0,0.275546669960022,-1.5347517172442835,5.690066581647722e-38,-0.013391699641942978,0.7704171538352966,0.0,0.0018413797952234745,0.7505974173545837,0.005523012485355139,0.07663791626691818
545.0,888.0,0.8429,-0.6239,9.521,-0.0379,0.0237,-0.1214,-1.7543841801085414,0.0,2.724165916442871,-1.8636398315429688,4.0466927586669274e-16,2.0041353702545166,5.008236723929205,-0.0,0.2799413800239563,-1.5347111860858362,2.4257597456234043e-40,-0.017345044761896133,0.7703729271888733,0.0,-0.0045172241516411304,0.7505649328231812,0.005326658021658659,0.045551881194114685
506.0,882.0,0.7771,-0.0981,9.4875,-0.0234,0.025,-0.1069,-1.7544690571227015,0.0,2.763646125793457,-1.8636631965637207,7.283903673723342e-20,1.9753015041351318,5.008216368943014,-0.0,0.28978854417800903,-1.53471547762026,1.034158266671715e-42,-0.025982175022363663,0.7703729867935181,0.0,-0.008019586093723774,0.7506251931190491,0.005298571195453405,0.05443756282329559
506.0,882.0,0.7771,-0.0981,9.4875,-0.0234,0.025,-0.1069,-1.7544275722899378,0.0,2.6911301612854004,-1.863675594329834,1.7589770247799746e-25,1.9404481649398804,5.008164095669546,-0.0,0.26983922719955444,-1.534703556691305,-5.418172077042982e-05,-0.021358810365200043,0.7703771591186523,0.0,0.0016829664818942547,0.7506290078163147,0.00463801110163331,0.12174797803163528
506.0,882.0,0.7771,-0.0981,9.4875,-0.0234,0.025,-0.1069,-1.7544447384276332,0.0,2.7352890968322754,-1.863675594329834,3.166096420888939e-29,1.979511022567749,5.008128064661779,-0.0001001678901957348,0.2803981304168701,-1.534771744404928,-5.113313818583265e-05,-0.037681758403778076,0.7704455256462097,0.0,-0.003841369180008769,0.7507175207138062,0.003859906457364559,0.021213550120592117
506.0,882.0,0.7771,-0.0981,9.4875,-0.0234,0.025,-0.1069,-1.7544604740538539,0.0,2.6673974990844727,-1.863675594329834,5.69886163231773e-33,1.9805378913879395,5.008201259165563,-0.00013501112698577344,0.2773514986038208,-1.5347312132464808,-4.8384124966105446e-05,-0.025160830467939377,0.7704291343688965,0.0,0.006658533122390509,0.7507175207138062,0.003474973142147064,0.07000049203634262
506.0,882.0,0.7771,-0.0981,9.4875,-0.0234,0.025,-0.1069,-1.7544404468932093,0.0,2.731647491455078,-1.8636631965637207,0.0002955427917186171,1.979291319847107,5.00815628746108,-0.0011120398994535208,0.28939974308013916,-1.5347517172442835,-4.477345646591857e-05,-0.023888003081083298,0.7703770995140076,0.0,-0.014897847548127174,0.75065678358078,0.0038593390490859747,0.07848528027534485
506.0,882.0,0.7771,-0.0981,9.4875,-0.0234,0.025,-0.1069,-1.7545010052123011,0.0,2.746579647064209,-1.8636795282363892,0.00032629171619191766,1.9699230194091797,5.008164155274191,-0.0009364780853502452,0.27324309945106506,-1.53471547762026,-4.265149254933931e-05,-0.02828248217701912,0.7704052925109863,0.0,-0.00634022057056427,0.7507169842720032,0.004384532570838928,0.05143686756491661
506.0,882.0,0.7771,-0.0981,9.4875,-0.0234,0.025,-0.1069,-1.7544566593565882,0.0,2.708009958267212,-1.8636879920959473,0.00033994359546341,1.9921159744262695,5.008148181229391,-0.0007963500684127212,0.2769094705581665,-1.5347312132464808,-4.072159208590165e-05,-0.02995016984641552,0.7704171538352966,0.0,0.018824400380253792,0.7507452368736267,0.004804059863090515,0.13140438497066498
506.0,882.0,0.7771,-0.0981,9.4875,-0.0234,0.025,-0.1069,-1.7544690571227015,-0.0003332891792524606,2.705927848815918,-1.8636797666549683,0.0007933648303151131,2.022165298461914,5.008136260300436,-0.0007165178540162742,0.27650031447410583,-1.534771744404928,-3.8958740333328024e-05,-0.0285189189016819,0.7704373002052307,0.0,0.0028138079214841127,0.7507490515708923,0.006243155337870121,0.1149628683924675
506.0,882.0,0.7771,-0.0981,9.4875,-0.0234,0.025,-0.1069,-1.7544518909850062,-0.0004508804122451693,2.7127809524536133,-1.8636274337768555,0.0010909191332757473,1.94638192653656,5.008152234345236,-0.0006106225773692131,0.2744821310043335,-1.5347355047809046,-3.658331115730107e-05,-0.03381924331188202,0.7703889608383179,0.0,0.012456572614610195,0.7508171200752258,0.00938822329044342,0.06371146440505981
506.0,882.0,0.7771,-0.0981,9.4875,-0.0234,0.025,-0.1069,-1.7544475994505824,-0.0010303177405148745,2.714982032775879,-1.8636478185653687,0.0013423364143818617,1.9941949844360352,5.008188593178549,-0.000449932151241228,0.2719586491584778,-1.5346868673907679,-3.51542912540026e-05,-0.02004459872841835,0.7704172134399414,7.88420322805905e-07,0.005886102095246315,0.750881016254425,0.01226846408098936,0.110689178109169
506.0,882.0,0.7771,-0.0981,9.4875,-0.0234,0.025,-0.1069,-1.7544766865172328,-0.0010837891604751348,2.685380220413208,-1.8636155128479004,0.0016660811379551888,1.9514541625976562,5.008184540062704,-0.00043775333324447274,0.2777016758918762,-1.5347355047809046,-3.3832759072538465e-05,-0.05191796272993088,0.7704492211341858,3.36115957288996e-09,0.01280893199145794,0.750953197479248,0.016642514616250992,0.14323124289512634
506.0,882.0,0.7771,-0.0981,9.4875,-0.0234,0.025,-0.1069,-1.754528661767477,-0.0018179131438955665,2.671492099761963,-1.8636393547058105,0.0022713730577379465,1.9776983261108398,5.008132177382269,-0.00040265792631544173,0.2580188512802124,-1.5347273985492151,-3.202678635716438e-05,-0.0310024656355381,0.7704212665557861,9.355911228040026e-13,0.016016241163015366,0.7510935068130493,0.023801611736416817,0.19119682908058167
506.0,882.0,0.7771,-0.0981,9.4875,-0.0234,0.025,-0.1069,-1.7545649013915003,-0.0025920881889760494,2.6884922981262207,-1.8636558055877686,0.0028665668796747923,1.960331916809082,5.008152234345236,-0.0003693009784910828,0.2638661861419678,-1.5347517172442835,-4.632112541003153e-05,-0.04178537428379059,0.770433247089386,3.98857184598562e-15,0.018056482076644897,0.7512010931968689,0.027501007542014122,0.2536590099334717
506.0,882.0,0.7771,-0.0981,9.4875,-0.0234,0.025,-0.1069,-1.754557271996969,-0.004873964004218578,2.6596832275390625,-1.8636473417282104,0.002376657910645008,1.9701311588287354,5.008128154068746,-0.0003714642662089318,0.26971498131752014,-1.5347312132464808,-4.484799501369707e-05,-0.04272415488958359,0.770469605922699,1.7003906829083036e-17,-0.0023747296072542667,0.7513656616210938,0.032062869518995285,0.16392388939857483
506.0,882.0,0.7771,-0.0981,9.4875,-0.0234,0.025,-0.1069,-1.7545763454832972,-0.007072978653013706,2.7126617431640625,-1.863603115081787,0.001944933319464326,1.9933910369873047,5.008128154068746,-0.0004748091159854084,0.2622031569480896,-1.5347312132464808,-4.340628947829828e-05,-0.03591303527355194,0.7704172730445862,7.24903219479055e-20,0.004790515638887882,0.7515212893486023,0.039551589637994766,0.1871434450149536
506.0,882.0,0.7771,-0.0981,9.4875,-0.0234,0.025,-0.1069,-1.7546612224974574,-0.010052371770143509,2.6005680561065674,-1.863595724105835,0.001412652898579836,1.9968104362487793,5.0081121800239465,-0.0012424853630363941,0.25536349415779114,-1.5347474257098597,-4.140910823480226e-05,-0.043673597276210785,0.7704213261604309,2.017794966167712e-23,0.007834462448954582,0.7517653703689575,0.049288515001535416,0.27912795543670654
506.0,882.0,0.7771,-0.0981,9.4875,-0.0234,0.025,-0.1069,-1.7546960316100062,-0.010762660764157772,2.6124281883239746,-1.863595724105835,0.0016449870308861136,1.960534930229187,5.0080920336540125,-0.0010723522864282131,0.26452693343162537,-1.5347312132464808,-4.0176804759539664e-05,-0.055397000163793564,0.7704492211341858,0.00013858637248631567,0.013438478112220764,0.7520134449005127,0.05772170424461365,0.2661755681037903
506.0,882.0,0.7771,-0.0981,9.4875,-0.0234,0.025,-0.1069,-1.7547527752318324,-0.011407185345888138,2.597810745239258,-1.863539457321167,0.001785478787496686,1.9542137384414673,5.008144485741415,-0.0009307129657827318,0.25545817613601685,-1.5347793737994593,-3.9015652873786166e-05,-0.050730932503938675,0.7704327702522278,0.000250968529144302,0.012761159799993038,0.7522737383842468,0.06651787459850311,0.29006561636924744
506.0,882.0,0.7771,-0.0981,9.4875,-0.0234,0.025,-0.1069,-1.7548653088011683,-0.011508150026202202,2.5976645946502686,-1.863579273223877,0.0013630127068609,2.0258593559265137,5.008128928929128,-0.0014402674278244376,0.2531781792640686,-1.5347793737994593,-4.823255221708678e-05,-0.05577608197927475,0.7704208493232727,0.0002986317849718034,0.03669482842087746,0.7526891827583313,0.08065598458051682,0.37017226219177246
506.0,882.0,0.7771,-0.0981,9.4875,-0.0234,0.025,-0.1069,-1.7549220524229945,-0.01151325460523367,2.5884478092193604,-1.86356782913208,0.0009188073454424739,1.9894964694976807,5.008076089411535,-0.002170325955376029,0.24597115814685822,-1.534771744404928,-4.4874486775370315e-05,-0.04556981474161148,0.7704048752784729,0.00029446225380524993,0.024313833564519882,0.7530333399772644,0.09118250012397766,0.3606351613998413
553.0,914.0,0.3996,-1.858,9.256,-0.0573,0.017,-0.0648,-1.7550231419005335,-0.012463713996112347,2.552811861038208,-1.8635598421096802,0.0007995068444870412,1.9795730113983154,5.008064108877935,-0.0037768264301121235,0.25076648592948914,-1.5347355047809046,-3.9421196561306715e-05,-0.07261813431978226,0.77045738697052,0.00028920313343405724,0.021309934556484222,0.7534695863723755,0.10321566462516785,0.3925463557243347
553.0,914.0,0.3996,-1.858,9.256,-0.0573,0.017,-0.0648,-1.7550298176207484,-0.01147519238293171,2.5902280807495117,-1.863547444343567,0.0007285065366886556,2.009856700897217,5.00803633311347,-0.0060860333032906055,0.24446077644824982,-1.5347192923175257,-4.703702870756388e-05,-0.05070587620139122,0.7704734206199646,0.0003864413301926106,0.04805590584874153,0.7538615465164185,0.11172716319561005,0.43929386138916016
553.0,914.0,0.3996,-1.858,9.256,-0.0573,0.017,-0.0648,-1.7550693951048792,-0.010891496203839779,2.5688350200653076,-1.863579273223877,0.0005641995812766254,1.9735007286071777,5.007995861559667,-0.013901084661483765,0.23393306136131287,-1.5347517172442835,-5.327386315912008e-05,-0.07723113149404526,0.770465612411499,0.00032019626814872026,0.026401277631521225,0.7545894980430603,0.11900103837251663,0.4581570029258728
553.0,914.0,0.3996,-1.858,9.256,-0.0573,0.017,-0.0648,-1.7550937137999476,-0.00946905929595232,2.58036470413208,-1.8635433912277222,0.00036888199974782765,2.0013043880462646,5.007932024985113,-0.01569162681698799,0.2288621962070465,-1.5347555319415491,-5.1253755373181775e-05,-0.06155030429363251,0.7704727053642273,0.000335815449943766,0.0345124751329422,0.7551094889640808,0.12242437899112701,0.48580026626586914
553.0,914.0,0.3996,-1.858,9.256,-0.0573,0.017,-0.0648,-1.7551285229124964,-0.00837413128465414,2.5770349502563477,-1.863563895225525,0.00037763488944619894,1.9869595766067505,5.007835644274511,-0.014505738392472267,0.22844380140304565,-1.5347111860858362,-4.937903577229008e-05,-0.06986475735902786,0.7704738974571228,0.00029907020507380366,0.02993500977754593,0.7556254863739014,0.12584452331066132,0.5151220560073853
553.0,914.0,0.3996,-1.858,9.256,-0.0573,0.017,-0.0648,-1.7552014789977015,-0.008306172676384449,2.533092737197876,-1.863623023033142,0.0003139371401630342,2.044673442840576,5.007795649557867,-0.010734803974628448,0.241362065076828,-1.5347192923175257,-6.214704626472667e-05,-0.08455054461956024,0.7704291939735413,0.0002991363580804318,0.030800890177488327,0.7564051747322083,0.13686449825763702,0.5287196636199951
553.0,914.0,0.3996,-1.858,9.256,-0.0573,0.017,-0.0648,-1.755265852014059,-0.009133391082286835,2.529761552810669,-1.8634992837905884,0.0003280270902905613,1.9891775846481323,5.007780301361837,-0.007469498086720705,0.23098157346248627,-1.5347192923175257,-6.032143937773071e-05,-0.0724000409245491,0.7704448699951172,0.0002923154388554394,0.04948633909225464,0.756960928440094,0.14228613674640656,0.5368097424507141
553.0,914.0,0.3996,-1.858,9.256,-0.0573,0.017,-0.0648,-1.7553020916380824,-0.009719198569655418,2.551612377166748,-1.863595724105835,0.0002971506619360298,1.9862334728240967,5.007759916573324,-0.004152683541178703,0.22361980378627777,-1.5347674528705042,-5.8366553275845945e-05,-0.06857351958751678,0.7704410552978516,0.00028724968433380127,0.03361654654145241,0.7575206756591797,0.14654256403446198,0.5392628312110901
553.0,914.0,0.3996,-1.858,9.256,-0.0573,0.017,-0.0648,-1.7553216419615687,-0.010755857452750206,2.567383289337158,-1.8635634183883667,0.00030573207186535,1.973743200302124,5.007752167969503,-0.002011826727539301,0.24469907581806183,-1.5347397963153284,-5.65334121347405e-05,-0.07371661067008972,0.7704610824584961,0.00026609268388710916,0.049681469798088074,0.7581651210784912,0.15053927898406982,0.5593849420547485
553.0,914.0,0.3996,-1.858,9.256,-0.0573,0.017,-0.0648,-1.7553159199156703,-0.011015061289072037,2.540423631668091,-1.8635802268981934,0.00042669312097132206,1.9936940670013428,5.00776435711936,-0.0006725097773596644,0.2314528375864029,-1.5347073713885706,-5.398986104410142e-05,-0.0754760280251503,0.7704848647117615,0.00023953200434334576,0.03886701166629791,0.7591209411621094,0.15902189910411835,0.5898959636688232
553.0,914.0,0.3996,-1.858,9.256,-0.0573,0.017,-0.0648,-1.7554179630675257,-0.011170770972967148,2.545398712158203,-1.8634998798370361,0.00150395673699677,1.991038203239441,5.007703888207235,-0.00025475132861174643,0.21828550100326538,-1.5347235838519495,-5.241762482910417e-05,-0.07886412739753723,0.770425021648407,0.00020838651107624173,0.054067373275756836,0.7598090767860413,0.16305655241012573,0.58233642578125
553.0,914.0,0.3996,-1.858,9.256,-0.0573,0.017,-0.0648,-1.755514761010641,-0.010681193321943283,2.5435798168182373,-1.863527536392212,0.002102896571159363,1.999464511871338,5.0077483532722376,-0.00012103953486075625,0.22551286220550537,-1.53471547762026,-5.0934362661791965e-05,-0.08047975599765778,0.7704614400863647,0.00019054996664635837,0.04490349441766739,0.7604444026947021,0.1688203662633896,0.6262319087982178
553.0,914.0,0.3996,-1.858,9.256,-0.0573,0.017,-0.0648,-1.7555133304991664,-0.011085244826972485,2.5347585678100586,-1.8635594844818115,0.0033264090307056904,2.0366158485412598,5.007740187435903,-8.600002183811739e-05,0.21715715527534485,-1.5346711317645472,-4.886054011876695e-05,-0.06539259850978851,0.7704887390136719,0.000169067905517295,0.048840031027793884,0.7615247964859009,0.1747460514307022,0.5981562733650208
553.0,914.0,0.3996,-1.858,9.256,-0.0573,0.017,-0.0648,-1.7556058369078578,-0.009940001182258129,2.5669569969177246,-1.8635197877883911,0.004157341551035643,1.9967846870422363,5.00774427035407,-7.218839891720563e-05,0.21094907820224762,-1.534731690083639,-4.7569254093104973e-05,-0.08364123106002808,0.7704968452453613,0.00015725017874501646,0.0451059564948082,0.7622365355491638,0.17767463624477386,0.6508446931838989
553.0,914.0,0.3996,-1.858,9.256,-0.0573,0.017,-0.0648,-1.7556430302061976,-0.010450639761984348,2.531113624572754,-1.8634798526763916,0.004615454934537411,1.9779794216156006,5.007711994438925,-0.00012324661656748503,0.22169962525367737,-1.5347073713885706,-4.634448850993067e-05,-0.07513853162527084,0.7704768776893616,0.00014697673032060266,0.051905207335948944,0.7629603743553162,0.17802251875400543,0.5681164264678955
553.0,914.0,0.3996,-1.858,9.256,-0.0573,0.017,-0.0648,-1.7556334934630335,-0.010869904421269894,2.5187063217163086,-1.8634312152862549,0.005235661752521992,1.9665676355361938,5.007744329958715,-0.00016292507643811405,0.22048312425613403,-1.5347235838519495,-4.983939652447589e-05,-0.06615275889635086,0.7704848647117615,0.00016507369582541287,0.06013832986354828,0.7636569738388062,0.17792227864265442,0.6176204085350037
553.0,914.0,0.3996,-1.858,9.256,-0.0573,0.017,-0.0648,-1.7557631931700648,-0.011688224971294403,2.486704111099243,-1.8634517192840576,0.005321417935192585,2.005640983581543,5.007740098028936,-0.0003518964222166687,0.21182212233543396,-1.53469163576235,-4.606119910022244e-05,-0.061154380440711975,0.7704967260360718,0.0001516103948233649,0.05653061717748642,0.7647332549095154,0.18200169503688812,0.5798977017402649
553.0,914.0,0.3996,-1.858,9.256,-0.0573,0.017,-0.0648,-1.7558065853514613,-0.012363960035145283,2.4821062088012695,-1.863427996635437,0.005503280553966761,2.018665313720703,5.007712024241247,-0.00040692961192689836,0.22209995985031128,-1.5347159544574183,-4.3818487029056996e-05,-0.0631047934293747,0.7705210447311401,0.00014354950690176338,0.06340820342302322,0.7655184268951416,0.18663373589515686,0.5524280071258545
553.0,914.0,0.3996,-1.858,9.256,-0.0573,0.017,-0.0648,-1.7558666668333949,-0.012644981034100056,2.513047933578491,-1.8634041547775269,0.005454181227833033,2.015427350997925,5.0077406642730615,-0.0009841021383181214,0.212423175573349,-1.53471547762026,-4.1784034692682326e-05,-0.06390984356403351,0.7704727649688721,0.0001363022456644103,0.042771488428115845,0.7662869095802307,0.19207996129989624,0.6410234570503235
651.0,900.0,0.6873,-1.5153,9.521,-0.0376,0.0205,0.0615,-1.7559062443175257,-0.012406926602125168,2.504368305206299,-1.8633553981781006,0.0052106608636677265,2.002746343612671,5.007708060532369,-0.0011823071399703622,0.2191159874200821,-1.5347040335284632,-3.906355414073914e-05,-0.06397129595279694,0.7704845666885376,0.00012670693104155362,0.0658707469701767,0.7674397826194763,0.20236067473888397,0.6070230007171631
651.0,900.0,0.6873,-1.5153,9.521,-0.0376,0.0205,0.0615,-1.755962987939352,-0.01121297013014555,2.4562032222747803,-1.8633151054382324,0.0051827868446707726,2.0410561561584473,5.007732379227438,-0.0010315440595149994,0.19690299034118652,-1.5347116629229944,-3.743850902537815e-05,-0.0679488331079483,0.7705448269844055,0.00012102715845685452,0.060551632195711136,0.7682809233665466,0.20268872380256653,0.5943511128425598
651.0,900.0,0.6873,-1.5153,9.521,-0.0376,0.0205,0.0615,-1.7559739551939906,-0.010498751886188984,2.4856059551239014,-1.8632996082305908,0.005135504528880119,2.050820827484131,5.007695662766256,-0.0009088832885026932,0.20900362730026245,-1.5346997419940394,-1.8128679585061036e-05,-0.06154116243124008,0.7704927921295166,0.00011583478772081435,0.052159324288368225,0.7690570950508118,0.1985297054052353,0.5806759595870972
651.0,900.0,0.6873,-1.5153,9.521,-0.0376,0.0205,0.0615,-1.7560459576048792,-0.00988443661481142,2.4465646743774414,-1.863267421722412,0.0055776676163077354,2.004464864730835,5.00773240902976,-0.0008808531565591693,0.2068922519683838,-1.5346830526935022,-1.514760583631869e-07,-0.05954418331384659,0.7704247236251831,0.00011106953024864197,0.05996151268482208,0.7698656916618347,0.1983298510313034,0.577134370803833
651.0,900.0,0.6873,-1.5153,9.521,-0.0376,0.0205,0.0615,-1.756113668481344,-0.011155340820550919,2.447068214416504,-1.8632632493972778,0.005610249936580658,2.0200300216674805,5.007699775486746,-0.0009573823190294206,0.19803494215011597,-1.5346830526935022,-4.216391819023002e-11,-0.07739061117172241,0.770500898361206,0.00012197250180179253,0.05422030761837959,0.7710583806037903,0.20175544917583466,0.566728413105011
651.0,900.0,0.6873,-1.5153,9.521,-0.0376,0.0205,0.0615,-1.7562161884703578,-0.012980985455214977,2.44925594329834,-1.8632197380065918,0.005796895362436771,2.047149419784546,5.007720219879904,-0.0009623760124668479,0.19778209924697876,-1.5346830526935022,-1.7975139605941326e-13,-0.06527136266231537,0.7705050706863403,0.00011749684199457988,0.059696316719055176,0.7718833684921265,0.20916883647441864,0.5556210279464722
651.0,900.0,0.6873,-1.5153,9.521,-0.0376,0.0205,0.0615,-1.7562509975829066,-0.01396128535270691,2.436375141143799,-1.8631752729415894,0.00546132680028677,1.9935576915740967,5.007716196566381,-0.0011794489109888673,0.20334936678409576,-1.5347040335284632,-7.663083780403606e-16,-0.05630173534154892,0.7704328894615173,0.00011327200627420098,0.06892240047454834,0.7726960778236389,0.2157549411058426,0.5491489171981812
651.0,900.0,0.6873,-1.5153,9.521,-0.0376,0.0205,0.0615,-1.7562819919981898,-0.01431925967335701,2.4186112880706787,-1.863171100616455,0.004785011522471905,1.9653778076171875,5.007700192719259,-0.0010519768111407757,0.19114655256271362,-1.5347197691546839,-2.133047672910166e-19,-0.05999882519245148,0.7705571055412292,0.00010747478518169373,0.05367916077375412,0.7739891409873962,0.2200269252061844,0.6151123642921448
651.0,900.0,0.6873,-1.5153,9.521,-0.0376,0.0205,0.0615,-1.756350656548971,-0.014215009286999702,2.4389657974243164,-1.8631389141082764,0.005155066028237343,2.0182251930236816,5.007728445320883,-0.0008741512428969145,0.19663190841674805,-1.5347240606891077,-9.09351595615116e-22,-0.05850476771593094,0.7704887390136719,0.00010392884723842144,0.05276106670498848,0.7749021053314209,0.21892504394054413,0.5738829970359802
651.0,900.0,0.6873,-1.5153,9.521,-0.0376,0.0205,0.0615,-1.7563988171019496,-0.014456951059401035,2.4258599281311035,-1.8631556034088135,0.00601178826764226,1.9986815452575684,5.007699775486746,-0.0007264859741553664,0.2004145383834839,-1.5346553961383265,-3.876708612858481e-24,-0.03739380091428757,0.7704768180847168,0.00010060938802780584,0.03867824375629425,0.7757062911987305,0.2156510353088379,0.566309928894043
651.0,900.0,0.6873,-1.5153,9.521,-0.0376,0.0205,0.0615,-1.756491323510641,-0.014483795501291752,2.4387552738189697,-1.8631079196929932,0.007915694266557693,1.9869470596313477,5.007687914162435,-0.0006742482073605061,0.19278620183467865,-1.5347197691546839,-1.6527016528137208e-26,-0.03564453125,0.7705532312393188,9.749538730829954e-05,0.06523986905813217,0.7765872478485107,0.21697427332401276,0.5475221872329712
651.0,900.0,0.6873,-1.5153,9.521,-0.0376,0.0205,0.0615,-1.7565800152220667,-0.015464261174201965,2.422983169555664,-1.8630633354187012,0.008778683841228485,2.045562267303467,5.007699775486746,-0.00044212769716978073,0.20552900433540344,-1.534659210835592,-4.6003563868583036e-30,-0.0414147824048996,0.7704848647117615,9.316985961049795e-05,0.06139390170574188,0.7778680324554443,0.22511093318462372,0.5744988918304443
651.0,900.0,0.6873,-1.5153,9.521,-0.0376,0.0205,0.0615,-1.7566358051695765,-0.017196035012602806,2.4191083908081055,-1.8630353212356567,0.008286762051284313,2.0709712505340576,5.007699745684423,-0.00036538377753458917,0.19770708680152893,-1.534680191670553,-1.9612040319299172e-32,-0.038444455713033676,0.7704727649688721,9.049326763488352e-05,0.05960887670516968,0.7788375020027161,0.2302854061126709,0.5654690265655518
651.0,900.0,0.6873,-1.5153,9.521,-0.0376,0.0205,0.0615,-1.756683965722555,-0.019901327788829803,2.429283618927002,-1.8629876375198364,0.007558387238532305,2.0372049808502197,5.007692026882925,-0.0003768293827306479,0.2003224641084671,-1.5346553961383265,-8.360920531583193e-35,-0.046989500522613525,0.7704927921295166,8.796618203632534e-05,0.056487150490283966,0.7797622084617615,0.23159635066986084,0.5376258492469788
651.0,900.0,0.6873,-1.5153,9.521,-0.0376,0.0205,0.0615,-1.7568398914732875,-0.02355913072824478,2.4060585498809814,-1.862915277481079,0.008339032530784607,1.984830617904663,5.007744776993551,-0.000363676663255319,0.18063224852085114,-1.5346272627459925,0.00031511412817053497,-0.030752627179026604,0.770449161529541,8.442953549092636e-05,0.054574593901634216,0.7810866236686707,0.22685332596302032,0.4840630888938904
651.0,900.0,0.6873,-1.5153,9.521,-0.0376,0.0205,0.0615,-1.7568828068175257,-0.02551576867699623,2.428044080734253,-1.862855076789856,0.009849578142166138,2.0177292823791504,5.007671910315313,-0.00036639696918427944,0.20273926854133606,-1.5346759001361292,0.000305591500364244,-0.010353922843933105,0.7704209089279175,8.222565520554781e-05,0.05567007511854172,0.7820764780044556,0.2258344441652298,0.5101436972618103
651.0,900.0,0.6873,-1.5153,9.521,-0.0376,0.0205,0.0615,-1.7570330105223597,-0.027348613366484642,2.4098947048187256,-1.8628675937652588,0.01163689885288477,2.0508310794830322,5.007671910315313,-0.00033766261185519397,0.19632016122341156,-1.5346882979022425,0.0002746129175648093,-0.026846975088119507,0.7704451680183411,8.013392653083429e-05,0.057770684361457825,0.7829203009605408,0.22983133792877197,0.45814234018325806
651.0,900.0,0.6873,-1.5153,9.521,-0.0376,0.0205,0.0615,-1.757148881951803,-0.03135813772678375,2.3808674812316895,-1.862795114517212,0.012712208554148674,2.020275831222534,5.007740694075384,-0.00031994885648600757,0.1769399344921112,-1.5346840063678187,0.00029005127726122737,-0.03784290701150894,0.7704967856407166,7.814596028765664e-05,0.04772370308637619,0.7838006019592285,0.23159147799015045,0.47161272168159485
651.0,900.0,0.6873,-1.5153,9.521,-0.0376,0.0205,0.0615,-1.757336755792135,-0.03675726056098938,2.4115095138549805,-1.8627277612686157,0.013344732113182545,1.987245798110962,5.007687943964758,-0.0003167239483445883,0.1757768988609314,-1.5346716086017054,0.00028238946106284857,-0.01061001792550087,0.7705008387565613,7.534230826422572e-05,0.047349266707897186,0.7851213812828064,0.23292140662670135,0.49815723299980164
651.0,900.0,0.6873,-1.5153,9.521,-0.0376,0.0205,0.0615,-1.7574321232237757,-0.040298737585544586,2.3445870876312256,-1.8626757860183716,0.014449439011514187,2.012795925140381,5.007687884360113,-0.0002849656739272177,0.19079911708831787,-1.5346153418170374,0.000270721415290609,-0.012139562517404556,0.7704890370368958,7.358235598076135e-05,0.05887806415557861,0.7861355543136597,0.22752682864665985,0.447672039270401
891.0,916.0,0.5647,-0.7496,9.5073,-0.0031,0.0087,0.0953,-1.7576781711974085,-0.044293951243162155,2.3422584533691406,-1.8625715970993042,0.01641298085451126,2.0068984031677246,5.0077243624027155,-0.00025776008260436356,0.1903855949640274,-1.5346515814410608,0.0002872859186027199,-0.0057904524728655815,0.7704612016677856,7.19027520972304e-05,0.05451346933841705,0.7870394587516785,0.22272436320781708,0.38870954513549805
891.0,916.0,0.5647,-0.7496,9.5073,-0.0031,0.0087,0.0953,-1.7579099140562953,-0.05054032802581787,2.3453927040100098,-1.8624706268310547,0.021122612059116364,2.0089707374572754,5.007663684874334,-0.00022546514810528606,0.1805480420589447,-1.5346596876727503,0.0002894883800763637,-0.00635335361585021,0.7704967856407166,6.9522371632047e-05,0.057368043810129166,0.7883327603340149,0.21822096407413483,0.43408840894699097
891.0,916.0,0.5647,-0.7496,9.5073,-0.0031,0.0087,0.0953,-1.7581144771971644,-0.054562438279390335,2.382916212081909,-1.8623919486999512,0.024215232580900192,2.031421422958374,5.007728445320883,-0.00020808563567698002,0.18742775917053223,-1.534647289906637,0.0002614725090097636,0.003909349907189608,0.7705290913581848,2.963847975934186e-07,0.04402250796556473,0.7891847491264343,0.2162216603755951,0.3495391607284546
891.0,916.0,0.5647,-0.7496,9.5073,-0.0031,0.0087,0.0953,-1.7583428821959437,-0.058709923177957535,2.365964412689209,-1.8622676134109497,0.02691262774169445,2.030529499053955,5.00773252823905,-0.0001931936712935567,0.18462544679641724,-1.5346272627459925,0.00027774833142757416,-0.012567191384732723,0.7704611420631409,2.643239167809952e-05,0.06859975308179855,0.790097713470459,0.21363788843154907,0.30875176191329956
891.0,916.0,0.5647,-0.7496,9.5073,-0.0031,0.0087,0.0953,-1.7586990795531214,-0.0660049319267273,2.3336238861083984,-1.862095594406128,0.03143203258514404,2.0115151405334473,5.00773240902976,-0.00017446608399040997,0.18636301159858704,-1.534595791493551,0.00024558164295740426,0.00400738138705492,0.770449161529541,2.3286927898880094e-05,0.04277338832616806,0.7913587093353271,0.20897412300109863,0.36256805062294006
891.0,916.0,0.5647,-0.7496,9.5073,-0.0031,0.0087,0.0953,-1.759003301660055,-0.07075686752796173,2.3373584747314453,-1.8619589805603027,0.03657682612538338,2.0735158920288086,5.007695722370901,-0.0001638757821638137,0.19030210375785828,-1.5346277395831507,0.0002602134190965444,0.007862405851483345,0.7704247832298279,2.2699012333760038e-05,0.04480281472206116,0.7922073006629944,0.20526963472366333,0.32338833808898926
891.0,916.0,0.5647,-0.7496,9.5073,-0.0031,0.0087,0.0953,-1.7592798672118128,-0.07490033656358719,2.30123233795166,-1.8618117570877075,0.039633575826883316,2.0608348846435547,5.007716107159414,-0.00015449774218723178,0.17977724969387054,-1.5346396605121058,0.00024279937497340143,-0.0031896508298814297,0.7704288363456726,2.214060805272311e-05,0.048863641917705536,0.7930598258972168,0.20241904258728027,0.2975737154483795
891.0,916.0,0.5647,-0.7496,9.5073,-0.0031,0.0087,0.0953,-1.7595716915526332,-0.07914263010025024,2.3258347511291504,-1.8616750240325928,0.04423088580369949,2.058915376663208,5.007720219879904,-0.0001461350911995396,0.18551307916641235,-1.5346034208880823,0.00022745739261154085,0.01250629872083664,0.7704890370368958,2.160901203751564e-05,0.053127337247133255,0.7937881350517273,0.19672036170959473,0.29338812828063965
891.0,916.0,0.5647,-0.7496,9.5073,-0.0031,0.0087,0.0953,-1.7601214847960414,-0.08298435807228088,2.3110532760620117,-1.861395239830017,0.05110066384077072,2.0701026916503906,5.007732498436727,-0.00013516104081645608,0.1905694305896759,-1.5346396605121058,0.00025694628129713237,0.022647196426987648,0.7704410552978516,2.085781488858629e-05,0.04010606184601784,0.795017421245575,0.18676400184631348,0.2787555158138275
891.0,916.0,0.5647,-0.7496,9.5073,-0.0031,0.0087,0.0953,-1.760510583917135,-0.0838838443160057,2.3199667930603027,-1.8611838817596436,0.05528859794139862,2.099276065826416,5.007708060532369,-0.0001392606063745916,0.18775507807731628,-1.534635368977682,0.00023587682517245412,0.014985047280788422,0.7704532146453857,2.038539787463378e-05,0.05608859658241272,0.7957096695899963,0.18165656924247742,0.26192471385002136
891.0,916.0,0.5647,-0.7496,9.5073,-0.0031,0.0087,0.0953,-1.7607981167235316,-0.08570504933595657,2.3326416015625,-1.860894799232483,0.05858657509088516,2.0518763065338135,5.007659631758489,-6.432272493839264e-05,0.1832410991191864,-1.534668270741598,0.0002524402807466686,0.006143761333078146,0.7704411149024963,1.9933875591959804e-05,0.03323884308338165,0.7964341044425964,0.17411646246910095,0.25322073698043823
891.0,916.0,0.5647,-0.7496,9.5073,-0.0031,0.0087,0.0953,-1.7613469562926234,-0.09036064893007278,2.270840883255005,-1.8605477809906006,0.06292852759361267,2.085914134979248,5.00773252823905,-8.02032882347703e-05,0.17302072048187256,-1.534595791493551,0.00025593864847905934,0.008077145554125309,0.7704774141311646,1.0946370920805748e-08,0.03729648143053055,0.7975073456764221,0.17360830307006836,0.23316654562950134
891.0,916.0,0.5647,-0.7496,9.5073,-0.0031,0.0087,0.0953,-1.7617274723448695,-0.09408822655677795,2.293365955352783,-1.8602721691131592,0.06621316820383072,2.114335298538208,5.0077121434505365,-7.575869676657021e-05,0.16846144199371338,-1.5346038977252405,0.0002408432337688282,0.022370370104908943,0.7704291343688965,4.666609806913691e-11,0.03557600453495979,0.7981958985328674,0.1725156307220459,0.22590667009353638
891.0,916.0,0.5647,-0.7496,9.5073,-0.0031,0.0087,0.0953,-1.7620431385436,-0.09643900394439697,2.2971417903900146,-1.8599944114685059,0.06914086639881134,2.047675371170044,5.007692026882925,-7.173312042141333e-05,0.18618924915790558,-1.5346115271197718,0.00032378314062952995,0.028042204678058624,0.7704614400863647,1.9894489159365258e-13,0.040901217609643936,0.798836350440979,0.1681196540594101,0.20039153099060059
891.0,916.0,0.5647,-0.7496,9.5073,-0.0031,0.0087,0.0953,-1.762439867059225,-0.09913606941699982,2.2992758750915527,-1.8597397804260254,0.07211416959762573,2.1216378211975098,5.007699715882101,-6.81137025821954e-05,0.1831708550453186,-1.5346358458148401,0.00034134642919525504,0.024281781166791916,0.7704410552978516,8.481332959923429e-16,0.04767778515815735,0.7994522452354431,0.1566491276025772,0.17373430728912354
891.0,916.0,0.5647,-0.7496,9.5073,-0.0031,0.0087,0.0953,-1.7630325756468714,-0.1016794741153717,2.29866886138916,-1.8592476844787598,0.07849160581827164,2.103503704071045,5.007740723877706,-6.332120392471552e-05,0.19024956226348877,-1.53461200395693,0.00037797214463353157,0.025313567370176315,0.7704368829727173,2.360810174366023e-19,0.04591970890760422,0.800360918045044,0.14177995920181274,0.18245738744735718
891.0,916.0,0.5647,-0.7496,9.5073,-0.0031,0.0087,0.0953,-1.763461252252096,-0.10519419610500336,2.2743585109710693,-1.8589036464691162,0.0868421122431755,2.1029129028320312,5.007720219879904,-6.048408249625936e-05,0.179536834359169,-1.534623924885885,0.0003473569522611797,0.02976415306329727,0.7704288363456726,1.0064504018459806e-21,0.040989574044942856,0.8009458780288696,0.13278687000274658,0.12727749347686768
891.0,916.0,0.5647,-0.7496,9.5073,-0.0031,0.0087,0.0953,-1.7638741932311,-0.10853353142738342,2.278400421142578,-1.8586000204086304,0.08979097008705139,2.0809483528137207,5.007752585202017,-5.789033821201883e-05,0.18039114773273468,-1.5346081892596644,0.00040737082599662244,0.030511513352394104,0.7704890370368958,4.290655484264155e-24,0.0294022336602211,0.8014256358146667,0.12479142099618912,0.08866472542285919
891.0,916.0,0.5647,-0.7496,9.5073,-0.0031,0.0087,0.0953,-1.7645231686034144,-0.11247817426919937,2.3063371181488037,-1.8580198287963867,0.09315532445907593,2.0687367916107178,5.007736551552572,3.217914127162658e-05,0.17332038283348083,-1.5346158186541956,0.0003423604357521981,0.032005343586206436,0.7705008387565613,1.1943198104720623e-27,0.02085942029953003,0.802154541015625,0.11767499148845673,0.08455561846494675
904.0,907.0,0.9667,-0.0102,9.4899,-0.0252,-0.0073,0.0463,-1.7650042972960414,-0.11326548457145691,2.339766263961792,-1.8576231002807617,0.09259545058012009,2.1276612281799316,5.007756668120184,4.1192259232047945e-05,0.18320566415786743,-1.5345881620990198,0.00029712662217207253,0.02063257247209549,0.7704691886901855,5.091571966179921e-30,0.04396074265241623,0.8026227355003357,0.11585316807031631,0.06914287805557251
904.0,907.0,0.9667,-0.0102,9.4899,-0.0252,-0.0073,0.0463,-1.7654444179930628,-0.11464211344718933,2.290123224258423,-1.8572394847869873,0.09564866125583649,2.1276960372924805,5.0077406642730615,3.778409518417902e-05,0.19017282128334045,-1.5345996061908167,0.0003113009734079242,0.03249812871217728,0.7704971432685852,2.1706168811609692e-32,0.031119655817747116,0.8030307292938232,0.11525920778512955,0.09507440030574799
904.0,907.0,0.9667,-0.0102,9.4899,-0.0252,-0.0073,0.0463,-1.7658316097655238,-0.11548865586519241,2.2983343601226807,-1.8568834066390991,0.09648923575878143,2.1696345806121826,5.007728445320883,3.485707566142082e-05,0.17938707768917084,-1.5346201101886194,0.0002820150402840227,0.037861526012420654,0.7704614400863647,9.25367921846832e-35,0.030334338545799255,0.8034751415252686,0.11492820829153061,0.08500745892524719
904.0,907.0,0.9667,-0.0102,9.4899,-0.0252,-0.0073,0.0463,-1.766562124291891,-0.11790239810943604,2.332761526107788,-1.8562846183776855,0.10365374386310577,2.1207938194274902,5.0077567277248285,3.1228057196130976e-05,0.19950507581233978,-1.5345671812640589,0.0002830315788742155,0.03346486762166023,0.7704727649688721,2.575795370900198e-38,0.04179777950048447,0.8041433095932007,0.10802829265594482,0.05796781927347183
904.0,907.0,0.9667,-0.0102,9.4899,-0.0252,-0.0073,0.0463,-1.7670217953123988,-0.11846970021724701,2.3651227951049805,-1.8558555841445923,0.10878336429595947,2.091648817062378,5.007724392205038,2.9201370125520043e-05,0.1842910498380661,-1.5345638434039515,0.0002956147654913366,0.026781953871250153,0.7704128623008728,1.0980995155988564e-40,0.034794989973306656,0.8045641183853149,0.10056447237730026,0.047706522047519684
904.0,907.0,0.9667,-0.0102,9.4899,-0.0252,-0.0073,0.0463,-1.7675067387022914,-0.12203454226255417,2.3096606731414795,-1.8554162979125977,0.11339958012104034,2.1417112350463867,5.007704365044393,1.3967786799184978e-05,0.20342200994491577,-1.5345514456378382,0.0003164184745401144,0.03560453653335571,0.7704369425773621,4.680336870844889e-43,0.0339270681142807,0.8049401044845581,0.09450088441371918,0.058709077537059784
904.0,907.0,0.9667,-0.0102,9.4899,-0.0252,-0.0073,0.0463,-1.7682472668089808,-0.12916302680969238,2.310800313949585,-1.8546797037124634,0.12311401218175888,2.1317086219787598,5.007732379227438,3.887985045025744e-09,0.18456123769283295,-1.534600083027975,0.0003713344340212643,0.044765423983335495,0.7704773545265198,0.0,0.0370214581489563,0.805436372756958,0.0798715204000473,0.017446381971240044
904.0,907.0,0.9667,-0.0102,9.4899,-0.0252,-0.0073,0.0463,-1.768780370751852,-0.13452862203121185,2.3147242069244385,-1.8542572259902954,0.13047373294830322,2.144691228866577,5.007724392205038,1.6575090258652558e-11,0.18863679468631744,-1.5345724264727991,0.0008777797338552773,0.03315576910972595,0.7704768180847168,0.0,0.03354284539818764,0.805804967880249,0.07168418914079666,-0.06082359701395035
904.0,907.0,0.9667,-0.0102,9.4899,-0.0252,-0.0073,0.0463,-1.7693177662291468,-0.13588234782218933,2.309389352798462,-1.853660225868225,0.1369086354970932,2.1547980308532715,5.007732379227438,7.066220574164853e-14,0.1934860646724701,-1.5346081892596644,0.0007829882088117301,0.05013515055179596,0.7704927921295166,0.0,0.024075765162706375,0.8059961795806885,0.06337525695562363,-0.01305448543280363
904.0,907.0,0.9667,-0.0102,9.4899,-0.0252,-0.0073,0.0463,-1.7697888813414515,-0.13956589996814728,2.31014084815979,-1.8531136512756348,0.14296725392341614,2.1280529499053955,5.007711994438925,3.012440383778805e-16,0.17453551292419434,-1.53461200395693,0.0007160202949307859,0.054236892610788345,0.7704128623008728,0.0,0.03983559086918831,0.8063009977340698,0.05529716610908508,-0.02589488960802555
904.0,907.0,0.9667,-0.0102,9.4899,-0.0252,-0.0073,0.0463,-1.7706386051573695,-0.13915063440799713,2.3016183376312256,-1.8521682024002075,0.14285415410995483,2.187568426132202,5.007760274201193,8.385237790670586e-20,0.19147378206253052,-1.534600083027975,0.0005518919788300991,0.039858266711235046,0.7704774141311646,0.0,0.02903793752193451,0.8065648674964905,0.04578177258372307,-0.043150871992111206
904.0,907.0,0.9667,-0.0102,9.4899,-0.0252,-0.0073,0.0463,-1.7712246380248011,-0.137701615691185,2.3095040321350098,-1.8516604900360107,0.1467008888721466,2.161087989807129,5.007724272995748,3.574758406759824e-22,0.1799115091562271,-1.5345876852618616,0.00047848635585978627,0.047309596091508865,0.770488977432251,0.0,0.02973262220621109,0.8066926002502441,0.03812144696712494,-0.051638733595609665
904.0,907.0,0.9667,-0.0102,9.4899,-0.0252,-0.0073,0.0463,-1.7717486820616664,-0.14178013801574707,2.3346214294433594,-1.851040005683899,0.15264193713665009,2.1706488132476807,5.007768529444494,1.5239756322855714e-24,0.17268750071525574,-1.5345638434039515,0.00042232495616190135,0.05521409213542938,0.770488977432251,0.0,0.0323927141726017,0.8068291544914246,0.031707651913166046,-0.06336241215467453
904.0,907.0,0.9667,-0.0102,9.4899,-0.0252,-0.0073,0.0463,-1.7725569210448207,-0.1480795294046402,2.3171544075012207,-1.8500722646713257,0.16072897613048553,2.2052149772644043,5.007752555399694,0.00023930531460791826,0.16628527641296387,-1.534600083027975,0.00035910861333832145,0.04502458870410919,0.770488977432251,0.0,0.03492439538240433,0.8070212006568909,0.024693181738257408,-0.07497929781675339
904.0,907.0,0.9667,-0.0102,9.4899,-0.0252,-0.0073,0.0463,-1.773165842095846,-0.15516294538974762,2.2978403568267822,-1.8494685888290405,0.16611991822719574,2.1730449199676514,5.007744300156393,0.00019037481979466975,0.17530465126037598,-1.5345600287066858,0.0002915535296779126,0.039561621844768524,0.7704532146453857,0.0,0.0514349490404129,0.8070486187934875,0.019715020433068275,-0.1033143401145935
904.0,907.0,0.9667,-0.0102,9.4899,-0.0252,-0.0073,0.0463,-1.773806711236471,-0.15607906877994537,2.301903247833252,-1.8488186597824097,0.17342820763587952,2.23494553565979,5.007776754885473,0.00015710474690422416,0.1973089724779129,-1.5345919767962855,0.00022863791673444211,0.04109271243214607,0.770416796207428,0.0,0.029078694060444832,0.8071045279502869,0.015867967158555984,-0.05597749352455139
904.0,907.0,0.9667,-0.0102,9.4899,-0.0252,-0.0073,0.0463,-1.774447580377096,-0.15824216604232788,2.280585765838623,-1.8480751514434814,0.18009819090366364,2.244598150253296,5.007768142014303,0.00019935090676881373,0.1869353950023651,-1.5345795790301722,0.00020741214393638074,0.05052894353866577,0.7704288959503174,0.0,0.026749366894364357,0.807144820690155,0.012555255554616451,-0.09776546061038971
904.0,907.0,0.9667,-0.0102,9.4899,-0.0252,-0.0073,0.0463,-1.7754012546935023,-0.15816928446292877,2.3650033473968506,-1.8469207286834717,0.18343424797058105,2.2262518405914307,5.007744300156393,0.0001640229602344334,0.20519033074378967,-1.5345514456378382,0.00020914754713885486,0.051965318620204926,0.770473301410675,0.0,0.04301226884126663,0.8072328567504883,0.008173824287950993,-0.13290412724018097
904.0,907.0,0.9667,-0.0102,9.4899,-0.0252,-0.0073,0.0463,-1.776106973687643,-0.1612546592950821,2.3400261402130127,-1.8461699485778809,0.18723064661026,2.2341411113739014,5.007728296309271,0.0001932696031872183,0.1871114820241928,-1.534555737172262,0.0002022288244916126,0.05132978409528732,0.77046138048172,0.0,0.03598540276288986,0.807252824306488,0.006202234420925379,-0.13206876814365387
904.0,907.0,0.9667,-0.0102,9.4899,-0.0252,-0.0073,0.0463,-1.7767516575255335,-0.16466054320335388,2.356003761291504,-1.8454558849334717,0.19278037548065186,2.2012925148010254,5.007752138167181,0.0001303796307183802,0.19812050461769104,-1.534600083027975,0.00018817036470863968,0.052848055958747864,0.770473301410675,0.0,0.04889729619026184,0.8072607517242432,0.0046569728292524815,-0.1034725233912468
894.0,900.0,0.8207,-0.5324,9.6018,-0.093,0.027,-0.1078,-1.7777568302550257,-0.17719829082489014,2.298112392425537,-1.8441845178604126,0.1991259753704071,2.2236292362213135,5.007792609720983,5.8159905165666714e-05,0.19780805706977844,-1.5345752874957483,0.00019873477867804468,0.039217084646224976,0.7704930305480957,0.0,0.04314474016427994,0.8072524666786194,0.0020948643796145916,-0.10000485181808472
894.0,900.0,0.8207,-0.5324,9.6018,-0.093,0.027,-0.1078,-1.7785355053343714,-0.1877427101135254,2.276444911956787,-1.8434187173843384,0.20537279546260834,2.242650270462036,5.007752138167181,4.6032721002120525e-05,0.1920744776725769,-1.5345876852618616,0.00021013464720454067,0.042293839156627655,0.7704451084136963,0.0,0.03610963001847267,0.8073132038116455,0.0010834085987880826,-0.13845902681350708
894.0,900.0,0.8207,-0.5324,9.6018,-0.093,0.027,-0.1078,-1.7792917690672816,-0.19550907611846924,2.3288092613220215,-1.8425121307373047,0.21373383700847626,2.249056816101074,5.007800417929449,0.00011897156946361065,0.17833906412124634,-1.534555737172262,0.00024093923275358975,0.045616328716278076,0.7704651951789856,0.0,0.05267190560698509,0.8072366118431091,-0.00022870037355460227,-0.11397652328014374
894.0,900.0,0.8207,-0.5324,9.6018,-0.093,0.027,-0.1078,-1.7800728283324183,-0.1977277547121048,2.2909014225006104,-1.8416417837142944,0.2168213129043579,2.2610042095184326,5.007772373944082,0.00023117245291359723,0.1962551325559616,-1.5345600287066858,0.0002646701177582145,0.046465810388326645,0.7704451680183411,0.0,0.03547399118542671,0.807277262210846,-0.0028427098877727985,-0.160148024559021
894.0,900.0,0.8207,-0.5324,9.6018,-0.093,0.027,-0.1078,-1.7813111744322718,-0.1897159069776535,2.3449172973632812,-1.8403205871582031,0.2284218966960907,2.298405647277832,5.007820474892416,0.000994047150015831,0.20430634915828705,-1.5345476309405726,0.000672104477416724,0.05879978835582733,0.7704370021820068,0.0,0.04497646912932396,0.807261049747467,-0.003184060100466013,-0.13526496291160583
894.0,900.0,0.8207,-0.5324,9.6018,-0.093,0.027,-0.1078,-1.7821241817870082,-0.1894393265247345,2.379051923751831,-1.8394222259521484,0.23610815405845642,2.288525104522705,5.00777621844367,0.0018003890290856361,0.1900351643562317,-1.534555737172262,0.0008314429433085024,0.04885111376643181,0.7704814672470093,0.0,0.037666864693164825,0.8072047829627991,-0.00260318536311388,-0.1850249022245407
894.0,900.0,0.8207,-0.5324,9.6018,-0.093,0.027,-0.1078,-1.7829209766783656,-0.1957802027463913,2.3375868797302246,-1.8384358882904053,0.2408743053674698,2.2576889991760254,5.007768142014303,0.000862654356751591,0.2094176560640335,-1.5345724264727991,0.0011991765350103378,0.05763029307126999,0.7705130577087402,0.0,0.03992506489157677,0.8072250485420227,-0.0017715822905302048,-0.20639358460903168
894.0,900.0,0.8207,-0.5324,9.6018,-0.093,0.027,-0.1078,-1.784170766870016,-0.21637339890003204,2.3388683795928955,-1.8369301557540894,0.24323934316635132,2.2812812328338623,5.00777621844367,6.261850558075821e-07,0.19658800959587097,-1.5345037619220179,0.002300580497831106,0.05276784673333168,0.7704848647117615,0.0,0.04596131294965744,0.807180643081665,-0.0011982712894678116,-0.1753770411014557
894.0,900.0,0.8207,-0.5324,9.6018,-0.093,0.027,-0.1078,-1.785105367700094,-0.22803497314453125,2.33319354057312,-1.83591890335083,0.24551735818386078,2.2850520610809326,5.007720160275259,2.669525045462251e-09,0.1882849633693695,-1.5345600287066858,0.003353609936311841,0.051076456904411316,0.770473301410675,0.0,0.03997387737035751,0.8072369694709778,-0.0009338673553429544,-0.2161659300327301
894.0,900.0,0.8207,-0.5324,9.6018,-0.093,0.027,-0.1078,-1.7860104046263636,-0.23461554944515228,2.309732437133789,-1.8349055051803589,0.2523234784603119,2.310481071472168,5.007768142014303,0.00023469085863325745,0.20291562378406525,-1.5345161596881312,0.007894888520240784,0.07922759652137756,0.7704451680183411,0.0,0.03560797870159149,0.8072171807289124,-0.0008106661844067276,-0.2362537682056427
894.0,900.0,0.8207,-0.5324,9.6018,-0.093,0.027,-0.1078,-1.7869354687132777,-0.23135383427143097,2.361438512802124,-1.8339190483093262,0.2614659368991852,2.3188209533691406,5.007768142014303,0.0004105060361325741,0.19730395078659058,-1.534520451222555,0.012939083389937878,0.07505257427692413,0.7705090045928955,0.0,0.03865114599466324,0.8072168827056885,-0.0007441201596520841,-0.24992810189723969
894.0,900.0,0.8207,-0.5324,9.6018,-0.093,0.027,-0.1078,-1.788325925866598,-0.22411270439624786,2.402472734451294,-1.8322778940200806,0.2746945321559906,2.307034492492676,5.0078123090560815,0.00037738782702945173,0.19327190518379211,-1.534407917653219,0.009156023152172565,0.06994611024856567,0.770409107208252,0.0,0.049691349267959595,0.8072047829627991,-0.0006868005730211735,-0.2744103968143463
894.0,900.0,0.8207,-0.5324,9.6018,-0.093,0.027,-0.1078,-1.7892266712584437,-0.22853651642799377,2.3439078330993652,-1.8312642574310303,0.27700886130332947,2.3646891117095947,5.007739829808035,0.000190918508451432,0.21315085887908936,-1.5344002882586878,0.0034015998244285583,0.06643734872341156,0.7704727649688721,0.0,0.04246678575873375,0.8072047829627991,-0.0006454612012021244,-0.2320064902305603
894.0,900.0,0.8207,-0.5324,9.6018,-0.093,0.027,-0.1078,-1.7901884518065394,-0.2376740276813507,2.381397247314453,-1.8301011323928833,0.2800498902797699,2.3432488441467285,5.007784443884649,7.406463737424929e-06,0.19122213125228882,-1.5344002882586878,0.0009145755902864039,0.06512230634689331,0.7704328894615173,0.0,0.03151571750640869,0.8072130084037781,-0.000547336763702333,-0.28062087297439575
894.0,900.0,0.8207,-0.5324,9.6018,-0.093,0.027,-0.1078,-1.7916184864439906,-0.24689747393131256,2.3289875984191895,-1.8283593654632568,0.2874848246574402,2.350111484527588,5.0077561912830255,2.0616164331244136e-09,0.19090409576892853,-1.5343721548663538,0.0005413820617832243,0.057526975870132446,0.7704848647117615,0.0,0.0405188724398613,0.8072130084037781,-0.00039226890658028424,-0.22358448803424835
894.0,900.0,0.8207,-0.5324,9.6018,-0.093,0.027,-0.1078,-1.7926441631712855,-0.2500874698162079,2.4003114700317383,-1.8272593021392822,0.2943718433380127,2.3402204513549805,5.007788109570303,8.788994705632991e-12,0.1971030980348587,-1.5344165007220667,0.00041681199218146503,0.08412128686904907,0.7704967856407166,0.0,0.04148535802960396,0.8072328567504883,-0.00034700214746408165,-0.22736488282680511
894.0,900.0,0.8207,-0.5324,9.6018,-0.093,0.027,-0.1078,-1.7936011753477992,-0.25066885352134705,2.343080997467041,-1.8260130882263184,0.29895302653312683,2.3838632106781006,5.007759916573324,3.74688649518954e-14,0.19753701984882355,-1.5344045797931116,0.00033834174973890185,0.0727391168475151,0.7704207301139832,0.0,0.04789440333843231,0.8072250485420227,-0.0003125656221527606,-0.2832513749599457
894.0,900.0,0.8207,-0.5324,9.6018,-0.093,0.027,-0.1078,-1.794614931146139,-0.2575075924396515,2.340684175491333,-1.8248307704925537,0.3032803237438202,2.3449645042419434,5.007808226137914,1.597356569500331e-16,0.17354463040828705,-1.5343926588641565,0.00028475813451223075,0.07439664006233215,0.770477294921875,0.0,0.03353662043809891,0.8071931004524231,-0.0002843486436177045,-0.22665484249591827
894.0,900.0,0.8207,-0.5324,9.6018,-0.093,0.027,-0.1078,-1.7961732349791468,-0.26397645473480225,2.3770501613616943,-1.8229336738586426,0.31616851687431335,2.404534101486206,5.007792669325628,4.446299679568821e-20,0.18159973621368408,-1.5343721548663538,0.00023011415032669902,0.06129004806280136,0.7704611420631409,0.0,0.03127126395702362,0.8072088956832886,-0.0002504360454622656,-0.23836928606033325
894.0,900.0,0.8207,-0.5324,9.6018,-0.093,0.027,-0.1078,-1.7971998653807582,-0.26496002078056335,2.315000534057617,-1.821648120880127,0.32244712114334106,2.346162796020508,5.007792222290792,1.895527237211409e-22,0.18165698647499084,-1.534407917653219,0.0002040188992395997,0.07987204194068909,0.7704651951789856,0.0,0.034732066094875336,0.8072168231010437,-0.00023199092538561672,-0.24502795934677124
896.0,890.0,0.6951,-0.7232,9.6844,-0.0397,0.0638,-0.113,-1.7982241115965785,-0.2665318548679352,2.2887117862701416,-1.8204345703125,0.32536014914512634,2.365542411804199,5.0077721057231805,8.080930382674606e-25,0.1847330927848816,-1.5343721548663538,0.0001832419802667573,0.06010277941823006,0.7704930305480957,0.0,0.04633936285972595,0.8072369694709778,-0.00012562402116600424,-0.25638002157211304
896.0,890.0,0.6951,-0.7232,9.6844,-0.0397,0.0638,-0.113,-1.799838205377096,-0.2712307572364807,2.322143077850342,-1.8183541297912598,0.33759817481040955,2.448594093322754,5.007788139372625,8.966541645349935e-05,0.18168970942497253,-1.5343802610980433,0.0001589617459103465,0.07474145293235779,0.770504891872406,0.0,0.04027653485536575,0.807269275188446,-3.464840483502485e-05,-0.24467986822128296
896.0,890.0,0.6951,-0.7232,9.6844,-0.0397,0.0638,-0.113,-1.8009778461852015,-0.27457156777381897,2.32792329788208,-1.8170366287231445,0.34872788190841675,2.40777587890625,5.007800447731771,1.0852353625523392e-05,0.1918368935585022,-1.5344165007220667,0.00014606001786887646,0.07986840605735779,0.770476758480072,0.0,0.039243441075086594,0.8072530627250671,-5.275112968661233e-08,-0.22175785899162292
896.0,890.0,0.6951,-0.7232,9.6844,-0.0397,0.0638,-0.113,-1.8020502529540003,-0.2761746048927307,2.3343751430511475,-1.81565523147583,0.3489200472831726,2.425508499145508,5.007756221085348,4.626528848916678e-08,0.178245410323143,-1.5344083944903772,0.00013509546988643706,0.058012355118989944,0.7704532146453857,0.0,0.035336486995220184,0.8072168827056885,-9.49501501729122e-12,-0.24713759124279022
896.0,890.0,0.6951,-0.7232,9.6844,-0.0397,0.0638,-0.113,-1.8036915264525355,-0.28680264949798584,2.3138375282287598,-1.8134714365005493,0.35211634635925293,2.373128890991211,5.007760274201193,1.2878112638781136e-11,0.18654988706111908,-1.5343883673297327,0.00012142397463321686,0.06356075406074524,0.7704370617866516,0.0,0.034720152616500854,0.8072731494903564,-2.292934400957397e-17,-0.25949493050575256
896.0,890.0,0.6951,-0.7232,9.6844,-0.0397,0.0638,-0.113,-1.8049074612059535,-0.29571619629859924,2.292895793914795,-1.8120453357696533,0.3593499958515167,2.429929256439209,5.007824617415228,5.490142303450629e-14,0.18866083025932312,-1.534412686024801,0.00011374943278497085,0.07174475491046906,0.7704328894615173,0.0,0.02992059290409088,0.8072250485420227,-4.127200702668426e-21,-0.23232607543468475
896.0,890.0,0.6951,-0.7232,9.6844,-0.0397,0.0638,-0.113,-1.8061062298216761,-0.29712334275245667,2.3088722229003906,-1.810584545135498,0.36636126041412354,2.4040493965148926,5.007739829808035,2.3405338806494955e-16,0.17535826563835144,-1.534440819417135,8.204074401874095e-05,0.06904854625463486,0.7704846262931824,0.0,0.03252192586660385,0.8072530627250671,-7.428816050183328e-25,-0.2900199294090271
896.0,890.0,0.6951,-0.7232,9.6844,-0.0397,0.0638,-0.113,-1.807258745233053,-0.2964264452457428,2.295928478240967,-1.8090741634368896,0.37147441506385803,2.449831247329712,5.007780301361837,9.978062594316378e-19,0.2032404989004135,-1.5344083944903772,7.574645132990554e-05,0.05913058668375015,0.7704929709434509,0.0,0.04518531262874603,0.8072410225868225,-1.3371605214727978e-28,-0.19797371327877045
896.0,890.0,0.6951,-0.7232,9.6844,-0.0397,0.0638,-0.113,-1.8090864620604457,-0.3024018406867981,2.32729434967041,-1.8068190813064575,0.3809909522533417,2.449378728866577,5.007816511183538,2.777430057908787e-22,0.1910918951034546,-1.5343721548663538,6.98593576089479e-05,0.073012575507164,0.7704686522483826,0.0,0.03216823935508728,0.8072127103805542,-3.229085507184968e-34,-0.19854317605495453
896.0,890.0,0.6951,-0.7232,9.6844,-0.0397,0.0638,-0.113,-1.8103529415526332,-0.30841225385665894,2.3202311992645264,-1.8052849769592285,0.3875744938850403,2.440317153930664,5.007824557810583,1.1840620749359186e-24,0.17039388418197632,-1.5343883673297327,6.642199878115207e-05,0.06690502166748047,0.7704532146453857,0.0,0.038471970707178116,0.8072085976600647,-5.812240189558346e-38,-0.21631596982479095
896.0,890.0,0.6951,-0.7232,9.6844,-0.0397,0.0638,-0.113,-1.811573167840475,-0.31165769696235657,2.3475897312164307,-1.803740382194519,0.3932667672634125,2.4630913734436035,5.007792222290792,5.047841969381535e-27,0.17900964617729187,-1.5343883673297327,6.330716132652014e-05,0.06465760618448257,0.7704848051071167,0.0,0.0486704483628273,0.8072654604911804,-1.0462094334649084e-41,-0.2190098762512207
896.0,890.0,0.6951,-0.7232,9.6844,-0.0397,0.0638,-0.113,-1.8135282001891078,-0.3086216151714325,2.3585386276245117,-1.8013322353363037,0.4066440463066101,2.4680817127227783,5.007799941092291,1.4050854186960802e-30,0.18771114945411682,-1.5343840757953089,5.9146488638361916e-05,0.07164032757282257,0.770500898361206,0.0,0.04231426864862442,0.8072448968887329,-0.0,-0.1712086796760559
896.0,890.0,0.6951,-0.7232,9.6844,-0.0397,0.0638,-0.113,-1.8148380718626917,-0.31661590933799744,2.364619731903076,-1.7997188568115234,0.4145435392856598,2.4375863075256348,5.0078245280082605,5.990099541283567e-33,0.19469095766544342,-1.5343840757953089,5.6663815485080704e-05,0.06123457849025726,0.7704452276229858,0.0,0.04634132608771324,0.8072006702423096,0.00022789613285567611,-0.22020167112350464
896.0,890.0,0.6951,-0.7232,9.6844,-0.0397,0.0638,-0.113,-1.8161560497679652,-0.32928329706192017,2.3126933574676514,-1.7981101274490356,0.4208047688007355,2.5108413696289062,5.007747995644369,2.5536736594682185e-35,0.17522326111793518,-1.5344484488116663,5.438125299406238e-05,0.057124748826026917,0.7704691886901855,0.0,0.037157539278268814,0.8072651624679565,0.00020696507999673486,-0.16740982234477997
896.0,890.0,0.6951,-0.7232,9.6844,-0.0397,0.0638,-0.113,-1.8174973926939906,-0.33748990297317505,2.36325740814209,-1.796416997909546,0.42654040455818176,2.4739770889282227,5.00777621844367,1.0886711311153704e-37,0.19789722561836243,-1.5343926588641565,5.227542351349257e-05,0.08152644336223602,0.7704727649688721,0.0,0.04677180200815201,0.8072652220726013,0.00022589229047298431,-0.2334827333688736
896.0,890.0,0.6951,-0.7232,9.6844,-0.0397,0.0638,-0.113,-1.8195654354491175,-0.33749040961265564,2.376826763153076,-1.7937729358673096,0.42791053652763367,2.443080425262451,5.007772135525503,3.030307929102417e-41,0.18342900276184082,-1.5344203154193323,4.940568032907322e-05,0.05983315780758858,0.7704773545265198,0.0,0.050081778317689896,0.8072448968887329,0.0001682694855844602,-0.20861980319023132
896.0,890.0,0.6951,-0.7232,9.6844,-0.0397,0.0638,-0.113,-1.820946832696432,-0.3455445170402527,2.3730103969573975,-1.7920717000961304,0.4359303116798401,2.495737314224243,5.007788139372625,1.2891945871788317e-43,0.1828276813030243,-1.5344165007220667,4.766135316458531e-05,0.05874777212738991,0.7704328894615173,0.0,0.03261004388332367,0.8071764707565308,0.00015655870083719492,-0.21194970607757568
896.0,890.0,0.6951,-0.7232,9.6844,-0.0397,0.0638,-0.113,-1.8223053417601527,-0.353323757648468,2.3655707836151123,-1.790332555770874,0.4428656995296478,2.534994125366211,5.0077721057231805,0.0,0.1940613090991974,-1.5344002882586878,4.603606794262305e-05,0.05979860574007034,0.7704370617866516,0.0,0.03905635327100754,0.8072287440299988,0.00014637333515565842,-0.19804158806800842
896.0,890.0,0.6951,-0.7232,9.6844,-0.0397,0.0638,-0.113,-1.8244086704649867,-0.35332781076431274,2.2927541732788086,-1.7876249551773071,0.4500701129436493,2.5040335655212402,5.007816421776571,0.0,0.1917392909526825,-1.5343883673297327,4.379582969704643e-05,0.06104064732789993,0.7705129981040955,0.0,0.04463466256856918,0.8072328567504883,0.00010673121141735464,-0.17959347367286682
881.0,871.0,0.5695,-0.2315,9.9727,-0.0443,0.0921,-0.1245,-1.825787206689352,-0.35307157039642334,2.3236653804779053,-1.7858036756515503,0.45891904830932617,2.4954538345336914,5.007816242962637,0.0,0.18059003353118896,-1.5344484488116663,4.2419655073899776e-05,0.05793318152427673,0.7705211639404297,0.0,0.0432584285736084,0.8072044849395752,7.557940989499912e-05,-0.17643100023269653
881.0,871.0,0.5695,-0.2315,9.9727,-0.0443,0.0921,-0.1245,-1.827200552026266,-0.35524919629096985,2.4159951210021973,-1.784042477607727,0.4570811688899994,2.5180864334106445,5.007800477534094,0.0,0.18457099795341492,-1.5343683401690882,4.1127375880023465e-05,0.06451230496168137,0.7704532146453857,0.0,0.03212326392531395,0.8072088956832886,-0.00013118205242790282,-0.19701853394508362
881.0,871.0,0.5695,-0.2315,9.9727,-0.0443,0.0921,-0.1245,-1.8286000690855921,-0.3546162247657776,2.375030517578125,-1.7821885347366333,0.4592474699020386,2.513962745666504,5.00777621844367,0.0,0.1794334203004837,-1.5344083944903772,3.991148332715966e-05,0.060270313173532486,0.7704691290855408,0.0,0.044102445244789124,0.8072168231010437,-0.00016529299318790436,-0.1901095062494278
