ramyac6/ROB537/final_project/csv/all/bad_150.csv
tof_0,tof_1,accelx,accely,accelz,gyrox,gyroy,gyroz,shoulder_lift_joint_position,shoulder_lift_joint_velocity,shoulder_lift_joint_effort,elbow_joint_position,elbow_joint_velocity,elbow_joint_effort,wrist_1_joint_position,wrist_1_joint_velocity,wrist_1_joint_effort,wrist_2_joint_position,wrist_2_joint_velocity,wrist_2_joint_effort,wrist_3_joint_position,wrist_3_joint_velocity,wrist_3_joint_effort,shoulder_pan_joint_position,shoulder_pan_joint_velocity,shoulder_pan_joint_effort
389.0,416.0,0.2835,0.259,9.5264,-0.035,0.0212,-0.129,-1.654623647729391,0.0,2.362027883529663,-1.940100908279419,-0.0,1.9769129753112793,5.021943706064977,-0.0,0.2842769920825958,-1.5971620718585413,-0.0,-0.003812093287706375,0.7493104934692383,-0.0,0.00017458666115999222,0.7944750785827637,0.0,-0.04801461473107338
389.0,416.0,0.2835,0.259,9.5264,-0.035,0.0212,-0.129,-1.6546155414977015,0.0,2.314892530441284,-1.9400696754455566,-0.0,1.9730017185211182,5.021883564978399,-0.0,0.2736397683620453,-1.5971339384662073,-0.0,-0.008562919683754444,0.7492740750312805,-0.0,-0.004762986674904823,0.7944425344467163,0.0,0.030569210648536682
389.0,416.0,0.2835,0.259,9.5264,-0.035,0.0212,-0.129,-1.6546193561949671,0.0,2.3714327812194824,-1.9400737285614014,-0.0,1.9948647022247314,5.021951514273443,-0.0,0.2774196267127991,-1.5971382300006312,-0.0,-0.016890261322259903,0.7492982745170593,-0.0,0.0027152348775416613,0.7944750785827637,0.0,-0.03526196628808975
389.0,416.0,0.2835,0.259,9.5264,-0.035,0.0212,-0.129,-1.6546393833556117,0.0,2.3949406147003174,-1.9401367902755737,-0.0,1.9548990726470947,5.021943706064977,-0.0,0.2819468677043915,-1.5971382300006312,-0.0,-0.007746228948235512,0.7492941617965698,-0.0,-0.00718506146222353,0.7944709658622742,0.0,0.026173744350671768
389.0,416.0,0.2835,0.259,9.5264,-0.035,0.0212,-0.129,-1.6545874081053675,0.0,2.363107204437256,-1.9400691986083984,-0.0,2.011244297027588,5.02200015166358,-0.0,0.29018616676330566,-1.5971053282367151,-0.0,-0.0039147729985415936,0.7493146657943726,-0.0,-0.010898642241954803,0.794446587562561,0.0,0.004139609634876251
389.0,416.0,0.2835,0.259,9.5264,-0.035,0.0212,-0.129,-1.6545831165709437,0.0,2.365049362182617,-1.9401214122772217,-0.0,1.979076862335205,5.021971601038732,-0.0,0.2883169651031494,-1.5970853010760706,-0.0,-0.00865035131573677,0.7492983341217041,-0.0,0.007949087768793106,0.7944791316986084,0.0,0.03360037878155708
389.0,416.0,0.2835,0.259,9.5264,-0.035,0.0212,-0.129,-1.6545950374998988,0.0,2.349959373474121,-1.940124750137329,-0.0,1.9972102642059326,5.021911549359121,-0.0,0.28815242648124695,-1.5971620718585413,-0.0,-0.023958643898367882,0.7493306398391724,-0.0,-0.006326810922473669,0.7944951057434082,0.0,-0.029173867776989937
389.0,416.0,0.2835,0.259,9.5264,-0.035,0.0212,-0.129,-1.6546036205687464,0.0,2.378260374069214,-1.940100908279419,-0.0,2.0228817462921143,5.02193562963561,-0.0,0.27748817205429077,-1.5971501509295862,-0.0,-0.017712339758872986,0.7493268847465515,-0.0,-0.007198022678494453,0.7944951057434082,0.0,0.014293682761490345
403.0,425.0,0.2973,0.2686,9.7316,-0.0389,0.0263,-0.1228,-1.6546036205687464,0.0,2.3435425758361816,-1.9401214122772217,-0.0,2.0133719444274902,5.021911549359121,-0.0,0.2887948155403137,-1.597109619771139,-0.0,-0.005403163842856884,0.7493146657943726,-0.0,-0.006751633249223232,0.794503390789032,0.0,0.009867181070148945
403.0,425.0,0.2973,0.2686,9.7316,-0.0389,0.0263,-0.1228,-1.6546112499632777,0.0,2.3726491928100586,-1.9401253461837769,-0.0,1.9876341819763184,5.021951544075765,-0.0,0.2851935029029846,-1.5971301237689417,-0.0,-0.006705929059535265,0.7493224143981934,-0.0,0.005124280229210854,0.7944948673248291,0.0,0.06069079041481018
403.0,425.0,0.2973,0.2686,9.7316,-0.0389,0.0263,-0.1228,-1.6545874081053675,0.0,2.354624032974243,-1.9400767087936401,-0.0,2.0009243488311768,5.021919715195455,-0.0,0.2727123498916626,-1.5971296469317835,-0.0,-0.008982032537460327,0.7493544220924377,-0.0,-0.002832279074937105,0.7944833040237427,0.0,-0.016657648608088493
403.0,425.0,0.2973,0.2686,9.7316,-0.0389,0.0263,-0.1228,-1.6545950374998988,0.0,2.380742073059082,-1.9400618076324463,-0.0,1.9841701984405518,5.021951573878088,-0.0,0.28921088576316833,-1.5971339384662073,-0.0,-0.01845535635948181,0.7492701411247253,-0.0,-0.006551473401486874,0.7944505214691162,0.0,0.026961063966155052
403.0,425.0,0.2973,0.2686,9.7316,-0.0389,0.0263,-0.1228,-1.654635568658346,0.0,2.3809077739715576,-1.9400845766067505,-0.0,1.9920244216918945,5.021943706064977,-0.0,0.2967810034751892,-1.5971339384662073,-0.0,-0.0004366415087133646,0.7492701411247253,-0.0,0.0015817529056221247,0.7945272922515869,0.0,-0.029337508603930473
403.0,425.0,0.2973,0.2686,9.7316,-0.0389,0.0263,-0.1228,-1.6546474895873011,0.0,2.3450653553009033,-1.9400811195373535,-0.0,1.9805021286010742,5.021891492396154,-0.0,0.29304537177085876,-1.5970972220050257,-0.0,-0.011478764936327934,0.7492659091949463,-0.0,0.003480373416095972,0.7945072054862976,0.0,-0.018920887261629105
403.0,425.0,0.2973,0.2686,9.7316,-0.0389,0.0263,-0.1228,-1.654579301873678,0.0,2.3272900581359863,-1.9400845766067505,-0.0,2.023031711578369,5.02193562963561,-0.0,0.2922106087207794,-1.5971177260028284,-0.0,-0.01055171713232994,0.7493380308151245,-0.0,-0.0013312603114172816,0.7944466471672058,0.0,0.02686621993780136
403.0,425.0,0.2973,0.2686,9.7316,-0.0389,0.0263,-0.1228,-1.654579301873678,0.0,2.3881616592407227,-1.9400925636291504,-0.0,2.0068554878234863,5.021923798113622,-0.0,0.29165393114089966,-1.5971458593951624,-0.0,-0.013954069465398788,0.7492581605911255,-0.0,-0.00475980993360281,0.7944910526275635,0.0,-0.01040321309119463
403.0,425.0,0.2973,0.2686,9.7316,-0.0389,0.0263,-0.1228,-1.6545993290343226,0.0,2.379725933074951,-1.9400652647018433,-0.0,1.9756455421447754,5.021915721684255,-0.0,0.2795453667640686,-1.5970972220050257,-0.0,-0.012284434400498867,0.7492741346359253,-0.0,0.0029918975196778774,0.7944910526275635,0.0,0.009766239672899246
403.0,425.0,0.2973,0.2686,9.7316,-0.0389,0.0263,-0.1228,-1.6545874081053675,0.0,2.313758611679077,-1.940157175064087,-0.0,2.049590587615967,5.021879571467199,-0.0,0.2881278097629547,-1.597065273915426,-0.0,-0.00590243237093091,0.7492983341217041,-0.0,-0.0008220965974032879,0.7944874167442322,0.0,-0.03577407822012901
403.0,425.0,0.2973,0.2686,9.7316,-0.0389,0.0263,-0.1228,-1.654618879357809,0.0,2.3478198051452637,-1.9400845766067505,-0.0,2.025388717651367,5.0218995092208765,-0.0,0.29215675592422485,-1.5971420446978968,-0.0,0.0023874230682849884,0.7492667436599731,-0.0,0.001153439749032259,0.7944874167442322,0.0,0.017335912212729454
403.0,425.0,0.2973,0.2686,9.7316,-0.0389,0.0263,-0.1228,-1.6546031437315882,0.0,2.3319318294525146,-1.9401253461837769,-0.0,2.008087396621704,5.0219596205051324,-0.0,0.28275513648986816,-1.5971177260028284,-0.0,-0.012475193478167057,0.7493065595626831,-0.0,-0.0008763475343585014,0.7944668531417847,0.0,0.030235644429922104
403.0,425.0,0.2973,0.2686,9.7316,-0.0389,0.0263,-0.1228,-1.6546274624266566,0.0,2.368793487548828,-1.9400657415390015,-0.0,2.0043134689331055,5.021951693087377,-0.0,0.28500619530677795,-1.597109619771139,-0.0,-0.0014323999639600515,0.74927818775177,-0.0,0.0020821129437536,0.7944833040237427,0.0,-0.009408805519342422
403.0,425.0,0.2973,0.2686,9.7316,-0.0389,0.0263,-0.1228,-1.6545349560179652,0.0,2.3517346382141113,-1.9401049613952637,-0.0,1.9871482849121094,5.021911728173055,-0.0,0.29087746143341064,-1.5971701780902308,-0.0,-0.0005216221325099468,0.7493187189102173,-0.0,-0.013300564140081406,0.7944587469100952,0.0,0.013373119756579399
403.0,425.0,0.2973,0.2686,9.7316,-0.0389,0.0263,-0.1228,-1.6545912228026332,0.0,2.2873942852020264,-1.940117359161377,-0.0,2.017082452774048,5.021891641407766,-0.0,0.2873550057411194,-1.5971339384662073,-0.0,-0.016648396849632263,0.749342143535614,-0.0,-0.008364175446331501,0.7945072054862976,0.0,-0.04959171637892723
404.0,424.0,0.2536,0.3476,9.4122,-0.0296,0.0214,-0.1168,-1.654635568658346,0.0,2.360584259033203,-1.940140724182129,-0.0,2.0139176845550537,5.0219397125537775,-0.0,0.29173707962036133,-1.5971620718585413,-0.0,-0.007757461629807949,0.7492380738258362,-0.0,0.003582082688808441,0.7944951057434082,0.0,0.007662918418645859
404.0,424.0,0.2536,0.3476,9.4122,-0.0296,0.0214,-0.1168,-1.6545950374998988,0.0,2.367856025695801,-1.9400845766067505,-0.0,1.9875781536102295,5.021911728173055,-0.0,0.2854311466217041,-1.5971339384662073,-0.0,-0.00852398481220007,0.7493023872375488,-0.0,-0.0054128761403262615,0.7944910526275635,0.0,-0.028536098077893257
404.0,424.0,0.2536,0.3476,9.4122,-0.0296,0.0214,-0.1168,-1.6546069584288539,0.0,2.3303685188293457,-1.9400532245635986,-0.0,1.988060474395752,5.021919685393133,-0.0,0.2864925265312195,-1.5971382300006312,-0.0,-0.013233217410743237,0.7493064403533936,-0.0,0.006979765370488167,0.7944467067718506,0.0,-0.020971179008483887
404.0,424.0,0.2536,0.3476,9.4122,-0.0296,0.0214,-0.1168,-1.654611726800436,0.0,2.395073175430298,-1.9401332139968872,-0.0,1.9900290966033936,5.0219277618225,-0.0,0.2830350995063782,-1.597161595021383,-0.0,-0.00648910365998745,0.7493146657943726,-0.0,-0.01274063903838396,0.7944910526275635,0.0,0.002775633241981268
404.0,424.0,0.2536,0.3476,9.4122,-0.0296,0.0214,-0.1168,-1.6546036205687464,0.0,2.3644213676452637,-1.9400925636291504,-0.0,2.0131146907806396,5.021903472929754,-0.0,0.28064876794815063,-1.5971382300006312,-0.0,-0.010626079514622688,0.7492983341217041,-0.0,-0.0029461351223289967,0.7945355772972107,0.0,0.046007901430130005
404.0,424.0,0.2536,0.3476,9.4122,-0.0296,0.0214,-0.1168,-1.654595514337057,0.0,2.329951047897339,-1.9401134252548218,-0.0,2.046865463256836,5.0219276426132105,-0.0,0.28801947832107544,-1.5971339384662073,-0.0,-0.008059501647949219,0.7492625713348389,-0.0,0.0012569996761158109,0.7945432066917419,0.0,0.0032711937092244625
404.0,424.0,0.2536,0.3476,9.4122,-0.0296,0.0214,-0.1168,-1.6546193561949671,0.0,2.3924031257629395,-1.940117359161377,-0.0,1.949974536895752,5.021903472929754,-0.0,0.2936866879463196,-1.5971177260028284,-0.0,-0.017244858667254448,0.7493626475334167,-0.0,-0.006621071137487888,0.7944669127464294,0.0,-0.007075445260852575
404.0,424.0,0.2536,0.3476,9.4122,-0.0296,0.0214,-0.1168,-1.654583593408102,0.0,2.386993646621704,-1.9400696754455566,-0.0,1.9667229652404785,5.021875577955999,-0.0,0.2994353473186493,-1.5971577803241175,-0.0,-0.002475758781656623,0.7492941617965698,-0.0,-0.006866339594125748,0.7944873571395874,0.0,0.0327327735722065
404.0,424.0,0.2536,0.3476,9.4122,-0.0296,0.0214,-0.1168,-1.6545912228026332,0.0,2.367617130279541,-1.9400612115859985,-0.0,2.0197410583496094,5.021883594780721,-0.0,0.28630349040031433,-1.5971053282367151,-0.0,-0.010370686650276184,0.749286413192749,-0.0,0.0037486867513507605,0.794486939907074,0.0,0.04738748073577881
404.0,424.0,0.2536,0.3476,9.4122,-0.0296,0.0214,-0.1168,-1.6546350918211878,0.0,2.348116159439087,-1.9400618076324463,-0.0,2.0051066875457764,5.021863508015432,-0.0,0.28454500436782837,-1.5971301237689417,-0.0,-0.018865734338760376,0.7493105530738831,-0.0,-0.0024075875990092754,0.7944628000259399,0.0,0.017166132107377052
404.0,424.0,0.2536,0.3476,9.4122,-0.0296,0.0214,-0.1168,-1.6545916996397914,0.0,2.3849098682403564,-1.9400845766067505,-0.0,1.9739091396331787,5.021907704859533,-0.0,0.28167587518692017,-1.5971296469317835,-0.0,-0.0040691327303647995,0.7492901086807251,-0.0,0.002384740859270096,0.7944990396499634,0.0,-0.03984592482447624
404.0,424.0,0.2536,0.3476,9.4122,-0.0296,0.0214,-0.1168,-1.6545750103392542,0.0,2.348518133163452,-1.940117359161377,-0.0,2.0040810108184814,5.021907555847921,-0.0,0.29411405324935913,-1.5971220175372522,-0.0,-0.004385744221508503,0.7492823600769043,-0.0,-0.013675019145011902,0.7944951057434082,0.0,0.0017614210955798626
404.0,424.0,0.2536,0.3476,9.4122,-0.0296,0.0214,-0.1168,-1.6546069584288539,0.0,2.382819175720215,-1.9401531219482422,-0.0,2.0017457008361816,5.02193562963561,-0.0,0.2909252345561981,-1.5971458593951624,-0.0,-0.007535765878856182,0.7492861151695251,-0.0,-0.0016537276096642017,0.7944545745849609,0.0,0.001261481549590826
404.0,424.0,0.2536,0.3476,9.4122,-0.0296,0.0214,-0.1168,-1.6546155414977015,0.0,2.3980278968811035,-1.9401650428771973,-0.0,1.9760034084320068,5.021899449616232,-0.0,0.2863715887069702,-1.5971501509295862,-0.0,-0.00968807190656662,0.749342143535614,-0.0,-0.008797608315944672,0.7944949269294739,0.0,0.024296307936310768
407.0,413.0,0.2207,0.2596,9.6455,-0.0373,0.0179,-0.1095,-1.654579301873678,0.0,2.386592388153076,-1.9400964975357056,-0.0,1.9804668426513672,5.021907526045599,-0.0,0.2903403341770172,-1.5971339384662073,-0.0,-0.00656448770314455,0.7492901086807251,-0.0,0.008287167176604271,0.7945231795310974,0.0,0.04137221723794937
407.0,413.0,0.2207,0.2596,9.6455,-0.0373,0.0179,-0.1095,-1.6545750103392542,0.0,2.3602709770202637,-1.9400925636291504,-0.0,2.007824182510376,5.021923798113622,-0.0,0.2955740690231323,-1.5971382300006312,-0.0,-0.001255070441402495,0.7492983341217041,-0.0,0.011583772487938404,0.7945074439048767,0.0,0.00693883839994669
407.0,413.0,0.2207,0.2596,9.6455,-0.0373,0.0179,-0.1095,-1.6545874081053675,0.0,2.404345989227295,-1.940100908279419,-0.0,1.9961400032043457,5.0219594714935205,-0.0,0.29101768136024475,-1.5971501509295862,-0.0,0.012872641906142235,0.7492983341217041,-0.0,-0.0068595330230891705,0.7944669723510742,0.0,0.0012711593881249428
407.0,413.0,0.2207,0.2596,9.6455,-0.0373,0.0179,-0.1095,-1.6545711956419886,0.0,2.337104082107544,-1.9400845766067505,-0.0,1.995120882987976,5.021943706064977,-0.0,0.28932473063468933,-1.5971139113055628,-0.0,-0.0014046060387045145,0.7493380904197693,-0.0,0.0030639555770903826,0.7944750189781189,0.0,-0.022583389654755592
407.0,413.0,0.2207,0.2596,9.6455,-0.0373,0.0179,-0.1095,-1.6545912228026332,0.0,2.3416731357574463,-1.9401134252548218,-0.0,1.9801862239837646,5.02185948470191,-0.0,0.28877419233322144,-1.5971296469317835,-0.0,-0.0016612343024462461,0.7493504285812378,-0.0,0.008907143026590347,0.7944628000259399,0.0,0.04778401553630829
407.0,413.0,0.2207,0.2596,9.6455,-0.0373,0.0179,-0.1095,-1.6545950374998988,0.0,2.392300605773926,-1.940041422843933,-0.0,2.0296733379364014,5.02185948470191,-0.0,0.281072735786438,-1.5971220175372522,-0.0,-0.007634444162249565,0.7493388056755066,-0.0,0.002995116636157036,0.7945030927658081,0.0,-0.01555229164659977
407.0,413.0,0.2207,0.2596,9.6455,-0.0373,0.0179,-0.1095,-1.6546193561949671,0.0,2.3193070888519287,-1.9401253461837769,-0.0,2.0044736862182617,5.0219395635421655,-0.0,0.29414477944374084,-1.5971296469317835,-0.0,-0.01567404717206955,0.7493104934692383,-0.0,-0.003622515592724085,0.7944586873054504,0.0,0.014708677306771278
407.0,413.0,0.2207,0.2596,9.6455,-0.0373,0.0179,-0.1095,-1.654567380944723,0.0,2.3944876194000244,-1.940172553062439,-0.0,1.9753025770187378,5.0218995092208765,-0.0,0.29214978218078613,-1.5971258322345179,-0.0,0.0023283096961677074,0.7493063807487488,-0.0,-0.010397273115813732,0.794486939907074,0.0,-0.05777004733681679
407.0,413.0,0.2207,0.2596,9.6455,-0.0373,0.0179,-0.1095,-1.6546155414977015,0.0,2.3816723823547363,-1.9401004314422607,-0.0,2.0540482997894287,5.02195959070281,-0.0,0.28955817222595215,-1.5971339384662073,-0.0,-0.008008452132344246,0.7492577433586121,-0.0,0.0033941445872187614,0.7945030927658081,0.0,-0.0016366314375773072
407.0,413.0,0.2207,0.2596,9.6455,-0.0373,0.0179,-0.1095,-1.654579301873678,0.0,2.366729736328125,-1.9401094913482666,-0.0,1.9747459888458252,5.021895485907354,-0.0,0.27816545963287354,-1.5971053282367151,-0.0,-0.019506167620420456,0.749201774597168,-0.0,-0.003617484588176012,0.7945435047149658,0.0,-0.012818207032978535
407.0,413.0,0.2207,0.2596,9.6455,-0.0373,0.0179,-0.1095,-1.6546269855894984,0.0,2.3218088150024414,-1.9400497674942017,-0.0,2.0097098350524902,5.021899479418554,-0.0,0.28454819321632385,-1.5971382300006312,-0.0,-0.0007306273328140378,0.7493143677711487,-0.0,0.009831517934799194,0.794486939907074,0.0,-0.04749470576643944
407.0,413.0,0.2207,0.2596,9.6455,-0.0373,0.0179,-0.1095,-1.6546312771239222,0.0,2.3605782985687256,-1.9400845766067505,-0.0,1.9944735765457153,5.0219075856502435,-0.0,0.28028571605682373,-1.5971501509295862,-0.0,-0.00732147553935647,0.7493584752082825,-0.0,0.0019140562508255243,0.7944628000259399,0.0,0.006911674048751593
407.0,413.0,0.2207,0.2596,9.6455,-0.0373,0.0179,-0.1095,-1.6546112499632777,0.0,2.343773365020752,-1.9400845766067505,-0.0,1.9588096141815186,5.021899479418554,-0.0,0.290391743183136,-1.5971501509295862,-0.0,-0.005723022390156984,0.7492983341217041,-0.0,0.0012225243262946606,0.7944874167442322,0.0,0.03164314106106758
407.0,413.0,0.2207,0.2596,9.6455,-0.0373,0.0179,-0.1095,-1.6545993290343226,0.0,2.3485610485076904,-1.940100908279419,-0.0,1.9995708465576172,5.0219196555908105,-0.0,0.2831585109233856,-1.5971339384662073,-0.0,0.0005019855452701449,0.7493585348129272,-0.0,0.01810099184513092,0.7944874167442322,0.0,-0.044161297380924225
407.0,413.0,0.2207,0.2596,9.6455,-0.0373,0.0179,-0.1095,-1.6545831165709437,0.0,2.3602492809295654,-1.940109372138977,-0.0,2.014671802520752,5.021883564978399,-0.0,0.2829655408859253,-1.5971339384662073,-0.0,-0.015578587539494038,0.7493104338645935,-0.0,-0.0003290507011115551,0.7944750189781189,0.0,-0.010583215393126011
392.0,411.0,0.268,0.2949,9.6891,-0.0348,0.0263,-0.1237,-1.6545750103392542,0.0,2.327843189239502,-1.9400886297225952,-0.0,1.9938113689422607,5.0218995092208765,-0.0,0.29005470871925354,-1.5971415678607386,-0.0,0.00012539466843008995,0.7492861151695251,-0.0,-0.0072354963049292564,0.7944709658622742,0.0,-0.012989859096705914
392.0,411.0,0.268,0.2949,9.6891,-0.0348,0.0263,-0.1237,-1.6546231708922328,0.0,2.39347505569458,-1.940137267112732,-0.0,2.0423576831817627,5.02193562963561,-0.0,0.27722954750061035,-1.5971539656268519,-0.0,-0.00654938630759716,0.7493023872375488,-0.0,0.0011459586676210165,0.7945678234100342,0.0,0.0075865318067371845
392.0,411.0,0.268,0.2949,9.6891,-0.0348,0.0263,-0.1237,-1.6546112499632777,0.0,2.344970464706421,-1.9401049613952637,-0.0,2.0116782188415527,5.021915721684255,-0.0,0.2947695255279541,-1.5971296469317835,-0.0,-0.002545128343626857,0.7493146657943726,-0.0,0.007409208919852972,0.7945072054862976,0.0,-0.013156885281205177
392.0,411.0,0.268,0.2949,9.6891,-0.0348,0.0263,-0.1237,-1.654607435266012,0.0,2.348088026046753,-1.9400806427001953,-0.0,1.9900134801864624,5.021907555847921,-0.0,0.2862655520439148,-1.5971458593951624,-0.0,0.0034948172979056835,0.7492701411247253,-0.0,-0.0035959244705736637,0.7944628000259399,0.0,0.031163882464170456
392.0,411.0,0.268,0.2949,9.6891,-0.0348,0.0263,-0.1237,-1.6545831165709437,0.0,2.37138032913208,-1.940140724182129,-0.0,2.0136518478393555,5.021915721684255,-0.0,0.2810598313808441,-1.5971339384662073,-0.0,0.0010776030831038952,0.7492941617965698,-0.0,-0.00855756364762783,0.7945072054862976,0.0,0.023895995691418648
392.0,411.0,0.268,0.2949,9.6891,-0.0348,0.0263,-0.1237,-1.6545874081053675,0.0,2.3632452487945557,-1.940140724182129,-0.0,2.0032529830932617,5.021923619299688,-0.0,0.29828938841819763,-1.5971296469317835,-0.0,-0.0046240598894655704,0.7493184208869934,-0.0,0.008260110393166542,0.7945072054862976,0.0,0.008064488880336285
392.0,411.0,0.268,0.2949,9.6891,-0.0348,0.0263,-0.1237,-1.6545592747130335,0.0,2.303260326385498,-1.9400886297225952,-0.0,1.9950642585754395,5.0219435570533655,-0.0,0.28649064898490906,-1.5971139113055628,-0.0,-0.009064994752407074,0.7492983341217041,-0.0,-0.0017141127027571201,0.794486939907074,0.0,0.03317948058247566
392.0,411.0,0.268,0.2949,9.6891,-0.0348,0.0263,-0.1237,-1.654635568658346,0.0,2.3395564556121826,-1.9401004314422607,-0.0,2.036048650741577,5.021911549359121,-0.0,0.2807046175003052,-1.5971339384662073,-0.0,-0.0030512274242937565,0.7493340969085693,-0.0,-0.009942539036273956,0.794486939907074,0.0,0.012024085968732834
392.0,411.0,0.268,0.2949,9.6891,-0.0348,0.0263,-0.1237,-1.6546193561949671,0.0,2.3704020977020264,-1.940112829208374,-0.0,1.9478389024734497,5.021927791624822,-0.0,0.29465335607528687,-1.597109619771139,-0.0,0.0011272192932665348,0.749342143535614,-0.0,-0.0051114545203745365,0.7944628000259399,0.0,-0.023527072742581367
392.0,411.0,0.268,0.2949,9.6891,-0.0348,0.0263,-0.1237,-1.6546155414977015,0.0,2.3222556114196777,-1.9400732517242432,-0.0,1.983903169631958,5.021907704859533,-0.0,0.2924208343029022,-1.5971382300006312,-0.0,-0.006894078105688095,0.7492741346359253,-0.0,-0.00691330898553133,0.7944628000259399,0.0,-0.01822746731340885
392.0,411.0,0.268,0.2949,9.6891,-0.0348,0.0263,-0.1237,-1.6545750103392542,0.0,2.3488965034484863,-1.940140724182129,-0.0,2.018855094909668,5.021907526045599,-0.0,0.2825995981693268,-1.5971296469317835,-0.0,0.00407184986397624,0.7492660284042358,-0.0,-0.006646658293902874,0.7944628596305847,0.0,0.014869834296405315
392.0,411.0,0.268,0.2949,9.6891,-0.0348,0.0263,-0.1237,-1.6546036205687464,0.0,2.3622074127197266,-1.9401367902755737,-0.0,2.010281801223755,5.02185537198142,-0.0,0.28925907611846924,-1.5971296469317835,-0.0,-0.009183459915220737,0.749286413192749,-0.0,-0.01638728752732277,0.7944910526275635,0.0,-0.012303899973630905
392.0,411.0,0.268,0.2949,9.6891,-0.0348,0.0263,-0.1237,-1.6545750103392542,0.0,2.362257242202759,-1.9400886297225952,-0.0,1.9654905796051025,5.02193562963561,-0.0,0.27459442615509033,-1.5970972220050257,-0.0,0.0030638633761554956,0.7492941617965698,-0.0,-0.0023656217381358147,0.7944587469100952,0.0,0.024427130818367004
392.0,411.0,0.268,0.2949,9.6891,-0.0348,0.0263,-0.1237,-1.6545630894102992,0.0,2.329573154449463,-1.9400845766067505,-0.0,2.0120999813079834,5.021895485907354,-0.0,0.29780614376068115,-1.5971539656268519,-0.0,0.009787457063794136,0.7493146657943726,-0.0,0.007796918042004108,0.7944302558898926,0.0,-0.02761116996407509
392.0,411.0,0.268,0.2949,9.6891,-0.0348,0.0263,-0.1237,-1.6545874081053675,0.0,2.3537583351135254,-1.9400771856307983,-0.0,2.0215325355529785,5.021943765669622,-0.0,0.289879709482193,-1.597109619771139,-0.0,-0.028592314571142197,0.7492901086807251,-0.0,-0.0027367763686925173,0.7945433855056763,0.0,0.0006015314720571041
397.0,412.0,0.2883,0.3069,9.4606,-0.0363,0.016,-0.1101,-1.6546112499632777,0.0,2.3654065132141113,-1.940117359161377,-0.0,1.9692740440368652,5.021875488549032,-0.0,0.2848995625972748,-1.5971539656268519,-0.0,0.0051894038915634155,0.7492861151695251,-0.0,-0.005684633739292622,0.7944992780685425,0.0,0.010022279806435108
397.0,412.0,0.2883,0.3069,9.4606,-0.0363,0.016,-0.1101,-1.6545912228026332,0.0,2.3390321731567383,-1.940112829208374,-0.0,2.016571044921875,5.021947580366888,-0.0,0.28996267914772034,-1.5971339384662073,-0.0,-0.0074358852580189705,0.7493306398391724,-0.0,-0.011905094608664513,0.7945195436477661,0.0,0.012947681359946728
397.0,412.0,0.2883,0.3069,9.4606,-0.0363,0.016,-0.1101,-1.6546193561949671,0.0,2.3339366912841797,-1.9401253461837769,-0.0,1.9933143854141235,5.021911549359121,-0.0,0.284801721572876,-1.5971582571612757,-0.0,-0.004120249766856432,0.7493346929550171,-0.0,-0.004403258208185434,0.7944992780685425,0.0,0.009799488820135593
397.0,412.0,0.2883,0.3069,9.4606,-0.0363,0.016,-0.1101,-1.6546231708922328,0.0,2.342266082763672,-1.940100908279419,-0.0,2.0224101543426514,5.0219437358673,-0.0,0.2820929288864136,-1.5971339384662073,-0.0,-0.006668335758149624,0.7493744492530823,-0.0,-0.00465322146192193,0.7945072054862976,0.0,0.051531948149204254
397.0,412.0,0.2883,0.3069,9.4606,-0.0363,0.016,-0.1101,-1.6545950374998988,0.0,2.330200672149658,-1.940112829208374,-0.0,2.0013389587402344,5.021891641407766,-0.0,0.3062416911125183,-1.5971744696246546,-0.0,-0.007010181434452534,0.7492983341217041,-0.0,-0.0056375423446297646,0.7944384813308716,0.0,0.005046623758971691
397.0,412.0,0.2883,0.3069,9.4606,-0.0363,0.016,-0.1101,-1.654555460015768,0.0,2.3735275268554688,-1.9400925636291504,-0.0,1.9915225505828857,5.0219276426132105,-0.0,0.28764283657073975,-1.5971258322345179,-0.0,-0.0024155518040060997,0.7492421269416809,-0.0,0.003171053249388933,0.7944868803024292,0.0,0.013210315257310867
397.0,412.0,0.2883,0.3069,9.4606,-0.0363,0.016,-0.1101,-1.6545912228026332,0.0,2.3457555770874023,-1.9400845766067505,-0.0,2.046686887741089,5.02193163612441,-0.0,0.28263309597969055,-1.5971139113055628,-0.0,0.006048228591680527,0.7493422031402588,-0.0,0.003679064102470875,0.7944910526275635,0.0,0.004517596215009689
397.0,412.0,0.2883,0.3069,9.4606,-0.0363,0.016,-0.1101,-1.654579301873678,0.0,2.332775354385376,-1.9400925636291504,-0.0,1.987220287322998,5.021879541664877,-0.0,0.2825886309146881,-1.5971420446978968,-0.0,-0.004321211948990822,0.7493823766708374,-0.0,-0.0033201449550688267,0.794486939907074,0.0,0.004847203381359577
397.0,412.0,0.2883,0.3069,9.4606,-0.0363,0.016,-0.1101,-1.6545669041075648,0.0,2.3708136081695557,-1.9401367902755737,-0.0,1.9782615900039673,5.021915721684255,-0.0,0.2824140787124634,-1.5971382300006312,-0.0,-0.002043415093794465,0.7493305802345276,-0.0,-0.004469164647161961,0.7945112586021423,0.0,-0.009317690506577492
397.0,412.0,0.2883,0.3069,9.4606,-0.0363,0.016,-0.1101,-1.654579301873678,0.0,2.399843215942383,-1.9400806427001953,-0.0,2.029850721359253,5.021907555847921,-0.0,0.27377232909202576,-1.5971744696246546,-0.0,-0.007895360700786114,0.7492941617965698,-0.0,0.012385118752717972,0.7944628000259399,0.0,0.01133797224611044
397.0,412.0,0.2883,0.3069,9.4606,-0.0363,0.016,-0.1101,-1.6546155414977015,0.0,2.3574323654174805,-1.9400969743728638,-0.0,1.974327802658081,5.02197157123641,-0.0,0.27604830265045166,-1.5971420446978968,-0.0,-0.013148471713066101,0.749286413192749,-0.0,0.001602544100023806,0.7944349050521851,0.0,-0.01094200648367405
397.0,412.0,0.2883,0.3069,9.4606,-0.0363,0.016,-0.1101,-1.6545993290343226,0.0,2.3429627418518066,-1.9400497674942017,-0.0,2.0053539276123047,5.021895456105032,-0.0,0.29028046131134033,-1.5971258322345179,-0.0,-0.007371814921498299,0.7493340969085693,-0.0,0.004691649693995714,0.7944750189781189,0.0,3.970786929130554e-05
397.0,412.0,0.2883,0.3069,9.4606,-0.0363,0.016,-0.1101,-1.6545950374998988,0.0,2.4103260040283203,-1.9400886297225952,-0.0,2.044473648071289,5.021951544075765,-0.0,0.2786439061164856,-1.5971296469317835,-0.0,-0.017992336302995682,0.7493380904197693,-0.0,0.00788062997162342,0.7944628000259399,0.0,-0.023114651441574097
397.0,412.0,0.2883,0.3069,9.4606,-0.0363,0.016,-0.1101,-1.6545993290343226,0.0,2.347519874572754,-1.9401214122772217,-0.0,2.0546374320983887,5.0219397423561,-0.0,0.2893674373626709,-1.5971382300006312,-0.0,-0.004802626091986895,0.7493146657943726,-0.0,-0.01097075454890728,0.7944710850715637,0.0,0.037127893418073654
411.0,419.0,0.341,0.2728,9.5402,-0.0391,0.0261,-0.1185,-1.654579301873678,0.0,2.372544765472412,-1.9401134252548218,-0.0,2.0154974460601807,5.02193163612441,-0.0,0.2748225927352905,-1.597165886555807,-0.0,-0.012322344817221165,0.7493462562561035,-0.0,-0.006787025835365057,0.7945355772972107,0.0,-0.021832723170518875
411.0,419.0,0.341,0.2728,9.5402,-0.0391,0.0261,-0.1185,-1.6545874081053675,0.0,2.3594419956207275,-1.9401288032531738,-0.0,2.024113178253174,5.021895485907354,-0.0,0.28816545009613037,-1.5971177260028284,-0.0,-0.004013892263174057,0.7493380904197693,-0.0,-0.0069833844900131226,0.7945112586021423,0.0,0.0017057521035894752
411.0,419.0,0.341,0.2728,9.5402,-0.0391,0.0261,-0.1185,-1.6545950374998988,0.0,2.372492551803589,-1.9401134252548218,-0.0,1.9800572395324707,5.021951544075765,-0.0,0.28353404998779297,-1.5971382300006312,-0.0,-0.014107607305049896,0.7492983341217041,-0.0,-0.0002003917470574379,0.7945236563682556,0.0,-0.0198635496199131
411.0,419.0,0.341,0.2728,9.5402,-0.0391,0.0261,-0.1185,-1.6546231708922328,0.0,2.3722119331359863,-1.9400925636291504,-0.0,2.014890432357788,5.021915721684255,-0.0,0.27823424339294434,-1.5971582571612757,-0.0,-0.008313347585499287,0.7493380904197693,-0.0,-0.0003537688171491027,0.7944343686103821,0.0,-0.015184680931270123
411.0,419.0,0.341,0.2728,9.5402,-0.0391,0.0261,-0.1185,-1.6545950374998988,0.0,2.3376808166503906,-1.9401005506515503,-0.0,2.009890556335449,5.021967816143789,-0.0,0.29254305362701416,-1.5971220175372522,-0.0,-0.01660696230828762,0.7492901682853699,-0.0,-0.01191201712936163,0.7944709658622742,0.0,0.001126874703913927
411.0,419.0,0.341,0.2728,9.5402,-0.0391,0.0261,-0.1185,-1.6546112499632777,0.0,2.3450517654418945,-1.9400925636291504,-0.0,1.9534740447998047,5.021875637560644,-0.0,0.2922104001045227,-1.5971501509295862,-0.0,-0.008887113071978092,0.7493023872375488,-0.0,-0.007041088305413723,0.7944911122322083,0.0,-0.013121958822011948
411.0,419.0,0.341,0.2728,9.5402,-0.0391,0.0261,-0.1185,-1.6545711956419886,0.0,2.31668758392334,-1.940100908279419,-0.0,2.036768674850464,5.021891611605444,-0.0,0.28756701946258545,-1.5971139113055628,-0.0,-0.014791598543524742,0.7493346333503723,-0.0,-0.005843254737555981,0.7944750785827637,0.0,-0.010078251361846924
411.0,419.0,0.341,0.2728,9.5402,-0.0391,0.0261,-0.1185,-1.6546155414977015,0.0,2.3392999172210693,-1.9400572776794434,-0.0,2.0146520137786865,5.0219881413276575,-0.0,0.28592541813850403,-1.5971582571612757,-0.0,-0.0017702043987810612,0.7492901682853699,-0.0,0.018999535590410233,0.7944833040237427,0.0,0.050982363522052765
411.0,419.0,0.341,0.2728,9.5402,-0.0391,0.0261,-0.1185,-1.6546036205687464,0.0,2.3857901096343994,-1.9401253461837769,-0.0,1.9976634979248047,5.021919744997778,-0.0,0.2785061001777649,-1.597165886555807,-0.0,0.007551745045930147,0.7493224143981934,-0.0,-0.0012248526327311993,0.7945150136947632,0.0,0.032504256814718246
411.0,419.0,0.341,0.2728,9.5402,-0.0391,0.0261,-0.1185,-1.6546031437315882,0.0,2.3509602546691895,-1.9401253461837769,-0.0,1.9733333587646484,5.021895396500387,-0.0,0.2953874468803406,-1.5971501509295862,-0.0,-0.007654755376279354,0.7492901682853699,-0.0,-0.0030468374025076628,0.794482946395874,0.0,0.09280534833669662
411.0,419.0,0.341,0.2728,9.5402,-0.0391,0.0261,-0.1185,-1.654635568658346,0.0,2.343590021133423,-1.940132737159729,-0.0,1.976548671722412,5.021907555847921,-0.0,0.2826118469238281,-1.5971139113055628,-0.0,-0.0025373066309839487,0.7492582201957703,-0.0,-0.009333495981991291,0.7944873571395874,0.0,0.024212393909692764
411.0,419.0,0.341,0.2728,9.5402,-0.0391,0.0261,-0.1185,-1.654595514337057,0.0,2.3657402992248535,-1.9400845766067505,-0.0,2.028374195098877,5.02193163612441,-0.0,0.28407061100006104,-1.5971296469317835,-0.0,-0.013402754440903664,0.7493462562561035,-0.0,-0.006300538778305054,0.7945231795310974,0.0,0.02846907265484333
411.0,419.0,0.341,0.2728,9.5402,-0.0391,0.0261,-0.1185,-1.654607435266012,0.0,2.3579397201538086,-1.9401333332061768,-0.0,1.9720417261123657,5.021935659437933,-0.0,0.29005786776542664,-1.5971177260028284,-0.0,0.0005937353707849979,0.7492820620536804,-0.0,0.0034033970441669226,0.7944384217262268,0.0,-0.027490630745887756
411.0,419.0,0.341,0.2728,9.5402,-0.0391,0.0261,-0.1185,-1.6546036205687464,0.0,2.3893260955810547,-1.9400964975357056,-0.0,1.9901543855667114,5.021907555847921,-0.0,0.2944311201572418,-1.5971296469317835,-0.0,-0.014942977577447891,0.7492945194244385,-0.0,-0.007025908678770065,0.7944873571395874,0.0,0.003082969691604376
411.0,419.0,0.341,0.2728,9.5402,-0.0391,0.0261,-0.1185,-1.654567380944723,0.0,2.2966604232788086,-1.9401088953018188,-0.0,2.039423704147339,5.021879541664877,-0.0,0.29211339354515076,-1.5971420446978968,-0.0,-0.0024966243654489517,0.7493146061897278,-0.0,-0.007905318401753902,0.7944587469100952,-1.8134545254344658e-10,7.344316691160202e-05
412.0,417.0,0.3404,0.3069,9.4851,-0.0334,0.0284,-0.1239,-1.654579301873678,0.0,2.352541446685791,-1.9401367902755737,-0.0,1.9464008808135986,5.021919715195455,-0.0,0.2882470488548279,-1.5971539656268519,-0.0,-0.01161628682166338,0.7493064403533936,-0.0,0.007145431358367205,0.7944828867912292,-4.3792794513129404e-16,0.043378617614507675
412.0,417.0,0.3404,0.3069,9.4851,-0.0334,0.0284,-0.1239,-1.6546155414977015,0.0,2.382521867752075,-1.9400497674942017,-0.0,1.9934923648834229,5.021903472929754,-0.0,0.2875033915042877,-1.5971501509295862,-0.0,-0.010104350745677948,0.7492901682853699,-0.0,0.0001999811502173543,0.7944750785827637,-1.0575444556714897e-21,0.015156375244259834
412.0,417.0,0.3404,0.3069,9.4851,-0.0334,0.0284,-0.1239,-1.6546231708922328,0.0,2.391890525817871,-1.9400925636291504,-0.0,1.9611616134643555,5.021883505373754,-0.0,0.27329617738723755,-1.5971296469317835,-0.0,-0.006043288856744766,0.7492904663085938,-0.0,-0.0005728453397750854,0.7945195436477661,-2.5538449286086896e-27,-0.009841786697506905
412.0,417.0,0.3404,0.3069,9.4851,-0.0334,0.0284,-0.1239,-1.6545831165709437,0.0,2.4035236835479736,-1.940129280090332,-0.0,2.0134081840515137,5.02194761016921,-0.0,0.2861767113208771,-1.5971177260028284,-0.0,-0.008488469757139683,0.7492622137069702,-0.0,0.0005217301659286022,0.7944668531417847,-6.167234785008978e-33,-0.012640529312193394
412.0,417.0,0.3404,0.3069,9.4851,-0.0334,0.0284,-0.1239,-1.6545874081053675,0.0,2.349050521850586,-1.9400616884231567,-0.0,2.022200584411621,5.021935659437933,-0.0,0.28616538643836975,-1.5971296469317835,-0.0,-0.005923491902649403,0.7492741942405701,-0.0,-0.0091167613863945,0.7945034503936768,-1.4893145813884446e-38,-0.009407127276062965
412.0,417.0,0.3404,0.3069,9.4851,-0.0334,0.0284,-0.1239,-1.6545750103392542,0.0,2.369004964828491,-1.9401253461837769,-0.0,1.9448950290679932,5.021907615452566,-0.0,0.28388455510139465,-1.5971296469317835,-0.0,0.0067300014197826385,0.7493146061897278,-0.0,-0.0014232638059183955,0.7944992780685425,-3.6433760072445244e-44,-0.018893497064709663
412.0,417.0,0.3404,0.3069,9.4851,-0.0334,0.0284,-0.1239,-1.6545993290343226,0.0,2.327591896057129,-1.9401168823242188,-0.0,2.0183136463165283,5.0219594714935205,-0.0,0.27799558639526367,-1.5971620718585413,-0.0,-0.016553450375795364,0.7493224143981934,-0.0,-0.0030989788938313723,0.7945112586021423,0.0,0.002046799287199974
412.0,417.0,0.3404,0.3069,9.4851,-0.0334,0.0284,-0.1239,-1.654635568658346,0.0,2.3727147579193115,-1.940140724182129,-0.0,1.9921579360961914,5.021947550564565,-0.0,0.29153698682785034,-1.5971258322345179,-0.0,0.0005786002147942781,0.7493346333503723,-0.0,-0.005506133195012808,0.7945190668106079,0.0,0.028080353513360023
412.0,417.0,0.3404,0.3069,9.4851,-0.0334,0.0284,-0.1239,-1.6545831165709437,0.0,2.3533473014831543,-1.9400925636291504,-0.0,2.0376229286193848,5.0219435570533655,1.223242406922509e-06,0.2840255796909332,-1.5971296469317835,-0.0,-0.006363348104059696,0.7493023872375488,-0.0,-0.0023774458095431328,0.7945150136947632,0.0,0.0043263183906674385
412.0,417.0,0.3404,0.3069,9.4851,-0.0334,0.0284,-0.1239,-1.654635568658346,0.0,2.3365278244018555,-1.9400845766067505,-0.0,1.9974690675735474,5.021887558489599,3.404940218665331e-10,0.2807612419128418,-1.5971296469317835,-0.0,-0.0019124220125377178,0.7492942214012146,-0.0,-0.0035263728350400925,0.7944669723510742,0.0,0.008105196058750153
412.0,417.0,0.3404,0.3069,9.4851,-0.0334,0.0284,-0.1239,-1.6546036205687464,0.0,2.3571999073028564,-1.940117359161377,-0.0,1.9743077754974365,5.021947580366888,9.477776229853754e-14,0.2804955542087555,-1.597177807484762,-0.0,-0.013238401152193546,0.7492983341217041,-0.0,-0.00288882153108716,0.7944668531417847,0.0,-0.043022334575653076
412.0,417.0,0.3404,0.3069,9.4851,-0.0334,0.0284,-0.1239,-1.6545993290343226,0.0,2.3892669677734375,-1.9400886297225952,-0.0,2.028301239013672,5.021911668568411,2.6381736151657966e-17,0.2881307303905487,-1.5971420446978968,-0.0,-0.00838253740221262,0.7493023872375488,-0.0,-0.00214721099473536,0.7944951057434082,0.0,-0.00019300682470202446
412.0,417.0,0.3404,0.3069,9.4851,-0.0334,0.0284,-0.1239,-1.6545916996397914,0.0,2.3741116523742676,-1.940100908279419,-0.0,1.9849172830581665,5.021939533739843,7.343454215478625e-21,0.288391649723053,-1.5971296469317835,-0.0,-0.0075003476813435555,0.7493267059326172,-0.0,-0.004135336726903915,0.7944627404212952,0.0,0.05313679203391075
412.0,417.0,0.3404,0.3069,9.4851,-0.0334,0.0284,-0.1239,-1.6545630894102992,0.0,2.3503522872924805,-1.940137267112732,-0.0,1.996513843536377,5.021983879595556,2.0440774449469605e-24,0.27810195088386536,-1.5971339384662073,-0.0,-0.009101455099880695,0.7493264675140381,-0.0,-0.007182613015174866,0.7944910526275635,0.0,0.024138711392879486
412.0,417.0,0.3404,0.3069,9.4851,-0.0334,0.0284,-0.1239,-1.6545678577818812,0.0,2.364217758178711,-1.9401288032531738,-0.0,1.9861161708831787,5.021959501295843,5.689764723571003e-28,0.283410906791687,-1.5971339384662073,-0.0,0.00021449170890264213,0.7492861747741699,-0.0,0.00647940207272768,0.7945272922515869,0.0,-0.02023700810968876
399.0,420.0,0.2824,0.3846,9.4576,-0.0406,0.0302,-0.1313,-1.6545592747130335,0.0,2.365018606185913,-1.9401333332061768,-0.0,1.9553303718566895,5.0219276426132105,1.5837669312004493e-31,0.2913097143173218,-1.597109619771139,-0.0,-0.006650289986282587,0.7493025064468384,-0.0,-0.014478666707873344,0.7944910526275635,0.0,0.03946328163146973
399.0,420.0,0.2824,0.3846,9.4576,-0.0406,0.0302,-0.1313,-1.6545916996397914,0.0,2.380920886993408,-1.9401214122772217,-0.0,2.0455660820007324,5.021939533739843,4.408472879483763e-35,0.28430941700935364,-1.597165886555807,-0.0,-0.0025694561190903187,0.749338686466217,-0.0,-0.0034368489868938923,0.7945272922515869,0.0,-0.10203830152750015
399.0,420.0,0.2824,0.3846,9.4576,-0.0406,0.0302,-0.1313,-1.6545831165709437,0.0,2.3011345863342285,-1.9400616884231567,-0.0,1.9774606227874756,5.021927612810888,1.2271145428720065e-38,0.2921800911426544,-1.5971139113055628,-0.0,-0.006436005234718323,0.7493023872375488,-0.0,0.005732097662985325,0.794478714466095,0.0,0.03553718328475952
399.0,420.0,0.2824,0.3846,9.4576,-0.0406,0.0302,-0.1313,-1.654623647729391,0.0,2.3479928970336914,-1.9400811195373535,-0.0,1.9806627035140991,5.0219435570533655,3.416365656023904e-42,0.2923053503036499,-1.5971620718585413,-0.0,-0.01042504608631134,0.7493227124214172,-0.0,-0.006040537264198065,0.7944828867912292,0.0,0.01921442709863186
399.0,420.0,0.2824,0.3846,9.4576,-0.0406,0.0302,-0.1313,-1.6545874081053675,0.0,2.403174638748169,-1.9401248693466187,-0.0,2.0136609077453613,5.021955477982321,1.401298464324817e-45,0.2820283770561218,-1.5971577803241175,-0.0,-0.01577157713472843,0.7492820620536804,-0.0,0.010708393529057503,0.7944546341896057,0.0,-0.023173198103904724
399.0,420.0,0.2824,0.3846,9.4576,-0.0406,0.0302,-0.1313,-1.654551168481344,0.0,2.391477584838867,-1.9400845766067505,-0.0,1.9724938869476318,5.021947580366888,0.0,0.2946673333644867,-1.597194019948141,-0.0,0.006100965663790703,0.7493186593055725,-0.0,0.010889368131756783,0.7945112586021423,0.0,-0.00014040200039744377
399.0,420.0,0.2824,0.3846,9.4576,-0.0406,0.0302,-0.1313,-1.6545711956419886,0.0,2.357739210128784,-1.9401367902755737,-0.0,2.0306150913238525,5.02195160368041,0.0,0.2843634784221649,-1.5971177260028284,-0.0,-0.0006361990235745907,0.7493224143981934,-0.0,0.004527801647782326,0.7944709062576294,0.0,0.03078027442097664
399.0,420.0,0.2824,0.3846,9.4576,-0.0406,0.0302,-0.1313,-1.6545797787108363,0.0,2.364344596862793,-1.9401088953018188,-0.0,2.0336313247680664,5.021903472929754,0.0,0.290923535823822,-1.597165886555807,-0.0,-0.0008006319403648376,0.7492782473564148,-0.0,-0.0012588952668011189,0.7944910526275635,0.0,-0.04166623204946518
399.0,420.0,0.2824,0.3846,9.4576,-0.0406,0.0302,-0.1313,-1.654611726800436,0.0,2.337437391281128,-1.9400969743728638,-0.0,1.953117847442627,5.021919715195455,0.0,0.2973289489746094,-1.5971453825580042,-0.0,0.009316488169133663,0.7492901682853699,-0.0,0.0012443384621292353,0.7944910526275635,0.0,-0.01564900577068329
399.0,420.0,0.2824,0.3846,9.4576,-0.0406,0.0302,-0.1313,-1.6546036205687464,0.0,2.3546838760375977,-1.9401293992996216,-0.0,2.0012142658233643,5.021899479418554,0.0,0.2903476357460022,-1.5971458593951624,-0.0,-0.005901833064854145,0.7493146061897278,-0.0,-0.0015293455217033625,0.7945473194122314,0.0,-0.04858210310339928
399.0,420.0,0.2824,0.3846,9.4576,-0.0406,0.0302,-0.1313,-1.6545711956419886,0.0,2.402104377746582,-1.9400696754455566,-0.0,1.9796702861785889,5.021927612810888,0.0,0.29024913907051086,-1.597165886555807,-0.0,-0.007780002895742655,0.7493346333503723,-0.0,0.004306782968342304,0.7945393919944763,2.1803587515023537e-05,0.02426650933921337
399.0,420.0,0.2824,0.3846,9.4576,-0.0406,0.0302,-0.1313,-1.6545993290343226,0.0,2.351958751678467,-1.9400886297225952,-0.0,1.9695327281951904,5.021939533739843,0.0,0.2807558476924896,-1.5971739927874964,-0.0,-0.011027051135897636,0.7493502497673035,-0.0,0.006145916413515806,0.794486939907074,3.128688331344165e-05,0.02076323889195919
399.0,420.0,0.2824,0.3846,9.4576,-0.0406,0.0302,-0.1313,-1.654607435266012,0.0,2.365187406539917,-1.940149188041687,-0.0,2.0119094848632812,5.021919715195455,0.0,0.2877740263938904,-1.5971978346454065,-0.0,0.006498867645859718,0.7492901682853699,-0.0,0.002205012831836939,0.7945393919944763,3.062818359467201e-05,-0.042533256113529205
399.0,420.0,0.2824,0.3846,9.4576,-0.0406,0.0302,-0.1313,-1.6545831165709437,0.0,2.370333671569824,-1.9400925636291504,-0.0,1.994178295135498,5.021935659437933,0.0,0.2902097702026367,-1.5971577803241175,-0.0,0.001465651555918157,0.7493025064468384,-0.0,-0.0008934172801673412,0.7945311665534973,3.4497877550165867e-06,-0.010802936740219593
377.0,415.0,-0.341,0.4175,10.1133,-0.0292,0.0461,-0.1297,-1.6545711956419886,0.0,2.3659629821777344,-1.9401088953018188,-0.0,2.017763376235962,5.021895426302709,0.0,0.2904496192932129,-1.597121540700094,-0.0,-0.016844354569911957,0.7493264079093933,-0.0,-0.01296160276979208,0.7945072054862976,8.33083081686059e-12,0.003604791359975934
377.0,415.0,-0.341,0.4175,10.1133,-0.0292,0.0461,-0.1297,-1.6545874081053675,0.0,2.3672537803649902,-1.9401134252548218,-0.0,1.9965720176696777,5.021947580366888,0.0,0.28708040714263916,-1.5971415678607386,-0.0,-0.007174700498580933,0.7492782473564148,-0.0,0.0055736368522048,0.7944546341896057,2.0117973828826718e-17,-0.0014070859178900719
377.0,415.0,-0.341,0.4175,10.1133,-0.0292,0.0461,-0.1297,-1.6546312771239222,0.0,2.349484920501709,-1.9401088953018188,-0.0,1.9890707731246948,5.021899479418554,0.0,0.28243643045425415,-1.5971382300006312,-0.0,-0.008188655599951744,0.7492901682853699,-0.0,0.005236695520579815,0.7945154309272766,4.8582541584338804e-23,0.012244412675499916
377.0,415.0,-0.341,0.4175,10.1133,-0.0292,0.0461,-0.1297,-1.654579301873678,0.0,2.3604772090911865,-1.9400805234909058,-0.0,2.019120693206787,5.021923619299688,0.0,0.29019227623939514,-1.5971582571612757,-0.0,-0.004166039638221264,0.7493104934692383,-0.0,0.012182492762804031,0.7945194840431213,1.1732111608732164e-28,-0.020953215658664703
377.0,415.0,-0.341,0.4175,10.1133,-0.0292,0.0461,-0.1297,-1.6546193561949671,0.0,2.3267738819122314,-1.9400925636291504,-0.0,2.0105667114257812,5.021863448410787,0.0,0.2935340106487274,-1.5971177260028284,-0.0,-0.015174038708209991,0.7493104338645935,-0.0,-0.007207730319350958,0.7944992184638977,2.8331668416247808e-34,-0.0037869825027883053
377.0,415.0,-0.341,0.4175,10.1133,-0.0292,0.0461,-0.1297,-1.6545916996397914,0.0,2.3816616535186768,-1.940117359161377,-0.0,2.0025994777679443,5.021943974285879,0.0,0.2854223847389221,-1.5971744696246546,-0.0,0.00019456865265965462,0.7493305802345276,-0.0,-0.01687515899538994,0.7944628596305847,6.841769687142703e-40,0.006935078650712967
377.0,415.0,-0.341,0.4175,10.1133,-0.0292,0.0461,-0.1297,-1.6546274624266566,0.0,2.3943417072296143,-1.9400969743728638,-0.0,1.9969831705093384,5.021923798113622,0.0,0.2813304662704468,-1.5970972220050257,-0.0,-0.010429085232317448,0.749374508857727,-0.0,0.005158439744263887,0.7945072054862976,1.401298464324817e-45,-0.015529448166489601
377.0,415.0,-0.341,0.4175,10.1133,-0.0292,0.0461,-0.1297,-1.654635568658346,0.0,2.3704729080200195,-1.9401253461837769,-0.0,2.008331775665283,5.021975624352255,0.0,0.2851462662220001,-1.5971539656268519,-0.0,-0.029226679354906082,0.7492941617965698,-0.0,-0.0019502644427120686,0.7944951057434082,0.0,0.00798461027443409
377.0,415.0,-0.341,0.4175,10.1133,-0.0292,0.0461,-0.1297,-1.6546274624266566,0.0,2.3795366287231445,-1.9401253461837769,-0.0,1.9599374532699585,5.021907555847921,0.0,0.2891533076763153,-1.5971539656268519,-0.0,-0.00369662675075233,0.7493305802345276,-0.0,-0.007082821801304817,0.7944384813308716,0.0,-0.0036142331082373857
377.0,415.0,-0.341,0.4175,10.1133,-0.0292,0.0461,-0.1297,-1.6545750103392542,0.0,2.409792900085449,-1.9400969743728638,-0.0,1.9918161630630493,5.021895426302709,0.0,0.2903292775154114,-1.5971220175372522,-0.0,-0.013580972328782082,0.7493025064468384,-0.0,-0.0043300786055624485,0.7944505214691162,0.0,-0.06513243168592453
377.0,415.0,-0.341,0.4175,10.1133,-0.0292,0.0461,-0.1297,-1.6546231708922328,0.0,2.354203224182129,-1.9400925636291504,-0.0,1.9771406650543213,5.021919715195455,0.0,0.28127044439315796,-1.5971220175372522,-0.0,0.0012912391684949398,0.7492983937263489,-0.0,-0.0035274026449769735,0.7944669723510742,0.0,0.016784774139523506
377.0,415.0,-0.341,0.4175,10.1133,-0.0292,0.0461,-0.1297,-1.6546231708922328,0.0,2.4064619541168213,-1.9400969743728638,-0.0,1.9965572357177734,5.021887528687277,0.0,0.2919158339500427,-1.5971620718585413,-0.0,-0.001124715548940003,0.7493146061897278,-0.0,-0.006337784230709076,0.7945071458816528,0.0,-0.011897510848939419
377.0,415.0,-0.341,0.4175,10.1133,-0.0292,0.0461,-0.1297,-1.654607435266012,0.0,2.3630752563476562,-1.9401134252548218,-0.0,2.0099129676818848,5.021907555847921,0.0,0.27849215269088745,-1.5971296469317835,-0.0,-0.007343483157455921,0.7493541240692139,-0.0,0.0006227276753634214,0.794486939907074,0.0,0.010021363385021687
377.0,415.0,-0.341,0.4175,10.1133,-0.0292,0.0461,-0.1297,-1.6546112499632777,0.0,2.3422460556030273,-1.9402084350585938,-0.0,1.9966511726379395,5.021935659437933,0.0,0.2960619032382965,-1.5971420446978968,-0.0,-0.009024344384670258,0.7492821216583252,-0.0,0.0040421257726848125,0.7944791316986084,0.0,-0.030267562717199326
377.0,415.0,-0.341,0.4175,10.1133,-0.0292,0.0461,-0.1297,-1.6546036205687464,0.0,2.361776113510132,-1.9401129484176636,-0.0,1.9988925457000732,5.021859454899587,0.0,0.28735652565956116,-1.5971539656268519,-0.0,-0.0126188974827528,0.7493902444839478,-0.0,-0.005589109845459461,0.7945031523704529,0.0,0.013048981316387653
395.0,426.0,0.2961,0.3206,9.4929,-0.0316,0.0269,-0.1184,-1.654635568658346,0.0,2.3746533393859863,-1.9401288032531738,-0.0,2.0099568367004395,5.021947580366888,0.0,0.29224303364753723,-1.5971415678607386,-0.0,0.0016914117150008678,0.7493461966514587,-0.0,-0.001925370772369206,0.7945190668106079,0.0,0.01408299244940281
395.0,426.0,0.2961,0.3206,9.4929,-0.0316,0.0269,-0.1184,-1.6546231708922328,9.23279586118042e-08,2.3892292976379395,-1.9400969743728638,-0.0,1.9517598152160645,5.021915691881933,0.0,0.28219085931777954,-1.5971458593951624,-0.0,0.006396636366844177,0.7493146061897278,-0.0,0.005221470724791288,0.7945191264152527,0.0,-0.02552899159491062
395.0,426.0,0.2961,0.3206,9.4929,-0.0316,0.0269,-0.1184,-1.6545711956419886,2.2296113523154193e-13,2.370211124420166,-1.940117359161377,-0.0,1.9942830801010132,5.021927583008566,0.0,0.2845741808414459,-1.5971296469317835,-0.0,-0.007494837511330843,0.7493386268615723,-0.0,0.005757642909884453,0.7945072650909424,0.0,0.000626449822448194
395.0,426.0,0.2961,0.3206,9.4929,-0.0316,0.0269,-0.1184,-1.654651781121725,5.3842499220299e-19,2.3497164249420166,-1.9400886297225952,-0.0,2.006399631500244,5.021955477982321,0.0,0.29524070024490356,-1.5971382300006312,-0.0,-0.017156727612018585,0.7493025064468384,-0.0,0.004841110203415155,0.7945231795310974,0.0,-0.02760852873325348
395.0,426.0,0.2961,0.3206,9.4929,-0.0316,0.0269,-0.1184,-1.654590745965475,1.300233084497612e-24,2.3433656692504883,-1.9400886297225952,-0.0,1.9866657257080078,5.021967875748434,0.0,0.28002801537513733,-1.5971339384662073,-0.0,-0.009366885758936405,0.7493146061897278,-0.0,0.006118323653936386,0.7945311665534973,0.0,-0.011670215055346489
395.0,426.0,0.2961,0.3206,9.4929,-0.0316,0.0269,-0.1184,-1.654703279534811,-0.0014438467333093286,2.358889102935791,-1.940100908279419,-0.0,1.9523015022277832,5.021935659437933,0.0,0.27890416979789734,-1.5971501509295862,-0.0,-0.01743614487349987,0.7493345737457275,-0.0,0.006336480379104614,0.794535219669342,0.0,-0.0043613500893116
395.0,426.0,0.2961,0.3206,9.4929,-0.0316,0.0269,-0.1184,-1.6546513042845667,-0.0020513490308076143,2.3575594425201416,-1.940164566040039,-0.0,2.0028319358825684,5.021895426302709,0.0,0.28561532497406006,-1.5971501509295862,-0.0,-0.02263198420405388,0.7492543458938599,-0.0,0.0045290058478713036,0.7945671081542969,0.0005379805224947631,-0.016683634370565414
395.0,426.0,0.2961,0.3206,9.4929,-0.0316,0.0269,-0.1184,-1.6547190151610316,-0.002157816896215081,2.360302448272705,-1.9401253461837769,-0.0,1.9840688705444336,5.021959501295843,0.0,0.2902863025665283,-1.5971134344684046,-0.0,-0.006660219747573137,0.7493184804916382,-0.0,-0.005672951228916645,0.7945432066917419,0.0004756896523758769,-0.010749935172498226
395.0,426.0,0.2961,0.3206,9.4929,-0.0316,0.0269,-0.1184,-1.654687067071432,-0.0015894437674432993,2.3831562995910645,-1.9401293992996216,-0.0,2.0216240882873535,5.021951573878088,0.0,0.2917710542678833,-1.597109619771139,-0.0,-0.01217838004231453,0.7492901682853699,-0.0,-0.0032407594844698906,0.794526994228363,0.00037623351090587676,0.010217239148914814
395.0,426.0,0.2961,0.3206,9.4929,-0.0316,0.0269,-0.1184,-1.6547070942320765,-0.0008597701671533287,2.3314504623413086,-1.9401408433914185,-0.0,2.0153589248657227,5.021980094700613,0.0,0.296008825302124,-1.5971415678607386,-0.0,-0.01576138660311699,0.7493184804916382,-0.0,-0.011011281982064247,0.7944906949996948,0.0003111786500085145,0.002413191832602024
395.0,426.0,0.2961,0.3206,9.4929,-0.0316,0.0269,-0.1184,-1.6547395191588343,-0.0004319111758377403,2.385143756866455,-1.9400969743728638,-0.0,1.9736007452011108,5.02193562963561,0.0,0.27587854862213135,-1.5970972220050257,-0.0,0.0076481555588543415,0.7492983937263489,-0.0,0.004183053970336914,0.7944866418838501,0.00026530801551416516,-0.013940462842583656
395.0,426.0,0.2961,0.3206,9.4929,-0.0316,0.0269,-0.1184,-1.654670854608053,-0.0003175139718223363,2.402097225189209,-1.940109372138977,5.64435408134667e-11,1.9886364936828613,5.02200003245429,0.0,0.2889053225517273,-1.5971015135394495,-0.0,-0.021932188421487808,0.7492862343788147,-0.0,-0.0034703570418059826,0.7945150136947632,0.00023122408310882747,0.007962907664477825
395.0,426.0,0.2961,0.3206,9.4929,-0.0316,0.0269,-0.1184,-1.6547514400877894,-0.00017780004418455064,2.400541305541992,-1.9400616884231567,1.363045154023824e-16,1.9817777872085571,5.02194761016921,0.0,0.285947322845459,-1.5971296469317835,-0.0,-0.0033889554906636477,0.749274492263794,-0.0,0.002524610375985503,0.7945593595504761,0.00020490151655394584,0.02342124655842781
395.0,426.0,0.2961,0.3206,9.4929,-0.0316,0.0269,-0.1184,-1.6547514400877894,-0.0012060299050062895,2.3373847007751465,-1.940172553062439,4.416093045664253e-24,1.9908671379089355,5.02193163612441,0.0,0.2836255729198456,-1.5971501509295862,-0.0,-0.015532990917563438,0.7493023872375488,-0.0,0.0027965311892330647,0.7945390939712524,0.00017789905541576445,0.002108633518218994
395.0,426.0,0.2961,0.3206,9.4929,-0.0316,0.0269,-0.1184,-1.6547509632506312,-0.0037874493282288313,2.326934576034546,-1.9401088953018188,1.0664345052128838e-29,2.021697521209717,5.021923619299688,0.0,0.2919788658618927,-1.5971582571612757,-0.0,-0.013615095987915993,0.7492942810058594,-0.0,-0.003351370105519891,0.7945270538330078,0.0001618977403268218,0.012766709551215172
391.0,434.0,0.3302,0.1346,9.4893,-0.044,0.0359,-0.1135,-1.6548072300352992,-0.0046842764131724834,2.3313193321228027,-1.9401248693466187,2.5753138331800727e-35,1.9817447662353516,5.021943288832464,0.0,0.28140413761138916,-1.5971582571612757,-0.0,-0.005370224826037884,0.7493064403533936,-0.0,-0.007334775757044554,0.7945432066917419,0.00013226187729742378,0.012869488447904587
391.0,434.0,0.3302,0.1346,9.4893,-0.044,0.0359,-0.1135,-1.6548472843565882,-0.004599237348884344,2.3795273303985596,-1.9400771856307983,6.219102714519971e-41,1.9975131750106812,5.0219194171722314,0.0,0.280484676361084,-1.597109619771139,-0.0,-0.00983818992972374,0.7492823600769043,-0.0,0.005157598294317722,0.7945067882537842,9.148898243438452e-05,0.04383566975593567
391.0,434.0,0.3302,0.1346,9.4893,-0.044,0.0359,-0.1135,-1.6548272571959437,-0.003146065864712,2.399029016494751,-1.9401049613952637,0.0,2.020411729812622,5.021972018271246,0.0,0.28917601704597473,-1.5970976988421839,-0.0,-0.014308508485555649,0.7492664456367493,-0.0,0.0072618392296135426,0.7945112586021423,-4.6167941036401317e-05,0.07100573182106018
391.0,434.0,0.3302,0.1346,9.4893,-0.044,0.0359,-0.1135,-1.6548272571959437,-0.0018191449344158173,2.336099863052368,-1.9401214122772217,-0.0,2.028109550476074,5.021911668568411,0.0,0.28666070103645325,-1.5970776716815394,4.04872793069444e-07,-0.009015960618853569,0.7492742538452148,-0.0,0.0032094521448016167,0.794495165348053,-0.00010890763223869726,-0.0234910249710083
391.0,434.0,0.3302,0.1346,9.4893,-0.044,0.0359,-0.1135,-1.6548510990538539,-0.0009710184531286359,2.3779213428497314,-1.9401367902755737,-0.0,1.9544367790222168,5.021895456105032,0.0,0.28218141198158264,-1.5970657507525843,1.1269783023459823e-10,-0.023081155493855476,0.7492742538452148,-0.0,0.010833830572664738,0.794495165348053,-0.0008825618424452841,-0.01497830543667078
391.0,434.0,0.3302,0.1346,9.4893,-0.044,0.0359,-0.1135,-1.6548711262144984,-0.0006306389695964754,2.3405838012695312,-1.9401129484176636,-0.0,1.9906460046768188,5.021907675057211,0.0,0.28943026065826416,-1.597109619771139,3.1369855037167646e-14,-0.010541927069425583,0.749286413192749,-0.0,0.011022742837667465,0.7944669723510742,-0.0009029577486217022,-0.04376354441046715
391.0,434.0,0.3302,0.1346,9.4893,-0.044,0.0359,-0.1135,-1.6548072300352992,-0.0004669554764404893,2.3504514694213867,-1.940100908279419,-0.0,2.0082154273986816,5.021955477982321,0.0,0.286359965801239,-1.5971220175372522,8.731914587914935e-18,-0.010232707485556602,0.7492464184761047,-0.0,-0.008524679578840733,0.7944751977920532,-0.0008680187747813761,-0.005741772707551718
391.0,434.0,0.3302,0.1346,9.4893,-0.044,0.0359,-0.1135,-1.6548434696593226,-0.000309846771415323,2.3679051399230957,-1.9400577545166016,-0.0,2.0262725353240967,5.021935361414709,0.0,0.29103538393974304,-1.5971301237689417,2.430561177855534e-21,-0.025225019082427025,0.7493064999580383,-0.0,-0.004638121463358402,0.7944914698600769,-0.0006798546528443694,0.020717989653348923
391.0,434.0,0.3302,0.1346,9.4893,-0.044,0.0359,-0.1135,-1.6548472843565882,-0.0002056747762253508,2.3845882415771484,-1.9400537014007568,-0.0,1.999605417251587,5.021988022118368,1.6276073822041326e-08,0.28986790776252747,-1.597126309071676,6.765556099177408e-25,-0.02605709619820118,0.7493385672569275,-0.0,0.001653169165365398,0.7944549918174744,-0.0006547172670252621,0.01845526322722435
391.0,434.0,0.3302,0.1346,9.4893,-0.044,0.0359,-0.1135,-1.654778619805807,-0.00013130994921084493,2.344829559326172,-1.940149188041687,-0.0,2.0011301040649414,5.021955477982321,4.530505311184374e-12,0.2938535213470459,-1.5971382300006312,1.8832171515631018e-28,-0.019262205809354782,0.7492942214012146,-0.0,0.0045073796063661575,0.7944430708885193,-0.0005704653449356556,0.0074576763436198235
391.0,434.0,0.3302,0.1346,9.4893,-0.044,0.0359,-0.1135,-1.654839654962057,8.57015184010379e-05,2.347393035888672,-1.9400925636291504,-0.0,2.050206184387207,5.021955448179998,1.2610827689046996e-15,0.29032185673713684,-1.5971053282367151,5.242004797781488e-32,-0.016706818714737892,0.7492902278900146,-0.0,-0.0044415900483727455,0.794479250907898,-0.0005690322141163051,-0.021647874265909195
391.0,434.0,0.3302,0.1346,9.4893,-0.044,0.0359,-0.1135,-1.6548072300352992,0.00011108846956631169,2.366842269897461,-1.9400805234909058,-0.0,2.040290117263794,5.021975743561544,3.5102701763394843e-19,0.30524536967277527,-1.5971344153033655,1.4591314375514238e-35,-0.016075046733021736,0.749302327632904,-0.0,-0.0006690941518172622,0.7944149374961853,-0.0009203296503983438,0.012537682428956032
391.0,434.0,0.3302,0.1346,9.4893,-0.044,0.0359,-0.1135,-1.654795309106344,0.00010009147808887064,2.3916707038879395,-1.9401487112045288,-0.0,2.0031509399414062,5.021951275854864,9.77096685614315e-23,0.304982990026474,-1.5971053282367151,4.061545889774479e-39,-0.01600254513323307,0.749346137046814,-0.0,-0.007797108963131905,0.7943986058235168,-0.0011858637444674969,0.04721517860889435
391.0,434.0,0.3302,0.1346,9.4893,-0.044,0.0359,-0.1135,-1.6548072300352992,9.007348126033321e-05,2.3307366371154785,-1.9400925636291504,-0.0,1.9908455610275269,5.021955507784643,2.719784400768055e-26,0.30057698488235474,-1.5971301237689417,1.1308478607101274e-42,-0.032657865434885025,0.7493305206298828,-0.0,0.0023266482166945934,0.794399082660675,-0.001407083123922348,-0.016781354323029518
391.0,434.0,0.3302,0.1346,9.4893,-0.044,0.0359,-0.1135,-1.6548353634276332,8.187874482246116e-05,2.3595194816589355,-1.940117359161377,-0.0,2.017181396484375,5.021988022118368,7.570619962798557e-30,0.2998543977737427,-1.5970857779132288,0.0,-0.014681519940495491,0.7493305206298828,-0.0,-0.012404009699821472,0.7944232225418091,-0.0016163006657734513,0.00668677082285285
403.0,415.0,-0.0287,0.2483,9.6479,-0.0487,0.0345,-0.1251,-1.6547829113402308,7.302099402295426e-05,2.381686210632324,-1.9401168823242188,-0.0,2.0431411266326904,5.021979796677389,0.00019026035442948341,0.2888147234916687,-1.59709340730776,0.0,-0.0290385615080595,0.7493224143981934,-0.0,0.0017263913759961724,0.7943949699401855,-0.002252359874546528,0.006060561165213585
403.0,415.0,-0.0287,0.2483,9.6479,-0.0487,0.0345,-0.1251,-1.6548196278014125,6.754109199391678e-05,2.4138264656066895,-1.9400537014007568,-0.0,1.9886754751205444,5.021983819990911,0.00016884635260794312,0.2935784161090851,-1.597109619771139,0.0,-0.027400672435760498,0.7493624091148376,-0.0,0.0004813280247617513,0.7943788170814514,-0.003775916527956724,-0.003049243241548538
403.0,415.0,-0.0287,0.2483,9.6479,-0.0487,0.0345,-0.1251,-1.654766698876852,6.282622780418023e-05,2.3433032035827637,-1.9400690793991089,-0.0,2.022176504135132,5.021947580366888,0.00012245457037352026,0.28714844584465027,-1.5970538298236292,0.0,-0.022217445075511932,0.7493420243263245,-0.0,-0.0034173408057540655,0.7943792939186096,-0.0041926102712750435,-0.056578438729047775
403.0,415.0,-0.0287,0.2483,9.6479,-0.0487,0.0345,-0.1251,-1.6548229656615199,3.915483830496669e-05,2.383453369140625,-1.940157175064087,-0.0,2.0254364013671875,5.021955477982321,0.00011025306594092399,0.29785144329071045,-1.5970538298236292,0.0,-0.024804264307022095,0.7493184804916382,-0.0,0.004912713076919317,0.7943189144134521,-0.0045828381553292274,0.0076976437121629715
403.0,415.0,-0.0287,0.2483,9.6479,-0.0487,0.0345,-0.1251,-1.6548353634276332,2.0526933440123685e-05,2.37176513671875,-1.9400731325149536,-0.0,1.9847646951675415,5.02198006489829,0.00010097469203174114,0.3023078441619873,-1.5970457235919397,0.0,-0.03140624985098839,0.7492983341217041,-0.0,-0.004673591814935207,0.7942708134651184,-0.0046718730591237545,-0.038205601274967194
403.0,415.0,-0.0287,0.2483,9.6479,-0.0487,0.0345,-0.1251,-1.6548353634276332,8.1012970554184e-08,2.3455450534820557,-1.940100908279419,-0.0,2.0225045680999756,5.021976130991735,9.313708869740367e-05,0.29514503479003906,-1.5970419088946741,0.0,-0.02491608075797558,0.7492862939834595,-0.0,0.0026482045650482178,0.7941986322402954,-0.004653626121580601,-0.005023662932217121
403.0,415.0,-0.0287,0.2483,9.6479,-0.0487,0.0345,-0.1251,-1.6548229656615199,1.9563680103001913e-13,2.3506953716278076,-1.9400970935821533,-0.0,2.031597137451172,5.0219435570533655,8.642853936180472e-05,0.305536687374115,-1.5970576445208948,0.0,-0.025687340646982193,0.7493224143981934,-0.0,-0.009561598300933838,0.7942226529121399,-0.004922059830278158,-0.005274418741464615
403.0,415.0,-0.0287,0.2483,9.6479,-0.0487,0.0345,-0.1251,-1.6548592052855433,4.724398641614459e-19,2.339855909347534,-1.940132737159729,-0.0,2.0156548023223877,5.0219594714935205,8.062165579758584e-05,0.30320948362350464,-1.5970819632159632,0.0,-0.021301856264472008,0.7492664456367493,-0.0,0.00507207540795207,0.7941544651985168,-0.0048919739201664925,-0.08184576779603958
403.0,415.0,-0.0287,0.2483,9.6479,-0.0487,0.0345,-0.1251,-1.6548434696593226,1.1408865343018148e-24,2.3883838653564453,-1.9400452375411987,-0.0,2.0638861656188965,5.021919357567587,7.554599869763479e-05,0.28964677453041077,-1.5970094839679163,0.0,-0.02505377307534218,0.7493380308151245,-0.0,0.0038296140264719725,0.7941305041313171,-0.005312568973749876,-0.007148337550461292
403.0,415.0,-0.0287,0.2483,9.6479,-0.0487,0.0345,-0.1251,-1.6548553905882777,-0.000611242197919637,2.34228515625,-1.9401487112045288,-0.0,2.0543837547302246,5.0219276426132105,7.107158307917416e-05,0.2986482083797455,-1.5970218817340296,0.0,-0.023549607023596764,0.7493104934692383,-0.0,-0.0021323999390006065,0.7941187620162964,-0.00545162009075284,0.024771297350525856
403.0,415.0,-0.0287,0.2483,9.6479,-0.0487,0.0345,-0.1251,-1.654858728448385,-0.0011522568529471755,2.349677085876465,-1.9400690793991089,3.926681131360965e-07,2.0050010681152344,5.021959501295843,6.7097571445629e-05,0.30530720949172974,-1.5970333258258265,0.0,-0.02014387771487236,0.7493420243263245,-0.0,-0.006878159008920193,0.7940621376037598,-0.005336399655789137,-0.02578890137374401
403.0,415.0,-0.0287,0.2483,9.6479,-0.0487,0.0345,-0.1251,-1.6548549137511195,-0.0014043856645002961,2.364626407623291,-1.9401214122772217,9.482473400240776e-13,2.0056991577148438,5.021939533739843,6.354440847644582e-05,0.29882973432540894,-1.5970295111285608,6.389817281160504e-05,-0.025211436673998833,0.7492942214012146,-0.0,-0.006276965141296387,0.7940746545791626,-0.005354797933250666,0.005637696944177151
403.0,415.0,-0.0287,0.2483,9.6479,-0.0487,0.0345,-0.1251,-1.6548825703062953,-0.0016303383745253086,2.3308558464050293,-1.9400537014007568,2.289905596426473e-18,2.0398035049438477,5.0219716904456995,6.034868420101702e-05,0.29148510098457336,-1.597018067036764,6.141515768831596e-05,-0.017839830368757248,0.749302327632904,-0.0,0.004652606789022684,0.7940627932548523,-0.005324517842382193,-0.056938186287879944
403.0,415.0,-0.0287,0.2483,9.6479,-0.0487,0.0345,-0.1251,-1.654919286767477,-0.0017104856669902802,2.396461009979248,-1.9400850534439087,5.529852231157328e-24,1.9576475620269775,5.021955477982321,5.745903035858646e-05,0.2930053472518921,-1.5970619360553187,5.899956522625871e-05,-0.02071913331747055,0.749302327632904,-0.0,0.0007003757636994123,0.794026792049408,-0.005517918150871992,-0.006878625601530075
406.0,405.0,0.4678,0.3045,9.3308,-0.0394,0.024,-0.1271,-1.6549111805357875,-0.0017858126666396856,2.320783853530884,-1.9400696754455566,0.0004793629050254822,2.0444047451019287,5.021967875748434,5.4833446483826265e-05,0.293641060590744,-1.5970376173602503,5.676676664734259e-05,-0.014072192832827568,0.749366283416748,-0.0,-0.014354472048580647,0.794015109539032,-0.006352454889565706,-0.03067014180123806
406.0,405.0,0.4678,0.3045,9.3308,-0.0394,0.024,-0.1271,-1.6549307308592738,-0.0019455351866781712,2.317046642303467,-1.9400696754455566,0.0009842924773693085,2.01175856590271,5.021939533739843,5.243733539828099e-05,0.3040546178817749,-1.597074333821432,5.469680036185309e-05,-0.03171476349234581,0.7493543028831482,-0.0,0.00883486494421959,0.7939427495002747,-0.007620309945195913,-0.0401981920003891
406.0,405.0,0.4678,0.3045,9.3308,-0.0394,0.024,-0.1271,-1.6549231014647425,-0.0019132435554638505,2.3434958457946777,-1.940037488937378,0.0009065974154509604,1.9969388246536255,5.0219435570533655,5.024187339586206e-05,0.2910411059856415,-1.597070042287008,5.27724769199267e-05,-0.012434115633368492,0.7493821978569031,-0.0,0.007325440179556608,0.7939431071281433,-0.00847533531486988,-0.0457187257707119
406.0,405.0,0.4678,0.3045,9.3308,-0.0394,0.024,-0.1271,-1.6549831829466761,-0.00267829280346632,2.3143160343170166,-1.940040946006775,0.0013029201654717326,1.995570182800293,5.021939533739843,4.758547220262699e-05,0.3014238178730011,-1.597070042287008,5.040795440436341e-05,-0.01617014966905117,0.7493420243263245,-0.0,-0.004334670025855303,0.793818473815918,-0.009603038430213928,-0.03434069827198982
406.0,405.0,0.4678,0.3045,9.3308,-0.0394,0.024,-0.1271,-1.65501131633901,-0.004317073151469231,2.331674575805664,-1.9400569200515747,0.0015226479154080153,1.957749366760254,5.021955477982321,4.577047366183251e-05,0.28651735186576843,-1.59706956544985,4.192413314285659e-07,-0.026736197993159294,0.7493104338645935,-1.6467969032873953e-07,-0.009471654891967773,0.7937544584274292,-0.010880209505558014,-0.03653969615697861
406.0,405.0,0.4678,0.3045,9.3308,-0.0394,0.024,-0.1271,-1.6550308666624964,-0.006206639111042023,2.3127834796905518,-1.940037488937378,0.0013828028459101915,2.067100763320923,5.021947580366888,4.408886525197886e-05,0.28570371866226196,-1.5970457235919397,1.1669736010855303e-10,-0.014757204800844193,0.7493942379951477,-4.583920049094914e-11,0.006708313710987568,0.7936702370643616,-0.012303312309086323,-0.05108607932925224
406.0,405.0,0.4678,0.3045,9.3308,-0.0394,0.024,-0.1271,-1.65509094814443,-0.007588465232402086,2.304675579071045,-1.9399691820144653,0.0015414361841976643,2.044689655303955,5.021959501295843,4.252641156199388e-05,0.30708426237106323,-1.5970457235919397,3.2483140932930074e-14,-0.01471184566617012,0.7493299841880798,-1.2759508652827965e-14,0.004007846582680941,0.7935861349105835,-0.01398440357297659,-0.08669421821832657
406.0,405.0,0.4678,0.3045,9.3308,-0.0394,0.024,-0.1271,-1.6551429233946742,-0.009253357537090778,2.3405601978302,-1.939985752105713,0.0026246849447488785,2.045602321624756,5.0219353316123865,3.600824857130647e-05,0.29476749897003174,-1.597086254750387,9.041802087976289e-18,-0.017469339072704315,0.7493422627449036,-3.5516558835418906e-18,0.017628928646445274,0.7935303449630737,-0.014879213646054268,-0.057317573577165604
406.0,405.0,0.4678,0.3045,9.3308,-0.0394,0.024,-0.1271,-1.6551667652525843,-0.009219679050147533,2.299449920654297,-1.9400252103805542,0.0036146771162748337,2.038153886795044,5.021983819990911,1.5098575204319786e-05,0.2923152446746826,-1.5970538298236292,2.5168191924695873e-21,-0.01581999659538269,0.7493861317634583,-9.886164403459192e-22,0.008873122744262218,0.7934142351150513,-0.016116365790367126,-0.09605461359024048
406.0,405.0,0.4678,0.3045,9.3308,-0.0394,0.024,-0.1271,-1.655266901055807,-0.009449217468500137,2.3052315711975098,-1.939985752105713,0.0038250938523560762,2.033644437789917,5.021915691881933,4.202743930648012e-09,0.2883896231651306,-1.5970857779132288,7.005657748595002e-25,-0.014626355841755867,0.7493259906768799,-2.7518495627832677e-25,0.019577737897634506,0.793293833732605,-0.016640551388263702,-0.0737433210015297
406.0,405.0,0.4678,0.3045,9.3308,-0.0394,0.024,-0.1271,-1.6553107700743617,-0.009897592477500439,2.335742712020874,-1.939905047416687,0.0037795782554894686,2.0208849906921387,5.021939772158422,1.3803264664602466e-05,0.2978583872318268,-1.5970457235919397,1.9500505317519846e-28,-0.005606017541140318,0.74931800365448,-7.659874778658753e-29,0.0034303213469684124,0.793177604675293,-0.016190720722079277,-0.08301360160112381
406.0,405.0,0.4678,0.3045,9.3308,-0.0394,0.024,-0.1271,-1.655370374719137,-0.01058733556419611,2.2931509017944336,-1.939921259880066,0.0041497210040688515,2.027040719985962,5.021939801960745,-2.2566300685866736e-05,0.2816612720489502,-1.5970900694476526,5.428037358248272e-32,-0.012751863338053226,0.7493382692337036,-2.1321542651916824e-32,0.030467938631772995,0.7930936813354492,-0.01583719439804554,-0.0924718976020813
406.0,405.0,0.4678,0.3045,9.3308,-0.0394,0.024,-0.1271,-1.655466695825094,-0.010967076756060123,2.282158374786377,-1.9398282766342163,0.004074046388268471,2.0369670391082764,5.0219397423561,-2.1757972717750818e-05,0.28968924283981323,-1.5970976988421839,1.5109141734967719e-35,-0.02011556178331375,0.7493581771850586,-5.9349295649869426e-36,0.02070505917072296,0.7929974794387817,-0.014785606414079666,-0.09706484526395798
406.0,405.0,0.4678,0.3045,9.3308,-0.0394,0.024,-0.1271,-1.6555386982359828,-0.011242799460887909,2.3197267055511475,-1.9398738145828247,0.004095104523003101,2.041175365447998,5.021903443127432,-2.09965837711934e-05,0.3032260537147522,-1.5970619360553187,4.205684851113394e-39,-0.0068482765927910805,0.7493940591812134,0.0001638164249015972,0.010434803552925587,0.793002188205719,-0.013584603555500507,-0.04215468093752861
406.0,405.0,0.4678,0.3045,9.3308,-0.0394,0.024,-0.1271,-1.6555820904173792,-0.011692136526107788,2.3129611015319824,-1.9398527145385742,0.004045555833727121,2.036999225616455,5.021903443127432,-2.910867078753654e-05,0.29580068588256836,-1.5970538298236292,1.1700842177112223e-42,-0.022094495594501495,0.7493579983711243,0.00017746101366356015,0.016589082777500153,0.7929058074951172,-0.012578167952597141,-0.07649104297161102
392.0,413.0,-0.0167,0.3589,10.0732,-0.0328,0.0041,-0.1413,-1.6556617222227992,-0.01179670263081789,2.30527663230896,-1.9397889375686646,0.004210207145661116,2.0092203617095947,5.021899390011587,-9.845508657235769e-07,0.29424193501472473,-1.5970576445208948,0.0,0.004092954099178314,0.7494305372238159,0.00017486490833107382,0.042380839586257935,0.7928258776664734,-0.010400239378213882,-0.016047345474362373
392.0,413.0,-0.0167,0.3589,10.0732,-0.0328,0.0041,-0.1413,-1.6557299099364222,-0.01223978865891695,2.300372362136841,-1.939697265625,0.003981404937803745,2.0464119911193848,5.021935659437933,-2.7405336333607977e-10,0.28663331270217896,-1.5970619360553187,0.0,-0.01037689484655857,0.7493700981140137,0.00017304180073551834,0.044004958122968674,0.7927575707435608,-0.007394121494144201,-0.00022469088435173035
392.0,413.0,-0.0167,0.3589,10.0732,-0.0328,0.0041,-0.1413,-1.6558662853636683,-0.012783230282366276,2.315225601196289,-1.9397495985031128,0.003812771523371339,2.044081926345825,5.021859425097265,-7.62837533484044e-14,0.29414746165275574,-1.5970900694476526,0.0,-0.011476743966341019,0.7494022846221924,0.0001826067891670391,0.04757052659988403,0.7927699089050293,-0.004680824466049671,0.002237549051642418
392.0,413.0,-0.0167,0.3589,10.0732,-0.0328,0.0041,-0.1413,-1.6559058628477992,-0.013237989507615566,2.3121814727783203,-1.9396768808364868,0.00381611124612391,2.0262131690979004,5.021911549359121,-2.123386198185668e-17,0.30197829008102417,-1.5971100966082972,0.0,-0.026623345911502838,0.7493460774421692,0.0002599030558485538,0.04533931612968445,0.7927297949790955,-0.002034981269389391,0.007108887191861868
392.0,413.0,-0.0167,0.3589,10.0732,-0.0328,0.0041,-0.1413,-1.656046052972311,-0.01373559795320034,2.2780818939208984,-1.9396698474884033,0.003661656053736806,2.0450148582458496,5.021903770952978,-0.00016208909801207483,0.29743802547454834,-1.5971220175372522,0.0,-0.014880143105983734,0.7494062781333923,0.0002228474331786856,0.0464874729514122,0.7927500605583191,-0.0004523512616287917,-0.05108107998967171
392.0,413.0,-0.0167,0.3589,10.0732,-0.0328,0.0041,-0.1413,-1.656109472314352,-0.014175035990774632,2.307821750640869,-1.9396296739578247,0.004934536758810282,2.026400327682495,5.0219038007553,-0.00017457011563237756,0.29452401399612427,-1.5971058050738733,0.0,-0.01626509428024292,0.7494181990623474,0.00025973108131438494,0.046126607805490494,0.7927698493003845,-8.309410048923382e-09,-0.06308281421661377
392.0,413.0,-0.0167,0.3589,10.0732,-0.0328,0.0041,-0.1413,-1.6562301121153773,-0.013873772695660591,2.3052144050598145,-1.939597249031067,0.006326048634946346,2.0425240993499756,5.021859663515844,-0.00018560329044703394,0.293114572763443,-1.5970857779132288,0.0,-0.007000721991062164,0.7493941783905029,0.00026417276239953935,0.054472602903842926,0.792789876461029,-2.006624609583816e-14,-0.03796976059675217
392.0,413.0,-0.0167,0.3589,10.0732,-0.0328,0.0041,-0.1413,-1.6563097439207972,-0.012946709990501404,2.2711374759674072,-1.9395253658294678,0.007912184111773968,2.067141532897949,5.021895634918966,-0.00017063153791241348,0.2725982964038849,-1.5971100966082972,0.0,-0.015085733495652676,0.7494701147079468,0.00031231340835802257,0.047782596200704575,0.7927819490432739,0.0009917783318087459,-0.015976373106241226
392.0,413.0,-0.0167,0.3589,10.0732,-0.0328,0.0041,-0.1413,-1.6563893757262171,-0.012624088674783707,2.3251891136169434,-1.9394702911376953,0.009518052451312542,2.034097671508789,5.021875577955999,-0.00018030080536846071,0.2899935841560364,-1.5970538298236292,0.0,-0.016100669279694557,0.7494379281997681,0.00036302502849139273,0.055199939757585526,0.7927778363227844,0.0010153804905712605,0.0027947714552283287
392.0,413.0,-0.0167,0.3589,10.0732,-0.0328,0.0041,-0.1413,-1.6564532719054164,-0.013003579340875149,2.271754264831543,-1.939414143562317,0.011718476191163063,2.0462327003479004,5.021875548153677,-0.0001677461841609329,0.2876982092857361,-1.5970538298236292,0.0,-0.013655873015522957,0.749406099319458,0.00035487517016008496,0.05767431855201721,0.7927575707435608,0.000983444624580443,-0.0329858735203743
392.0,413.0,-0.0167,0.3589,10.0732,-0.0328,0.0041,-0.1413,-1.656553407708639,-0.013510201126337051,2.3051750659942627,-1.9393538236618042,0.01263596024364233,2.053600311279297,5.0219077942665,-0.0002220685128122568,0.300234317779541,-1.5970419088946741,0.0,-0.020776061341166496,0.7494580149650574,0.00044511992018669844,0.043007832020521164,0.7927976846694946,0.0008387269335798919,-0.07687168568372726
392.0,413.0,-0.0167,0.3589,10.0732,-0.0328,0.0041,-0.1413,-1.6566130123534144,-0.014733889140188694,2.3342294692993164,-1.939314365386963,0.014173065312206745,2.0233402252197266,5.0219237683113,-0.00019394082482904196,0.29911431670188904,-1.5971058050738733,0.0,-0.007297704461961985,0.7493942379951477,0.00047824811190366745,0.05243472754955292,0.7927857637405396,0.0007612612098455429,-0.04461148381233215
392.0,413.0,-0.0167,0.3589,10.0732,-0.0328,0.0041,-0.1413,-1.6567250690855921,-0.015074779279530048,2.2839956283569336,-1.93919837474823,0.01567540504038334,2.0080928802490234,5.021855550795355,-0.00017173297237604856,0.30300864577293396,-1.5970614592181605,0.0,-0.011381518095731735,0.7493741512298584,0.000448568316642195,0.05750158801674843,0.7928217649459839,0.0006200447678565979,-0.031299132853746414
392.0,413.0,-0.0167,0.3589,10.0732,-0.0328,0.0041,-0.1413,-1.6568170986571253,-0.016538267955183983,2.2968251705169678,-1.9390491247177124,0.017634974792599678,2.07865834236145,5.021831500321188,-0.00015408861509058625,0.2878257632255554,-1.597081486378805,0.0,-0.008666789159178734,0.7495261430740356,0.0005639818264171481,0.0447593629360199,0.792829692363739,0.000591238378547132,-0.0128988828510046
392.0,413.0,-0.0167,0.3589,10.0732,-0.0328,0.0041,-0.1413,-1.6569248638548792,-0.017922978848218918,2.279433012008667,-1.938941478729248,0.019699756056070328,2.041447639465332,5.0218796012695215,-0.00013973285967949778,0.2970094084739685,-1.597081486378805,0.0,-0.021701976656913757,0.7493939995765686,0.000893925956916064,0.05407363921403885,0.7928539514541626,0.0005558698903769255,-0.029928594827651978
383.0,425.0,0.6502,0.0269,9.4732,-0.0432,0.0279,-0.1156,-1.6570617161192835,-0.019252650439739227,2.310648202896118,-1.9388056993484497,0.02142959088087082,2.022907018661499,5.021831500321188,-0.00012782428530044854,0.3006606101989746,-1.5970976988421839,0.0,0.0018054961692541838,0.7494421005249023,0.0012519359588623047,0.0774727538228035,0.7928338050842285,0.000566918752156198,-0.03699039667844772
383.0,425.0,0.6502,0.0269,9.4732,-0.0432,0.0279,-0.1156,-1.657128473321432,-0.019860530272126198,2.2863738536834717,-1.9386223554611206,0.02386149764060974,2.067683458328247,5.021903770952978,-0.00011778619227698073,0.30978095531463623,-1.5970781485186976,0.0,-0.013816319406032562,0.7494659423828125,0.0017950233304873109,0.06662444770336151,0.7928537130355835,0.000510977057274431,-0.011893498711287975
383.0,425.0,0.6502,0.0269,9.4732,-0.0432,0.0279,-0.1156,-1.6572405300536097,-0.021818850189447403,2.2955400943756104,-1.9385427236557007,0.025167332962155342,2.025045871734619,5.021847414761343,-0.00010921018838416785,0.2972859740257263,-1.5970657507525843,0.0,-0.008177629671990871,0.7495421767234802,0.004354046657681465,0.07163667678833008,0.7928416132926941,0.0004987477441318333,-0.0602259561419487
383.0,425.0,0.6502,0.0269,9.4732,-0.0432,0.0279,-0.1156,-1.6574651203551234,-0.024670520797371864,2.2820229530334473,-1.9383870363235474,0.0277667585760355,2.0983283519744873,5.021811502962866,-0.00012197900650789961,0.29861098527908325,-1.5971019903766077,0.0,-0.014684569090604782,0.7495140433311462,0.008200549520552158,0.08097819983959198,0.7928577661514282,0.0004763324395753443,-0.0065938434563577175
383.0,425.0,0.6502,0.0269,9.4732,-0.0432,0.0279,-0.1156,-1.6575919590392054,-0.028621593490242958,2.231732130050659,-1.9381664991378784,0.030074885115027428,2.0865232944488525,5.021847742586889,-0.00011439414811320603,0.2985759675502777,-1.59709340730776,0.0,-0.02863921970129013,0.7495333552360535,0.006235326640307903,0.06854580342769623,0.7928498387336731,0.0003889068029820919,0.009839467704296112
383.0,425.0,0.6502,0.0269,9.4732,-0.0432,0.0279,-0.1156,-1.6577559910216273,-0.032829396426677704,2.258676052093506,-1.9379874467849731,0.032626304775476456,2.0098557472229004,5.021851736098089,-0.00010755834955489263,0.3047419488430023,-1.5970976988421839,0.0,-0.011627854779362679,0.7495617866516113,0.0020055356435477734,0.07001078873872757,0.7928577661514282,0.00037500623147934675,-0.02880440652370453
383.0,425.0,0.6502,0.0269,9.4732,-0.0432,0.0279,-0.1156,-1.6579843960204066,-0.036841265857219696,2.2859604358673096,-1.9377425909042358,0.03718569129705429,2.0568199157714844,5.021795141487875,-0.00011833429744001478,0.30358296632766724,-1.5970857779132288,0.0,-0.01189744845032692,0.7496015429496765,0.00086151750292629,0.08971519023180008,0.7928215265274048,0.0003243253449909389,-0.009640495292842388
383.0,425.0,0.6502,0.0269,9.4732,-0.0432,0.0279,-0.1156,-1.6583520374693812,-0.043484292924404144,2.23002290725708,-1.9373996257781982,0.04471294581890106,2.075655460357666,5.021803307324209,-0.00011012937466148287,0.299532413482666,-1.5970776716815394,0.0,-0.01614977791905403,0.7495617270469666,0.0005549082416109741,0.07935398817062378,0.7928334474563599,0.0002748073311522603,-0.019819675013422966
383.0,425.0,0.6502,0.0269,9.4732,-0.0432,0.0279,-0.1156,-1.6586033306517542,-0.048927124589681625,2.231734275817871,-1.937139630317688,0.049841370433568954,2.0896830558776855,5.021843659668722,-0.00010464170918567106,0.2930086553096771,-1.5971139113055628,0.0,-0.011735374107956886,0.7496055364608765,0.00042403253610245883,0.0755852535367012,0.7928416132926941,0.0002465727156959474,0.012746593914926052
383.0,425.0,0.6502,0.0269,9.4732,-0.0432,0.0279,-0.1156,-1.6589027843871058,-0.05505376681685448,2.274695873260498,-1.9367841482162476,0.05596829578280449,2.0862789154052734,5.021859961539068,-9.967490041162819e-05,0.2970708906650543,-1.5971053282367151,0.0,-0.011355919763445854,0.7495339512825012,0.0003431403310969472,0.08618511259555817,0.7928536534309387,0.00022359985450748354,0.02585422620177269
383.0,425.0,0.6502,0.0269,9.4732,-0.0432,0.0279,-0.1156,-1.6592990360655726,-0.06336688250303268,2.24703049659729,-1.9364080429077148,0.060029830783605576,2.119901180267334,5.021831500321188,-9.515826241113245e-05,0.29818493127822876,-1.5971301237689417,0.0,-0.024737069383263588,0.7495498657226562,0.00028817905695177615,0.08563928306102753,0.7928577661514282,0.00020454288460314274,0.016681427136063576
383.0,425.0,0.6502,0.0269,9.4732,-0.0432,0.0279,-0.1156,-1.6597024403014125,-0.07231917977333069,2.2501134872436523,-1.9360765218734741,0.06360851228237152,2.102553367614746,5.0218796012695215,-9.10332310013473e-05,0.2971741557121277,-1.5971058050738733,0.0,-0.03305402025580406,0.7496294379234314,0.0002483984862919897,0.07693412899971008,0.7928416132926941,0.00018847946194000542,-0.0028300248086452484
383.0,425.0,0.6502,0.0269,9.4732,-0.0432,0.0279,-0.1156,-1.6601501903929652,-0.07852846384048462,2.2226293087005615,-1.935628890991211,0.06671439856290817,2.1406686305999756,5.0218436298663995,-8.725103543838486e-05,0.2936709523200989,-1.59709340730776,0.0,-0.016410313546657562,0.7495497465133667,0.00021826999727636576,0.07132387906312943,0.7928256392478943,0.0001530136214569211,-0.008917035534977913
383.0,425.0,0.6502,0.0269,9.4732,-0.0432,0.0279,-0.1156,-1.6606337032713832,-0.08385638147592545,2.235774278640747,-1.9352248907089233,0.06817074120044708,2.09051251411438,5.021847712784567,-8.377053018193692e-05,0.2959122061729431,-1.5970976988421839,0.0,-0.008981418795883656,0.7496095299720764,0.00019466124649625272,0.0770694762468338,0.7928379774093628,0.00014253244444262236,-0.026367653161287308
387.0,435.0,-0.1986,0.2171,9.2554,-0.0509,0.0205,-0.119,-1.661116739312643,-0.08224494755268097,2.2399888038635254,-1.9347946643829346,0.07094571739435196,2.1721222400665283,5.0218796012695215,-8.055705984588712e-05,0.2872668504714966,-1.59709340730776,0.0,-0.022178659215569496,0.7496015429496765,0.0001756617275532335,0.08197015523910522,0.7928338050842285,0.00013347322237677872,-0.019154716283082962
387.0,435.0,-0.1986,0.2171,9.2554,-0.0509,0.0205,-0.119,-1.6616884670653285,-0.07414224743843079,2.265591621398926,-1.9343990087509155,0.07303376495838165,2.110060691833496,5.021871524840154,-7.758106221444905e-05,0.3024468421936035,-1.5970776716815394,0.0,-0.022147973999381065,0.7496334314346313,0.00016004183271434158,0.0807211697101593,0.7928054332733154,4.2593830585246906e-05,-0.015473301522433758
387.0,435.0,-0.1986,0.2171,9.2554,-0.0509,0.0205,-0.119,-1.6620832882323207,-0.07154200971126556,2.256411552429199,-1.933950424194336,0.07234124094247818,2.0905678272247314,5.02187596538619,-8.110646740533412e-05,0.3010377883911133,-1.5971019903766077,0.0,-0.014995822682976723,0.7495498657226562,0.00014697304868604988,0.08254870772361755,0.7928618788719177,5.948157195234671e-05,-0.09836095571517944
387.0,435.0,-0.1986,0.2171,9.2554,-0.0509,0.0205,-0.119,-1.6625873051085414,-0.07584279030561447,2.2116551399230957,-1.933571219444275,0.06891696155071259,2.1035091876983643,5.021791386395254,-0.001403258997015655,0.28906992077827454,-1.5971139113055628,7.970844308147207e-06,-0.00044248136691749096,0.7495498657226562,0.00013587772264145315,0.06312887370586395,0.7928618788719177,5.579418575507589e-05,-0.01901520974934101
387.0,435.0,-0.1986,0.2171,9.2554,-0.0509,0.0205,-0.119,-1.6630469761290492,-0.08470691740512848,2.2266530990600586,-1.933152675628662,0.06677418202161789,2.1571409702301025,5.021775471955099,-0.0018231128342449665,0.28529781103134155,-1.5970457235919397,2.218714101331898e-09,-0.01102470513433218,0.7495657205581665,0.00012634016457013786,0.060426853597164154,0.7928659319877625,5.253724521026015e-05,-0.004510890692472458
387.0,435.0,-0.1986,0.2171,9.2554,-0.0509,0.0205,-0.119,-1.6635071239867152,-0.09442653506994247,2.2005228996276855,-1.9326801300048828,0.06703674048185349,2.1087429523468018,5.02176325300292,-0.0012215415481477976,0.29012611508369446,-1.5970619360553187,6.175870904089054e-13,-0.0011231782846152782,0.7495458126068115,0.00011805363465100527,0.07691159844398499,0.792885959148407,-6.167533138068393e-05,-0.04413403198122978
387.0,435.0,-0.1986,0.2171,9.2554,-0.0509,0.0205,-0.119,-1.664013525048727,-0.09586677700281143,2.1775546073913574,-1.932207703590393,0.07182460278272629,2.1507487297058105,5.021815526276388,-0.0007721222355030477,0.2794477045536041,-1.5970495382892054,1.719076527509754e-16,-0.010297875851392746,0.7495936155319214,0.0001107874559238553,0.062070176005363464,0.7928135991096497,-0.00014435846242122352,-0.026171527802944183
387.0,435.0,-0.1986,0.2171,9.2554,-0.0509,0.0205,-0.119,-1.6645614109435023,-0.09681478142738342,2.2021327018737793,-1.93174147605896,0.07996132969856262,2.1572985649108887,5.021827745228567,-0.00038985966239124537,0.2793344557285309,-1.5970900694476526,4.785112858470541e-20,0.0006448539206758142,0.7495220303535461,0.00010436389857204631,0.06973007321357727,0.7928580641746521,-0.0001381186448270455,-0.07488959282636642
387.0,435.0,-0.1986,0.2171,9.2554,-0.0509,0.0205,-0.119,-1.6651607952513636,-0.10102371871471405,2.1850662231445312,-1.9312493801116943,0.08801683038473129,2.13027286529541,5.021795499115743,-0.00014870543964207172,0.27319127321243286,-1.5970419088946741,1.3319537731422278e-23,-0.001969854114577174,0.7495498657226562,9.864437015494332e-05,0.05945007503032684,0.7928580641746521,-0.00011974082008237019,0.005120357498526573
387.0,435.0,-0.1986,0.2171,9.2554,-0.0509,0.0205,-0.119,-1.665800233880514,-0.10403763502836227,2.174201011657715,-1.930714726448059,0.09518742561340332,2.172583818435669,5.021779554873266,-0.00011911732144653797,0.28352898359298706,-1.59706956544985,3.70754186913577e-27,-0.0020190526265650988,0.7495537996292114,9.351917105959728e-05,0.058536164462566376,0.7928416132926941,-7.189861207734793e-05,-0.033922843635082245
387.0,435.0,-0.1986,0.2171,9.2554,-0.0509,0.0205,-0.119,-1.6667033634581507,-0.11330898851156235,2.181781530380249,-1.9299230575561523,0.09714570641517639,2.125021457672119,5.021827745228567,-0.00013493388541974127,0.28574004769325256,-1.5971019903766077,6.73827451227509e-32,0.003810202470049262,0.7495896220207214,8.746047387830913e-05,0.06057652458548546,0.7928777933120728,-4.5771031409458374e-10,-0.09335935115814209
387.0,435.0,-0.1986,0.2171,9.2554,-0.0509,0.0205,-0.119,-1.6673461399474085,-0.1190553605556488,2.213261604309082,-1.9292795658111572,0.09873928129673004,2.146054744720459,5.021795499115743,-0.00012209310079924762,0.2849014103412628,-1.5970900694476526,1.8756232057552946e-35,-0.002130029024556279,0.7496055364608765,8.340772183146328e-05,0.0607641339302063,0.7928495407104492,-1.105316586278186e-15,-0.06848768144845963
387.0,435.0,-0.1986,0.2171,9.2554,-0.0509,0.0205,-0.119,-1.6680528126158656,-0.1254446804523468,2.1580593585968018,-1.9287574291229248,0.10376660525798798,2.150702953338623,5.0218154964740656,-0.00010750718502094969,0.28192663192749023,-1.5970781485186976,5.2208667339812223e-39,-0.010562446899712086,0.7495458126068115,7.971392187755555e-05,0.06304974853992462,0.7928495407104492,-2.66920944887401e-21,-0.05323423072695732
387.0,435.0,-0.1986,0.2171,9.2554,-0.0509,0.0205,-0.119,-1.6688291035094203,-0.12756596505641937,2.221461057662964,-1.9281055927276611,0.10678599774837494,2.1684772968292236,5.021807360440054,-9.603394573787227e-05,0.2898334264755249,-1.5970295111285608,1.4531465075048353e-42,0.0007159644737839699,0.749549925327301,7.633350469404832e-05,0.06211207062005997,0.7928416132926941,-6.4458267529496084e-27,-0.04480338469147682
387.0,435.0,-0.1986,0.2171,9.2554,-0.0509,0.0205,-0.119,-1.6696087322630824,-0.12788143754005432,2.173055648803711,-1.9274260997772217,0.1107046827673912,2.1765589714050293,5.021779525070944,-0.00011543963046278805,0.27991873025894165,-1.5970495382892054,0.0,0.0023343211505562067,0.7495697140693665,7.32280605006963e-05,0.05799964815378189,0.792837917804718,-1.5565913826003994e-32,-0.02739027701318264
382.0,426.0,0.1825,0.3529,9.6479,-0.0567,-0.0295,-0.1196,-1.67033114055776,-0.1327848583459854,2.1695070266723633,-1.926738977432251,0.11729002743959427,2.138242721557617,5.021823692112722,-0.00010552306775934994,0.28154826164245605,-1.5970543066607874,0.0,0.0037914663553237915,0.7494977712631226,7.036543684080243e-05,0.06300009042024612,0.7928537130355835,-3.758984531849786e-38,-0.055614832788705826
382.0,426.0,0.1825,0.3529,9.6479,-0.0567,-0.0295,-0.1196,-1.6711069546141566,-0.13850167393684387,2.1746413707733154,-1.926003336906433,0.12334393709897995,2.1899642944335938,5.0218236623104,-9.712434984976426e-05,0.2776831090450287,-1.5970662275897425,0.0,0.016298647969961166,0.7495459318161011,6.771826156182215e-05,0.06635865569114685,0.7928379774093628,-9.10844001811131e-44,-0.06076400727033615
382.0,426.0,0.1825,0.3529,9.6479,-0.0567,-0.0295,-0.1196,-1.6720062694945277,-0.13748347759246826,2.2147293090820312,-1.925288438796997,0.1251356601715088,2.1919667720794678,5.021779554873266,-8.546712342649698e-05,0.27477943897247314,-1.5970295111285608,0.0,0.01121876947581768,0.7495657801628113,6.526298966491595e-05,0.06354669481515884,0.7928420305252075,0.0,-0.13364937901496887
382.0,426.0,0.1825,0.3529,9.6479,-0.0567,-0.0295,-0.1196,-1.6728249988951625,-0.1423046588897705,2.1760830879211426,-1.924484372138977,0.12663865089416504,2.1614489555358887,5.021815764694967,-0.00010510144784348086,0.26028740406036377,-1.5970500151263636,0.0,0.020780663937330246,0.7495896220207214,6.297954678302631e-05,0.0642613023519516,0.7927853465080261,0.00015150266699492931,-0.06974799931049347
382.0,426.0,0.1825,0.3529,9.6479,-0.0567,-0.0295,-0.1196,-1.6736918888487757,-0.1495920866727829,2.1078057289123535,-1.9237415790557861,0.13342228531837463,2.2084951400756836,5.02181954958991,-0.0004028141556773335,0.2696697413921356,-1.5970819632159632,0.0,0.022684089839458466,0.7495498657226562,6.085049972170964e-05,0.062201887369155884,0.7928094267845154,0.00010246245074085891,-0.14939557015895844
382.0,426.0,0.1825,0.3529,9.6479,-0.0567,-0.0295,-0.1196,-1.6745630703368128,-0.15624941885471344,2.1765546798706055,-1.9229707717895508,0.13914912939071655,2.14284086227417,5.021747606783666,-0.0005961723509244621,0.2713466286659241,-1.59706956544985,0.0,0.007199895568192005,0.7496134638786316,1.9695339688041713e-06,0.06290192157030106,0.7928457260131836,7.636688678758219e-05,-0.10366971790790558
382.0,426.0,0.1825,0.3529,9.6479,-0.0567,-0.0295,-0.1196,-1.6755744419493617,-0.15964528918266296,2.143592357635498,-1.9221118688583374,0.14438733458518982,2.244671583175659,5.021783548384466,-0.002059894846752286,0.26489225029945374,-1.5971100966082972,0.0,0.008184272795915604,0.7495896220207214,5.482270193368777e-10,0.06322616338729858,0.7928416132926941,6.0868344007758424e-05,-0.10544901341199875
382.0,426.0,0.1825,0.3529,9.6479,-0.0567,-0.0295,-0.1196,-1.6764451466002406,-0.16275066137313843,2.1478872299194336,-1.9211480617523193,0.1507742702960968,2.2506790161132812,5.021811771183767,-0.0018432249780744314,0.27006614208221436,-1.597046200429098,0.0,0.014177168719470501,0.7495379447937012,1.526010356489929e-13,0.07180202752351761,0.7928135991096497,5.06002179463394e-05,-0.11376992613077164
382.0,426.0,0.1825,0.3529,9.6479,-0.0567,-0.0295,-0.1196,-1.6774479351439417,-0.16599337756633759,2.1878535747528076,-1.9202654361724854,0.15745337307453156,2.233694076538086,5.021787631302633,-0.0009062824537977576,0.25422489643096924,-1.5970781485186976,4.0535673178965226e-05,0.015689782798290253,0.7495418787002563,4.2477057869745407e-17,0.06061280146241188,0.7929142713546753,4.329659714130685e-05,-0.12840276956558228
382.0,426.0,0.1825,0.3529,9.6479,-0.0567,-0.0295,-0.1196,-1.6784707508482875,-0.17553716897964478,2.105839252471924,-1.919278860092163,0.15724439918994904,2.1988420486450195,5.021775471955099,-0.000563984620384872,0.272928386926651,-1.5970495382892054,7.038657349767163e-05,0.011426988057792187,0.7496415972709656,1.1823643743237685e-20,0.0546366348862648,0.7928457260131836,3.783565261983313e-05,-0.12181589007377625
382.0,426.0,0.1825,0.3529,9.6479,-0.0567,-0.0295,-0.1196,-1.6795937023558558,-0.18713055551052094,2.204713821411133,-1.9183279275894165,0.16394545137882233,2.2281947135925293,5.021751332073965,-0.0004914968158118427,0.26585111021995544,-1.5970819632159632,6.724024569848552e-05,0.019859954714775085,0.7496213912963867,3.291154715068065e-24,0.06953822076320648,0.7928012013435364,3.359808033565059e-05,-0.1399034857749939
382.0,426.0,0.1825,0.3529,9.6479,-0.0567,-0.0295,-0.1196,-1.6806966267027796,-0.19257575273513794,2.064465284347534,-1.9173085689544678,0.17535535991191864,2.2237441539764404,5.021763551026144,-0.0003860707220155746,0.2694457471370697,-1.5970781485186976,6.435540126403794e-05,0.023999828845262527,0.7495299577713013,9.161048818272404e-28,0.05605818331241608,0.7928659319877625,3.0214197977329604e-05,-0.11680030822753906
382.0,426.0,0.1825,0.3529,9.6479,-0.0567,-0.0295,-0.1196,-1.6823235950865687,-0.19401875138282776,2.14990234375,-1.9158215522766113,0.19003628194332123,2.2483534812927246,5.0217995820339105,-0.0003001802833750844,0.2683286666870117,-1.5970419088946741,6.0873197071487084e-05,0.020701700821518898,0.7496015429496765,1.664975194355679e-32,0.059402644634246826,0.7928457260131836,9.789015301478465e-13,-0.09344033896923065
382.0,426.0,0.1825,0.3529,9.6479,-0.0567,-0.0295,-0.1196,-1.6835819683470667,-0.2002207636833191,2.189798355102539,-1.914731740951538,0.1941089779138565,2.2552523612976074,5.021795797138967,-0.0002782025549095124,0.26649147272109985,-1.5970662275897425,5.849913213751279e-05,0.010956808924674988,0.7495618462562561,4.634519567839816e-36,0.0634334608912468,0.7928618788719177,2.3639318506002216e-18,-0.08777771890163422
382.0,426.0,0.1825,0.3529,9.6479,-0.0567,-0.0295,-0.1196,-1.6848646603026332,-0.217770516872406,2.1648929119110107,-1.9135080575942993,0.1961447149515152,2.2853739261627197,5.021783578186788,-0.0002625929191708565,0.27484267950057983,-1.5971100966082972,5.630334635498002e-05,0.010334626771509647,0.7495538592338562,1.2900353662574266e-39,0.07060220837593079,0.7929019927978516,5.7086175786112716e-24,-0.07597983628511429
398.0,443.0,-0.1854,0.1172,9.3817,-0.0347,0.0043,-0.122,-1.6862150631346644,-0.233731210231781,2.082425355911255,-1.912285327911377,0.20694079995155334,2.2570877075195312,5.021759497910299,-0.00023340684128925204,0.27662938833236694,-1.5970738569842737,5.426642019301653e-05,0.006100719794631004,0.7496015429496765,3.587324068671532e-43,0.06244279444217682,0.7928416132926941,1.37856380230537e-29,-0.056720077991485596
398.0,443.0,-0.1854,0.1172,9.3817,-0.0347,0.0043,-0.122,-1.6876136265196742,-0.229606494307518,2.1473495960235596,-1.9110709428787231,0.22145774960517883,2.3073201179504395,5.021779495268621,-0.00021005631424486637,0.27652785181999207,-1.5970781485186976,5.237181903794408e-05,0.014483258128166199,0.7495856285095215,0.0,0.07216858863830566,0.7927974462509155,3.329069739108613e-35,-0.06170651316642761
398.0,443.0,-0.1854,0.1172,9.3817,-0.0347,0.0043,-0.122,-1.6890441379942835,-0.22590935230255127,2.1668360233306885,-1.9097604751586914,0.22589561343193054,2.322633743286133,5.021779554873266,-0.00019095388415735215,0.28157445788383484,-1.5970457235919397,5.0604925490915775e-05,0.007433402817696333,0.7495737075805664,0.0,0.07203587144613266,0.7928901314735413,8.039249289831476e-41,-0.08002252131700516
398.0,443.0,-0.1854,0.1172,9.3817,-0.0347,0.0043,-0.122,-1.6904827557005824,-0.23752769827842712,2.1368942260742188,-1.9083447456359863,0.2252572476863861,2.2715725898742676,5.021815883904257,-0.0002000265521928668,0.26954755187034607,-1.5970781485186976,8.302838523377432e-07,-0.0025841498281806707,0.7495697140693665,0.0,0.06781772524118423,0.7928778529167175,0.0,-0.11939829587936401
398.0,443.0,-0.1854,0.1172,9.3817,-0.0347,0.0043,-0.122,-1.6920010052123011,-0.25253328680992126,2.1650638580322266,-1.9069339036941528,0.23342634737491608,2.2815141677856445,5.021751600294866,-0.00018464986351318657,0.27636751532554626,-1.59706956544985,2.311125735232622e-10,-0.0010005887597799301,0.7495776414871216,5.7889391058552064e-08,0.06608176231384277,0.7929142117500305,0.0,-0.0537155419588089
398.0,443.0,-0.1854,0.1172,9.3817,-0.0347,0.0043,-0.122,-1.6934954128661097,-0.2504269480705261,2.224565029144287,-1.9055176973342896,0.24361537396907806,2.331089973449707,5.021751630097189,-0.00017145744641311467,0.2661169767379761,-1.5970857779132288,6.433104103673731e-14,0.004043998196721077,0.7495777010917664,1.611372667242872e-11,0.07680684328079224,0.7928982377052307,0.0,-0.057826928794384
398.0,443.0,-0.1854,0.1172,9.3817,-0.0347,0.0043,-0.122,-1.6949783764281214,-0.2490716278553009,2.165682554244995,-1.9040135145187378,0.24539236724376678,2.3203556537628174,5.021759855538168,-0.00014728133101016283,0.27195799350738525,-1.5970900694476526,1.790677943076834e-17,-0.00480625731870532,0.7495816349983215,4.485314317902904e-15,0.08014227449893951,0.7928618788719177,0.00020180377759970725,-0.08180637657642365
398.0,443.0,-0.1854,0.1172,9.3817,-0.0347,0.0043,-0.122,-1.696468015710348,-0.26127442717552185,2.1507983207702637,-1.9025629758834839,0.24581313133239746,2.2926125526428223,5.021711665182867,-0.0013376910937950015,0.2775427997112274,-1.5970619360553187,4.984417503421218e-21,0.00822820607572794,0.7496455907821655,1.248503713388417e-18,0.0723261758685112,0.7928297519683838,0.0001509978319518268,-0.044543489813804626
398.0,443.0,-0.1854,0.1172,9.3817,-0.0347,0.0043,-0.122,-1.698066850701803,-0.2661132514476776,2.1464285850524902,-1.900987148284912,0.2519177496433258,2.3260881900787354,5.021731602936544,-0.0012085649650543928,0.2802876830101013,-1.5971258322345179,1.3874311065551875e-24,0.005389046855270863,0.7496054172515869,3.475256414667294e-22,0.09393909573554993,0.7928659319877625,0.00018093477410729975,-0.09725958108901978
398.0,443.0,-0.1854,0.1172,9.3817,-0.0347,0.0043,-0.122,-1.699597021142477,-0.26290008425712585,2.1809661388397217,-1.8994029760360718,0.26139703392982483,2.2839832305908203,5.0217556832130334,-0.0008765935781411827,0.27295172214508057,-1.5970900694476526,3.8619657246751576e-28,0.0035079922527074814,0.7495975494384766,9.673503608993063e-26,0.07703351229429245,0.7928580641746521,-8.141195576172322e-05,-0.02389766089618206
398.0,443.0,-0.1854,0.1172,9.3817,-0.0347,0.0043,-0.122,-1.701223989526266,-0.26122215390205383,2.209669828414917,-1.8977949619293213,0.2649080753326416,2.3196680545806885,5.021759825735845,-0.0006418148404918611,0.2866365611553192,-1.5970538298236292,1.074992405013424e-31,-0.01703677885234356,0.7495696544647217,0.00022189112496562302,0.07331010699272156,0.7928217649459839,-6.41172009636648e-05,-0.07754873484373093
398.0,443.0,-0.1854,0.1172,9.3817,-0.0347,0.0043,-0.122,-1.7027374706664027,-0.2624966502189636,2.176923990249634,-1.8962483406066895,0.27028071880340576,2.301919937133789,5.021763849049368,-0.00037862584576942027,0.2763260304927826,-1.5970857779132288,2.992280850076561e-35,-0.006967708468437195,0.7496176362037659,0.00023279176093637943,0.0928075835108757,0.7928577661514282,-6.303667305473937e-06,-0.04476749897003174
398.0,443.0,-0.1854,0.1172,9.3817,-0.0347,0.0043,-0.122,-1.7043191395201625,-0.265336811542511,2.204383373260498,-1.8945964574813843,0.27607348561286926,2.3681507110595703,5.021747934609213,-0.00030207575764507055,0.27895188331604004,-1.5970900694476526,8.329123291460172e-39,0.004201425705105066,0.7495895028114319,0.0002404641272732988,0.08522963523864746,0.7928537130355835,-1.5222614835330717e-11,-0.021920332685112953
398.0,443.0,-0.1854,0.1172,9.3817,-0.0347,0.0043,-0.122,-1.705897947350973,-0.27138635516166687,2.2247426509857178,-1.8929370641708374,0.2780414819717407,2.3474926948547363,5.0217115757759,-0.000394557137042284,0.2959789037704468,-1.5970938841449183,2.3177476599932474e-42,0.0073191518895328045,0.7496256828308105,0.00032525003189221025,0.07901502400636673,0.7928860187530518,-3.676081962925281e-17,-0.0017989221960306168
398.0,443.0,-0.1854,0.1172,9.3817,-0.0347,0.0043,-0.122,-1.708099981347555,-0.27607229351997375,2.2027230262756348,-1.8907206058502197,0.28559502959251404,2.3946666717529297,5.021699654846945,-0.0018273184541612864,0.2795408070087433,-1.5970938841449183,0.0,-0.008113746531307697,0.7496216297149658,0.0003604265220928937,0.08540475368499756,0.7929060459136963,-1.191003656471411e-24,-0.049886591732501984
403.0,389.0,0.1256,0.2136,9.6993,-0.026,0.0336,-0.1187,-1.7097217045226039,-0.27674949169158936,2.2868683338165283,-1.8889857530593872,0.2884863018989563,2.360851526260376,5.021667706757345,-0.002749405335634947,0.27785035967826843,-1.5970738569842737,0.0,0.002216015011072159,0.7496134638786316,0.00037634652107954025,0.07992662489414215,0.7928495407104492,-2.8761329975919425e-30,-0.07745461910963058
403.0,389.0,0.1256,0.2136,9.6993,-0.026,0.0336,-0.1187,-1.7113844356932582,-0.2830357551574707,2.22430419921875,-1.887222409248352,0.2904629707336426,2.3542654514312744,5.021699654846945,-0.001493122079409659,0.27401846647262573,-1.5970738569842737,0.0,-0.006653127260506153,0.7496335506439209,0.00044456892646849155,0.09051132947206497,0.7928659319877625,-6.945522879217758e-36,-0.05526354908943176
