ramyac6/ROB537/final_project/csv/all/bad_75.csv
tof_0,tof_1,accelx,accely,accelz,gyrox,gyroy,gyroz,shoulder_lift_joint_position,shoulder_lift_joint_velocity,shoulder_lift_joint_effort,elbow_joint_position,elbow_joint_velocity,elbow_joint_effort,wrist_1_joint_position,wrist_1_joint_velocity,wrist_1_joint_effort,wrist_2_joint_position,wrist_2_joint_velocity,wrist_2_joint_effort,wrist_3_joint_position,wrist_3_joint_velocity,wrist_3_joint_effort,shoulder_pan_joint_position,shoulder_pan_joint_velocity,shoulder_pan_joint_effort
414.0,423.0,-3.1944,0.2752,9.2315,-0.0339,0.0264,-0.1072,-2.2679435215392054,0.0,4.709651947021484,-1.3300652503967285,-0.0,1.9501893520355225,5.373973655491628,-0.0,0.22942185401916504,-1.697474781666891,0.0,0.016959574073553085,0.31386566162109375,-0.0,-0.004506747703999281,1.4768290519714355,0.0,0.029636913910508156
414.0,423.0,-3.1944,0.2752,9.2315,-0.0339,0.0264,-0.1072,-2.267870088616842,0.0,4.734243392944336,-1.3299646377563477,-0.0,1.961155891418457,5.374005782395162,-0.0,0.24213486909866333,-1.6974790732013147,0.0,0.019396895542740822,0.3139418959617615,-0.0,0.000728831859305501,1.4768493175506592,0.0,-0.02965112030506134
414.0,423.0,-3.1944,0.2752,9.2315,-0.0339,0.0264,-0.1072,-2.2679630718626917,0.0,4.702573776245117,-1.3300169706344604,-0.0,1.8912138938903809,5.373969781189718,-0.0,0.223486065864563,-1.6975591818438929,0.0,0.006818845868110657,0.31395044922828674,-0.0,0.001504008425399661,1.4768893718719482,0.0,-0.058141905814409256
414.0,423.0,-3.1944,0.2752,9.2315,-0.0339,0.0264,-0.1072,-2.2679506740965785,0.0,4.710329055786133,-1.3300572633743286,-0.0,1.906905174255371,5.3740296242530725,-0.0,0.2293897122144699,-1.6974909941302698,0.0,0.007904307916760445,0.31394240260124207,-0.0,4.662238643504679e-05,1.4768171310424805,0.0,-0.011974099092185497
414.0,423.0,-3.1944,0.2752,9.2315,-0.0339,0.0264,-0.1072,-2.2679950199522914,0.0,4.718169212341309,-1.330028772354126,-0.0,1.9584476947784424,5.373997676163473,-0.0,0.23585927486419678,-1.6974628607379358,0.0,0.006105353124439716,0.3139222264289856,-0.0,0.0030105498153716326,1.4768412113189697,0.0,-0.02179025486111641
414.0,423.0,-3.1944,0.2752,9.2315,-0.0339,0.0264,-0.1072,-2.2679463825621546,0.0,4.736473083496094,-1.3300209045410156,-0.0,1.9582369327545166,5.373981702118673,-0.0,0.24430084228515625,-1.6975229422198694,0.0,0.00971608329564333,0.31393009424209595,-0.0,0.010183027945458889,1.476893424987793,0.0,-0.0009521394968032837
414.0,423.0,-3.1944,0.2752,9.2315,-0.0339,0.0264,-0.1072,-2.267931123773092,0.0,4.744833946228027,-1.3299845457077026,-0.0,1.946491003036499,5.374009358673849,-0.0,0.2307513952255249,-1.6974785963641565,0.0,0.01100307796150446,0.3138898015022278,-0.0,-0.002483309479430318,1.4768693447113037,0.0,-0.025493701919913292
414.0,423.0,-3.1944,0.2752,9.2315,-0.0339,0.0264,-0.1072,-2.2679225407042445,0.0,4.739363670349121,-1.330045223236084,-0.0,1.9666446447372437,5.374017345696249,-0.0,0.24088336527347565,-1.6975348631488245,0.0,0.00955604575574398,0.31390997767448425,-0.0,-0.011538291350007057,1.476893424987793,0.0,0.04864170402288437
414.0,423.0,-3.1944,0.2752,9.2315,-0.0339,0.0264,-0.1072,-2.2679673633971156,0.0,4.717796325683594,-1.3300328254699707,-0.0,1.9380295276641846,5.373993682652273,-0.0,0.25075751543045044,-1.6975072065936487,0.0,0.009369486942887306,0.31393006443977356,-0.0,0.0016388013027608395,1.4768574237823486,0.0,-0.014677848666906357
410.0,412.0,-3.1448,0.2865,9.0479,-0.0417,0.0194,-0.1132,-2.2679435215392054,0.0,4.697106838226318,-1.3300532102584839,-0.0,1.9497332572937012,5.3739895699317834,-0.0,0.2416267842054367,-1.6974666754352015,0.0,0.012361444532871246,0.31390997767448425,-0.0,0.005486706271767616,1.4768331050872803,0.0,-0.02776479721069336
410.0,412.0,-3.1448,0.2865,9.0479,-0.0417,0.0194,-0.1132,-2.267971178094381,0.0,4.702332496643066,-1.3299928903579712,-0.0,1.9134998321533203,5.373985755234518,-0.0,0.24301362037658691,-1.6975229422198694,0.0,0.013279661536216736,0.31391406059265137,-0.0,-0.0010880643967539072,1.476820945739746,0.0,0.02180032804608345
410.0,412.0,-3.1448,0.2865,9.0479,-0.0417,0.0194,-0.1132,-2.2679506740965785,0.0,4.731288433074951,-1.330028772354126,-0.0,1.9151588678359985,5.374005245953359,-0.0,0.2310182750225067,-1.6974309126483362,0.0,-0.0001562296529300511,0.31392180919647217,-0.0,0.010605257004499435,1.4769012928009033,0.0,-0.0015087623614817858
410.0,412.0,-3.1448,0.2865,9.0479,-0.0417,0.0194,-0.1132,-2.2679549656310023,0.0,4.722021579742432,-1.3299885988235474,-0.0,1.9755442142486572,5.374033677368917,-0.0,0.23539018630981445,-1.697486702595846,0.0,0.003162091365084052,0.31398293375968933,-0.0,0.006783953867852688,1.476853370666504,0.0,-0.00795766618102789
410.0,412.0,-3.1448,0.2865,9.0479,-0.0417,0.0194,-0.1132,-2.2679463825621546,0.0,4.753073692321777,-1.3300249576568604,-0.0,1.9498603343963623,5.374001192837515,-0.0,0.23005864024162292,-1.6975186506854456,0.0,0.010592585429549217,0.31391817331314087,-0.0,0.0019950303249061108,1.4768493175506592,0.0,-0.0021762961987406015
410.0,412.0,-3.1448,0.2865,9.0479,-0.0417,0.0194,-0.1132,-2.2679392300047816,0.0,4.766393184661865,-1.329992651939392,-0.0,1.9353880882263184,5.374009954720297,-0.0,0.2437584549188614,-1.697474781666891,0.0,0.009411887265741825,0.31395453214645386,-0.0,0.011288339272141457,1.4768211841583252,0.0,0.008034124970436096
410.0,412.0,-3.1448,0.2865,9.0479,-0.0417,0.0194,-0.1132,-2.2679506740965785,0.0,4.718550205230713,-1.3300049304962158,-0.0,1.9562755823135376,5.37394546249465,-0.0,0.23570577800273895,-1.6975510756122034,0.0,0.012064378708600998,0.31393828988075256,-0.0,0.002410588786005974,1.4768493175506592,0.0,0.002221915405243635
410.0,412.0,-3.1448,0.2865,9.0479,-0.0417,0.0194,-0.1132,-2.267947336236471,0.0,4.697808265686035,-1.3299928903579712,-0.0,2.0108320713043213,5.374017405300894,-0.0,0.2326304316520691,-1.6974828878985804,0.0,0.011044155806303024,0.3138980567455292,-0.0,-0.002367802895605564,1.4768290519714355,0.0,0.0239096749573946
410.0,412.0,-3.1448,0.2865,9.0479,-0.0417,0.0194,-0.1132,-2.267971178094381,0.0,4.7336649894714355,-1.330028772354126,-0.0,1.9538006782531738,5.373993682652273,-0.0,0.24018418788909912,-1.697446648274557,0.0,0.020198587328195572,0.31389760971069336,-0.0,-0.008235634304583073,1.4768290519714355,0.0,0.025394655764102936
410.0,412.0,-3.1448,0.2865,9.0479,-0.0417,0.0194,-0.1132,-2.267918726006979,0.0,4.7426557540893555,-1.3300448656082153,-0.0,2.004833936691284,5.373977768212118,-0.0,0.23108673095703125,-1.6974709669696253,0.0,0.01262819953262806,0.31388214230537415,-0.0,0.0037167705595493317,1.476865291595459,0.0,0.042505741119384766
410.0,412.0,-3.1448,0.2865,9.0479,-0.0417,0.0194,-0.1132,-2.267931123773092,0.0,4.7325944900512695,-1.3299845457077026,-0.0,1.944570541381836,5.374025571137228,-0.0,0.22631368041038513,-1.697502915059225,0.0,0.013619420118629932,0.31393003463745117,-0.0,0.008402606472373009,1.476877212524414,0.0,-0.009915660135447979
410.0,412.0,-3.1448,0.2865,9.0479,-0.0417,0.0194,-0.1132,-2.26798739055776,0.0,4.726627349853516,-1.3300811052322388,-0.0,1.9889233112335205,5.373993921070852,-0.0,0.23050706088542938,-1.697502915059225,0.0,0.013330915942788124,0.31391412019729614,-0.0,-0.0014635073021054268,1.476893424987793,0.0,-0.027900591492652893
410.0,412.0,-3.1448,0.2865,9.0479,-0.0417,0.0194,-0.1132,-2.2679435215392054,0.0,4.732978820800781,-1.3300328254699707,-0.0,1.9544017314910889,5.373981702118673,-0.0,0.23642286658287048,-1.6974952856646937,0.0,0.010025895200669765,0.31396642327308655,-0.0,0.012298110872507095,1.476837158203125,0.0,0.003498069941997528
410.0,412.0,-3.1448,0.2865,9.0479,-0.0417,0.0194,-0.1132,-2.2679630718626917,0.0,4.6952714920043945,-1.3300049304962158,-0.0,1.9901882410049438,5.374025630741873,-0.0,0.2360185980796814,-1.697474781666891,0.0,0.00882839784026146,0.3138498067855835,-0.0,0.004198226146399975,1.4768493175506592,0.0,-0.010495273396372795
410.0,412.0,-3.1448,0.2865,9.0479,-0.0417,0.0194,-0.1132,-2.2679549656310023,0.0,4.704475402832031,-1.330008864402771,-0.0,1.9492545127868652,5.3739895699317834,-0.0,0.23357009887695312,-1.6974628607379358,0.0,0.005825486965477467,0.3138574957847595,-0.0,0.007761856075376272,1.4768691062927246,0.0,0.01712031476199627
410.0,412.0,-3.1448,0.2865,9.0479,-0.0417,0.0194,-0.1132,-2.26798739055776,0.0,4.697906017303467,-1.3300089836120605,-0.0,1.97898530960083,5.374013352185049,-0.0,0.23586243391036987,-1.6974666754352015,0.0,0.008071374148130417,0.31395864486694336,-0.0,-0.009884748607873917,1.4768452644348145,0.0,-0.018964596092700958
417.0,396.0,-3.2584,0.265,9.3667,-0.0308,0.0194,-0.1089,-2.2679025135436,0.0,4.760303974151611,-1.3300249576568604,-0.0,1.9239578247070312,5.373997676163473,-0.0,0.24594005942344666,-1.6974909941302698,0.0,0.014169752597808838,0.313869833946228,-0.0,0.004562122747302055,1.4768612384796143,0.0,-0.0016548875719308853
417.0,396.0,-3.2584,0.265,9.3667,-0.0308,0.0194,-0.1089,-2.2679506740965785,0.0,4.777356147766113,-1.3300209045410156,-0.0,2.017427921295166,5.373981702118673,-0.0,0.24693851172924042,-1.6974948088275355,0.0,0.019613156095147133,0.31387799978256226,-0.0,-0.007268562447279692,1.4768171310424805,0.0,-0.03615010902285576
417.0,396.0,-3.2584,0.265,9.3667,-0.0308,0.0194,-0.1089,-2.2679912052550257,0.0,4.7182207107543945,-1.330028772354126,-0.0,1.9520094394683838,5.373969542771139,-0.0,0.23966404795646667,-1.6974909941302698,0.0,0.01468091830611229,0.3139062821865082,-0.0,0.00035758852027356625,1.4767730236053467,0.0,-0.005666140932589769
417.0,396.0,-3.2584,0.265,9.3667,-0.0308,0.0194,-0.1089,-2.2679506740965785,0.0,4.746654510498047,-1.3300367593765259,-0.0,1.9694862365722656,5.374037670880117,-0.0,0.24455201625823975,-1.6975348631488245,0.0,0.008465616032481194,0.31393006443977356,-0.0,0.011920507997274399,1.47682523727417,0.0,0.004173040855675936
417.0,396.0,-3.2584,0.265,9.3667,-0.0308,0.0194,-0.1089,-2.2679830990233363,0.0,4.749399185180664,-1.3300209045410156,-0.0,1.9274234771728516,5.374021458416738,-0.0,0.24820265173912048,-1.6975072065936487,0.0,-0.0036450428888201714,0.3139263689517975,-0.0,0.01259311567991972,1.4768452644348145,0.0,0.020007098093628883
417.0,396.0,-3.2584,0.265,9.3667,-0.0308,0.0194,-0.1089,-2.2679912052550257,0.0,4.730536460876465,-1.3300328254699707,-0.0,2.0146214962005615,5.3740020273025415,-0.0,0.24436908960342407,-1.6974709669696253,0.0,0.008987627923488617,0.3139665126800537,-0.0,-0.0012978939339518547,1.476820945739746,0.0,0.008580357767641544
417.0,396.0,-3.2584,0.265,9.3667,-0.0308,0.0194,-0.1089,-2.267914434472555,0.0,4.74245548248291,-1.330008864402771,-0.0,1.9485955238342285,5.373973655491628,-0.0,0.22697949409484863,-1.6975186506854456,0.0,0.002320756670087576,0.3139341473579407,-0.0,-0.008546749129891396,1.4768130779266357,0.0,-0.007593087386339903
417.0,396.0,-3.2584,0.265,9.3667,-0.0308,0.0194,-0.1089,-2.2679025135436,0.0,4.73012638092041,-1.3300367593765259,-0.0,1.9999594688415527,5.374033677368917,-0.0,0.2227109968662262,-1.6975186506854456,0.0,0.008500514551997185,0.313946396112442,-0.0,0.007985834963619709,1.476865291595459,0.0,-0.009831227362155914
417.0,396.0,-3.2584,0.265,9.3667,-0.0308,0.0194,-0.1089,-2.2679549656310023,0.0,4.764403820037842,-1.3300408124923706,-0.0,1.9376615285873413,5.374001729279318,-0.0,0.24377933144569397,-1.6975110212909144,0.0,0.01783774420619011,0.3139788508415222,-0.0,0.007983699440956116,1.4768290519714355,0.0,0.012315936386585236
417.0,396.0,-3.2584,0.265,9.3667,-0.0308,0.0194,-0.1089,-2.2679435215392054,0.0,4.731662750244141,-1.3300089836120605,-0.0,1.9943745136260986,5.373985755234518,-0.0,0.24261745810508728,-1.6974790732013147,0.0,0.0078049153089523315,0.3139062225818634,-0.0,-0.001100421417504549,1.4768171310424805,0.0,0.0069716558791697025
417.0,396.0,-3.2584,0.265,9.3667,-0.0308,0.0194,-0.1089,-2.2678705654540003,0.0,4.679717063903809,-1.3300129175186157,-0.0,1.947134256362915,5.373973595886984,-0.0,0.2283649891614914,-1.69751483598818,0.0,0.013450716622173786,0.31397050619125366,-0.0,0.007298483047634363,1.4768612384796143,0.0,0.0058519272133708
417.0,396.0,-3.2584,0.265,9.3667,-0.0308,0.0194,-0.1089,-2.267942567864889,0.0,4.726810932159424,-1.3299726247787476,-0.0,1.958985447883606,5.374017345696249,-0.0,0.2313644289970398,-1.6974828878985804,0.0,0.004087358713150024,0.313882052898407,-0.0,0.002877789782360196,1.4768612384796143,0.0,0.024168888106942177
417.0,396.0,-3.2584,0.265,9.3667,-0.0308,0.0194,-0.1089,-2.267931123773092,0.0,4.694761276245117,-1.3300169706344604,-0.0,1.9008948802947998,5.374017345696249,-0.0,0.2368098497390747,-1.6974628607379358,0.0,0.0032485025003552437,0.31386977434158325,-0.0,-0.008520953357219696,1.4768853187561035,0.0,-0.04514234513044357
417.0,396.0,-3.2584,0.265,9.3667,-0.0308,0.0194,-0.1089,-2.267914434472555,0.0,4.6912665367126465,-1.330085039138794,-0.0,1.976211428642273,5.373981702118673,-0.0,0.24838337302207947,-1.6974666754352015,0.0,0.0036787153221666813,0.3139423131942749,-0.0,0.00527514424175024,1.4768493175506592,0.0,-0.03131692856550217
417.0,396.0,-3.2584,0.265,9.3667,-0.0308,0.0194,-0.1089,-2.2679463825621546,0.0,4.699603080749512,-1.3300367593765259,-0.0,1.9810611009597778,5.373993682652273,-0.0,0.2310836911201477,-1.6974590460406702,0.0,0.006230658385902643,0.3139382302761078,-0.0,-0.0017591221258044243,1.4768211841583252,0.0,-0.037122100591659546
417.0,396.0,-3.2584,0.265,9.3667,-0.0308,0.0194,-0.1089,-2.2679463825621546,0.0,4.706663131713867,-1.3300367593765259,-0.0,1.9430111646652222,5.374009895115652,-0.0,0.24832218885421753,-1.697474781666891,0.0,0.01637975499033928,0.31387796998023987,-0.0,-0.011949583888053894,1.4768171310424805,0.0,0.01591014303267002
419.0,396.0,-3.2088,0.271,9.3099,-0.0376,0.0273,-0.1141,-2.2679630718626917,0.0,4.694928169250488,-1.3299845457077026,-0.0,1.9530918598175049,5.3739898083503626,-0.0,0.22987742722034454,-1.6974709669696253,0.0,0.0005908670136705041,0.31391817331314087,-0.0,0.007632946129888296,1.4768452644348145,0.0,0.007256650365889072
419.0,396.0,-3.2088,0.271,9.3099,-0.0376,0.0273,-0.1141,-2.2679630718626917,0.0,4.725702285766602,-1.3300408124923706,-0.0,1.9444501399993896,5.373985755234518,-0.0,0.24310286343097687,-1.6975348631488245,0.0,-0.0006674304604530334,0.31391406059265137,-0.0,0.009513648226857185,1.4768452644348145,0.0,0.01303524523973465
419.0,396.0,-3.2088,0.271,9.3099,-0.0376,0.0273,-0.1141,-2.2679630718626917,0.0,4.735590934753418,-1.3300209045410156,-0.0,1.9455779790878296,5.374017405300894,-0.0,0.23098990321159363,-1.697486702595846,0.0,0.015102645382285118,0.313946396112442,-0.0,0.008347633294761181,1.4768290519714355,0.0,-0.024641450494527817
419.0,396.0,-3.2088,0.271,9.3099,-0.0376,0.0273,-0.1141,-2.2679349384703578,0.0,4.684946060180664,-1.3300009965896606,-0.0,1.9616425037384033,5.373969781189718,-0.0,0.22671547532081604,-1.6975391546832483,0.0,0.006117513403296471,0.31393006443977356,-0.0,-0.007154499180614948,1.476853370666504,0.0,0.037432607263326645
419.0,396.0,-3.2088,0.271,9.3099,-0.0376,0.0273,-0.1141,-2.2679268322386683,0.0,4.7125139236450195,-1.3300647735595703,-0.0,1.955098032951355,5.374013352185049,-0.0,0.2519192099571228,-1.6974909941302698,0.0,0.014068832620978355,0.31391000747680664,-0.0,0.008407415822148323,1.4768493175506592,0.0,0.038948554545640945
419.0,396.0,-3.2088,0.271,9.3099,-0.0376,0.0273,-0.1141,-2.2679506740965785,0.0,4.710616588592529,-1.3300528526306152,-0.0,1.976362943649292,5.373997676163473,-0.0,0.24336203932762146,-1.6974909941302698,0.0,0.012212223373353481,0.3139341175556183,-0.0,0.004367646761238575,1.4768092632293701,0.0,0.0049062734469771385
419.0,396.0,-3.2088,0.271,9.3099,-0.0376,0.0273,-0.1141,-2.2679349384703578,0.0,4.701613426208496,-1.3300368785858154,-0.0,1.9474589824676514,5.3740213988120935,-0.0,0.23511847853660583,-1.6975272337542933,0.0,0.017886875197291374,0.31392601132392883,-0.0,0.009673809632658958,1.476897120475769,0.0,0.01664481870830059
419.0,396.0,-3.2088,0.271,9.3099,-0.0376,0.0273,-0.1141,-2.267947336236471,0.0,4.6970343589782715,-1.3300049304962158,-0.0,1.9376544952392578,5.374017405300894,-0.0,0.24035319685935974,-1.6975110212909144,0.0,0.010928496718406677,0.3139341473579407,-0.0,-0.007057130336761475,1.476853370666504,0.0,0.035827502608299255
419.0,396.0,-3.2088,0.271,9.3099,-0.0376,0.0273,-0.1141,-2.2679630718626917,0.0,4.7085185050964355,-1.3299884796142578,-0.0,1.982588529586792,5.37393348196105,-0.0,0.24147018790245056,-1.6974952856646937,0.0,-0.006768791936337948,0.31389397382736206,-0.0,-0.0034237424843013287,1.47682523727417,0.0,0.014251324348151684
419.0,396.0,-3.2088,0.271,9.3099,-0.0376,0.0273,-0.1141,-2.2679549656310023,0.0,4.690279006958008,-1.3300288915634155,-0.0,1.9363043308258057,5.373981702118673,-0.0,0.2570982575416565,-1.6974471251117151,0.0,0.00984535925090313,0.3138739764690399,-0.0,0.005030790343880653,1.476820945739746,0.0,0.008558048866689205
419.0,396.0,-3.2088,0.271,9.3099,-0.0376,0.0273,-0.1141,-2.267958780328268,0.0,4.777688026428223,-1.3300328254699707,-0.0,1.9909478425979614,5.373985755234518,-0.0,0.24846884608268738,-1.6975072065936487,0.0,0.009325888007879257,0.3139221668243408,-0.0,0.00315637094900012,1.4768612384796143,0.0,0.013982976786792278
419.0,396.0,-3.2088,0.271,9.3099,-0.0376,0.0273,-0.1141,-2.2679268322386683,0.0,4.702868461608887,-1.3300647735595703,-0.0,1.9684560298919678,5.373981702118673,-0.0,0.24276398122310638,-1.6974991003619593,0.0,0.008859866298735142,0.313914030790329,-0.0,0.008974906988441944,1.4768249988555908,0.0,-0.0049743568524718285
419.0,396.0,-3.2088,0.271,9.3099,-0.0376,0.0273,-0.1141,-2.2679435215392054,0.0,4.720229148864746,-1.3300492763519287,-0.0,1.974348545074463,5.3739895699317834,-0.0,0.24902158975601196,-1.697474781666891,0.0,0.00950287189334631,0.3138980567455292,-0.0,0.005891650449484587,1.4768731594085693,0.0,-0.018324486911296844
419.0,396.0,-3.2088,0.271,9.3099,-0.0376,0.0273,-0.1141,-2.2679435215392054,0.0,4.716206073760986,-1.3299845457077026,-0.0,1.9613533020019531,5.373989510327139,-0.0,0.23903846740722656,-1.6974909941302698,0.0,0.0029632155783474445,0.3139181435108185,-0.0,0.002617677440866828,1.4768853187561035,0.0,0.03673296049237251
419.0,396.0,-3.2088,0.271,9.3099,-0.0376,0.0273,-0.1141,-2.267974992791647,0.0,4.727562427520752,-1.3300049304962158,-0.0,1.947623610496521,5.37394945600585,-0.0,0.23590412735939026,-1.6974833647357386,0.0,0.01680881902575493,0.3139587342739105,-0.0,-0.00628055352717638,1.4768571853637695,0.0,0.0288150105625391
419.0,396.0,-3.2088,0.271,9.3099,-0.0376,0.0273,-0.1141,-2.2679268322386683,0.0,4.746636390686035,-1.330028772354126,-0.0,1.9493365287780762,5.373945522099294,-0.0,0.2448398768901825,-1.6974828878985804,0.0,0.0005295679438859224,0.3139263987541199,-0.0,-0.005105895455926657,1.4768452644348145,0.0,0.014978500083088875
419.0,396.0,-3.2088,0.271,9.3099,-0.0376,0.0273,-0.1141,-2.2679392300047816,0.0,4.730349540710449,-1.3300209045410156,-0.0,1.969627857208252,5.373997676163473,-0.0,0.2409767359495163,-1.6974828878985804,0.0,0.009426729753613472,0.31386980414390564,-0.0,0.00642564008012414,1.4768009185791016,0.0,0.01571560464799404
404.0,421.0,-3.1992,0.3027,9.2291,-0.0292,0.0243,-0.1048,-2.267935415307516,0.0,4.721295356750488,-1.330000638961792,-0.0,1.922487497329712,5.374005245953359,-0.0,0.22903308272361755,-1.69751483598818,0.0,0.009622878395020962,0.3139181435108185,-0.0,0.006968511268496513,1.4768249988555908,0.0,0.00887412391602993
404.0,421.0,-3.1992,0.3027,9.2291,-0.0292,0.0243,-0.1048,-2.2679463825621546,0.0,4.73110294342041,-1.330000877380371,-0.0,1.9414273500442505,5.373993682652273,-0.0,0.2413387894630432,-1.697502915059225,0.0,-0.0010525067336857319,0.3139021694660187,-0.0,-0.008428249508142471,1.4768571853637695,0.0,0.027019377797842026
404.0,421.0,-3.1992,0.3027,9.2291,-0.0292,0.0243,-0.1048,-2.2679349384703578,0.0,4.726657390594482,-1.330045223236084,-0.0,1.9614300727844238,5.374017405300894,-0.0,0.22271494567394257,-1.6975072065936487,0.0,0.01744932122528553,0.31392598152160645,-0.0,-0.006643832661211491,1.476837158203125,0.0,0.03625014051795006
404.0,421.0,-3.1992,0.3027,9.2291,-0.0292,0.0243,-0.1048,-2.2679392300047816,0.0,4.736627101898193,-1.3299486637115479,-0.0,1.9533586502075195,5.373961794167318,-0.0,0.24162709712982178,-1.697474781666891,0.0,-0.004517323803156614,0.31390997767448425,-0.0,0.008998235687613487,1.4768571853637695,0.0,-0.017802201211452484
404.0,421.0,-3.1992,0.3027,9.2291,-0.0292,0.0243,-0.1048,-2.2679392300047816,0.0,4.717206954956055,-1.3300646543502808,-0.0,1.9769878387451172,5.374025630741873,-0.0,0.2384362369775772,-1.6974952856646937,0.0,0.0005986111937090755,0.3139587342739105,-0.0,0.0013281465508043766,1.4768249988555908,0.0,0.013614255003631115
404.0,421.0,-3.1992,0.3027,9.2291,-0.0292,0.0243,-0.1048,-2.267931123773092,0.0,4.739374160766602,-1.3300089836120605,-0.0,1.9365959167480469,5.374001729279318,-0.0,0.24679964780807495,-1.6974709669696253,0.0,0.007928544655442238,0.31390580534935,-0.0,-0.0033658763859421015,1.4768329858779907,0.0,0.009149841964244843
404.0,421.0,-3.1992,0.3027,9.2291,-0.0292,0.0243,-0.1048,-2.267947336236471,0.0,4.7460527420043945,-1.3300089836120605,-0.0,1.9719195365905762,5.3740213988120935,-0.0,0.23793447017669678,-1.6975310484515589,0.0,0.008332829922437668,0.31390219926834106,-0.0,-0.005784856621176004,1.4768534898757935,0.0,-0.07645025104284286
404.0,421.0,-3.1992,0.3027,9.2291,-0.0292,0.0243,-0.1048,-2.2679463825621546,0.0,4.730359077453613,-1.3300169706344604,-0.0,1.945763349533081,5.374017345696249,-0.0,0.24036234617233276,-1.6974952856646937,0.0,0.00691816583275795,0.313970148563385,-0.0,0.003207377390936017,1.4768412113189697,0.0,0.003999330569058657
404.0,421.0,-3.1992,0.3027,9.2291,-0.0292,0.0243,-0.1048,-2.2679392300047816,0.0,4.736822128295898,-1.3300330638885498,-0.0,1.9779610633850098,5.373969781189718,-0.0,0.23289284110069275,-1.6975753943072718,0.0,0.012679219245910645,0.3138861656188965,-0.0,0.003568539395928383,1.476797103881836,0.0,0.03411230072379112
404.0,421.0,-3.1992,0.3027,9.2291,-0.0292,0.0243,-0.1048,-2.2679463825621546,0.0,4.7019267082214355,-1.3300328254699707,-0.0,1.9569520950317383,5.3740296242530725,-0.0,0.24018621444702148,-1.6974991003619593,0.0,0.006176720838993788,0.31393805146217346,-0.0,0.014738679863512516,1.476877212524414,0.0,0.0462707057595253
404.0,421.0,-3.1992,0.3027,9.2291,-0.0292,0.0243,-0.1048,-2.2679435215392054,0.0,4.709378242492676,-1.3300129175186157,-0.0,1.9260504245758057,5.374009358673849,-0.0,0.24471484124660492,-1.6974828878985804,0.0,-0.001048801001161337,0.31389397382736206,-0.0,0.008791984990239143,1.4768733978271484,0.0,-0.017142178490757942
404.0,421.0,-3.1992,0.3027,9.2291,-0.0292,0.0243,-0.1048,-2.2679349384703578,0.0,4.743223667144775,-1.3300727605819702,-0.0,1.9145755767822266,5.374025571137228,-0.0,0.23487775027751923,-1.697502915059225,0.0,0.018204670399427414,0.3139103949069977,-0.0,0.002959547331556678,1.4768693447113037,0.0,0.004068057052791119
404.0,421.0,-3.1992,0.3027,9.2291,-0.0292,0.0243,-0.1048,-2.2679506740965785,0.0,4.7221760749816895,-1.3299766778945923,-0.0,1.9674018621444702,5.374021458416738,-0.0,0.2447752058506012,-1.6975186506854456,0.0,-0.0035626678727567196,0.3139623701572418,-0.0,0.003483348526060581,1.4768493175506592,0.0,0.020318200811743736
404.0,421.0,-3.1992,0.3027,9.2291,-0.0292,0.0243,-0.1048,-2.2679268322386683,0.0,4.756741523742676,-1.330045223236084,-0.0,1.9734432697296143,5.373977768212118,-0.0,0.2261914163827896,-1.697502915059225,0.0,0.009582851082086563,0.31387799978256226,-0.0,0.006042951252311468,1.4768130779266357,0.0,0.0036043073050677776
404.0,421.0,-3.1992,0.3027,9.2291,-0.0292,0.0243,-0.1048,-2.2679506740965785,0.0,4.726917266845703,-1.3300209045410156,-0.0,1.974487066268921,5.373997676163473,-0.0,0.24412378668785095,-1.6974471251117151,0.0,0.009005461819469929,0.3139021396636963,-0.0,0.01228837389498949,1.4768612384796143,0.0,-0.025413593277335167
404.0,421.0,-3.1992,0.3027,9.2291,-0.0292,0.0243,-0.1048,-2.2679225407042445,0.0,4.697032451629639,-1.3300089836120605,-0.0,1.9091293811798096,5.373997676163473,-0.0,0.22714592516422272,-1.6975391546832483,0.0,0.01373318675905466,0.31394636631011963,-0.0,0.0004121083766222,1.476897120475769,0.0,0.005952010862529278
407.0,415.0,-3.2088,0.3003,9.2351,-0.0454,0.0191,-0.1167,-2.2679549656310023,0.0,4.723364353179932,-1.3299885988235474,-0.0,1.9667084217071533,5.373981702118673,-0.0,0.23132076859474182,-1.697502915059225,0.0,0.01113303191959858,0.31390175223350525,-0.0,-0.008801454678177834,1.4768290519714355,0.0,-0.03202670067548752
407.0,415.0,-3.2088,0.3003,9.2351,-0.0454,0.0191,-0.1167,-2.2679392300047816,0.0,4.7834649085998535,-1.3300328254699707,-0.0,1.9459915161132812,5.373997676163473,-0.0,0.2372332215309143,-1.697502915059225,0.0,0.005913574248552322,0.31387799978256226,-0.0,0.00728127546608448,1.4768290519714355,0.0,-0.0036522066220641136
407.0,415.0,-3.2088,0.3003,9.2351,-0.0454,0.0191,-0.1167,-2.2679392300047816,0.0,4.697856426239014,-1.330008864402771,-0.0,1.999430537223816,5.373953509121694,-0.0,0.23987659811973572,-1.6975153128253382,0.0,0.01549393031746149,0.313946396112442,-0.0,-0.006976333446800709,1.4768249988555908,0.0,0.032287728041410446
407.0,415.0,-3.2088,0.3003,9.2351,-0.0454,0.0191,-0.1167,-2.2679392300047816,0.0,4.709043502807617,-1.3300408124923706,-0.0,1.9510658979415894,5.373973595886984,-0.0,0.23867973685264587,-1.6974590460406702,0.0,0.00674596568569541,0.313861608505249,-0.0,-0.0026620295830070972,1.4769052267074585,0.0,0.051851220428943634
407.0,415.0,-3.2088,0.3003,9.2351,-0.0454,0.0191,-0.1167,-2.267918726006979,0.0,4.725083351135254,-1.3299885988235474,-0.0,1.9717937707901,5.374009358673849,-0.0,0.23423756659030914,-1.6974948088275355,0.0,0.0050262222066521645,0.31390997767448425,-0.0,-0.005187561269849539,1.4768853187561035,0.0,0.034809909760951996
407.0,415.0,-3.2088,0.3003,9.2351,-0.0454,0.0191,-0.1167,-2.2679025135436,0.0,4.79095458984375,-1.3300328254699707,-0.0,1.8976746797561646,5.37394546249465,-0.0,0.23785638809204102,-1.6974709669696253,0.0,-0.001318510388955474,0.31399068236351013,-0.0,0.003380133304744959,1.4768693447113037,0.0,0.029191695153713226
407.0,415.0,-3.2088,0.3003,9.2351,-0.0454,0.0191,-0.1167,-2.2679673633971156,0.0,4.6878461837768555,-1.3300573825836182,-0.0,1.9721310138702393,5.373981702118673,-0.0,0.24237589538097382,-1.6974666754352015,0.0,0.00575729925185442,0.31395044922828674,-0.0,-0.005644216202199459,1.4768091440200806,0.0,-0.009941598400473595
407.0,415.0,-3.2088,0.3003,9.2351,-0.0454,0.0191,-0.1167,-2.267918726006979,0.0,4.715609550476074,-1.330028772354126,-0.0,1.9452773332595825,5.373953568726339,-0.0,0.22962525486946106,-1.6974991003619593,0.0,0.013334215618669987,0.31389808654785156,-0.0,0.013562200590968132,1.4768612384796143,0.0,0.03845134750008583
407.0,415.0,-3.2088,0.3003,9.2351,-0.0454,0.0191,-0.1167,-2.2679630718626917,0.0,4.707779407501221,-1.330008864402771,-0.0,2.0066685676574707,5.374013352185049,-0.0,0.24408799409866333,-1.6975072065936487,0.0,0.01310095377266407,0.3139222264289856,-0.0,0.0032890108413994312,1.47682523727417,0.0,0.041386041790246964
407.0,415.0,-3.2088,0.3003,9.2351,-0.0454,0.0191,-0.1167,-2.2679268322386683,0.0,4.731906414031982,-1.330016851425171,-0.0,1.9726669788360596,5.373997676163473,-0.0,0.24419531226158142,-1.6974709669696253,0.0,0.010617930442094803,0.31391406059265137,-0.0,0.014171352609992027,1.4768493175506592,0.0,0.03345903381705284
407.0,415.0,-3.2088,0.3003,9.2351,-0.0454,0.0191,-0.1167,-2.2679630718626917,0.0,4.708193778991699,-1.3300328254699707,-0.0,1.9410984516143799,5.373977708607473,-0.0,0.24604180455207825,-1.6975272337542933,0.0,-0.010855869390070438,0.3139623999595642,-0.0,0.010756668634712696,1.4768130779266357,0.0,0.04050818830728531
407.0,415.0,-3.2088,0.3003,9.2351,-0.0454,0.0191,-0.1167,-2.267931123773092,0.0,4.724676132202148,-1.3300367593765259,-0.0,1.9425734281539917,5.374021458416738,-0.0,0.2505909502506256,-1.6974991003619593,0.0,0.0011572989169508219,0.31393006443977356,-0.0,0.003347516991198063,1.4768249988555908,0.0,0.035785891115665436
407.0,415.0,-3.2088,0.3003,9.2351,-0.0454,0.0191,-0.1167,-2.2679435215392054,0.0,4.711468696594238,-1.3299965858459473,-0.0,1.9466421604156494,5.373961734562673,-0.0,0.24008741974830627,-1.6975072065936487,0.0,0.010302320122718811,0.3139181435108185,-0.0,-0.0019608689472079277,1.4768811464309692,0.0,-0.04046397656202316
407.0,415.0,-3.2088,0.3003,9.2351,-0.0454,0.0191,-0.1167,-2.2678986988463343,0.0,4.700394630432129,-1.3299766778945923,-0.0,1.9370402097702026,5.373965728073873,-0.0,0.2376823127269745,-1.6975153128253382,0.0,0.003527388209477067,0.3138657212257385,-0.0,0.014214527793228626,1.4768413305282593,0.0,0.037421815097332
407.0,415.0,-3.2088,0.3003,9.2351,-0.0454,0.0191,-0.1167,-2.2679225407042445,0.0,4.721110820770264,-1.330028772354126,-0.0,1.9460248947143555,5.374017345696249,-0.0,0.23355858027935028,-1.6975272337542933,0.0,0.008680920116603374,0.313882052898407,-0.0,0.002573339268565178,1.4768211841583252,0.0,-0.04996216669678688
407.0,415.0,-3.2088,0.3003,9.2351,-0.0454,0.0191,-0.1167,-2.2679673633971156,0.0,4.75914192199707,-1.3299845457077026,-0.0,1.948702096939087,5.37394546249465,-0.0,0.23464137315750122,-1.6975229422198694,0.0,0.011716035194694996,0.3138898015022278,-0.0,0.0037332994397729635,1.4768249988555908,0.0,0.036242060363292694
407.0,415.0,-3.2088,0.3003,9.2351,-0.0454,0.0191,-0.1167,-2.267958780328268,0.0,4.7732648849487305,-1.3300367593765259,-0.0,1.9833083152770996,5.37394546249465,-0.0,0.23462213575839996,-1.6975272337542933,0.0,0.012169340625405312,0.31395453214645386,-0.0,0.0028121427167207003,1.476865291595459,0.0,-0.03144895285367966
407.0,401.0,-3.1059,0.3105,9.128,-0.0417,0.0254,-0.1112,-2.2679792843260707,0.0,4.735254287719727,-1.329980492591858,-0.0,1.980665922164917,5.374025511532583,-0.0,0.23649027943611145,-1.6974790732013147,0.0,0.009428384713828564,0.3139299750328064,-0.0,0.008085737936198711,1.4768574237823486,0.0,0.009133579209446907
407.0,401.0,-3.1059,0.3105,9.128,-0.0417,0.0254,-0.1112,-2.2679435215392054,0.0,4.67872428894043,-1.3300209045410156,-0.0,1.95359468460083,5.373997616558828,-0.0,0.23764991760253906,-1.697502915059225,0.0,0.007180021144449711,0.3139222264289856,-0.0,0.009233357384800911,1.4768612384796143,0.0,0.02230367809534073
407.0,401.0,-3.1059,0.3105,9.128,-0.0417,0.0254,-0.1112,-2.2679506740965785,0.0,4.729522705078125,-1.3300049304962158,-0.0,1.9341099262237549,5.373973834305563,-0.0,0.23959606885910034,-1.6974952856646937,0.0,0.02799178846180439,0.3139464259147644,-0.0,-0.008022611029446125,1.4768130779266357,0.0,0.04479005187749863
407.0,401.0,-3.1059,0.3105,9.128,-0.0417,0.0254,-0.1112,-2.2679630718626917,0.0,4.728992462158203,-1.3299968242645264,-0.0,1.9565813541412354,5.374017345696249,-0.0,0.24518266320228577,-1.6975110212909144,0.0,0.005436941981315613,0.3139542043209076,-0.0,0.012738256715238094,1.4768290519714355,0.0,0.0031364858150482178
407.0,401.0,-3.1059,0.3105,9.128,-0.0417,0.0254,-0.1112,-2.2679106197752894,0.0,4.720338821411133,-1.3300328254699707,-0.0,1.9285310506820679,5.373965728073873,-0.0,0.2443457841873169,-1.6975110212909144,0.0,0.006136221811175346,0.31388211250305176,-0.0,-0.0022185025736689568,1.4768130779266357,0.0,-0.002639982383698225
407.0,401.0,-3.1059,0.3105,9.128,-0.0417,0.0254,-0.1112,-2.2679506740965785,0.0,4.716743469238281,-1.3300248384475708,-0.0,1.9583916664123535,5.373993921070852,-0.0,0.23978868126869202,-1.6975229422198694,0.0,0.0100147295743227,0.3139299750328064,-0.0,-0.0015817340463399887,1.4768574237823486,0.0,-0.0064308918081223965
407.0,401.0,-3.1059,0.3105,9.128,-0.0417,0.0254,-0.1112,-2.26798739055776,0.0,4.733699798583984,-1.3300288915634155,-0.0,1.9229950904846191,5.374017345696249,-0.0,0.2357405722141266,-1.6975110212909144,0.0,0.004817034117877483,0.3139381408691406,-0.0,0.013663284480571747,1.47682523727417,0.0,0.032275568693876266
407.0,401.0,-3.1059,0.3105,9.128,-0.0417,0.0254,-0.1112,-2.26798739055776,0.0,4.753775119781494,-1.3300288915634155,-0.0,1.9762828350067139,5.373981761723318,-0.0,0.2325701117515564,-1.6975272337542933,0.0,0.002076191594824195,0.3139541447162628,-0.0,0.013907982036471367,1.4769011735916138,0.0,0.025007981806993484
407.0,401.0,-3.1059,0.3105,9.128,-0.0417,0.0254,-0.1112,-2.267890592614645,0.0,4.707996368408203,-1.3300367593765259,-0.0,1.9594428539276123,5.373993682652273,-0.0,0.2341831624507904,-1.6974547545062464,0.0,0.003983351401984692,0.313861608505249,-0.0,0.002228465164080262,1.4768811464309692,0.0,-0.0379643552005291
407.0,401.0,-3.1059,0.3105,9.128,-0.0417,0.0254,-0.1112,-2.2679549656310023,0.0,4.783868789672852,-1.3299885988235474,-0.0,1.9246857166290283,5.373977708607473,-0.0,0.2379140853881836,-1.697474781666891,0.0,0.005606433376669884,0.3139181435108185,-0.0,-0.0007802442996762693,1.476853370666504,0.0,0.032208528369665146
407.0,401.0,-3.1059,0.3105,9.128,-0.0417,0.0254,-0.1112,-2.267975469628805,0.0,4.7512102127075195,-1.3300532102584839,-0.0,1.944161057472229,5.373953509121694,-0.0,0.24829933047294617,-1.697502915059225,0.0,0.010312439873814583,0.31390172243118286,-0.0,0.0033827845472842455,1.4768892526626587,0.0,0.009296966716647148
407.0,401.0,-3.1059,0.3105,9.128,-0.0417,0.0254,-0.1112,-2.2679392300047816,0.0,4.736088752746582,-1.3300328254699707,-0.0,1.9277057647705078,5.3740296242530725,-0.0,0.2449338734149933,-1.6974952856646937,0.0,0.01508660614490509,0.3139181435108185,-0.0,-0.007234794553369284,1.4768574237823486,0.0,0.03701822832226753
407.0,401.0,-3.1059,0.3105,9.128,-0.0417,0.0254,-0.1112,-2.267931123773092,0.0,4.745131492614746,-1.3300049304962158,-0.0,1.9589931964874268,5.37394945600585,-0.0,0.23366588354110718,-1.6974991003619593,0.0,0.00647527864202857,0.3139222264289856,-0.0,0.004612714517861605,1.4768452644348145,0.0,0.012697845697402954
407.0,401.0,-3.1059,0.3105,9.128,-0.0417,0.0254,-0.1112,-2.267931123773092,0.0,4.765435218811035,-1.3300646543502808,-0.0,1.9641075134277344,5.3739898083503626,-0.0,0.2277640402317047,-1.6975186506854456,0.0,0.012617071159183979,0.31390583515167236,-0.0,0.008294714614748955,1.4768171310424805,0.0,0.010661378502845764
407.0,401.0,-3.1059,0.3105,9.128,-0.0417,0.0254,-0.1112,-2.2679954967894496,0.0,4.713149070739746,-1.330045223236084,-0.0,1.9496549367904663,5.373985755234518,-0.0,0.2551315724849701,-1.697542969380514,0.0,0.01050950400531292,0.31392601132392883,-0.0,-0.00452822120860219,1.4768930673599243,0.0,-0.02737879753112793
407.0,401.0,-3.1059,0.3105,9.128,-0.0417,0.0254,-0.1112,-2.2679549656310023,0.0,4.741209983825684,-1.3300328254699707,-0.0,1.931175947189331,5.374005245953359,-0.0,0.24022150039672852,-1.6974790732013147,0.0,0.012143081054091454,0.3138860762119293,-0.0,0.001450772862881422,1.476877212524414,0.0,-0.008849931880831718
402.0,395.0,-3.1962,0.3308,9.1902,-0.0298,0.0223,-0.1151,-2.2679792843260707,0.0,4.733235836029053,-1.3300249576568604,-0.0,1.951456904411316,5.373977708607473,-0.0,0.24270129203796387,-1.6974991003619593,0.0,0.006821289658546448,0.3138737678527832,-0.0,0.003234973642975092,1.4768413305282593,0.0,0.019948825240135193
402.0,395.0,-3.1962,0.3308,9.1902,-0.0298,0.0223,-0.1151,-2.2679349384703578,0.0,4.730457782745361,-1.3300248384475708,-0.0,1.972541093826294,5.373977947026052,-0.0,0.2429991364479065,-1.6974991003619593,0.0,0.009834449738264084,0.31391409039497375,-0.0,0.007183282636106014,1.4768091440200806,0.0,0.004823826253414154
402.0,395.0,-3.1962,0.3308,9.1902,-0.0298,0.0223,-0.1151,-2.2679435215392054,0.0,4.741816520690918,-1.3300448656082153,-0.0,1.8902313709259033,5.373997974186697,-0.0,0.23758399486541748,-1.69751483598818,0.0,0.010960644111037254,0.31392601132392883,-0.0,-0.006157862953841686,1.476865291595459,0.0,0.017548928037285805
402.0,395.0,-3.1962,0.3308,9.1902,-0.0298,0.0223,-0.1151,-2.267958780328268,0.0,4.708568096160889,-1.3300408124923706,-0.0,2.0161571502685547,5.3739898083503626,-0.0,0.22678065299987793,-1.6975105444537562,0.0,0.004313034936785698,0.3139505088329315,-0.0,0.0071916100569069386,1.4768532514572144,0.0,-0.0203054491430521
402.0,395.0,-3.1962,0.3308,9.1902,-0.0298,0.0223,-0.1151,-2.267971178094381,0.0,4.744385242462158,-1.330077052116394,-0.0,1.9442921876907349,5.374037670880117,-0.0,0.23138418793678284,-1.6974952856646937,0.0,0.005844470113515854,0.31394240260124207,-0.0,0.004112449940294027,1.4768331050872803,0.0,-0.006171038374304771
402.0,395.0,-3.1962,0.3308,9.1902,-0.0298,0.0223,-0.1151,-2.2679349384703578,0.0,4.765131950378418,-1.3299968242645264,-0.0,1.9909284114837646,5.373985755234518,-0.0,0.23833321034908295,-1.6975391546832483,0.0,0.007806356996297836,0.3138534426689148,-0.0,6.536662112921476e-05,1.4768210649490356,0.0,0.010416204109787941
402.0,395.0,-3.1962,0.3308,9.1902,-0.0298,0.0223,-0.1151,-2.267931123773092,0.0,4.710960865020752,-1.3300049304962158,-0.0,1.9708995819091797,5.373997676163473,-0.0,0.2481069564819336,-1.6974952856646937,0.0,-0.0042501939460635185,0.31392598152160645,-0.0,0.003611538792029023,1.4768452644348145,0.0,0.012822872027754784
402.0,395.0,-3.1962,0.3308,9.1902,-0.0298,0.0223,-0.1151,-2.2679668865599574,0.0,4.726373195648193,-1.3300089836120605,-0.0,2.017782688140869,5.373965728073873,-0.0,0.23008763790130615,-1.6974952856646937,0.0,0.0011494300561025739,0.31392598152160645,-0.0,0.012294134125113487,1.4768493175506592,0.0,-0.032094527035951614
402.0,395.0,-3.1962,0.3308,9.1902,-0.0298,0.0223,-0.1151,-2.267942567864889,0.0,4.7321906089782715,-1.3300807476043701,-0.0,1.9488518238067627,5.374005245953359,-0.0,0.23270276188850403,-1.6975186506854456,0.0,0.008901355788111687,0.31389766931533813,-0.0,0.007317746058106422,1.4768493175506592,0.0,0.020238062366843224
402.0,395.0,-3.1962,0.3308,9.1902,-0.0298,0.0223,-0.1151,-2.267906805078024,0.0,4.77603006362915,-1.3300930261611938,-0.0,1.970814824104309,5.37394546249465,-0.0,0.24387401342391968,-1.6974547545062464,0.0,0.008864035829901695,0.3139263689517975,-0.0,0.0008390913717448711,1.4768493175506592,0.0,0.01894841343164444
402.0,395.0,-3.1962,0.3308,9.1902,-0.0298,0.0223,-0.1151,-2.2679506740965785,0.0,4.7307844161987305,-1.3300209045410156,-0.0,1.9505681991577148,5.374013352185049,-0.0,0.2408762127161026,-1.6974909941302698,0.0,0.013836635276675224,0.31390580534935,-0.0,-0.00559008726850152,1.4768933057785034,0.0,0.009512098506093025
402.0,395.0,-3.1962,0.3308,9.1902,-0.0298,0.0223,-0.1151,-2.2679506740965785,0.0,4.695502281188965,-1.3300367593765259,-0.0,2.0381321907043457,5.37394546249465,-0.0,0.24658483266830444,-1.6975072065936487,0.0,0.00514603964984417,0.3139341473579407,-0.0,0.0037028035148978233,1.4768571853637695,0.0,0.07436764240264893
402.0,395.0,-3.1962,0.3308,9.1902,-0.0298,0.0223,-0.1151,-2.267918726006979,0.0,4.729626178741455,-1.3300328254699707,-0.0,1.9603431224822998,5.373953509121694,-0.0,0.2374478429555893,-1.6975229422198694,0.0,0.01024540700018406,0.31389397382736206,-0.0,-0.0008279553148895502,1.476865291595459,0.0,0.007553011178970337
402.0,395.0,-3.1962,0.3308,9.1902,-0.0298,0.0223,-0.1151,-2.2679463825621546,0.0,4.723799228668213,-1.3300532102584839,-0.0,1.9931658506393433,5.373985755234518,-0.0,0.23581033945083618,-1.697486702595846,0.0,0.009217620827257633,0.3139382600784302,-0.0,0.007852029986679554,1.4768693447113037,0.0,-0.0058442335575819016
402.0,395.0,-3.1962,0.3308,9.1902,-0.0298,0.0223,-0.1151,-2.2679435215392054,0.0,4.697373867034912,-1.3300687074661255,-0.0,1.963456630706787,5.374009358673849,-0.0,0.25411176681518555,-1.6974666754352015,0.0,0.004829905927181244,0.3139305114746094,-0.0,0.013268478214740753,1.4768413305282593,0.0,-0.05087757483124733
402.0,395.0,-3.1962,0.3308,9.1902,-0.0298,0.0223,-0.1151,-2.267906805078024,0.0,4.727097988128662,-1.33004891872406,-0.0,1.9298279285430908,5.3740336177642725,-0.0,0.24155592918395996,-1.6975105444537562,0.0,0.00828702561557293,0.31393006443977356,-0.0,0.010648546740412712,1.4768413305282593,0.0,0.008058445528149605
406.0,408.0,-3.2148,0.2973,9.2608,-0.0293,0.0325,-0.1142,-2.267975469628805,0.0,4.7705278396606445,-1.3300367593765259,-0.0,1.9515618085861206,5.373997676163473,-0.0,0.23716051876544952,-1.697502915059225,0.0,0.005005719140172005,0.313861608505249,-0.0,-0.0006873601814731956,1.4768452644348145,0.0,0.0038889762945473194
406.0,408.0,-3.2148,0.2973,9.2608,-0.0293,0.0325,-0.1142,-2.2679268322386683,0.0,4.74880838394165,-1.3299885988235474,-0.0,1.9354368448257446,5.374021458416738,-0.0,0.22969846427440643,-1.697474781666891,0.0,0.008885125629603863,0.3138980567455292,-0.0,0.013553999364376068,1.4768452644348145,0.0,-0.021926574409008026
406.0,408.0,-3.2148,0.2973,9.2608,-0.0293,0.0325,-0.1142,-2.2679268322386683,0.0,4.68525505065918,-1.3300409317016602,-0.0,1.9617564678192139,5.374013352185049,-0.0,0.22707413136959076,-1.6975348631488245,0.0,0.0048563480377197266,0.3139181137084961,-0.0,0.006553687620908022,1.4768493175506592,0.0,0.012683089822530746
406.0,408.0,-3.2148,0.2973,9.2608,-0.0293,0.0325,-0.1142,-2.268003126183981,0.0,4.704659938812256,-1.3300527334213257,-0.0,1.966787576675415,5.3739895699317834,-0.0,0.24273309111595154,-1.6975072065936487,0.0,-0.0012864046730101109,0.31393009424209595,-0.0,0.010928807780146599,1.4768532514572144,0.0,0.03922346979379654
406.0,408.0,-3.2148,0.2973,9.2608,-0.0293,0.0325,-0.1142,-2.2679506740965785,0.0,4.742208480834961,-1.3299685716629028,-0.0,1.947082281112671,5.373961734562673,-0.0,0.24816149473190308,-1.6975229422198694,0.0,0.007297246716916561,0.31390172243118286,-0.0,-0.0035965933930128813,1.4768171310424805,0.0,-0.028379062190651894
406.0,408.0,-3.2148,0.2973,9.2608,-0.0293,0.0325,-0.1142,-2.267931123773092,0.0,4.717311382293701,-1.3299968242645264,-0.0,1.9755263328552246,5.374009895115652,-0.0,0.24354639649391174,-1.697486702595846,0.0,0.007605676539242268,0.31389808654785156,-0.0,-0.010535910725593567,1.476877212524414,0.0,-0.0339781828224659
406.0,408.0,-3.2148,0.2973,9.2608,-0.0293,0.0325,-0.1142,-2.2679506740965785,0.0,4.692246437072754,-1.3300248384475708,-0.0,1.9721624851226807,5.37394945600585,-0.0,0.2514268159866333,-1.697486702595846,0.0,0.016961868852376938,0.31387799978256226,-0.0,0.01121535338461399,1.476877212524414,0.0,0.02549443580210209
406.0,408.0,-3.2148,0.2973,9.2608,-0.0293,0.0325,-0.1142,-2.2679349384703578,0.0,4.733017921447754,-1.3300049304962158,-0.0,1.963411569595337,5.374037670880117,-0.0,0.23142613470554352,-1.6974509398089808,0.0,0.0030030054040253162,0.31394636631011963,-0.0,0.0106510566547513,1.4768413305282593,0.0,-0.03866201266646385
406.0,408.0,-3.2148,0.2973,9.2608,-0.0293,0.0325,-0.1142,-2.2679463825621546,0.0,4.715893745422363,-1.330045223236084,-0.0,1.929764986038208,5.374005245953359,-0.0,0.24278302490711212,-1.69751483598818,0.0,0.002325753914192319,0.31394636631011963,-0.0,-0.005505031440407038,1.4768574237823486,0.0,-0.02442958578467369
406.0,408.0,-3.2148,0.2973,9.2608,-0.0293,0.0325,-0.1142,-2.267930646935934,0.0,4.698718547821045,-1.3300328254699707,-0.0,1.9715275764465332,5.374009358673849,-0.0,0.24025337398052216,-1.6975229422198694,0.0,-0.005442914552986622,0.31390580534935,-0.0,-0.0019263885915279388,1.4768171310424805,0.0,-0.040729593485593796
406.0,408.0,-3.2148,0.2973,9.2608,-0.0293,0.0325,-0.1142,-2.267906805078024,0.0,4.708049297332764,-1.3300492763519287,-0.0,1.9422318935394287,5.374001729279318,-0.0,0.25004205107688904,-1.6974909941302698,0.0,0.0010561153758317232,0.31392601132392883,-0.0,-0.006423306651413441,1.4768612384796143,0.0,-0.035218771547079086
406.0,408.0,-3.2148,0.2973,9.2608,-0.0293,0.0325,-0.1142,-2.2679230175414027,0.0,4.7265424728393555,-1.329988956451416,-0.0,1.9829440116882324,5.373953509121694,-0.0,0.24381497502326965,-1.6974991003619593,0.0,0.004569604527205229,0.31391406059265137,-0.0,0.009524845518171787,1.4768493175506592,0.0,0.01135161891579628
406.0,408.0,-3.2148,0.2973,9.2608,-0.0293,0.0325,-0.1142,-2.2679549656310023,0.0,4.727512359619141,-1.3299968242645264,-0.0,1.9320788383483887,5.374021458416738,-0.0,0.24870474636554718,-1.6974666754352015,0.0,0.006346287205815315,0.3138980567455292,-0.0,-0.0013650493929162621,1.4768571853637695,0.0,0.006627907510846853
406.0,408.0,-3.2148,0.2973,9.2608,-0.0293,0.0325,-0.1142,-2.267947336236471,0.0,4.73822021484375,-1.3300009965896606,-0.0,1.9509186744689941,5.374013292580404,-0.0,0.2486303746700287,-1.6974666754352015,0.0,-6.020406726747751e-05,0.3139103651046753,-0.0,-0.0076521337032318115,1.4768412113189697,0.0,0.016415182501077652
406.0,408.0,-3.2148,0.2973,9.2608,-0.0293,0.0325,-0.1142,-2.2679349384703578,0.0,4.746054649353027,-1.3300249576568604,-0.0,1.9680557250976562,5.374005782395162,-0.0,0.23873867094516754,-1.6975272337542933,0.0,0.014803084544837475,0.31390997767448425,-0.0,-0.006425758823752403,1.476897120475769,0.0,0.03374040499329567
406.0,408.0,-3.2148,0.2973,9.2608,-0.0293,0.0325,-0.1142,-2.2679349384703578,0.0,4.791815280914307,-1.3300409317016602,-0.0,1.9289605617523193,5.374017405300894,-0.0,0.23412448167800903,-1.6975229422198694,0.0,0.0014828527346253395,0.3139062225818634,-0.0,-0.006198236718773842,1.4768290519714355,0.0,0.008030759170651436
406.0,408.0,-3.2148,0.2973,9.2608,-0.0293,0.0325,-0.1142,-2.267947336236471,0.0,4.740511894226074,-1.3300169706344604,-0.0,2.0285234451293945,5.373985755234518,-0.0,0.242182657122612,-1.6974666754352015,0.0,-0.0004172456683591008,0.3139381408691406,-0.0,-0.0025814310647547245,1.476837158203125,0.0,-0.053599126636981964
405.0,394.0,-3.2046,0.2883,9.3003,-0.0408,0.0283,-0.1202,-2.2679349384703578,0.0,4.727288246154785,-1.3300448656082153,-0.0,1.9503962993621826,5.373973595886984,-0.0,0.23242568969726562,-1.697542969380514,0.0,0.009850451722741127,0.3139583170413971,-0.0,0.009618083946406841,1.4768171310424805,0.0,-0.013744305819272995
405.0,394.0,-3.2046,0.2883,9.3003,-0.0408,0.0283,-0.1202,-2.267947336236471,0.0,4.717517852783203,-1.330045223236084,-0.0,1.946448802947998,5.373997676163473,-0.0,0.2418590784072876,-1.6975186506854456,0.0,0.010927107185125351,0.3139181435108185,-0.0,0.006328371353447437,1.476877212524414,0.0,0.04154855012893677
405.0,394.0,-3.2046,0.2883,9.3003,-0.0408,0.0283,-0.1202,-2.2679506740965785,0.0,4.73581600189209,-1.3299925327301025,-0.0,1.969271183013916,5.373945522099294,-0.0,0.2449415922164917,-1.6975229422198694,0.0,0.007739095948636532,0.31392180919647217,-0.0,-0.004362710285931826,1.476853370666504,0.0,0.03283007815480232
405.0,394.0,-3.2046,0.2883,9.3003,-0.0408,0.0283,-0.1202,-2.2679392300047816,0.0,4.70540714263916,-1.3300247192382812,-0.0,1.9590681791305542,5.373961734562673,-0.0,0.23132887482643127,-1.6974790732013147,0.0,-0.0032063634134829044,0.3139701783657074,-0.0,-0.006261856760829687,1.4768413305282593,0.0,0.006668530870229006
405.0,394.0,-3.2046,0.2883,9.3003,-0.0408,0.0283,-0.1202,-2.2679025135436,0.0,4.72774600982666,-1.330028772354126,-0.0,2.017364501953125,5.373957621842184,-0.0,0.23833754658699036,-1.697486702595846,0.0,-0.00624234601855278,0.3139021098613739,-0.0,0.012745335698127747,1.4768452644348145,0.0,0.0014438023790717125
405.0,394.0,-3.2046,0.2883,9.3003,-0.0408,0.0283,-0.1202,-2.2679506740965785,0.0,4.756152153015137,-1.3300647735595703,-0.0,1.925328254699707,5.373993682652273,-0.0,0.23498591780662537,-1.6974628607379358,0.0,0.0005024273996241391,0.31390580534935,-0.0,-0.01306096650660038,1.4768413305282593,0.0,0.0024247898254543543
405.0,394.0,-3.2046,0.2883,9.3003,-0.0408,0.0283,-0.1202,-2.267947336236471,0.0,4.702337265014648,-1.3300089836120605,-0.0,1.9680428504943848,5.3739898083503626,-0.0,0.24067574739456177,-1.6974909941302698,0.0,0.0010726515902206302,0.31390616297721863,-0.0,-0.00014789961278438568,1.4768412113189697,0.0,-0.008412780240178108
405.0,394.0,-3.2046,0.2883,9.3003,-0.0408,0.0283,-0.1202,-2.2679225407042445,0.0,4.747251987457275,-1.330028772354126,-0.0,1.9157919883728027,5.373965728073873,-0.0,0.2410200983285904,-1.6975105444537562,0.0,0.02082025073468685,0.3139702379703522,-0.0,0.01464448869228363,1.4768171310424805,0.0,-0.024389559403061867
405.0,394.0,-3.2046,0.2883,9.3003,-0.0408,0.0283,-0.1202,-2.2679392300047816,0.0,4.747891426086426,-1.3300687074661255,-0.0,1.9641807079315186,5.374009895115652,-0.0,0.230889692902565,-1.6975072065936487,0.0,0.015165448188781738,0.3139382600784302,-0.0,0.010429887101054192,1.4768452644348145,0.0,0.02777327224612236
405.0,394.0,-3.2046,0.2883,9.3003,-0.0408,0.0283,-0.1202,-2.2679349384703578,0.0,4.721006393432617,-1.3300209045410156,-0.0,1.9266278743743896,5.374013352185049,-0.0,0.24715688824653625,-1.697542969380514,0.0,0.0005685678916051984,0.3139263391494751,-0.0,-0.007539545185863972,1.476865291595459,0.0,0.0223394688218832
405.0,394.0,-3.2046,0.2883,9.3003,-0.0408,0.0283,-0.1202,-2.267971178094381,0.0,4.7444047927856445,-1.3300367593765259,-0.0,1.9652643203735352,5.374009358673849,-0.0,0.24359354376792908,-1.6975191275226038,0.0,0.0054726568050682545,0.31395044922828674,-0.0,0.002083881525322795,1.4768331050872803,0.0,0.029481321573257446
405.0,394.0,-3.2046,0.2883,9.3003,-0.0408,0.0283,-0.1202,-2.2679463825621546,0.0,4.735492706298828,-1.329980492591858,-0.0,1.96254301071167,5.374001729279318,-0.0,0.23734953999519348,-1.6975191275226038,0.0,0.007830210030078888,0.313938170671463,-0.0,0.007156744599342346,1.476897120475769,0.0,-0.006654770113527775
405.0,394.0,-3.2046,0.2883,9.3003,-0.0408,0.0283,-0.1202,-2.267906805078024,0.0,4.715879917144775,-1.330029010772705,-0.0,1.9188830852508545,5.373973595886984,-0.0,0.2322559356689453,-1.6974547545062464,0.0,0.0055413623340427876,0.31392598152160645,-0.0,0.003437821287661791,1.476837158203125,0.0,0.018743673339486122
405.0,394.0,-3.2046,0.2883,9.3003,-0.0408,0.0283,-0.1202,-2.267931123773092,0.0,4.751989364624023,-1.330008864402771,-0.0,1.9986966848373413,5.373993682652273,-0.0,0.2451823651790619,-1.6975229422198694,0.0,0.009396796114742756,0.31389397382736206,-0.0,0.008968356996774673,1.4768571853637695,0.0,-0.012114467099308968
405.0,394.0,-3.2046,0.2883,9.3003,-0.0408,0.0283,-0.1202,-2.2679268322386683,0.0,4.707962989807129,-1.3300129175186157,-0.0,1.9293785095214844,5.374005782395162,-0.0,0.2364031970500946,-1.697446648274557,0.0,0.012055420316755772,0.31391406059265137,-0.0,-0.0013854179996997118,1.4768532514572144,0.0,-0.02755124121904373
405.0,394.0,-3.2046,0.2883,9.3003,-0.0408,0.0283,-0.1202,-2.267914434472555,0.0,4.694723129272461,-1.330045223236084,-0.0,1.9704598188400269,5.373981702118673,-0.0,0.24075013399124146,-1.697502915059225,0.0,0.004614468663930893,0.3139341175556183,-0.0,-0.002424532314762473,1.4768251180648804,0.0,0.012218568474054337
405.0,405.0,-3.216,0.3003,9.2602,-0.0362,0.0295,-0.1147,-2.2679225407042445,0.0,4.754411220550537,-1.3300368785858154,-0.0,1.9500634670257568,5.373977947026052,-0.0,0.23415923118591309,-1.6974628607379358,0.0,0.0017922985134646297,0.3138943910598755,-0.0,-0.005723624024540186,1.4768612384796143,0.0,0.004715460352599621
405.0,405.0,-3.216,0.3003,9.2602,-0.0362,0.0295,-0.1147,-2.2679392300047816,0.0,4.723334312438965,-1.3300528526306152,-0.0,1.989031434059143,5.3739898083503626,-0.0,0.23635804653167725,-1.6974590460406702,0.0,0.004187413491308689,0.3138897716999054,-0.0,0.009313362650573254,1.476877212524414,0.0,0.008307423442602158
405.0,405.0,-3.216,0.3003,9.2602,-0.0362,0.0295,-0.1147,-2.2679673633971156,0.0,4.752955436706543,-1.3300408124923706,-0.0,2.003159284591675,5.3739898083503626,-0.0,0.24881511926651,-1.6974991003619593,0.0,-5.525868618860841e-05,0.31395453214645386,-0.0,0.0017054934287443757,1.4768571853637695,0.0,-0.010685574263334274
405.0,405.0,-3.216,0.3003,9.2602,-0.0362,0.0295,-0.1147,-2.267918726006979,0.0,4.751712322235107,-1.3300492763519287,-0.0,1.9645485877990723,5.3740418432052515,-0.0,0.22968754172325134,-1.6975186506854456,0.0,0.0054166000336408615,0.3138657212257385,-0.0,0.007347533013671637,1.476885199546814,0.0,0.014316159300506115
405.0,405.0,-3.216,0.3003,9.2602,-0.0362,0.0295,-0.1147,-2.267975469628805,0.0,4.74555778503418,-1.3300727605819702,-0.0,1.9496073722839355,5.373965728073873,-0.0,0.2335820496082306,-1.6975229422198694,0.0,0.005880551412701607,0.3138497471809387,-0.0,0.0018291233573108912,1.4769012928009033,0.0,-0.04595143720507622
405.0,405.0,-3.216,0.3003,9.2602,-0.0362,0.0295,-0.1147,-2.267971178094381,0.0,4.747796058654785,-1.3300533294677734,-0.0,1.9880380630493164,5.373969781189718,-0.0,0.23315508663654327,-1.6975272337542933,0.0,0.000923081417568028,0.31389760971069336,-0.0,0.0030198311433196068,1.4768612384796143,0.0,-0.025003649294376373
405.0,405.0,-3.216,0.3003,9.2602,-0.0362,0.0295,-0.1147,-2.267918726006979,0.0,4.769477844238281,-1.3300209045410156,-0.0,1.9120652675628662,5.373981702118673,-0.0,0.2454066276550293,-1.6974790732013147,0.0,-0.003449080279096961,0.3138898015022278,-0.0,-0.009803860448300838,1.476845383644104,0.0,-0.027153991162776947
405.0,405.0,-3.216,0.3003,9.2602,-0.0362,0.0295,-0.1147,-2.267975469628805,0.0,4.73505163192749,-1.3300573825836182,-0.0,1.9848618507385254,5.373997676163473,-0.0,0.24037083983421326,-1.697474781666891,0.0,0.004693789407610893,0.3139381408691406,-0.0,0.008775513619184494,1.476837158203125,0.0,-0.04585496336221695
405.0,405.0,-3.216,0.3003,9.2602,-0.0362,0.0295,-0.1147,-2.267958780328268,0.0,4.7365312576293945,-1.3300247192382812,-0.0,1.9490888118743896,5.374041783600607,-0.0,0.24360042810440063,-1.69751483598818,0.0,0.004233481362462044,0.3138779401779175,-0.0,-0.005583216901868582,1.4768290519714355,0.0,-0.02362290769815445
405.0,405.0,-3.216,0.3003,9.2602,-0.0362,0.0295,-0.1147,-2.267906805078024,0.0,4.699493408203125,-1.3299485445022583,-0.0,1.9330482482910156,5.374017345696249,-0.0,0.22683821618556976,-1.6974509398089808,0.0,0.012823835015296936,0.31391820311546326,-0.0,0.0015362706035375595,1.476837158203125,0.0,0.014549126848578453
405.0,405.0,-3.216,0.3003,9.2602,-0.0362,0.0295,-0.1147,-2.267914434472555,0.0,4.73360538482666,-1.3300330638885498,-0.0,1.940967082977295,5.373981702118673,-0.0,0.239763543009758,-1.6974991003619593,0.0,0.007442898582667112,0.31390172243118286,-0.0,0.0029473439790308475,1.476877212524414,0.0,-0.05094946175813675
405.0,405.0,-3.216,0.3003,9.2602,-0.0362,0.0295,-0.1147,-2.2679912052550257,0.0,4.734095096588135,-1.3300209045410156,-0.0,1.9649755954742432,5.374013352185049,-0.0,0.23482027649879456,-1.697474781666891,0.0,0.006358197890222073,0.3139903247356415,-0.0,0.004241666756570339,1.4768731594085693,0.0,-0.03919663280248642
405.0,405.0,-3.216,0.3003,9.2602,-0.0362,0.0295,-0.1147,-2.2679830990233363,0.0,4.709061145782471,-1.330037236213684,-0.0,1.9485807418823242,5.374001729279318,-0.0,0.24304571747779846,-1.6974952856646937,0.0,0.0018916587578132749,0.313889741897583,-0.0,0.00545145059004426,1.4768413305282593,0.0,-0.006051964126527309
405.0,405.0,-3.216,0.3003,9.2602,-0.0362,0.0295,-0.1147,-2.2679630718626917,0.0,4.701519012451172,-1.330000877380371,-0.0,1.961460828781128,5.373993682652273,-0.0,0.23718209564685822,-1.697463337575094,0.0,-0.0021801560651510954,0.31393009424209595,-0.0,0.00039992621168494225,1.4768211841583252,0.0,-0.020560191944241524
405.0,405.0,-3.216,0.3003,9.2602,-0.0362,0.0295,-0.1147,-2.2679435215392054,0.0,4.715456008911133,-1.3300533294677734,-0.0,1.9443668127059937,5.373997676163473,-0.0,0.24437758326530457,-1.6975110212909144,0.0,0.020290829241275787,0.31390175223350525,-0.0,-0.0022196960635483265,1.4768853187561035,0.0,0.007548705209046602
405.0,405.0,-3.216,0.3003,9.2602,-0.0362,0.0295,-0.1147,-2.267958780328268,0.0,4.719385623931885,-1.3300607204437256,-0.0,1.9587236642837524,5.374009358673849,-0.0,0.23796603083610535,-1.6974833647357386,0.0,-0.0024951279629021883,0.3138820230960846,-0.0,0.012022520415484905,1.4768249988555908,0.0,-0.022961948066949844
405.0,405.0,-3.216,0.3003,9.2602,-0.0362,0.0295,-0.1147,-2.267918726006979,0.0,4.73959493637085,-1.3300687074661255,-0.0,1.9298287630081177,5.373969781189718,-0.0,0.2322920560836792,-1.6974666754352015,0.0,0.011408756487071514,0.31393012404441833,-0.0,0.010150229558348656,1.4768493175506592,0.0,-0.01653856225311756
403.0,411.0,-3.198,0.2925,9.2608,-0.0276,0.0209,-0.1089,-2.267906805078024,0.0,4.73374080657959,-1.3300169706344604,-0.0,1.9496983289718628,5.37394945600585,-0.0,0.2426716685295105,-1.6975272337542933,0.0,-0.005048102233558893,0.31386980414390564,-0.0,-0.002186798257753253,1.4768532514572144,0.0,0.015687759965658188
403.0,411.0,-3.198,0.2925,9.2608,-0.0276,0.0209,-0.1089,-2.2679630718626917,0.0,4.743206977844238,-1.330060601234436,-0.0,1.9632761478424072,5.374005782395162,-0.0,0.23375758528709412,-1.6974952856646937,0.0,0.007703352719545364,0.3139583170413971,-0.0,0.009779688902199268,1.4768493175506592,0.0,0.013214933685958385
403.0,411.0,-3.198,0.2925,9.2608,-0.0276,0.0209,-0.1089,-2.2679392300047816,0.0,4.719115257263184,-1.330000877380371,-0.0,1.949213981628418,5.373973834305563,-0.0,0.23866474628448486,-1.6974828878985804,0.0,-0.00504641979932785,0.3138136863708496,-0.0,-0.00017940462566912174,1.4768290519714355,0.0,0.02598893642425537
403.0,411.0,-3.198,0.2925,9.2608,-0.0276,0.0209,-0.1089,-2.2679673633971156,0.0,4.713555335998535,-1.330028772354126,-0.0,1.9688518047332764,5.373993682652273,-0.0,0.23421454429626465,-1.6974871794330042,0.0,0.0024691643193364143,0.31391775608062744,-0.0,0.009307649917900562,1.4768731594085693,0.0,-0.008337227627635002
403.0,411.0,-3.198,0.2925,9.2608,-0.0276,0.0209,-0.1089,-2.2679673633971156,0.0,4.727686882019043,-1.329980492591858,-0.0,1.9981200695037842,5.3739898083503626,-0.0,0.22409695386886597,-1.6975272337542933,0.0,0.008220355026423931,0.31395453214645386,-0.0,-0.008135402575135231,1.476865291595459,0.0,-0.015454680658876896
403.0,411.0,-3.198,0.2925,9.2608,-0.0276,0.0209,-0.1089,-2.2679392300047816,0.0,4.704641819000244,-1.330028772354126,-0.0,1.9437756538391113,5.373997676163473,-0.0,0.24267691373825073,-1.6974666754352015,0.0,0.003897695802152157,0.3138657212257385,-0.0,0.008566334843635559,1.4768930673599243,0.0,0.013751300983130932
403.0,411.0,-3.198,0.2925,9.2608,-0.0276,0.0209,-0.1089,-2.2679673633971156,0.0,4.703205585479736,-1.3299884796142578,-0.0,1.9331727027893066,5.373993682652273,-0.0,0.23735551536083221,-1.6975110212909144,0.0,0.009750507771968842,0.3139095902442932,-0.0,-0.005702096037566662,1.476837158203125,0.0,0.005743472836911678
403.0,411.0,-3.198,0.2925,9.2608,-0.0276,0.0209,-0.1089,-2.2679668865599574,0.0,4.7555694580078125,-1.3300890922546387,-0.0,1.9722669124603271,5.373985755234518,-0.0,0.22985659539699554,-1.6974547545062464,0.0,0.007459812797605991,0.31395459175109863,-0.0,0.0018276895862072706,1.4768612384796143,0.0,-0.05648575723171234
403.0,411.0,-3.198,0.2925,9.2608,-0.0276,0.0209,-0.1089,-2.2679349384703578,0.0,4.744696617126465,-1.3300526142120361,-0.0,1.9501190185546875,5.374013352185049,-0.0,0.2511812448501587,-1.6975153128253382,0.0,-0.0016923933289945126,0.3139784038066864,-0.0,-0.0007353301625698805,1.4768731594085693,0.0,0.00903599988669157
403.0,411.0,-3.198,0.2925,9.2608,-0.0276,0.0209,-0.1089,-2.2679506740965785,0.0,4.677961826324463,-1.3300089836120605,-0.0,1.9387199878692627,5.373981702118673,-0.0,0.24323034286499023,-1.6975153128253382,0.0,0.01673041842877865,0.3139263689517975,-0.0,0.000231104320846498,1.4768493175506592,0.0,0.011845981702208519
403.0,411.0,-3.198,0.2925,9.2608,-0.0276,0.0209,-0.1089,-2.2679630718626917,0.0,4.735921382904053,-1.3300411701202393,-0.0,1.9585959911346436,5.373969781189718,-0.0,0.24633291363716125,-1.6975072065936487,0.0,0.011534348130226135,0.31384560465812683,-0.0,0.00805414654314518,1.4768930673599243,0.0,-0.0171063132584095
403.0,411.0,-3.198,0.2925,9.2608,-0.0276,0.0209,-0.1089,-2.2679349384703578,0.0,4.748439788818359,-1.3299967050552368,-0.0,1.9645593166351318,5.373997676163473,-0.0,0.24830427765846252,-1.6974952856646937,0.0,0.0007291232468560338,0.31393006443977356,-0.0,-0.0005209092050790787,1.4768452644348145,0.0,0.011079162359237671
403.0,411.0,-3.198,0.2925,9.2608,-0.0276,0.0209,-0.1089,-2.2679630718626917,0.0,4.714847087860107,-1.330045223236084,-0.0,1.9708545207977295,5.373969781189718,-0.0,0.24529802799224854,-1.6975348631488245,0.0,0.007855350151658058,0.3138737678527832,-0.0,-3.313482739031315e-05,1.4768131971359253,0.0,0.036330655217170715
403.0,411.0,-3.198,0.2925,9.2608,-0.0276,0.0209,-0.1089,-2.2679268322386683,0.0,4.703183174133301,-1.330068826675415,-0.0,1.955003023147583,5.37394134977416,-0.0,0.23655039072036743,-1.6975272337542933,0.0,0.01163345668464899,0.31385746598243713,-0.0,0.009252697229385376,1.4768332242965698,0.0,0.015670297667384148
403.0,411.0,-3.198,0.2925,9.2608,-0.0276,0.0209,-0.1089,-2.267971178094381,0.0,4.754242420196533,-1.329972505569458,-0.0,1.9500619173049927,5.373993682652273,-0.0,0.24437350034713745,-1.697502915059225,0.0,0.0076777273789048195,0.3139341473579407,-0.0,0.005358092952519655,1.47682523727417,0.0,-0.0035772151313722134
403.0,411.0,-3.198,0.2925,9.2608,-0.0276,0.0209,-0.1089,-2.2679349384703578,0.0,4.730616092681885,-1.330000877380371,-0.0,1.9438676834106445,5.374001729279318,-0.0,0.24410736560821533,-1.697474781666891,0.0,0.004470771178603172,0.31391412019729614,-0.0,0.009442001581192017,1.4768693447113037,0.0,0.026921164244413376
415.0,395.0,-3.1262,0.2806,9.1454,-0.0382,0.0296,-0.1138,-2.2679268322386683,0.0,4.713658809661865,-1.3300533294677734,-0.0,2.0416858196258545,5.374001729279318,-0.0,0.2442445456981659,-1.6974547545062464,0.0,0.007749449461698532,0.31388577818870544,-0.0,-0.0023485738784074783,1.4768452644348145,0.0,0.012876391410827637
415.0,395.0,-3.1262,0.2806,9.1454,-0.0382,0.0296,-0.1138,-2.2679549656310023,0.0,4.751450061798096,-1.3300367593765259,-0.0,1.9058135747909546,5.373969781189718,-0.0,0.22931192815303802,-1.6974991003619593,0.0,0.0128804761916399,0.31386977434158325,-0.0,0.01057528704404831,1.4768930673599243,0.0,0.014023873023688793
415.0,395.0,-3.1262,0.2806,9.1454,-0.0382,0.0296,-0.1138,-2.2679630718626917,0.0,4.7154717445373535,-1.3300249576568604,-0.0,1.9575862884521484,5.3740296242530725,-0.0,0.24836620688438416,-1.6974828878985804,0.0,0.007499526254832745,0.3139423727989197,-0.0,-0.005923231597989798,1.4768452644348145,0.0,-0.006534847430884838
415.0,395.0,-3.1262,0.2806,9.1454,-0.0382,0.0296,-0.1138,-2.2679630718626917,0.0,4.7170233726501465,-1.329972505569458,-0.0,1.9091620445251465,5.373993682652273,-0.0,0.23597398400306702,-1.6974790732013147,0.0,-0.004365638829767704,0.3139623999595642,-0.0,-0.004654364660382271,1.476885199546814,0.0,0.018835019320249557
415.0,395.0,-3.1262,0.2806,9.1454,-0.0382,0.0296,-0.1138,-2.2679506740965785,0.0,4.725383281707764,-1.3300409317016602,-0.0,1.9491527080535889,5.373965728073873,-0.0,0.2296595722436905,-1.6974509398089808,0.0,0.008590160869061947,0.31393006443977356,-0.0,0.002185933757573366,1.4768571853637695,0.0,-0.025212369859218597
415.0,395.0,-3.1262,0.2806,9.1454,-0.0382,0.0296,-0.1138,-2.267931123773092,0.0,4.720843315124512,-1.329992651939392,0.0003719621163327247,1.9331612586975098,5.374013352185049,-0.0,0.23220640420913696,-1.6975186506854456,0.0,0.006963165011256933,0.3139825463294983,-0.0,-0.008165699429810047,1.4768850803375244,0.0,0.012087606824934483
415.0,395.0,-3.1262,0.2806,9.1454,-0.0382,0.0296,-0.1138,-2.2679549656310023,1.1439741598451292e-08,4.751612186431885,-1.329992651939392,0.002039802260696888,1.9492599964141846,5.374009358673849,-0.0,0.23734286427497864,-1.6974628607379358,0.0,-0.0004664155712816864,0.31390583515167236,-0.0,0.012684362940490246,1.476865291595459,0.0,-0.028449084609746933
415.0,395.0,-3.1262,0.2806,9.1454,-0.0382,0.0296,-0.1138,-2.2679106197752894,2.7625628903058842e-14,4.74538516998291,-1.329972743988037,0.0016678115352988243,1.9694855213165283,5.374037492066183,-0.0,0.2365671843290329,-1.6975672880755823,0.0,-0.0036449821200221777,0.31386563181877136,-0.0,0.011051645502448082,1.4768850803375244,0.0,-0.0131511390209198
415.0,395.0,-3.1262,0.2806,9.1454,-0.0382,0.0296,-0.1138,-2.2679349384703578,6.671263339028453e-20,4.717381477355957,-1.330020785331726,0.000447354483185336,1.9347281455993652,5.374013352185049,-0.0,0.24610677361488342,-1.6974709669696253,0.0,0.008518564514815807,0.3139217793941498,-0.0,0.004206198267638683,1.4768731594085693,4.301443823351292e-07,-0.031724222004413605
415.0,395.0,-3.1262,0.2806,9.1454,-0.0382,0.0296,-0.1138,-2.2679435215392054,1.6110317086840137e-25,4.730698585510254,-1.3299243450164795,3.227225775503939e-08,1.9911177158355713,5.374069618969717,-0.0,0.2439715415239334,-1.6974709669696253,0.0,0.0024492067750543356,0.3138616979122162,-0.0,-0.0025479041505604982,1.4768891334533691,1.0387479721860049e-12,-0.03523770347237587
415.0,395.0,-3.1262,0.2806,9.1454,-0.0382,0.0296,-0.1138,-2.26798739055776,9.584444342181087e-05,4.718683242797852,-1.3299567699432373,5.808892429570722e-12,1.9605369567871094,5.373977708607473,-0.0,0.23663336038589478,-1.6974909941302698,0.0,0.004371012095361948,0.31395047903060913,-0.0,0.007616014219820499,1.4768850803375244,0.0009776012739166617,0.0015166574157774448
415.0,395.0,-3.1262,0.2806,9.1454,-0.0382,0.0296,-0.1138,-2.267931123773092,0.00011723696661647409,4.703704357147217,-1.3300007581710815,1.4027792048817273e-17,1.9354342222213745,5.374041604786672,-0.0,0.242067351937294,-1.6975272337542933,0.0,0.01592205837368965,0.3138820230960846,-0.0,-0.001484874403104186,1.4769330024719238,0.002335428027436137,-0.03479843586683273
415.0,395.0,-3.1262,0.2806,9.1454,-0.0382,0.0296,-0.1138,-2.2679463825621546,4.906452522845939e-05,4.704605579376221,-1.3299885988235474,3.3875460629505184e-23,1.9537473917007446,5.374005245953359,-0.0,0.24671944975852966,-1.6975510756122034,-5.54113114503707e-07,0.015296009369194508,0.31391775608062744,-0.0,-0.0007084573153406382,1.4769651889801025,0.003845702391117811,-0.014587817713618279
415.0,395.0,-3.1262,0.2806,9.1454,-0.0382,0.0296,-0.1138,-2.268003126183981,2.8859412637416426e-09,4.713676452636719,-1.3299846649169922,8.18052526314643e-29,1.9876338243484497,5.373997974186697,-0.0,0.2511540949344635,-1.6975944677936,-1.5423942678616243e-10,-0.00416361540555954,0.31391441822052,-0.0,0.01377289928495884,1.4769971370697021,0.006729388143867254,0.05348913371562958
415.0,395.0,-3.1262,0.2806,9.1454,-0.0382,0.0296,-0.1138,-2.267970701257223,5.194592043837598e-13,4.696855545043945,-1.329972743988037,1.4724658069526577e-32,1.9660849571228027,5.373993921070852,-0.0,0.23367628455162048,-1.697554890309469,-6.575468251487915e-13,0.007648463826626539,0.31394636631011963,-0.0,-0.013497984036803246,1.477041244506836,0.009430602192878723,0.0024266040418297052
415.0,395.0,-3.1262,0.2806,9.1454,-0.0382,0.0296,-0.1138,-2.2679792843260707,1.2544328406216205e-18,4.775130271911621,-1.3299329280853271,3.555831006724603e-38,1.9488660097122192,5.3739898083503626,-0.0,0.2321206033229828,-1.697542969380514,-1.8303057177696365e-16,-0.0013497121399268508,0.31391406059265137,-0.0,-0.009543338790535927,1.47709321975708,0.010699533857405186,0.009954772889614105
411.0,407.0,-3.271,-0.0419,8.921,-0.0315,0.026,-0.1046,-2.267998834649557,3.0293081147980546e-24,4.713626861572266,-1.3299568891525269,8.547920632381384e-44,1.9400562047958374,5.374013352185049,-0.0,0.23114104568958282,-1.6975553671466272,-5.0947233305748716e-20,-0.00333211338147521,0.3139181435108185,-0.0,0.010911300778388977,1.477104902267456,0.009281913749873638,-0.0032083559781312943
411.0,407.0,-3.271,-0.0419,8.921,-0.0315,0.026,-0.1046,-2.2679792843260707,7.315423712737865e-30,4.7183518409729,-1.329932451248169,-0.0,2.006333351135254,5.373985755234518,-0.0,0.2343570590019226,-1.6975105444537562,-1.418135091543632e-23,0.024605609476566315,0.31390997767448425,-0.0,0.010411912575364113,1.4770931005477905,0.004745996091514826,-0.04718179255723953
411.0,407.0,-3.271,-0.0419,8.921,-0.0315,0.026,-0.1046,-2.267918726006979,1.3167503845537324e-33,4.760770797729492,-1.3299286365509033,-0.0,1.969461441040039,5.373997676163473,-0.0,0.23346441984176636,-1.6975510756122034,-6.045732602595846e-26,-0.0009707028511911631,0.31384968757629395,-0.0,0.0031747559551149607,1.4771652221679688,0.0022963834926486015,-0.02574089542031288
411.0,407.0,-3.271,-0.0419,8.921,-0.0315,0.026,-0.1046,-2.267906805078024,0.00014202504826243967,4.735259056091309,-1.329932451248169,0.0006772010237909853,1.9560024738311768,5.373973834305563,-0.0,0.24103862047195435,-1.6975510756122034,-1.682851705721939e-29,0.007029032334685326,0.3138779401779175,-0.0,0.004869667813181877,1.4771569967269897,0.0005132401711307466,0.06431311368942261
411.0,407.0,-3.271,-0.0419,8.921,-0.0315,0.026,-0.1046,-2.2679549656310023,0.0001149190793512389,4.720973968505859,-1.3299448490142822,0.0005444330163300037,1.9275450706481934,5.373993682652273,-0.0,0.2365654557943344,-1.697583023701803,-4.684279968495536e-33,0.022317618131637573,0.313882052898407,-0.0,0.007904943078756332,1.4771411418914795,-0.0004894951125606894,0.030099645256996155
411.0,407.0,-3.271,-0.0419,8.921,-0.0315,0.026,-0.1046,-2.2678986988463343,9.644424426369369e-05,4.701796531677246,-1.3299205303192139,0.0005103350267745554,1.9853050708770752,5.373921561032095,-0.0,0.24534347653388977,-1.697498623524801,-1.303886472902076e-36,0.007055292371660471,0.31390172243118286,-0.0,0.0029503963887691498,1.4771089553833008,-0.0012108312221243978,0.013934231363236904
411.0,407.0,-3.271,-0.0419,8.921,-0.0315,0.026,-0.1046,-2.267975469628805,8.71086012921296e-05,4.759945869445801,-1.3299448490142822,0.00014496862422674894,1.939474105834961,5.373953807144918,-0.0,0.22887903451919556,-1.697583023701803,-5.558672149582149e-39,0.019138045608997345,0.3139500617980957,-0.0,-0.008069141767919064,1.4771332740783691,-0.0019985600374639034,-0.006525949575006962
411.0,407.0,-3.271,-0.0419,8.921,-0.0315,0.026,-0.1046,-2.2679630718626917,3.803234358201735e-05,4.689481735229492,-1.329988718032837,6.00914029647015e-09,1.9679925441741943,5.373917805939474,-0.0,0.23834887146949768,-1.697566334401266,-1.547033504614598e-42,0.009842043742537498,0.31390175223350525,-0.0,-0.0041984026320278645,1.477097511291504,-0.002360143233090639,-0.0076391142792999744
411.0,407.0,-3.271,-0.0419,8.921,-0.0315,0.026,-0.1046,-2.2679830990233363,2.67033922751736e-10,4.724035263061523,-1.3300087451934814,1.4511365064228884e-14,1.9817672967910767,5.373945700913229,-0.0,0.24185889959335327,-1.6975062529193323,-0.0,0.010707142762839794,0.31389355659484863,-0.0,-0.005084197968244553,1.4770488739013672,-0.0030769938603043556,-0.029512017965316772
411.0,407.0,-3.271,-0.0419,8.921,-0.0315,0.026,-0.1046,-2.267970701257223,6.448555001071186e-16,4.735276699066162,-1.329940915107727,3.5043235232170523e-20,1.968200922012329,5.37394546249465,-0.0001385784416925162,0.23200064897537231,-1.6975062529193323,-0.0,0.010393965989351273,0.3139423131942749,-0.0,-0.006122525315731764,1.4769930839538574,-0.006020249333232641,0.018985072150826454
411.0,407.0,-3.271,-0.0419,8.921,-0.0315,0.026,-0.1046,-2.267974992791647,1.1607171546284838e-19,4.7542009353637695,-1.3299283981323242,6.307658039652572e-24,1.9056415557861328,5.373921561032095,-0.00015696571790613234,0.23038050532341003,-1.6975386778460901,-0.0,0.01799691654741764,0.31390583515167236,-0.0,-9.193341247737408e-05,1.4770171642303467,-0.006941694300621748,0.025357408449053764
411.0,407.0,-3.271,-0.0419,8.921,-0.0315,0.026,-0.1046,-2.2679668865599574,2.8029948665352063e-25,4.698664665222168,-1.330008625984192,1.5232253657164332e-29,1.9424107074737549,5.373929726868429,-0.00016834276902955025,0.23554196953773499,-1.6975262800799769,-0.0,0.01309131644666195,0.31397050619125366,-0.0,-0.0030645059887319803,1.476928949356079,-0.007225101348012686,-0.03546321019530296
411.0,407.0,-3.271,-0.0419,8.921,-0.0315,0.026,-0.1046,-2.267974992791647,6.768903193080116e-31,4.7352070808410645,-1.3299124240875244,3.6784099575921333e-35,1.9765336513519287,5.373957919865408,-0.0001560313830850646,0.22847223281860352,-1.6975472609149378,-0.0,0.018122786656022072,0.31392180919647217,-0.0,0.007085496559739113,1.4768972396850586,-0.005368062760680914,-0.0015306081622838974
411.0,407.0,-3.271,-0.0419,8.921,-0.0315,0.026,-0.1046,-2.267946859399313,1.6346104883706693e-36,4.748862266540527,-1.3298887014389038,0.00010106185800395906,1.9795231819152832,5.3739497540290735,-0.0001452394644729793,0.25297123193740845,-1.6975553671466272,-0.0,0.03017965517938137,0.3139260411262512,-0.0,0.004582821857184172,1.4768571853637695,-0.0037929946556687355,0.041540421545505524
411.0,407.0,-3.271,-0.0419,8.921,-0.0315,0.026,-0.1046,-2.2679225407042445,2.942236320619602e-40,4.789475440979004,-1.3299164772033691,0.00019247378804720938,1.9606634378433228,5.373957860260763,-0.00013883758219890296,0.24179178476333618,-1.6975105444537562,-2.764975215541199e-05,0.019081298261880875,0.31390616297721863,-0.0,-0.007228413131088018,1.4768452644348145,-0.0034079691395163536,-0.008737154304981232
411.0,407.0,-3.271,-0.0419,8.921,-0.0315,0.026,-0.1046,-2.267942567864889,1.401298464324817e-45,4.743821144104004,-1.329904556274414,0.0009068599320016801,1.967257022857666,5.3739497540290735,-0.0001302276796195656,0.2336798459291458,-1.6974628607379358,-3.45188491337467e-05,0.018819205462932587,0.31393006443977356,-0.0,-0.004111332818865776,1.4767934083938599,-0.004181717522442341,0.0002843289403244853
411.0,407.0,-3.271,-0.0419,8.921,-0.0315,0.026,-0.1046,-2.2679673633971156,0.0,4.708776473999023,-1.3299610614776611,0.000816735380794853,1.962843894958496,5.373961674958029,-0.00014010141603648663,0.2328091710805893,-1.6975310484515589,-1.7406957340426743e-05,0.01310249324887991,0.31391820311546326,-0.0,0.0012836866080760956,1.476837396621704,-0.004428300075232983,0.06035381183028221
404.0,393.0,-3.1902,0.4504,9.6509,-0.0331,0.0189,-0.131,-2.267931123773092,0.0,4.694184303283691,-1.3299124240875244,0.0006113654817454517,1.9437980651855469,5.373905885010519,-0.0001799680758267641,0.24187368154525757,-1.69751483598818,-1.547971805848647e-05,0.010743845254182816,0.3139181435108185,-0.0,0.005248360335826874,1.4767491817474365,-0.004522154573351145,0.016156449913978577
404.0,393.0,-3.1902,0.4504,9.6509,-0.0331,0.0189,-0.131,-2.2679912052550257,0.0,4.733824729919434,-1.3299610614776611,0.0003847119223792106,1.960925817489624,5.373890149384298,-0.00020540892728604376,0.22890149056911469,-1.697446648274557,-1.4964652109483723e-05,0.016377873718738556,0.31389397382736206,-0.0,0.007950936444103718,1.4767334461212158,-0.004513024352490902,-0.027869895100593567
404.0,393.0,-3.1902,0.4504,9.6509,-0.0331,0.0189,-0.131,-2.268043657342428,0.0,4.716397285461426,-1.3299648761749268,-0.00037047237856313586,1.963937759399414,5.373913991242208,-0.0007039462216198444,0.23689906299114227,-1.69751483598818,-4.165466194194778e-09,0.02103160321712494,0.3138575255870819,-0.0,-0.006775977090001106,1.476689338684082,-0.005193611141294241,0.0319247730076313
404.0,393.0,-3.1902,0.4504,9.6509,-0.0331,0.0189,-0.131,-2.267982622186178,0.0,4.713878631591797,-1.329980731010437,-0.0003537217853590846,1.9759459495544434,5.373890149384298,-0.0006688528810627759,0.24479813873767853,-1.6974828878985804,-1.1594727998900933e-12,0.005921940319240093,0.31392180919647217,-0.0,0.005805544089525938,1.4766613245010376,-0.006762143224477768,0.045768290758132935
404.0,393.0,-3.1902,0.4504,9.6509,-0.0331,0.0189,-0.131,-2.2679630718626917,-0.000624125124886632,4.741268157958984,-1.329940915107727,-0.0002731745771598071,1.9341421127319336,5.373902070313253,-0.0005374469910748303,0.23440322279930115,-1.6975072065936487,-3.2274353452420757e-16,0.012549426406621933,0.3139258623123169,-0.0,0.006040933541953564,1.4765815734863281,-0.007963702082633972,-0.06813833117485046
404.0,393.0,-3.1902,0.4504,9.6509,-0.0331,0.0189,-0.131,-2.268027444879049,-0.0005884540150873363,4.716036796569824,-1.329948902130127,-0.00023717260046396405,1.9945820569992065,5.373906123429098,-0.0005243187770247459,0.23316897451877594,-1.6975186506854456,-1.3759061747314108e-18,0.00940919853746891,0.31396612524986267,-0.0,0.017859073355793953,1.476541519165039,-0.00843886099755764,-0.02516094222664833
404.0,393.0,-3.1902,0.4504,9.6509,-0.0331,0.0189,-0.131,-2.26798214534902,-0.0004434606235008687,4.737823963165283,-1.3299448490142822,-0.00014216611452866346,1.8957436084747314,5.3738823411758325,-0.00038970084278844297,0.23780618607997894,-1.6974309126483362,-3.829885616056907e-22,0.008795768022537231,0.3139305114746094,-0.0,0.01573602296411991,1.4764856100082397,-0.009079605340957642,-0.03547051548957825
404.0,393.0,-3.1902,0.4504,9.6509,-0.0331,0.0189,-0.131,-2.268031259576315,-0.00035578382085077465,4.704742908477783,-1.329977035522461,-5.7721314078662544e-05,1.969547986984253,5.373854148178854,-0.0003708927833940834,0.24102196097373962,-1.6974948088275355,-1.0660625597516328e-25,0.005694601219147444,0.31391406059265137,-0.0,0.0187862329185009,1.4764457941055298,-0.009254398755729198,0.027717161923646927
404.0,393.0,-3.1902,0.4504,9.6509,-0.0331,0.0189,-0.131,-2.267974992791647,-0.0002970589848700911,4.737006187438965,-1.3299285173416138,-1.161128193594152e-09,1.9271409511566162,5.373861956387319,-0.00030755475745536387,0.25317299365997314,-1.697502915059225,-2.9674241082101357e-29,-0.010210465639829636,0.3139464259147644,-0.0,0.001569550484418869,1.4763656854629517,-0.009287510998547077,0.01099689956754446
404.0,393.0,-3.1902,0.4504,9.6509,-0.0331,0.0189,-0.131,-2.268031259576315,-0.00022322728182189167,4.724673748016357,-1.3299286365509033,-2.089989693896538e-13,1.9507452249526978,5.373854148178854,-0.00032048614230006933,0.2406645268201828,-1.6975229422198694,-1.2650593796416655e-31,0.005865995306521654,0.31391406059265137,-0.0,-0.0021323515102267265,1.4763739109039307,-0.009003669954836369,-0.005806624889373779
404.0,393.0,-3.1902,0.4504,9.6509,-0.0331,0.0189,-0.131,-2.2679668865599574,-0.00015585952496621758,4.713269233703613,-1.3299245834350586,0.002543383277952671,1.9689573049545288,5.37385385015563,-0.00027926109032705426,0.23982182145118713,-1.6975072065936487,-3.5213399776960895e-35,0.0008731981506571174,0.3139665126800537,-0.0,-0.0013968402054160833,1.476341724395752,-0.007204040419310331,0.017513930797576904
404.0,393.0,-3.1902,0.4504,9.6509,-0.0331,0.0189,-0.131,-2.2680069408812464,-0.00013751548249274492,4.721784591674805,-1.3298803567886353,0.005094459280371666,1.9766219854354858,5.373850095063009,-0.00024647789541631937,0.2407858818769455,-1.6974909941302698,-9.801778676185337e-39,0.007344740442931652,0.31391772627830505,-0.0,-0.010818014852702618,1.4763100147247314,-0.005701377056539059,-0.003252764232456684
404.0,393.0,-3.1902,0.4504,9.6509,-0.0331,0.0189,-0.131,-2.2679296932616175,-0.00012337657972238958,4.7170820236206055,-1.3298287391662598,0.007628018967807293,1.9424748420715332,5.3738459823425195,-0.00025208594161085784,0.22845691442489624,-1.6974909941302698,-2.7283281100404188e-42,0.003062685951590538,0.31395411491394043,-0.0,0.006773623172193766,1.4762380123138428,-0.005396381486207247,-0.009994236752390862
404.0,393.0,-3.1902,0.4504,9.6509,-0.0331,0.0189,-0.131,-2.2679745159544886,-0.00011546220048330724,4.734704971313477,-1.3297725915908813,0.008818227797746658,1.9689687490463257,5.373866069107809,-0.0002216233842773363,0.2405512034893036,-1.6975110212909144,-1.1210387714598537e-44,0.01373223401606083,0.31386566162109375,-0.0,0.00888017751276493,1.4762459993362427,-0.004458204843103886,-0.030024182051420212
404.0,393.0,-3.1902,0.4504,9.6509,-0.0331,0.0189,-0.131,-2.267974992791647,-0.00010532758460612968,4.7222185134887695,-1.3297243118286133,0.008172639645636082,1.9664114713668823,5.373878228455343,-0.0001896345056593418,0.2528608739376068,-1.6975153128253382,-0.0,0.015257937833666801,0.3139340579509735,-0.0,-0.0025730086490511894,1.4762660264968872,-0.00347934034653008,-0.015144724398851395
404.0,393.0,-3.1902,0.4504,9.6509,-0.0331,0.0189,-0.131,-2.268026968041891,-2.8883332561235875e-05,4.715914726257324,-1.3297486305236816,0.006800108589231968,2.000189781188965,5.373782384186544,-0.00020199532445985824,0.23985913395881653,-1.6974547545062464,-0.0,0.006118896417319775,0.3139583170413971,-0.0,-0.0030414676293730736,1.4762380123138428,-0.002632950199767947,-0.01747811958193779
415.0,411.0,-3.1705,0.2477,9.0203,-0.0434,0.029,-0.1294,-2.2679907284178675,-2.6335925213061273e-05,4.733961582183838,-1.3296235799789429,0.005174911115318537,1.97378671169281,5.373854148178854,-0.00020985459559597075,0.24244265258312225,-1.697486702595846,-0.0,-0.005620116367936134,0.313882052898407,-0.0,0.007512540090829134,1.4761459827423096,-0.0025151027366518974,0.035589512437582016
415.0,411.0,-3.1705,0.2477,9.0203,-0.0434,0.029,-0.1294,-2.2679907284178675,-4.974587500328198e-05,4.691317558288574,-1.3296241760253906,0.003753592725843191,1.9800782203674316,5.3738064644630334,-0.00019853381672874093,0.2588146924972534,-1.6974628607379358,-0.0,0.00447390740737319,0.3138980567455292,5.204790376467372e-09,-0.005276061128824949,1.4761619567871094,-0.0025581340305507183,0.021637098863720894
415.0,411.0,-3.1705,0.2477,9.0203,-0.0434,0.029,-0.1294,-2.2680632076659144,-4.594902566168457e-05,4.728952407836914,-1.3296360969543457,0.001989225624129176,1.9704914093017578,5.373810517578878,-0.00018139134044758976,0.26442795991897583,-1.6974871794330042,-0.0,0.01732403039932251,0.3139500617980957,1.4487725255585282e-12,0.007242430932819843,1.476166009902954,-0.003653385443612933,-0.026468826457858086
415.0,411.0,-3.1705,0.2477,9.0203,-0.0434,0.029,-0.1294,-2.2680026493468226,-4.268047632649541e-05,4.785275459289551,-1.329632043838501,0.0012626317329704762,1.9958301782608032,5.373838472157278,-0.0001669682824285701,0.259554922580719,-1.6974671522723597,-0.0,0.01619589328765869,0.31398653984069824,4.032711156383515e-16,0.000857166713103652,1.47611403465271,-0.004473249427974224,-0.01709914579987526
415.0,411.0,-3.1705,0.2477,9.0203,-0.0434,0.029,-0.1294,-2.267998834649557,-3.984603608842008e-05,4.7345452308654785,-1.3296160697937012,0.0006354352808557451,1.9615166187286377,5.373806226044454,-0.00015466977492906153,0.24676290154457092,-1.6974471251117151,-0.0,0.02730747126042843,0.3140066862106323,1.1225200218923163e-19,-0.0013859429163858294,1.4761061668395996,-0.005594657268375158,-0.004638407379388809
415.0,411.0,-3.1705,0.2477,9.0203,-0.0434,0.029,-0.1294,-2.267994543115133,-3.815672971541062e-05,4.765499114990234,-1.3296241760253906,0.0005942199495621026,1.9616551399230957,5.373834419041433,-0.0001474305463489145,0.25186946988105774,-1.697491470967428,-0.0,0.019630346447229385,0.3139742910861969,4.785478647592494e-22,-0.005142905283719301,1.4760462045669556,-0.006393122021108866,-0.08199487626552582
415.0,411.0,-3.1705,0.2477,9.0203,-0.0434,0.029,-0.1294,-2.2680231533446253,-3.5875280445907265e-05,4.764301776885986,-1.3296080827713013,0.0006001773290336132,1.9827802181243896,5.373846578388967,-0.00013775860134046525,0.2515937089920044,-1.6974828878985804,-0.0,0.032291777431964874,0.3139423131942749,1.3320557334142276e-25,0.002189843449741602,1.4760541915893555,-0.007262955419719219,-0.14854654669761658
415.0,411.0,-3.1705,0.2477,9.0203,-0.0434,0.029,-0.1294,-2.268010755578512,-1.692567275313195e-05,4.7351555824279785,-1.3296122550964355,0.0007400764734484255,2.0136313438415527,5.3737902519996545,-0.0001292779197683558,0.2607008218765259,-1.6974671522723597,-0.0,0.012090461328625679,0.3139500617980957,3.7078259076913804e-29,-0.0006822728901170194,1.4760063886642456,-0.008098690770566463,-0.07014412432909012
415.0,411.0,-3.1705,0.2477,9.0203,-0.0434,0.029,-0.1294,-2.268031259576315,-1.6021716874092817e-05,4.745174407958984,-1.329628348350525,0.001904751523397863,1.9709267616271973,5.373858141690054,-0.00012178077304270118,0.25296124815940857,-1.697479550038473,-0.0,0.03670673817396164,0.31391406059265137,1.0320868318210516e-32,-0.004699729848653078,1.4759544134140015,-0.008408698253333569,-0.09780730307102203
415.0,411.0,-3.1705,0.2477,9.0203,-0.0434,0.029,-0.1294,-2.267982622186178,-1.5470897778868675e-05,4.772632598876953,-1.3295800685882568,0.002215642249211669,1.9914641380310059,5.3738587377365015,-0.00011724776413757354,0.24938085675239563,-1.6975191275226038,-0.0,0.030686618760228157,0.31391775608062744,4.399947962566972e-35,0.010275301523506641,1.4759304523468018,-0.008762340992689133,-0.0849154144525528
415.0,411.0,-3.1705,0.2477,9.0203,-0.0434,0.029,-0.1294,-2.2680069408812464,-1.4712209122080822e-05,4.767004489898682,-1.329564094543457,0.0021008651237934828,1.9088741540908813,5.373830306320944,-0.00011104770237579942,0.26708486676216125,-1.6974833647357386,-0.0,0.024972504004836082,0.31387799978256226,1.224741584052519e-38,0.005454599857330322,1.4758464097976685,-0.008759057149291039,-0.08481103181838989
415.0,411.0,-3.1705,0.2477,9.0203,-0.0434,0.029,-0.1294,-2.267994543115133,-2.8048840249539353e-05,4.765017986297607,-1.3295438289642334,0.0019682408310472965,1.9977283477783203,5.3737902519996545,-0.00010547039710218087,0.2591642737388611,-1.6974752585040491,-0.0,0.01967190019786358,0.3139381408691406,3.40935916370228e-42,0.00035353988641873,1.475806474685669,-0.009309904649853706,-0.1333397924900055
415.0,411.0,-3.1705,0.2477,9.0203,-0.0434,0.029,-0.1294,-2.268059392968649,-2.679624049051199e-05,4.739022254943848,-1.329543948173523,0.0018885595491155982,1.97492253780365,5.373834359436788,-0.00010042643407359719,0.26283490657806396,-1.697463337575094,-0.0,0.020146943628787994,0.3139381408691406,1.401298464324817e-45,-0.0010954546742141247,1.475766658782959,-0.008884564973413944,-0.12139615416526794
415.0,411.0,-3.1705,0.2477,9.0203,-0.0434,0.029,-0.1294,-2.2680474720396937,-2.5650673705968075e-05,4.807533264160156,-1.3295320272445679,0.0018902488518506289,1.9863920211791992,5.373782384186544,-9.584309736965224e-05,0.2574332356452942,-1.6974909941302698,-0.0,0.01888018660247326,0.3139381408691406,0.0,-0.0031086737290024757,1.4757025241851807,-0.008780824951827526,-0.14652523398399353
415.0,411.0,-3.1705,0.2477,9.0203,-0.0434,0.029,-0.1294,-2.267994543115133,-2.4939885406638496e-05,4.7613139152526855,-1.3295238018035889,0.0020735631696879864,2.0110974311828613,5.373854148178854,-9.3013011792209e-05,0.25576967000961304,-1.6974471251117151,-0.0,0.019714009016752243,0.3139747679233551,0.0,-0.009485152550041676,1.4757226705551147,-0.008718648925423622,-0.11596642434597015
415.0,411.0,-3.1705,0.2477,9.0203,-0.0434,0.029,-0.1294,-2.268059392968649,-2.3944612621562555e-05,4.75490665435791,-1.3295445442199707,0.003561207791790366,2.0401244163513184,5.373826193600454,-3.581802229746245e-05,0.26567599177360535,-1.6974790732013147,-0.0,0.02688799984753132,0.3139583468437195,0.0,0.012469781562685966,1.4756388664245605,-0.009891388937830925,-0.06901472061872482
415.0,411.0,-3.1705,0.2477,9.0203,-0.0434,0.029,-0.1294,-2.267954488793844,-2.302573739143554e-05,4.760274887084961,-1.3294436931610107,0.004635537508875132,2.0147056579589844,5.373806226044454,-1.7136795577243902e-05,0.2670072019100189,-1.6974509398089808,-0.0,0.030426478013396263,0.31395450234413147,0.0,0.0004219640977680683,1.4755429029464722,-0.010201278142631054,-0.13056251406669617
425.0,428.0,-3.1531,0.2632,9.2877,-0.0341,0.0286,-0.1237,-2.2679907284178675,-1.1138802619825583e-05,4.741144180297852,-1.32942795753479,0.006250209175050259,2.0312986373901367,5.373878228455343,-1.3891717287606298e-07,0.2754334807395935,-1.6974833647357386,-0.0,0.01444501243531704,0.31394636631011963,0.0,-0.0016146538546308875,1.4755429029464722,-0.011273367330431938,-0.07430381327867508
425.0,428.0,-3.1531,0.2632,9.2877,-0.0341,0.0286,-0.1237,-2.268010755578512,-1.0820794159371872e-05,4.758173942565918,-1.329436182975769,0.006831452250480652,1.957444429397583,5.373870122223654,-5.922256018919825e-10,0.2597394585609436,-1.6975353399859827,-0.0,0.025350745767354965,0.3139382004737854,0.0,-0.001796308672055602,1.4754148721694946,-0.012312551960349083,-0.12999647855758667
425.0,428.0,-3.1531,0.2632,9.2877,-0.0341,0.0286,-0.1237,-2.2680069408812464,-1.044407872541342e-05,4.775054931640625,-1.3293514251708984,0.007688621059060097,2.01914644241333,5.373830306320944,-1.6484818338938917e-13,0.26857104897499084,-1.6974552313434046,-0.0,0.007931498810648918,0.3138939142227173,0.0,0.0004236833192408085,1.4754153490066528,-0.013432842679321766,-0.15865947306156158
425.0,428.0,-3.1531,0.2632,9.2877,-0.0341,0.0286,-0.1237,-2.2680069408812464,-1.00927218227298e-05,4.717239856719971,-1.329299807548523,0.008577405475080013,1.994511365890503,5.3738459823425195,-4.58860974759255e-17,0.2725716233253479,-1.6974709669696253,-0.0,0.0039043386932462454,0.31392598152160645,0.0,0.0012642894871532917,1.4752991199493408,-0.015309436246752739,-0.1857219636440277
425.0,428.0,-3.1531,0.2632,9.2877,-0.0341,0.0286,-0.1237,-2.267994543115133,-1.5424527433083313e-08,4.758480072021484,-1.3292797803878784,0.009231716394424438,1.9877921342849731,5.373866069107809,-1.2772563693090924e-20,0.2670646607875824,-1.697502915059225,-0.0,0.01391155831515789,0.31393006443977356,0.0,0.010632827877998352,1.4752514362335205,-0.016363682225346565,-0.15523703396320343
425.0,428.0,-3.1531,0.2632,9.2877,-0.0341,0.0286,-0.1237,-2.267986913720602,-2.7763611722131376e-12,4.762969970703125,-1.329198956489563,0.009836724027991295,2.0328314304351807,5.373886394291677,-5.445143952724243e-23,0.26267141103744507,-1.6975153128253382,-0.0,0.014552222564816475,0.3139702081680298,0.0,0.010411472991108894,1.4751715660095215,-0.0170744676142931,-0.16183003783226013
425.0,428.0,-3.1531,0.2632,9.2877,-0.0341,0.0286,-0.1237,-2.2680188618102015,-6.704585069234233e-18,4.802961349487305,-1.3291308879852295,0.010125920176506042,2.027681827545166,5.373818146973409,-1.515675897279249e-26,0.2534470856189728,-1.697474781666891,-0.0,0.011294660158455372,0.3139381408691406,0.0,0.013243603520095348,1.4750356674194336,-0.01772351562976837,-0.20332928001880646
425.0,428.0,-3.1531,0.2632,9.2877,-0.0341,0.0286,-0.1237,-2.2680231533446253,-1.6190783167147783e-23,4.719454288482666,-1.3291397094726562,0.010401315055787563,2.0397257804870605,5.3738459823425195,-4.2189402553837175e-30,0.2662923336029053,-1.6974909941302698,-0.0,0.017877478152513504,0.3138980567455292,0.0,-0.0007511972216889262,1.475003719329834,-0.018174447119235992,-0.23108436167240143
425.0,428.0,-3.1531,0.2632,9.2877,-0.0341,0.0286,-0.1237,-2.268010755578512,-3.909883343173998e-29,4.782419204711914,-1.3290841579437256,0.010614853352308273,2.0182602405548096,5.373830306320944,-1.1743576110508439e-33,0.26751360297203064,-1.6974828878985804,-0.0,0.008091403171420097,0.31392180919647217,0.0,0.004431278444826603,1.4748358726501465,-0.020274415612220764,-0.26495349407196045
425.0,428.0,-3.1531,0.2632,9.2877,-0.0341,0.0286,-0.1237,-2.267958780328268,-7.037652352278388e-33,4.772342205047607,-1.3290073871612549,0.01061925943940878,2.0287272930145264,5.373838472157278,-5.006471263900024e-36,0.27141547203063965,-1.6974509398089808,-0.0,0.02257784828543663,0.3139340579509735,0.0,-0.0069713350385427475,1.474716067314148,-0.022512365132570267,-0.15896400809288025
425.0,428.0,-3.1531,0.2632,9.2877,-0.0341,0.0286,-0.1237,-2.2680188618102015,-1.6995104720759386e-38,4.784379959106445,-1.3289555311203003,0.010563935153186321,2.026174783706665,5.373846578388967,-1.3935703032940657e-39,0.27760857343673706,-1.6974714438067835,-0.0,0.018549855798482895,0.31390175223350525,0.0,0.006368760485202074,1.4746001958847046,-0.023278217762708664,-0.2331920713186264
425.0,428.0,-3.1531,0.2632,9.2877,-0.0341,0.0286,-0.1237,-2.268015047112936,-4.0637655465419695e-44,4.758145809173584,-1.3288187980651855,0.011321590282022953,2.0581722259521484,5.3738459823425195,-3.881596746179743e-43,0.26401108503341675,-1.6974790732013147,-0.0,0.009454871527850628,0.31389766931533813,0.0,-0.0003082673065364361,1.474480152130127,-0.026038242504000664,-0.23881277441978455
425.0,428.0,-3.1531,0.2632,9.2877,-0.0341,0.0286,-0.1237,-2.268015047112936,0.0,4.7121782302856445,-1.3288509845733643,0.010510535910725594,2.0466370582580566,5.373854148178854,-0.0,0.2594403326511383,-1.6974671522723597,-0.0,0.00937588233500719,0.3139623999595642,0.0,-0.002946366323158145,1.4743165969848633,-0.029297852888703346,-0.2669050693511963
425.0,428.0,-3.1531,0.2632,9.2877,-0.0341,0.0286,-0.1237,-2.267998834649557,0.0,4.767124176025391,-1.328742265701294,0.01049057301133871,2.048125743865967,5.373858141690054,-0.0,0.2602976858615875,-1.6974991003619593,-0.0,0.020166384056210518,0.31390997767448425,0.0,0.002449663355946541,1.4741966724395752,-0.029310308396816254,-0.2545013427734375
425.0,428.0,-3.1531,0.2632,9.2877,-0.0341,0.0286,-0.1237,-2.268010755578512,0.0,4.790650367736816,-1.3287307024002075,0.010024630464613438,2.0474538803100586,5.373834419041433,-0.0,0.27053600549697876,-1.6974909941302698,-0.0,0.03758030757308006,0.3138898015022278,0.0,0.0029497037176042795,1.4740087985992432,-0.031286951154470444,-0.28528428077697754
425.0,428.0,-3.1531,0.2632,9.2877,-0.0341,0.0286,-0.1237,-2.267998834649557,0.0,4.759969234466553,-1.328691005706787,0.011597895063459873,2.0082969665527344,5.3738064644630334,-0.0,0.2558615803718567,-1.6974991003619593,-0.0,0.0053298259153962135,0.3139459788799286,0.0,0.012660596519708633,1.473816990852356,-0.03217248246073723,-0.3080167770385742
418.0,420.0,-3.3111,0.39,9.2375,-0.0394,0.0266,-0.1425,-2.267970701257223,0.0,4.769722938537598,-1.3285939693450928,0.01150435023009777,2.0671403408050537,5.373814332276144,-0.0,0.2738778591156006,-1.6974991003619593,-0.0,0.021936528384685516,0.313882052898407,1.4969288713473361e-05,0.00198729638941586,1.4736289978027344,-0.03429671376943588,-0.28576284646987915
418.0,420.0,-3.3111,0.39,9.2375,-0.0394,0.0266,-0.1425,-2.267994543115133,0.0,4.773346900939941,-1.328538179397583,0.01139442715793848,2.0074315071105957,5.373830306320944,-0.0,0.27844953536987305,-1.697463337575094,-0.0,0.023990526795387268,0.31388160586357117,6.381642236874541e-08,0.01297546923160553,1.473501443862915,-0.035281334072351456,-0.29756003618240356
418.0,420.0,-3.3111,0.39,9.2375,-0.0394,0.0266,-0.1425,-2.267954488793844,0.0,4.783389568328857,-1.3284422159194946,0.011150844395160675,2.067765951156616,5.373802411347189,-0.0,0.25577864050865173,-1.6974828878985804,-0.0,0.009338503703474998,0.3139820992946625,1.776353543425646e-11,0.007873518392443657,1.4732495546340942,-0.03760688006877899,-0.33246076107025146
418.0,420.0,-3.3111,0.39,9.2375,-0.0394,0.0266,-0.1425,-2.267998834649557,0.0,4.7608489990234375,-1.328390121459961,0.011753219179809093,2.0487940311431885,5.37379418590621,-0.0,0.2780698537826538,-1.6974952856646937,-0.0,0.02677294611930847,0.3139459788799286,4.9445455122345584e-15,0.011945449747145176,1.4730339050292969,-0.04016796126961708,-0.3036295175552368
418.0,420.0,-3.3111,0.39,9.2375,-0.0394,0.0266,-0.1425,-2.268015047112936,0.0,4.784744739532471,-1.32825767993927,0.011632825247943401,2.0818848609924316,5.373822438507833,-0.0,0.2672741413116455,-1.6975191275226038,-0.0,0.028489649295806885,0.3139299750328064,1.3763322761444522e-18,0.014851715415716171,1.4728062152862549,-0.04401751607656479,-0.2828361392021179
418.0,420.0,-3.3111,0.39,9.2375,-0.0394,0.0266,-0.1425,-2.268010755578512,0.0,4.769583702087402,-1.3282818794250488,0.01228726003319025,2.0860650539398193,5.373798656254568,-0.0,0.27299225330352783,-1.697491470967428,-0.0,0.0210222490131855,0.31390541791915894,5.8675192412332386e-21,0.010900130495429039,1.4726223945617676,-0.04478438198566437,-0.3221292495727539
418.0,420.0,-3.3111,0.39,9.2375,-0.0394,0.0266,-0.1425,-2.268015047112936,0.0,4.804657459259033,-1.3281726837158203,0.01374431885778904,2.0809385776519775,5.373810517578878,-0.0,0.2578372359275818,-1.6974671522723597,-0.0,0.027094611898064613,0.31396564841270447,1.633245390825552e-24,0.013031917624175549,1.4723387956619263,-0.04885756969451904,-0.34711480140686035
418.0,420.0,-3.3111,0.39,9.2375,-0.0394,0.0266,-0.1425,-2.267966409722799,0.0,4.7742018699646,-1.3280924558639526,0.015725795179605484,2.029391288757324,5.373754846840658,-0.0,0.2448066920042038,-1.697491470967428,-0.0,0.025150131434202194,0.31391769647598267,4.5461985597373885e-28,0.013306636363267899,1.4719913005828857,-0.04953211173415184,-0.3590851426124573
418.0,420.0,-3.3111,0.39,9.2375,-0.0394,0.0266,-0.1425,-2.2680231533446253,0.0,4.792270183563232,-1.3280134201049805,0.016842618584632874,2.097959518432617,5.373782384186544,-0.0004838736786041409,0.25354525446891785,-1.6974828878985804,-0.0,0.03099358268082142,0.31396564841270447,1.2654511719087945e-31,0.006138186436146498,1.47171151638031,-0.05175872892141342,-0.3342621326446533
418.0,420.0,-3.3111,0.39,9.2375,-0.0394,0.0266,-0.1425,-2.268010755578512,0.0,4.797436714172363,-1.3279527425765991,0.019090160727500916,2.0774712562561035,5.373822736531057,-0.00044388638343662024,0.23995588719844818,-1.6974471251117151,-0.0,0.025418216362595558,0.3139176070690155,5.39481606955121e-34,0.009720527566969395,1.471511960029602,-0.052609048783779144,-0.33152997493743896
418.0,420.0,-3.3111,0.39,9.2375,-0.0394,0.0266,-0.1425,-2.268026968041891,0.0,4.757841110229492,-1.3278486728668213,0.02207879349589348,2.1143784523010254,5.373774456768789,-0.00041547181899659336,0.24622736871242523,-1.6974509398089808,-0.0,0.03126884624361992,0.313970148563385,1.5016669712995293e-37,0.005768788047134876,1.4711761474609375,-0.054101452231407166,-0.3536211848258972
418.0,420.0,-3.3111,0.39,9.2375,-0.0394,0.0266,-0.1425,-2.268071313897604,0.0,4.766727447509766,-1.3276807069778442,0.02593882568180561,2.0864787101745605,5.373754787236013,-0.0003963836934417486,0.24023064970970154,-1.697463337575094,-0.0,0.023062443360686302,0.3139500617980957,4.179933189234497e-41,0.019191550090909004,1.4708644151687622,-0.05709072947502136,-0.3879970908164978
418.0,420.0,-3.3111,0.39,9.2375,-0.0394,0.0266,-0.1425,-2.268027444879049,0.0,4.7534990310668945,-1.3275154829025269,0.030964648351073265,2.1044816970825195,5.37372254112319,-0.00034019266604445875,0.2536000609397888,-1.6974552313434046,1.3169301382731646e-06,0.022815510630607605,0.31397390365600586,1.1210387714598537e-44,0.016779396682977676,1.4705170392990112,-0.06139817461371422,-0.4001946449279785
418.0,420.0,-3.3111,0.39,9.2375,-0.0394,0.0266,-0.1425,-2.268059392968649,0.0,4.732953071594238,-1.327375054359436,0.03485572338104248,2.1320106983184814,5.373758780747213,-0.0003108132223132998,0.23564669489860535,-1.6974828878985804,5.6142797077995965e-09,0.02217160537838936,0.3138856887817383,0.0,0.007823371328413486,1.470305323600769,-0.06287821382284164,-0.352748841047287
418.0,420.0,-3.3111,0.39,9.2375,-0.0394,0.0266,-0.1425,-2.268010755578512,0.0,4.766937255859375,-1.327171802520752,0.040260493755340576,2.1256344318389893,5.373738813191213,-0.0002521795395296067,0.2483193278312683,-1.6974147001849573,1.56275545889345e-12,0.03019704297184944,0.3139701783657074,0.0,0.007286476902663708,1.4699337482452393,-0.06698417663574219,-0.3906397223472595
418.0,420.0,-3.3111,0.39,9.2375,-0.0394,0.0266,-0.1425,-2.2680350742735804,0.0,4.766223430633545,-1.3269230127334595,0.045002829283475876,2.148324489593506,5.373774456768789,-0.00021541924797929823,0.24950867891311646,-1.6974871794330042,4.3499874638101106e-16,0.03488856554031372,0.31388166546821594,0.0,0.01708918623626232,1.4694623947143555,-0.066688671708107,-0.3892033100128174
438.0,442.0,-3.2052,0.3715,9.3583,-0.0367,0.0385,-0.1747,-2.26806702236318,-1.0131002980973136e-10,4.762720108032227,-1.326635479927063,0.05359162762761116,2.1619796752929688,5.373734700470724,-0.000188361358596012,0.23990944027900696,-1.6974790732013147,1.210834993967306e-19,0.028667718172073364,0.3139377236366272,0.0,0.0034847466740757227,1.4690948724746704,-0.06382003426551819,-0.411111980676651
438.0,442.0,-3.2052,0.3715,9.3583,-0.0367,0.0385,-0.1747,-2.2680589161314906,-1.8235447060786086e-14,4.711278915405273,-1.3263983726501465,0.05731771141290665,2.157179594039917,5.373738813191213,-0.0001738079881761223,0.2483271062374115,-1.697503391896383,5.161979617113647e-22,0.03412526845932007,0.3139340579509735,0.0,0.008541407063603401,1.4688152074813843,-0.06092377379536629,-0.35759449005126953
