ramyac6/ROB537/final_project/csv/all/bad_136.csv
tof_0,tof_1,accelx,accely,accelz,gyrox,gyroy,gyroz,shoulder_lift_joint_position,shoulder_lift_joint_velocity,shoulder_lift_joint_effort,elbow_joint_position,elbow_joint_velocity,elbow_joint_effort,wrist_1_joint_position,wrist_1_joint_velocity,wrist_1_joint_effort,wrist_2_joint_position,wrist_2_joint_velocity,wrist_2_joint_effort,wrist_3_joint_position,wrist_3_joint_velocity,wrist_3_joint_effort,shoulder_pan_joint_position,shoulder_pan_joint_velocity,shoulder_pan_joint_effort
1129.0,1058.0,-4.2096,0.125,8.8014,-0.0426,0.0244,-0.1122,-1.7538796863951625,0.0,2.9446587562561035,-1.5372685194015503,-0.0,2.14414119720459,5.170578706055441,0.0,0.24120724201202393,-1.5969660917865198,-0.0,-0.004877329804003239,0.7427933216094971,-0.0,0.020556308329105377,0.8283411264419556,0.0,0.002083422616124153
1129.0,1058.0,-4.2096,0.125,8.8014,-0.0426,0.0244,-0.1122,-1.7538801632323207,0.0,2.9508605003356934,-1.5372848510742188,-0.0,2.1443943977355957,5.170618879586019,0.0,0.22630029916763306,-1.5969494024859827,-0.0,-0.019167514517903328,0.7427774667739868,-0.0,0.0021246515680104494,0.8283331394195557,0.0,0.0066709681414067745
1129.0,1058.0,-4.2096,0.125,8.8014,-0.0426,0.0244,-0.1122,-1.7538639507689417,0.0,2.8727195262908936,-1.5372446775436401,-0.0,2.1379990577697754,5.170611071377554,0.0,0.23377807438373566,-1.5969775358783167,-0.0,-0.017804667353630066,0.7427854537963867,-0.0,0.005080289673060179,0.8283130526542664,0.0,-0.02182103879749775
1129.0,1058.0,-4.2096,0.125,8.8014,-0.0426,0.0244,-0.1122,-1.7538515530028285,0.0,2.930535316467285,-1.5372084379196167,-0.0,2.088428020477295,5.170603263169088,0.0,0.22835776209831238,-1.597018067036764,-0.0,0.00377639546059072,0.7427854537963867,-0.0,-8.99042934179306e-05,0.8283652663230896,0.0,-0.0018518776632845402
1129.0,1058.0,-4.2096,0.125,8.8014,-0.0426,0.0244,-0.1122,-1.75388826946401,0.0,2.8846945762634277,-1.5372364521026611,-0.0,2.120326042175293,5.1706352708633325,0.0,0.22305811941623688,-1.5969942251788538,-0.0,-0.003725942922756076,0.7427774667739868,-0.0,0.009991800412535667,0.8283371925354004,0.0,-0.030511191114783287
1129.0,1058.0,-4.2096,0.125,8.8014,-0.0426,0.0244,-0.1122,-1.753859659234518,0.0,2.9179039001464844,-1.5371642112731934,-0.0,2.1530394554138184,5.170554566174307,0.0,0.23298129439353943,-1.5969856421100062,-0.0,-0.008315789513289928,0.7427021861076355,-0.0,-0.008100843988358974,0.8283575177192688,0.0,-0.009500480256974697
1129.0,1058.0,-4.2096,0.125,8.8014,-0.0426,0.0244,-0.1122,-1.7538639507689417,0.0,2.8975701332092285,-1.5372527837753296,-0.0,2.1025638580322266,5.170615184098043,0.0,0.22904357314109802,-1.5969250837909144,-0.0,-0.0003046812489628792,0.7427933216094971,-0.0,0.008599424734711647,0.8283249735832214,0.0,-0.015402371063828468
1129.0,1058.0,-4.2096,0.125,8.8014,-0.0426,0.0244,-0.1122,-1.753859659234518,0.0,2.940958023071289,-1.537196159362793,-0.0,2.1460375785827637,5.170618879586019,0.0,0.23503276705741882,-1.5969412962542933,-0.0,-0.02252332679927349,0.7428053021430969,-0.0,-0.01596432365477085,0.8283290266990662,0.0,-0.015679264441132545
1114.0,1090.0,-4.2305,0.1484,8.8917,-0.0403,0.0205,-0.1109,-1.753887792626852,0.0,2.8858120441436768,-1.5372446775436401,-0.0,2.1562340259552,5.170591103821554,0.0,0.2146310955286026,-1.5969818274127405,-0.0,-0.003914615139365196,0.7427933216094971,-0.0,-4.3673557229340076e-05,0.8283171653747559,0.0,0.003652353771030903
1114.0,1090.0,-4.2305,0.1484,8.8917,-0.0403,0.0205,-0.1109,-1.7539321384825648,0.0,2.8970375061035156,-1.5371801853179932,-0.0,2.1205942630767822,5.170622932701864,0.0,0.22105316817760468,-1.59698993364443,-0.0,0.00031387899070978165,0.7427576780319214,-0.0,0.004592962097376585,0.8283331394195557,0.0,-0.020988617092370987
1114.0,1090.0,-4.2305,0.1484,8.8917,-0.0403,0.0205,-0.1109,-1.7538801632323207,0.0,2.873297929763794,-1.537200689315796,-0.0,2.133528232574463,5.170582878380575,0.0,0.22375363111495972,-1.5970142523394983,-0.0,-0.00884777307510376,0.7428052425384521,-0.0,0.002466341946274042,0.8283331394195557,0.0,0.0007435409352183342
1114.0,1090.0,-4.2305,0.1484,8.8917,-0.0403,0.0205,-0.1109,-1.7538801632323207,0.0,2.961641311645508,-1.5372569561004639,-0.0,2.1361663341522217,5.170623409539022,0.0,0.24634762108325958,-1.5969579855548304,-0.0,-0.012457447126507759,0.7426982522010803,-0.0,0.011948210187256336,0.8283171653747559,0.0,0.032858241349458694
1114.0,1090.0,-4.2305,0.1484,8.8917,-0.0403,0.0205,-0.1109,-1.7539197407164515,0.0,2.918893337249756,-1.537204384803772,-0.0,2.1090123653411865,5.170595097332754,0.0,0.22935795783996582,-1.5970185438739222,-0.0,0.0014150820206850767,0.7427815198898315,-0.0,5.9516169130802155e-05,0.8283212184906006,0.0,0.019930489361286163
1114.0,1090.0,-4.2305,0.1484,8.8917,-0.0403,0.0205,-0.1109,-1.7538958988585414,0.0,2.8996047973632812,-1.5372684001922607,-0.0,2.1550779342651367,5.170595097332754,0.0,0.2128816843032837,-1.5969942251788538,-0.0,-0.00040263542905449867,0.7427180409431458,-0.0,0.009343679994344711,0.8283611536026001,0.0,0.0008540963754057884
1114.0,1090.0,-4.2305,0.1484,8.8917,-0.0403,0.0205,-0.1109,-1.7538839779295863,0.0,2.921103000640869,-1.5372203588485718,-0.0,2.1251349449157715,5.170574623137274,0.0,0.23398613929748535,-1.5970099608050745,-0.0,-0.012302424758672714,0.7427259683609009,-0.0,-0.0007815291173756123,0.8283652663230896,0.0,0.06401755660772324
1114.0,1090.0,-4.2305,0.1484,8.8917,-0.0403,0.0205,-0.1109,-1.7538920841612757,0.0,2.9190123081207275,-1.537212610244751,-0.0,2.1076369285583496,5.170611101179876,0.0,0.238046795129776,-1.5970061461078089,-0.0,-0.005450127646327019,0.7427893877029419,-0.0,0.0117767583578825,0.8283492922782898,0.0,-0.011999313719570637
1114.0,1090.0,-4.2305,0.1484,8.8917,-0.0403,0.0205,-0.1109,-1.7538391552367152,0.0,2.9181857109069824,-1.5372366905212402,-0.0,2.1376090049743652,5.170578795462408,0.0,0.2250882387161255,-1.5969255606280726,-0.0,-0.0032131215557456017,0.7428052425384521,-0.0,0.008162900805473328,0.8283652663230896,0.0,-0.016414741054177284
1114.0,1090.0,-4.2305,0.1484,8.8917,-0.0403,0.0205,-0.1109,-1.7538801632323207,0.0,2.860227584838867,-1.537264347076416,-0.0,2.1108508110046387,5.1706111309821985,0.0,0.22346648573875427,-1.5969536940204065,-0.0,-0.015738151967525482,0.7427814602851868,-0.0,0.005726645700633526,0.8283371925354004,0.0,0.012435211800038815
1114.0,1090.0,-4.2305,0.1484,8.8917,-0.0403,0.0205,-0.1109,-1.7538558445372523,0.0,2.915496826171875,-1.5372287034988403,-0.0,2.070157051086426,5.170603263169088,0.0,0.21922768652439117,-1.5969732443438929,-0.0,-0.0029994738288223743,0.7427933216094971,-0.0,-0.004809571895748377,0.8283492922782898,0.0,-0.020031962543725967
1114.0,1090.0,-4.2305,0.1484,8.8917,-0.0403,0.0205,-0.1109,-1.7538639507689417,0.0,2.932673931121826,-1.5372323989868164,-0.0,2.152379274368286,5.170627105026998,0.0,0.2254379838705063,-1.5969660917865198,-0.0,0.0024296429473906755,0.742801308631897,-0.0,0.0034494188148528337,0.8283652663230896,0.0,0.003335794433951378
1114.0,1090.0,-4.2305,0.1484,8.8917,-0.0403,0.0205,-0.1109,-1.7538639507689417,0.0,2.8941025733947754,-1.5372244119644165,-0.0,2.1204919815063477,5.170618879586019,0.0,0.22515243291854858,-1.59698993364443,-0.0,-0.009219449013471603,0.7427893877029419,-0.0,-0.0014978182734921575,0.8283451795578003,0.0,-0.029511746019124985
1114.0,1090.0,-4.2305,0.1484,8.8917,-0.0403,0.0205,-0.1109,-1.753915926019186,0.0,2.902587890625,-1.5372003316879272,-0.0,2.1211624145507812,5.170582878380575,0.0,0.22582978010177612,-1.596961800252096,-0.0,-0.02500935271382332,0.7427415251731873,-0.0,-0.011303556151688099,0.8283575177192688,0.0,0.01433379016816616
1114.0,1090.0,-4.2305,0.1484,8.8917,-0.0403,0.0205,-0.1109,-1.7538515530028285,0.0,2.928394317626953,-1.537280797958374,-0.0,2.155898094177246,5.170627105026998,0.0,0.23237201571464539,-1.5969980398761194,-0.0,-0.0052330633625388145,0.7427494525909424,-0.0,0.016816873103380203,0.8283575773239136,0.0,0.00332076009362936
1114.0,1090.0,-4.2305,0.1484,8.8917,-0.0403,0.0205,-0.1109,-1.7539121113219203,0.0,2.9550065994262695,-1.5371919870376587,-0.0,2.1069462299346924,5.170611101179876,0.0,0.21038883924484253,-1.5969980398761194,-0.0,-0.006040893495082855,0.7427973747253418,-0.0,-0.004590666387230158,0.8283290266990662,0.0,-0.033769864588975906
8190.0,8190.0,-4.2574,0.1555,8.9055,-0.0425,0.0215,-0.1203,-1.7538958988585414,0.0,2.8994863033294678,-1.5372003316879272,-0.0,2.115781307220459,5.170622932701864,0.0,0.22873473167419434,-1.5969494024859827,-0.0,-0.007668368052691221,0.7427854537963867,-0.0,-0.005065805744379759,0.8283290266990662,0.0,0.03291559964418411
8190.0,8190.0,-4.2574,0.1555,8.9055,-0.0425,0.0215,-0.1203,-1.753915926019186,0.0,2.8924782276153564,-1.537264347076416,-0.0,2.1123549938201904,5.170631187945165,0.0,0.22958995401859283,-1.5969660917865198,-0.0,-0.016097363084554672,0.7427818179130554,-0.0,0.002547848504036665,0.8283611536026001,0.0,-0.012457659468054771
8190.0,8190.0,-4.2574,0.1555,8.9055,-0.0425,0.0215,-0.1203,-1.7538515530028285,0.0,2.9214892387390137,-1.5372446775436401,-0.0,2.141697406768799,5.170595097332754,0.0,0.23388135433197021,-1.5969660917865198,-0.0,-0.0057896217331290245,0.7427219748497009,-0.0,0.004274960141628981,0.8283212184906006,0.0,0.002185097662732005
8190.0,8190.0,-4.2574,0.1555,8.9055,-0.0425,0.0215,-0.1203,-1.7538758716978968,0.0,2.9399871826171875,-1.5372569561004639,-0.0,2.132751941680908,5.1706392643745325,0.0,0.22426648437976837,-1.5969370047198694,-0.0,0.004317876882851124,0.7427735328674316,-0.0,0.012673460878431797,0.8283171653747559,0.0,0.012127245776355267
8190.0,8190.0,-4.2574,0.1555,8.9055,-0.0425,0.0215,-0.1203,-1.7538639507689417,0.0,2.9724373817443848,-1.5372122526168823,-0.0,2.1298391819000244,5.170623409539022,0.0,0.2329612523317337,-1.5970061461078089,-0.0,-0.016667548567056656,0.7427657842636108,-0.0,0.011265106499195099,0.8283331394195557,0.0,-0.01931411400437355
8190.0,8190.0,-4.2574,0.1555,8.9055,-0.0425,0.0215,-0.1203,-1.7538558445372523,0.0,2.913440704345703,-1.5372241735458374,-0.0,2.1127326488494873,5.170623409539022,0.0,0.2159603238105774,-1.5969494024859827,-0.0,-0.01298057846724987,0.7428419589996338,-0.0,-0.01415908895432949,0.8283371925354004,0.0,0.01850467547774315
8190.0,8190.0,-4.2574,0.1555,8.9055,-0.0425,0.0215,-0.1203,-1.753831525842184,0.0,2.850703001022339,-1.5372244119644165,-0.0,2.124828815460205,5.170578795462408,0.0,0.23479831218719482,-1.5969942251788538,-0.0,0.0036406326107680798,0.7428337931632996,-0.0,0.009719961322844028,0.8283212184906006,0.0,-0.004584582522511482
8190.0,8190.0,-4.2574,0.1555,8.9055,-0.0425,0.0215,-0.1203,-1.7538839779295863,0.0,2.9599552154541016,-1.5372488498687744,-0.0,2.1173250675201416,5.1706352708633325,0.0,0.22503212094306946,-1.5969703833209437,-0.0,-0.009728819131851196,0.7427177429199219,-0.0,0.010281156748533249,0.8283290266990662,0.0,0.0038123440463095903
8190.0,8190.0,-4.2574,0.1555,8.9055,-0.0425,0.0215,-0.1203,-1.753876348535055,0.0,2.9128313064575195,-1.5372446775436401,-0.0,2.141101360321045,5.170615184098043,0.0,0.21451526880264282,-1.5969417730914515,-0.0,-0.010257471352815628,0.7427534461021423,-0.0,0.009124159812927246,0.8283734917640686,0.0,0.031542278826236725
8190.0,8190.0,-4.2574,0.1555,8.9055,-0.0425,0.0215,-0.1203,-1.7539240322508753,0.0,2.896451711654663,-1.5372488498687744,-0.0,2.1371147632598877,5.170606958657064,0.0,0.2316431999206543,-1.5969775358783167,-0.0,-0.0156498234719038,0.7427575588226318,-0.0,0.015502450987696648,0.8283089399337769,0.0,-0.005452931858599186
8190.0,8190.0,-4.2574,0.1555,8.9055,-0.0425,0.0215,-0.1203,-1.7539078197874964,0.0,2.898003101348877,-1.537264347076416,-0.0,2.118372678756714,5.170631187945165,0.0,0.22998735308647156,-1.5969942251788538,-0.0,-0.020754434168338776,0.7427574992179871,-0.0,0.00909444596618414,0.8283290266990662,0.0,0.026951435953378677
8190.0,8190.0,-4.2574,0.1555,8.9055,-0.0425,0.0215,-0.1203,-1.7538558445372523,0.0,2.9320859909057617,-1.5372766256332397,-0.0,2.1290535926818848,5.170615184098043,0.0,0.2262476086616516,-1.5969980398761194,-0.0,-0.020823093131184578,0.7427694201469421,-0.0,0.002361215418204665,0.8283253908157349,0.0,-0.03850644826889038
8190.0,8190.0,-4.2574,0.1555,8.9055,-0.0425,0.0215,-0.1203,-1.7538234196104945,0.0,2.9322643280029297,-1.5372405052185059,-0.0,2.1419830322265625,5.170663493662634,0.0,0.2210431694984436,-1.596961800252096,-0.0,-0.01841587945818901,0.7427939772605896,-0.0,-0.0007131616584956646,0.8283773064613342,0.0,-0.00736098550260067
8190.0,8190.0,-4.2574,0.1555,8.9055,-0.0425,0.0215,-0.1203,-1.7538758716978968,0.0,2.858144760131836,-1.5372326374053955,-0.0,2.098675489425659,5.170582848578253,0.0,0.23452302813529968,-1.5969856421100062,-0.0,-0.0024322576355189085,0.7427657842636108,-0.0,0.0075926100835204124,0.8284058570861816,0.0,0.016355052590370178
8190.0,8190.0,-4.2574,0.1555,8.9055,-0.0425,0.0215,-0.1203,-1.75382723430776,0.0,2.941035270690918,-1.5372244119644165,-0.0,2.1000943183898926,5.170655327826299,0.0,0.23289339244365692,-1.59698993364443,-0.0,-0.017495164647698402,0.742805540561676,-0.0,0.007950538769364357,0.8283290266990662,0.0,0.01627659797668457
8190.0,8190.0,-4.2574,0.1555,8.9055,-0.0425,0.0215,-0.1203,-1.7538958988585414,0.0,2.8611373901367188,-1.5372529029846191,-0.0,2.128040075302124,5.170611101179876,0.0,0.23006770014762878,-1.5969818274127405,-0.0,-0.006285412237048149,0.742781400680542,-0.0,-0.013595737516880035,0.8283855319023132,0.0,-0.04884760454297066
8190.0,1099.0,-4.325,0.1161,8.9928,-0.0443,0.0202,-0.1155,-1.7538958988585414,0.0,2.9160847663879395,-1.537289023399353,-0.0,2.1240105628967285,5.1705787656600855,0.0,0.22923529148101807,-1.5969660917865198,-0.0,-0.004709544591605663,0.7428096532821655,-0.0,-0.006504847668111324,0.8283571004867554,0.0,-0.008339084684848785
8190.0,1099.0,-4.325,0.1161,8.9928,-0.0443,0.0202,-0.1155,-1.753871580163473,0.0,2.904761791229248,-1.537280797958374,-0.0,2.1450257301330566,5.170611458807745,0.0,0.22146669030189514,-1.596933666859762,-0.0,-0.0025161609519273043,0.7427330613136292,-0.0,0.015430125407874584,0.8283735513687134,0.0,-0.01571500487625599
8190.0,1099.0,-4.325,0.1161,8.9928,-0.0443,0.0202,-0.1155,-1.75382723430776,0.0,2.8531100749969482,-1.5371760129928589,-0.0,2.146676778793335,5.170611101179876,0.0,0.23108181357383728,-1.5969732443438929,-0.0,0.0017153816297650337,0.7427330613136292,-0.0,0.005856980103999376,0.8283615112304688,0.0,0.01579272747039795
8190.0,1099.0,-4.325,0.1161,8.9928,-0.0443,0.0202,-0.1155,-1.7538558445372523,0.0,2.99668288230896,-1.5372364521026611,-0.0,2.0944714546203613,5.170635181456365,0.0,0.22159913182258606,-1.5969741980182093,-0.0,-0.001781868515536189,0.7427178025245667,-0.0,0.0036857486702501774,0.8283611536026001,0.0,0.003131457604467869
8190.0,1099.0,-4.325,0.1161,8.9928,-0.0443,0.0202,-0.1155,-1.7538958988585414,0.0,2.951328754425049,-1.5371884107589722,-0.0,2.14652681350708,5.1706352708633325,0.0,0.22441256046295166,-1.5969694296466272,-0.0,0.0031624664552509785,0.7427054643630981,-0.0,0.0024546016938984394,0.8283410668373108,0.0,-0.004440955817699432
8190.0,1099.0,-4.325,0.1161,8.9928,-0.0443,0.0202,-0.1155,-1.753831525842184,0.0,2.93953800201416,-1.5372569561004639,-0.0,2.09918212890625,5.170590895205297,0.0,0.23254698514938354,-1.5970099608050745,-0.0,-0.015004259534180164,0.7427854537963867,-0.0,0.004943694919347763,0.8283371925354004,0.0,0.020946744829416275
8190.0,1099.0,-4.325,0.1161,8.9928,-0.0443,0.0202,-0.1155,-1.7538358173766078,0.0,2.876732587814331,-1.5372734069824219,-0.0,2.1002113819122314,5.1706474898155115,0.0,0.22214892506599426,-1.5969775358783167,-0.0,-0.004521027207374573,0.7427493929862976,-0.0,-0.0025916420854628086,0.8283089399337769,0.0,0.003913985565304756
8190.0,1099.0,-4.325,0.1161,8.9928,-0.0443,0.0202,-0.1155,-1.7538472614684046,0.0,2.9207358360290527,-1.5372529029846191,-0.0,2.112823963165283,5.170615213900366,0.0,0.22509144246578217,-1.5969732443438929,-0.0,-0.008801925927400589,0.7427135705947876,-0.0,0.002515195868909359,0.8282808065414429,0.0,0.002637972589582205
8190.0,1099.0,-4.325,0.1161,8.9928,-0.0443,0.0202,-0.1155,-1.7538472614684046,0.0,2.904120445251465,-1.5372849702835083,-0.0,2.102085590362549,5.170611071377554,0.0,0.22637054324150085,-1.596961800252096,-0.0,-0.005134839564561844,0.7427288889884949,-0.0,-0.010424857959151268,0.8283249735832214,0.0,0.0005842912942171097
8190.0,1099.0,-4.325,0.1161,8.9928,-0.0443,0.0202,-0.1155,-1.7539121113219203,0.0,2.8840975761413574,-1.5372724533081055,-0.0,2.1503820419311523,5.17061926701621,0.0,0.2164827585220337,-1.59698993364443,-0.0,-0.009579232893884182,0.7427895069122314,-0.0,0.004818052053451538,0.8283290266990662,0.0,-0.043510377407073975
8190.0,1099.0,-4.325,0.1161,8.9928,-0.0443,0.0202,-0.1155,-1.7538958988585414,0.0,2.916362762451172,-1.5372529029846191,-0.0,2.1417860984802246,5.170622962504186,0.0,0.21755507588386536,-1.5969703833209437,-0.0,-0.010610375553369522,0.7427898645401001,-0.0,0.0015045671025291085,0.8283492922782898,0.0,0.004032289609313011
8190.0,1099.0,-4.325,0.1161,8.9928,-0.0443,0.0202,-0.1155,-1.7538472614684046,0.0,2.9429879188537598,-1.537200689315796,-0.0,2.1052088737487793,5.170611071377554,0.0,0.2280084788799286,-1.59698993364443,-0.0,-0.005739573854953051,0.7427254915237427,-0.0,0.017041007056832314,0.8283008337020874,0.0,-0.04829839989542961
8190.0,1099.0,-4.325,0.1161,8.9928,-0.0443,0.0202,-0.1155,-1.7538958988585414,0.0,2.966454029083252,-1.5372405052185059,-0.0,2.167961835861206,5.170618879586019,0.0,0.22336454689502716,-1.5969732443438929,-0.0,-0.005607105791568756,0.7427534461021423,-0.0,-0.00017218763241544366,0.8283410668373108,0.0,0.027059664949774742
8190.0,1099.0,-4.325,0.1161,8.9928,-0.0443,0.0202,-0.1155,-1.753859659234518,0.0,2.89424467086792,-1.5372611284255981,-0.0,2.140331745147705,5.170631128340521,0.0,0.23522953689098358,-1.596945587788717,-0.0,-0.012691368348896503,0.7427932620048523,-0.0,-0.0070062424056231976,0.8283571004867554,0.0,0.042142707854509354
8190.0,1099.0,-4.325,0.1161,8.9928,-0.0443,0.0202,-0.1155,-1.753859659234518,0.0,2.9026477336883545,-1.5372724533081055,-0.0,2.1367859840393066,5.170599180250921,0.0,0.2163333296775818,-1.5969579855548304,-0.0,-0.014427613466978073,0.7428095936775208,-0.0,0.004479462280869484,0.8283171653747559,0.0,0.027718564495444298
8190.0,1099.0,-4.325,0.1161,8.9928,-0.0443,0.0202,-0.1155,-1.7538558445372523,0.0,2.9268438816070557,-1.5372684001922607,-0.0,2.132465124130249,5.170627105026998,0.0,0.2375154197216034,-1.5969660917865198,-0.0,-0.0022205933928489685,0.7427173852920532,-0.0,0.01525200717151165,0.8283693790435791,0.0,-0.05705612897872925
1092.0,1105.0,-4.2736,0.125,8.8899,-0.0359,0.0287,-0.1176,-1.753859659234518,0.0,2.909024238586426,-1.5372364521026611,-0.0,2.1705024242401123,5.170631128340521,0.0,0.2221166342496872,-1.5969536940204065,-0.0,-0.0034012687392532825,0.742817759513855,-0.0,0.0015295537887141109,0.8283089399337769,0.0,-0.005466194823384285
1092.0,1105.0,-4.2736,0.125,8.8899,-0.0359,0.0287,-0.1176,-1.753843446771139,0.0,2.8999834060668945,-1.5372724533081055,-0.0,2.161409854888916,5.170602845936575,0.0,0.22739319503307343,-1.5969536940204065,-0.0,-0.008073139935731888,0.7428461313247681,-0.0,0.0011542333522811532,0.8283413648605347,0.0,0.05257389694452286
1092.0,1105.0,-4.2736,0.125,8.8899,-0.0359,0.0287,-0.1176,-1.7538958988585414,0.0,2.8890442848205566,-1.5372282266616821,-0.0,2.126854181289673,5.170627105026998,0.0,0.22547799348831177,-1.5969818274127405,-0.0,-0.006959054619073868,0.742805540561676,-0.0,0.01699763908982277,0.8283492922782898,0.0,-0.015075449831783772
1092.0,1105.0,-4.2736,0.125,8.8899,-0.0359,0.0287,-0.1176,-1.7538472614684046,0.0,2.9022464752197266,-1.5372363328933716,-0.0,2.121886968612671,5.170643436699667,0.0,0.22912642359733582,-1.5969651381122034,-0.0,-0.008490131236612797,0.7427217364311218,-0.0,0.0041170124895870686,0.8283130526542664,0.0,-0.007948072627186775
1092.0,1105.0,-4.2736,0.125,8.8899,-0.0359,0.0287,-0.1176,-1.7538119755186976,0.0,2.912371873855591,-1.5371882915496826,-0.0,2.106070041656494,5.170618879586019,0.0,0.23718446493148804,-1.5969694296466272,-0.0,-0.011670833453536034,0.7428017854690552,-0.0,-0.0022535754833370447,0.8283089399337769,0.0,-0.026400471106171608
1092.0,1105.0,-4.2736,0.125,8.8899,-0.0359,0.0287,-0.1176,-1.7538639507689417,0.0,2.9264893531799316,-1.5372364521026611,-0.0,2.0937604904174805,5.1706352708633325,0.0,0.2177669107913971,-1.597029987965719,-0.0,-0.0019575967453420162,0.7427534461021423,-0.0,0.0016341053415089846,0.8283652663230896,0.0,0.008442423306405544
1092.0,1105.0,-4.2736,0.125,8.8899,-0.0359,0.0287,-0.1176,-1.7538758716978968,0.0,2.863961696624756,-1.5372084379196167,-0.0,2.106691360473633,5.1705787656600855,0.0,0.23114149272441864,-1.5970061461078089,-0.0,-0.00022443966008722782,0.7427576184272766,-0.0,-0.008185827173292637,0.8283693790435791,0.0,-0.042344965040683746
1092.0,1105.0,-4.2736,0.125,8.8899,-0.0359,0.0287,-0.1176,-1.753887792626852,0.0,2.928891658782959,-1.537192463874817,-0.0,2.164389133453369,5.1706352708633325,0.0,0.2239035964012146,-1.5969980398761194,-0.0,-0.01726355031132698,0.7427895069122314,-0.0,0.0021948209032416344,0.8283534049987793,0.0,0.024859199300408363
1092.0,1105.0,-4.2736,0.125,8.8899,-0.0359,0.0287,-0.1176,-1.753843446771139,0.0,2.955350875854492,-1.5372405052185059,-0.0,2.136625289916992,5.170615184098043,0.0,0.22924447059631348,-1.5969536940204065,-0.0,-0.011246182955801487,0.742793619632721,-0.0,3.247713902965188e-05,0.8283328413963318,0.0,0.03693424165248871
1092.0,1105.0,-4.2736,0.125,8.8899,-0.0359,0.0287,-0.1176,-1.7538639507689417,0.0,2.9226675033569336,-1.5372569561004639,-0.0,2.1514651775360107,5.170639413386144,0.0,0.2349938601255417,-1.5969536940204065,-0.0,0.0018290504813194275,0.7428095936775208,-0.0,0.0038354990538209677,0.8283652663230896,0.0,-0.017665425315499306
1092.0,1105.0,-4.2736,0.125,8.8899,-0.0359,0.0287,-0.1176,-1.7538920841612757,0.0,2.9266953468322754,-1.5372364521026611,-0.0,2.101926326751709,5.170627105026998,0.0,0.21911638975143433,-1.5969255606280726,-0.0,0.004987902473658323,0.7428095936775208,-0.0,-0.0037330188788473606,0.8283328413963318,0.0,0.010392364114522934
1092.0,1105.0,-4.2736,0.125,8.8899,-0.0359,0.0287,-0.1176,-1.7538472614684046,0.0,2.843820333480835,-1.5372282266616821,-0.0,2.1524274349212646,5.170639413386144,0.0,0.21989935636520386,-1.59698993364443,-0.0,-0.021642886102199554,0.7427534461021423,-0.0,-0.0016392007237300277,0.8282807469367981,0.0,-0.027764488011598587
1092.0,1105.0,-4.2736,0.125,8.8899,-0.0359,0.0287,-0.1176,-1.7538801632323207,0.0,2.949704170227051,-1.5373010635375977,-0.0,2.1379427909851074,5.170615184098043,0.0,0.22574129700660706,-1.5969980398761194,-0.0,-0.004943985491991043,0.742817759513855,-0.0,0.0031763010192662477,0.8283413648605347,0.0,0.012173277325928211
1092.0,1105.0,-4.2736,0.125,8.8899,-0.0359,0.0287,-0.1176,-1.753859659234518,0.0,2.9491629600524902,-1.5372569561004639,-0.0,2.093430757522583,5.170611101179876,0.0,0.22307273745536804,-1.5969660917865198,-0.0,-0.004478807561099529,0.7427977919578552,-0.0,0.012479044497013092,0.828369140625,0.0,0.03135618194937706
1092.0,1105.0,-4.2736,0.125,8.8899,-0.0359,0.0287,-0.1176,-1.7538639507689417,0.0,2.963792324066162,-1.5372684001922607,-0.0,2.114358901977539,5.170599150448599,0.0,0.2350585162639618,-1.5969494024859827,-0.0,0.001465769950300455,0.7427494525909424,-0.0,0.017180131748318672,0.8283411264419556,0.0,-0.021709736436605453
1092.0,1105.0,-4.2736,0.125,8.8899,-0.0359,0.0287,-0.1176,-1.7538682423033656,0.0,2.899892807006836,-1.5372203588485718,-0.0,2.1126513481140137,5.170627105026998,0.0,0.23006272315979004,-1.5969703833209437,-0.0,-0.0021648365072906017,0.7427694797515869,-0.0,0.0024351109750568867,0.8283249735832214,0.0,0.0391211099922657
8190.0,8190.0,-4.2843,0.1501,8.9342,-0.0324,0.0162,-0.1119,-1.7538758716978968,0.0,2.9080121517181396,-1.5372240543365479,-0.0,2.149474620819092,5.170627105026998,0.0,0.21544195711612701,-1.5969813505755823,-0.0,-0.0008384794928133488,0.7428178191184998,-0.0,-0.005403326824307442,0.828369140625,0.0,0.012083037756383419
8190.0,8190.0,-4.2843,0.1501,8.9342,-0.0324,0.0162,-0.1119,-1.7538758716978968,0.0,2.888144016265869,-1.5372003316879272,-0.0,2.1249277591705322,5.1706352708633325,0.0,0.23449651896953583,-1.5970099608050745,-0.0,-0.013244543224573135,0.7427772879600525,-0.0,0.004242850933223963,0.8283290266990662,0.0,-0.02174444869160652
8190.0,8190.0,-4.2843,0.1501,8.9342,-0.0324,0.0162,-0.1119,-1.753859659234518,0.0,2.8991923332214355,-1.5372848510742188,-0.0,2.1333696842193604,5.170623409539022,0.0,0.21978268027305603,-1.5969660917865198,-0.0,0.0008243417833000422,0.7427255511283875,-0.0,0.007499435916543007,0.8283290266990662,0.0,0.008255735971033573
8190.0,8190.0,-4.2843,0.1501,8.9342,-0.0324,0.0162,-0.1119,-1.7539078197874964,0.0,2.8989081382751465,-1.5372240543365479,-0.0,2.140031337738037,5.170595097332754,0.0,0.22823944687843323,-1.5969818274127405,-0.0,-0.0044134026393294334,0.7427534461021423,-0.0,0.004864593967795372,0.8284058570861816,0.0,-0.046328336000442505
8190.0,8190.0,-4.2843,0.1501,8.9342,-0.0324,0.0162,-0.1119,-1.7538639507689417,0.0,2.9355874061584473,-1.5372529029846191,-0.0,2.139086961746216,5.170627105026998,0.0,0.22269460558891296,-1.5969775358783167,-0.0,-0.0015884272288531065,0.7427371144294739,-0.0,-7.15586356818676e-05,0.8283331394195557,0.0,0.0032806284725666046
8190.0,8190.0,-4.2843,0.1501,8.9342,-0.0324,0.0162,-0.1119,-1.7538958988585414,0.0,2.9067611694335938,-1.5372849702835083,-0.0,2.1309807300567627,5.170578795462408,0.0,0.23233091831207275,-1.5969660917865198,-0.0,-0.01107407920062542,0.742773175239563,-0.0,-0.0012422642903402448,0.8283650279045105,0.0,-0.0049583567306399345
8190.0,8190.0,-4.2843,0.1501,8.9342,-0.0324,0.0162,-0.1119,-1.7538839779295863,0.0,2.923433780670166,-1.5372928380966187,-0.0,2.114527463912964,5.170623409539022,0.0,0.23370523750782013,-1.5969660917865198,-0.0,-0.0011433153413236141,0.7427575588226318,-0.0,0.006671522278338671,0.8283571004867554,0.0,0.01729104481637478
8190.0,8190.0,-4.2843,0.1501,8.9342,-0.0324,0.0162,-0.1119,-1.7539001903929652,0.0,2.9530892372131348,-1.5372447967529297,-0.0,2.0835249423980713,5.170615184098043,0.0,0.23491179943084717,-1.5969579855548304,-0.0,-0.004642656072974205,0.7427217960357666,-0.0,0.0077842534519732,0.8283451795578003,0.0,0.018894735723733902
8190.0,8190.0,-4.2843,0.1501,8.9342,-0.0324,0.0162,-0.1119,-1.753876348535055,0.0,2.8846335411071777,-1.5372726917266846,-0.0,2.1707804203033447,5.17061926701621,0.0,0.2224484086036682,-1.5969775358783167,-0.0,0.002922328421846032,0.742805540561676,-0.0,0.0014509904431179166,0.8283290266990662,0.0,0.006787678226828575
8190.0,8190.0,-4.2843,0.1501,8.9342,-0.0324,0.0162,-0.1119,-1.7538558445372523,0.0,2.89906907081604,-1.5372529029846191,-0.0,2.116389513015747,5.170582878380575,0.0,0.22114500403404236,-1.5970061461078089,-0.0,0.00090013537555933,0.7427973747253418,-0.0,0.022084316238760948,0.8283290266990662,0.0,0.038873232901096344
8190.0,8190.0,-4.2843,0.1501,8.9342,-0.0324,0.0162,-0.1119,-1.7538758716978968,0.0,2.9165163040161133,-1.537309169769287,-0.0,2.129093647003174,5.17061926701621,0.0,0.23656418919563293,-1.5969579855548304,-0.0,0.001274770824238658,0.742793619632721,-0.0,0.003457167884334922,0.8283529877662659,0.0,0.017948824912309647
8190.0,8190.0,-4.2843,0.1501,8.9342,-0.0324,0.0162,-0.1119,-1.7538682423033656,0.0,2.8631417751312256,-1.5372405052185059,-0.0,2.1601979732513428,5.170599180250921,0.0,0.23802241683006287,-1.5969131628619593,-0.0,-0.007322710007429123,0.7428258657455444,-0.0,-0.0004053916782140732,0.8283130526542664,0.0,-0.019035499542951584
8190.0,8190.0,-4.2843,0.1501,8.9342,-0.0324,0.0162,-0.1119,-1.7538677654662074,0.0,2.903869152069092,-1.5373210906982422,-0.0,2.149604320526123,5.170639413386144,0.0,0.22044527530670166,-1.5969494024859827,-0.0,-0.007908249273896217,0.7427854537963867,-0.0,-0.0017929929308593273,0.8283492922782898,0.0,-0.061130791902542114
8190.0,8190.0,-4.2843,0.1501,8.9342,-0.0324,0.0162,-0.1119,-1.7538801632323207,0.0,2.856013298034668,-1.5372684001922607,-0.0,2.150101661682129,5.170651572733679,0.0,0.22886790335178375,-1.5969608465777796,-0.0,-0.008220511488616467,0.7427534461021423,-0.0,-0.006467809434980154,0.8283533453941345,0.0,0.020196981728076935
8190.0,8190.0,-4.2843,0.1501,8.9342,-0.0324,0.0162,-0.1119,-1.7539240322508753,0.0,2.933373212814331,-1.5371882915496826,-0.0,2.1146624088287354,5.170562791615286,0.0,0.2274935245513916,-1.5969775358783167,-0.0,0.0027698939666152,0.7427574992179871,-0.0,0.002645921427756548,0.8283290266990662,0.0,-0.030060192570090294
8190.0,8190.0,-4.2843,0.1501,8.9342,-0.0324,0.0162,-0.1119,-1.753892560998434,0.0,2.919865846633911,-1.5372724533081055,-0.0,2.100940227508545,5.170655268221655,0.0,0.2192128449678421,-1.5969856421100062,-0.0,-0.002824976574629545,0.7427977919578552,-0.0,0.006024973466992378,0.8283693790435791,0.0,0.01032682042568922
8190.0,1083.0,-4.3687,-0.2471,8.9575,-0.0502,0.0192,-0.1107,-1.753859659234518,0.0,2.9240617752075195,-1.5372809171676636,-0.0,2.0984339714050293,5.170627105026998,0.0,0.2308351993560791,-1.5969494024859827,-0.0,-0.012778130359947681,0.7427254915237427,-0.0,-0.0005705618532374501,0.8283616304397583,0.0,0.03942636400461197
8190.0,1083.0,-4.3687,-0.2471,8.9575,-0.0502,0.0192,-0.1107,-1.7538801632323207,0.0,2.919670581817627,-1.5372405052185059,-0.0,2.123560905456543,5.170611101179876,0.0,0.22512052953243256,-1.5969775358783167,-0.0,-0.01427122950553894,0.7427653670310974,-0.0,-0.002709585940465331,0.8283249735832214,0.0,-0.027648743242025375
8190.0,1083.0,-4.3687,-0.2471,8.9575,-0.0502,0.0192,-0.1107,-1.7538758716978968,0.0,2.9295434951782227,-1.5372767448425293,-0.0,2.1469411849975586,5.170595097332754,0.0,0.23143643140792847,-1.5969775358783167,-0.0,-0.01328226551413536,0.7427657842636108,-0.0,-0.00600055605173111,0.8283090591430664,0.0,-0.05419041961431503
8190.0,1083.0,-4.3687,-0.2471,8.9575,-0.0502,0.0192,-0.1107,-1.7538958988585414,0.0,2.9605565071105957,-1.5372323989868164,-0.0,2.1453516483306885,5.170622962504186,0.0,0.21471573412418365,-1.5969818274127405,-0.0,-0.007652576081454754,0.7428138256072998,-0.0,0.013948055915534496,0.8283571004867554,0.0,0.02370097115635872
8190.0,1083.0,-4.3687,-0.2471,8.9575,-0.0502,0.0192,-0.1107,-1.7538234196104945,0.0,2.892988681793213,-1.5372529029846191,-0.0,2.1616246700286865,5.170639413386144,0.0,0.21838614344596863,-1.5969703833209437,-0.0,-0.010631364770233631,0.7428095936775208,-0.0,0.008883822709321976,0.8283533453941345,0.0,-0.009760838001966476
8190.0,1083.0,-4.3687,-0.2471,8.9575,-0.0502,0.0192,-0.1107,-1.7538238964476527,0.0,2.9572949409484863,-1.5371884107589722,-0.0,2.1140336990356445,5.170611101179876,0.0,0.2166699767112732,-1.5969732443438929,-0.0,-0.009687492623925209,0.742793619632721,-0.0,-0.0021070879884064198,0.8283130526542664,0.0,-0.017956426367163658
8190.0,1083.0,-4.3687,-0.2471,8.9575,-0.0502,0.0192,-0.1107,-1.7538758716978968,0.0,2.924771785736084,-1.5372930765151978,-0.0,2.112381935119629,5.170679557114401,0.0,0.20647642016410828,-1.596945587788717,-0.0,-0.01631622202694416,0.7427371144294739,-0.0,0.011900164186954498,0.8283611536026001,0.0,0.010578049346804619
8190.0,1083.0,-4.3687,-0.2471,8.9575,-0.0502,0.0192,-0.1107,-1.7538677654662074,0.0,2.89294695854187,-1.5372364521026611,-0.0,2.1475236415863037,5.170591103821554,0.0,0.2285468429327011,-1.5969694296466272,-0.0,0.0030738599598407745,0.7427977323532104,-0.0,-0.004072369541972876,0.8283814787864685,0.0,0.024173524230718613
8190.0,1083.0,-4.3687,-0.2471,8.9575,-0.0502,0.0192,-0.1107,-1.7539001903929652,0.0,2.893308639526367,-1.5372166633605957,-0.0,2.1459059715270996,5.170595097332754,0.0,0.23586148023605347,-1.5969703833209437,-0.0,-0.0007750412914901972,0.7427493929862976,-0.0,-0.011661801487207413,0.8283814787864685,0.0,-0.022588420659303665
8190.0,1083.0,-4.3687,-0.2471,8.9575,-0.0502,0.0192,-0.1107,-1.7539078197874964,0.0,2.9152088165283203,-1.5372203588485718,-0.0,2.123757839202881,5.170590895205297,0.0,0.23249223828315735,-1.59698993364443,-0.0,-0.005340589210391045,0.7427977919578552,-0.0,0.0020311507396399975,0.8283331394195557,0.0,0.003821680089458823
8190.0,1083.0,-4.3687,-0.2471,8.9575,-0.0502,0.0192,-0.1107,-1.7538396320738734,0.0,2.942570209503174,-1.5372684001922607,-0.0,2.0650064945220947,5.170603263169088,0.0,0.2257305383682251,-1.5970061461078089,-0.0,-0.004985821899026632,0.7427575588226318,-0.0,0.012128539383411407,0.8283611536026001,0.0,0.009107525460422039
8190.0,1083.0,-4.3687,-0.2471,8.9575,-0.0502,0.0192,-0.1107,-1.7538682423033656,0.0,2.9050512313842773,-1.5372529029846191,-0.0,2.1230969429016113,5.17065121510581,0.0,0.23290853202342987,-1.5969775358783167,-0.0,-0.01296108029782772,0.7426931858062744,-0.0,0.0018218541517853737,0.8283492922782898,0.0,-0.00875723548233509
8190.0,1083.0,-4.3687,-0.2471,8.9575,-0.0502,0.0192,-0.1107,-1.7539001903929652,0.0,2.9006919860839844,-1.5372602939605713,-0.0,2.116487979888916,5.170566814928808,0.0,0.22704178094863892,-1.5969980398761194,-0.0,-0.017662886530160904,0.7428096532821655,-0.0,-0.005741536617279053,0.8283370137214661,0.0,-0.001280069351196289
8190.0,1083.0,-4.3687,-0.2471,8.9575,-0.0502,0.0192,-0.1107,-1.7538839779295863,0.0,2.919804573059082,-1.5372724533081055,-0.0,2.1326208114624023,5.170590984612264,0.0,0.22030013799667358,-1.5969975630389612,-0.0,-0.0056672729551792145,0.7427694201469421,-0.0,0.0060854763723909855,0.8283611536026001,0.0,-0.02115749381482601
8190.0,1083.0,-4.3687,-0.2471,8.9575,-0.0502,0.0192,-0.1107,-1.7539364300169886,0.0,2.895754337310791,-1.537264347076416,-0.0,2.140946388244629,5.170606988459387,0.0,0.22654736042022705,-1.5969775358783167,-0.0,-0.0053521799854934216,0.7427493333816528,-0.0,0.004489688668400049,0.8283652663230896,0.0,0.02779265120625496
8190.0,1083.0,-4.3687,-0.2471,8.9575,-0.0502,0.0192,-0.1107,-1.753859659234518,0.0,2.8782541751861572,-1.5372447967529297,-0.0,2.1428208351135254,5.1706233797367,0.0,0.22188827395439148,-1.596933666859762,-0.0,-3.629876300692558e-05,0.7427494525909424,-0.0,0.005011027213186026,0.8283290266990662,0.0,-0.010905491188168526
1108.0,1087.0,-4.2694,0.0311,8.8534,-0.0344,0.0153,-0.1132,-1.7538515530028285,0.0,2.8851611614227295,-1.5372447967529297,-0.0,2.103137969970703,5.170643436699667,0.0,0.22324375808238983,-1.5969660917865198,-0.0,-0.0031549055129289627,0.7427854537963867,-0.0,0.002484192606061697,0.8282967209815979,0.0,0.035667456686496735
1108.0,1087.0,-4.2694,0.0311,8.8534,-0.0344,0.0153,-0.1132,-1.7538558445372523,0.0,2.9128975868225098,-1.5372487306594849,-0.0,2.0757577419281006,5.170622932701864,0.0,0.22230949997901917,-1.5969856421100062,-0.0,-0.01046079397201538,0.7427891492843628,-0.0,-0.0019059660844504833,0.8283451795578003,0.0,-0.06129611283540726
1108.0,1087.0,-4.2694,0.0311,8.8534,-0.0344,0.0153,-0.1132,-1.753843446771139,0.0,2.9225521087646484,-1.537212610244751,-0.0,2.1214847564697266,5.170590954809942,0.0,0.2271815836429596,-1.5969536940204065,-0.0,-0.008147608488798141,0.742793619632721,-0.0,0.010722141712903976,0.8283533453941345,0.0,0.024508284404873848
1108.0,1087.0,-4.2694,0.0311,8.8534,-0.0344,0.0153,-0.1132,-1.753859659234518,0.0,2.9016761779785156,-1.5372364521026611,-0.0,2.106546640396118,5.170631217747488,0.0,0.22115549445152283,-1.5969293753253382,-0.0,-0.014023471623659134,0.7427091598510742,-0.0,0.0022203661501407623,0.8283451795578003,0.0,0.006706396117806435
1108.0,1087.0,-4.2694,0.0311,8.8534,-0.0344,0.0153,-0.1132,-1.7538472614684046,0.0,2.952479362487793,-1.5372282266616821,-0.0,2.160288095474243,5.170562791615286,0.0,0.22129511833190918,-1.5969856421100062,-0.0,-0.009270085021853447,0.7427131533622742,-0.0,-0.008759169839322567,0.8283089399337769,0.0,-0.0026493724435567856
1108.0,1087.0,-4.2694,0.0311,8.8534,-0.0344,0.0153,-0.1132,-1.7538472614684046,0.0,2.900813341140747,-1.5372968912124634,-0.0,2.130753993988037,5.170570868044653,0.0,0.22875957190990448,-1.5969942251788538,-0.0,-0.014701717533171177,0.7428096532821655,-0.0,-0.007026812992990017,0.8283331394195557,0.0,-0.012171515263617039
1108.0,1087.0,-4.2694,0.0311,8.8534,-0.0344,0.0153,-0.1132,-1.753843446771139,0.0,2.923004150390625,-1.5372529029846191,-0.0,2.0996413230895996,5.170647460013189,0.0,0.22891947627067566,-1.5969741980182093,-0.0,-0.013560748659074306,0.7427371740341187,-0.0,0.008937551639974117,0.8283533453941345,0.0,-0.012272533029317856
1108.0,1087.0,-4.2694,0.0311,8.8534,-0.0344,0.0153,-0.1132,-1.7538958988585414,0.0,2.9110989570617676,-1.5372364521026611,-0.0,2.0999488830566406,5.170627105026998,0.0,0.23053036630153656,-1.5969732443438929,-0.0,-0.0006238766945898533,0.7427452802658081,-0.0,0.0021650525741279125,0.8283130526542664,0.0,-0.03650528937578201
1108.0,1087.0,-4.2694,0.0311,8.8534,-0.0344,0.0153,-0.1132,-1.7538916073241175,0.0,2.881718635559082,-1.5372447967529297,-0.0,2.1149537563323975,5.17058693149642,0.0,0.22753837704658508,-1.59698993364443,-0.0,-0.004799638409167528,0.7427776455879211,-0.0,0.01081582810729742,0.8283411264419556,0.0,-0.0020396816544234753
1108.0,1087.0,-4.2694,0.0311,8.8534,-0.0344,0.0153,-0.1132,-1.7538472614684046,0.0,2.8957912921905518,-1.5372365713119507,-0.0,2.1204423904418945,5.170615154295721,0.0,0.23201444745063782,-1.5970099608050745,-0.0,-0.004276237916201353,0.7427173852920532,-0.0,-0.0028588653076440096,0.8283571004867554,0.0,0.04018518701195717
1108.0,1087.0,-4.2694,0.0311,8.8534,-0.0344,0.0153,-0.1132,-1.7539001903929652,0.0,2.9030613899230957,-1.537264347076416,-0.0,2.1359119415283203,5.170619237213888,0.0,0.22740180790424347,-1.5969741980182093,-0.0,-0.021935321390628815,0.7427611947059631,-0.0,0.007815148681402206,0.8282967209815979,0.0,0.06446662545204163
1108.0,1087.0,-4.2694,0.0311,8.8534,-0.0344,0.0153,-0.1132,-1.7538801632323207,0.0,2.910653591156006,-1.5372364521026611,-0.0,2.1392440795898438,5.170631217747488,0.0,0.2298789620399475,-1.5969775358783167,-0.0,-0.009076772257685661,0.7427697777748108,-0.0,0.004076188430190086,0.8283933997154236,0.0,0.0320311114192009
1108.0,1087.0,-4.2694,0.0311,8.8534,-0.0344,0.0153,-0.1132,-1.7538114986815394,0.0,2.859410524368286,-1.5372447967529297,-0.0,2.1392910480499268,5.170655268221655,0.0,0.23126642405986786,-1.5970061461078089,-0.0,-0.009565318934619427,0.7428178191184998,-0.0,0.008743669837713242,0.8283331394195557,0.0,-0.014677058905363083
1108.0,1087.0,-4.2694,0.0311,8.8534,-0.0344,0.0153,-0.1132,-1.7538515530028285,0.0,2.964094638824463,-1.5372684001922607,-0.0,2.096072196960449,5.170570570021429,0.0,0.22875246405601501,-1.5969694296466272,-0.0,-0.0005350969731807709,0.7427735328674316,-0.0,0.0034828917123377323,0.8283171653747559,0.0,0.036228541284799576
1108.0,1087.0,-4.2694,0.0311,8.8534,-0.0344,0.0153,-0.1132,-1.7538348637022914,0.0,2.8954977989196777,-1.5372684001922607,-0.0,2.1313583850860596,5.170579093485632,0.0,0.23679569363594055,-1.5969536940204065,-0.0,-0.007132525090128183,0.7427895069122314,-0.0,-0.001444973167963326,0.8283290266990662,0.0,-0.0008591581135988235
1108.0,1087.0,-4.2694,0.0311,8.8534,-0.0344,0.0153,-0.1132,-1.753887792626852,0.0,2.8892903327941895,-1.5372488498687744,-0.0,2.13445782661438,5.170610713749685,0.0,0.2222277820110321,-1.5969818274127405,-0.0,-0.015365339815616608,0.7427330613136292,-0.0,-0.00171732809394598,0.8283411264419556,0.0,-0.019691038876771927
8190.0,1073.0,-4.2921,0.1478,8.985,-0.0371,0.0203,-0.1113,-1.753871580163473,0.0,2.9080138206481934,-1.5372848510742188,-0.0,2.1162490844726562,5.170595097332754,0.0,0.22370271384716034,-1.5970218817340296,-0.0,-0.005559849552810192,0.7427854537963867,-0.0,0.0035069165751338005,0.8283529877662659,0.0,0.041210103780031204
8190.0,1073.0,-4.2921,0.1478,8.985,-0.0371,0.0203,-0.1113,-1.7538920841612757,0.0,2.9246983528137207,-1.5372003316879272,-0.0,2.1301307678222656,5.170590954809942,0.0,0.22554123401641846,-1.5969775358783167,-0.0,0.0009526231442578137,0.742809534072876,-0.0,0.018189365044236183,0.8283811807632446,0.0,0.03617538511753082
8190.0,1073.0,-4.2921,0.1478,8.985,-0.0371,0.0203,-0.1113,-1.753883501092428,0.0,2.9185805320739746,-1.5372322797775269,-0.0,2.1284892559051514,5.170643436699667,0.0,0.21808545291423798,-1.5970061461078089,-0.0,-0.007890868932008743,0.7427697777748108,-0.0,-0.0037899641320109367,0.828369140625,0.0,-0.005561033729463816
8190.0,1073.0,-4.2921,0.1478,8.985,-0.0371,0.0203,-0.1113,-1.753899713555807,0.0,2.8734331130981445,-1.5372488498687744,-0.0,2.1046173572540283,5.17061926701621,0.0,0.21790102124214172,-1.5969856421100062,-0.0,-0.001426891889423132,0.7427571415901184,-0.0,0.012086519040167332,0.8283973336219788,0.0007871983689256012,-0.037429243326187134
8190.0,1073.0,-4.2921,0.1478,8.985,-0.0371,0.0203,-0.1113,-1.7538558445372523,0.0,2.9169106483459473,-1.537289023399353,-0.0,2.147573709487915,5.1705389497573755,0.0,0.2316189855337143,-1.5969856421100062,-0.0,0.016364462673664093,0.742781400680542,-0.0,0.004235949367284775,0.8284052610397339,0.0012493068352341652,-0.024475116282701492
8190.0,1073.0,-4.2921,0.1478,8.985,-0.0371,0.0203,-0.1113,-1.7539121113219203,0.0,2.9442505836486816,-1.5372611284255981,-0.0,2.127952814102173,5.170615571528234,0.0,0.23720893263816833,-1.5970099608050745,-0.0,-0.005752327851951122,0.7427932024002075,-0.0,-0.0014311578124761581,0.8284657001495361,0.0038788230158388615,-0.04425235837697983
8190.0,1073.0,-4.2921,0.1478,8.985,-0.0371,0.0203,-0.1113,-1.7538472614684046,0.0,2.896287441253662,-1.5372602939605713,-0.0,2.1369636058807373,5.170599269657888,0.0,0.2162923812866211,-1.5970061461078089,-0.0,-0.001641630893573165,0.7428297400474548,-0.0,0.008757248520851135,0.8284973502159119,0.009112127125263214,0.028320809826254845
8190.0,1073.0,-4.2921,0.1478,8.985,-0.0371,0.0203,-0.1113,-1.753871580163473,0.0,2.9292826652526855,-1.5372282266616821,-0.0,2.123230457305908,5.170566874533453,0.0,0.23336221277713776,-1.5969818274127405,-0.0,-0.004433796275407076,0.7427131533622742,-0.0,0.006103228777647018,0.8285576105117798,0.010427050292491913,0.03185906261205673
8190.0,1073.0,-4.2921,0.1478,8.985,-0.0371,0.0203,-0.1113,-1.753855367700094,0.0,2.9517908096313477,-1.5372003316879272,-0.0,2.143350124359131,5.170611488610067,0.0,0.23007968068122864,-1.59698993364443,-0.0,0.0005200468003749847,0.7427616119384766,-0.0,0.005733119323849678,0.8286499381065369,0.010321722365915775,-0.03862373158335686
8190.0,1073.0,-4.2921,0.1478,8.985,-0.0371,0.0203,-0.1113,-1.753887792626852,0.0,2.917696237564087,-1.5372122526168823,-0.0,2.1166887283325195,5.1705471751983545,0.0,0.23345449566841125,-1.596973721181051,-0.0,-0.005511881317943335,0.7428096532821655,-0.0,-0.004209295846521854,0.8286412358283997,0.01003180630505085,0.005291489884257317
8190.0,1073.0,-4.2921,0.1478,8.985,-0.0371,0.0203,-0.1113,-1.7539283237852992,0.0,2.8815712928771973,-1.537272572517395,-0.0,2.187241315841675,5.170526790409841,0.0,0.22362694144248962,-1.596957031880514,-0.0,-0.01179971732199192,0.7427657842636108,-0.0,-0.017786134034395218,0.8287095427513123,0.008865711279213428,0.031070392578840256
8190.0,1073.0,-4.2921,0.1478,8.985,-0.0371,0.0203,-0.1113,-1.7538672886290492,-0.0002544397138990462,2.9220433235168457,-1.5372446775436401,-0.0,2.113095760345459,5.170591103821554,0.0,0.21756884455680847,-1.5970137755023401,-0.0,-0.0034100136253982782,0.7427534461021423,-0.0,-0.005891680251806974,0.8287578821182251,0.006038636434823275,0.01953149400651455
8190.0,1073.0,-4.2921,0.1478,8.985,-0.0371,0.0203,-0.1113,-1.7539240322508753,-0.00026140749105252326,2.9329617023468018,-1.5372928380966187,-0.0,2.099647045135498,5.170591103821554,0.0,0.22855055332183838,-1.5969975630389612,-0.0,0.0020115685183554888,0.7427411079406738,-0.0,0.010276546701788902,0.8287978768348694,0.004530655685812235,-0.009580014273524284
8190.0,1073.0,-4.2921,0.1478,8.985,-0.0371,0.0203,-0.1113,-1.7539035282530726,-0.0002662985061760992,2.9216158390045166,-1.5372767448425293,-0.0,2.141547918319702,5.17054312208251,0.0,0.2368103563785553,-1.5969608465777796,-0.0,4.723924212157726e-05,0.7427973747253418,-0.0,-0.0023844230454415083,0.828757107257843,0.0034173638559877872,-0.030149605125188828
8190.0,1073.0,-4.2921,0.1478,8.985,-0.0371,0.0203,-0.1113,-1.753955980340475,-0.00027008960023522377,2.914539337158203,-1.537256121635437,-0.0,2.13421630859375,5.170555341034689,0.0,0.23405219614505768,-1.5969694296466272,-0.0,0.0009619679767638445,0.7427735328674316,-0.0,0.006535629276186228,0.8287448287010193,0.001865408499725163,-0.03926641494035721
8190.0,1074.0,-4.142,0.5521,8.7805,-0.0324,0.0194,-0.1155,-1.7539283237852992,-0.00035994467907585204,2.88861346244812,-1.537256121635437,-0.0,2.124220848083496,5.17053900936202,-0.0001507855486124754,0.2341098189353943,-1.5970385710345667,-0.0,-0.010019904002547264,0.742805540561676,-0.0,0.006730152294039726,0.8287937641143799,0.0010180695680901408,0.044026318937540054
8190.0,1074.0,-4.142,0.5521,8.7805,-0.0324,0.0194,-0.1155,-1.7539316616454066,-0.0004041791253257543,2.924774408340454,-1.5372928380966187,-0.0,2.1094582080841064,5.170587348728933,-0.00016480527119711041,0.23201346397399902,-1.5969775358783167,-0.0,-0.007605388760566711,0.7428419589996338,-0.0,0.006549283862113953,0.8288138508796692,0.0006028797943145037,0.04230514168739319
8190.0,1074.0,-4.142,0.5521,8.7805,-0.0324,0.0194,-0.1155,-1.75396790126943,-0.0005276873125694692,2.936387538909912,-1.537256121635437,-0.0,2.1890077590942383,5.170575517206945,-0.00017695763381198049,0.2312418818473816,-1.5969942251788538,-0.0,0.0038436371833086014,0.742809534072876,-0.0,0.008677261881530285,0.8287692070007324,0.0004299557476770133,-0.008404368534684181
8190.0,1074.0,-4.142,0.5521,8.7805,-0.0324,0.0194,-0.1155,-1.7539478741087855,-0.0006034515099599957,2.8651909828186035,-1.5372447967529297,-9.613298607291654e-05,2.164151430130005,5.170547264605322,-0.0003890874795615673,0.22326716780662537,-1.59698993364443,-0.0,-0.0009634019806981087,0.742801308631897,-0.0,0.002594562014564872,0.8287774324417114,0.0003341435512993485,-0.016544131562113762
8190.0,1074.0,-4.142,0.5521,8.7805,-0.0324,0.0194,-0.1155,-1.753927846948141,-0.000823770125862211,2.892392635345459,-1.537272572517395,-0.00012800846889149398,2.1738221645355225,5.170551347523489,-0.00045721756760030985,0.23260349035263062,-1.5969694296466272,-0.0,-0.0030771431047469378,0.7427371144294739,-0.0,0.0002980567514896393,0.8287973999977112,0.0002732589200604707,-0.0029641520231962204
8190.0,1074.0,-4.142,0.5521,8.7805,-0.0324,0.0194,-0.1155,-1.7539879284300746,-0.0011943515855818987,2.9470863342285156,-1.5372644662857056,-0.00046868756180629134,2.1166160106658936,5.170555341034689,-0.0007803058251738548,0.22924533486366272,-1.59698993364443,-0.0,-0.0011981944553554058,0.7428657412528992,-0.0,0.004125574603676796,0.8287895917892456,0.00023114400391932577,0.0024744775146245956
8190.0,1074.0,-4.142,0.5521,8.7805,-0.0324,0.0194,-0.1155,-1.754012247125143,-0.0018530732486397028,2.911874771118164,-1.537276268005371,-0.0005435226485133171,2.1038930416107178,5.170475321799078,-0.0012634929735213518,0.2356395721435547,-1.596949879323141,-0.0,-0.0081210657954216,0.7428014278411865,-0.0,0.00021519040456041694,0.8287774324417114,0.00023870120639912784,0.006748085841536522
8190.0,1074.0,-4.142,0.5521,8.7805,-0.0324,0.0194,-0.1155,-1.753996034661764,-0.0035852896980941296,2.887619972229004,-1.537247896194458,-0.0005278012831695378,2.1328229904174805,5.170479494124212,-0.0018180885817855597,0.23731808364391327,-1.5969980398761194,-0.0,0.0022604898549616337,0.7428498268127441,-0.0,0.005580069962888956,0.8288254141807556,0.00022068925318308175,0.015468857251107693
8190.0,1074.0,-4.142,0.5521,8.7805,-0.0324,0.0194,-0.1155,-1.7540155849852503,-0.006661409977823496,2.8860161304473877,-1.5372965335845947,-0.0004828242235817015,2.111292839050293,5.1704032001788995,-0.0017693490954115987,0.23167669773101807,-1.5969775358783167,-0.0,0.0019159214571118355,0.742809534072876,-0.0,0.005374503321945667,0.8287978172302246,0.00022919361072126776,-0.03899624943733215
8190.0,1074.0,-4.142,0.5521,8.7805,-0.0324,0.0194,-0.1155,-1.7541481457152308,-0.012715188786387444,2.8626365661621094,-1.5373083353042603,-0.00040273781633004546,2.110267162322998,5.170467960625448,-0.0013101774966344237,0.2304958999156952,-1.5969942251788538,-0.0,0.0057625966146588326,0.742781400680542,-0.0,-0.005588457453995943,0.8287773132324219,0.000170824583619833,-0.06340218335390091
8190.0,1074.0,-4.142,0.5521,8.7805,-0.0324,0.0194,-0.1155,-1.7542082271971644,-0.015157493762671947,2.870471954345703,-1.5372965335845947,-0.0003174743033014238,2.1239676475524902,5.170459794789114,-0.0010534783359616995,0.23326806724071503,-1.5969494024859827,-0.0,-0.0036130757071077824,0.7428013682365417,-0.0,0.00697715487331152,0.8288416266441345,0.00023130954650696367,-0.061563655734062195
8190.0,1074.0,-4.142,0.5521,8.7805,-0.0324,0.0194,-0.1155,-1.7543207607665003,-0.014089570380747318,2.8545069694519043,-1.5373811721801758,-0.0002620101149659604,2.0815932750701904,5.170436042338171,-0.0009447038173675537,0.23782911896705627,-1.5969942251788538,-0.0,-0.008241964504122734,0.742817759513855,-0.0,-0.0017772732535377145,0.8288213610649109,0.0010614838683977723,-0.01557212509214878
8190.0,1074.0,-4.142,0.5521,8.7805,-0.0324,0.0194,-0.1155,-1.75437655071401,-0.013398614712059498,2.883233070373535,-1.5373687744140625,-0.0002230457030236721,2.1270155906677246,5.170443820744314,-0.000845626462250948,0.22427088022232056,-1.596961800252096,-0.0,0.0026283194310963154,0.7427735328674316,-0.0,-0.0005807949928566813,0.828837513923645,0.002154673682525754,-0.010125985369086266
8190.0,1074.0,-4.142,0.5521,8.7805,-0.0324,0.0194,-0.1155,-1.7544690571227015,-0.013085582293570042,2.8317456245422363,-1.5373165607452393,-0.0002387032436672598,2.0922529697418213,5.170399594097891,-0.001006758539006114,0.24199236929416656,-1.59698993364443,-0.0,-0.005524067673832178,0.7428213953971863,-0.0,0.007522734813392162,0.8288454413414001,0.002456696005538106,0.022290796041488647
8190.0,1074.0,-4.142,0.5521,8.7805,-0.0324,0.0194,-0.1155,-1.7545491657652796,-0.012362637557089329,2.869124412536621,-1.5373367071151733,-0.0002144935424439609,2.167506217956543,5.170387762575903,-0.0017813118174672127,0.23420295119285583,-1.5969818274127405,-0.0,0.002137935720384121,0.7427854537963867,-0.0,-0.000771905411966145,0.8288896679878235,0.0028622362297028303,-0.014974450692534447
8190.0,1074.0,-4.142,0.5521,8.7805,-0.0324,0.0194,-0.1155,-1.7546011410155238,-0.012534689158201218,2.877685546875,-1.5373125076293945,-0.00022359729337040335,2.09080171585083,5.17038773277358,-0.003897504648193717,0.23837792873382568,-1.59698993364443,-0.0,0.007949701510369778,0.7428579926490784,-0.0,-0.009105363860726357,0.8288933038711548,0.003214315976947546,0.026763010770082474
8190.0,1085.0,-4.3693,0.3392,8.5944,-0.0208,0.0012,-0.113,-1.7546607456602992,-0.011661754921078682,2.813408851623535,-1.537336826324463,-0.00023094812058843672,2.1079812049865723,5.1702758250530145,-0.006730451248586178,0.23097147047519684,-1.5969579855548304,-0.0,-0.00631503714248538,0.7428337931632996,-0.0,0.0023825056850910187,0.8289377093315125,0.0038988820742815733,0.034135375171899796
8190.0,1085.0,-4.3693,0.3392,8.5944,-0.0208,0.0012,-0.113,-1.754733224908346,-0.009285017848014832,2.844301223754883,-1.537336826324463,-0.00021067517809569836,2.0962371826171875,5.170292126923361,-0.0076095410622656345,0.2393171787261963,-1.5969536940204065,-0.0,0.0008195035625249147,0.7428259253501892,-0.0,-0.0034082115162163973,0.8289778232574463,0.004044576082378626,0.00033027026802301407
8190.0,1085.0,-4.3693,0.3392,8.5944,-0.0208,0.0012,-0.113,-1.7548209629454554,-0.007073670160025358,2.9204368591308594,-1.537344217300415,-0.00019367411732673645,2.081629514694214,5.170220124512472,-0.0071796877309679985,0.23654738068580627,-1.5969856421100062,-0.0,-0.0009537664009258151,0.7427452206611633,-0.0,0.00512462155893445,0.8289819955825806,0.004161339718848467,-0.01074367668479681
8190.0,1085.0,-4.3693,0.3392,8.5944,-0.0208,0.0012,-0.113,-1.7548414669432582,-0.00609293207526207,2.873383045196533,-1.5372841358184814,-0.00014859481598250568,2.0922579765319824,5.170196282654562,-0.007184938527643681,0.22923724353313446,-1.5969417730914515,-0.0,-0.004493139684200287,0.7427412867546082,-0.0,-0.0038183964788913727,0.8290420174598694,0.0050984937697649,-0.011002571322023869
8190.0,1085.0,-4.3693,0.3392,8.5944,-0.0208,0.0012,-0.113,-1.754852911035055,-0.005647717043757439,2.876450538635254,-1.5373523235321045,-0.0002068968751700595,2.062537670135498,5.170152532845297,-0.00778865534812212,0.20615839958190918,-1.5969098250018519,-0.0,0.008877572603523731,0.742793619632721,-0.0,0.0002706053201109171,0.8289854526519775,0.005305571015924215,-0.030522853136062622
8190.0,1085.0,-4.3693,0.3392,8.5944,-0.0208,0.0012,-0.113,-1.7548800907530726,-0.006128923036158085,2.8011322021484375,-1.5373002290725708,-0.0007891474524512887,2.0818004608154297,5.170100438385763,-0.008437614887952805,0.22012589871883392,-1.5969098250018519,0.0001798108860384673,0.010523933917284012,0.742813766002655,-0.0,0.01518581435084343,0.8290499448776245,0.005432671867311001,0.015421961434185505
8190.0,1085.0,-4.3693,0.3392,8.5944,-0.0208,0.0012,-0.113,-1.7549568615355433,-0.008204077370464802,2.7554478645324707,-1.5373927354812622,-0.0012688238639384508,2.0612292289733887,5.170020925789633,-0.010525337420403957,0.20478180050849915,-1.5969017187701624,0.0003302203840576112,0.012595174834132195,0.7427653670310974,-0.0,-0.0030049853958189487,0.8290897607803345,0.00556211918592453,0.020002899691462517
8190.0,1085.0,-4.3693,0.3392,8.5944,-0.0208,0.0012,-0.113,-1.7549687824644984,-0.009384366683661938,2.775411367416382,-1.5373845100402832,-0.00150864920578897,2.10677433013916,5.169956671982565,-0.01247318647801876,0.21374017000198364,-1.5969222227679651,0.00033020859700627625,0.01631757989525795,0.7427371144294739,-0.0,5.1359180361032486e-05,0.8291537761688232,0.00508536072447896,-0.033005356788635254
8190.0,1085.0,-4.3693,0.3392,8.5944,-0.0208,0.0012,-0.113,-1.7550531826415003,-0.010771984234452248,2.7639737129211426,-1.5374088287353516,-0.0019632945768535137,2.0838630199432373,5.169820892601766,-0.014633947983384132,0.20574218034744263,-1.5969136396991175,0.0003274219634477049,0.013606437481939793,0.7427330613136292,-0.0,0.012053963728249073,0.829113781452179,0.003559618955478072,-0.07167510688304901
8190.0,1085.0,-4.3693,0.3392,8.5944,-0.0208,0.0012,-0.113,-1.755137105981344,-0.012214411981403828,2.7700986862182617,-1.5373767614364624,-0.0022268197499215603,2.113740921020508,5.169772970467367,-0.0151791051030159,0.17908866703510284,-1.59691030183901,0.0003692691389005631,0.017922911792993546,0.7428497672080994,-0.0,0.004439996089786291,0.8291415572166443,0.002479490591213107,-0.04692010581493378
8190.0,1085.0,-4.3693,0.3392,8.5944,-0.0208,0.0012,-0.113,-1.7551895580687464,-0.011153018102049828,2.732602119445801,-1.5374207496643066,-0.0021286020055413246,2.0564687252044678,5.169693457871237,-0.015583573840558529,0.19301891326904297,-1.5969141165362757,0.0003800714621320367,0.01795639656484127,0.742713212966919,-0.0,0.0033172573894262314,0.8291777968406677,0.0019622831605374813,-0.03398078680038452
8190.0,1085.0,-4.3693,0.3392,8.5944,-0.0208,0.0012,-0.113,-1.7552572689452113,-0.011477602645754814,2.739079236984253,-1.5374528169631958,-0.0019645707216113806,2.0023069381713867,5.169613945275106,-0.014800491742789745,0.18156088888645172,-1.5968979040728968,0.0003660688525997102,0.019297543913125992,0.742825984954834,-0.0,0.010620979592204094,0.8291898369789124,0.001424600020982325,-0.027816031128168106
8190.0,1085.0,-4.3693,0.3392,8.5944,-0.0208,0.0012,-0.113,-1.755301137963766,-0.01234454195946455,2.76900315284729,-1.5374281406402588,-0.002012281445786357,2.0686159133911133,5.169525849610128,-0.012307233177125454,0.1923951804637909,-1.5968979040728968,0.00035623699659481645,0.02049805223941803,0.742805540561676,-0.0,0.005556628108024597,0.8291816115379333,0.001096935011446476,-0.08543868362903595
8190.0,1085.0,-4.3693,0.3392,8.5944,-0.0208,0.0012,-0.113,-1.7554260692992152,-0.012668135575950146,2.690958023071289,-1.5374207496643066,-0.0017980735283344984,2.0322647094726562,5.169429617911138,-0.009545962326228619,0.17986911535263062,-1.5968616644488733,0.0003323908313177526,0.019917845726013184,0.742813766002655,-0.0,0.0044976589269936085,0.8291898369789124,0.0009108051308430731,-0.08521858602762222
8190.0,1085.0,-4.3693,0.3392,8.5944,-0.0208,0.0012,-0.113,-1.7555223904051722,-0.014734805561602116,2.6989357471466064,-1.537415862083435,-0.0016247895546257496,2.020937442779541,5.169374155789175,-0.007221458479762077,0.16828224062919617,-1.5968979040728968,0.00032509598531760275,0.02473914995789528,0.7428096532821655,-0.0,0.003879294730722904,0.8291535377502441,0.0007348929066210985,-0.06652036309242249
8190.0,1085.0,-4.3693,0.3392,8.5944,-0.0208,0.0012,-0.113,-1.7555986843504847,-0.015195884741842747,2.6727583408355713,-1.5374321937561035,-0.0013669562758877873,2.0650103092193604,5.169414686947622,-0.005911293439567089,0.1782902479171753,-1.596893612538473,0.00031968962866812944,0.041438695043325424,0.7427775859832764,-0.0,0.003357676323503256,0.8291332125663757,0.0004924539825879037,-0.10659553110599518
8190.0,1096.0,-4.2754,0.3254,8.8385,-0.0345,-0.0087,-0.1115,-1.7556587658324183,-0.015230102464556694,2.6540112495422363,-1.53745698928833,-0.0009612698340788484,2.075237512588501,5.169334369688787,-0.00483997305855155,0.17101126909255981,-1.5969017187701624,0.0002928263565991074,0.025876851752400398,0.7428014278411865,-0.0,0.007991766557097435,0.8291898369789124,0.00042576741543598473,-0.09960769861936569
8190.0,1096.0,-4.2754,0.3254,8.8385,-0.0345,-0.0087,-0.1115,-1.7556821308531703,-0.014954640530049801,2.6729719638824463,-1.5374075174331665,-0.0007028391119092703,2.0122573375701904,5.169302511006155,-0.0036701131612062454,0.16452953219413757,-1.5968740622149866,0.00029353779973462224,0.035547904670238495,0.7427653670310974,-0.0,-0.0045738560147583485,0.829177737236023,0.0003539858153089881,-0.13749776780605316
8190.0,1096.0,-4.2754,0.3254,8.8385,-0.0345,-0.0087,-0.1115,-1.7558227978148402,-0.014116634614765644,2.634324550628662,-1.537476658821106,-0.0005053842323832214,2.049375534057617,5.169270115881719,-0.0029281512834131718,0.1638147383928299,-1.5968616644488733,0.0002921909326687455,0.041902586817741394,0.7427974343299866,-0.0,-0.009715679101645947,0.829185962677002,0.0003029184299521148,-0.1043318510055542
8190.0,1096.0,-4.2754,0.3254,8.8385,-0.0345,-0.0087,-0.1115,-1.7559110126891078,-0.014383275993168354,2.588181257247925,-1.5374560356140137,-0.0004602135450113565,2.0433220863342285,5.169242340117254,-0.002438261406496167,0.1634582281112671,-1.5968535582171839,0.00024556234711781144,0.04656214267015457,0.7427775859832764,-0.0,-0.0006520524621009827,0.8291535973548889,0.0001508240820840001,-0.1360633671283722
8190.0,1096.0,-4.2754,0.3254,8.8385,-0.0345,-0.0087,-0.1115,-1.755958696404928,-0.014530446380376816,2.6743178367614746,-1.5374197959899902,-0.00037754984805360436,2.053642988204956,5.169282454043188,-0.0023984238505363464,0.15159663558006287,-1.596865479146139,0.0002531953214202076,0.037563957273960114,0.7428095936775208,-0.0,-0.002912516938522458,0.829177737236023,7.910851127235219e-05,-0.10336089134216309
8190.0,1096.0,-4.2754,0.3254,8.8385,-0.0345,-0.0087,-0.1115,-1.7560864887633265,-0.015350677073001862,2.620469570159912,-1.5374808311462402,-0.0003200097125954926,2.090153455734253,5.169278371125021,-0.0027795250061899424,0.16961735486984253,-1.596865479146139,0.00022197610815055668,0.04706285521388054,0.742781400680542,-0.0,0.005023174919188023,0.8291414976119995,6.989286339376122e-05,-0.19229218363761902
8190.0,1096.0,-4.2754,0.3254,8.8385,-0.0345,-0.0087,-0.1115,-1.7561422787108363,-0.01593468151986599,2.691817283630371,-1.537440538406372,-0.00027769056032411754,2.0199778079986572,5.169246393233099,-0.002590741263702512,0.14912062883377075,-1.5968578497516077,0.0002303858200320974,0.03576456010341644,0.7427932024002075,-0.0,0.002074774820357561,0.8291736841201782,6.260030204430223e-05,-0.13843871653079987
8190.0,1096.0,-4.2754,0.3254,8.8385,-0.0345,-0.0087,-0.1115,-1.7562505207457484,-0.01656205952167511,2.645829916000366,-1.5375005006790161,-0.0002551922807469964,2.0205769538879395,5.1692427573497675,-0.002422718331217766,0.15680992603302002,-1.5969060103045862,0.00021481253497768193,0.04284857586026192,0.7427574992179871,-0.0,0.0036549153737723827,0.8291535973548889,5.852908725501038e-05,-0.1457161009311676
8190.0,1096.0,-4.2754,0.3254,8.8385,-0.0345,-0.0087,-0.1115,-1.7563711605467738,-0.017824480310082436,2.6298117637634277,-1.5374560356140137,-0.00022754051315132529,2.0202975273132324,5.169186460762777,-0.0023062785621732473,0.16227154433727264,-1.5968859831439417,0.0001948769058799371,0.02435053139925003,0.7427653074264526,-0.0,-0.0005950693157501519,0.8291534781455994,5.3326999477576464e-05,-0.15333318710327148
8190.0,1096.0,-4.2754,0.3254,8.8385,-0.0345,-0.0087,-0.1115,-1.7564908466734828,-0.021493427455425262,2.5992801189422607,-1.5374445915222168,-0.00020529529138002545,2.0227749347686768,5.169227021723547,-0.002575959311798215,0.146370068192482,-1.5968940893756312,0.0002037866215687245,0.04680665209889412,0.742813766002655,-0.0,0.005239936523139477,0.8292378783226013,7.247585017466918e-05,-0.16345560550689697
8190.0,1096.0,-4.2754,0.3254,8.8385,-0.0345,-0.0087,-0.1115,-1.7566234074034632,-0.025121986865997314,2.596445083618164,-1.537476658821106,-0.00018701318185776472,2.01249361038208,5.169175106077947,-0.0026077786460518837,0.13974031805992126,-1.596865479146139,0.00018665021343622357,0.04881925880908966,0.742805540561676,-0.0,0.0030257226899266243,0.8291774988174438,6.79175354889594e-05,-0.15116673707962036
8190.0,1096.0,-4.2754,0.3254,8.8385,-0.0345,-0.0087,-0.1115,-1.75677551845693,-0.030416565015912056,2.531402349472046,-1.5374560356140137,-5.4597061534877867e-05,2.020430088043213,5.1691627381141565,-0.002576323924586177,0.14760041236877441,-1.5968859831439417,0.00016542324738111347,0.05276786535978317,0.7427411675453186,-0.0,0.007588300853967667,0.82923424243927,7.845024083508179e-05,-0.21202309429645538
8190.0,1096.0,-4.2754,0.3254,8.8385,-0.0345,-0.0087,-0.1115,-1.7569757900633753,-0.037541624158620834,2.5523452758789062,-1.537408471107483,-2.5018658561748452e-05,2.0644941329956055,5.169162678509512,-0.0021656197495758533,0.1514822095632553,-1.5968659559832972,0.00014898968220222741,0.04687393829226494,0.7427771687507629,-0.0,0.0015344631392508745,0.8292259573936462,0.00013363145990297198,-0.1378251612186432
8190.0,1096.0,-4.2754,0.3254,8.8385,-0.0345,-0.0087,-0.1115,-1.7571245632567347,-0.04059567674994469,2.5706610679626465,-1.5374362468719482,-2.3700747988186777e-05,2.0220329761505127,5.169170874148168,-0.0021429252810776234,0.1552589386701584,-1.5968859831439417,0.00013973582827020437,0.051108282059431076,0.7428137063980103,-0.0,0.004268944729119539,0.8292458057403564,0.00015975729911588132,-0.2083439826965332
8190.0,1096.0,-4.2754,0.3254,8.8385,-0.0345,-0.0087,-0.1115,-1.7573725185790003,-0.049013495445251465,2.5457425117492676,-1.5374560356140137,-2.1965413907309994e-05,2.0948314666748047,5.169110703259268,-0.0018626340897753835,0.14418476819992065,-1.596882168446676,0.00014676513092126697,0.047074366360902786,0.7427288293838501,-0.0,8.941907435655594e-05,0.8292622566223145,0.0008437489159405231,-0.17064929008483887
8190.0,1096.0,-4.2754,0.3254,8.8385,-0.0345,-0.0087,-0.1115,-1.7576929531493128,-0.058563120663166046,2.559830904006958,-1.5374125242233276,-1.321303844115107e-09,2.0315914154052734,5.169090676098623,-0.001636803732253611,0.1402948945760727,-1.5968778769122522,0.0001413442223565653,0.04707935452461243,0.7427053451538086,-0.0,0.011987358331680298,0.8292537331581116,0.0012661521323025227,-0.16537100076675415
8190.0,1058.0,-4.4381,0.0879,8.2941,-0.04,-0.0124,-0.1129,-1.75805725673818,-0.06685613095760345,2.550710678100586,-1.53739595413208,-3.1907936528559203e-15,2.0459976196289062,5.16917501667098,-0.001222998951561749,0.12939409911632538,-1.5968697706805628,0.0001310544612351805,0.05380995571613312,0.7427493929862976,-0.0,0.004966187756508589,0.829249918460846,0.0016644595889374614,-0.15272292494773865
8190.0,1058.0,-4.4381,0.0879,8.2941,-0.04,-0.0124,-0.1129,-1.7585226498045863,-0.07274483144283295,2.590895652770996,-1.5374445915222168,-7.705390969910323e-21,2.0708112716674805,5.169159012823858,-0.0008856439962983131,0.1489894539117813,-1.596898380910055,0.00012215970491524786,0.059939637780189514,0.7428096532821655,-0.0,4.193669883534312e-05,0.8292739987373352,0.001478315331041813,-0.17124390602111816
8190.0,1058.0,-4.4381,0.0879,8.2941,-0.04,-0.0124,-0.1129,-1.7589465580382289,-0.07827920466661453,2.585373878479004,-1.5373482704162598,-1.8607614054498294e-26,2.0184054374694824,5.169098841934957,-0.0006467181374318898,0.1460968405008316,-1.5968697706805628,0.00011439569789217785,0.050673957914114,0.7427974343299866,-0.0,0.0036360016092658043,0.8292578458786011,0.0014899388188496232,-0.19680295884609222
8190.0,1058.0,-4.4381,0.0879,8.2941,-0.04,-0.0124,-0.1129,-1.7592994175352992,-0.08282695710659027,2.591141939163208,-1.5374723672866821,-3.3493053969052744e-30,2.055352210998535,5.169118839293279,-0.00043002766324207187,0.14130662381649017,-1.5968497435199183,0.00010974590259138495,0.038636475801467896,0.7427657842636108,-0.0,0.007554037496447563,0.8293180465698242,0.0017688277876004577,-0.15236222743988037
8190.0,1058.0,-4.4381,0.0879,8.2941,-0.04,-0.0124,-0.1129,-1.7597996197142542,-0.08877481520175934,2.538917064666748,-1.5374207496643066,-8.08817958298024e-36,2.069453239440918,5.169086533575811,-0.0004294668906368315,0.1512206494808197,-1.5968497435199183,0.00010343899339204654,0.05475299805402756,0.7427694797515869,-0.0,-0.018764037638902664,0.829265832901001,0.001738583785481751,-0.18569216132164001
8190.0,1058.0,-4.4381,0.0879,8.2941,-0.04,-0.0124,-0.1129,-1.7603641949095667,-0.09233172237873077,2.5852725505828857,-1.5374600887298584,0.00011508194438647479,2.066807270050049,5.169090646296301,-0.0007066072430461645,0.14263886213302612,-1.5968859831439417,9.781771223060787e-05,0.044222161173820496,0.7427850365638733,-0.0,-0.007020075339823961,0.8292776942253113,0.002010954078286886,-0.20410694181919098
8190.0,1058.0,-4.4381,0.0879,8.2941,-0.04,-0.0124,-0.1129,-1.7609411678709925,-0.09642170369625092,2.5409610271453857,-1.5375003814697266,6.810837476223242e-07,2.0529446601867676,5.1690508899982355,-0.0028116425964981318,0.14837652444839478,-1.5968459288226526,9.277590288547799e-05,0.07357227802276611,0.7427611947059631,-0.0,0.0011078137904405594,0.8293339014053345,0.0019463365897536278,-0.15000775456428528
8190.0,1058.0,-4.4381,0.0879,8.2941,-0.04,-0.0124,-0.1129,-1.7615863285460414,-0.10482046008110046,2.563201427459717,-1.5374927520751953,1.6447372977457242e-12,2.029135227203369,5.168982821493902,-0.004884097725152969,0.14121919870376587,-1.5968697706805628,9.914459224091843e-05,0.05203799903392792,0.7427616119384766,-0.0,0.008917789906263351,0.8293542265892029,0.0016786030028015375,-0.18847376108169556
8190.0,1058.0,-4.4381,0.0879,8.2941,-0.04,-0.0124,-0.1129,-1.7621742687621058,-0.11328188329935074,2.530701160430908,-1.537468433380127,3.971847504696884e-18,2.105517864227295,5.168974983483114,-0.006251160986721516,0.1473427414894104,-1.5968459288226526,9.812245116336271e-05,0.05476480722427368,0.7428218722343445,-0.0,-0.0031204696279019117,0.8293578624725342,0.0011432759929448366,-0.13690444827079773
8190.0,1058.0,-4.4381,0.0879,8.2941,-0.04,-0.0124,-0.1129,-1.7629081211485804,-0.12164194881916046,2.505654811859131,-1.537400245666504,9.591543598694252e-24,2.0691776275634766,5.168975341110983,-0.007059796247631311,0.13807933032512665,-1.59682542482485,9.374327783007175e-05,0.06357596069574356,0.742805540561676,-0.0,0.0026676831766963005,0.8293057084083557,0.0006489063962362707,-0.20470136404037476
8190.0,1058.0,-4.4381,0.0879,8.2941,-0.04,-0.0124,-0.1129,-1.7633124790587367,-0.12426836788654327,2.480518102645874,-1.5374042987823486,1.7264442392705448e-27,2.070960521697998,5.168951260834493,-0.006810022983700037,0.13559994101524353,-1.5968578497516077,9.103416232392192e-05,0.048487577587366104,0.7428054809570312,-0.0,-0.00973786786198616,0.8293179273605347,0.0005035497597418725,-0.1782553791999817
8190.0,1058.0,-4.4381,0.0879,8.2941,-0.04,-0.0124,-0.1129,-1.7640773258604945,-0.1312885284423828,2.4994561672210693,-1.5374681949615479,4.169159976865978e-33,2.057950496673584,5.168915259629049,-0.005499895196408033,0.1445826143026352,-1.5968659559832972,8.725175575818866e-05,0.06552045047283173,0.7428014278411865,-0.0,0.009767924435436726,0.8293262124061584,0.0003769477771129459,-0.2129373401403427
8190.0,1058.0,-4.4381,0.0879,8.2941,-0.04,-0.0124,-0.1129,-1.7648869953551234,-0.1336236149072647,2.495260238647461,-1.5374486446380615,1.0068029588302445e-38,2.0856382846832275,5.168907421618261,-0.004053393844515085,0.14588916301727295,-1.5968897978412073,8.377127960557118e-05,0.05547213554382324,0.7428218722343445,-0.0,0.0005250071990303695,0.8293097615242004,0.00030122933094389737,-0.26520147919654846
8190.0,1058.0,-4.4381,0.0879,8.2941,-0.04,-0.0124,-0.1129,-1.765663286248678,-0.134023517370224,2.5189054012298584,-1.5374321937561035,0.00010609694436425343,2.1017239093780518,5.168923425465383,-0.0030072375666350126,0.13598938286304474,-1.5968778769122522,9.20626480365172e-05,0.06332283467054367,0.7427973747253418,-0.0,0.008714020252227783,0.8292815089225769,0.00020068029698450118,-0.23914197087287903
8190.0,1058.0,-4.4381,0.0879,8.2941,-0.04,-0.0124,-0.1129,-1.7665087185301722,-0.139450803399086,2.505664587020874,-1.5374445915222168,4.510341750574298e-05,2.0457777976989746,5.168839412718572,-0.002725794445723295,0.15135180950164795,-1.5968897978412073,8.866474672686309e-05,0.041623182594776154,0.7427813410758972,-0.0,0.0104938680306077,0.8293380737304688,0.000171922700246796,-0.2377987504005432
8190.0,1058.0,-4.4381,0.0879,8.2941,-0.04,-0.0124,-0.1129,-1.7673942051329554,-0.14684194326400757,2.5579278469085693,-1.5374281406402588,5.497009283317311e-07,2.056100368499756,5.168763178377905,-0.004097530618309975,0.14964723587036133,-1.5968578497516077,8.550588972866535e-05,0.050470247864723206,0.7427973747253418,-0.0,0.007451984565705061,0.8292815089225769,0.00015037719276733696,-0.17262446880340576
1137.0,8190.0,-4.5631,0.1836,8.1398,-0.0287,-0.1061,-0.1185,-1.7679501972594203,-0.15111039578914642,2.4853320121765137,-1.537400245666504,9.89442208720881e-11,2.049940824508667,5.16879557350234,-0.005510863848030567,0.12018239498138428,-1.5968378225909632,8.35220780572854e-05,0.04775793477892876,0.7427730560302734,-0.0,0.0006375482771545649,0.829346239566803,0.0001387820957461372,-0.20485877990722656
1137.0,8190.0,-4.5631,0.1836,8.1398,-0.0287,-0.1061,-0.1185,-1.768778463403219,-0.16217944025993347,2.5133490562438965,-1.5375008583068848,2.3893867705801833e-16,2.084658622741699,5.168752062111654,-0.008569923229515553,0.1482158899307251,-1.5968940893756312,8.071320917224512e-05,0.06316445767879486,0.7428138256072998,-0.0,0.0029730687383562326,0.8292694687843323,0.00012439496640581638,-0.1751936674118042
1137.0,8190.0,-4.5631,0.1836,8.1398,-0.0287,-0.1061,-0.1185,-1.7697683773436488,-0.16805203258991241,2.5113539695739746,-1.5374526977539062,5.770087624052792e-22,1.9888298511505127,5.168724226742544,-0.011174162849783897,0.1262551248073578,-1.5968859831439417,6.712967319799645e-07,0.06636513769626617,0.7427940368652344,-0.0,7.35982321202755e-05,0.8292736411094666,0.00011271089169895276,-0.22816398739814758
1137.0,8190.0,-4.5631,0.1836,8.1398,-0.0287,-0.1061,-0.1185,-1.7707983456053675,-0.16804878413677216,2.550549268722534,-1.537408471107483,1.3934081962412263e-27,2.0375053882598877,5.168675887375631,-0.01234594639390707,0.14110198616981506,-1.5968459288226526,1.868579180275276e-10,0.06293356418609619,0.7427493333816528,-0.0,-0.004571938421577215,0.8292856216430664,7.728933996986598e-05,-0.17725640535354614
1137.0,8190.0,-4.5631,0.1836,8.1398,-0.0287,-0.1061,-0.1185,-1.771738668481344,-0.16762706637382507,2.5642004013061523,-1.537424921989441,0.0010299490531906486,2.0579745769500732,5.168579685478964,-0.012716996483504772,0.14824382960796356,-1.5968416372882288,5.2012600227236555e-14,0.045236434787511826,0.7427776455879211,-0.0,-0.018012288957834244,0.8292616605758667,-5.174840407562442e-05,-0.15724405646324158
1137.0,8190.0,-4.5631,0.1836,8.1398,-0.0287,-0.1061,-0.1185,-1.772808691064352,-0.1756954938173294,2.5774049758911133,-1.5373882055282593,0.0007678873953409493,2.103482961654663,5.168556201248922,-0.014040890149772167,0.1438576728105545,-1.5968535582171839,1.4477899070415553e-17,0.04368768259882927,0.7427694797515869,-0.0,-0.00228098314255476,0.8292940855026245,-4.7659428673796356e-05,-0.13726574182510376
1137.0,8190.0,-4.5631,0.1836,8.1398,-0.0287,-0.1061,-0.1185,-1.7738658390440882,-0.17966017127037048,2.5579166412353516,-1.5374289751052856,0.0005625137710012496,2.1269640922546387,5.1684361574943445,-0.016817446798086166,0.15175768733024597,-1.5968535582171839,4.029976284537901e-21,0.04629814997315407,0.7427776455879211,-0.0,0.003848046762868762,0.8292694687843323,-6.534184649353847e-05,-0.20504069328308105
1137.0,8190.0,-4.5631,0.1836,8.1398,-0.0287,-0.1061,-0.1185,-1.7745992145934046,-0.18165746331214905,2.60099458694458,-1.5373681783676147,0.0004772591055370867,2.077986717224121,5.1683804271514795,-0.019857874140143394,0.15677474439144135,-1.59682542482485,1.7180420216800215e-23,0.04723513126373291,0.742793619632721,-0.0,0.001846015453338623,0.8292818069458008,-6.313124322332442e-05,-0.20594921708106995
1137.0,8190.0,-4.5631,0.1836,8.1398,-0.0287,-0.1061,-0.1185,-1.7756725750365199,-0.18132929503917694,2.617896556854248,-1.5374362468719482,0.00036436101072467864,2.104184150695801,5.1682888744171045,-0.025221548974514008,0.1626550704240799,-1.596882168446676,4.78223388926318e-27,0.03785870596766472,0.7427895665168762,-0.0,-0.0027583830524235964,0.8292776942253113,-5.899322059121914e-05,-0.15738505125045776
1137.0,8190.0,-4.5631,0.1836,8.1398,-0.0287,-0.1061,-0.1185,-1.776773592034811,-0.1812031865119934,2.6688835620880127,-1.5374568700790405,0.0004066061519552022,2.1283555030822754,5.16808899024085,-0.03526576980948448,0.15624654293060303,-1.5969184080706995,1.3311523723626942e-30,0.04740707948803902,0.7427574992179871,-0.0,0.011212490499019623,0.8293102383613586,-3.691962774610147e-05,-0.1569518744945526
1137.0,8190.0,-4.5631,0.1836,8.1398,-0.0287,-0.1061,-0.1185,-1.7779399357237757,-0.19070668518543243,2.6476054191589355,-1.537408709526062,0.00034122541546821594,2.116004467010498,5.167829471617498,-0.04969564825296402,0.15937663614749908,-1.5968979040728968,3.7053113294816937e-34,0.05172688886523247,0.7427735328674316,-0.0,-0.0015671898145228624,0.8292653560638428,-3.477056816336699e-05,-0.14550936222076416
1137.0,8190.0,-4.5631,0.1836,8.1398,-0.0287,-0.1061,-0.1185,-1.7791100941100062,-0.20313622057437897,2.6562671661376953,-1.5373964309692383,0.000520631147082895,2.1112425327301025,5.167469936400213,-0.06595073640346527,0.14154687523841858,-1.5969017187701624,1.031386946724789e-37,0.03978385403752327,0.7427895665168762,-0.0,-0.011302530765533447,0.8292776942253113,-3.2865998946363106e-05,-0.13935628533363342
1137.0,8190.0,-4.5631,0.1836,8.1398,-0.0287,-0.1061,-0.1185,-1.7803718052306117,-0.2042919397354126,2.6898956298828125,-1.537388563156128,0.0017887812573462725,2.1207709312438965,5.167090880661764,-0.07129618525505066,0.16472919285297394,-1.5969260374652308,2.8708401638622527e-41,0.03535616025328636,0.7427534461021423,-0.0,0.005981009919196367,0.8293179273605347,-3.115921208518557e-05,-0.14371532201766968
1137.0,8190.0,-4.5631,0.1836,8.1398,-0.0287,-0.1061,-0.1185,-1.7811280689635218,-0.19670438766479492,2.699449300765991,-1.537336826324463,0.003915285691618919,2.1151864528656006,5.166816162853994,-0.06693000346422195,0.1551447957754135,-1.5969141165362757,1.2191296639625909e-43,0.035900384187698364,0.742781400680542,-0.0,0.008038236759603024,0.8292856216430664,-3.0116545531200245e-05,-0.11461909115314484
1137.0,8190.0,-4.5631,0.1836,8.1398,-0.0287,-0.1061,-0.1185,-1.7824188671507777,-0.19129955768585205,2.735891342163086,-1.5373563766479492,0.005119492299854755,2.1589083671569824,5.166472780495443,-0.053461041301488876,0.17761611938476562,-1.5969184080706995,0.0,0.025193195790052414,0.7427534461021423,-0.0,-0.002345032524317503,0.8292617201805115,-1.4910629943187814e-05,-0.1379188746213913
1137.0,8190.0,-4.5631,0.1836,8.1398,-0.0287,-0.1061,-0.1185,-1.7836328945555628,-0.20091280341148376,2.767758846282959,-1.5373523235321045,0.0029955918435007334,2.144289493560791,5.166129606753149,-0.037325698882341385,0.17978432774543762,-1.5968816916095179,4.0633841535964166e-07,0.027427516877651215,0.7427534461021423,-0.0,0.00660605076700449,0.8293261528015137,-2.176332536407699e-08,-0.1605643928050995
8190.0,1052.0,-5.0536,0.2423,8.4814,-0.0159,-0.2137,-0.118,-1.7849461040892542,-0.2175307720899582,2.7311017513275146,-1.5373083353042603,0.0005487630842253566,2.144214630126953,5.165986257582464,-0.022424157708883286,0.17592817544937134,-1.5969341436969202,1.1310578168499674e-10,0.04037036746740341,0.7427735924720764,-0.0,0.0072140200063586235,0.829322099685669,-5.255586683081473e-14,-0.11234424263238907
8190.0,1052.0,-5.0536,0.2423,8.4814,-0.0159,-0.2137,-0.118,-1.7862760029234828,-0.22262169420719147,2.703003406524658,-1.5373203754425049,0.0001279244024772197,2.1181936264038086,5.1659185765083215,-0.005925542674958706,0.2088644951581955,-1.5968616644488733,3.148340827407656e-14,0.027809111401438713,0.7428136467933655,-0.0,0.009230591356754303,0.8292856216430664,-1.269162213144805e-19,-0.13763509690761566
8190.0,1052.0,-5.0536,0.2423,8.4814,-0.0159,-0.2137,-0.118,-1.787586351434225,-0.21560513973236084,2.7483654022216797,-1.537276268005371,0.00036137414281256497,2.1465353965759277,5.165934550553121,0.005938153248280287,0.20169523358345032,-1.596865479146139,8.763522813481811e-18,0.025499971583485603,0.742813766002655,-0.0,0.006657519843429327,0.8293261528015137,-3.0648774585840174e-25,-0.09157390892505646
8190.0,1052.0,-5.0536,0.2423,8.4814,-0.0159,-0.2137,-0.118,-1.7884789905943812,-0.21076950430870056,2.799571990966797,-1.537272572517395,0.0003164263325743377,2.135516405105591,5.165962803154745,0.005393160507082939,0.2061096429824829,-1.5968616644488733,3.736027475668239e-20,0.02298695221543312,0.742781400680542,-0.0,0.012089019641280174,0.829322099685669,-5.516671047595471e-29,-0.1436181366443634
8190.0,1052.0,-5.0536,0.2423,8.4814,-0.0159,-0.2137,-0.118,-1.7897206745543421,-0.216939315199852,2.787445068359375,-1.5373326539993286,0.00015813755453564227,2.1449227333068848,5.1659627435501,0.0018849889747798443,0.21670034527778625,-1.5968616644488733,1.0399370297798587e-23,0.015004996210336685,0.742793619632721,-0.0,0.020972972735762596,0.8293020129203796,0.0003865634207613766,-0.13480724394321442
8190.0,1052.0,-5.0536,0.2423,8.4814,-0.0159,-0.2137,-0.118,-1.7910591564574183,-0.22711479663848877,2.7354912757873535,-1.537280559539795,3.126961019006558e-07,2.1135635375976562,5.165982770710745,2.618592588987667e-06,0.21692809462547302,-1.5968735853778284,2.8947021731421646e-27,0.020330416038632393,0.7428337335586548,-0.0,-0.0034513454884290695,0.8293538093566895,0.0006886193878017366,-0.0562032125890255
8190.0,1052.0,-5.0536,0.2423,8.4814,-0.0159,-0.2137,-0.118,-1.7923609218993128,-0.22761233150959015,2.8127853870391846,-1.5373042821884155,7.551243701511834e-13,2.153747797012329,5.16596685627059,7.28894944401759e-10,0.2202398180961609,-1.5969060103045862,8.057510663304629e-31,0.017509393393993378,0.7427816987037659,-0.0,-0.0009603933431208134,0.829322099685669,0.0007495114696212113,-0.04947529733181
8190.0,1052.0,-5.0536,0.2423,8.4814,-0.0159,-0.2137,-0.118,-1.7937313518919886,-0.22242438793182373,2.821974754333496,-1.5372968912124634,1.823536617575707e-18,2.0884015560150146,5.165974575072088,2.0289057434987046e-13,0.21397994458675385,-1.5968816916095179,2.2428374816504147e-34,0.016080152243375778,0.7427612543106079,-0.0,0.011502544395625591,0.8293740749359131,0.0006340356776490808,-0.024450501427054405
8190.0,1052.0,-5.0536,0.2423,8.4814,-0.0159,-0.2137,-0.118,-1.7950688801207484,-0.22527362406253815,2.8031511306762695,-1.5372886657714844,4.403626676779045e-24,2.142580986022949,5.165934550553121,5.647534604047414e-17,0.21297062933444977,-1.5968893210040491,6.243021758267224e-38,0.026381243020296097,0.7428054809570312,-0.0,-0.004926449619233608,0.8293460011482239,0.000673554081004113,-0.07958388328552246
8190.0,1052.0,-5.0536,0.2423,8.4814,-0.0159,-0.2137,-0.118,-1.7963501415648402,-0.22762645781040192,2.8152620792388916,-1.5372965335845947,1.0634239607369251e-29,2.1376867294311523,5.165966826468267,1.572011840834707e-20,0.21665076911449432,-1.5968616644488733,1.7377502256092056e-41,0.01843665912747383,0.7427694797515869,-0.0,0.00040851521771401167,0.8293337225914001,0.0011859788792207837,-0.11266173422336578
8190.0,1052.0,-5.0536,0.2423,8.4814,-0.0159,-0.2137,-0.118,-1.7973200283446253,-0.2249225378036499,2.8050854206085205,-1.537320613861084,1.9141252260400953e-33,2.1369776725769043,5.165946501284399,6.701733110425276e-23,0.22893404960632324,-1.5968378225909632,7.42688186092153e-44,0.015736300498247147,0.7427854537963867,-0.0,0.0016402110923081636,0.8293496966362,0.0016499642515555024,-0.07423710078001022
8190.0,1052.0,-5.0536,0.2423,8.4814,-0.0159,-0.2137,-0.118,-1.798650404016012,-0.2241424173116684,2.8437235355377197,-1.5373491048812866,4.6223875741512005e-39,2.126770257949829,5.165990936547079,1.865452200422379e-26,0.23152253031730652,-1.5969303289996546,0.0,0.021315384656190872,0.7427932620048523,-0.0,0.007763059809803963,0.8293617367744446,0.0016363827744498849,-0.08576209843158722
8190.0,1052.0,-5.0536,0.2423,8.4814,-0.0159,-0.2137,-0.118,-1.8000160656371058,-0.226101815700531,2.8625669479370117,-1.5373165607452393,1.1210387714598537e-44,2.104677677154541,5.165950524597921,5.1925553944748815e-30,0.2136041522026062,-1.596893612538473,0.0,0.011992251500487328,0.7428533434867859,-0.0,0.008952796459197998,0.8293576240539551,0.001857189112342894,-0.04911809414625168
8190.0,1052.0,-5.0536,0.2423,8.4814,-0.0159,-0.2137,-0.118,-1.801338335076803,-0.2284131795167923,2.812166213989258,-1.5372602939605713,-0.0,2.1119110584259033,5.165982740908422,1.4453669152779607e-33,0.22379589080810547,-1.59691030183901,0.0,0.014623795635998249,0.742809534072876,-0.0,-0.0006249239668250084,0.8293981552124023,0.002512451959773898,-0.056180261075496674
8190.0,1052.0,-5.0536,0.2423,8.4814,-0.0159,-0.2137,-0.118,-1.8026195965208949,-0.2261020988225937,2.895599842071533,-1.5372684001922607,-0.0,2.1432812213897705,5.165950524597921,4.023231475059033e-37,0.2334141731262207,-1.5969303289996546,0.0,0.00411661621183157,0.742781400680542,-0.0,0.01614018715918064,0.8293657898902893,0.0027208130341023207,-0.052263565361499786
8190.0,1052.0,-5.0536,0.2423,8.4814,-0.0159,-0.2137,-0.118,-1.8040138683714808,-0.23119056224822998,2.856346607208252,-1.537256121635437,0.0002119640412274748,2.164804458618164,5.165926325112142,1.119875693734464e-40,0.23508930206298828,-1.5969260374652308,0.0,0.006517770700156689,0.7428054809570312,-0.0,-0.0002984292805194855,0.8294383883476257,0.0024069203063845634,0.0021052286028862
1045.0,1037.0,-2.9312,0.1645,8.8863,-0.0327,-0.2604,-0.1084,-1.8049594364561976,-0.23289081454277039,2.8680129051208496,-1.5372602939605713,0.0002583555178716779,2.1166532039642334,5.165982860117712,4.778427763347626e-43,0.22537298500537872,-1.5968979040728968,0.0,0.010200267657637596,0.7428337335586548,-0.0,-0.001806134358048439,0.829442024230957,0.0025818687863647938,-0.03835998475551605
1045.0,1037.0,-2.9312,0.1645,8.8863,-0.0327,-0.2604,-0.1084,-1.806305547753805,-0.22637373208999634,2.8907485008239746,-1.5372569561004639,0.0008815355249680579,2.147287368774414,5.1659181890781305,0.0,0.22228732705116272,-1.5969222227679651,0.0,0.02296390011906624,0.7427772283554077,-0.0,0.001739774364978075,0.8294338583946228,0.002369767753407359,-0.06042284891009331
1045.0,1037.0,-2.9312,0.1645,8.8863,-0.0327,-0.2604,-0.1084,-1.8076235256590785,-0.2189323455095291,2.877946376800537,-1.537280797958374,0.001697968109510839,2.1074788570404053,5.165938305645742,0.0009718830697238445,0.23194384574890137,-1.5969141165362757,0.0,0.01789971813559532,0.7427810430526733,-0.0,0.0014368878910318017,0.8294578194618225,0.0021056525874882936,-0.0722258985042572
1045.0,1037.0,-2.9312,0.1645,8.8863,-0.0327,-0.2604,-0.1084,-1.8090373478331507,-0.2246599644422531,2.9279391765594482,-1.5372285842895508,0.00101555697619915,2.080362558364868,5.165998804360189,0.0009910694789141417,0.22824591398239136,-1.5969060103045862,0.0,0.01649538241326809,0.7427493929862976,-0.0,0.0023516372311860323,0.8294377326965332,0.0028388365171849728,-0.03460188955068588
1045.0,1037.0,-2.9312,0.1645,8.8863,-0.0327,-0.2604,-0.1084,-1.8104073009886683,-0.23287414014339447,2.899298667907715,-1.5372529029846191,0.0006110312533564866,2.103177070617676,5.165994393616476,0.000673207629006356,0.26117342710494995,-1.5968855063067835,0.0,0.002339369850233197,0.7427452802658081,-0.0,-0.010894350707530975,0.8295140266418457,0.003529148641973734,-0.02462542988359928
1045.0,1037.0,-2.9312,0.1645,8.8863,-0.0327,-0.2604,-0.1084,-1.8117848835387171,-0.23419664800167084,2.8511857986450195,-1.5372529029846191,0.0005562619771808386,2.111795425415039,5.165938246041097,0.0005772550357505679,0.242498517036438,-1.5968979040728968,0.0,0.012659727595746517,0.742797315120697,-0.0,0.0026476006023585796,0.8295181393623352,0.003635321743786335,-0.012855809181928635
1045.0,1037.0,-2.9312,0.1645,8.8863,-0.0327,-0.2604,-0.1084,-1.813331743279928,-0.22661924362182617,2.8941009044647217,-1.5372203588485718,0.0003714101912919432,2.1736886501312256,5.166010397463598,0.00042819371446967125,0.24394482374191284,-1.5968692938434046,0.0,-0.0030542288441210985,0.7427694797515869,-0.0,0.004850398749113083,0.8295220136642456,0.0030206928495317698,-0.007978368550539017
1045.0,1037.0,-2.9312,0.1645,8.8863,-0.0327,-0.2604,-0.1084,-1.8141728840269984,-0.2255059778690338,2.9172964096069336,-1.5372203588485718,0.0004223688447382301,2.114621162414551,5.165966498642721,0.0004647458263207227,0.24075421690940857,-1.5969017187701624,0.0,-0.006121518090367317,0.7427932024002075,-0.0,0.008661393076181412,0.8295661807060242,0.002733886241912842,0.002240093657746911
1045.0,1037.0,-2.9312,0.1645,8.8863,-0.0327,-0.2604,-0.1084,-1.8156029186644496,-0.23372578620910645,2.9082822799682617,-1.5372487306594849,0.0003064920019824058,2.1077375411987305,5.165998446732321,0.0004119219083804637,0.2445772886276245,-1.5968812147723597,0.0,0.012118477374315262,0.742821455001831,-0.0,0.006297752261161804,0.8296021819114685,0.0036554881371557713,-0.040214501321315765
1045.0,1037.0,-2.9312,0.1645,8.8863,-0.0327,-0.2604,-0.1084,-1.8170892200865687,-0.23966076970100403,2.93666410446167,-1.5372364521026611,0.00020277559815440327,2.0932912826538086,5.1659865258033655,0.00035156685044057667,0.23916307091712952,-1.5968692938434046,0.0,-0.0010466547682881355,0.7427612543106079,-0.0,0.008887982927262783,0.8295659422874451,0.004120861645787954,-0.0006898213177919388
1045.0,1037.0,-2.9312,0.1645,8.8863,-0.0327,-0.2604,-0.1084,-1.8185235462584437,-0.2317815124988556,2.961571216583252,-1.5372244119644165,0.00022730471391696483,2.17521333694458,5.165982472687521,0.0003066369390580803,0.25629478693008423,-1.5969060103045862,0.0,0.0009264789987355471,0.7428054809570312,-0.0,0.004342253319919109,0.8296144008636475,0.004011393059045076,-0.048630233854055405
1045.0,1037.0,-2.9312,0.1645,8.8863,-0.0327,-0.2604,-0.1084,-1.8199049435057582,-0.22678899765014648,2.9581503868103027,-1.5371843576431274,0.00018159713363274932,2.1193437576293945,5.16597460487441,0.00027189197135157883,0.24714377522468567,-1.5969255606280726,0.0,0.0038174556102603674,0.7427973747253418,-0.0,-0.0013385325437411666,0.829605758190155,0.0035649635829031467,0.03341810032725334
1045.0,1037.0,-2.9312,0.1645,8.8863,-0.0327,-0.2604,-0.1084,-1.8212629757323207,-0.23258501291275024,2.933668613433838,-1.5372529029846191,-0.00018063088646158576,2.146595001220703,5.165942358761587,0.00022162780805956572,0.25346019864082336,-1.5969136396991175,0.0,0.012723108753561974,0.7428014278411865,-0.0,-0.007287126965820789,0.8297103047370911,0.0037888246588408947,-0.019389865919947624
1045.0,1037.0,-2.9312,0.1645,8.8863,-0.0327,-0.2604,-0.1084,-1.8222047291197718,-0.23803219199180603,2.9380927085876465,-1.5372529029846191,-0.0002358158235438168,2.12998628616333,5.165946471482076,0.0002001498214667663,0.24731533229351044,-1.5968893210040491,0.0,0.008721858263015747,0.7427854537963867,-0.0,-0.008433664217591286,0.8296864032745361,0.004186800215393305,0.014424344524741173
1045.0,1037.0,-2.9312,0.1645,8.8863,-0.0327,-0.2604,-0.1084,-1.8235494099059046,-0.2348734438419342,2.941922664642334,-1.5372405052185059,-0.00014895919593982399,2.103266716003418,5.165962415724554,0.00018270355940330774,0.24843253195285797,-1.5969184080706995,0.0,-0.004312136676162481,0.7427535653114319,-0.0,-0.0005937136011198163,0.8296741247177124,0.0034810251090675592,0.03755274415016174
1045.0,1037.0,-2.9312,0.1645,8.8863,-0.0327,-0.2604,-0.1084,-1.8249646625914515,-0.2296302765607834,2.9956247806549072,-1.5372527837753296,-3.517647201078944e-06,2.1053853034973145,5.165934192925253,0.00019208322919439524,0.2428673803806305,-1.5969417730914515,0.0,0.005858303047716618,0.7427973747253418,-0.0,-0.0050336262211203575,0.8297062516212463,0.0026424818206578493,0.029774509370326996
1016.0,977.0,-3.4828,0.3392,9.6826,-0.0338,-0.2211,-0.1193,-1.8262978992857875,-0.2282600849866867,2.979893207550049,-1.5372285842895508,-8.494704072103954e-12,2.108659029006958,5.165958630829611,0.00017785468662623316,0.2459886074066162,-1.5968893210040491,0.0,0.014474517665803432,0.7428497076034546,-0.0,0.0024197681341320276,0.8296777606010437,0.00179683871101588,0.009353986009955406
1016.0,977.0,-3.4828,0.3392,9.6826,-0.0338,-0.2211,-0.1193,-1.827615877191061,-0.22359353303909302,2.9758424758911133,-1.5371923446655273,-2.0513713577484338e-17,2.162759780883789,5.165966498642721,0.00016558340576011688,0.24826191365718842,-1.5969098250018519,0.0,0.0030832698103040457,0.7427249550819397,-0.0,-0.0071789855137467384,0.8297463655471802,0.0016077066538855433,-0.008200030773878098
1016.0,977.0,-3.4828,0.3392,9.6826,-0.0338,-0.2211,-0.1193,-1.829010625878805,-0.22184929251670837,2.991741180419922,-1.5372611284255981,-4.953821186113423e-23,2.120298385620117,5.165958630829611,0.0001361909235129133,0.2574962377548218,-1.596893612538473,0.0,0.004545548465102911,0.7427616715431213,-0.0,-0.0012447740882635117,0.8297058343887329,0.0017903160769492388,-0.022294897586107254
1016.0,977.0,-3.4828,0.3392,9.6826,-0.0338,-0.2211,-0.1193,-1.8302999935545863,-0.22112537920475006,2.9784440994262695,-1.5372285842895508,-1.1962894590261872e-28,2.1294491291046143,5.165946441679754,0.00012731719471048564,0.2580508291721344,-1.5969341436969202,0.0,-0.0037843245081603527,0.7427654266357422,-0.0,-0.006688990164548159,0.8297339677810669,0.0018455691169947386,0.004313691519200802
1016.0,977.0,-3.4828,0.3392,9.6826,-0.0338,-0.2211,-0.1193,-1.8311616382994593,-0.22283443808555603,2.961817741394043,-1.5372285842895508,-2.1532786333599282e-32,2.116123914718628,5.165954577713766,5.438907101051882e-05,0.2542988061904907,-1.5968855063067835,0.0,0.015168191865086555,0.7428255677223206,-0.0,0.009720513597130775,0.8297501802444458,0.0016747143818065524,0.01667504571378231
1016.0,977.0,-3.4828,0.3392,9.6826,-0.0338,-0.2211,-0.1193,-1.8324667416014613,-0.2243698388338089,3.00137996673584,-1.537264347076416,-5.199914799602331e-38,2.113632917404175,5.165950524597921,4.111960151931271e-05,0.23992204666137695,-1.5969060103045862,0.0,-0.0006578755564987659,0.7427936792373657,-0.0,-0.0008626792696304619,0.8297460675239563,0.0018165711080655456,0.020352132618427277
1016.0,977.0,-3.4828,0.3392,9.6826,-0.0338,-0.2211,-0.1193,-1.83374085048818,-0.22312413156032562,3.056774616241455,-1.5372569561004639,-1.2611686178923354e-43,2.142425537109375,5.165926325112142,3.847972766379826e-05,0.25471633672714233,-1.59691030183901,0.0,0.0020640576258301735,0.7427810430526733,-0.0,0.0029061506502330303,0.8297863006591797,0.0017115805530920625,-0.03297491371631622
1016.0,977.0,-3.4828,0.3392,9.6826,-0.0338,-0.2211,-0.1193,-1.8350144825377406,-0.22461861371994019,3.0413413047790527,-1.537200689315796,-0.0,2.1119322776794434,5.165930497437277,3.616056710598059e-05,0.26714593172073364,-1.5968692938434046,0.0,0.0006650695577263832,0.7428218126296997,-0.0,-0.011289579793810844,0.8298064470291138,0.0013594846241176128,0.0109831802546978
1016.0,977.0,-3.4828,0.3392,9.6826,-0.0338,-0.2211,-0.1193,-1.8363729916014613,-0.22383888065814972,2.9958577156066895,-1.537212610244751,-0.0,2.105289936065674,5.165930497437277,3.410509816603735e-05,0.2539673149585724,-1.5969017187701624,0.0,0.005019455216825008,0.7428137063980103,-0.0,0.005614187568426132,0.8297863006591797,0.0009955064160749316,-0.006159855984151363
1016.0,977.0,-3.4828,0.3392,9.6826,-0.0338,-0.2211,-0.1193,-1.8377577267088832,-0.212840735912323,3.039510726928711,-1.5371443033218384,-0.0,2.1194229125976562,5.165922212391653,4.840136898565106e-05,0.2570720911026001,-1.5969341436969202,0.0,0.002499842783436179,0.742781400680542,-0.0,-0.003313282039016485,0.8297945261001587,0.0008869573357515037,-0.026320133358240128
1016.0,977.0,-3.4828,0.3392,9.6826,-0.0338,-0.2211,-0.1193,-1.8385678730406703,-0.20790539681911469,3.029144525527954,-1.5372047424316406,0.0014985029119998217,2.1350786685943604,5.165958630829611,4.673049261327833e-05,0.24471129477024078,-1.5968893210040491,0.0,0.0028292681090533733,0.7428296804428101,-0.0,-0.006625145208090544,0.8298105001449585,0.0008588269702158868,-0.02373616024851799
1016.0,977.0,-3.4828,0.3392,9.6826,-0.0338,-0.2211,-0.1193,-1.8398510418333949,-0.2095472514629364,3.007357358932495,-1.5371557474136353,0.0011365797836333513,2.0983545780181885,5.165906297951498,4.4423850340535864e-05,0.260540634393692,-1.596893612538473,0.0,0.007802275940775871,0.7428217530250549,-0.0,0.002491581253707409,0.8297821879386902,0.0011177343549206853,-0.00047303270548582077
1016.0,977.0,-3.4828,0.3392,9.6826,-0.0338,-0.2211,-0.1193,-1.84118713955068,-0.22359946370124817,3.0190863609313965,-1.5372529029846191,0.00035327402292750776,2.166384696960449,5.165974664479055,-3.805991218541749e-05,0.25073009729385376,-1.5969060103045862,0.0,0.01433547306805849,0.7428136467933655,-0.0,-0.008398694917559624,0.8297941088676453,0.0015955767594277859,-0.02446690946817398
1016.0,977.0,-3.4828,0.3392,9.6826,-0.0338,-0.2211,-0.1193,-1.842517992059225,-0.22965198755264282,3.0175399780273438,-1.5372326374053955,0.0003334091161377728,2.106151580810547,5.165958630829611,-8.814941793389153e-06,0.2567622661590576,-1.5968855063067835,0.0,0.012670956552028656,0.742821455001831,-0.0,0.006214061286300421,0.8298503160476685,0.001727351569570601,-0.029385913163423538
1016.0,977.0,-3.4828,0.3392,9.6826,-0.0338,-0.2211,-0.1193,-1.8439012966551722,-0.22081255912780762,3.039191961288452,-1.5371928215026855,0.00030451820930466056,2.132354259490967,5.165954577713766,-2.4536717102563443e-09,0.2438722401857376,-1.5969017187701624,0.0,0.014887782745063305,0.7428455948829651,-0.0,-0.005985212046653032,0.8298180103302002,0.0013123523676767945,-0.01599065214395523
1004.0,930.0,-3.3344,0.2034,9.5163,-0.0223,-0.2053,-0.1153,-1.8452607593932093,-0.21673701703548431,3.010439872741699,-1.537184476852417,0.0017651611706241965,2.1389052867889404,5.165978747397222,-6.829885506980105e-13,0.24750293791294098,-1.5969303289996546,0.0,0.0033933648373931646,0.7427973747253418,-0.0,0.003084715688601136,0.8298020362854004,0.000975396076682955,-0.03062276914715767
1004.0,930.0,-3.3344,0.2034,9.5163,-0.0223,-0.2053,-0.1153,-1.8461843929686488,-0.2221006453037262,3.0626959800720215,-1.5371721982955933,0.0015006513567641377,2.1120214462280273,5.165922271996298,-2.9116871911314453e-15,0.24724450707435608,-1.59691030183901,0.0,0.008650179021060467,0.7427973747253418,-0.0,-0.003142012283205986,0.8298624157905579,0.0008410963346250355,-0.02296566218137741
1004.0,930.0,-3.3344,0.2034,9.5163,-0.0223,-0.2053,-0.1153,-1.8475352726378382,-0.23055677115917206,3.0619335174560547,-1.5371928215026855,0.0009262746316380799,2.136709213256836,5.166010725289144,-8.104787503110281e-19,0.25823163986206055,-1.5969503561602991,0.0,0.016953375190496445,0.7427850961685181,-0.0,0.00246804254129529,0.8298664689064026,0.0011990891071036458,-0.04221247881650925
1004.0,930.0,-3.3344,0.2034,9.5163,-0.0223,-0.2053,-0.1153,-1.8489381275572718,-0.22562910616397858,3.0771565437316895,-1.537176251411438,0.0006682173698209226,2.0552868843078613,5.16596685627059,-2.2559975433965124e-22,0.25806236267089844,-1.5969222227679651,0.0,0.013597321696579456,0.742809534072876,-0.0,0.004920650273561478,0.8298624157905579,0.0017739649629220366,-0.07123207300901413
1004.0,930.0,-3.3344,0.2034,9.5163,-0.0223,-0.2053,-0.1153,-1.8503090343871058,-0.2195538580417633,3.081818103790283,-1.5371607542037964,0.0003129832912236452,2.1058483123779297,5.1659066555793665,-6.279652047706836e-26,0.25683990120887756,-1.5968855063067835,0.0,-0.005340208765119314,0.7427694797515869,-0.0,0.006251803599298,0.8298783898353577,0.0017169289058074355,-0.0007653818465769291
1004.0,930.0,-3.3344,0.2034,9.5163,-0.0223,-0.2053,-0.1153,-1.8516198597350062,-0.22030413150787354,3.0806081295013428,-1.5371441841125488,-0.0005130511708557606,2.1219675540924072,5.165946471482076,-1.7479645383394102e-29,0.2519347667694092,-1.5969341436969202,0.0,-0.009050603024661541,0.7428137063980103,-0.0,-0.004953471943736076,0.8298661112785339,0.0019119568169116974,0.03824596852064133
1004.0,930.0,-3.3344,0.2034,9.5163,-0.0223,-0.2053,-0.1153,-1.8530079327025355,-0.2316075712442398,3.0722880363464355,-1.537200689315796,-0.0013982848031446338,2.099713087081909,5.165934550553121,-4.865522830293101e-33,0.25495684146881104,-1.5969260374652308,0.0,-0.006286472547799349,0.7427691221237183,-0.0,0.009395640343427658,0.8299346566200256,0.002692517591640353,-0.026396706700325012
1004.0,930.0,-3.3344,0.2034,9.5163,-0.0223,-0.2053,-0.1153,-1.8543464146056117,-0.23169651627540588,3.07917857170105,-1.5371763706207275,-0.000867447059135884,2.115696430206299,5.165942686587133,-1.354336177160126e-36,0.2535446882247925,-1.5969298521624964,0.0,0.008194349706172943,0.7428136467933655,-0.0,0.008523823693394661,0.8299384713172913,0.0023195198737084866,0.012239552102982998
1004.0,930.0,-3.3344,0.2034,9.5163,-0.0223,-0.2053,-0.1153,-1.8552619419493617,-0.22736883163452148,3.0683672428131104,-1.5372087955474854,-0.00019559091015253216,2.073499917984009,5.16596685627059,-5.7737476417821146e-39,0.24618393182754517,-1.5968893210040491,0.0,0.006603018380701542,0.7428255677223206,-0.0,0.012844601646065712,0.8299264311790466,0.0019370527006685734,-0.0199088454246521
1004.0,930.0,-3.3344,0.2034,9.5163,-0.0223,-0.2053,-0.1153,-1.8565813503661097,-0.22433410584926605,3.060433864593506,-1.5372087955474854,-2.843413726694166e-09,2.1328392028808594,5.165918606310644,-1.6072893385805652e-42,0.25833043456077576,-1.5969379583941858,0.0,0.015254978090524673,0.742841899394989,-0.0,0.007602106314152479,0.8299503922462463,0.0013644641730934381,-0.027217498049139977
1004.0,930.0,-3.3344,0.2034,9.5163,-0.0223,-0.2053,-0.1153,-1.8579641781248988,-0.22609809041023254,3.0474672317504883,-1.5372010469436646,-6.866509432850191e-15,2.1162164211273193,5.1659103510673425,-0.0,0.2582281827926636,-1.5969255606280726,0.0,0.0046625519171357155,0.7427772879600525,-0.0,0.013365022838115692,0.8299100995063782,0.0013915345771238208,0.0004147430881857872
