ramyac6/ROB537/final_project/csv/all/bad_90.csv
tof_0,tof_1,accelx,accely,accelz,gyrox,gyroy,gyroz,shoulder_lift_joint_position,shoulder_lift_joint_velocity,shoulder_lift_joint_effort,elbow_joint_position,elbow_joint_velocity,elbow_joint_effort,wrist_1_joint_position,wrist_1_joint_velocity,wrist_1_joint_effort,wrist_2_joint_position,wrist_2_joint_velocity,wrist_2_joint_effort,wrist_3_joint_position,wrist_3_joint_velocity,wrist_3_joint_effort,shoulder_pan_joint_position,shoulder_pan_joint_velocity,shoulder_pan_joint_effort
617.0,598.0,6.8004,-1.3777,6.0574,-0.0217,0.0148,-0.1188,-1.5241917830756684,0.0,1.9118642807006836,-1.4299266338348389,-0.0,2.144561290740967,3.680699034328125,-0.0,0.2554020285606384,-1.361962620412008,0.0,-0.01938892900943756,0.7537716627120972,0.0,-0.004714261274784803,0.8611007928848267,0.0,-0.0012135491706430912
617.0,598.0,6.8004,-1.3777,6.0574,-0.0217,0.0148,-0.1188,-1.5242079396596928,0.0,2.000613212585449,-1.429915189743042,-0.0,2.1126527786254883,3.6807185846516113,-0.0,0.2664436101913452,-1.3620317617999476,0.0,-0.0131846833974123,0.7538155913352966,0.0,-0.011384614743292332,0.8611007928848267,0.0,0.005991637706756592
617.0,598.0,6.8004,-1.3777,6.0574,-0.0217,0.0148,-0.1188,-1.5242120561054726,0.0,1.949721336364746,-1.4299147129058838,-0.0,2.1485164165496826,3.6807309824177246,-0.0,0.27071207761764526,-1.361995045338766,0.0,-0.024820400401949883,0.753799557685852,0.0,-0.010469426400959492,0.8611212968826294,0.0,0.03070756047964096
617.0,598.0,6.8004,-1.3777,6.0574,-0.0217,0.0148,-0.1188,-1.5241473291865368,0.0,1.9773287773132324,-1.4299147129058838,-0.0,2.159140110015869,3.680755301112793,-0.0,0.25763434171676636,-1.361962620412008,0.0,-0.018744833767414093,0.7538557648658752,0.0,-0.00754079082980752,0.8611413836479187,0.0,0.017073526978492737
617.0,598.0,6.8004,-1.3777,6.0574,-0.0217,0.0148,-0.1188,-1.5241917830756684,0.0,1.9563817977905273,-1.4298781156539917,-0.0,2.0926079750061035,3.6807147699543457,-0.0,0.2527841329574585,-1.3620274702655237,0.0,-0.021158743649721146,0.7538237571716309,0.0,-0.010528596118092537,0.8611253499984741,0.0,0.03536596521735191
617.0,598.0,6.8004,-1.3777,6.0574,-0.0217,0.0148,-0.1188,-1.5241756227663537,0.0,1.9434958696365356,-1.4298781156539917,-0.0,2.173276662826538,3.680767698878906,-0.0,0.2751641869544983,-1.3620317617999476,0.0,-0.033702950924634933,0.7538159489631653,0.0,-0.0024279486387968063,0.8611007928848267,0.0,0.0203916784375906
617.0,598.0,6.8004,-1.3777,6.0574,-0.0217,0.0148,-0.1188,-1.5241632548025628,0.0,1.917365550994873,-1.4298863410949707,-0.0,2.1312034130096436,3.6807591158100585,-0.0,0.2645725607872009,-1.3620231787311,0.0,-0.015672532841563225,0.7538516521453857,0.0,-0.005840335972607136,0.8611171245574951,0.0,-0.03297683224081993
617.0,598.0,6.8004,-1.3777,6.0574,-0.0217,0.0148,-0.1188,-1.5241755966893216,0.0,1.9240221977233887,-1.429927110671997,-0.0,2.11761474609375,3.680722876186035,-0.0,0.256124347448349,-1.3620317617999476,0.0,-0.034447573125362396,0.7537914514541626,0.0,-0.007991552352905273,0.8611413836479187,0.0,0.04881919175386429
611.0,8190.0,6.6802,-1.3848,6.1448,-0.0397,0.0305,-0.1199,-1.5241514307311554,0.0,1.9314358234405518,-1.4299110174179077,-0.0,2.200767993927002,3.680755301112793,-0.0,0.25015637278556824,-1.3620031515704554,0.0,-0.021695494651794434,0.7538962960243225,0.0,-0.0055029261857271194,0.8611088991165161,0.0,-0.03858228772878647
611.0,8190.0,6.6802,-1.3848,6.1448,-0.0397,0.0305,-0.1199,-1.5241472844830533,0.0,1.9300804138183594,-1.4299029111862183,-0.0,2.148564338684082,3.680722876186035,-0.0,0.2627566456794739,-1.362039868031637,0.0,-0.02335595339536667,0.7538356781005859,0.0,-0.007094209082424641,0.8610807061195374,0.0,-0.006705687381327152
611.0,8190.0,6.6802,-1.3848,6.1448,-0.0397,0.0305,-0.1199,-1.5241797652891655,0.0,1.8780627250671387,-1.4299147129058838,-0.0,2.1351053714752197,3.680703325862549,-0.0,0.26684367656707764,-1.3619988600360315,0.0,-0.019471537321805954,0.7538799047470093,0.0,-0.004134553950279951,0.8610847592353821,0.0,-0.006469849031418562
611.0,8190.0,6.6802,-1.3848,6.1448,-0.0397,0.0305,-0.1199,-1.5241917756250878,0.0,1.9821314811706543,-1.4298779964447021,-0.0,2.1663990020751953,3.680739565486572,-0.0,0.2640551030635834,-1.3619988600360315,0.0,-0.02397722378373146,0.7538197040557861,0.0,-0.0038143182173371315,0.8611049652099609,0.0,0.0019677486270666122
611.0,8190.0,6.6802,-1.3848,6.1448,-0.0397,0.0305,-0.1199,-1.5241514232805748,0.0,1.9627238512039185,-1.429898738861084,-0.0,2.1078124046325684,3.6806866365620117,-0.0,0.26153916120529175,-1.3620274702655237,0.0,-0.026767689734697342,0.7537757158279419,0.0,-0.00993469636887312,0.8611007928848267,0.0,-0.009079789742827415
611.0,8190.0,6.6802,-1.3848,6.1448,-0.0397,0.0305,-0.1199,-1.5241633106819172,0.0,1.954054355621338,-1.429898738861084,-0.0,2.157038688659668,3.680739565486572,-0.0,0.2524937391281128,-1.3620274702655237,0.0,-0.02283773198723793,0.7538803219795227,0.0,-0.0031821553129702806,0.8611372709274292,0.0,0.003048501443117857
611.0,8190.0,6.6802,-1.3848,6.1448,-0.0397,0.0305,-0.1199,-1.5241715733757992,0.0,1.9765911102294922,-1.4299349784851074,-0.0,2.1379384994506836,3.680727167720459,-0.0,0.2638675570487976,-1.3619869391070765,0.0,-0.017526905983686447,0.7538033127784729,0.0,0.0034358499106019735,0.8610889315605164,0.0,0.0009811010677367449
611.0,8190.0,6.6802,-1.3848,6.1448,-0.0397,0.0305,-0.1199,-1.5241715547493477,0.0,1.9066755771636963,-1.4298863410949707,-0.0,2.1700351238250732,3.6807195383259277,-0.0,0.25772958993911743,-1.3620355764972132,0.0,-0.023805851116776466,0.7538356781005859,0.0,-0.020844196900725365,0.8611171245574951,0.0,-0.02169984020292759
611.0,8190.0,6.6802,-1.3848,6.1448,-0.0397,0.0305,-0.1199,-1.5241637279144307,0.0,1.92203950881958,-1.4299147129058838,-0.0,2.1830697059631348,3.680739088649414,-0.0,0.256231427192688,-1.36204702058901,0.0,-0.008702952414751053,0.7538397312164307,0.0,-0.006608160212635994,0.8611575365066528,0.0,-0.028836572542786598
611.0,8190.0,6.6802,-1.3848,6.1448,-0.0397,0.0305,-0.1199,-1.5242159117809315,0.0,1.9484505653381348,-1.4298946857452393,-0.0,2.1424834728240967,3.6807352739521484,-0.0,0.262179434299469,-1.3619988600360315,0.0,-0.025327768176794052,0.7538400888442993,0.0,-0.013271281495690346,0.8610807061195374,0.0,0.01641552895307541
611.0,8190.0,6.6802,-1.3848,6.1448,-0.0397,0.0305,-0.1199,-1.5241431978395958,0.0,1.9708082675933838,-1.429935336112976,-0.0,2.1538543701171875,3.680699034328125,-0.0,0.26343488693237305,-1.3620274702655237,0.0,-0.02322150394320488,0.753843367099762,0.0,-0.009232521057128906,0.8611007928848267,0.0,0.004598541185259819
611.0,8190.0,6.6802,-1.3848,6.1448,-0.0397,0.0305,-0.1199,-1.524175376897194,0.0,1.9668028354644775,-1.429898738861084,-0.0,2.126173496246338,3.680699034328125,-0.0,0.2574657201766968,-1.3620150724994105,0.0,-0.017133275046944618,0.7538598775863647,0.0,-0.0159746166318655,0.8611049652099609,0.0,-0.02628147602081299
611.0,8190.0,6.6802,-1.3848,6.1448,-0.0397,0.0305,-0.1199,-1.5242038641921063,0.0,1.958878755569458,-1.429870843887329,-0.0,2.185077428817749,3.6806952196308593,-0.0,0.26070186495780945,-1.3620317617999476,0.0,-0.01995183899998665,0.7538237571716309,0.0,-0.0005700802430510521,0.8611171245574951,0.0,-0.010089349001646042
611.0,8190.0,6.6802,-1.3848,6.1448,-0.0397,0.0305,-0.1199,-1.5241877262345334,0.0,1.9001847505569458,-1.4298903942108154,-0.0,2.1188697814941406,3.680722876186035,-0.0,0.25663721561431885,-1.3619912306415003,0.0,-0.030362417921423912,0.7538237571716309,0.0,-0.008106431923806667,0.8611049652099609,0.0,-0.004324057139456272
611.0,8190.0,6.6802,-1.3848,6.1448,-0.0397,0.0305,-0.1199,-1.5241956275752564,0.0,1.9369337558746338,-1.429946780204773,-0.0,2.1531341075897217,3.6807114320942382,-0.0,0.26933184266090393,-1.3619864622699183,0.0,-0.025841262191534042,0.7537913918495178,0.0,-0.020274527370929718,0.861137330532074,0.0,-0.005685601383447647
611.0,8190.0,6.6802,-1.3848,6.1448,-0.0397,0.0305,-0.1199,-1.5241715547493477,0.0,1.9490777254104614,-1.4299466609954834,-0.0,2.1430537700653076,3.6807638841816406,-0.0,0.26309552788734436,-1.3620107809649866,0.0,-0.01669522374868393,0.7537996172904968,0.0,-0.018549425527453423,0.8611007928848267,0.0,-0.03411748260259628
632.0,559.0,6.8267,-1.3603,6.0897,-0.0376,0.0166,-0.1139,-1.5241715472987671,0.0,1.9446048736572266,-1.429890513420105,-0.0,2.095747232437134,3.6807514864155273,-0.0,0.26549339294433594,-1.361990753804342,0.0,-0.020373672246932983,0.7538475394248962,0.0,-0.002560543827712536,0.8611331582069397,0.0,-0.032498423010110855
632.0,559.0,6.8267,-1.3603,6.0897,-0.0376,0.0166,-0.1139,-1.5241918054274102,0.0,1.96453857421875,-1.4298460483551025,-0.0,2.1165475845336914,3.680722876186035,-0.0,0.261421799659729,-1.3620317617999476,0.0,-0.018591877073049545,0.7538479566574097,0.0,-0.01709684357047081,0.8611049652099609,0.0,0.0012768268352374434
632.0,559.0,6.8267,-1.3603,6.0897,-0.0376,0.0166,-0.1139,-1.5242038641921063,0.0,1.9600574970245361,-1.429837942123413,-0.0,2.1629834175109863,3.6806790071674804,-0.0,0.2637098729610443,-1.3619745413409632,0.0,-0.013135862536728382,0.7538438439369202,0.0,-0.007836485281586647,0.8611049652099609,0.0,-0.025469481945037842
632.0,559.0,6.8267,-1.3603,6.0897,-0.0376,0.0166,-0.1139,-1.5241715472987671,0.0,1.9817872047424316,-1.429918885231018,-0.0,2.1494674682617188,3.680771513576172,-0.0,0.267456591129303,-1.361978832875387,0.0,-0.035887863487005234,0.7538155317306519,0.0,-0.009529385715723038,0.8611007928848267,0.0,0.04954221472144127
632.0,559.0,6.8267,-1.3603,6.0897,-0.0376,0.0166,-0.1139,-1.5241715137711545,0.0,1.9290449619293213,-1.4298903942108154,-0.0,2.161684036254883,3.6807266908833007,-0.0,0.2533072829246521,-1.3620274702655237,0.0,-0.01764931157231331,0.7538556456565857,0.0,0.010117575526237488,0.8610848188400269,0.0,0.006978986319154501
632.0,559.0,6.8267,-1.3603,6.0897,-0.0376,0.0166,-0.1139,-1.5241633106819172,0.0,1.871821641921997,-1.4298542737960815,-0.0,2.0831971168518066,3.680743380183838,-0.0,0.26503753662109375,-1.3620107809649866,0.0,-0.017970021814107895,0.7538802623748779,0.0,-0.009577939286828041,0.8611331582069397,0.0,0.020598091185092926
632.0,559.0,6.8267,-1.3603,6.0897,-0.0376,0.0166,-0.1139,-1.5241715472987671,0.0,1.9403467178344727,-1.4299147129058838,-0.0,2.151726007461548,3.680715723628662,-0.0,0.2642606198787689,-1.3620479742633265,0.0,-0.019085213541984558,0.753875732421875,0.0,0.0015085306949913502,0.8611171245574951,0.0,-0.05580327659845352
632.0,559.0,6.8267,-1.3603,6.0897,-0.0376,0.0166,-0.1139,-1.524191540931799,0.0,1.9293403625488281,-1.429918885231018,-0.0,2.16072678565979,3.6806503969379882,-0.0,0.2538846433162689,-1.3620432058917444,0.0,-0.013562042266130447,0.7538598775863647,0.0,0.006057129707187414,0.8611493110656738,0.0,0.011502307839691639
632.0,559.0,6.8267,-1.3603,6.0897,-0.0376,0.0166,-0.1139,-1.5242038939944287,0.0,1.9670556783676147,-1.429915189743042,-0.0,2.1397762298583984,3.680722876186035,-0.0,0.26877346634864807,-1.3619864622699183,0.0,-0.0146615169942379,0.7538160085678101,0.0,-0.0031694709323346615,0.8611049652099609,0.0,0.00886900257319212
632.0,559.0,6.8267,-1.3603,6.0897,-0.0376,0.0166,-0.1139,-1.5241233643940468,0.0,1.9475030899047852,-1.429906964302063,-0.0,2.147123336791992,3.6807185846516113,-0.0,0.25967922806739807,-1.361995045338766,0.0,-0.02893751859664917,0.7538278698921204,0.0,-0.007258736994117498,0.8611171245574951,0.0,0.0013883024221286178
632.0,559.0,6.8267,-1.3603,6.0897,-0.0376,0.0166,-0.1139,-1.5241555210999032,0.0,1.9147179126739502,-1.429898738861084,-0.0,2.123816728591919,3.6807309824177246,-0.0,0.26663291454315186,-1.3619988600360315,0.0,-0.018103159964084625,0.75385981798172,0.0,-0.01676592230796814,0.8611088991165161,0.0,-0.030682964250445366
632.0,559.0,6.8267,-1.3603,6.0897,-0.0376,0.0166,-0.1139,-1.5242038641921063,0.0,1.9373013973236084,-1.429870843887329,-0.0,2.1679725646972656,3.680727167720459,-0.0,0.2609570026397705,-1.3620150724994105,0.0,-0.014964822679758072,0.7538597583770752,0.0,-0.005813287105411291,0.8611131906509399,0.0,0.0003203270025551319
632.0,559.0,6.8267,-1.3603,6.0897,-0.0376,0.0166,-0.1139,-1.5241997589221974,0.0,1.9986908435821533,-1.4299029111862183,-0.0,2.1340065002441406,3.6806389528461914,-0.0,0.2605670988559723,-1.3619988600360315,0.0,-0.034349698573350906,0.7538799047470093,0.0,-0.0014339247718453407,0.8610807061195374,0.0,0.03580218926072121
632.0,559.0,6.8267,-1.3603,6.0897,-0.0376,0.0166,-0.1139,-1.5241958995214482,0.0,1.9215161800384521,-1.4298501014709473,-0.0,2.1738028526306152,3.6807071405598144,-0.0,0.2586787939071655,-1.3620355764972132,0.0,-0.020169921219348907,0.7538840174674988,0.0,-0.01910705491900444,0.8611290454864502,0.0,0.02824014239013195
632.0,559.0,6.8267,-1.3603,6.0897,-0.0376,0.0166,-0.1139,-1.5241715472987671,0.0,1.9639302492141724,-1.429927110671997,-0.0,2.0699148178100586,3.6806866365620117,-0.0,0.26198962330818176,-1.362006966267721,0.0,-0.023943940177559853,0.7538438439369202,0.0,-0.007810533046722412,0.8611212968826294,0.0,0.010710087604820728
632.0,559.0,6.8267,-1.3603,6.0897,-0.0376,0.0166,-0.1139,-1.5241633032313366,0.0,1.917445182800293,-1.4299070835113525,-0.0,2.1555490493774414,3.680727167720459,-0.0,0.26879873871803284,-1.361990753804342,0.0,-0.007880330085754395,0.753847599029541,0.0,-0.008199822157621384,0.8611007928848267,0.0,0.010253376327455044
618.0,620.0,6.7143,-1.4399,6.2435,-0.037,0.0249,-0.1159,-1.5242079396596928,0.0,1.9505810737609863,-1.4299029111862183,-0.0,2.1408534049987793,3.6807185846516113,-0.0,0.27440211176872253,-1.3620317617999476,0.0,-0.0021845661103725433,0.7538316249847412,0.0,0.004129023291170597,0.861137330532074,0.0,-0.03847227245569229
618.0,620.0,6.7143,-1.4399,6.2435,-0.037,0.0249,-0.1159,-1.5241637428155919,0.0,1.947326898574829,-1.4299349784851074,-0.0,2.136035203933716,3.6807185846516113,-0.0,0.2673991024494171,-1.3620551268206995,0.0,-0.02154446765780449,0.75385981798172,0.0,-0.00348181976005435,0.8610966801643372,0.0,-0.017817234620451927
618.0,620.0,6.7143,-1.4399,6.2435,-0.037,0.0249,-0.1159,-1.5241555509022255,0.0,1.9460498094558716,-1.4299029111862183,-0.0,2.1354258060455322,3.6807352739521484,-0.0,0.26171204447746277,-1.361978832875387,0.0,-0.019371353089809418,0.7538196444511414,0.0,-0.006249623838812113,0.8610925674438477,0.0,0.0020842701196670532
618.0,620.0,6.7143,-1.4399,6.2435,-0.037,0.0249,-0.1159,-1.5241473142853756,0.0,1.8921682834625244,-1.4299147129058838,-0.0,2.1118955612182617,3.6807185846516113,-0.0,0.2645720839500427,-1.3620637098895472,0.0,-0.019976774230599403,0.7538196444511414,0.0,-0.01420633215457201,0.8610807061195374,0.0,0.012713332660496235
618.0,620.0,6.7143,-1.4399,6.2435,-0.037,0.0249,-0.1159,-1.5241473142853756,0.0,1.9272985458374023,-1.429927110671997,-0.0,2.150634288787842,3.6806909280964355,-0.0,0.26080626249313354,-1.361978832875387,0.0,-0.013852175325155258,0.7538516521453857,0.0,-0.01113695278763771,0.8611254096031189,0.0,-0.01099495217204094
618.0,620.0,6.7143,-1.4399,6.2435,-0.037,0.0249,-0.1159,-1.5242200803807755,0.0,1.9311825037002563,-1.429890513420105,-0.0,2.100839376449585,3.680739565486572,-0.0,0.2640961706638336,-1.3620231787311,0.0,-0.029465999454259872,0.753811776638031,0.0,-0.006171538028866053,0.861068606376648,0.0,-0.029922449961304665
618.0,620.0,6.7143,-1.4399,6.2435,-0.037,0.0249,-0.1159,-1.5241473291865368,0.0,1.903313398361206,-1.4298903942108154,-0.0,2.153128147125244,3.680699034328125,-0.0,0.27148759365081787,-1.3620317617999476,0.0,-0.014398128725588322,0.753811776638031,0.0,-0.01585421711206436,0.8611249327659607,0.0,0.03244512155652046
618.0,620.0,6.7143,-1.4399,6.2435,-0.037,0.0249,-0.1159,-1.524167438303568,0.0,1.9393621683120728,-1.4298864603042603,-0.0,2.1442174911499023,3.680727167720459,-0.0,0.26223811507225037,-1.362006966267721,0.0,-0.030234595760703087,0.7538278102874756,0.0,-0.013276403769850731,0.8610807061195374,0.0,0.02904357574880123
618.0,620.0,6.7143,-1.4399,6.2435,-0.037,0.0249,-0.1159,-1.5241877187839528,0.0,1.9306118488311768,-1.4298821687698364,-0.0,2.1302216053009033,3.680722876186035,-0.0,0.2520550787448883,-1.361995045338766,0.0,-0.014331702142953873,0.7538316249847412,0.0,-0.0006740842945873737,0.861044704914093,0.0,-0.013753855600953102
618.0,620.0,6.7143,-1.4399,6.2435,-0.037,0.0249,-0.1159,-1.5241956275752564,0.0,1.9413983821868896,-1.4298781156539917,-0.0,2.1619982719421387,3.680722876186035,-0.0,0.26565107703208923,-1.3620389143573206,0.0,-0.013117309659719467,0.7537717223167419,0.0,0.006373366806656122,0.8610807061195374,0.0,-0.0036449264734983444
618.0,620.0,6.7143,-1.4399,6.2435,-0.037,0.0249,-0.1159,-1.524159626369812,0.0,1.9263681173324585,-1.4298864603042603,-0.0,2.121778964996338,3.6807309824177246,-0.0,0.25951677560806274,-1.3620107809649866,0.0,-0.015269102528691292,0.7538803815841675,0.0,-0.0033210688270628452,0.8611007928848267,0.0,0.03913246840238571
618.0,620.0,6.7143,-1.4399,6.2435,-0.037,0.0249,-0.1159,-1.5242200654796143,0.0,2.0064101219177246,-1.4298986196517944,-0.0,2.152087450027466,3.680767698878906,-0.0,0.26664087176322937,-1.3620231787311,0.0,-0.019718043506145477,0.7538356781005859,0.0,-0.008722047321498394,0.8610966801643372,0.0,0.031161360442638397
618.0,620.0,6.7143,-1.4399,6.2435,-0.037,0.0249,-0.1159,-1.5241555509022255,0.0,1.9163308143615723,-1.429910659790039,-0.0,2.1359915733337402,3.6807352739521484,-0.0,0.2694686949253082,-1.3620432058917444,0.0,-0.029299285262823105,0.7538922429084778,0.0,-0.00708744116127491,0.8610966801643372,0.0,0.027402052655816078
618.0,620.0,6.7143,-1.4399,6.2435,-0.037,0.0249,-0.1159,-1.524171532397606,0.0,1.9620282649993896,-1.429955005645752,-0.0,2.1486568450927734,3.680703325862549,-0.0,0.2604158818721771,-1.3619745413409632,0.0,-0.0024370718747377396,0.75385981798172,0.0,-0.008241955190896988,0.8611410856246948,0.0,-0.02102690562605858
618.0,620.0,6.7143,-1.4399,6.2435,-0.037,0.0249,-0.1159,-1.5241876889816304,0.0,1.9773836135864258,-1.4298821687698364,-0.0,2.130312442779541,3.6807476717182617,-0.0,0.2495311200618744,-1.3620317617999476,0.0,-0.023228716105222702,0.7538438439369202,0.0,-0.006913470104336739,0.8611254096031189,0.0,-0.011361269280314445
604.0,576.0,6.6981,-1.392,6.0544,-0.044,0.0284,-0.1155,-1.5241633106819172,0.0,1.990670084953308,-1.4299266338348389,-0.0,2.1777515411376953,3.6807114320942382,-0.0,0.251228928565979,-1.3620513121234339,0.0,-0.02409256249666214,0.7537873983383179,0.0,-0.014519778080284595,0.8610930442810059,0.0,0.058477237820625305
604.0,576.0,6.6981,-1.392,6.0544,-0.044,0.0284,-0.1155,-1.524151438181736,0.0,1.9233671426773071,-1.4298946857452393,-0.0,2.123281717300415,3.680699034328125,-0.0,0.2612389922142029,-1.3620355764972132,0.0,-0.014206664636731148,0.7538356781005859,0.0,-0.01307325903326273,0.8611171245574951,0.0,0.008680514059960842
604.0,576.0,6.6981,-1.392,6.0544,-0.044,0.0284,-0.1155,-1.5241472546807309,0.0,1.9115028381347656,-1.429910659790039,-0.0,2.1960291862487793,3.6807309824177246,-0.0,0.261844277381897,-1.3619912306415003,0.0,-0.027121270075440407,0.7538197040557861,0.0,0.0015500136651098728,0.8611090779304504,0.0,0.04500381648540497
604.0,576.0,6.6981,-1.392,6.0544,-0.044,0.0284,-0.1155,-1.5242117841592808,0.0,1.9154882431030273,-1.4298906326293945,-0.0,2.168257713317871,3.6807352739521484,-0.0,0.26416048407554626,-1.3620474974261683,0.0,-0.024189572781324387,0.7538639307022095,0.0,0.004998836200684309,0.8610930442810059,0.0,-0.008760789409279823
604.0,576.0,6.6981,-1.392,6.0544,-0.044,0.0284,-0.1155,-1.5241555509022255,0.0,1.9230411052703857,-1.42986261844635,-0.0,2.146263599395752,3.6807471948811035,-0.0,0.2769553065299988,-1.3620150724994105,0.0,-0.020147712901234627,0.7538679838180542,0.0,-0.008644891902804375,0.8611007928848267,0.0,0.002794944681227207
604.0,576.0,6.6981,-1.392,6.0544,-0.044,0.0284,-0.1155,-1.5241756227663537,0.0,1.9182994365692139,-1.4299266338348389,-0.0,2.133054256439209,3.6807753282734375,-0.0,0.2566053867340088,-1.3619831244098108,0.0,-0.024658335372805595,0.7537832856178284,0.0,-0.009764673188328743,0.8611212968826294,0.0,-0.020244838669896126
604.0,576.0,6.6981,-1.392,6.0544,-0.044,0.0284,-0.1155,-1.5241959442249318,0.0,1.9133195877075195,-1.4298781156539917,-0.0,2.123899221420288,3.680722876186035,-0.0,0.2608475685119629,-1.3619988600360315,0.0,-0.023091081529855728,0.7538720965385437,0.0,-0.008935562334954739,0.8611617088317871,0.0,0.015175816603004932
604.0,576.0,6.6981,-1.392,6.0544,-0.044,0.0284,-0.1155,-1.5241997440210362,0.0,1.9566669464111328,-1.429898738861084,-0.0,2.131542205810547,3.6806952196308593,-0.0,0.2574215233325958,-1.3620031515704554,0.0,-0.02138340473175049,0.7538278102874756,0.0,-0.009278529323637486,0.861137330532074,0.0,0.017592059448361397
604.0,576.0,6.6981,-1.392,6.0544,-0.044,0.0284,-0.1155,-1.5241513897529622,0.0,1.9242088794708252,-1.4299147129058838,-0.0,2.195256233215332,3.6807476717182617,-0.0,0.2730671763420105,-1.3620513121234339,0.0,-0.016227038577198982,0.7538278102874756,0.0,-0.014334240928292274,0.8611007928848267,0.0,-0.008112059906125069
604.0,576.0,6.6981,-1.392,6.0544,-0.044,0.0284,-0.1155,-1.5241674308529873,0.0,1.9255595207214355,-1.429870843887329,-0.0,2.075139045715332,3.6807071405598144,-0.0,0.25889408588409424,-1.3620756308185022,0.0,-0.01976836659014225,0.7537955045700073,0.0,-0.012115388177335262,0.8611171245574951,0.0,-0.02449832297861576
604.0,576.0,6.6981,-1.392,6.0544,-0.044,0.0284,-0.1155,-1.524179470991232,0.0,1.902480125427246,-1.42986261844635,-0.0,2.171987771987915,3.680710478419922,-0.0,0.24376195669174194,-1.3619750181781214,0.0,-0.020900987088680267,0.7538761496543884,0.0,-0.018728122115135193,0.8611007928848267,0.0,-0.02222459390759468
604.0,576.0,6.6981,-1.392,6.0544,-0.044,0.0284,-0.1155,-1.5242038641921063,0.0,1.9599170684814453,-1.4298584461212158,-0.0,2.1180882453918457,3.6807185846516113,-0.0,0.2601463794708252,-1.3619831244098108,0.0,-0.01771845854818821,0.7537758350372314,0.0,0.005994904786348343,0.8610966801643372,0.0,0.002735810587182641
604.0,576.0,6.6981,-1.392,6.0544,-0.044,0.0284,-0.1155,-1.5241915111294766,0.0,1.9389057159423828,-1.4299229383468628,-0.0,2.109673500061035,3.6807595926472167,-0.0,0.26627957820892334,-1.3620274702655237,0.0,-0.02079789713025093,0.7538679838180542,0.0,-0.010342326015233994,0.8611413836479187,0.0,0.05112515017390251
604.0,576.0,6.6981,-1.392,6.0544,-0.044,0.0284,-0.1155,-1.5241715472987671,0.0,1.95256769657135,-1.4299710988998413,-0.0,2.181267738342285,3.6807114320942382,-0.0,0.25735610723495483,-1.3620355764972132,0.0,-0.01921840012073517,0.7538438439369202,0.0,-0.011518184095621109,0.8611090779304504,0.0,0.06361912935972214
604.0,576.0,6.6981,-1.392,6.0544,-0.044,0.0284,-0.1155,-1.5241633032313366,0.0,1.941732406616211,-1.429898738861084,-0.0,2.1042466163635254,3.680727167720459,-0.0,0.2634452283382416,-1.3620107809649866,0.0,-0.026869215071201324,0.7538118362426758,0.0,-0.00834963470697403,0.8611254096031189,0.0,0.02601799927651882
604.0,576.0,6.6981,-1.392,6.0544,-0.044,0.0284,-0.1155,-1.5241918128779908,0.0,1.9447109699249268,-1.4299306869506836,-0.0,2.128725051879883,3.680715723628662,-0.0,0.26065120100975037,-1.36204702058901,0.0,-0.025379959493875504,0.7538114786148071,0.0,-0.014798318035900593,0.8610966801643372,0.0,-0.026933979243040085
591.0,620.0,6.7848,-1.3334,5.9916,-0.0376,0.0246,-0.1177,-1.5241959442249318,0.0,1.8814449310302734,-1.429854393005371,-0.0,2.1369035243988037,3.6807147699543457,-0.0,0.2661467492580414,-1.3620274702655237,0.0,-0.029601551592350006,0.7538356781005859,0.0,-0.01465208176523447,0.8611007928848267,0.0,-0.021925659850239754
591.0,620.0,6.7848,-1.3334,5.9916,-0.0376,0.0246,-0.1177,-1.5242200580290337,0.0,1.9636561870574951,-1.429946780204773,-0.0,2.1253671646118164,3.6806909280964355,-0.0,0.2642209827899933,-1.361995045338766,0.0,-0.0203190166503191,0.7538679838180542,0.0,-0.00906488299369812,0.8610889315605164,0.0,-0.04671933874487877
591.0,620.0,6.7848,-1.3334,5.9916,-0.0376,0.0246,-0.1177,-1.5241715472987671,0.0,1.9306286573410034,-1.429906964302063,-0.0,2.098475456237793,3.680722876186035,-0.0,0.26760226488113403,-1.3620231787311,0.0,-0.019396495074033737,0.753847599029541,0.0,-0.020235031843185425,0.8611372709274292,0.0,-0.040201760828495026
591.0,620.0,6.7848,-1.3334,5.9916,-0.0376,0.0246,-0.1177,-1.5241233569434662,0.0,1.966759204864502,-1.429890513420105,-0.0,2.1003036499023438,3.680699034328125,-0.0,0.2568219006061554,-1.3620150724994105,0.0,-0.010777318850159645,0.7538237571716309,0.0,-0.0064699589274823666,0.8611212968826294,0.0,0.042646121233701706
591.0,620.0,6.7848,-1.3334,5.9916,-0.0376,0.0246,-0.1177,-1.5241794449141999,0.0,1.948594093322754,-1.4299147129058838,-0.0,2.21136474609375,3.6807514864155273,-0.0,0.2571048438549042,-1.3620150724994105,0.0,-0.01368776150047779,0.7538516521453857,0.0,-0.007879018783569336,0.8611534833908081,0.0,-0.00981091521680355
591.0,620.0,6.7848,-1.3334,5.9916,-0.0376,0.0246,-0.1177,-1.5241555658033867,0.0,1.9378753900527954,-1.429854393005371,-0.0,2.1384575366973877,3.680727167720459,-0.0,0.26710349321365356,-1.3620718161212366,0.0,-0.03776540607213974,0.753811776638031,0.0,0.0008112667128443718,0.8611493110656738,0.0,-0.0018174061551690102
591.0,620.0,6.7848,-1.3334,5.9916,-0.0376,0.0246,-0.1177,-1.5241514083794137,0.0,1.9313242435455322,-1.429906964302063,-0.0,2.13688063621521,3.680739565486572,-0.0,0.2664357125759125,-1.3619707266436976,0.0,-0.0175248384475708,0.7538274526596069,0.0,-0.015740182250738144,0.8611413836479187,0.0,-0.0006204076344147325
591.0,620.0,6.7848,-1.3334,5.9916,-0.0376,0.0246,-0.1177,-1.5241877262345334,0.0,1.9912927150726318,-1.42986261844635,-0.0,2.1548829078674316,3.6807114320942382,-0.0,0.27371087670326233,-1.3619912306415003,0.0,-0.029396798461675644,0.7538357377052307,0.0,-0.013273514807224274,0.8610847592353821,0.0,-0.011674800887703896
591.0,620.0,6.7848,-1.3334,5.9916,-0.0376,0.0246,-0.1177,-1.524159626369812,0.0,1.9924973249435425,-1.4298542737960815,-0.0,2.1219708919525146,3.680682345027588,-0.0,0.2733616232872009,-1.361990753804342,0.0,-0.021996311843395233,0.7537873387336731,0.0,-0.0033174720592796803,0.8611171245574951,0.0,-0.004101972095668316
591.0,620.0,6.7848,-1.3334,5.9916,-0.0376,0.0246,-0.1177,-1.5241555136493226,0.0,1.9527101516723633,-1.4298585653305054,-0.0,2.1289849281311035,3.6807076173969726,-0.0,0.25087156891822815,-1.3620107809649866,0.0,-0.023662786930799484,0.7538274526596069,0.0,-0.0010843982454389334,0.8611212968826294,0.0,-0.007328527979552746
591.0,620.0,6.7848,-1.3334,5.9916,-0.0376,0.0246,-0.1177,-1.5241836209646245,0.0,1.9301185607910156,-1.429870843887329,-0.0,2.1272048950195312,3.680727167720459,-0.0,0.2527373731136322,-1.3620274702655237,0.0,-0.024827469140291214,0.7538237571716309,0.0,-0.004601650405675173,0.8610889315605164,0.0,-0.011151719838380814
591.0,620.0,6.7848,-1.3334,5.9916,-0.0376,0.0246,-0.1177,-1.5241835874370118,0.0,1.9477410316467285,-1.4298946857452393,-0.0,2.154313802719116,3.680703325862549,-0.0,0.25232481956481934,-1.3620355764972132,0.0,-0.02005072683095932,0.7538557648658752,0.0,-0.02119791880249977,0.8611049652099609,0.0,-0.008981681428849697
591.0,620.0,6.7848,-1.3334,5.9916,-0.0376,0.0246,-0.1177,-1.5241431307843705,0.0,2.016395092010498,-1.4298781156539917,-0.0,2.198774814605713,3.680722876186035,-0.0,0.2679804563522339,-1.3620355764972132,0.0,-0.01662859320640564,0.7538437843322754,0.0,-0.013392060063779354,0.8610930442810059,0.0,0.011739684268832207
591.0,620.0,6.7848,-1.3334,5.9916,-0.0376,0.0246,-0.1177,-1.5241555509022255,0.0,1.9553638696670532,-1.4298748970031738,-0.0,2.160081386566162,3.680703325862549,-0.0,0.26491960883140564,-1.3619630972491663,0.0,-0.013576670549809933,0.7538074254989624,0.0,-0.013836199417710304,0.8610925674438477,0.0,-0.007873672060668468
591.0,620.0,6.7848,-1.3334,5.9916,-0.0376,0.0246,-0.1177,-1.5241756227663537,0.0,1.9332771301269531,-1.4299269914627075,-0.0,2.1644644737243652,3.6807023721882324,-0.0,0.27279072999954224,-1.3620074431048792,0.0,-0.0226447656750679,0.7537954449653625,0.0,-0.019369881600141525,0.8610925674438477,0.0,0.028151780366897583
582.0,578.0,6.6784,-1.4213,6.2345,-0.0414,0.0226,-0.1107,-1.524155118768551,0.0,1.9446196556091309,-1.4298945665359497,-0.0,2.1301307678222656,3.6807071405598144,-0.0,0.2605252265930176,-1.3620193640338343,0.0,-0.012086753733456135,0.7538679838180542,0.0,-0.0019638182129710913,0.8611534833908081,0.0,-0.05055079236626625
582.0,578.0,6.6784,-1.4213,6.2345,-0.0414,0.0226,-0.1107,-1.5241877187839528,0.0,1.9161492586135864,-1.429946780204773,-0.0,2.1377511024475098,3.6807471948811035,-0.0,0.2655330300331116,-1.3620513121234339,0.0,-0.02223258465528488,0.7538720369338989,0.0,-0.011589474976062775,0.8610925674438477,0.0,0.007233090698719025
582.0,578.0,6.6784,-1.4213,6.2345,-0.0414,0.0226,-0.1107,-1.5241997738233586,0.0,1.9523260593414307,-1.4299269914627075,-0.0,2.1352033615112305,3.6806952196308593,-0.0,0.2526524066925049,-1.3620317617999476,0.0,-0.03409145772457123,0.7537717223167419,0.0,0.006151787005364895,0.8611171245574951,0.0,0.014303256757557392
582.0,578.0,6.6784,-1.4213,6.2345,-0.0414,0.0226,-0.1107,-1.5241555397263546,0.0,1.9463341236114502,-1.4299306869506836,-0.0,2.1096694469451904,3.6807595926472167,-0.0,0.25818681716918945,-1.3619988600360315,0.0,-0.03485929220914841,0.7538240551948547,0.0,-0.023167839273810387,0.8611049652099609,0.0,0.006973717361688614
582.0,578.0,6.6784,-1.4213,6.2345,-0.0414,0.0226,-0.1107,-1.524260488604643,0.0,1.9285178184509277,-1.4299029111862183,-0.0,2.178225040435791,3.680743380183838,-0.0,0.2591322064399719,-1.3620274702655237,0.0,-0.02049284614622593,0.7538437843322754,0.0,-0.001802131300792098,0.8611007928848267,0.0,0.03430395573377609
582.0,578.0,6.6784,-1.4213,6.2345,-0.0414,0.0226,-0.1107,-1.5241514307311554,0.0,1.9458447694778442,-1.4298665523529053,-0.0,2.124107837677002,3.6807185846516113,-0.0,0.2419300228357315,-1.362006966267721,0.0,-0.03619936853647232,0.7538679838180542,0.0,-0.01633470132946968,0.8611373901367188,0.0,0.020819295197725296
582.0,578.0,6.6784,-1.4213,6.2345,-0.0414,0.0226,-0.1107,-1.5242038641921063,0.0,1.9126454591751099,-1.429898738861084,-0.0,2.1753921508789062,3.6807147699543457,-0.0,0.25130075216293335,-1.3620274702655237,0.0,-0.026358388364315033,0.7538197040557861,0.0,-0.004460630938410759,0.8610847592353821,0.0,0.031231645494699478
582.0,578.0,6.6784,-1.4213,6.2345,-0.0414,0.0226,-0.1107,-1.5241270375302811,0.0,1.9682278633117676,-1.4299266338348389,-0.0,2.211074113845825,3.6807514864155273,-0.0,0.24695518612861633,-1.3619988600360315,0.0,-0.01909591816365719,0.7538434267044067,0.0,-0.0024410549085587263,0.8611130714416504,0.0,-0.00030053872615098953
582.0,578.0,6.6784,-1.4213,6.2345,-0.0414,0.0226,-0.1107,-1.5241393980434914,0.0,1.9462515115737915,-1.429927110671997,-0.0,2.1224169731140137,3.680795355434082,-0.0,0.2611142098903656,-1.3620231787311,0.0,-0.026526346802711487,0.7538397312164307,0.0,-0.013071948662400246,0.8611295223236084,0.0,-0.03697804734110832
582.0,578.0,6.6784,-1.4213,6.2345,-0.0414,0.0226,-0.1107,-1.5241997440210362,0.0,1.9521102905273438,-1.4298946857452393,-0.0,2.164360523223877,3.6806909280964355,-0.0,0.26091083884239197,-1.3620513121234339,0.0,-0.028385739773511887,0.753807783126831,0.0,-0.009399001486599445,0.8610889911651611,0.0,0.019267037510871887
582.0,578.0,6.6784,-1.4213,6.2345,-0.0414,0.0226,-0.1107,-1.5241915558329602,0.0,1.9194532632827759,-1.429906964302063,-0.0,2.118875026702881,3.6806747156330566,-0.0,0.2552829086780548,-1.36204702058901,0.0,-0.018075164407491684,0.7538160085678101,0.0,-0.005460470449179411,0.8610768914222717,0.0,0.023894593119621277
582.0,578.0,6.6784,-1.4213,6.2345,-0.0414,0.0226,-0.1107,-1.5242360171726723,0.0,1.949135661125183,-1.429890513420105,-0.0,2.120833396911621,3.6807114320942382,-0.0,0.25869789719581604,-1.3619869391070765,0.0,-0.01915579102933407,0.7538759708404541,0.0,-0.011376849375665188,0.8611652851104736,0.0,0.008951501920819283
582.0,578.0,6.6784,-1.4213,6.2345,-0.0414,0.0226,-0.1107,-1.5241473142853756,0.0,1.9603054523468018,-1.429890513420105,-0.0,2.1468911170959473,3.680722876186035,-0.0,0.25913089513778687,-1.3620355764972132,0.0,-0.014374738559126854,0.7538719773292542,0.0,0.0006708081346005201,0.8611171245574951,0.0,-0.043246325105428696
582.0,578.0,6.6784,-1.4213,6.2345,-0.0414,0.0226,-0.1107,-1.5241473142853756,0.0,1.9028503894805908,-1.429879069328308,-0.0,2.0960655212402344,3.680771513576172,-0.0,0.2613227963447571,-1.3619869391070765,0.0,-0.028061196208000183,0.7538278102874756,0.0,-0.010989190079271793,0.8611088991165161,0.0,0.0012614309089258313
582.0,578.0,6.6784,-1.4213,6.2345,-0.0414,0.0226,-0.1107,-1.5241674122265358,0.0,1.958123803138733,-1.429918885231018,-0.0,2.159327983856201,3.6806832987019042,-0.0,0.2712915539741516,-1.3620317617999476,0.0,-0.02595549449324608,0.7538196444511414,0.0,-0.013928580097854137,0.8611007928848267,0.0,-0.023371806368231773
582.0,578.0,6.6784,-1.4213,6.2345,-0.0414,0.0226,-0.1107,-1.5241591942361374,0.0,1.9162102937698364,-1.429906964302063,-0.0,2.1531100273132324,3.6806909280964355,-0.0,0.25834810733795166,-1.3620150724994105,0.0,-0.030703166499733925,0.7538077235221863,0.0,-0.0004487896803766489,0.8610807061195374,0.0,0.008023318834602833
599.0,602.0,6.8046,-1.3609,6.0293,-0.0357,0.0191,-0.1176,-1.5241633106819172,0.0,1.9251165390014648,-1.4298624992370605,-0.0,2.1547799110412598,3.680722876186035,-0.0,0.25964832305908203,-1.3619988600360315,0.0,-0.031206943094730377,0.7538480758666992,0.0,-0.014762788079679012,0.8611410856246948,0.0,-0.024856572970747948
599.0,602.0,6.8046,-1.3609,6.0293,-0.0357,0.0191,-0.1176,-1.5241877038827916,0.0,1.9401273727416992,-1.429910659790039,-0.0,2.151501417160034,3.680739565486572,-0.0,0.25240999460220337,-1.3620556036578577,0.0,-0.02097850665450096,0.7538516521453857,0.0,-0.01663617417216301,0.8611493110656738,0.0,-0.03437303379178047
599.0,602.0,6.8046,-1.3609,6.0293,-0.0357,0.0191,-0.1176,-1.5241473142853756,0.0,1.930855631828308,-1.4299466609954834,-0.0,2.1018645763397217,3.680703325862549,-0.0,0.26606714725494385,-1.3620551268206995,0.0,-0.02485426887869835,0.7538237571716309,0.0,-0.007233833894133568,0.8611047863960266,0.0,0.06282113492488861
599.0,602.0,6.8046,-1.3609,6.0293,-0.0357,0.0191,-0.1176,-1.5241315563074131,0.0,1.9866549968719482,-1.4298748970031738,-0.0,2.171184778213501,3.6807147699543457,-0.0,0.25629499554634094,-1.3620107809649866,0.0,-0.0150893684476614,0.753799557685852,0.0,0.0031580983195453882,0.8610807061195374,0.0,-0.014724036678671837
599.0,602.0,6.8046,-1.3609,6.0293,-0.0357,0.0191,-0.1176,-1.5241432201913376,0.0,1.9518795013427734,-1.4298460483551025,-0.0,2.117764472961426,3.680699034328125,-0.0,0.25012320280075073,-1.3620193640338343,0.0,-0.027170328423380852,0.7538601160049438,0.0,-0.008984057232737541,0.8611049652099609,0.0,-0.0016253665089607239
599.0,602.0,6.8046,-1.3609,6.0293,-0.0357,0.0191,-0.1176,-1.5241997589221974,0.0,1.979945182800293,-1.429846167564392,-0.0,2.120480537414551,3.6806909280964355,-0.0,0.2523086667060852,-1.3620150724994105,0.0,-0.014284303411841393,0.7538237571716309,0.0,-0.014478171244263649,0.8611410856246948,0.0,-0.012880471535027027
599.0,602.0,6.8046,-1.3609,6.0293,-0.0357,0.0191,-0.1176,-1.5241835874370118,0.0,1.948981761932373,-1.4298903942108154,-0.0,2.1679587364196777,3.6806909280964355,-0.0,0.26185163855552673,-1.3620432058917444,0.0,-0.02595566213130951,0.7538356781005859,0.0,-0.0029901384841650724,0.8611007928848267,0.0,0.030772166326642036
599.0,602.0,6.8046,-1.3609,6.0293,-0.0357,0.0191,-0.1176,-1.5241877038827916,0.0,1.9814505577087402,-1.4299029111862183,-0.0,2.1327528953552246,3.6807476717182617,-0.0,0.26333630084991455,-1.3620031515704554,0.0,-0.014099623076617718,0.7538319826126099,0.0,-0.008319172076880932,0.8611212968826294,0.0,0.0416044145822525
599.0,602.0,6.8046,-1.3609,6.0293,-0.0357,0.0191,-0.1176,-1.5242039051702996,0.0,1.9308233261108398,-1.429890513420105,-0.0,2.1490519046783447,3.680743380183838,-0.0,0.2556160092353821,-1.3620317617999476,0.0,-0.010971322655677795,0.7537757754325867,0.0,-0.00924382358789444,0.8610889315605164,0.0,0.004819999448955059
599.0,602.0,6.8046,-1.3609,6.0293,-0.0357,0.0191,-0.1176,-1.524203886543848,0.0,1.9140689373016357,-1.4298584461212158,-0.0,2.1062417030334473,3.680703325862549,-0.0,0.26140233874320984,-1.362039868031637,0.0,-0.012173263356089592,0.7538036704063416,0.0,-0.0003246093401685357,0.8610971570014954,0.0,0.006552290637046099
599.0,602.0,6.8046,-1.3609,6.0293,-0.0357,0.0191,-0.1176,-1.5242159527591248,0.0,1.9407055377960205,-1.4299148321151733,-0.0,2.1408793926239014,3.6806866365620117,-0.0,0.264330118894577,-1.3620150724994105,0.0,-0.020144592970609665,0.7538557648658752,0.0,-0.013559838756918907,0.8610847592353821,0.0,0.018584370613098145
599.0,602.0,6.8046,-1.3609,6.0293,-0.0357,0.0191,-0.1176,-1.5241915111294766,0.0,1.971976399421692,-1.4299029111862183,-0.0,2.1409268379211426,3.6807309824177246,-0.0,0.2524712383747101,-1.3620355764972132,0.0,-0.03280593082308769,0.7538118362426758,0.0,-6.487080827355385e-05,0.8611049652099609,0.0,0.07669627666473389
599.0,602.0,6.8046,-1.3609,6.0293,-0.0357,0.0191,-0.1176,-1.5241956126740952,0.0,1.9583115577697754,-1.429927110671997,-0.0,2.157095432281494,3.6807071405598144,-0.0,0.2502644658088684,-1.3620231787311,0.0,-0.017047300934791565,0.7538315653800964,0.0,-0.0062515027821063995,0.8611007928848267,0.0,-0.03250694274902344
599.0,602.0,6.8046,-1.3609,6.0293,-0.0357,0.0191,-0.1176,-1.5242079396596928,0.0,1.9032313823699951,-1.429846167564392,-0.0,2.171952247619629,3.6807352739521484,-0.0,0.2584758698940277,-1.3620074431048792,0.0,-0.01223179791122675,0.7538557648658752,0.0,-0.010616334155201912,0.8611049652099609,0.0,-0.013522811233997345
599.0,602.0,6.8046,-1.3609,6.0293,-0.0357,0.0191,-0.1176,-1.5241555509022255,0.0,2.015747547149658,-1.4299266338348389,-0.0,2.127584457397461,3.6807429033466796,-0.0,0.250313401222229,-1.3620150724994105,0.0,-0.025273995473980904,0.7538114190101624,0.0,-0.009865003637969494,0.861068606376648,0.0,-0.012222545221447945
599.0,602.0,6.8046,-1.3609,6.0293,-0.0357,0.0191,-0.1176,-1.524163269703724,0.0,1.9565908908843994,-1.4299266338348389,-0.0,2.1794536113739014,3.680743380183838,-0.0,0.2679213285446167,-1.3620594183551233,0.0,-0.019816407933831215,0.7538480162620544,0.0,-0.002330400049686432,0.8611330986022949,0.0,-0.005840160883963108
590.0,603.0,6.6676,-1.6738,6.0036,-0.0402,0.0113,-0.1164,-1.5241997999003907,0.0,1.9325006008148193,-1.4298666715621948,-0.0,2.158236026763916,3.6807185846516113,-0.0,0.27325117588043213,-1.361995045338766,0.0,-0.01606232300400734,0.7538598775863647,0.0,-0.01223083771765232,0.861072838306427,0.0,-0.011863596737384796
590.0,603.0,6.6676,-1.6738,6.0036,-0.0402,0.0113,-0.1164,-1.5242241782001038,0.0,1.940139651298523,-1.4298419952392578,-0.0,2.143312931060791,3.6807595926472167,-0.0,0.2630400061607361,-1.3620231787311,0.0,-0.016644682735204697,0.7538073658943176,0.0,-0.01097254641354084,0.8611451983451843,0.0,-0.005821043159812689
590.0,603.0,6.6676,-1.6738,6.0036,-0.0402,0.0113,-0.1164,-1.5241674308529873,0.0,1.9549500942230225,-1.4298739433288574,-0.0,2.1240828037261963,3.680699034328125,-0.0,0.24168145656585693,-1.3620355764972132,0.0,-0.032323021441698074,0.7538316249847412,0.0,-0.010114932432770729,0.8611335754394531,0.0,0.010245581157505512
590.0,603.0,6.6676,-1.6738,6.0036,-0.0402,0.0113,-0.1164,-1.524191816603281,0.0,1.9353971481323242,-1.4298946857452393,-0.0,2.1397078037261963,3.6807514864155273,-0.0,0.26821932196617126,-1.361990753804342,0.0,-0.016627896577119827,0.7538557648658752,0.0,-0.008576920256018639,0.8610847592353821,0.0,0.013862775638699532
590.0,603.0,6.6676,-1.6738,6.0036,-0.0402,0.0113,-0.1164,-1.5242038641921063,0.0,1.9439542293548584,-1.4299066066741943,-0.0,2.1429214477539062,3.6807185846516113,-0.0,0.2765577435493469,-1.3619831244098108,0.0,-0.02370375767350197,0.7538278698921204,0.0,-0.012210629880428314,0.8611049652099609,0.0,-0.009239538572728634
590.0,603.0,6.6676,-1.6738,6.0036,-0.0402,0.0113,-0.1164,-1.5241917830756684,0.0,1.957221269607544,-1.4299147129058838,-0.0,2.1801247596740723,3.6807471948811035,-0.0,0.26509585976600647,-1.3620074431048792,0.0,-0.017185870558023453,0.7538356184959412,0.0,-0.009668988175690174,0.8610889911651611,0.0,-0.023112764582037926
590.0,603.0,6.6676,-1.6738,6.0036,-0.0402,0.0113,-0.1164,-1.5241516542485734,0.0,1.9426031112670898,-1.4298821687698364,-0.0,2.13881778717041,3.680727167720459,-0.0,0.26143527030944824,-1.361995045338766,0.0,-0.014010990038514137,0.753847599029541,0.0,0.0004278191481716931,0.8611171245574951,0.0,-0.049578696489334106
590.0,603.0,6.6676,-1.6738,6.0036,-0.0402,0.0113,-0.1164,-1.5242039126208802,0.0,1.9506559371948242,-1.429898738861084,-0.0,2.150847911834717,3.680715723628662,-0.0,0.2599571943283081,-1.3620193640338343,0.0,-0.027767546474933624,0.7538155913352966,0.0,-0.00479504931718111,0.8610966801643372,0.0,-0.0049487268552184105
590.0,603.0,6.6676,-1.6738,6.0036,-0.0402,0.0113,-0.1164,-1.5241270375302811,0.0,1.9591569900512695,-1.429822325706482,-0.0,2.14587140083313,3.6807147699543457,-0.0,0.2624432146549225,-1.3620231787311,0.0,-0.023347092792391777,0.7537475228309631,0.0,-0.008777668699622154,0.861072838306427,0.0,0.000923424435313791
590.0,603.0,6.6676,-1.6738,6.0036,-0.0402,0.0113,-0.1164,-1.5242282164147873,0.0,2.001089096069336,-1.429946780204773,-0.0,2.112260341644287,3.6807514864155273,-0.0,0.2545013129711151,-1.36204702058901,0.0,-0.029366232454776764,0.7538278698921204,0.0,-0.010385424830019474,0.8611049652099609,0.0,0.016161223873496056
590.0,603.0,6.6676,-1.6738,6.0036,-0.0402,0.0113,-0.1164,-1.5242038455656548,0.0,1.9260631799697876,-1.4298863410949707,-0.0,2.1434640884399414,3.6807071405598144,-0.0,0.2579098641872406,-1.3620513121234339,0.0,-0.01569744385778904,0.7538557052612305,0.0,-0.02285861223936081,0.8611529469490051,0.0,0.0381011888384819
590.0,603.0,6.6676,-1.6738,6.0036,-0.0402,0.0113,-0.1164,-1.5241715547493477,0.0,1.9056233167648315,-1.4299225807189941,-0.0,2.148826837539673,3.680703325862549,-0.0,0.26752954721450806,-1.3620274702655237,0.0,-0.026605304330587387,0.7537798881530762,0.0,-0.010184209793806076,0.8611053228378296,0.0,-0.015114232897758484
590.0,603.0,6.6676,-1.6738,6.0036,-0.0402,0.0113,-0.1164,-1.5241797652891655,0.0,1.910381555557251,-1.4298501014709473,-0.0,2.130936622619629,3.6808158594318847,-0.0,0.2699984014034271,-1.361978832875387,0.0,-0.025240419432520866,0.753847599029541,0.0,-0.005221794359385967,0.8610807061195374,0.0,-0.008867045864462852
590.0,603.0,6.6676,-1.6738,6.0036,-0.0402,0.0113,-0.1164,-1.5241956275752564,0.0,1.9921483993530273,-1.4299308061599731,-0.0,2.142087697982788,3.6807352739521484,-0.0,0.26925697922706604,-1.3620274702655237,0.0,-0.011684110388159752,0.7538197040557861,0.0,0.0037863971665501595,0.8611212968826294,0.0,-0.004456465598195791
590.0,603.0,6.6676,-1.6738,6.0036,-0.0402,0.0113,-0.1164,-1.5242118214121838,0.0,1.948973536491394,-1.4298460483551025,-0.0,2.1333765983581543,3.6807147699543457,-0.0,0.2687780261039734,-1.3620150724994105,0.0,-0.016775134950876236,0.7538438439369202,0.0,-0.008547469042241573,0.8611171245574951,0.0,0.026108741760253906
608.0,564.0,6.7854,-1.3202,6.2865,-0.0371,0.0241,-0.1141,-1.5242200803807755,0.0,1.9240894317626953,-1.4299349784851074,-0.0,2.1530094146728516,3.6807796198078613,-0.0,0.2548575699329376,-1.3620026747332972,0.0,-0.0201532281935215,0.7537473440170288,0.0,-0.010975045152008533,0.8611049652099609,0.0,-0.07341476529836655
608.0,564.0,6.7854,-1.3202,6.2865,-0.0371,0.0241,-0.1141,-1.5241394092193623,0.0,1.9464232921600342,-1.429898738861084,-0.0,2.1483635902404785,3.6807309824177246,-0.0,0.27247658371925354,-1.3620231787311,0.0,-0.032758504152297974,0.7538720965385437,0.0,-0.010799678042531013,0.8610926270484924,0.0,0.0029528357554227114
608.0,564.0,6.7854,-1.3202,6.2865,-0.0371,0.0241,-0.1141,-1.5241956275752564,0.0,1.9618828296661377,-1.4299110174179077,-0.0,2.1606152057647705,3.680771513576172,-0.0,0.264753520488739,-1.3619826475726526,0.0,-0.022056087851524353,0.7538598775863647,0.0,-0.014775998890399933,0.8611171245574951,0.0,-0.011300129815936089
608.0,564.0,6.7854,-1.3202,6.2865,-0.0371,0.0241,-0.1141,-1.5241832968643685,0.0,1.9332952499389648,-1.4299229383468628,-0.0,2.1065144538879395,3.6807638841816406,-0.0,0.2546466290950775,-1.3620274702655237,0.0,-0.022407587617635727,0.7538397312164307,0.0,-0.007040983997285366,0.861145555973053,0.0,0.014766368083655834
608.0,564.0,6.7854,-1.3202,6.2865,-0.0371,0.0241,-0.1141,-1.5241715472987671,0.0,1.9122180938720703,-1.429898738861084,-0.0,2.1632208824157715,3.680727167720459,-0.0,0.25214189291000366,-1.3620355764972132,0.0,-0.023008130490779877,0.7538077235221863,0.0,-0.022912096232175827,0.8611171841621399,0.0,-0.014179116114974022
608.0,564.0,6.7854,-1.3202,6.2865,-0.0371,0.0241,-0.1141,-1.5242038306644936,0.0,1.988991618156433,-1.4298502206802368,-0.0,2.102208375930786,3.6807638841816406,-0.0,0.2640696167945862,-1.3620107809649866,0.0,-0.026703720912337303,0.7538036704063416,0.0,0.0015055709518492222,0.8611212968826294,0.0,-0.021901028230786324
608.0,564.0,6.7854,-1.3202,6.2865,-0.0371,0.0241,-0.1141,-1.5242159117809315,0.0,1.9490082263946533,-1.4298863410949707,-0.0,2.121643543243408,3.680722876186035,-0.0,0.257204532623291,-1.3620389143573206,0.0,-0.012192927300930023,0.7538278698921204,0.0,0.0007482230430468917,0.8611254692077637,0.0,-0.05244767665863037
608.0,564.0,6.7854,-1.3202,6.2865,-0.0371,0.0241,-0.1141,-1.5241838184050103,0.0,1.9475973844528198,-1.4299348592758179,-0.0,2.1183652877807617,3.680727167720459,-0.0,0.26935118436813354,-1.3620355764972132,0.0,-0.019935477524995804,0.753799557685852,0.0,-0.005061002913862467,0.8610847592353821,0.0,0.03376087546348572
608.0,564.0,6.7854,-1.3202,6.2865,-0.0371,0.0241,-0.1141,-1.5241633106819172,0.0,1.9225058555603027,-1.4298666715621948,-0.0,2.0979251861572266,3.680755301112793,-0.0,0.2638145387172699,-1.3619831244098108,0.0,-0.022039182484149933,0.7537757158279419,0.0,-0.01159611251205206,0.8611534833908081,0.0,-0.025023356080055237
608.0,564.0,6.7854,-1.3202,6.2865,-0.0371,0.0241,-0.1141,-1.5241915074041863,0.0,1.945199728012085,-1.4298863410949707,-0.0,2.1571059226989746,3.6807309824177246,-0.0,0.26297783851623535,-1.3619707266436976,0.0,-0.022037383168935776,0.7538237571716309,0.0,-0.01083082053810358,0.8611330986022949,0.0,-0.007831196300685406
608.0,564.0,6.7854,-1.3202,6.2865,-0.0371,0.0241,-0.1141,-1.5241715472987671,0.0,1.9576058387756348,-1.4299029111862183,-0.0,2.079498291015625,3.6807429033466796,-0.0,0.25768810510635376,-1.36204702058901,0.0,-0.014438070356845856,0.7538356781005859,0.0,0.00011747702956199646,0.8611089587211609,0.0,0.0050866808742284775
608.0,564.0,6.7854,-1.3202,6.2865,-0.0371,0.0241,-0.1141,-1.5241874505630513,0.0,1.9091761112213135,-1.4299311637878418,-0.0,2.140348434448242,3.680699034328125,-0.0,0.26748770475387573,-1.3620556036578577,0.0,-0.02340274304151535,0.7538356781005859,0.0,-0.005646963138133287,0.8611048460006714,0.0,0.01252190675586462
608.0,564.0,6.7854,-1.3202,6.2865,-0.0371,0.0241,-0.1141,-1.524199717944004,0.0,1.9076040983200073,-1.4298946857452393,-0.0,2.130214214324951,3.6807796198078613,-0.0,0.2674333453178406,-1.3620513121234339,0.0,-0.031028680503368378,0.7538438439369202,0.0,-0.009746826253831387,0.8611130118370056,0.0,0.0038644070737063885
608.0,564.0,6.7854,-1.3202,6.2865,-0.0371,0.0241,-0.1141,-1.5241591867855568,0.0,1.942513108253479,-1.429854393005371,-0.0,2.150583028793335,3.6807867723652343,-0.0,0.26791825890541077,-1.3620594183551233,0.0,-0.01622951775789261,0.7538077235221863,0.0,-0.0001719997962936759,0.8611130118370056,0.0,-0.007481918204575777
608.0,564.0,6.7854,-1.3202,6.2865,-0.0371,0.0241,-0.1141,-1.5241877038827916,0.0,1.9680163860321045,-1.429906964302063,-0.0,2.0840632915496826,3.6807758051105957,-0.0,0.2526230812072754,-1.3620389143573206,0.0,-0.026328368112444878,0.7539123296737671,0.0,-0.005769351497292519,0.8611130714416504,0.0,0.06252961605787277
608.0,564.0,6.7854,-1.3202,6.2865,-0.0371,0.0241,-0.1141,-1.5241753433695813,0.0,1.9354084730148315,-1.4298665523529053,-0.0,2.176304340362549,3.680739088649414,-0.0,0.2613496482372284,-1.3620713392840784,0.0,-0.015081166289746761,0.7538434267044067,0.0,-0.010798832401633263,0.8611249327659607,0.0,-0.01487234141677618
596.0,585.0,6.615,-1.3125,6.0251,-0.0367,0.0027,-0.1162,-1.524159626369812,0.0,1.9397928714752197,-1.4298624992370605,-0.0,2.150571346282959,3.6807595926472167,-0.0,0.25700992345809937,-1.3620346228228968,0.0,-0.01877611130475998,0.7538597583770752,0.0,-0.012756366282701492,0.8611534237861633,0.0,0.02958269603550434
596.0,585.0,6.615,-1.3125,6.0251,-0.0367,0.0027,-0.1162,-1.524139368241169,0.0,1.9410545825958252,-1.4299147129058838,-0.0,2.1575064659118652,3.6807634073444824,-0.0,0.25419309735298157,-1.3620346228228968,0.0,-0.022113988175988197,0.7538842558860779,0.0,0.0018356941873207688,0.8611611723899841,0.0,0.019582057371735573
596.0,585.0,6.615,-1.3125,6.0251,-0.0367,0.0027,-0.1162,-1.5241877150586625,0.0,1.8937169313430786,-1.4298502206802368,-0.0,2.1013247966766357,3.6807471948811035,-0.0,0.26401805877685547,-1.3620637098895472,0.0,-0.023792129009962082,0.7537873387336731,0.0,-0.014591888524591923,0.8611575365066528,0.0,-0.012099415995180607
596.0,585.0,6.615,-1.3125,6.0251,-0.0367,0.0027,-0.1162,-1.5241432052901764,0.0,1.9555094242095947,-1.4298945665359497,-0.0,2.172964572906494,3.68073479711499,-0.0,0.25833263993263245,-1.3620594183551233,0.0,-0.02429872751235962,0.7537873983383179,0.0,-0.009085869416594505,0.8611611723899841,0.0,-0.06606398522853851
596.0,585.0,6.615,-1.3125,6.0251,-0.0367,0.0027,-0.1162,-1.5241473142853756,0.0,1.9669582843780518,-1.4298501014709473,-0.0,2.1517651081085205,3.680743380183838,-0.0,0.25793352723121643,-1.3620556036578577,0.0,-0.031602662056684494,0.7538679838180542,0.0,-0.009834199212491512,0.8611611723899841,0.0,-0.010786248371005058
596.0,585.0,6.615,-1.3125,6.0251,-0.0367,0.0027,-0.1162,-1.5241674308529873,0.0,1.9113831520080566,-1.4298460483551025,-0.0,2.179251194000244,3.6807471948811035,0.00010289908095728606,0.25473982095718384,-1.3620231787311,0.0,-0.026057422161102295,0.7538037300109863,0.0,-0.004886297043412924,0.861169159412384,0.0,-0.007920164614915848
596.0,585.0,6.615,-1.3125,6.0251,-0.0367,0.0027,-0.1162,-1.5241915185800572,0.0,1.9509193897247314,-1.4298748970031738,-0.0,2.0938873291015625,3.6807548242756347,0.0001267666812054813,0.24517568945884705,-1.3620193640338343,0.0,-0.021346768364310265,0.7537634372711182,0.0,-0.01117962971329689,0.8611575365066528,0.0,-0.00399963092058897
596.0,585.0,6.615,-1.3125,6.0251,-0.0367,0.0027,-0.1162,-1.5241632622531434,0.0,1.9790613651275635,-1.4298945665359497,-0.0,2.1390292644500732,3.6807185846516113,0.00011689605162246153,0.25666871666908264,-1.3620346228228968,0.0,-0.02212265133857727,0.7538356184959412,0.0,-0.0042335656471550465,0.8611286878585815,0.00014315855514723808,-0.056373074650764465
596.0,585.0,6.615,-1.3125,6.0251,-0.0367,0.0027,-0.1162,-1.5241874319365998,0.0,1.9444434642791748,-1.4298946857452393,5.880037012850892e-10,2.130025625228882,3.680727167720459,8.960844570538029e-05,0.26420843601226807,-1.3620556036578577,0.0,-0.02711886167526245,0.7537558078765869,0.0,0.005567427258938551,0.8611249327659607,0.00013069153646938503,-0.0020101689733564854
596.0,585.0,6.615,-1.3125,6.0251,-0.0367,0.0027,-0.1162,-1.524219573741295,0.0,1.9804966449737549,-1.429910659790039,1.41995999766736e-15,2.1296157836914062,3.6807185846516113,8.090686606010422e-05,0.2689003348350525,-1.3620756308185022,0.0,-0.018747707828879356,0.7538438439369202,0.0,-0.014070875011384487,0.8611328601837158,0.0001202169805765152,-0.001134207472205162
596.0,585.0,6.615,-1.3125,6.0251,-0.0367,0.0027,-0.1162,-1.5242436353913327,-0.00034702164703048766,1.9700217247009277,-1.4298739433288574,3.4290356279698785e-21,2.1661434173583984,3.680710478419922,6.647540431004018e-05,0.2555081248283386,-1.3620594183551233,0.0,-0.017532695084810257,0.7538397908210754,0.0,-0.004031680524349213,0.861169159412384,0.00012593402061611414,0.04893139377236366
596.0,585.0,6.615,-1.3125,6.0251,-0.0367,0.0027,-0.1162,-1.5242800389281292,-0.0026814944576472044,1.9408267736434937,-1.4299712181091309,8.28071760367967e-27,2.117459297180176,3.680722876186035,-2.031674375757575e-05,0.265241414308548,-1.3620274702655237,0.0,-0.021589389070868492,0.753807783126831,0.0,-0.0037037888541817665,0.8611650466918945,0.00012433153460733593,-0.016541937366127968
596.0,585.0,6.615,-1.3125,6.0251,-0.0367,0.0027,-0.1162,-1.5243279014578839,-0.004379697144031525,1.94752037525177,-1.429910659790039,-0.0007559958030469716,2.166236400604248,3.680743380183838,-0.00012535802670754492,0.2614831030368805,-1.3620150724994105,0.0,-0.02160976454615593,0.7538315653800964,0.0,-0.009950146079063416,0.8611452579498291,9.71811095951125e-05,0.020125392824411392
596.0,585.0,6.615,-1.3125,6.0251,-0.0367,0.0027,-0.1162,-1.5243233305266877,-0.008050909265875816,1.9251655340194702,-1.429930329322815,-0.0009498696308583021,2.116680860519409,3.6807185846516113,-0.0001813875715015456,0.24520209431648254,-1.3620193640338343,0.0,-0.02312934398651123,0.7537832260131836,0.0,-0.00735045038163662,0.8611088991165161,9.103361662710086e-05,-0.042003512382507324
596.0,585.0,6.615,-1.3125,6.0251,-0.0367,0.0027,-0.1162,-1.5243874427727242,-0.011899224482476711,1.9747868776321411,-1.4299867153167725,-0.0008618169813416898,2.1271464824676514,3.6807238298603515,-0.0005382406525313854,0.25477734208106995,-1.3620274702655237,0.0,-0.02245347946882248,0.7538397908210754,0.0,-0.011093895882368088,0.8611612319946289,8.582507143728435e-05,0.04148204252123833
596.0,585.0,6.615,-1.3125,6.0251,-0.0367,0.0027,-0.1162,-1.5245078553310414,-0.013203765265643597,1.9553381204605103,-1.4299670457839966,-0.0008345915121026337,2.101858139038086,3.680739565486572,-0.00044441953650675714,0.27758750319480896,-1.361978832875387,0.0,-0.025346508249640465,0.7538155913352966,0.0,-0.006227114703506231,0.8611451983451843,8.118020923575386e-05,0.022564975544810295
625.0,557.0,6.9332,-1.2891,5.8935,-0.0447,-0.0368,-0.1264,-1.5245912832072754,-0.014662673696875572,1.9083845615386963,-1.4299662113189697,-0.0006488776416517794,2.1537890434265137,3.680722876186035,-0.0003563749778550118,0.2628798484802246,-1.3620031515704554,0.0,-0.03558751195669174,0.7538840174674988,0.0,-0.013319932855665684,0.8611530661582947,7.70123879192397e-05,-0.010344785638153553
625.0,557.0,6.9332,-1.2891,5.8935,-0.0447,-0.0368,-0.1264,-1.52465899035845,-0.014833270572125912,1.8926013708114624,-1.429998755455017,-0.0005563120357692242,2.1541991233825684,3.6807071405598144,-0.0002974540984723717,0.26989638805389404,-1.361966911946432,0.0,-0.016789071261882782,0.7538920640945435,0.0,-0.013710685074329376,0.8611612319946289,7.32515545678325e-05,0.01586112566292286
625.0,557.0,6.9332,-1.2891,5.8935,-0.0447,-0.0368,-0.1264,-1.524771050815918,-0.01555632334202528,1.9222444295883179,-1.430006980895996,-0.0005322389188222587,2.1488587856292725,3.680743380183838,-0.00026792753487825394,0.25576233863830566,-1.3619826475726526,0.0,-0.03014872968196869,0.753847599029541,0.0,-0.003748335875570774,0.8611571192741394,7.09419691702351e-05,-0.013858107849955559
625.0,557.0,6.9332,-1.2891,5.8935,-0.0447,-0.0368,-0.1264,-1.524843019699194,-0.016847660765051842,1.9673572778701782,-1.4299867153167725,-0.0005345356767065823,2.121894359588623,3.6807185846516113,-0.00019952558795921504,0.25478965044021606,-1.3620513121234339,0.0,-0.019086439162492752,0.7538639307022095,0.0,-0.007102651055902243,0.8611451983451843,6.773837230866775e-05,-0.045706894248723984
625.0,557.0,6.9332,-1.2891,5.8935,-0.0447,-0.0368,-0.1264,-1.5250068393400689,-0.018291929736733437,1.8891265392303467,-1.4299945831298828,-0.002099792705848813,2.1477789878845215,3.6807753282734375,-0.0001720452419249341,0.2587355673313141,-1.361995045338766,0.0,-0.015179559588432312,0.7538196444511414,0.0,-0.016394073143601418,0.8611772060394287,6.481158925453201e-05,0.0417478084564209
625.0,557.0,6.9332,-1.2891,5.8935,-0.0447,-0.0368,-0.1264,-1.525151365702488,-0.018705643713474274,1.9369773864746094,-1.430046796798706,-0.003265555016696453,2.1482086181640625,3.6807147699543457,-0.0001543389807920903,0.25898197293281555,-1.3619707266436976,0.0,-0.028516355901956558,0.7538316249847412,0.0,-0.0028241954278200865,0.8611895442008972,7.453299622284248e-05,0.017995141446590424
625.0,557.0,6.9332,-1.2891,5.8935,-0.0447,-0.0368,-0.1264,-1.5251985539546986,-0.018620824441313744,1.9643727540969849,-1.4300788640975952,-0.006239182315766811,2.12553334236145,3.680771513576172,-0.0001399387838318944,0.2677096128463745,-1.36204702058901,0.0,-0.02476179227232933,0.7537996172904968,0.0,-0.00355904595926404,0.8611328601837158,7.15877249604091e-05,0.017173204571008682
625.0,557.0,6.9332,-1.2891,5.8935,-0.0447,-0.0368,-0.1264,-1.525399138485529,-0.01763838529586792,1.8958576917648315,-1.4300944805145264,-0.008805932477116585,2.171302556991577,3.6806503969379882,-0.00012799644900951535,0.26451507210731506,-1.36204702058901,0.0,-0.014144813641905785,0.7538356781005859,0.0,0.008020559325814247,0.8611974120140076,8.032423647819087e-05,0.008352335542440414
625.0,557.0,6.9332,-1.2891,5.8935,-0.0447,-0.0368,-0.1264,-1.5255069632879277,-0.017335113137960434,1.9387445449829102,-1.4301908016204834,-0.008954757824540138,2.153550624847412,3.6807185846516113,-0.00011793243902502581,0.2631585896015167,-1.3620150724994105,0.0,-0.02486959844827652,0.753868043422699,0.0,-0.0017607768531888723,0.8611567616462708,8.65396941662766e-05,-0.06632934510707855
625.0,557.0,6.9332,-1.2891,5.8935,-0.0447,-0.0368,-0.1264,-1.525622685705759,-0.01813717931509018,1.9455723762512207,-1.4302024841308594,-0.009508803486824036,2.1720848083496094,3.6806866365620117,-0.00013117775961291045,0.2706908583641052,-1.3620317617999476,0.0,-0.03144118934869766,0.7538798451423645,0.0,-0.016232352703809738,0.8611530065536499,8.163192978827283e-05,-0.015230747871100903
625.0,557.0,6.9332,-1.2891,5.8935,-0.0447,-0.0368,-0.1264,-1.5257624436965962,-0.020108720287680626,1.9199748039245605,-1.4303183555603027,-0.00890564825385809,2.161034107208252,3.680675192470215,-0.00016235375369433314,0.27463310956954956,-1.3620150724994105,0.0,-0.025876181200146675,0.7538803219795227,0.0,0.006302102003246546,0.8611608743667603,7.741874287603423e-05,0.02219376340508461
625.0,557.0,6.9332,-1.2891,5.8935,-0.0447,-0.0368,-0.1264,-1.5258740943721314,-0.02247629687190056,1.9072185754776,-1.4304229021072388,-0.009646902792155743,2.1646852493286133,3.680670900935791,-0.00011515809455886483,0.2579077184200287,-1.3620346228228968,0.0,-0.013171602971851826,0.7537992000579834,0.0,0.008117993362247944,0.8611370325088501,7.36192159820348e-05,0.024925293400883675
625.0,557.0,6.9332,-1.2891,5.8935,-0.0447,-0.0368,-0.1264,-1.5260823865285893,-0.024897892028093338,1.8887245655059814,-1.4304344654083252,-0.009978631511330605,2.099626302719116,3.6806794840046386,-0.00012416570098139346,0.25999948382377625,-1.361978832875387,0.0,-0.028253301978111267,0.7538438439369202,0.0,-0.000638301542494446,0.8611855506896973,7.017506140982732e-05,0.027075208723545074
625.0,557.0,6.9332,-1.2891,5.8935,-0.0447,-0.0368,-0.1264,-1.526250385945179,-0.027232099324464798,1.9253854751586914,-1.4304821491241455,-0.01044011116027832,2.1662545204162598,3.680658980006836,-0.00011737547174561769,0.26350486278533936,-1.3620150724994105,0.0,-0.018303968012332916,0.7537873983383179,0.0,-0.015168135985732079,0.8611208200454712,5.363189848139882e-05,0.0073716831393539906
625.0,557.0,6.9332,-1.2891,5.8935,-0.0447,-0.0368,-0.1264,-1.5264466789415856,-0.02723289281129837,1.9057320356369019,-1.4305907487869263,-0.011419405229389668,2.158202648162842,3.6807309824177246,-0.00012381383567117155,0.26654842495918274,-1.3619869391070765,0.0,-0.011384335346519947,0.7538357377052307,0.0,-0.010076072067022324,0.8611370325088501,3.856219336739741e-05,-0.00271645188331604
561.0,550.0,6.012,-1.4871,6.7035,-0.046,-0.0974,-0.1382,-1.526549556558468,-0.028413016349077225,1.918498158454895,-1.430649757385254,-0.010954922065138817,2.1053543090820312,3.6806551653095703,-0.00012113797856727615,0.26179075241088867,-1.3619988600360315,3.9441351873392705e-07,-0.03194214031100273,0.753875732421875,0.0,-0.006471127271652222,0.8611089587211609,3.692298196256161e-05,-0.01009698212146759
561.0,550.0,6.012,-1.4871,6.7035,-0.046,-0.0974,-0.1382,-1.5267497909120102,-0.03050079755485058,1.9197226762771606,-1.4307429790496826,-0.010175615549087524,2.1178343296051025,3.680630846614502,-0.00011270161485299468,0.2604529857635498,-1.3619988600360315,0.00011976469977525994,-0.027124803513288498,0.7538356781005859,0.0,-0.002956950105726719,0.8611896634101868,-3.695816485560499e-05,-0.04949387162923813
561.0,550.0,6.012,-1.4871,6.7035,-0.046,-0.0974,-0.1382,-1.5269898411682625,-0.03532955050468445,1.9109718799591064,-1.4308104515075684,-0.010092982091009617,2.1023712158203125,3.6806632715412597,-0.0001422658679075539,0.2637231945991516,-1.3619988600360315,0.00013944981037639081,-0.03455226123332977,0.7538557648658752,0.0,-0.011029074899852276,0.8611369729042053,-3.286168066551909e-05,-0.009063642472028732
561.0,550.0,6.012,-1.4871,6.7035,-0.046,-0.0974,-0.1382,-1.5271689531258126,-0.04196135699748993,1.942553997039795,-1.4308782815933228,-0.00969715416431427,2.132270097732544,3.680703802699707,0.00012711001909337938,0.2616884112358093,-1.361966911946432,9.51370966504328e-05,-0.014548489823937416,0.7538597583770752,0.0,0.0012951528187841177,0.8611730933189392,-2.961731661343947e-05,-0.019726665690541267
561.0,550.0,6.012,-1.4871,6.7035,-0.046,-0.0974,-0.1382,-1.5274773699096222,-0.0484321191906929,1.921614646911621,-1.430922269821167,-0.009509334340691566,2.104952573776245,3.6806747156330566,8.956665988080204e-05,0.2659403383731842,-1.361978832875387,7.220882253022864e-05,-0.03590372949838638,0.7538720965385437,0.0,-0.010394454933702946,0.8612176179885864,-2.695602597668767e-05,-0.018983639776706696
561.0,550.0,6.012,-1.4871,6.7035,-0.046,-0.0974,-0.1382,-1.5277448755553742,-0.05309783294796944,1.9181022644042969,-1.4309377670288086,-0.008149757981300354,2.142502546310425,3.6807071405598144,6.895632395753637e-05,0.2524203956127167,-1.3619712034808558,1.5366545994766057e-05,-0.02859567478299141,0.7538357377052307,0.0,-0.0026656838599592447,0.8611530065536499,-2.4733584723435342e-05,-0.018856896087527275
561.0,550.0,6.012,-1.4871,6.7035,-0.046,-0.0974,-0.1382,-1.5281005290201684,-0.05951709672808647,1.8978378772735596,-1.4309699535369873,-0.005651910323649645,2.1363701820373535,3.6807114320942382,9.733766637509689e-05,0.26706138253211975,-1.3620031515704554,4.277334930691268e-09,-0.035423021763563156,0.7538316249847412,0.0,-0.0008380172657780349,0.8611488938331604,-2.2849715605843812e-05,-0.005625910125672817
561.0,550.0,6.012,-1.4871,6.7035,-0.046,-0.0974,-0.1382,-1.528472476904728,-0.06619217246770859,1.9240765571594238,-1.4310145378112793,-0.004103022161871195,2.1750307083129883,3.680699034328125,9.4459748652298e-05,0.2675999104976654,-1.3620231787311,1.190611953645615e-12,-0.04011283069849014,0.7539077401161194,0.0,-0.009135408326983452,0.8611410856246948,-2.1232524886727333e-05,0.04194184020161629
561.0,550.0,6.012,-1.4871,6.7035,-0.046,-0.0974,-0.1382,-1.528936405932047,-0.0763382688164711,1.8760056495666504,-1.4310181140899658,-0.0024981440510600805,2.1206560134887695,3.680767698878906,8.161104051396251e-05,0.26598837971687317,-1.3620317617999476,3.314112226734608e-16,-0.03322099894285202,0.7537832260131836,0.0,0.00016631375183351338,0.8611732721328735,-1.4976223039475656e-10,0.03823959082365036
561.0,550.0,6.012,-1.4871,6.7035,-0.046,-0.0974,-0.1382,-1.5294599582305928,-0.08764581382274628,1.8445792198181152,-1.4310219287872314,-0.0016450186958536506,2.1543943881988525,3.680739088649414,0.0001075900363503024,0.2639126181602478,-1.3620150724994105,9.224953420678059e-20,-0.023387186229228973,0.7538517117500305,0.0,-0.0054306332021951675,0.8611167669296265,-3.6165821335454025e-16,-0.010226059705018997
561.0,550.0,6.012,-1.4871,6.7035,-0.046,-0.0974,-0.1382,-1.5300153505853196,-0.09676116704940796,1.8644983768463135,-1.4309980869293213,-0.0008441436802968383,2.1321864128112793,3.6807185846516113,0.0001277447008760646,0.2631201446056366,-1.3620150724994105,2.5677993600239314e-23,-0.029149804264307022,0.7538598775863647,0.0,-0.00526326522231102,0.8611936569213867,-8.733621707753486e-22,-0.012559909373521805
561.0,550.0,6.012,-1.4871,6.7035,-0.046,-0.0974,-0.1382,-1.5305826675942917,-0.1011287197470665,1.918947458267212,-1.4309656620025635,-0.000539893691893667,2.186196804046631,3.6806866365620117,0.0001717716659186408,0.2633066475391388,-1.3620355764972132,7.147563594904397e-27,-0.036927372217178345,0.7538278698921204,0.0,-0.011262915097177029,0.8611365556716919,-2.1090668153920125e-27,-0.02408464625477791
561.0,550.0,6.012,-1.4871,6.7035,-0.046,-0.0974,-0.1382,-1.531274640267231,-0.1013299897313118,1.8800442218780518,-1.4310342073440552,-0.0003969456010963768,2.165894031524658,3.680739565486572,0.00021481458679772913,0.271101713180542,-1.3620231787311,1.989550707919276e-30,-0.028304334729909897,0.7538393139839172,0.0,-0.007718790788203478,0.861137330532074,-5.093148495122206e-33,0.01751202531158924
561.0,550.0,6.012,-1.4871,6.7035,-0.046,-0.0974,-0.1382,-1.531865933244564,-0.09681909531354904,1.8684754371643066,-1.431070327758789,-0.0003757286467589438,2.1417155265808105,3.6807634073444824,0.00019660856924019754,0.2716885209083557,-1.3620274702655237,5.5379876080615185e-34,-0.024718856438994408,0.753851592540741,0.0,-0.019484512507915497,0.8611732125282288,-1.2299354968105388e-38,-0.021681442856788635
561.0,550.0,6.012,-1.4871,6.7035,-0.046,-0.0974,-0.1382,-1.5324968819371243,-0.09896576404571533,1.881310224533081,-1.4310498237609863,-0.0005295314476825297,2.1357438564300537,3.6807147699543457,0.00017977638344746083,0.27302512526512146,-1.3620274702655237,1.5415193391055413e-37,-0.025028113275766373,0.7538836002349854,0.0,-0.017306720837950706,0.8611608743667603,-2.942726775082116e-44,-0.031713370233774185
561.0,550.0,6.012,-1.4871,6.7035,-0.046,-0.0974,-0.1382,-1.5329649534872551,-0.10390268266201019,1.8680212497711182,-1.4310498237609863,-0.005410125479102135,2.1170413494110107,3.6807147699543457,0.00017006949929054826,0.2635267972946167,-1.3620107809649866,6.571739473067311e-40,-0.031395114958286285,0.753879964351654,0.0,0.0084878234192729,0.8611530065536499,0.0,0.05525219812989235
628.0,559.0,4.8383,-1.1151,7.3065,-0.0246,-0.0515,-0.16,-1.5336283569088955,-0.1166466623544693,1.8639469146728516,-1.4311378002166748,-0.008651076816022396,2.148768901824951,3.6807309824177246,0.0001573274057591334,0.27780091762542725,-1.3620274702655237,1.8357009882655104e-43,-0.01409903634339571,0.7538515329360962,0.0,-0.004908401519060135,0.8611692190170288,0.0,0.06266945600509644
628.0,559.0,4.8383,-1.1151,7.3065,-0.0246,-0.0515,-0.16,-1.5343276758543034,-0.12974178791046143,1.8533480167388916,-1.4311659336090088,-0.009916473180055618,2.088742733001709,3.6806952196308593,0.00014636197010986507,0.27396291494369507,-1.362039868031637,0.0,-0.01938909851014614,0.7538840174674988,0.0,-0.003324591089040041,0.8611406683921814,0.0,-0.017361536622047424
628.0,559.0,4.8383,-1.1151,7.3065,-0.0246,-0.0515,-0.16,-1.5351193037680169,-0.137104794383049,1.9064898490905762,-1.431161880493164,-0.007573890034109354,2.1119496822357178,3.680710478419922,0.00015628467372152954,0.27268701791763306,-1.361995045338766,0.0,-0.029168173670768738,0.7538434267044067,0.0,0.0027694571763277054,0.8611410856246948,0.0,0.03021743893623352
628.0,559.0,4.8383,-1.1151,7.3065,-0.0246,-0.0515,-0.16,-1.5359306719950219,-0.1369083821773529,1.8724108934402466,-1.4312543869018555,-0.0039351158775389194,2.151215076446533,3.6808034616657714,0.00025557103799656034,0.2706635296344757,-1.3620231787311,0.0,-0.014449230395257473,0.7538397312164307,0.0,-0.005015936680138111,0.8611330986022949,0.0,-0.004338365979492664
628.0,559.0,4.8383,-1.1151,7.3065,-0.0246,-0.0515,-0.16,-1.5367984113148232,-0.13016343116760254,1.9046306610107422,-1.431198000907898,-0.0011824802495539188,2.123352527618408,3.6808077532001953,0.0011448848526924849,0.285289466381073,-1.3620317617999476,0.0,-0.02814180590212345,0.7538439035415649,0.0,0.00028670206665992737,0.8611372709274292,0.0,-0.042060673236846924
628.0,559.0,4.8383,-1.1151,7.3065,-0.0246,-0.0515,-0.16,-1.5375450004688282,-0.12583179771900177,1.9230724573135376,-1.4311857223510742,-0.0008420616504736245,2.202589273452759,3.6807467180439453,0.00089697923976928,0.2773246467113495,-1.36204702058901,0.0,-0.02532058209180832,0.7539036870002747,0.0,-0.011544743552803993,0.8611451983451843,0.0,-0.01097377110272646
628.0,559.0,4.8383,-1.1151,7.3065,-0.0246,-0.0515,-0.16,-1.5383561563542862,-0.13193991780281067,1.8947579860687256,-1.43130624294281,-0.002276534680277109,2.1339285373687744,3.6807872492023925,0.000562868663109839,0.29104843735694885,-1.362068001423971,0.0,-0.024436160922050476,0.7538516521453857,0.0,0.0033590057864785194,0.8611370325088501,0.0,-0.009336220100522041
628.0,559.0,4.8383,-1.1151,7.3065,-0.0246,-0.0515,-0.16,-1.5392597180655976,-0.1452363133430481,1.918250560760498,-1.4313418865203857,-0.007452858611941338,2.1854310035705566,3.68073479711499,0.000328096270095557,0.27551817893981934,-1.3620274702655237,0.0,-0.023787176236510277,0.7538356781005859,0.0,0.00025045766960829496,0.8611570596694946,0.0,-0.008342986926436424
628.0,559.0,4.8383,-1.1151,7.3065,-0.0246,-0.0515,-0.16,-1.540062516262271,-0.16290955245494843,1.8903894424438477,-1.4313740730285645,-0.010800161398947239,2.145373821258545,3.6807591158100585,0.0002570930519141257,0.261469304561615,-1.3619988600360315,0.0,-0.01644914224743843,0.7538679838180542,0.0,-0.010382337495684624,0.861169159412384,0.0,0.028364501893520355
628.0,559.0,4.8383,-1.1151,7.3065,-0.0246,-0.0515,-0.16,-1.541050100033619,-0.17456290125846863,1.8355252742767334,-1.4314175844192505,-0.011154108680784702,2.1559336185455322,3.6807867723652343,0.0002117091353284195,0.2727367877960205,-1.3620432058917444,0.0,-0.029752928763628006,0.7538118958473206,0.0,-0.009019162505865097,0.861120879650116,0.0,0.02328035607933998
628.0,559.0,4.8383,-1.1151,7.3065,-0.0246,-0.0515,-0.16,-1.542065506135561,-0.17551134526729584,1.8330178260803223,-1.4314652681350708,-0.007018988486379385,2.1303300857543945,3.6807758051105957,6.452982779592276e-05,0.2751432955265045,-1.3620150724994105,0.0,-0.023558253422379494,0.7538316249847412,0.0,-0.014904535375535488,0.8611089587211609,0.0,0.014508457854390144
628.0,559.0,4.8383,-1.1151,7.3065,-0.0246,-0.0515,-0.16,-1.5430481855622311,-0.16909167170524597,1.930398941040039,-1.4315180778503418,-0.0025637217331677675,2.1831772327423096,3.680795355434082,9.271033923141658e-05,0.2774660587310791,-1.3620107809649866,0.0,-0.04384737089276314,0.753847599029541,0.0,-0.006148188840597868,0.8610725998878479,0.0,0.0021108363289386034
628.0,559.0,4.8383,-1.1151,7.3065,-0.0246,-0.0515,-0.16,-1.5441275344095011,-0.1635155975818634,1.8801848888397217,-1.431452989578247,-0.00020061206305399537,2.1729464530944824,3.6807829576679687,0.00016163628606591374,0.27239078283309937,-1.361995045338766,0.0,-0.022232305258512497,0.7538033127784729,0.0,0.008341006934642792,0.8611611723899841,0.0,-0.02071627415716648
628.0,559.0,4.8383,-1.1151,7.3065,-0.0246,-0.0515,-0.16,-1.545231395666935,-0.1726331263780594,1.9322614669799805,-1.4314860105514526,-0.00046465935884043574,2.163191795349121,3.680807276363037,0.00043016765266656876,0.2846992313861847,-1.3620513121234339,0.0,-0.027049854397773743,0.7538114190101624,0.0,-0.0003751822514459491,0.8610965609550476,0.0,-0.0010113837197422981
628.0,559.0,4.8383,-1.1151,7.3065,-0.0246,-0.0515,-0.16,-1.5463263143650074,-0.19166310131549835,1.8567070960998535,-1.4314974546432495,-0.002725092228502035,2.1590003967285156,3.6808029848286132,0.00028333012596704066,0.28597113490104675,-1.3620317617999476,0.0,-0.02512328512966633,0.7538557052612305,0.0,-0.0033794837072491646,0.8611530065536499,-4.650754635804333e-05,0.017572741955518723
560.0,535.0,6.0239,-1.6403,6.8076,-0.0612,-0.2619,-0.1813,-1.54747721486304,-0.20583146810531616,1.8941292762756348,-1.431586503982544,-0.0064569697715342045,2.1400675773620605,3.6808158594318847,0.00022595380141865462,0.2690165638923645,-1.3620231787311,0.0,-0.037349291145801544,0.7538197040557861,0.0,-0.0157233327627182,0.8611447215080261,-4.4119529775343835e-05,0.021875280886888504
560.0,535.0,6.0239,-1.6403,6.8076,-0.0612,-0.2619,-0.1813,-1.548660024335124,-0.21321231126785278,1.879225730895996,-1.4315855503082275,-0.006464725825935602,2.1278533935546875,3.6808273035236816,0.00019013542623724788,0.28539717197418213,-1.3620556036578577,0.0,-0.032690852880477905,0.7538434267044067,0.0,-0.012360754422843456,0.8611088991165161,-6.136405136203393e-05,0.05037485063076019
560.0,535.0,6.0239,-1.6403,6.8076,-0.0612,-0.2619,-0.1813,-1.5499191407910367,-0.2158939242362976,1.8525404930114746,-1.4316139221191406,-0.0037346382159739733,2.181628704071045,3.6807429033466796,0.00016412255354225636,0.2671307921409607,-1.3620389143573206,0.0,-0.015817739069461823,0.7538917660713196,0.0,-0.004308812785893679,0.8611493110656738,-5.7694418501341715e-05,0.003936893306672573
560.0,535.0,6.0239,-1.6403,6.8076,-0.0612,-0.2619,-0.1813,-1.5512301617166777,-0.21397948265075684,1.8739843368530273,-1.4315813779830933,-0.0010656261583790183,2.1428139209747314,3.6807829576679687,5.692975173587911e-05,0.28724128007888794,-1.3620355764972132,0.0,-0.034404024481773376,0.7538197040557861,0.0,0.005979596171528101,0.8611534833908081,-7.229157927213237e-05,-0.03748181462287903
560.0,535.0,6.0239,-1.6403,6.8076,-0.0612,-0.2619,-0.1813,-1.5525329162231465,-0.21377423405647278,1.9244801998138428,-1.4316139221191406,-0.00040333447395823896,2.153470516204834,3.6808149057575683,0.00016616492939647287,0.2726890444755554,-1.3620355764972132,0.0,-0.03597939759492874,0.7538517117500305,0.0,0.006554645020514727,0.8611534833908081,-5.137114567332901e-05,-0.051796119660139084
560.0,535.0,6.0239,-1.6403,6.8076,-0.0612,-0.2619,-0.1813,-1.5538918667337676,-0.22008851170539856,1.9002583026885986,-1.4316258430480957,-0.00011490692850202322,2.156388759613037,3.6808597284504394,0.0006347863818518817,0.2864587903022766,-1.3620317617999476,0.0,-0.03573514521121979,0.7538556456565857,0.0,-0.018038304522633553,0.8611530065536499,-4.8388643335783854e-05,0.005659107118844986
560.0,535.0,6.0239,-1.6403,6.8076,-0.0612,-0.2619,-0.1813,-1.5553308718702574,-0.2377258837223053,1.9178314208984375,-1.4315773248672485,-0.0002330778952455148,2.218971014022827,3.6808149057575683,0.0005593840032815933,0.2733762562274933,-1.3620637098895472,0.0,-0.026225512847304344,0.753847599029541,0.0,-0.0031590955331921577,0.8611167073249817,-4.591971810441464e-05,-0.024166731163859367
560.0,535.0,6.0239,-1.6403,6.8076,-0.0612,-0.2619,-0.1813,-1.5567730025253077,-0.2541777491569519,1.890153408050537,-1.4316295385360718,-0.0009629253763705492,2.181020736694336,3.6807829576679687,0.00044190106564201415,0.2949942350387573,-1.3620389143573206,0.0,-0.032742828130722046,0.7538557648658752,0.0,-0.0027902922593057156,0.8611048460006714,-4.369063026388176e-05,0.013699136674404144
560.0,535.0,6.0239,-1.6403,6.8076,-0.0612,-0.2619,-0.1813,-1.5583200513250013,-0.2558664083480835,1.904877781867981,-1.4316693544387817,-0.0015583601780235767,2.1738264560699463,3.6808759409138183,0.00041015062015503645,0.28642600774765015,-1.3620193640338343,0.0,-0.03767538443207741,0.7538517117500305,0.0,-0.005915866699069738,0.8611286878585815,-4.166788494330831e-05,0.06521859765052795
560.0,535.0,6.0239,-1.6403,6.8076,-0.0612,-0.2619,-0.1813,-1.5598831067657848,-0.2590733766555786,1.936028242111206,-1.4316377639770508,-0.0003287056752014905,2.1577489376068115,3.6808387476154785,0.0005074918153695762,0.2844545245170593,-1.3619988600360315,0.0,-0.02513759396970272,0.7538032531738281,0.0,0.005104618147015572,0.8611410856246948,-5.309163680067286e-05,-0.007778939791023731
560.0,535.0,6.0239,-1.6403,6.8076,-0.0612,-0.2619,-0.1813,-1.5614618391594668,-0.26816174387931824,1.8354241847991943,-1.4316377639770508,-0.0002090898051392287,2.1727476119995117,3.680863066310547,0.0021858715917915106,0.2738792896270752,-1.3620274702655237,0.0,-0.03344248980283737,0.7538596987724304,0.0,-0.008107027970254421,0.8610925674438477,-5.084887015982531e-05,0.0223348680883646
560.0,535.0,6.0239,-1.6403,6.8076,-0.0612,-0.2619,-0.1813,-1.563139802110829,-0.2709328532218933,1.942655086517334,-1.4315896034240723,-7.753463432891294e-05,2.1792519092559814,3.680859251613281,0.004219731315970421,0.2948419153690338,-1.361978832875387,0.0,-0.03394429013133049,0.7538639307022095,0.0,-0.005415872670710087,0.8611007928848267,-4.9115642468677834e-05,0.030328335240483284
560.0,535.0,6.0239,-1.6403,6.8076,-0.0612,-0.2619,-0.1813,-1.5642708468115707,-0.26984551548957825,1.9220082759857178,-1.4316785335540771,-0.00013128930004313588,2.1837499141693115,3.680874987239502,0.005722030997276306,0.2952266037464142,-1.3619988600360315,0.0,-0.02870313450694084,0.7538237571716309,0.0,-0.00947527214884758,0.8611694574356079,-6.984912761254236e-05,0.007176303304731846
560.0,535.0,6.0239,-1.6403,6.8076,-0.0612,-0.2619,-0.1813,-1.5660022611594577,-0.279017835855484,1.9313398599624634,-1.4316414594650269,-0.00016252683417405933,2.127650260925293,3.680947466487549,0.010666375048458576,0.30052483081817627,-1.3620193640338343,0.0,-0.028089024126529694,0.7538761496543884,0.0,-0.005209055729210377,0.8611451983451843,-6.482961180154234e-05,0.02845652401447296
560.0,535.0,6.0239,-1.6403,6.8076,-0.0612,-0.2619,-0.1813,-1.567667853585892,-0.29661914706230164,1.957589864730835,-1.4316579103469849,-0.000184609045390971,2.190147876739502,3.6809674936481933,0.011086619459092617,0.3066626191139221,-1.3620150724994105,0.0,-0.034912046045064926,0.753843367099762,0.0,-0.0038659630808979273,0.8611493110656738,-6.047357965144329e-05,0.017767781391739845
560.0,535.0,6.0239,-1.6403,6.8076,-0.0612,-0.2619,-0.1813,-1.569442876647674,-0.2996460199356079,1.9433093070983887,-1.4316496849060059,-0.00015086375060491264,2.1676762104034424,3.681124373073242,0.007471825927495956,0.3006574213504791,-1.3619707266436976,0.0,-0.04204266890883446,0.7538679838180542,0.0,-0.01889825612306595,0.8611130118370056,-5.666604556608945e-05,-0.013379069045186043
541.0,476.0,7.6319,-1.3639,6.5414,-0.0447,-0.2457,-0.1742,-1.571244855920309,-0.30666419863700867,1.8250813484191895,-1.4316295385360718,-0.00017269789532292634,2.1950361728668213,3.681135817165039,0.004297678358852863,0.30226367712020874,-1.3620107809649866,0.0,-0.05543862655758858,0.7538037300109863,0.0,0.0032866233959794044,0.8611451983451843,-5.330951898940839e-05,0.028350144624710083
541.0,476.0,7.6319,-1.3639,6.5414,-0.0447,-0.2457,-0.1742,-1.573031564752096,-0.3150542676448822,1.904534935951233,-1.431613564491272,-0.0001118170766858384,2.207091808319092,3.6811558443256835,0.002630836796015501,0.3064999282360077,-1.3620193640338343,0.0,-0.03929651528596878,0.7538032531738281,0.0,-0.008019395172595978,0.8611451983451843,-5.032843182561919e-05,0.012831213884055614
541.0,476.0,7.6319,-1.3639,6.5414,-0.0447,-0.2457,-0.1742,-1.5748735866942347,-0.3115473985671997,1.967801809310913,-1.4316219091415405,-4.630091510193779e-08,2.19156813621521,3.681215925807617,0.005305610131472349,0.313904345035553,-1.3620231787311,0.0,-0.025091124698519707,0.7538679838180542,0.0,-0.01511368528008461,0.8611249327659607,-4.766319034388289e-05,0.03201721981167793
541.0,476.0,7.6319,-1.3639,6.5414,-0.0447,-0.2457,-0.1742,-1.5767079792418421,-0.30850258469581604,1.9568400382995605,-1.4316258430480957,-1.1181126960716978e-13,2.202423095703125,3.681243582362793,0.01078333705663681,0.3115077614784241,-1.3620556036578577,0.0,-0.04144460707902908,0.7538438439369202,0.0,-0.00016680482076480985,0.8611208200454712,-4.526593693299219e-05,0.021335983648896217
541.0,476.0,7.6319,-1.3639,6.5414,-0.0447,-0.2457,-0.1742,-1.5785628757872523,-0.3099766969680786,1.951741099357605,-1.4316179752349854,-2.7001103558533838e-19,2.211101770401001,3.681323691005371,0.016560547053813934,0.3196597695350647,-1.3620274702655237,0.0,-0.04010310769081116,0.7538237571716309,0.0,-0.0048466892912983894,0.8611530065536499,-2.9305365387699567e-05,0.0215496513992548
541.0,476.0,7.6319,-1.3639,6.5414,-0.0447,-0.2457,-0.1742,-1.58044495205068,-0.31197652220726013,1.993449330329895,-1.4316575527191162,-6.520448634278122e-25,2.298759937286377,3.6814634042927246,0.019384389743208885,0.330022394657135,-1.3620556036578577,0.0,-0.035567838698625565,0.7537913918495178,0.0,-0.011501245200634003,0.861137330532074,-1.425627306161914e-05,-0.04970451071858406
541.0,476.0,7.6319,-1.3639,6.5414,-0.0447,-0.2457,-0.1742,-1.5823236904540003,-0.3161472678184509,1.9757956266403198,-1.4315816164016724,-1.574611734508392e-30,2.2315773963928223,3.6815435129353027,0.019279910251498222,0.3340468406677246,-1.3620556036578577,0.0,-0.02631140686571598,0.7538352608680725,0.0,-0.013268799521028996,0.8611369729042053,-1.311048345087329e-05,0.08359015733003616
541.0,476.0,7.6319,-1.3639,6.5414,-0.0447,-0.2457,-0.1742,-1.584210058251852,-0.3189697563648224,2.0020315647125244,-1.4315741062164307,-3.802502169550249e-36,2.256114959716797,3.6817328172871093,0.018630651757121086,0.34961652755737305,-1.3620193640338343,0.0,-0.0459904670715332,0.75382000207901,0.0,-0.00866037979722023,0.8611570596694946,-1.25615379147348e-05,0.02077706903219223
541.0,476.0,7.6319,-1.3639,6.5414,-0.0447,-0.2457,-0.1742,-1.5861007175841273,-0.3203063905239105,2.0346930027008057,-1.431593656539917,0.00038102356484159827,2.275588035583496,3.681844874019287,0.020810101181268692,0.3554927706718445,-1.3620756308185022,0.0,-0.03416646271944046,0.7538397908210754,0.0,-0.016250936314463615,0.8611652851104736,-1.2056702871632297e-05,0.026349078863859177
541.0,476.0,7.6319,-1.3639,6.5414,-0.0447,-0.2457,-0.1742,-1.588055273095602,-0.32097622752189636,2.0014772415161133,-1.431533694267273,0.0026659173890948296,2.2842602729797363,3.682041807765625,0.02518058754503727,0.34701332449913025,-1.3620675245868128,0.0,-0.03718271106481552,0.7538598775863647,0.0,-0.006909537129104137,0.8611612319946289,-1.159088424174115e-05,0.022140000015497208
541.0,476.0,7.6319,-1.3639,6.5414,-0.0447,-0.2457,-0.1742,-1.589940687219137,-0.3097004294395447,2.0355122089385986,-1.431565761566162,0.0034167037811130285,2.35770583152771,3.682213469142578,0.03615577518939972,0.3619571328163147,-1.3620346228228968,0.0,-0.048385169357061386,0.7538197040557861,0.0,-0.004502833355218172,0.8611369729042053,-1.9586095731938258e-05,0.016588743776082993
541.0,476.0,7.6319,-1.3639,6.5414,-0.0447,-0.2457,-0.1742,-1.5919038257994593,-0.31168806552886963,2.009007453918457,-1.4315299987792969,0.0024373275227844715,2.3027877807617188,3.6824862199970703,0.0534164123237133,0.3677581548690796,-1.3620875517474573,0.0,-0.024946970865130424,0.7538077235221863,0.0,-0.008278769440948963,0.8611290454864502,-1.8490032744011842e-05,-0.023571636527776718
541.0,476.0,7.6319,-1.3639,6.5414,-0.0447,-0.2457,-0.1742,-1.5938497982420863,-0.3169073462486267,1.9924099445343018,-1.431565761566162,0.0005683738854713738,2.337557315826416,3.6828619676777343,0.08549521863460541,0.40510326623916626,-1.3620513121234339,0.0,-0.030298884958028793,0.7538520097732544,0.0,-0.004339850507676601,0.861169159412384,-2.037050990111311e-06,0.0010318402200937271
541.0,476.0,7.6319,-1.3639,6.5414,-0.0447,-0.2457,-0.1742,-1.5957848034300746,-0.3150300979614258,2.025866746902466,-1.4315861463546753,4.660741615225561e-05,2.323681592941284,3.683474226588867,0.13348625600337982,0.42116618156433105,-1.3620713392840784,0.0,-0.047002825886011124,0.7537757754325867,0.0,-0.012896331958472729,0.8611329197883606,-4.919238627554279e-12,0.015225916169583797
541.0,476.0,7.6319,-1.3639,6.5414,-0.0447,-0.2457,-0.1742,-1.5977875194945277,-0.32694101333618164,2.0570247173309326,-1.4315781593322754,1.1255142651211969e-10,2.323075294494629,3.684525652522705,0.16315947473049164,0.43480968475341797,-1.362063233052389,0.0,-0.03936110436916351,0.7538438439369202,0.0,-0.0022461428306996822,0.8611413240432739,-1.1879381486432283e-17,-0.002900149440392852
541.0,476.0,7.6319,-1.3639,6.5414,-0.0447,-0.2457,-0.1742,-1.5997258625426234,-0.3299238085746765,2.0053200721740723,-1.4315180778503418,2.7179842027424245e-16,2.2845752239227295,3.6855341631123046,0.17947237193584442,0.4457467198371887,-1.3620594183551233,0.0,-0.02477920427918434,0.7538077235221863,0.0,-0.0112743666395545,0.8611410856246948,-2.868731178248384e-23,0.05441131815314293
554.0,498.0,8.3815,-1.602,5.939,-0.0597,0.3407,-0.0295,-1.601736684838766,-0.3254556655883789,2.0849642753601074,-1.4315379858016968,6.563612022509981e-22,2.321504831314087,3.686715288753174,0.21120554208755493,0.4599798917770386,-1.36204702058901,0.0,-0.04631194844841957,0.7538480162620544,0.0,-0.014469346031546593,0.8611007332801819,-6.92764764901177e-29,-0.0228761937469244
554.0,498.0,8.3815,-1.602,5.939,-0.0597,0.3407,-0.0295,-1.6036225757994593,-0.3300401568412781,2.019606590270996,-1.4315739870071411,-0.00015271206211764365,2.347177028656006,3.688084288234375,0.24524420499801636,0.47713154554367065,-1.3620274702655237,0.0,-0.02581685595214367,0.7538278102874756,0.0,-0.012460523284971714,0.8611530065536499,-1.6729456521685288e-34,0.01841287687420845
554.0,498.0,8.3815,-1.602,5.939,-0.0597,0.3407,-0.0295,-1.6055852375426234,-0.32837381958961487,2.0671308040618896,-1.4315577745437622,-1.6080173637078587e-08,2.3396990299224854,3.6896330553242187,0.25149765610694885,0.4739004373550415,-1.362075153981344,0.0,-0.03706540912389755,0.7538319826126099,0.0,-0.004701755940914154,0.8610885739326477,-4.039971498617734e-40,-0.0381087064743042
554.0,498.0,8.3815,-1.602,5.939,-0.0597,0.3407,-0.0295,-1.6074916325011195,-0.31942012906074524,2.086780071258545,-1.431553840637207,-3.88317307996322e-14,2.3375391960144043,3.6913325029560546,0.29116201400756836,0.5123805999755859,-1.3620513121234339,0.0,-0.022080138325691223,0.7538639903068542,0.0,0.003760554827749729,0.8611125946044922,-1.401298464324817e-45,-0.06100098043680191
554.0,498.0,8.3815,-1.602,5.939,-0.0597,0.3407,-0.0295,-1.6093903980650843,-0.31709930300712585,2.0527143478393555,-1.4315379858016968,-9.37740603874585e-20,2.332322120666504,3.6931864458271484,0.3171674609184265,0.5001538395881653,-1.36204702058901,0.0,-0.012635265477001667,0.7538118362426758,0.0,-0.0006145003717392683,0.8611732721328735,0.0,-0.009819514118134975
554.0,498.0,8.3815,-1.602,5.939,-0.0597,0.3407,-0.0295,-1.6112777195372523,-0.3155984580516815,2.148609161376953,-1.4315900802612305,-2.2645334502923494e-25,2.3608407974243164,3.695294066066406,0.36628085374832153,0.5435500144958496,-1.3620308081256312,0.0,-0.024512462317943573,0.7537880539894104,0.0,0.0024785236455500126,0.861181378364563,0.0,-0.03381801024079323
554.0,498.0,8.3815,-1.602,5.939,-0.0597,0.3407,-0.0295,-1.6131354771056117,-0.3172183632850647,2.097306251525879,-1.4315776824951172,-5.468581686550789e-31,2.3272781372070312,3.697570963496826,0.3987341523170471,0.5516889691352844,-1.3620994726764124,0.0,-0.02666277065873146,0.75382000207901,0.0,-0.011669272556900978,0.8611530065536499,0.0,0.03168280050158501
554.0,498.0,8.3815,-1.602,5.939,-0.0597,0.3407,-0.0295,-1.6150466404356898,-0.3170550465583801,2.127054214477539,-1.4315896034240723,-1.3205979323928806e-36,2.364445209503174,3.7001029688068847,0.4347434341907501,0.5460307598114014,-1.3620832602130335,0.0,-0.03452029824256897,0.7537115216255188,0.0,-0.009089464321732521,0.8611488938331604,0.0,0.04524299502372742
554.0,498.0,8.3815,-1.602,5.939,-0.0597,0.3407,-0.0295,-1.6162692509093226,-0.31621217727661133,2.1312782764434814,-1.4315823316574097,-2.3770365980188304e-40,2.3256137371063232,3.701841040248535,0.4680465757846832,0.5886394381523132,-1.36204702058901,0.0,-0.03138900548219681,0.7537798285484314,0.0,-0.013716384768486023,0.8611530065536499,0.0,-0.012620938941836357
554.0,498.0,8.3815,-1.602,5.939,-0.0597,0.3407,-0.0295,-1.6181799374022425,-0.32096508145332336,2.150421142578125,-1.4315497875213623,-0.0,2.3240225315093994,3.704791708583496,0.5086539387702942,0.5855794548988342,-1.3620551268206995,0.0,-0.030516434460878372,0.7537996768951416,0.0,-0.012365797534584999,0.8611451983451843,0.0,-0.0037587452679872513
554.0,498.0,8.3815,-1.602,5.939,-0.0597,0.3407,-0.0295,-1.6201220951476039,-0.31741324067115784,2.1412229537963867,-1.4314937591552734,-0.0,2.3153038024902344,3.708071394557617,0.5580369830131531,0.5976062417030334,-1.362075153981344,0.0,-0.03138476982712746,0.7537955045700073,0.0,-0.025919096544384956,0.8611571192741394,0.0,-0.024952996522188187
554.0,498.0,8.3815,-1.602,5.939,-0.0597,0.3407,-0.0295,-1.6220132313170375,-0.3128136694431305,2.162583351135254,-1.4315180778503418,-0.0,2.3557729721069336,3.7116662698933105,0.5976776480674744,0.5908315777778625,-1.3620346228228968,0.0,-0.023631704971194267,0.7537475228309631,0.0,0.00041774800047278404,0.8611328601837158,0.0,-0.050016410648822784
554.0,498.0,8.3815,-1.602,5.939,-0.0597,0.3407,-0.0295,-1.6239634952940882,-0.3182842433452606,2.1829051971435547,-1.431553840637207,-0.0,2.352607250213623,3.715496702785156,0.6409369707107544,0.6033098101615906,-1.3620265165912073,0.0,-0.04412497207522392,0.7537798285484314,0.0,-0.018863264471292496,0.8611212968826294,0.0,0.015253807418048382
554.0,498.0,8.3815,-1.602,5.939,-0.0597,0.3407,-0.0295,-1.6259261570372523,-0.314470499753952,2.2108259201049805,-1.431553840637207,-0.0,2.3778393268585205,3.7194382387348632,0.6810464262962341,0.598232626914978,-1.3620556036578577,0.0,-0.023962635546922684,0.7537680268287659,0.0,-0.018236365169286728,0.8611612319946289,0.0,-0.02493618242442608
554.0,498.0,8.3815,-1.602,5.939,-0.0597,0.3407,-0.0295,-1.6278802357115687,-0.3164121210575104,2.160963296890259,-1.431553840637207,-0.0,2.335805892944336,3.72363726675,0.71466463804245,0.5848761796951294,-1.3620713392840784,0.0,-0.04361037164926529,0.7537996172904968,0.0,-0.016807135194540024,0.8611732721328735,0.0,-0.010516348294913769
580.0,589.0,6.6359,-1.5954,5.2834,-0.0739,0.6474,0.029,-1.6297432384886683,-0.32739076018333435,2.228649377822876,-1.4315974712371826,-0.0,2.3412442207336426,3.727977915401123,0.7439200282096863,0.5770659446716309,-1.36204702058901,0.0,-0.029992416501045227,0.7538036704063416,0.0,-0.019720133394002914,0.8611571192741394,0.0,-0.04387378692626953
580.0,589.0,6.6359,-1.5954,5.2834,-0.0739,0.6474,0.029,-1.6316734753050746,-0.3200046718120575,2.2059011459350586,-1.4315820932388306,-0.0,2.3405323028564453,3.7325450617023925,0.7677358388900757,0.5848482847213745,-1.362063233052389,0.0,-0.032840654253959656,0.7538036704063416,0.0,-0.008777802810072899,0.8611286878585815,0.0,0.030536150559782982
580.0,589.0,6.6359,-1.5954,5.2834,-0.0739,0.6474,0.029,-1.6335917911925257,-0.32207420468330383,2.184192657470703,-1.431541919708252,-0.0,2.3318586349487305,3.737130804652832,0.7963247299194336,0.5864937901496887,-1.362063233052389,0.0,-0.023495886474847794,0.7537798285484314,0.0,-0.03333604708313942,0.861189603805542,0.0,-0.01469044853001833
580.0,589.0,6.6359,-1.5954,5.2834,-0.0739,0.6474,0.029,-1.63549866298818,-0.32532787322998047,2.129401206970215,-1.4315299987792969,-0.0,2.2805323600769043,3.741971178645752,0.812289834022522,0.5979515910148621,-1.3620675245868128,0.0,-0.04116740822792053,0.7538036704063416,0.0,-0.0060210926458239555,0.8611891269683838,0.0,-0.04657091945409775
580.0,589.0,6.6359,-1.5954,5.2834,-0.0739,0.6474,0.029,-1.6374136410155238,-0.3197788894176483,2.23559832572937,-1.4315458536148071,-0.0,2.2604315280914307,3.746974154109619,0.8322674036026001,0.5622416734695435,-1.3620756308185022,0.0,-0.027608441188931465,0.7538319826126099,0.0,-0.022520363330841064,0.8611208200454712,0.0,-0.008691617287695408
580.0,589.0,6.6359,-1.5954,5.2834,-0.0739,0.6474,0.029,-1.6392508945860804,-0.3155171871185303,2.230623483657837,-1.4315299987792969,-0.00010434940486447886,2.3091044425964355,3.7520667749592285,0.8482774496078491,0.548255443572998,-1.36204702058901,0.0,-0.03103940561413765,0.7538160085678101,0.0,-0.022106992080807686,0.8611047863960266,0.0,0.00965909194201231
580.0,589.0,6.6359,-1.5954,5.2834,-0.0739,0.6474,0.029,-1.6411425075926722,-0.3130820691585541,2.209226608276367,-1.431541919708252,-8.910333417588845e-05,2.3163936138153076,3.7572671610065917,0.8679438829421997,0.573338508605957,-1.3620231787311,0.0,-0.020765826106071472,0.7537556290626526,0.0,-0.024562422186136246,0.8611286878585815,0.0,0.0357169546186924
580.0,589.0,6.6359,-1.5954,5.2834,-0.0739,0.6474,0.029,-1.642996450463766,-0.3143753707408905,2.2325079441070557,-1.4315577745437622,-0.00011637179704848677,2.267324447631836,3.7625552850910644,0.8795889616012573,0.5399391055107117,-1.3620675245868128,0.0,-0.036488182842731476,0.7538762092590332,0.0,-0.015063213184475899,0.8611488938331604,0.0,0.02940230444073677
580.0,589.0,6.6359,-1.5954,5.2834,-0.0739,0.6474,0.029,-1.644923826257223,-0.3148043751716614,2.213853120803833,-1.431553840637207,-0.00013733912783209234,2.2341129779815674,3.7677323061176757,0.8964812159538269,0.5817368030548096,-1.3620107809649866,0.0,-0.027018502354621887,0.7537757754325867,0.0,-0.017325658351182938,0.861169159412384,0.0,0.01231132261455059
580.0,589.0,6.6359,-1.5954,5.2834,-0.0739,0.6474,0.029,-1.646766801873678,-0.3133459687232971,2.2437009811401367,-1.431561827659607,-0.00013609149027615786,2.2419397830963135,3.7731939989277343,0.9009538292884827,0.5538955926895142,-1.3620346228228968,0.0,-0.03286439925432205,0.7538356781005859,0.0,-0.015006029978394508,0.8611854910850525,0.0,0.012402338907122612
580.0,589.0,6.6359,-1.5954,5.2834,-0.0739,0.6474,0.029,-1.6486722431578578,-0.316589891910553,2.234673500061035,-1.431561827659607,-0.00011092608474427834,2.236135959625244,3.7786456781574707,0.9150905013084412,0.5368900895118713,-1.3620389143573206,0.0,-0.02873600646853447,0.7538196444511414,0.0,-0.03345835581421852,0.8611653447151184,0.0,-0.010894485749304295
580.0,589.0,6.6359,-1.5954,5.2834,-0.0739,0.6474,0.029,-1.6506597004332484,-0.31755608320236206,2.185819149017334,-1.431502103805542,-2.2897114604347735e-07,2.2544102668762207,3.784198446864746,0.9222008585929871,0.5620338916778564,-1.3620274702655237,0.0,-0.03325995057821274,0.7538400888442993,0.0,-0.025164395570755005,0.8611530065536499,0.0,0.0021174491848796606
580.0,589.0,6.6359,-1.5954,5.2834,-0.0739,0.6474,0.029,-1.6525165043272914,-0.31391072273254395,2.2425341606140137,-1.4315180778503418,-5.529383916881569e-13,2.2583117485046387,3.7897865015217285,0.9306450486183167,0.52610844373703,-1.3620308081256312,0.0,-0.03126205503940582,0.7538118362426758,0.0,-0.017535779625177383,0.8611571192741394,0.0,0.023742491379380226
580.0,589.0,6.6359,-1.5954,5.2834,-0.0739,0.6474,0.029,-1.6544910869994105,-0.319800466299057,2.2136123180389404,-1.4315379858016968,-1.3352811634998237e-18,2.202259063720703,3.795391245479248,0.9359203577041626,0.5380275249481201,-1.362006966267721,0.0,-0.027760080993175507,0.753791332244873,0.0,-0.017705339938402176,0.8611369729042053,0.0,0.02904084324836731
580.0,589.0,6.6359,-1.5954,5.2834,-0.0739,0.6474,0.029,-1.6564399204649867,-0.3218729496002197,2.189542055130005,-1.4315061569213867,-3.22454665289005e-24,2.207941770553589,3.800945921535156,0.9384011626243591,0.5329043865203857,-1.3620346228228968,0.0,-0.03421758860349655,0.753868043422699,0.0,-0.018185431137681007,0.8611451983451843,0.0,0.06695175915956497
580.0,589.0,6.6359,-1.5954,5.2834,-0.0739,0.6474,0.029,-1.6584865055479945,-0.32373160123825073,2.2257959842681885,-1.4315896034240723,-7.78689963860409e-30,2.178758382797241,3.806703730220459,0.9360998868942261,0.5178531408309937,-1.36204702058901,0.0,-0.026441071182489395,0.7537832856178284,0.0,-0.009859456680715084,0.8611694574356079,0.0,0.10116363316774368
610.0,583.0,6.3386,-1.2574,5.4562,-0.0567,0.5918,0.0206,-1.6604358158507289,-0.33751216530799866,2.1459994316101074,-1.4315896034240723,-0.0007521046791225672,2.199064016342163,3.8122379022785644,0.9374955892562866,0.529242753982544,-1.3620355764972132,0.0,-0.03829082101583481,0.7537791728973389,0.0,-0.01458759419620037,0.8611650466918945,0.0,0.08971993625164032
610.0,583.0,6.3386,-1.2574,5.4562,-0.0567,0.5918,0.0206,-1.6624819240965785,-0.3395916819572449,2.1662447452545166,-1.4315499067306519,-0.000658612756524235,2.1713998317718506,3.817875548,0.9272457957267761,0.5056524276733398,-1.3620389143573206,0.0,-0.030466239899396896,0.7538077235221863,0.0,-0.002953233662992716,0.861189603805542,0.0,0.07782895117998123
610.0,583.0,6.3386,-1.2574,5.4562,-0.0567,0.5918,0.0206,-1.6644798717894496,-0.3420625925064087,2.2257626056671143,-1.4315742254257202,-0.0005690682446584105,2.1347341537475586,3.823333902949951,0.9278349280357361,0.510938823223114,-1.3620274702655237,0.0,-0.043259307742118835,0.7538557648658752,0.0,-0.010624943301081657,0.8611410856246948,0.0,0.10017897933721542
610.0,583.0,6.3386,-1.2574,5.4562,-0.0567,0.5918,0.0206,-1.6664978466429652,-0.3489334285259247,2.1488752365112305,-1.4316457509994507,-0.0005956079694442451,2.16978120803833,3.828951521510742,0.9165005683898926,0.5062350630760193,-1.3620026747332972,0.0,-0.034708600491285324,0.7538517117500305,0.0,-0.01675104908645153,0.8611171245574951,0.0,0.07444542646408081
610.0,583.0,6.3386,-1.2574,5.4562,-0.0567,0.5918,0.0206,-1.6679126224913539,-0.3474380671977997,2.215193033218384,-1.4315896034240723,-0.0005753239965997636,2.130523443222046,3.8325907427021484,0.9196035265922546,0.5077831745147705,-1.362006966267721,0.0,-0.04082008823752403,0.7538964152336121,0.0,-0.003108448348939419,0.8611328601837158,0.0,0.0959588810801506
610.0,583.0,6.3386,-1.2574,5.4562,-0.0567,0.5918,0.0206,-1.669973989526266,-0.3436047434806824,2.2085819244384766,-1.431561827659607,-0.00046408316120505333,2.1279261112213135,3.8381501871296386,0.9102944731712341,0.5029681921005249,-1.3620675245868128,0.0,-0.04145811125636101,0.7538639307022095,0.0,-0.009060499258339405,0.8611208200454712,0.0,0.16366171836853027
610.0,583.0,6.3386,-1.2574,5.4562,-0.0567,0.5918,0.0206,-1.672021051446432,-0.3437102437019348,2.248140335083008,-1.4315742254257202,-0.0003975680738221854,2.127246141433716,3.843653841609619,0.9140894412994385,0.5130869746208191,-1.3620031515704554,0.0,-0.03706653416156769,0.7538438439369202,0.0,-0.00850717443972826,0.8611571192741394,0.0,0.10014256834983826
610.0,583.0,6.3386,-1.2574,5.4562,-0.0567,0.5918,0.0206,-1.6740061245360316,-0.34289973974227905,2.231949806213379,-1.4315662384033203,-0.00025140316574834287,2.1059787273406982,3.8491574960895996,0.9068266749382019,0.49667835235595703,-1.3620594183551233,0.0,-0.04630216211080551,0.7538278698921204,0.0,-0.005408617202192545,0.8611571192741394,0.0,0.09827308356761932
610.0,583.0,6.3386,-1.2574,5.4562,-0.0567,0.5918,0.0206,-1.6760393581786097,-0.34408244490623474,2.239720106124878,-1.4316015243530273,-0.00010554862819844857,2.16982364654541,3.854578657741211,0.911514937877655,0.5122041702270508,-1.361990753804342,0.0,-0.043195586651563644,0.7538316249847412,0.0,-0.003669304307550192,0.8611694574356079,0.0,0.09162110835313797
610.0,583.0,6.3386,-1.2574,5.4562,-0.0567,0.5918,0.0206,-1.6780649624266566,-0.3433690667152405,2.2596654891967773,-1.4315458536148071,-7.805776840541512e-05,2.1138598918914795,3.859956904048584,0.9034451246261597,0.5074552297592163,-1.3620107809649866,0.0,-0.044402074068784714,0.7538356781005859,0.0,-0.018756264820694923,0.8611290454864502,0.0,0.11583016812801361
610.0,583.0,6.3386,-1.2574,5.4562,-0.0567,0.5918,0.0206,-1.6801148853697718,-0.346087247133255,2.2436909675598145,-1.4315816164016724,-6.193757872097194e-05,2.142150640487671,3.865393801326416,0.9058602452278137,0.4789198637008667,-1.3620317617999476,0.0,-0.03105005994439125,0.753868043422699,0.0,0.0019990408327430487,0.8610806465148926,0.0,0.08976905047893524
