ramyac6/ROB537/final_project/csv/all/bad_15.csv
tof_0,tof_1,accelx,accely,accelz,gyrox,gyroy,gyroz,shoulder_lift_joint_position,shoulder_lift_joint_velocity,shoulder_lift_joint_effort,elbow_joint_position,elbow_joint_velocity,elbow_joint_effort,wrist_1_joint_position,wrist_1_joint_velocity,wrist_1_joint_effort,wrist_2_joint_position,wrist_2_joint_velocity,wrist_2_joint_effort,wrist_3_joint_position,wrist_3_joint_velocity,wrist_3_joint_effort,shoulder_pan_joint_position,shoulder_pan_joint_velocity,shoulder_pan_joint_effort
822.0,552.0,-4.6493,-3.4696,7.9071,-0.0368,0.0403,-0.1327,-2.217314382592672,0.00033253690344281495,4.251927852630615,-1.6177966594696045,-0.0,1.70322585105896,-0.4590776723674317,-0.0,0.21985948085784912,-1.2313101927386683,0.0,-0.03643824905157089,0.5559670925140381,0.0,0.0006687743589282036,1.2359051704406738,-0.01901778019964695,-0.01999840699136257
822.0,552.0,-4.6493,-3.4696,7.9071,-0.0368,0.0403,-0.1327,-2.217273851434225,0.00032599535188637674,4.2853827476501465,-1.6177841424942017,-0.0,1.6965643167495728,-0.4590776723674317,-0.0,0.20156022906303406,-1.2313020865069788,0.0,-0.04556024819612503,0.5559790134429932,0.0,0.003904384095221758,1.2358369827270508,-0.019897585734725,-0.025548003613948822
822.0,552.0,-4.6493,-3.4696,7.9071,-0.0368,0.0403,-0.1327,-2.2172862492003382,0.0003516521828714758,4.267683982849121,-1.6177527904510498,-0.0,1.671372890472412,-0.4590776723674317,-0.0,0.20432919263839722,-1.231325928364889,0.0,-0.03335585817694664,0.5559913516044617,0.0,0.002394234063103795,1.2357611656188965,-0.019806833937764168,-0.024455033242702484
822.0,552.0,-4.6493,-3.4696,7.9071,-0.0368,0.0403,-0.1327,-2.217302461663717,0.0003212613519281149,4.292237281799316,-1.6177971363067627,-0.0,1.6690537929534912,-0.45902569711718755,-0.0,0.20332086086273193,-1.2313059012042444,0.0,-0.04514211043715477,0.5560232400894165,0.0,0.007389426231384277,1.2356735467910767,-0.019119950011372566,-0.0414314940571785
822.0,552.0,-4.6493,-3.4696,7.9071,-0.0368,0.0403,-0.1327,-2.217302461663717,0.00041685171891003847,4.286977291107178,-1.617836356163025,-0.0,1.6860909461975098,-0.4590616983226319,-0.0,0.21303921937942505,-1.231337849293844,0.0,-0.034767962992191315,0.5559589266777039,0.0,0.014161691069602966,1.235569715499878,-0.01865508034825325,-0.026891181245446205
822.0,552.0,-4.6493,-3.4696,7.9071,-0.0368,0.0403,-0.1327,-2.2172943554320277,0.00038970133755356073,4.268292427062988,-1.6177722215652466,-0.0,1.6776105165481567,-0.4590776723674317,-0.0,0.19497257471084595,-1.231337849293844,0.0,-0.038649484515190125,0.5559790134429932,0.0,-0.0007542595267295837,1.2355499267578125,-0.018463581800460815,-0.04010913521051407
822.0,552.0,-4.6493,-3.4696,7.9071,-0.0368,0.0403,-0.1327,-2.2173105678954066,0.0003321605909150094,4.264827728271484,-1.6178210973739624,-0.0,1.6540367603302002,-0.459025577907898,-0.0,0.2107679843902588,-1.2313702742206019,0.0,-0.047877855598926544,0.5559913516044617,0.0,-0.00019670045003294945,1.235421895980835,-0.018433718010783195,-0.05963214486837387
822.0,552.0,-4.6493,-3.4696,7.9071,-0.0368,0.0403,-0.1327,-2.217290540734762,0.0002894240606110543,4.3265533447265625,-1.6178250312805176,0.00014133562217466533,1.690667748451233,-0.459037260418274,-0.0,0.20966513454914093,-1.2313545385943812,0.0,-0.03268864005804062,0.5559266209602356,0.0,0.010424364358186722,1.2353579998016357,-0.01793193258345127,0.040585897862911224
822.0,552.0,-4.6493,-3.4696,7.9071,-0.0368,0.0403,-0.1327,-2.217290540734762,0.00024260628561023623,4.248620986938477,-1.6178284883499146,0.00012933557445649058,1.6652034521102905,-0.4590936464122315,-0.0,0.20977653563022614,-1.231325928364889,0.0,-0.03181438520550728,0.5559552311897278,0.0,0.008746163919568062,1.235262393951416,-0.017489880323410034,0.011705474928021431
822.0,552.0,-4.6493,-3.4696,7.9071,-0.0368,0.0403,-0.1327,-2.2173062763609828,0.00021899075363762677,4.255108833312988,-1.6178324222564697,0.00014672653924208134,1.6659327745437622,-0.45911844194445806,-0.0,0.21264949440956116,-1.2313621679889124,0.0,-0.04316055402159691,0.5559753179550171,0.0,0.0036607254296541214,1.2352063655853271,-0.016531147062778473,-0.060248516499996185
825.0,539.0,-4.3848,-3.5312,7.8066,-0.0363,0.029,-0.1104,-2.2173263035216273,0.00019956572214141488,4.257540702819824,-1.6178090572357178,0.00013919959019403905,1.6706942319869995,-0.4591224950603028,-0.0,0.2126423418521881,-1.2313221136676233,0.0,-0.03798077628016472,0.5559184551239014,0.0,0.01638832502067089,1.2351627349853516,-0.016281289979815483,0.003982179798185825
825.0,539.0,-4.3848,-3.5312,7.8066,-0.0363,0.029,-0.1104,-2.2172705135741175,0.00018330643069930375,4.341217994689941,-1.6177443265914917,0.00013237487291917205,1.6842814683914185,-0.4590776723674317,-0.0,0.2106238603591919,-1.2313106695758265,0.0,-0.05214858800172806,0.5560073852539062,0.0,-0.0002794552128762007,1.2350265979766846,-0.01588493585586548,-0.007004950195550919
825.0,539.0,-4.3848,-3.5312,7.8066,-0.0363,0.029,-0.1104,-2.217306753198141,0.000163344171596691,4.247594833374023,-1.6177687644958496,0.00014384659880306572,1.692021369934082,-0.4590776723674317,-0.0,0.219721257686615,-1.2313101927386683,0.0,-0.04901467263698578,0.5559388399124146,0.0,0.010177207179367542,1.2349989414215088,-0.015401332639157772,0.02464475855231285
825.0,539.0,-4.3848,-3.5312,7.8066,-0.0363,0.029,-0.1104,-2.2172705135741175,0.0001522879465483129,4.272352695465088,-1.6177687644958496,0.00013757491251453757,1.6534355878829956,-0.45905335367236333,-0.0,0.20407789945602417,-1.2313502470599573,0.0,-0.04180116951465607,0.5559830665588379,0.0,0.00291129807010293,1.2349190711975098,-0.015385388396680355,0.0005157111445441842
825.0,539.0,-4.3848,-3.5312,7.8066,-0.0363,0.029,-0.1104,-2.2173224888243617,0.0001426337839802727,4.26667594909668,-1.6177802085876465,0.00014420592924579978,1.6883041858673096,-0.4590776723674317,-0.0,0.21510186791419983,-1.2313182989703577,0.0,-0.042124755680561066,0.5560232400894165,0.0,0.009583834558725357,1.2348389625549316,-0.015336110256612301,0.022698603570461273
825.0,539.0,-4.3848,-3.5312,7.8066,-0.0363,0.029,-0.1104,-2.2172943554320277,0.00013024835789110512,4.248159885406494,-1.6177648305892944,0.00014175131218507886,1.6796164512634277,-0.45906932771716313,-0.0,0.20610523223876953,-1.2313340345965784,0.0,-0.0423864871263504,0.5560113191604614,0.0,0.012841354124248028,1.234755277633667,-0.01576264388859272,-0.0380731038749218
825.0,539.0,-4.3848,-3.5312,7.8066,-0.0363,0.029,-0.1104,-2.2172986469664515,0.00012312100443523377,4.302716255187988,-1.6178131103515625,0.00019834141130559146,1.6773381233215332,-0.45906932771716313,-0.0,0.2099868208169937,-1.2313302198993128,0.0,-0.04272858053445816,0.556003212928772,0.0,0.018383033573627472,1.2346513271331787,-0.015402612276375294,-0.000588354654610157
825.0,539.0,-4.3848,-3.5312,7.8066,-0.0363,0.029,-0.1104,-2.2172867260374964,0.00011673329572658986,4.265496253967285,-1.6177771091461182,0.00020879704970866442,1.7041561603546143,-0.4590497773936768,-0.0,0.20704525709152222,-1.2313664595233362,0.0,-0.04052000492811203,0.555986762046814,0.0,0.019926385954022408,1.2345833778381348,-0.014737790450453758,0.03591299057006836
825.0,539.0,-4.3848,-3.5312,7.8066,-0.0363,0.029,-0.1104,-2.2172862492003382,0.00011097571405116469,4.255060195922852,-1.6177841424942017,0.00020469725131988525,1.687986135482788,-0.45912213743243413,-0.0,0.19855129718780518,-1.2313740889178675,0.0,-0.04319741576910019,0.5560154914855957,0.0,0.006503458600491285,1.2345516681671143,-0.014333667233586311,0.0006084053311496973
825.0,539.0,-4.3848,-3.5312,7.8066,-0.0363,0.029,-0.1104,-2.217318197289938,0.00010333085083402693,4.268576622009277,-1.6177762746810913,0.0002438232331769541,1.6889759302139282,-0.4591103357127686,-0.0,0.2028365433216095,-1.2313140074359339,0.0,-0.04366102069616318,0.5560154318809509,0.0,0.0022760722786188126,1.23450767993927,-0.013320724479854107,6.426218897104263e-05
825.0,539.0,-4.3848,-3.5312,7.8066,-0.0363,0.029,-0.1104,-2.2173224888243617,9.879377466859296e-05,4.3008928298950195,-1.6177761554718018,0.00044710052316077054,1.6842201948165894,-0.45911438882861333,-0.0,0.20265091955661774,-1.2313502470599573,0.0,-0.0453069731593132,0.555946946144104,0.0,0.011491622775793076,1.2344238758087158,-0.01236245408654213,-0.02386908233165741
825.0,539.0,-4.3848,-3.5312,7.8066,-0.0363,0.029,-0.1104,-2.2172934017577113,9.463838796364143e-05,4.288454055786133,-1.6177523136138916,0.0004468649858608842,1.6705901622772217,-0.4590899509242554,-0.0,0.20813152194023132,-1.231325928364889,0.0,-0.0457792729139328,0.5559906959533691,0.0,0.006263348273932934,1.23439621925354,-0.011503002606332302,-0.010342355817556381
825.0,539.0,-4.3848,-3.5312,7.8066,-0.0363,0.029,-0.1104,-2.2172862492003382,9.081853932002559e-05,4.282303810119629,-1.6177688837051392,0.00043262317194603384,1.6680550575256348,-0.45908959329638677,-0.0,0.21242448687553406,-1.2313302198993128,0.0,-0.04462475702166557,0.5559790730476379,0.0,0.008188258856534958,1.234316110610962,-0.011062071658670902,0.01646427996456623
825.0,539.0,-4.3848,-3.5312,7.8066,-0.0363,0.029,-0.1104,-2.217302461663717,8.563385927118361e-05,4.27401876449585,-1.6178085803985596,0.0004267487965989858,1.667006254196167,-0.4590817254832764,-0.0,0.20343199372291565,-1.2313302198993128,0.0,-0.043210987001657486,0.556023359298706,0.0,0.003560669021680951,1.2342363595962524,-0.010521464049816132,0.004556973930448294
825.0,539.0,-4.3848,-3.5312,7.8066,-0.0363,0.029,-0.1104,-2.2172862492003382,8.249416714534163e-05,4.252518177032471,-1.6178126335144043,0.0004526736738625914,1.6758030652999878,-0.4590854209712525,-0.0,0.2024625837802887,-1.2313664595233362,0.0,-0.03969395533204079,0.5560072660446167,0.0,0.002665155101567507,1.234188437461853,-0.009613057598471642,-0.0388236828148365
825.0,539.0,-4.3848,-3.5312,7.8066,-0.0363,0.029,-0.1104,-2.2172943554320277,7.957658817758784e-05,4.252417087554932,-1.6177767515182495,0.0004581734538078308,1.6809437274932861,-0.45913036287341313,-0.0,0.21950790286064148,-1.2313059012042444,0.0,-0.05193040519952774,0.555986762046814,0.0,0.006875979248434305,1.2341405153274536,-0.00832121167331934,0.012363070622086525
825.0,539.0,-4.3848,-3.5312,7.8066,-0.0363,0.029,-0.1104,-2.217314382592672,6.561926420545205e-05,4.291469573974609,-1.6177483797073364,0.00048231074470095336,1.6887187957763672,-0.45907290399584966,-0.0,0.20707139372825623,-1.2313621679889124,0.0,-0.03742435574531555,0.5559909343719482,0.0,0.0061878301203250885,1.2341282367706299,-0.007633117027580738,-0.05158615857362747
825.0,539.0,-4.3848,-3.5312,7.8066,-0.0363,0.029,-0.1104,-2.2172824345030726,5.849067747476511e-05,4.295840740203857,-1.617748498916626,0.0006868588388897479,1.6832811832427979,-0.4590776723674317,-0.0,0.21271845698356628,-1.2313421408282679,0.0,-0.030282285064458847,0.5559470057487488,0.0,0.016203351318836212,1.234116554260254,-0.006913277320563793,-0.001392406178638339
825.0,539.0,-4.3848,-3.5312,7.8066,-0.0363,0.029,-0.1104,-2.2173062763609828,5.66490380151663e-05,4.258479118347168,-1.6177245378494263,0.0007625989383086562,1.6869182586669922,-0.45908577859912114,-0.0,0.20903819799423218,-1.231325928364889,0.0,-0.042282409965991974,0.5559827089309692,0.0,0.000866572605445981,1.23408842086792,-0.006103809457272291,0.00025593722239136696
825.0,539.0,-4.3848,-3.5312,7.8066,-0.0363,0.029,-0.1104,-2.2172943554320277,1.6004742064978927e-05,4.2662763595581055,-1.617712378501892,0.0014272129628807306,1.702998161315918,-0.45908959329638677,-0.0,0.20578527450561523,-1.2313302198993128,0.0,-0.04043339192867279,0.5559666752815247,0.0,0.008261624723672867,1.2340565919876099,-0.005497629754245281,0.0032653925009071827
816.0,534.0,-4.4237,-3.5049,7.6313,-0.0363,0.0159,-0.1119,-2.2172862492003382,1.5175070075201802e-05,4.291497230529785,-1.6177006959915161,0.005339736584573984,1.6910381317138672,-0.4590936464122315,-0.0,0.20039303600788116,-1.2313464323626917,0.0,-0.03956730663776398,0.5559909343719482,0.0,0.0016469135880470276,1.2340006828308105,-0.00522609381005168,-0.011109977960586548
816.0,534.0,-4.4237,-3.5049,7.6313,-0.0363,0.0159,-0.1119,-2.217266698876852,1.4680032109026797e-05,4.27396297454834,-1.6176642179489136,0.008355834521353245,1.6917093992233276,-0.45907361925158696,-0.0,0.2098669707775116,-1.2313464323626917,0.0,-0.046430543065071106,0.5560113787651062,0.0,0.007297990377992392,1.2340047359466553,-0.004923882894217968,-0.00726745743304491
816.0,534.0,-4.4237,-3.5049,7.6313,-0.0363,0.0159,-0.1119,-2.217290540734762,1.4216273484635167e-05,4.291811943054199,-1.6176366806030273,0.010126892477273941,1.708343267440796,-0.45908959329638677,-0.0,0.2174205631017685,-1.231325928364889,0.0,-0.04927292466163635,0.555986762046814,0.0,0.006231735926121473,1.2339568138122559,-0.005142818205058575,0.01633688062429428
816.0,534.0,-4.4237,-3.5049,7.6313,-0.0363,0.0159,-0.1119,-2.217318197289938,1.3780916560790502e-05,4.282591819763184,-1.6175843477249146,0.00883382000029087,1.7424530982971191,-0.4590457242778321,-0.0,0.1954021155834198,-1.231354061757223,0.0,-0.048267465084791183,0.5559589266777039,0.0,0.01772090420126915,1.2339730262756348,-0.004855398088693619,0.027223816141486168
816.0,534.0,-4.4237,-3.5049,7.6313,-0.0363,0.0159,-0.1119,-2.2173224888243617,1.3175676031096373e-05,4.314159870147705,-1.617592692375183,0.0075093950144946575,1.6795291900634766,-0.45906932771716313,-0.0,0.2155381590127945,-1.2313578764544886,0.0,-0.03943878412246704,0.5559831261634827,0.0,-0.003846667241305113,1.2338849306106567,-0.0038159943651407957,0.007475077174603939
816.0,534.0,-4.4237,-3.5049,7.6313,-0.0363,0.0159,-0.1119,-2.2173224888243617,1.2800880540453363e-05,4.296481132507324,-1.6175408363342285,0.005845759995281696,1.6779448986053467,-0.4590657514384766,-0.0,0.21322840452194214,-1.2313464323626917,0.0,-0.04157209396362305,0.5559785962104797,0.0,0.01449741329997778,1.2339129447937012,-0.0036127292551100254,-0.0008261902257800102
816.0,534.0,-4.4237,-3.5049,7.6313,-0.0363,0.0159,-0.1119,-2.2172824345030726,1.2446819710021373e-05,4.284269332885742,-1.6175642013549805,0.004738667979836464,1.6912317276000977,-0.4590817254832764,-0.0,0.21063175797462463,-1.2313302198993128,0.0,-0.06544777005910873,0.5559909343719482,0.0,0.002094872761517763,1.2339129447937012,-0.002849358366802335,-0.02558586746454239
816.0,534.0,-4.4237,-3.5049,7.6313,-0.0363,0.0159,-0.1119,-2.2173224888243617,2.389552719250787e-05,4.225266456604004,-1.6174525022506714,0.002641861792653799,1.681382179260254,-0.4590776723674317,-0.0,0.208093523979187,-1.231354061757223,0.0,-0.046470098197460175,0.5559670925140381,0.0,0.011081269942224026,1.2338931560516357,-0.0021877773106098175,-0.013211951591074467
816.0,534.0,-4.4237,-3.5049,7.6313,-0.0363,0.0159,-0.1119,-2.2172981701292933,3.446204209467396e-05,4.258374214172363,-1.6175007820129395,0.001996850362047553,1.6491689682006836,-0.4590616983226319,-0.0,0.19293244183063507,-1.2313302198993128,0.0,-0.042567864060401917,0.5559666752815247,0.0,0.0013851658441126347,1.2338451147079468,-0.001641698065213859,0.017277825623750687
816.0,534.0,-4.4237,-3.5049,7.6313,-0.0363,0.0159,-0.1119,-2.2172986469664515,4.151837492827326e-05,4.297159671783447,-1.6175047159194946,0.0015214539598673582,1.67733633518219,-0.45908959329638677,-0.0,0.19318541884422302,-1.231325928364889,0.0,-0.04974512755870819,0.5559790134429932,0.0,-0.0024926774203777313,1.2338647842407227,-0.0012060479493811727,0.006725662387907505
816.0,534.0,-4.4237,-3.5049,7.6313,-0.0363,0.0159,-0.1119,-2.217294832269186,4.427570092957467e-05,4.285792350769043,-1.6174285411834717,0.0011782360961660743,1.7074079513549805,-0.4590817254832764,-0.0,0.20004072785377502,-1.2313059012042444,0.0,-0.057506002485752106,0.5559589266777039,0.0,0.015557960607111454,1.2339088916778564,-0.000996673945337534,-0.0027259234338998795
816.0,534.0,-4.4237,-3.5049,7.6313,-0.0363,0.0159,-0.1119,-2.2172748051085414,0.00015103914483916014,4.277127265930176,-1.61748468875885,0.0008629250805824995,1.6640400886535645,-0.4591222566417237,-0.0,0.19422662258148193,-1.231325928364889,0.0,-0.0526936799287796,0.5559711456298828,0.0,0.0029461984522640705,1.2338489294052124,-0.000704196107108146,-0.07274335622787476
816.0,534.0,-4.4237,-3.5049,7.6313,-0.0363,0.0159,-0.1119,-2.217278619805807,0.00016984059766400605,4.313248157501221,-1.61745285987854,0.000609019014518708,1.7057831287384033,-0.45903368413958745,-1.1091716260125395e-05,0.1929698884487152,-1.2313497702227991,0.0,-0.05135960876941681,0.5559909343719482,0.0,0.0019149687141180038,1.2338690757751465,-0.0004496749897953123,0.039310865104198456
816.0,534.0,-4.4237,-3.5049,7.6313,-0.0363,0.0159,-0.1119,-2.217282911340231,0.00018638305482454598,4.2724609375,-1.6174887418746948,0.0005303039797581732,1.7207739353179932,-0.45906110227618413,-4.728572733370129e-08,0.20775535702705383,-1.2313221136676233,0.0,-0.057424962520599365,0.5560392737388611,0.0,-0.003788373898714781,1.233872890472412,-0.0003733525809366256,0.03550514951348305
816.0,534.0,-4.4237,-3.5049,7.6313,-0.0363,0.0159,-0.1119,-2.217266698876852,0.00017600960563868284,4.311699867248535,-1.6174763441085815,0.0005256322911009192,1.7572166919708252,-0.4590776723674317,-2.0158648361690013e-10,0.19678053259849548,-1.2313221136676233,0.0,-0.04824185371398926,0.5559826493263245,0.0,0.009151065722107887,1.2339050769805908,-0.0003202035732101649,0.07216383516788483
816.0,534.0,-4.4237,-3.5049,7.6313,-0.0363,0.0159,-0.1119,-2.2172423801817835,0.0001623981079319492,4.324273586273193,-1.6174285411834717,0.0007421171176247299,1.6983193159103394,-0.45905764520678716,-5.611233117150567e-14,0.20397377014160156,-1.2313621679889124,0.0,-0.05664682388305664,0.5559991002082825,0.0,0.006408363580703735,1.2338528633117676,-0.0002638649893924594,0.08454371243715286
816.0,534.0,-4.4237,-3.5049,7.6313,-0.0363,0.0159,-0.1119,-2.217274328271383,0.00015443626034539193,4.291309356689453,-1.6174765825271606,0.0007541486411355436,1.7335000038146973,-0.4590936464122315,-2.392156833015501e-16,0.1988808661699295,-1.2313063780414026,0.0,-0.05862938612699509,0.5560232400894165,0.0,0.016766875982284546,1.2339012622833252,-0.00023616602993570268,0.06550692021846771
816.0,534.0,-4.4237,-3.5049,7.6313,-0.0363,0.0159,-0.1119,-2.2173062763609828,0.000147218321217224,4.300724506378174,-1.61746084690094,0.0009596086456440389,1.7336280345916748,-0.4590296310237427,-1.0198140200140705e-18,0.19843709468841553,-1.2313621679889124,0.0,-0.06042907387018204,0.5559831261634827,0.0,-0.004170999396592379,1.2339091300964355,-0.0002137303672498092,0.06885337084531784
816.0,534.0,-4.4237,-3.5049,7.6313,-0.0363,0.0159,-0.1119,-2.2172543011107386,0.00013757402484770864,4.294316291809082,-1.6174843311309814,0.0012149305548518896,1.7831449508666992,-0.45911796510729985,-0.00032006026594899595,0.1847108006477356,-1.2313302198993128,0.0,-0.06581141799688339,0.5559827089309692,0.0,0.002568438183516264,1.233889102935791,-0.00018707284471020103,0.0865665078163147
816.0,534.0,-4.4237,-3.5049,7.6313,-0.0363,0.0159,-0.1119,-2.217266698876852,0.00015055965923238546,4.284052848815918,-1.617384910583496,0.001177645055577159,1.7268730401992798,-0.4591103357127686,-0.0002843784459400922,0.18929482996463776,-1.231354061757223,0.0,-0.06499838083982468,0.5559670925140381,0.0,0.009298988617956638,1.2338647842407227,-0.00013865150685887784,0.07312942296266556
813.0,557.0,-4.6421,-3.4379,7.87,-0.0318,0.0298,-0.1101,-2.2172705135741175,0.0001445969974156469,4.2991766929626465,-1.6174325942993164,0.0014984977897256613,1.7365059852600098,-0.4590609830668946,-0.0003027261118404567,0.19380119442939758,-1.231314484273092,0.0,-0.06461696326732635,0.5559990406036377,0.0,0.0012668269919231534,1.2339050769805908,-0.00012831953063141555,0.1543685644865036
813.0,557.0,-4.6421,-3.4379,7.87,-0.0318,0.0298,-0.1101,-2.217290540734762,0.00018089762306772172,4.3166351318359375,-1.6174166202545166,0.002365075284615159,1.793486475944519,-0.4590976995280762,-0.00030588911613449454,0.18895193934440613,-1.2312939802752894,0.0,-0.053898587822914124,0.5559346675872803,0.0,-0.0042018466629087925,1.2338528633117676,-0.00010011123958975077,0.08875365555286407
813.0,557.0,-4.6421,-3.4379,7.87,-0.0318,0.0298,-0.1101,-2.2172466717162074,0.00019503943622112274,4.302151203155518,-1.6173888444900513,0.003099789610132575,1.748703956604004,-0.45910199106250005,-0.00031274548382498324,0.1855843961238861,-1.231337849293844,0.0,-0.05669541656970978,0.5559666752815247,0.0,-0.003981179092079401,1.2338969707489014,6.86076600686647e-05,0.09947279095649719
813.0,557.0,-4.6421,-3.4379,7.87,-0.0318,0.0298,-0.1101,-2.2172943554320277,0.00018229331180918962,4.308349132537842,-1.617400884628296,0.0033581454772502184,1.718428134918213,-0.4590652746013184,-0.0003241437079850584,0.19054338335990906,-1.2313583532916468,0.0,-0.06591325998306274,0.5559547543525696,0.0,0.0018366292351856828,1.233889102935791,6.918962026247755e-05,0.12095046788454056
813.0,557.0,-4.6421,-3.4379,7.87,-0.0318,0.0298,-0.1101,-2.2172585926451625,0.00019917830650229007,4.341717720031738,-1.617388367652893,0.003691037418320775,1.7785279750823975,-0.4591139119914551,-0.0003127702802885324,0.1934967041015625,-1.2312901655780237,0.0,-0.05221301317214966,0.5559589266777039,0.0,-0.0107954703271389,1.2338929176330566,9.632375440560281e-05,0.13699275255203247
813.0,557.0,-4.6421,-3.4379,7.87,-0.0318,0.0298,-0.1101,-2.2172943554320277,0.00018737398204393685,4.3634819984436035,-1.61732017993927,0.004285567440092564,1.7731215953826904,-0.45910556734118657,-0.00032913192990235984,0.17503096163272858,-1.231382195149557,0.0,-0.06657162308692932,0.5559868216514587,0.0,0.008664805442094803,1.2339210510253906,8.995451935334131e-05,0.12342625856399536
813.0,557.0,-4.6421,-3.4379,7.87,-0.0318,0.0298,-0.1101,-2.217306753198141,0.00017202466551680118,4.3310747146606445,-1.6172925233840942,0.004748388193547726,1.7934818267822266,-0.45913060129199224,-0.0003682473034132272,0.1821553111076355,-1.2313502470599573,0.0,-0.06540820002555847,0.5560113191604614,0.0,0.00119781366083771,1.2338850498199463,0.00010904038208536804,0.1275004744529724
813.0,557.0,-4.6421,-3.4379,7.87,-0.0318,0.0298,-0.1101,-2.2172748051085414,0.00016311653598677367,4.313531875610352,-1.6172925233840942,0.004986661486327648,1.7525088787078857,-0.45916612566027837,-0.0004867002135142684,0.19058221578598022,-1.231365982686178,0.0,-0.06565986573696136,0.5560232996940613,0.0,-0.0005490090698003769,1.2339129447937012,0.00012549481471069157,0.1949348747730255
813.0,557.0,-4.6421,-3.4379,7.87,-0.0318,0.0298,-0.1101,-2.2172628841795863,0.00015508562501054257,4.313434600830078,-1.61725652217865,0.005561599042266607,1.7561585903167725,-0.45916660249743657,-0.0004879474581684917,0.17644113302230835,-1.2313464323626917,0.0,-0.06659811735153198,0.5559909343719482,0.0,0.004998711869120598,1.2338811159133911,0.0001215708107338287,0.15914638340473175
813.0,557.0,-4.6421,-3.4379,7.87,-0.0318,0.0298,-0.1101,-2.217262407342428,0.00016891243285499513,4.382976531982422,-1.617264747619629,0.005939899478107691,1.8343777656555176,-0.459158257847168,-0.00047974870540201664,0.19511756300926208,-1.2313020865069788,0.0,-0.0630543902516365,0.5559749603271484,0.0,0.005061556585133076,1.233888864517212,0.00011533938959473744,0.19055615365505219
813.0,557.0,-4.6421,-3.4379,7.87,-0.0318,0.0298,-0.1101,-2.2172986469664515,0.00015781632100697607,4.330726623535156,-1.6171807050704956,0.006321198772639036,1.7682273387908936,-0.4590488237193604,-0.0004460605850908905,0.18499192595481873,-1.2312901655780237,0.0,-0.06247715651988983,0.5559306740760803,0.0,0.004084449261426926,1.2338730096817017,0.00024145185307133943,0.1451268196105957
813.0,557.0,-4.6421,-3.4379,7.87,-0.0318,0.0298,-0.1101,-2.217290540734762,0.0001511884038336575,4.314370155334473,-1.6171767711639404,0.006993935909122229,1.8052301406860352,-0.45914609849963384,-0.0003999462933279574,0.1784321367740631,-1.2312777678119105,0.0,-0.07044988870620728,0.5560354590415955,0.0,-0.001860056072473526,1.2338929176330566,0.000218073750147596,0.12954455614089966
813.0,557.0,-4.6421,-3.4379,7.87,-0.0318,0.0298,-0.1101,-2.2172466717162074,0.00014509489119518548,4.3192524909973145,-1.617188811302185,0.007094626314938068,1.8131452798843384,-0.4591822189143677,-0.0003782253188546747,0.17647333443164825,-1.231354061757223,0.0,-0.06447672843933105,0.5560392737388611,0.0,0.0057853274047374725,1.233920931816101,0.00019880334730260074,0.19581499695777893
813.0,557.0,-4.6421,-3.4379,7.87,-0.0318,0.0298,-0.1101,-2.2172628841795863,0.00015665977844037116,4.374517917633057,-1.6171647310256958,0.00647716224193573,1.782038927078247,-0.45913417757067876,-0.00035515290801413357,0.1738612800836563,-1.2313221136676233,0.0,-0.0632098838686943,0.5560269355773926,0.0,0.013119790703058243,1.2338647842407227,0.00021064220345579088,0.1652810275554657
813.0,557.0,-4.6421,-3.4379,7.87,-0.0318,0.0298,-0.1101,-2.2172543011107386,0.00014649501827079803,4.345583438873291,-1.6171202659606934,0.0071831014938652515,1.8117120265960693,-0.45915015161547856,-0.00032022883533500135,0.17188721895217896,-1.2313421408282679,0.0,-0.06731192022562027,0.5559744834899902,0.0,0.004027046728879213,1.2338850498199463,0.00019539959612302482,0.1303926706314087
813.0,557.0,-4.6421,-3.4379,7.87,-0.0318,0.0298,-0.1101,-2.2172867260374964,0.0001375397405354306,4.333917140960693,-1.6170566082000732,0.007193513214588165,1.8388780355453491,-0.45917435110125737,-0.0002862909168470651,0.17385640740394592,-1.231354061757223,0.0,-0.06920583546161652,0.555942952632904,0.0,0.003946715500205755,1.2339410781860352,0.00018221243226435035,0.17632141709327698
813.0,557.0,-4.6421,-3.4379,7.87,-0.0318,0.0298,-0.1101,-2.217330595056051,0.000155525267473422,4.334481239318848,-1.617052674293518,0.007053568959236145,1.798820972442627,-0.4591222566417237,-0.00029901726520620286,0.1803942620754242,-1.231337849293844,0.0,-0.06229618191719055,0.5560072660446167,0.0,0.013841353356838226,1.2339409589767456,0.0001706925395410508,0.1587798297405243
813.0,557.0,-4.6421,-3.4379,7.87,-0.0318,0.0298,-0.1101,-2.2172585926451625,0.0001670163037488237,4.356796741485596,-1.617028832435608,0.007861606776714325,1.817322015762329,-0.4591059249690552,-0.000264002475887537,0.188056081533432,-1.231354061757223,0.0,-0.0757962092757225,0.5559990406036377,0.0,0.00042905285954475403,1.2339491844177246,0.00015590793918818235,0.18139885365962982
813.0,557.0,-4.6421,-3.4379,7.87,-0.0318,0.0298,-0.1101,-2.2172628841795863,0.00018096664280164987,4.335263252258301,-1.6169527769088745,0.00803203135728836,1.764031171798706,-0.45915015161547856,-0.00026062093093059957,0.17058372497558594,-1.2312939802752894,0.0,-0.05737035721540451,0.5560190677642822,0.0,0.012882181443274021,1.233901023864746,0.00014739650941919535,0.17509207129478455
813.0,557.0,-4.6421,-3.4379,7.87,-0.0318,0.0298,-0.1101,-2.217266698876852,0.00017258770822081715,4.316904067993164,-1.6169648170471191,0.008817282505333424,1.7853940725326538,-0.45916612566027837,-0.0002583217865321785,0.17710819840431213,-1.2313421408282679,0.0,-0.0760389044880867,0.5560113191604614,0.0,0.001997521612793207,1.233901023864746,0.00013976635818835348,0.1500920057296753
813.0,557.0,-4.6421,-3.4379,7.87,-0.0318,0.0298,-0.1101,-2.217302461663717,0.00027272282750345767,4.357879638671875,-1.6168968677520752,0.008899591863155365,1.8295317888259888,-0.4591422838023682,-0.00023618277919013053,0.17321175336837769,-1.2313583532916468,0.0,-0.06810849905014038,0.5560190677642822,0.0,0.00422641821205616,1.2338931560516357,0.00011333677684888244,0.15513421595096588
809.0,555.0,-4.7599,-3.4726,7.8544,-0.0244,0.0418,-0.1132,-2.2172943554320277,0.0003176476457156241,4.3271403312683105,-1.6168570518493652,0.009605849161744118,1.8072288036346436,-0.4591820997050782,-0.00024313770700246096,0.1621699333190918,-1.2313621679889124,0.0,-0.0740390494465828,0.5560186505317688,0.0,-0.005522953346371651,1.2339128255844116,0.0001031260471791029,0.16564641892910004
809.0,555.0,-4.7599,-3.4726,7.8544,-0.0244,0.0418,-0.1132,-2.217290540734762,0.00033322497620247304,4.319740295410156,-1.616816759109497,0.009888221509754658,1.8510255813598633,-0.4591141504100342,-0.00025839279987849295,0.16881227493286133,-1.2313059012042444,0.0,-0.05588307976722717,0.556003212928772,0.0,0.012192636728286743,1.2338929176330566,9.86066079349257e-05,0.17499271035194397
809.0,555.0,-4.7599,-3.4726,7.8544,-0.0244,0.0418,-0.1132,-2.217266698876852,0.0005050653708167374,4.372446060180664,-1.6167731285095215,0.010523566044867039,1.7970101833343506,-0.4591222566417237,-0.0002730468404479325,0.16656813025474548,-1.2313783804522913,0.0,-0.07043509930372238,0.5559866428375244,0.0,0.012753364630043507,1.2338850498199463,9.446663898415864e-05,0.13904933631420135
809.0,555.0,-4.7599,-3.4726,7.8544,-0.0244,0.0418,-0.1132,-2.2172748051085414,0.0005809601279906929,4.387263774871826,-1.6167209148406982,0.01187778078019619,1.8051893711090088,-0.45915432394061284,-0.0005080463015474379,0.16264688968658447,-1.231337849293844,0.0,-0.07578268647193909,0.5560314655303955,0.0,-0.01046629436314106,1.233889102935791,8.886984142009169e-05,0.18691974878311157
809.0,555.0,-4.7599,-3.4726,7.8544,-0.0244,0.0418,-0.1132,-2.217226644555563,0.000747161393519491,4.359458923339844,-1.6166410446166992,0.012772130779922009,1.8409782648086548,-0.459169940357544,-0.0005082375719211996,0.17427194118499756,-1.2313101927386683,0.0,-0.07972177118062973,0.5560392141342163,0.0,0.015248348005115986,1.2339050769805908,8.549311314709485e-05,0.1545834094285965
809.0,555.0,-4.7599,-3.4726,7.8544,-0.0244,0.0418,-0.1132,-2.2172867260374964,0.000789811194408685,4.355642795562744,-1.616564393043518,0.014461085200309753,1.8038005828857422,-0.45916612566027837,-0.0006148771499283612,0.16673272848129272,-1.2312982718097132,0.0,-0.07353127002716064,0.5560269355773926,0.0,0.01407906599342823,1.2338489294052124,8.236355643020943e-05,0.1417243480682373
809.0,555.0,-4.7599,-3.4726,7.8544,-0.0244,0.0418,-0.1132,-2.2172585926451625,0.0009055670234374702,4.386199951171875,-1.6165531873703003,0.01600382849574089,1.7955503463745117,-0.45919819295916753,-0.0006692698807455599,0.17585663497447968,-1.2312896887408655,0.0,-0.08033199608325958,0.556035041809082,0.0,0.021125201135873795,1.2338528633117676,7.94550942373462e-05,0.251825213432312
809.0,555.0,-4.7599,-3.4726,7.8544,-0.0244,0.0418,-0.1132,-2.217278619805807,0.0009176664752885699,4.360793113708496,-1.6164164543151855,0.01890140026807785,1.7961188554763794,-0.459178165798523,-0.0008213968831114471,0.16956017911434174,-1.2313702742206019,0.0,-0.07597753405570984,0.5559825301170349,0.0,0.013925844803452492,1.2338811159133911,7.545809057774022e-05,0.2267199456691742
809.0,555.0,-4.7599,-3.4726,7.8544,-0.0244,0.0418,-0.1132,-2.217239042321676,0.0009821300627663732,4.36478328704834,-1.61640465259552,0.02147413231432438,1.8489596843719482,-0.4592142862132569,-0.0009502489119768143,0.14701837301254272,-1.2313545385943812,0.0,-0.0787980854511261,0.5560309886932373,0.0,0.010148975998163223,1.2339050769805908,7.300960714928806e-05,0.1882266104221344
809.0,555.0,-4.7599,-3.4726,7.8544,-0.0244,0.0418,-0.1132,-2.217210432092184,0.0009654173045419157,4.353092670440674,-1.6162487268447876,0.022848570719361305,1.8605072498321533,-0.45921070993457036,-0.001364860450848937,0.1665627807378769,-1.2313583532916468,0.0,-0.07037224620580673,0.5560109615325928,0.0,0.007878249511122704,1.2339091300964355,7.071503932820633e-05,0.17379364371299744
809.0,555.0,-4.7599,-3.4726,7.8544,-0.0244,0.0418,-0.1132,-2.2172428570189417,0.0010807079961523414,4.371232032775879,-1.6161648035049438,0.025047248229384422,1.8235262632369995,-0.45917756975207524,-0.0019279756816104054,0.1623675525188446,-1.2313421408282679,0.0,-0.07969316840171814,0.5560232400894165,0.0,0.023796288296580315,1.233945369720459,5.539501944440417e-05,0.19726614654064178
809.0,555.0,-4.7599,-3.4726,7.8544,-0.0244,0.0418,-0.1132,-2.2172147236266078,0.0010812858818098903,4.388748645782471,-1.6159453392028809,0.028645671904087067,1.8783289194107056,-0.45922215402636724,-0.0047877137549221516,0.1687660813331604,-1.2313664595233362,0.0,-0.08125340938568115,0.5560269355773926,0.0,0.020318925380706787,1.2339251041412354,5.245089778327383e-05,0.2000388503074646
809.0,555.0,-4.7599,-3.4726,7.8544,-0.0244,0.0418,-0.1132,-2.217238565484518,0.0010563187533989549,4.417749404907227,-1.6158409118652344,0.030739175155758858,1.8630754947662354,-0.4592661422542115,-0.009971344843506813,0.17257216572761536,-1.2313302198993128,0.0,-0.08135363459587097,0.556027352809906,0.0,0.014285828918218613,1.2338489294052124,5.096581298857927e-05,0.185791477560997
809.0,555.0,-4.7599,-3.4726,7.8544,-0.0244,0.0418,-0.1132,-2.217198988000387,0.0013265250017866492,4.3758864402771,-1.6157212257385254,0.03228328004479408,1.8543505668640137,-0.4592901033214112,-0.015723522752523422,0.16774392127990723,-1.2313502470599573,0.0,-0.08424538373947144,0.5560351014137268,0.0,0.017665080726146698,1.2338688373565674,3.719156302395277e-05,0.22176483273506165
809.0,555.0,-4.7599,-3.4726,7.8544,-0.0244,0.0418,-0.1132,-2.2172347507872523,0.001958344131708145,4.344657897949219,-1.615588903427124,0.035055749118328094,1.84975266456604,-0.45939894140277104,-0.012621257454156876,0.17319785058498383,-1.231325928364889,0.0,-0.08615024387836456,0.556035041809082,0.0,0.009756756946444511,1.2339012622833252,3.569754335330799e-05,0.1614067256450653
809.0,555.0,-4.7599,-3.4726,7.8544,-0.0244,0.0418,-0.1132,-2.217194219628805,0.002521500224247575,4.351973533630371,-1.615388035774231,0.03704236075282097,1.886268138885498,-0.45937807977709966,-0.008215547539293766,0.17097222805023193,-1.2312734762774866,0.0,-0.07573379576206207,0.5560067892074585,0.0,0.015976758673787117,1.2338850498199463,3.477792415651493e-05,0.1410093754529953
809.0,555.0,-4.7599,-3.4726,7.8544,-0.0244,0.0418,-0.1132,-2.2171627483763636,0.0026745893992483616,4.365564346313477,-1.6152853965759277,0.04020797461271286,1.8659896850585938,-0.45943816125903325,-0.0047398097813129425,0.1688266396522522,-1.2313225905047815,0.0,-0.0788017213344574,0.5559990406036377,0.0,-0.0018162596970796585,1.2338972091674805,3.3904536394402385e-05,0.2133931964635849
809.0,555.0,-4.7599,-3.4726,7.8544,-0.0244,0.0418,-0.1132,-2.217154642144674,0.0034585429821163416,4.371343612670898,-1.615085244178772,0.04177930951118469,1.847606897354126,-0.45945008218798833,-0.0019913571886718273,0.17782145738601685,-1.2313020865069788,0.0,-0.08766385167837143,0.5560072660446167,0.0,0.01964556612074375,1.233901023864746,3.307390579720959e-05,0.19808435440063477
809.0,555.0,-4.7599,-3.4726,7.8544,-0.0244,0.0418,-0.1132,-2.217163225213522,0.0027984988410025835,4.350846767425537,-1.6148251295089722,0.0437195859849453,1.886576533317566,-0.45942218721423345,-0.0005099231493659317,0.18742163479328156,-1.2312901655780237,0.0,-0.08601468056440353,0.5560510158538818,0.0,0.02835776098072529,1.2338850498199463,3.1901581678539515e-05,0.1890992373228073
809.0,555.0,-4.7599,-3.4726,7.8544,-0.0244,0.0418,-0.1132,-2.217154642144674,0.002205210505053401,4.349242210388184,-1.6146245002746582,0.04438689351081848,1.9051940441131592,-0.45945008218798833,-0.00047357246512547135,0.16912782192230225,-1.2313421408282679,0.0,-0.08315426856279373,0.5560109615325928,0.0,0.005403250455856323,1.2338606119155884,3.119439134025015e-05,0.2132103145122528
795.0,510.0,-4.6319,-3.3553,7.8323,-0.0489,0.0696,-0.1064,-2.2171465359129847,0.002191163832321763,4.3452653884887695,-1.614469051361084,0.04691865295171738,1.8507158756256104,-0.45948226869616704,-0.00038564851274713874,0.18828514218330383,-1.2313464323626917,0.0,-0.08151651918888092,0.5560030937194824,0.0,0.012116897851228714,1.2338688373565674,-2.502712231944315e-05,0.20517513155937195
795.0,510.0,-4.6319,-3.3553,7.8323,-0.0489,0.0696,-0.1064,-2.2171503506102503,0.002115699928253889,4.353361129760742,-1.614261269569397,0.04694430157542229,1.863482117652893,-0.4594457906535645,-0.0003175746533088386,0.18365029990673065,-1.2313221136676233,0.0,-0.08564518392086029,0.556002676486969,0.0,0.02492271549999714,1.2338570356369019,-2.4359709641430527e-05,0.22449281811714172
795.0,510.0,-4.6319,-3.3553,7.8323,-0.0489,0.0696,-0.1064,-2.217114587823385,0.002847871044650674,4.376112937927246,-1.6139456033706665,0.0476122722029686,1.8950510025024414,-0.4594298166087647,-0.0002510715858079493,0.1767394095659256,-1.2313421408282679,0.0,-0.08096553385257721,0.555994987487793,0.0,0.01736903190612793,1.2338370084762573,-2.340932587685529e-05,0.19297626614570618
795.0,510.0,-4.6319,-3.3553,7.8323,-0.0489,0.0696,-0.1064,-2.2170988521971644,0.003519512712955475,4.374114990234375,-1.61378014087677,0.047685325145721436,1.911484718322754,-0.45949454725299077,-0.00022032353444956243,0.17298957705497742,-1.231325928364889,0.0,-0.0870056226849556,0.5560269355773926,0.0,0.015411133877933025,1.2338769435882568,-3.4221739042550325e-05,0.131292462348938
795.0,510.0,-4.6319,-3.3553,7.8323,-0.0489,0.0696,-0.1064,-2.217086454431051,0.004064647946506739,4.367348670959473,-1.613657832145691,0.048065364360809326,1.8707644939422607,-0.45949871957812505,-0.00019628652080427855,0.18297353386878967,-1.231394116078512,0.0,-0.09169059991836548,0.5560428500175476,0.0,0.013885589316487312,1.2339129447937012,-3.33777024934534e-05,0.169859379529953
795.0,510.0,-4.6319,-3.3553,7.8323,-0.0489,0.0696,-0.1064,-2.217046400109762,0.0047524552792310715,4.382563591003418,-1.6132776737213135,0.050385598093271255,1.8937383890151978,-0.4595105212977906,-4.7316545533249155e-05,0.18681201338768005,-1.2313464323626917,0.0,-0.08831021189689636,0.5560227632522583,0.0,0.021339397877454758,1.2338528633117676,-3.218414349248633e-05,0.16548529267311096
795.0,510.0,-4.6319,-3.3553,7.8323,-0.0489,0.0696,-0.1064,-2.2170187435545863,0.005574250593781471,4.388496398925781,-1.6131176948547363,0.053453583270311356,1.9133180379867554,-0.45951469362292485,-4.1890489228535444e-05,0.16766893863677979,-1.2313302198993128,0.0,-0.09192852675914764,0.5560187101364136,0.0,0.0010341218439862132,1.233889102935791,-3.143473804811947e-05,0.2025429904460907
795.0,510.0,-4.6319,-3.3553,7.8323,-0.0489,0.0696,-0.1064,-2.217010637322897,0.00685272179543972,4.378015041351318,-1.612854242324829,0.056650783866643906,1.9548182487487793,-0.45950229585681157,-0.00010477133764652535,0.17448817193508148,-1.2313020865069788,0.0,-0.08236286044120789,0.556043267250061,0.0,0.01223488338291645,1.2338491678237915,-3.0719442293047905e-05,0.1893138885498047
795.0,510.0,-4.6319,-3.3553,7.8323,-0.0489,0.0696,-0.1064,-2.2170025310912074,0.005791384261101484,4.373601913452148,-1.6126725673675537,0.06146952137351036,1.9130942821502686,-0.4595187467387696,-0.0001387998927384615,0.17218555510044098,-1.2313583532916468,0.0,-0.07924844324588776,0.5559708476066589,0.0,0.003644283628091216,1.2338569164276123,-3.0035997042432427e-05,0.1887313425540924
795.0,510.0,-4.6319,-3.3553,7.8323,-0.0489,0.0696,-0.1064,-2.216938634912008,0.004338186699897051,4.38906717300415,-1.6123130321502686,0.06753221154212952,1.9503010511398315,-0.4595261377147217,-0.0006462667370215058,0.18070483207702637,-1.2313302198993128,0.0,-0.09272158145904541,0.5560269355773926,0.0,0.019953139126300812,1.2338850498199463,-1.82474735321847e-09,0.23838602006435394
795.0,510.0,-4.6319,-3.3553,7.8323,-0.0489,0.0696,-0.1064,-2.2169906101622523,0.0027635705191642046,4.38360071182251,-1.612017273902893,0.07130039483308792,1.9127951860427856,-0.45952244222674565,-0.001080425688996911,0.18301939964294434,-1.2312939802752894,0.0,-0.08308109641075134,0.556043267250061,0.0,0.009773450903594494,1.2338491678237915,-3.2844807060748715e-13,0.19042730331420898
795.0,510.0,-4.6319,-3.3553,7.8323,-0.0489,0.0696,-0.1064,-2.2169467411436976,0.0016276747919619083,4.397331237792969,-1.611724615097046,0.07456590980291367,1.91730535030365,-0.4595261377147217,-0.001002494478598237,0.1663457751274109,-1.2313502470599573,0.0,-0.08683079481124878,0.5560555458068848,0.0,0.017415495589375496,1.2338610887527466,-5.911949173422645e-17,0.2322331964969635
795.0,510.0,-4.6319,-3.3553,7.8323,-0.0489,0.0696,-0.1064,-2.2169705830016078,0.0011076154187321663,4.415716648101807,-1.6113901138305664,0.07834520190954208,1.954530954360962,-0.4595422309688111,-0.0008781838696449995,0.17818069458007812,-1.2313502470599573,0.0,-0.09180387854576111,0.5560513138771057,0.0,0.01388483215123415,1.2338769435882568,-1.0641298917518236e-20,0.15358690917491913
795.0,510.0,-4.6319,-3.3553,7.8323,-0.0489,0.0696,-0.1064,-2.2169510326781214,0.0009130956023000181,4.370847225189209,-1.610933780670166,0.08416467905044556,1.9316892623901367,-0.459530310039856,-0.0006716568605042994,0.17165184020996094,-1.2313221136676233,0.0,-0.07836270332336426,0.5560113191604614,0.0,0.005650583188980818,1.2338650226593018,-0.00016541707736905664,0.16046357154846191
795.0,510.0,-4.6319,-3.3553,7.8323,-0.0489,0.0696,-0.1064,-2.2169467411436976,0.0008656015852466226,4.352398872375488,-1.6105141639709473,0.08692952990531921,1.9148480892181396,-0.45950229585681157,-0.0005377681809477508,0.17486059665679932,-1.2313464323626917,0.0,-0.08037334680557251,0.5560232400894165,0.0,0.011454673483967781,1.2338731288909912,-0.00018520963203627616,0.19431352615356445
795.0,510.0,-4.6319,-3.3553,7.8323,-0.0489,0.0696,-0.1064,-2.2169510326781214,0.0014553196961060166,4.362064361572266,-1.610177993774414,0.09012776613235474,1.9276043176651,-0.45953019083056645,-0.000448358099674806,0.18058544397354126,-1.2313621679889124,0.0,-0.0830400139093399,0.5560150146484375,0.0,0.017549123615026474,1.233860969543457,-0.00019992417946923524,0.18840542435646057
795.0,510.0,-4.6319,-3.3553,7.8323,-0.0489,0.0696,-0.1064,-2.2169305286803187,0.0015943035250529647,4.331935405731201,-1.6098607778549194,0.09462889283895493,1.9665849208831787,-0.45947809637103276,-0.00043979616020806134,0.17566543817520142,-1.2313502470599573,0.0,-0.07548049837350845,0.5560349822044373,0.0,0.01227011438459158,1.2338690757751465,-0.00018951151287183166,0.15269577503204346
795.0,510.0,-4.6319,-3.3553,7.8323,-0.0489,0.0696,-0.1064,-2.2168942890562953,0.0016541805816814303,4.348894119262695,-1.609238624572754,0.09843946993350983,1.943880319595337,-0.4595868152431031,-0.0003695578780025244,0.17650216817855835,-1.2313221136676233,0.0,-0.07770366221666336,0.5560067892074585,0.0,0.013488123193383217,1.2338531017303467,-0.00040871507371775806,0.10927413403987885
795.0,510.0,-4.6319,-3.3553,7.8323,-0.0489,0.0696,-0.1064,-2.21691431621694,0.0018067648634314537,4.37996768951416,-1.6088865995407104,0.10067947208881378,1.9534727334976196,-0.4595261377147217,-0.00033074081875383854,0.17584411799907684,-1.2313340345965784,0.0,-0.09723977744579315,0.5561076402664185,0.0,0.0027645472437143326,1.2338571548461914,-0.0003535121213644743,0.1542670577764511
795.0,510.0,-4.6319,-3.3553,7.8323,-0.0489,0.0696,-0.1064,-2.2169228992857875,0.0020500824321061373,4.379086494445801,-1.6084860563278198,0.09936968237161636,1.9322062730789185,-0.459513859157898,-0.00029930524760857224,0.17690497636795044,-1.231281582509176,0.0,-0.07271380722522736,0.5560067892074585,0.0,0.013870550319552422,1.2338453531265259,-0.00036658899625763297,0.1715851128101349
791.0,442.0,-4.8497,-3.5874,8.0895,-0.0634,0.1437,-0.0875,-2.2169066868224085,0.002446558326482773,4.388111114501953,-1.607909917831421,0.10197459906339645,1.9229830503463745,-0.4595101636699219,-0.00026195988175459206,0.16856184601783752,-1.2313302198993128,0.0,-0.07870723307132721,0.5560473799705505,0.0,0.020536987110972404,1.233849287033081,-0.00040002702735364437,0.1601317971944809
791.0,442.0,-4.8497,-3.5874,8.0895,-0.0634,0.1437,-0.0875,-2.2168666325011195,0.0027559089940041304,4.323873043060303,-1.6074774265289307,0.10608721524477005,1.9671428203582764,-0.45950229585681157,-0.000275781552772969,0.166388601064682,-1.231337849293844,0.0,-0.09421928972005844,0.5559949278831482,0.0,0.01583140715956688,1.2338531017303467,-0.000453411164926365,0.12072227895259857
791.0,442.0,-4.8497,-3.5874,8.0895,-0.0634,0.1437,-0.0875,-2.2168828449644984,0.0031055021099746227,4.329868316650391,-1.6070384979248047,0.11122412979602814,1.9607019424438477,-0.45955415189776616,-0.00022402235481422395,0.1707502156496048,-1.2313340345965784,0.0,-0.07349473983049393,0.5560109615325928,0.0,0.0071130674332380295,1.2338731288909912,-0.0005316571332514286,0.1111835390329361
791.0,442.0,-4.8497,-3.5874,8.0895,-0.0634,0.1437,-0.0875,-2.216854234735006,0.0026089667808264494,4.32595682144165,-1.6065890789031982,0.11528869718313217,1.9664822816848755,-0.45954592645678716,-0.00020089957979507744,0.17260733246803284,-1.2313664595233362,0.0,-0.08819003403186798,0.5559626221656799,0.0,0.014220433309674263,1.2338130474090576,-0.0008387048728764057,0.1288551688194275
791.0,442.0,-4.8497,-3.5874,8.0895,-0.0634,0.1437,-0.0875,-2.2168709240355433,0.0010541487718001008,4.296566009521484,-1.605851173400879,0.12433640658855438,2.0021963119506836,-0.4595061105540772,-0.00025013438425958157,0.1666722297668457,-1.2313383261310022,0.0,-0.07336173951625824,0.5560150146484375,0.0,0.02809659019112587,1.233849287033081,-0.0012067204806953669,0.13395771384239197
791.0,442.0,-4.8497,-3.5874,8.0895,-0.0634,0.1437,-0.0875,-2.21685852626943,0.0005918995593674481,4.344016075134277,-1.6053820848464966,0.12885844707489014,1.9304451942443848,-0.45957858980212407,-0.0009296363568864763,0.16948238015174866,-1.231325928364889,0.0,-0.0683518573641777,0.5560067892074585,0.0,0.015044057741761208,1.2338533401489258,-0.001365368370898068,0.12324989587068558
791.0,442.0,-4.8497,-3.5874,8.0895,-0.0634,0.1437,-0.0875,-2.216902872125143,0.0004350169328972697,4.370314598083496,-1.6047989130020142,0.1313275545835495,2.0079009532928467,-0.45952995241198735,-0.0017288723029196262,0.1714194118976593,-1.2312734762774866,0.0,-0.061932556331157684,0.5559827089309692,0.0,0.01910308562219143,1.2338011264801025,-0.0017324056243523955,0.15464535355567932
791.0,442.0,-4.8497,-3.5874,8.0895,-0.0634,0.1437,-0.0875,-2.216902872125143,0.0003503024054225534,4.369980335235596,-1.6042733192443848,0.13483311235904694,1.9508267641067505,-0.4595542711070557,-0.0025941026397049427,0.1840115189552307,-1.2312896887408655,0.0,-0.0638045147061348,0.5559827089309692,0.0,0.008258920162916183,1.233849287033081,-0.0023100744001567364,0.061567388474941254
791.0,442.0,-4.8497,-3.5874,8.0895,-0.0634,0.1437,-0.0875,-2.21685852626943,0.00027112767565995455,4.326750755310059,-1.6034613847732544,0.1334795504808426,1.9648127555847168,-0.4595821660808106,-0.0028539204504340887,0.17524456977844238,-1.2312858740436,0.0,-0.06914422661066055,0.5560351014137268,0.0,0.01818309910595417,1.2337851524353027,-0.0028844617772847414,0.04230625182390213
791.0,442.0,-4.8497,-3.5874,8.0895,-0.0634,0.1437,-0.0875,-2.2168947658934535,0.00012616789899766445,4.35012149810791,-1.6029552221298218,0.13359838724136353,1.9567224979400635,-0.45959003389392095,-0.0029962235130369663,0.15030604600906372,-1.2313383261310022,0.0,-0.06278461217880249,0.5560067892074585,0.0,0.01895851083099842,1.2337931394577026,-0.004366881679743528,0.0854128748178482
791.0,442.0,-4.8497,-3.5874,8.0895,-0.0634,0.1437,-0.0875,-2.2168666325011195,9.769697498995811e-05,4.335641384124756,-1.6023651361465454,0.13618038594722748,1.945245623588562,-0.45960529268298345,-0.0029157542157918215,0.17770519852638245,-1.2312739531146448,0.0,-0.07090765237808228,0.556043267250061,0.0,0.02443396858870983,1.2337169647216797,-0.005751646589487791,0.047648731619119644
791.0,442.0,-4.8497,-3.5874,8.0895,-0.0634,0.1437,-0.0875,-2.2168547115721644,0.00019532331498339772,4.346196174621582,-1.601605772972107,0.14260466396808624,2.0065362453460693,-0.45957334459338384,-0.00260138139128685,0.17491085827350616,-1.2313063780414026,0.0,-0.07231814414262772,0.5560555458068848,0.0,0.010343801230192184,1.2337212562561035,-0.006592155899852514,0.014104540459811687
791.0,442.0,-4.8497,-3.5874,8.0895,-0.0634,0.1437,-0.0875,-2.2168709240355433,0.0007354786503128707,4.3492231369018555,-1.6010664701461792,0.1463339626789093,2.025014638900757,-0.4596908849528809,-0.0021092132665216923,0.16277329623699188,-1.2313383261310022,0.0,-0.048625119030475616,0.5559744834899902,0.0,0.0029626614414155483,1.2337052822113037,-0.006358752958476543,0.030867058783769608
791.0,442.0,-4.8497,-3.5874,8.0895,-0.0634,0.1437,-0.0875,-2.216862817803854,0.0005880856770090759,4.347390174865723,-1.6004546880722046,0.15472401678562164,1.9979562759399414,-0.4596625131419678,-0.0018805424915626645,0.17084014415740967,-1.2313225905047815,0.0,-0.059234216809272766,0.556043267250061,0.0,0.022545773535966873,1.2336374521255493,-0.005705809686332941,0.012064872309565544
791.0,442.0,-4.8497,-3.5874,8.0895,-0.0634,0.1437,-0.0875,-2.2168547115721644,0.00048286523087881505,4.313129901885986,-1.599812388420105,0.15975166857242584,1.9965665340423584,-0.4596950572780152,-0.0017672904068604112,0.17509537935256958,-1.2313340345965784,0.0,-0.06472064554691315,0.556043267250061,0.0,0.023465845733880997,1.2336057424545288,-0.005055885296314955,0.007693547289818525
791.0,442.0,-4.8497,-3.5874,8.0895,-0.0634,0.1437,-0.0875,-2.2168504200377406,0.00038070447044447064,4.335568428039551,-1.5988789796829224,0.1639927327632904,2.00323224067688,-0.4596702617457886,-0.0018003599252551794,0.16369013488292694,-1.231314484273092,0.0,-0.05192314088344574,0.5559990406036377,0.0,0.007877192460000515,1.2336337566375732,-0.0049560354091227055,0.019041959196329117
791.0,442.0,-4.8497,-3.5874,8.0895,-0.0634,0.1437,-0.0875,-2.2169114551939906,0.00027831702027469873,4.289626598358154,-1.5982106924057007,0.16295790672302246,2.013118267059326,-0.4596744340709229,-0.001990265678614378,0.1722131073474884,-1.231314484273092,0.0,-0.0589788518846035,0.5560232996940613,0.0,0.016273634508252144,1.2335655689239502,-0.005808343179523945,0.0036084805615246296
791.0,442.0,-4.8497,-3.5874,8.0895,-0.0634,0.1437,-0.0875,-2.2168828449644984,0.0001982088724616915,4.3163371086120605,-1.5975146293640137,0.16035445034503937,1.967887282371521,-0.4596904081157227,-0.0018489549402147532,0.16995596885681152,-1.2313020865069788,0.0,-0.05772366374731064,0.5560269355773926,0.0,0.028179455548524857,1.2335494756698608,-0.00618966668844223,0.002374005038291216
791.0,442.0,-4.8497,-3.5874,8.0895,-0.0634,0.1437,-0.0875,-2.216874738732809,0.00017834936443250626,4.306079864501953,-1.5969258546829224,0.16289906203746796,2.008871555328369,-0.45972247541461186,-0.001698716776445508,0.17126475274562836,-1.2313063780414026,0.0,-0.050695039331912994,0.5560109615325928,0.0,0.012425731867551804,1.2335013151168823,-0.007426310330629349,0.027731450274586678
791.0,442.0,-4.8497,-3.5874,8.0895,-0.0634,0.1437,-0.0875,-2.2168947658934535,5.155513281351887e-05,4.311413764953613,-1.595915675163269,0.16386778652668,1.9949777126312256,-0.45971019685778813,-0.0016012643463909626,0.1668514609336853,-1.2313225905047815,0.0,-0.05608433112502098,0.5560510158538818,0.0,0.010524068959057331,1.233469843864441,-0.008304907940328121,0.020497184246778488
694.0,364.0,-4.9508,-3.5665,7.6409,-0.068,0.1619,-0.0812,-2.216874738732809,4.6249551814980805e-05,4.287014484405518,-1.5952765941619873,0.16475407779216766,2.0076427459716797,-0.45971424997363286,-0.002122033154591918,0.16823528707027435,-1.2313383261310022,0.0,-0.05372760444879532,0.5559507608413696,0.0,0.01002255268394947,1.2334380149841309,-0.008770052343606949,-0.059914372861385345
694.0,364.0,-4.9508,-3.5665,7.6409,-0.068,0.1619,-0.0812,-2.216902872125143,2.033337977991323e-07,4.323337554931641,-1.5945768356323242,0.16825373470783234,2.0030055046081543,-0.45974286020312505,-0.0028000366874039173,0.17541781067848206,-1.2312939802752894,0.0,-0.05309630185365677,0.555986762046814,0.0,0.01954037696123123,1.2334058284759521,-0.008822080679237843,-0.054286181926727295
694.0,364.0,-4.9508,-3.5665,7.6409,-0.068,0.1619,-0.0812,-2.2168709240355433,4.910271950327172e-13,4.281274795532227,-1.593469500541687,0.1698804348707199,2.0150442123413086,-0.45979853094134526,-0.0051974826492369175,0.16467398405075073,-1.2313106695758265,0.0,-0.04045621678233147,0.5560669898986816,0.0,0.01332384068518877,1.2333579063415527,-0.007550757844001055,-0.03736988827586174
694.0,364.0,-4.9508,-3.5665,7.6409,-0.068,0.1619,-0.0812,-2.2168384991087855,8.838316319032734e-17,4.259279727935791,-1.5928531885147095,0.16812202334403992,2.0249485969543457,-0.4597981733134766,-0.006473018787801266,0.16349582374095917,-1.2313225905047815,0.0,-0.05249562859535217,0.5560550689697266,0.0,0.017950497567653656,1.2333459854125977,-0.007142199203372002,-0.06481201201677322
694.0,364.0,-4.9508,-3.5665,7.6409,-0.068,0.1619,-0.0812,-2.216910501519674,1.590865742687234e-20,4.271924018859863,-1.5921441316604614,0.16736416518688202,1.9654542207717896,-0.45981772363696294,-0.008714180439710617,0.1517358422279358,-1.2313063780414026,0.0,-0.04370646923780441,0.5559990406036377,0.0,0.0020021842792630196,1.2333099842071533,-0.006570019293576479,0.012081395834684372
694.0,364.0,-4.9508,-3.5665,7.6409,-0.068,0.1619,-0.0812,-2.2168790302672328,2.8635021742950815e-24,4.301380634307861,-1.5914760828018188,0.16847434639930725,2.0247702598571777,-0.4599141639522095,-0.010002115741372108,0.14866380393505096,-1.2313225905047815,0.0,-0.03906723111867905,0.5560232400894165,0.0,0.020804747939109802,1.2333180904388428,-0.006528204772621393,-0.02185269445180893
694.0,364.0,-4.9508,-3.5665,7.6409,-0.068,0.1619,-0.0812,-2.216890951196188,6.915021372666989e-30,4.299638271331787,-1.5904655456542969,0.17033401131629944,2.018773317337036,-0.4599664968303223,-0.011971753090620041,0.15438544750213623,-1.2313745657550257,1.6133117242134176e-06,-0.030430544167757034,0.5560145974159241,0.0,0.016300596296787262,1.2332584857940674,-0.006501780357211828,-0.01993463933467865
694.0,364.0,-4.9508,-3.5665,7.6409,-0.068,0.1619,-0.0812,-2.2168709240355433,1.2446792647013833e-33,4.319516181945801,-1.58980131149292,0.17290998995304108,2.0269198417663574,-0.4600669902614136,-0.013248438946902752,0.1555653214454651,-1.2313063780414026,6.877801439486575e-09,-0.03825642168521881,0.556043267250061,0.0,0.012306641787290573,1.2332825660705566,-0.0067299543879926205,-0.013492903672158718
694.0,364.0,-4.9508,-3.5665,7.6409,-0.068,0.1619,-0.0812,-2.2169186077513636,2.240378720765437e-37,4.253818035125732,-1.5890899896621704,0.17529594898223877,1.9957785606384277,-0.4600861829570313,-0.014416947960853577,0.1351335197687149,-1.231257740651266,2.9321149674910174e-11,-0.042110003530979156,0.5560030937194824,0.0,0.004502853378653526,1.233222484588623,-0.006005818489938974,-0.039450593292713165
694.0,364.0,-4.9508,-3.5665,7.6409,-0.068,0.1619,-0.0812,-2.2169305286803187,4.0326567206339586e-41,4.315568923950195,-1.588362693786621,0.17567375302314758,2.0511879920959473,-0.4601704639247437,-0.016114214435219765,0.13757961988449097,-1.231253449116842,1.250006635743553e-13,-0.04858976602554321,0.5560309886932373,0.0,0.008915374055504799,1.2331743240356445,-0.00563981756567955,-0.011626589111983776
694.0,364.0,-4.9508,-3.5665,7.6409,-0.068,0.1619,-0.0812,-2.216898580590719,0.0,4.294126510620117,-1.5873591899871826,0.17211441695690155,2.0806825160980225,-0.4602913421443482,-0.02009376510977745,0.1427212506532669,-1.231257740651266,3.4794396246255e-17,-0.048454686999320984,0.5559466481208801,0.0,0.027378883212804794,1.2331626415252686,-0.004501757677644491,-0.03806212171912193
694.0,364.0,-4.9508,-3.5665,7.6409,-0.068,0.1619,-0.0812,-2.216902872125143,0.0,4.334145545959473,-1.586660385131836,0.1730629801750183,2.0497026443481445,-0.46040721357379155,-0.022251855581998825,0.14416679739952087,-1.231241528187887,1.4833396947561562e-19,-0.04455393925309181,0.556002676486969,0.0,0.01841592602431774,1.2330982685089111,-0.003625387791544199,-0.0828029066324234
694.0,364.0,-4.9508,-3.5665,7.6409,-0.068,0.1619,-0.0812,-2.216902872125143,0.0,4.302334785461426,-1.5859800577163696,0.17356640100479126,2.0654077529907227,-0.4604996007731934,-0.02253357507288456,0.12707357108592987,-1.2313106695758265,6.3237099549014085e-22,-0.034517426043748856,0.5560072660446167,0.0,0.017374312505126,1.2331385612487793,-0.0036344067193567753,-0.037262387573719025
694.0,364.0,-4.9508,-3.5665,7.6409,-0.068,0.1619,-0.0812,-2.216874738732809,0.0,4.346409797668457,-1.5849274396896362,0.17445215582847595,2.0235283374786377,-0.46061892927203374,-0.024108974263072014,0.12829427421092987,-1.2312620321856897,0.00020725713693536818,-0.046370986849069595,0.5560187101364136,0.0,0.00991450808942318,1.233062505722046,-0.003665581811219454,-0.10363093763589859
694.0,364.0,-4.9508,-3.5665,7.6409,-0.068,0.1619,-0.0812,-2.2168828449644984,0.0,4.338582992553711,-1.5842465162277222,0.17587196826934814,2.059519052505493,-0.46070249498400884,-0.023629080504179,0.13316179811954498,-1.2312939802752894,0.0002854648919310421,-0.036657389253377914,0.556002676486969,0.0,0.02190328575670719,1.2330825328826904,-0.003765564179047942,-0.06271293759346008
694.0,364.0,-4.9508,-3.5665,7.6409,-0.068,0.1619,-0.0812,-2.2169348202147425,0.0,4.296625137329102,-1.5835118293762207,0.17620354890823364,2.0778234004974365,-0.46081896245989995,-0.022766057401895523,0.12069761753082275,-1.231314484273092,0.0002690143301151693,-0.046475350856781006,0.5560752749443054,0.0,0.012092674151062965,1.2330665588378906,-0.003752581775188446,-0.043988682329654694
694.0,364.0,-4.9508,-3.5665,7.6409,-0.068,0.1619,-0.0812,-2.216886659661764,0.0,4.346803665161133,-1.5828092098236084,0.17280155420303345,2.112375259399414,-0.4608786863139649,-0.02125414088368416,0.1182836964726448,-1.2313063780414026,0.00028267118614166975,-0.036630015820264816,0.5559907555580139,0.0,0.021181777119636536,1.2330868244171143,-0.004168967716395855,-0.03586912900209427
694.0,364.0,-4.9508,-3.5665,7.6409,-0.068,0.1619,-0.0812,-2.2169066868224085,0.0,4.29931116104126,-1.5818233489990234,0.17355531454086304,2.0785295963287354,-0.4609909814647217,-0.018491212278604507,0.11783725023269653,-1.2312701384173792,0.00028594493051059544,-0.03521186113357544,0.5560187101364136,0.0,0.01314631663262844,1.2330427169799805,-0.003576582297682762,-0.04794555529952049
694.0,364.0,-4.9508,-3.5665,7.6409,-0.068,0.1619,-0.0812,-2.216954847375387,0.0,4.297940731048584,-1.581120252609253,0.177742138504982,2.093296766281128,-0.46104295671496587,-0.01758713833987713,0.11727751791477203,-1.2312501112567347,0.0003292033215984702,-0.048176299780607224,0.5560187101364136,0.0,0.013256676495075226,1.232994556427002,-0.0030307623092085123,-0.06251800805330276
694.0,364.0,-4.9508,-3.5665,7.6409,-0.068,0.1619,-0.0812,-2.2168828449644984,0.0,4.297145366668701,-1.5804903507232666,0.17672348022460938,2.0949437618255615,-0.46116705358538823,-0.01594051904976368,0.13101834058761597,-1.2312458197223108,0.000389502034522593,-0.02863321080803871,0.5559744834899902,0.0,0.02073265239596367,1.2330228090286255,-0.003018758725374937,-0.0930529311299324
529.0,337.0,-5.5196,-3.6634,7.6941,-0.0602,0.1758,-0.0649,-2.216890951196188,0.0,4.342476844787598,-1.5796747207641602,0.17798754572868347,2.0865213871002197,-0.4611507219127198,-0.013805571012198925,0.12348435819149017,-1.2312777678119105,0.0004052529693581164,-0.033436473459005356,0.5560269355773926,0.0,0.012564274482429028,1.2329827547073364,-0.002869404386729002,-0.0637795478105545
529.0,337.0,-5.5196,-3.6634,7.6941,-0.0602,0.1758,-0.0649,-2.216938634912008,0.0,4.330554962158203,-1.5786303281784058,0.1814337968826294,2.1249029636383057,-0.4612630170634766,-0.012417430058121681,0.1263393759727478,-1.2312338987933558,0.00039378140354529023,-0.027854619547724724,0.5559867024421692,0.0,0.015743138268589973,1.2330186367034912,-0.003099131630733609,-0.02339724451303482
529.0,337.0,-5.5196,-3.6634,7.6941,-0.0602,0.1758,-0.0649,-2.2169348202147425,0.0,4.307383060455322,-1.5779441595077515,0.1802487075328827,2.118431806564331,-0.46133907259021,-0.012220022268593311,0.12553775310516357,-1.231262509022848,0.0004924071836285293,-0.032675862312316895,0.5560109615325928,0.0,0.013212677091360092,1.2329466342926025,-0.0033062887378036976,-0.146859809756279
529.0,337.0,-5.5196,-3.6634,7.6941,-0.0602,0.1758,-0.0649,-2.216914793054098,0.0,4.326003074645996,-1.577227234840393,0.17645901441574097,2.1253151893615723,-0.4613872331431885,-0.01253680232912302,0.12206584215164185,-1.231274429951803,0.0005598515854217112,-0.02838871255517006,0.5560190677642822,0.0,0.024549398571252823,1.232934832572937,-0.004663051571696997,-0.10799825191497803
529.0,337.0,-5.5196,-3.6634,7.6941,-0.0602,0.1758,-0.0649,-2.216942449609274,0.0,4.309850215911865,-1.5761030912399292,0.17661787569522858,2.100630044937134,-0.46146710336718755,-0.015020930208265781,0.11770002543926239,-1.2312663237201136,0.0006148478714749217,-0.021034128963947296,0.5560150146484375,0.0,0.009104516357183456,1.2328869104385376,-0.005964179523289204,-0.109478659927845
529.0,337.0,-5.5196,-3.6634,7.6941,-0.0602,0.1758,-0.0649,-2.2169066868224085,0.0,4.3358564376831055,-1.5754389762878418,0.17982588708400726,2.08935284614563,-0.46154315889392095,-0.017884843051433563,0.13516053557395935,-1.2312100569354456,0.0006104608764871955,-0.0334448367357254,0.556035041809082,0.0,0.012690175324678421,1.2328908443450928,-0.006712658796459436,-0.1558067500591278
529.0,337.0,-5.5196,-3.6634,7.6941,-0.0602,0.1758,-0.0649,-2.216890951196188,0.0,4.343136787414551,-1.5747613906860352,0.18291108310222626,2.0621531009674072,-0.4616151613048096,-0.020427802577614784,0.1323912888765335,-1.2312582174884241,0.0006127001252025366,-0.019114848226308823,0.556002676486969,0.0,0.018895836547017097,1.2328829765319824,-0.007269921712577343,-0.13655546307563782
529.0,337.0,-5.5196,-3.6634,7.6941,-0.0602,0.1758,-0.0649,-2.2168671093382777,0.0,4.303744316101074,-1.573979139328003,0.18351054191589355,2.10941481590271,-0.46169860780749516,-0.02416573464870453,0.12955448031425476,-1.2312338987933558,0.0005763170192949474,-0.034936919808387756,0.5559703707695007,0.0,0.020932171493768692,1.2328392267227173,-0.006505471188575029,-0.14221686124801636
529.0,337.0,-5.5196,-3.6634,7.6941,-0.0602,0.1758,-0.0649,-2.216886182824606,0.0,4.2410430908203125,-1.5728646516799927,0.17799100279808044,2.090872049331665,-0.4618912500194092,-0.03662900626659393,0.1092381477355957,-1.2311938444720667,0.000572505290620029,-0.018175771459937096,0.5560227632522583,0.0,0.014908354729413986,1.232795238494873,-0.00732759665697813,-0.15036092698574066
529.0,337.0,-5.5196,-3.6634,7.6941,-0.0602,0.1758,-0.0649,-2.2169467411436976,0.0,4.322290897369385,-1.5721440315246582,0.17641249299049377,2.0823090076446533,-0.4620956939509888,-0.047708481550216675,0.10772743821144104,-1.231246296559469,0.0005616834387183189,-0.017947779968380928,0.5560187101364136,0.0,0.009047658182680607,1.2327830791473389,-0.006619814783334732,-0.17610527575016022
529.0,337.0,-5.5196,-3.6634,7.6941,-0.0602,0.1758,-0.0649,-2.216886659661764,0.0,4.31464958190918,-1.5714616775512695,0.1746397614479065,2.0972986221313477,-0.4623245757869263,-0.06133383512496948,0.11102157831192017,-1.2312338987933558,0.0005515311495400965,-0.01813531294465065,0.55605548620224,0.0,0.01384194940328598,1.2327392101287842,-0.007171780802309513,-0.15663304924964905
529.0,337.0,-5.5196,-3.6634,7.6941,-0.0602,0.1758,-0.0649,-2.216874738732809,-5.276977753965184e-05,4.2593674659729,-1.5707011222839355,0.17744827270507812,2.087620973587036,-0.46260090292010503,-0.0767158716917038,0.09090937674045563,-1.231246296559469,0.0006066561327315867,-0.01950082555413246,0.5560232400894165,0.0,0.0031100416090339422,1.2327431440353394,-0.007724359631538391,-0.17516659200191498
529.0,337.0,-5.5196,-3.6634,7.6941,-0.0602,0.1758,-0.0649,-2.2169305286803187,-4.852516940445639e-05,4.364407539367676,-1.5696943998336792,0.17910267412662506,2.051408290863037,-0.46312983453784184,-0.09985647350549698,0.08411373198032379,-1.2312424818622034,0.0005222689360380173,-0.014885097742080688,0.5560792684555054,0.0,0.01466483436524868,1.2326793670654297,-0.009016047231853008,-0.19938679039478302
529.0,337.0,-5.5196,-3.6634,7.6941,-0.0602,0.1758,-0.0649,-2.216910501519674,-4.604264540830627e-05,4.29603910446167,-1.568971872329712,0.1835562139749527,2.094428539276123,-0.4635530275157471,-0.11114601790904999,0.08056055009365082,-1.231246296559469,0.0005098002147860825,-0.004511578474193811,0.5560068488121033,0.0,0.017336405813694,1.2326433658599854,-0.009343483485281467,-0.15247824788093567
529.0,337.0,-5.5196,-3.6634,7.6941,-0.0602,0.1758,-0.0649,-2.2169023952879847,-5.82031934754923e-05,4.330021381378174,-1.5682333707809448,0.18480710685253143,2.1151185035705566,-0.4640297454646607,-0.12013284116983414,0.06693173944950104,-1.2312586943255823,0.0005008483421988785,-0.02339193969964981,0.5560272932052612,0.0,0.008962571620941162,1.23264741897583,-0.008894012309610844,-0.16794422268867493
529.0,337.0,-5.5196,-3.6634,7.6941,-0.0602,0.1758,-0.0649,-2.2169343433775843,-6.26520995865576e-05,4.260006427764893,-1.5675853490829468,0.18350175023078918,2.1516833305358887,-0.4645025295070191,-0.12112274020910263,0.07498200237751007,-1.2312424818622034,0.0004887026152573526,-0.003693307051435113,0.5559867024421692,0.0,0.02175886183977127,1.2325634956359863,-0.008770477958023548,-0.14624617993831635
529.0,337.0,-5.5196,-3.6634,7.6941,-0.0602,0.1758,-0.0649,-2.216910501519674,-7.731848018011078e-05,4.295848846435547,-1.5664684772491455,0.17479169368743896,2.1451416015625,-0.46530242383990483,-0.13592228293418884,0.04666762799024582,-1.231234375630514,0.0005401301314122975,-0.012706447392702103,0.5560709834098816,0.0,0.01896858587861061,1.232467770576477,-0.00955107156187296,-0.18782544136047363
529.0,337.0,-5.5196,-3.6634,7.6941,-0.0602,0.1758,-0.0649,-2.216942449609274,-7.485294918296859e-05,4.273749351501465,-1.5657240152359009,0.1739833503961563,2.089993476867676,-0.4659075301936646,-0.16470804810523987,0.0715360939502716,-1.231194321309225,0.0008283138740807772,-0.015491040423512459,0.5560711026191711,0.0,0.031011713668704033,1.232443928718567,-0.010389108210802078,-0.19957485795021057
529.0,337.0,-5.5196,-3.6634,7.6941,-0.0602,0.1758,-0.0649,-2.21691431621694,-7.186465518316254e-05,4.273190021514893,-1.564987063407898,0.17361848056316376,2.0468368530273438,-0.4666120570949097,-0.19526608288288116,0.0306035615503788,-1.23120624223818,0.0008687524241395295,-0.01820324920117855,0.5560268759727478,0.0,0.027127742767333984,1.2324199676513672,-0.011774091050028801,-0.18733039498329163
410.0,299.0,-6.1059,-3.9045,7.2413,-0.0235,-0.1474,-0.2019,-2.216886659661764,-6.780412513762712e-05,4.316762924194336,-1.563981056213379,0.1732458621263504,2.122426986694336,-0.467855767612793,-0.21869508922100067,0.022809788584709167,-1.2311905066119593,0.0023128630127757788,-0.016296979039907455,0.5560592412948608,0.0,0.025250740349292755,1.2323319911956787,-0.015864890068769455,-0.24410119652748108
410.0,299.0,-6.1059,-3.9045,7.2413,-0.0235,-0.1474,-0.2019,-2.2169224224486292,-4.9010126531356946e-05,4.2876386642456055,-1.5632901191711426,0.17288683354854584,2.0997438430786133,-0.46876545370135503,-0.2300550490617752,0.015521107241511345,-1.2311666647540491,0.005486451089382172,-0.012848768383264542,0.5559986233711243,0.0,0.017703041434288025,1.2322920560836792,-0.018834197893738747,-0.21378125250339508
410.0,299.0,-6.1059,-3.9045,7.2413,-0.0235,-0.1474,-0.2019,-2.216886659661764,-6.302867404883727e-05,4.309205055236816,-1.5625531673431396,0.17327994108200073,2.0824615955352783,-0.46976108968768315,-0.25457754731178284,-0.004200422205030918,-1.2311704794513147,0.01338358223438263,-0.01099767629057169,0.555978536605835,0.0,0.0021138498559594154,1.23222017288208,-0.02124967612326145,-0.27769985795021057
410.0,299.0,-6.1059,-3.9045,7.2413,-0.0235,-0.1474,-0.2019,-2.2169224224486292,-6.091982140787877e-05,4.286004066467285,-1.5618886947631836,0.16939926147460938,2.1285295486450195,-0.47083838403735356,-0.27354633808135986,0.007600788027048111,-1.2310827414142054,0.02124161273241043,0.019874153658747673,0.5560510158538818,0.0,-0.0013174975756555796,1.2321243286132812,-0.022135062143206596,-0.2716848850250244
410.0,299.0,-6.1059,-3.9045,7.2413,-0.0235,-0.1474,-0.2019,-2.2169343433775843,-5.7976583775598556e-05,4.2874579429626465,-1.5608243942260742,0.16525967419147491,2.0393662452697754,-0.4725709718516846,-0.2931850254535675,-0.004241243004798889,-1.2309511343585413,0.02110985293984413,-0.004058477934449911,0.5559827089309692,0.0,0.010440400801599026,1.231996774673462,-0.026165230199694633,-0.26796185970306396
410.0,299.0,-6.1059,-3.9045,7.2413,-0.0235,-0.1474,-0.2019,-2.2168947658934535,-5.616750058834441e-05,4.278075695037842,-1.5601879358291626,0.1629229485988617,2.0605759620666504,-0.47380228460345464,-0.3221697211265564,-0.019483204931020737,-1.230898682271139,0.01840498484671116,0.004760559648275375,0.5560632944107056,0.0,0.014955361373722553,1.2318450212478638,-0.030693596228957176,-0.2799298167228699
410.0,299.0,-6.1059,-3.9045,7.2413,-0.0235,-0.1474,-0.2019,-2.216910501519674,-5.446794966701418e-05,4.199048042297363,-1.5595407485961914,0.16095612943172455,2.065865993499756,-0.4751069110682984,-0.33095991611480713,-0.03562239557504654,-1.2308395544635218,0.014231608249247074,0.002535872161388397,0.556035041809082,0.0,-0.0012579970061779022,1.23176908493042,-0.03333869203925133,-0.2885131239891052
410.0,299.0,-6.1059,-3.9045,7.2413,-0.0235,-0.1474,-0.2019,-2.2168947658934535,-5.286815940053202e-05,4.2847900390625,-1.5588738918304443,0.16068176925182343,2.007017135620117,-0.4765358728221436,-0.34874382615089417,-0.024300772696733475,-1.2307394186602991,0.009858638979494572,-0.007367130368947983,0.5559868812561035,0.0,0.026645705103874207,1.2315653562545776,-0.03838125988841057,-0.3047136664390564
410.0,299.0,-6.1059,-3.9045,7.2413,-0.0235,-0.1474,-0.2019,-2.216886659661764,-5.063728167442605e-05,4.235843181610107,-1.557883620262146,0.16103601455688477,2.0827012062072754,-0.47873862207446294,-0.38091492652893066,-0.04218503087759018,-1.2307236830340784,0.0041788313537836075,0.0018412905046716332,0.5560027360916138,0.0,0.012842409312725067,1.231321930885315,-0.044594284147024155,-0.3242694139480591
410.0,299.0,-6.1059,-3.9045,7.2413,-0.0235,-0.1474,-0.2019,-2.216926713983053,-4.925175744574517e-05,4.267735958099365,-1.5572788715362549,0.16012056171894073,2.0261809825897217,-0.4803939622691651,-0.4127419590950012,-0.05458815395832062,-1.2307241598712366,0.0021696242038160563,-0.0029659983702003956,0.5559703707695007,0.0,0.013870496302843094,1.231137990951538,-0.0481375977396965,-0.32998600602149963
410.0,299.0,-6.1059,-3.9045,7.2413,-0.0235,-0.1474,-0.2019,-2.216886659661764,-4.2468553147045895e-05,4.2633490562438965,-1.556601881980896,0.1556314080953598,2.079545497894287,-0.4821203512004395,-0.4329609274864197,-0.06564918905496597,-1.2307079474078577,0.0013502284418791533,0.0025816147681325674,0.5560429096221924,0.0,0.01506689190864563,1.230966329574585,-0.0514165535569191,-0.3672904372215271
410.0,299.0,-6.1059,-3.9045,7.2413,-0.0235,-0.1474,-0.2019,-2.2169066868224085,-7.68804966355674e-05,4.3049211502075195,-1.5556678771972656,0.15238623321056366,1.9812471866607666,-0.48489971578631597,-0.466478556394577,-0.07807865738868713,-1.2307079474078577,0.0008730910485610366,-0.0057389154098927975,0.5560513734817505,0.0,0.020974956452846527,1.2306110858917236,-0.05630665645003319,-0.34754353761672974
410.0,299.0,-6.1059,-3.9045,7.2413,-0.0235,-0.1474,-0.2019,-2.2169228992857875,-8.833893662085757e-05,4.309861660003662,-1.5551196336746216,0.15235836803913116,2.016758918762207,-0.4867611688426514,-0.486620157957077,-0.10013202577829361,-1.2306879202472132,0.0004768173967022449,0.007951139472424984,0.5560392141342163,0.0,0.01567116193473339,1.2303355932235718,-0.0591256357729435,-0.3765491247177124
410.0,299.0,-6.1059,-3.9045,7.2413,-0.0235,-0.1474,-0.2019,-2.2169467411436976,-9.099241287913173e-05,4.249795913696289,-1.5544859170913696,0.15030437707901,2.0619096755981445,-0.4889463943294068,-0.5157802104949951,-0.10784947872161865,-1.2307198683368128,0.00039256748277693987,-0.0063261729665100574,0.556035041809082,0.0,0.02393939159810543,1.2301040887832642,-0.061611901968717575,-0.3676891028881073
410.0,299.0,-6.1059,-3.9045,7.2413,-0.0235,-0.1474,-0.2019,-2.2169109783568324,-8.745666855247691e-05,4.266759872436523,-1.553816318511963,0.14749975502490997,2.0106892585754395,-0.49109287679705815,-0.5418903827667236,-0.10172772407531738,-1.2307122389422815,0.00039978534914553165,-0.004573699552565813,0.5559990406036377,0.0,0.012763502076268196,1.2298083305358887,-0.06589674204587936,-0.37892666459083557
410.0,299.0,-6.1059,-3.9045,7.2413,-0.0235,-0.1474,-0.2019,-2.216910501519674,-8.263855124823749e-05,4.255733966827393,-1.5529369115829468,0.1462213546037674,2.0034360885620117,-0.4943677943995972,-0.5756706595420837,-0.10056620836257935,-1.2307079474078577,0.0004367217479739338,0.0003607491962611675,0.5560392737388611,0.0,-0.00043355044908821583,1.2293896675109863,-0.0734419971704483,-0.4001758098602295
410.0,299.0,-6.1059,-3.9045,7.2413,-0.0235,-0.1474,-0.2019,-2.216902872125143,-7.97109751147218e-05,4.284763813018799,-1.5524096488952637,0.14268772304058075,2.0211405754089355,-0.49667032182727056,-0.5887675285339355,-0.09559419751167297,-1.2306516806231897,0.00048742914805188775,0.0070692673325538635,0.5560513138771057,0.0,0.014862445183098316,1.2291057109832764,-0.07889317721128464,-0.41731417179107666
410.0,299.0,-6.1059,-3.9045,7.2413,-0.0235,-0.1474,-0.2019,-2.216942926446432,-0.00026518336380831897,4.309329986572266,-1.5518543720245361,0.1421871930360794,1.9968314170837402,-0.4990644019893189,-0.6104233860969543,-0.09501120448112488,-1.2306960264789026,0.0005464379210025072,0.0023702383041381836,0.5560390949249268,0.0,0.014498356729745865,1.2287901639938354,-0.08244848996400833,-0.43806320428848267
410.0,299.0,-6.1059,-3.9045,7.2413,-0.0235,-0.1474,-0.2019,-2.2169391117491664,-0.00023731176042929292,4.2666778564453125,-1.5513150691986084,0.1363734006881714,1.9847389459609985,-0.5015613597682496,-0.634975254535675,-0.09679888188838959,-1.2306678930865687,0.0007311180233955383,-0.00482226861640811,0.556071400642395,0.0,0.012529125437140465,1.2284631729125977,-0.08389880508184433,-0.42383092641830444
410.0,299.0,-6.1059,-3.9045,7.2413,-0.0235,-0.1474,-0.2019,-2.2169343433775843,-0.00016391511599067599,4.256613254547119,-1.550421118736267,0.13477833569049835,1.9490337371826172,-0.5054198068431397,-0.6554570198059082,-0.08962875604629517,-1.2306917349444788,0.0005131381331011653,0.012970995157957077,0.5560715198516846,0.0,0.012508068233728409,1.2279400825500488,-0.085292749106884,-0.4309333264827728
456.0,316.0,-4.5541,-3.0933,7.9765,0.1326,-0.5131,-0.3974,-2.2169510326781214,-0.00015023279411252588,4.248035430908203,-1.5499743223190308,0.13638149201869965,2.0307302474975586,-0.50804157674823,-0.6697618961334229,-0.09736819565296173,-1.230704132710592,0.000500835245475173,0.003992205951362848,0.5560067892074585,0.0,0.009938367642462254,1.2275370359420776,-0.08607684075832367,-0.3969477415084839
456.0,316.0,-4.5541,-3.0933,7.9765,0.1326,-0.5131,-0.3974,-2.216926713983053,-0.0001386595395160839,4.239421844482422,-1.5494052171707153,0.13673517107963562,2.015702962875366,-0.5106861156276246,-0.6816474199295044,-0.08194229006767273,-1.2306721846209925,0.0004744237521663308,-0.008168565109372139,0.5559990406036377,0.0,-0.0016793512040749192,1.2271736860275269,-0.08566252887248993,-0.36753392219543457
456.0,316.0,-4.5541,-3.0933,7.9765,0.1326,-0.5131,-0.3974,-2.2169305286803187,-6.56036427244544e-05,4.2241926193237305,-1.548571228981018,0.13625884056091309,1.990056037902832,-0.5148826402476807,-0.6995272636413574,-0.10963798314332962,-1.2306516806231897,0.00045431696344166994,-0.01712729036808014,0.5559909343719482,0.0,0.013675780966877937,1.2266390323638916,-0.08957496285438538,-0.4230617582798004
456.0,316.0,-4.5541,-3.0933,7.9765,0.1326,-0.5131,-0.3974,-2.2169629536070765,-5.7052369811572134e-05,4.253087520599365,-1.5480436086654663,0.13496087491512299,1.9883337020874023,-0.5177799028209229,-0.7066689729690552,-0.08795548230409622,-1.2306154409991663,0.0004557295760605484,-0.011110682040452957,0.5560791492462158,0.0,0.011915762908756733,1.2262595891952515,-0.09436964243650436,-0.4202548861503601
456.0,316.0,-4.5541,-3.0933,7.9765,0.1326,-0.5131,-0.3974,-2.216942926446432,-0.00010054444283014163,4.24773645401001,-1.54750657081604,0.1347934752702713,1.990777850151062,-0.520621733074524,-0.7163068652153015,-0.07232686877250671,-1.2306445280658167,0.0004913489683531225,-0.0013246366288512945,0.5560268759727478,0.0,0.023421859368681908,1.2258884906768799,-0.09880654513835907,-0.42939549684524536
456.0,316.0,-4.5541,-3.0933,7.9765,0.1326,-0.5131,-0.3974,-2.2169705830016078,-0.00013631046749651432,4.286725044250488,-1.5469858646392822,0.1321420967578888,1.9289870262145996,-0.5235307973674317,-0.7262007594108582,-0.07678613066673279,-1.230624024068014,0.0009700592490844429,-0.0031587041448801756,0.5560635328292847,0.0,0.01414080336689949,1.2254449129104614,-0.10207803547382355,-0.423213392496109
456.0,316.0,-4.5541,-3.0933,7.9765,0.1326,-0.5131,-0.3974,-2.2169467411436976,-0.00040767606697045267,4.2541937828063965,-1.5462191104888916,0.12355462461709976,1.953300952911377,-0.5278071922114869,-0.7295165061950684,-0.08392264693975449,-1.230624024068014,0.0008783855591900647,-0.0039716484025120735,0.5560392141342163,0.0,0.006301909685134888,1.2248141765594482,-0.10619733482599258,-0.4365365505218506
456.0,316.0,-4.5541,-3.0933,7.9765,0.1326,-0.5131,-0.3974,-2.2169586620726527,-0.00036999545409344137,4.255789279937744,-1.5457491874694824,0.11908774822950363,1.938094973564148,-0.5307433170131226,-0.737013578414917,-0.07401389628648758,-1.2306440512286585,0.0007779598818160594,0.003807772183790803,0.5559909343719482,0.0,-0.0023185606114566326,1.2244349718093872,-0.10771088302135468,-0.4215933382511139
456.0,316.0,-4.5541,-3.0933,7.9765,0.1326,-0.5131,-0.3974,-2.2169867954649867,-0.00031773693626746535,4.218478679656982,-1.5452605485916138,0.11790584027767181,1.9987328052520752,-0.5337270063212891,-0.7373352646827698,-0.07800737023353577,-1.2306235472308558,0.0006097022560425103,0.0017744179349392653,0.5560272336006165,0.0,-7.376994471997023e-05,1.2239840030670166,-0.10909655690193176,-0.4432665705680847
456.0,316.0,-4.5541,-3.0933,7.9765,0.1326,-0.5131,-0.3974,-2.2169391117491664,-0.00022300510318018496,4.28738260269165,-1.544793725013733,0.11915626376867294,1.9396793842315674,-0.5366298717311402,-0.7403857707977295,-0.09102022647857666,-1.2306607405291956,0.0005770570714958012,-0.0024940294679254293,0.5559785962104797,0.0,-0.00213492289185524,1.2235006093978882,-0.1119365394115448,-0.446315735578537
456.0,316.0,-4.5541,-3.0933,7.9765,0.1326,-0.5131,-0.3974,-2.216914793054098,-0.00018785720749292523,4.220032691955566,-1.544140338897705,0.12367461621761322,1.9818007946014404,-0.5409662288478394,-0.7312029004096985,-0.06983780115842819,-1.230624024068014,0.0004544715047813952,-0.009618086740374565,0.5559871196746826,0.0,-0.009152594022452831,1.2228503227233887,-0.11658962815999985,-0.40345436334609985
456.0,316.0,-4.5541,-3.0933,7.9765,0.1326,-0.5131,-0.3974,-2.2169305286803187,-0.00017010247393045574,4.291256904602051,-1.5436203479766846,0.12434852868318558,1.948030710220337,-0.5439128440669556,-0.7320204377174377,-0.07395409792661667,-1.230635944996969,0.00039713821024633944,-0.012797215953469276,0.5560031533241272,0.0,0.008642871864140034,1.2223470211029053,-0.11865483969449997,-0.436154305934906
456.0,316.0,-4.5541,-3.0933,7.9765,0.1326,-0.5131,-0.3974,-2.2169510326781214,-0.00015541442553512752,4.239798545837402,-1.5431028604507446,0.12859195470809937,1.9762152433395386,-0.5467489522746583,-0.724946141242981,-0.07307980209589005,-1.2306197325335901,0.00035265684709884226,-0.017807936295866966,0.555994987487793,0.0,-0.005495526362210512,1.2218998670578003,-0.12013010680675507,-0.3971518278121948
456.0,316.0,-4.5541,-3.0933,7.9765,0.1326,-0.5131,-0.3974,-2.2169586620726527,-5.466204311233014e-05,4.2714385986328125,-1.5423386096954346,0.12932424247264862,1.9972234964370728,-0.551084117298462,-0.7184976935386658,-0.06434695422649384,-1.2306197325335901,0.00030193370184861124,-0.01459138747304678,0.5560190081596375,0.0,-0.010263346135616302,1.221165418624878,-0.12381681054830551,-0.41592228412628174
456.0,316.0,-4.5541,-3.0933,7.9765,0.1326,-0.5131,-0.3974,-2.217010637322897,-0.00014040450332686305,4.2645134925842285,-1.5418164730072021,0.12543396651744843,1.9873677492141724,-0.5539019864848633,-0.7093279361724854,-0.07650869339704514,-1.2306564489947718,0.0002755179302766919,-0.0195950698107481,0.55605149269104,0.0,0.020061351358890533,1.2206902503967285,-0.1238168329000473,-0.4541100859642029
456.0,316.0,-4.5541,-3.0933,7.9765,0.1326,-0.5131,-0.3974,-2.2169906101622523,-0.0005145864561200142,4.276294708251953,-1.541335940361023,0.12297680228948593,1.9583381414413452,-0.556774453525879,-0.699750542640686,-0.06422056257724762,-1.2306316534625452,0.00025335312238894403,-0.02848171442747116,0.5559990406036377,0.0,0.013297665864229202,1.2201511859893799,-0.12274114787578583,-0.4169517159461975
456.0,316.0,-4.5541,-3.0933,7.9765,0.1326,-0.5131,-0.3974,-2.217010637322897,-0.0006424193270504475,4.292496681213379,-1.5408343076705933,0.11981363594532013,1.9553557634353638,-0.5594197076610108,-0.6822710633277893,-0.07357926666736603,-1.2306159178363245,0.00023449024592991918,-0.012407956644892693,0.5559589266777039,0.0,0.015402690507471561,1.2196681499481201,-0.1200304701924324,-0.38728100061416626
456.0,316.0,-4.5541,-3.0933,7.9765,0.1326,-0.5131,-0.3974,-2.216966768304342,-0.0005524211446754634,4.286097049713135,-1.5401703119277954,0.11939038336277008,1.9732327461242676,-0.5634687703898926,-0.6654894351959229,-0.07504643499851227,-1.230607811604635,0.0002109337947331369,-0.02641543745994568,0.5559749603271484,0.0,0.016091283410787582,1.2189695835113525,-0.11617617309093475,-0.43472105264663696
456.0,316.0,-4.5541,-3.0933,7.9765,0.1326,-0.5131,-0.3974,-2.216982503930563,-0.0002782554365694523,4.276634216308594,-1.5396870374679565,0.12053676694631577,1.9625396728515625,-0.5660711091807862,-0.645440936088562,-0.05611523985862732,-1.230624024068014,0.00019769396749325097,-0.02829938381910324,0.5559630393981934,0.0,0.0009223888628184795,1.2184903621673584,-0.11848478764295578,-0.4045632481575012
456.0,316.0,-4.5541,-3.0933,7.9765,0.1326,-0.5131,-0.3974,-2.21702303508901,-0.0002945737214758992,4.278546333312988,-1.5392041206359863,0.11851543188095093,2.0009021759033203,-0.5686199230006714,-0.6261961460113525,-0.049185145646333694,-1.2306039969073694,0.0001860180782387033,-0.014687836170196533,0.5559990406036377,0.0,0.011148596182465553,1.2180514335632324,-0.1199941635131836,-0.3741499185562134
791.0,476.0,-2.8971,-3.4241,7.5057,0.0289,-0.2589,-0.3131,-2.217006345788473,-0.00024278764612972736,4.2774763107299805,-1.5387136936187744,0.12116657197475433,1.9789258241653442,-0.5710222286036988,-0.6169589757919312,-0.05415629222989082,-1.230624024068014,0.00020062380644958466,-0.01233623642474413,0.5559711456298828,0.0,0.007337622344493866,1.2176202535629272,-0.11889302730560303,-0.4165192246437073
791.0,476.0,-2.8971,-3.4241,7.5057,0.0289,-0.2589,-0.3131,-2.2170149288573207,-0.00019119432545267045,4.266612529754639,-1.538070559501648,0.12394347786903381,1.9742403030395508,-0.5746644300273438,-0.5924130082130432,-0.05665469542145729,-1.2306321302997034,0.00018524199549574405,-0.0206817165017128,0.5559790134429932,0.0,0.0013158107176423073,1.2168973684310913,-0.11707520484924316,-0.43888866901397705
791.0,476.0,-2.8971,-3.4241,7.5057,0.0289,-0.2589,-0.3131,-2.217006822625631,-0.0002209867670899257,4.3006792068481445,-1.5375468730926514,0.1276702731847763,1.9789009094238281,-0.5769505661777039,-0.5776007771492004,-0.05816999822854996,-1.230624024068014,0.00017617616686038673,-0.021743468940258026,0.555982768535614,0.0,-0.002062192652374506,1.216462254524231,-0.11589518934488297,-0.4179983139038086
791.0,476.0,-2.8971,-3.4241,7.5057,0.0289,-0.2589,-0.3131,-2.217043539086813,-0.00019911056733690202,4.299408912658691,-1.5370532274246216,0.12775549292564392,2.020442485809326,-0.5791283410838624,-0.5496640205383301,-0.040007054805755615,-1.2306364218341272,0.00016795637202449143,-0.017752058804035187,0.5559990406036377,0.0,0.007772098761051893,1.2159992456436157,-0.11776317656040192,-0.3959769904613495
791.0,476.0,-2.8971,-3.4241,7.5057,0.0289,-0.2589,-0.3131,-2.2169987163939417,-0.00019217413500882685,4.3192338943481445,-1.5364967584609985,0.12623269855976105,1.9438844919204712,-0.5813645285419007,-0.5363360047340393,-0.046340279281139374,-1.230607811604635,0.00016046938253566623,-0.020545881241559982,0.556047260761261,0.0,0.007801027037203312,1.2155205011367798,-0.11913849413394928,-0.415474534034729
791.0,476.0,-2.8971,-3.4241,7.5057,0.0289,-0.2589,-0.3131,-2.2170306644835414,-0.0002706749364733696,4.270597457885742,-1.5357898473739624,0.11953993886709213,1.982084035873413,-0.5844430488399048,-0.5117696523666382,-0.04373982548713684,-1.2306564489947718,0.00015041217557154596,-0.04084640368819237,0.555994987487793,0.0,0.017131375148892403,1.2148094177246094,-0.11892309039831161,-0.39546144008636475
791.0,476.0,-2.8971,-3.4241,7.5057,0.0289,-0.2589,-0.3131,-2.21702303508901,-0.0002434033085592091,4.336122512817383,-1.5353198051452637,0.1181495413184166,1.9539967775344849,-0.5864135187915345,-0.48555105924606323,-0.05092466250061989,-1.2306202093707483,0.00014437967911362648,-0.03324541077017784,0.5559793710708618,0.0,0.008008751086890697,1.2143467664718628,-0.11527203023433685,-0.36895275115966797
791.0,476.0,-2.8971,-3.4241,7.5057,0.0289,-0.2589,-0.3131,-2.216982503930563,-0.0002196404238929972,4.304956912994385,-1.534872055053711,0.11683700233697891,1.9868472814559937,-0.5882007640651246,-0.4657832980155945,-0.02787083201110363,-1.230607811604635,0.00013881239283364266,-0.032867662608623505,0.555986762046814,0.0,0.007359159179031849,1.2139034271240234,-0.11109396815299988,-0.3452378809452057
791.0,476.0,-2.8971,-3.4241,7.5057,0.0289,-0.2589,-0.3131,-2.217011114160055,-0.00019158559734933078,4.313990592956543,-1.5341722965240479,0.11733104288578033,1.9709320068359375,-0.5908137720874329,-0.43280029296875,-0.023508664220571518,-1.230624024068014,0.00013122250675223768,-0.0419030487537384,0.5559749603271484,0.0,-0.00027741852682083845,1.2132524251937866,-0.10946615785360336,-0.37690722942352295
791.0,476.0,-2.8971,-3.4241,7.5057,0.0289,-0.2589,-0.3131,-2.2169906101622523,-0.00014129956252872944,4.274448394775391,-1.5336592197418213,0.11773589253425598,1.9907848834991455,-0.592506007557251,-0.40569090843200684,-0.0015480720903724432,-1.2306283156024378,0.00012660752690862864,-0.041894424706697464,0.5559589862823486,0.0,0.01430859137326479,1.2128615379333496,-0.10676295310258865,-0.4087245464324951
791.0,476.0,-2.8971,-3.4241,7.5057,0.0289,-0.2589,-0.3131,-2.2170025310912074,-0.00016369906370528042,4.302865982055664,-1.533191442489624,0.1176602840423584,1.9744024276733398,-0.5940739673427125,-0.38418200612068176,-0.006532553117722273,-1.230624024068014,0.00012230596621520817,-0.019107390195131302,0.5559711456298828,0.0,-0.0028850026428699493,1.2124786376953125,-0.10170529782772064,-0.35233455896377563
791.0,476.0,-2.8971,-3.4241,7.5057,0.0289,-0.2589,-0.3131,-2.21702303508901,-0.00015260197687894106,4.304966926574707,-1.5327929258346558,0.12031353265047073,2.006044387817383,-0.5955856603435059,-0.3565922975540161,0.002795775653794408,-1.2306001822101038,0.00011828728747786954,-0.04261183366179466,0.5560353398323059,0.0,-0.0010002313647419214,1.2121188640594482,-0.09812454134225845,-0.3492545187473297
791.0,476.0,-2.8971,-3.4241,7.5057,0.0289,-0.2589,-0.3131,-2.2170149288573207,-0.00021386526350397617,4.3310770988464355,-1.5320206880569458,0.12477733939886093,2.0229344367980957,-0.5975730580142518,-0.3275192677974701,0.036467138677835464,-1.23059589067568,0.00011273110430920497,-0.03207464516162872,0.5559990406036377,0.0,0.00022120261564850807,1.2114919424057007,-0.09382990002632141,-0.35063689947128296
791.0,476.0,-2.8971,-3.4241,7.5057,0.0289,-0.2589,-0.3131,-2.2171107731261195,-0.0003091107646469027,4.351619243621826,-1.5315017700195312,0.12329812347888947,1.980548620223999,-0.5988138479045411,-0.2951330542564392,0.046930376440286636,-1.23059589067568,0.00010930818825727329,-0.04300301522016525,0.5559511184692383,0.0,-0.0005573064554482698,1.2111167907714844,-0.09512227028608322,-0.35083165764808655
791.0,476.0,-2.8971,-3.4241,7.5057,0.0289,-0.2589,-0.3131,-2.2170144520201625,-0.0014125544112175703,4.29686164855957,-1.531022071838379,0.11919518560171127,1.9989893436431885,-0.5999275010875245,-0.2602933943271637,0.06391171365976334,-1.230607811604635,0.00010608704906189814,-0.03429907560348511,0.5559467673301697,0.0,0.014882644638419151,1.210801362991333,-0.09741250425577164,-0.28461167216300964
791.0,476.0,-2.8971,-3.4241,7.5057,0.0289,-0.2589,-0.3131,-2.21707882503652,-0.0023322119377553463,4.310266494750977,-1.530500888824463,0.11650346219539642,2.0018105506896973,-0.6008738440326233,-0.24172015488147736,0.06687233597040176,-1.2305920759784144,0.00010305032628821209,-0.04393374174833298,0.5559830665588379,0.0,0.004404780920594931,1.2103580236434937,-0.09965749084949493,-0.34821200370788574
791.0,476.0,-2.8971,-3.4241,7.5057,0.0289,-0.2589,-0.3131,-2.2171031437315882,-0.0032448351848870516,4.275640487670898,-1.5298222303390503,0.11506277322769165,1.9288846254348755,-0.6021910470775147,-0.1967516541481018,0.07196713984012604,-1.2306039969073694,9.880771540338174e-05,-0.034353092312812805,0.5560153126716614,0.0,0.0007081113290041685,1.2098191976547241,-0.09946614503860474,-0.3632429242134094
791.0,476.0,-2.8971,-3.4241,7.5057,0.0289,-0.2589,-0.3131,-2.2170826397337855,-0.0035057675559073687,4.298490524291992,-1.5293430089950562,0.11394675076007843,1.9717575311660767,-0.6028052133372803,-0.1602543741464615,0.1168707013130188,-1.2306483427630823,9.616827446734533e-05,-0.03570309281349182,0.555990993976593,0.0,0.0037854125257581472,1.2094438076019287,-0.09674260765314102,-0.3087415099143982
791.0,476.0,-2.8971,-3.4241,7.5057,0.0289,-0.2589,-0.3131,-2.2170945606627406,-0.004772420506924391,4.28570556640625,-1.5288618803024292,0.11478623002767563,2.0041635036468506,-0.6033481520465394,-0.13429702818393707,0.10284401476383209,-1.230624024068014,9.366612357553095e-05,-0.03827327862381935,0.5559871196746826,0.0,0.008243897929787636,1.2090048789978027,-0.09140889346599579,-0.33091357350349426
791.0,476.0,-2.8971,-3.4241,7.5057,0.0289,-0.2589,-0.3131,-2.2171107731261195,-0.0066543095745146275,4.2782816886901855,-1.528152346611023,0.11776401102542877,1.9696617126464844,-0.6040712755969544,-0.10971955209970474,0.14064620435237885,-1.230607811604635,9.014784154715016e-05,-0.03089253231883049,0.5560231804847717,0.0,-0.005426359362900257,1.2084938287734985,-0.08705991506576538,-0.3410794138908386
803.0,450.0,-5.336,-4.7055,8.3976,-0.0609,0.234,-0.1208,-2.21712650875234,-0.007117690052837133,4.283234596252441,-1.5276362895965576,0.12250501662492752,1.9651269912719727,-0.6044144791415711,-0.08605703711509705,0.13777592778205872,-1.2306440512286585,8.794564928393811e-05,-0.027776729315519333,0.5559707880020142,0.0,-0.006896652281284332,1.2081507444381714,-0.08323542773723602,-0.3377956449985504
803.0,450.0,-5.336,-4.7055,8.3976,-0.0609,0.234,-0.1208,-2.2171832523741664,-0.004662719555199146,4.299182415008545,-1.5271804332733154,0.12551164627075195,1.9963575601577759,-0.6046812695315857,-0.052251871675252914,0.15958519279956818,-1.230607811604635,8.584842726122588e-05,-0.03273472189903259,0.555994987487793,0.0,0.001380559871904552,1.2078031301498413,-0.07818544656038284,-0.36613303422927856
803.0,450.0,-5.336,-4.7055,8.3976,-0.0609,0.234,-0.1208,-2.217182775537008,-0.0031196647323668003,4.330437660217285,-1.5266506671905518,0.12624812126159668,1.983354091644287,-0.6048208636096497,-0.01981397345662117,0.14709529280662537,-1.2306039969073694,8.384897228097543e-05,-0.0399974063038826,0.5560513138771057,0.0,0.0017862615641206503,1.207567811012268,-0.07361616939306259,-0.3412895202636719
803.0,450.0,-5.336,-4.7055,8.3976,-0.0609,0.234,-0.1208,-2.21726717571401,-0.003769852686673403,4.273303031921387,-1.5259137153625488,0.12320730090141296,2.001108169555664,-0.6048208636096497,0.020316312089562416,0.1847609281539917,-1.2306402365313929,8.10184283182025e-05,-0.0365096852183342,0.5559909343719482,0.0,0.010894550941884518,1.207140564918518,-0.06810815632343292,-0.30905449390411377
803.0,450.0,-5.336,-4.7055,8.3976,-0.0609,0.234,-0.1208,-2.2172986469664515,-0.006230373866856098,4.271238803863525,-1.5254563093185425,0.12195520848035812,2.0235750675201416,-0.6047167938998719,0.03221316635608673,0.2154306322336197,-1.2305920759784144,4.0163318772101775e-05,-0.02050626277923584,0.5560512542724609,0.0,-0.0011342742945998907,1.206861138343811,-0.06400667130947113,-0.3060731291770935
803.0,450.0,-5.336,-4.7055,8.3976,-0.0609,0.234,-0.1208,-2.217294832269186,-0.007922271266579628,4.278486251831055,-1.5249537229537964,0.11875180900096893,1.9373979568481445,-0.6046451491168519,0.03634753078222275,0.20721882581710815,-1.230652157460348,5.1097842515446246e-05,-0.02284815162420273,0.5560067892074585,0.0,0.013866512104868889,1.2066054344177246,-0.06203561648726463,-0.30429714918136597
803.0,450.0,-5.336,-4.7055,8.3976,-0.0609,0.234,-0.1208,-2.217339178124899,-0.008764051832258701,4.268003463745117,-1.52445650100708,0.1179729700088501,1.9885364770889282,-0.6045333308032532,0.0335259810090065,0.21250873804092407,-1.2306039969073694,4.990528032067232e-05,-0.018136484548449516,0.556035041809082,0.0,-0.006765705533325672,1.2063621282577515,-0.06242073327302933,-0.3562929630279541
803.0,450.0,-5.336,-4.7055,8.3976,-0.0609,0.234,-0.1208,-2.217314382592672,-0.005410755053162575,4.277064323425293,-1.523708462715149,0.11799020320177078,1.9886960983276367,-0.604377345447876,0.01687033101916313,0.19624462723731995,-1.2306044737445276,2.7404501778960366e-08,-0.03273852914571762,0.55608731508255,0.0,0.0041014086455106735,1.2059868574142456,-0.06501011550426483,-0.34005099534988403
803.0,450.0,-5.336,-4.7055,8.3976,-0.0609,0.234,-0.1208,-2.217346330682272,-0.0030943886376917362,4.289548873901367,-1.5233052968978882,0.11669544130563736,2.0049359798431396,-0.6043618482402344,0.0049277786165475845,0.17774678766727448,-1.2305601278888147,1.1682968481530054e-10,-0.032145362347364426,0.5559704899787903,0.0,0.01430448517203331,1.2057234048843384,-0.06728158891201019,-0.34923774003982544
803.0,450.0,-5.336,-4.7055,8.3976,-0.0609,0.234,-0.1208,-2.217346330682272,-0.001108740922063589,4.29767370223999,-1.5227490663528442,0.11767799407243729,1.9867616891860962,-0.6043737691691895,-0.0068076495081186295,0.16998374462127686,-1.2306044737445276,4.980633418714964e-13,-0.03410053998231888,0.5560231804847717,0.0,0.007320474833250046,1.2054799795150757,-0.06907883286476135,-0.4046075642108917
803.0,450.0,-5.336,-4.7055,8.3976,-0.0609,0.234,-0.1208,-2.217358728448385,-0.0004120746161788702,4.257051467895508,-1.5220692157745361,0.12200190871953964,2.0153493881225586,-0.6044058960727234,-0.007629092317074537,0.18015961349010468,-1.2306402365313929,1.3863774706493318e-16,-0.02675393596291542,0.5560595393180847,0.0,-0.006037519313395023,1.2050806283950806,-0.0702463909983635,-0.31596139073371887
803.0,450.0,-5.336,-4.7055,8.3976,-0.0609,0.234,-0.1208,-2.2173267803587855,-0.00031562629737891257,4.302949905395508,-1.5215760469436646,0.12308569997549057,1.9914805889129639,-0.6044338506511231,-0.0038988031446933746,0.1761855185031891,-1.2305758635150355,5.910344546431868e-19,-0.022715440019965172,0.5560231804847717,0.0,0.005745073314756155,1.2048449516296387,-0.06883702427148819,-0.40006372332572937
803.0,450.0,-5.336,-4.7055,8.3976,-0.0609,0.234,-0.1208,-2.2173663578429164,-0.00025578984059393406,4.289371013641357,-1.5210860967636108,0.12295609712600708,1.9989985227584839,-0.6044978660396119,-0.001680225133895874,0.18640169501304626,-1.2306283156024378,2.5196723193480417e-21,-0.026529621332883835,0.5560391545295715,0.0,-0.008850879035890102,1.2045537233352661,-0.06859152764081955,-0.35664647817611694
803.0,450.0,-5.336,-4.7055,8.3976,-0.0609,0.234,-0.1208,-2.2173224888243617,-0.00021503175958059728,4.32421350479126,-1.5205711126327515,0.12355753779411316,2.0053985118865967,-0.6044658583453675,-0.0007145881536416709,0.17899829149246216,-1.2306159178363245,1.0741757229908947e-23,-0.030583124607801437,0.5560231804847717,0.0,0.0006066570058465004,1.2042460441589355,-0.06670069694519043,-0.3788195848464966
803.0,450.0,-5.336,-4.7055,8.3976,-0.0609,0.234,-0.1208,-2.2173544369139613,-0.00017355494492221624,4.286200046539307,-1.5198166370391846,0.1262180209159851,1.9645237922668457,-0.6044097107699891,-0.00012450189387891442,0.18651431798934937,-1.2306001822101038,2.9900075868121447e-27,-0.023733533918857574,0.5560714602470398,0.0,-0.007981793954968452,1.2038792371749878,-0.06629499793052673,-0.3317420482635498
803.0,450.0,-5.336,-4.7055,8.3976,-0.0609,0.234,-0.1208,-2.2173906765379847,-0.00015378172975033522,4.320728302001953,-1.5194076299667358,0.13003236055374146,1.957733392715454,-0.6044498246959229,-9.690059232525527e-05,0.1844049096107483,-1.2306245009051722,1.2746872661220754e-29,-0.031128795817494392,0.5560391545295715,0.0,0.00045836344361305237,1.2035555839538574,-0.06819288432598114,-0.38328611850738525
803.0,450.0,-5.336,-4.7055,8.3976,-0.0609,0.234,-0.1208,-2.217414995233053,-0.00013805374328512698,4.34522819519043,-1.5188119411468506,0.1358061283826828,2.0284082889556885,-0.6044457715800782,-7.970888691488653e-05,0.18031984567642212,-1.230635944996969,5.434191071174827e-32,-0.031023703515529633,0.5560391545295715,0.0,0.005664977710694075,1.2033157348632812,-0.06630126386880875,-0.3518078327178955
803.0,450.0,-5.336,-4.7055,8.3976,-0.0609,0.234,-0.1208,-2.2173549137511195,-0.00016696886450517923,4.312114238739014,-1.5182539224624634,0.13700076937675476,2.012244462966919,-0.6044376057437439,-0.000135069785756059,0.1767263114452362,-1.2306001822101038,2.316681026578613e-34,-0.008223967626690865,0.5560550689697266,0.0,0.01792067661881447,1.2030723094940186,-0.06508138030767441,-0.3580787181854248
803.0,450.0,-5.336,-4.7055,8.3976,-0.0609,0.234,-0.1208,-2.217386861840719,-0.00015499014989472926,4.2240400314331055,-1.517487645149231,0.13912376761436462,2.0340709686279297,-0.6045056742480774,-0.0001104645780287683,0.18001395463943481,-1.2306163946734827,6.448566459091931e-38,-0.015169341117143631,0.5560432076454163,0.0,0.007740166038274765,1.202673077583313,-0.059356365352869034,-0.3873792290687561
803.0,450.0,-5.336,-4.7055,8.3976,-0.0609,0.234,-0.1208,-2.2174226246275843,-0.00232912739738822,4.303881645202637,-1.5169501304626465,0.1399863213300705,2.020256519317627,-0.6044498246959229,-9.838364348979667e-05,0.1643778532743454,-1.2306001822101038,8.08611512184143e-05,-0.025529107078909874,0.5560231804847717,0.0,0.007608938962221146,1.2024418115615845,-0.05438201129436493,-0.30393528938293457
803.0,450.0,-5.336,-4.7055,8.3976,-0.0609,0.234,-0.1208,-2.2173577747740687,-0.0030411966145038605,4.304445266723633,-1.5163748264312744,0.14052578806877136,2.0083494186401367,-0.6045138400844117,-8.86854249984026e-05,0.17492851614952087,-1.230560604725973,0.00014841342635918409,-0.016205444931983948,0.5560750961303711,0.0,0.0008631409145891666,1.2022422552108765,-0.05062028020620346,-0.3765103220939636
793.0,331.0,-4.4195,-3.6197,8.2247,-0.0345,0.201,-0.1017,-2.217391153375143,-0.0023991274647414684,4.283965587615967,-1.5155071020126343,0.1383112668991089,2.003917694091797,-0.6044215720942994,-7.72624189266935e-05,0.17783904075622559,-1.2305963675128382,0.00018524490587878972,-0.012186640873551369,0.5559749603271484,0.0,0.023014971986413002,1.2019307613372803,-0.04640766233205795,-0.34077638387680054
793.0,331.0,-4.4195,-3.6197,8.2247,-0.0345,0.201,-0.1017,-2.21742643932485,-0.0014635551488026977,4.323215961456299,-1.5149595737457275,0.13619771599769592,2.051240921020508,-0.6044536393931885,-0.00010549425496719778,0.1713908314704895,-1.2306283156024378,0.0007357500144280493,-0.015662916004657745,0.5560751557350159,0.0,0.009746484458446503,1.2017313241958618,-0.04520468786358833,-0.3396746516227722
