ramyac6/ROB537/final_project/csv/all/bad_165.csv
tof_0,tof_1,accelx,accely,accelz,gyrox,gyroy,gyroz,shoulder_lift_joint_position,shoulder_lift_joint_velocity,shoulder_lift_joint_effort,elbow_joint_position,elbow_joint_velocity,elbow_joint_effort,wrist_1_joint_position,wrist_1_joint_velocity,wrist_1_joint_effort,wrist_2_joint_position,wrist_2_joint_velocity,wrist_2_joint_effort,wrist_3_joint_position,wrist_3_joint_velocity,wrist_3_joint_effort,shoulder_pan_joint_position,shoulder_pan_joint_velocity,shoulder_pan_joint_effort
929.0,923.0,-0.3966,-0.5372,9.5689,-0.031,0.0229,-0.1129,-1.9393288097777308,0.0,3.1638259887695312,-1.9780261516571045,-0.0,1.6043769121170044,5.39534871557311,-0.0,0.27007532119750977,-1.5214369932757776,0.0,-0.014045591466128826,0.803281843662262,0.0,0.0016734683886170387,0.8159756064414978,0.0,-0.024827279150485992
929.0,923.0,-0.3966,-0.5372,9.5689,-0.031,0.0229,-0.1129,-1.9393288097777308,0.0,3.2315871715545654,-1.9780179262161255,-0.0,1.626047134399414,5.3953368542488,-0.0,0.28602075576782227,-1.5214932600604456,0.0,-0.02122725546360016,0.8033016324043274,0.0,0.012041454203426838,0.8160160779953003,0.0,-0.015321999788284302
929.0,923.0,-0.3966,-0.5372,9.5689,-0.031,0.0229,-0.1129,-1.9393726787962855,0.0,3.172217845916748,-1.9779973030090332,-0.0,1.6463747024536133,5.3953528282936,-0.0,0.2810623049736023,-1.5214574972735804,0.0,-0.018683992326259613,0.8032619953155518,0.0,-0.007378983311355114,0.8160038590431213,0.0,-0.00461945403367281
929.0,923.0,-0.3966,-0.5372,9.5689,-0.031,0.0229,-0.1129,-1.9392959080138148,0.0,3.1759109497070312,-1.9780501127243042,-0.0,1.6387157440185547,5.395377027779379,-0.0,0.27415165305137634,-1.5214489142047327,0.0,-0.013113985769450665,0.8033455610275269,0.0,-0.0027883145958185196,0.8159754872322083,0.0,-0.005254525691270828
929.0,923.0,-0.3966,-0.5372,9.5689,-0.031,0.0229,-0.1129,-1.9393202267088832,0.0,3.1749911308288574,-1.9780893325805664,-0.0,1.639908790588379,5.395288276463308,-0.0,0.2974282205104828,-1.5214455763446253,0.0,-0.01908869296312332,0.8033297657966614,0.0,-0.00101004121825099,0.8159835934638977,0.0,0.05744873732328415
929.0,923.0,-0.3966,-0.5372,9.5689,-0.031,0.0229,-0.1129,-1.9393121204771937,0.0,3.2245688438415527,-1.9780665636062622,-0.0,1.6302824020385742,5.395332801132955,-0.0,0.2873721718788147,-1.521416966115133,0.0,-0.01986762136220932,0.8033455014228821,0.0,0.0034878337755799294,0.8159715533256531,0.0,0.005717432592064142
929.0,923.0,-0.3966,-0.5372,9.5689,-0.031,0.0229,-0.1129,-1.939312597314352,0.0,3.1862614154815674,-1.97804594039917,-0.0,1.6334521770477295,5.3953086016471765,-0.0,0.2823021411895752,-1.521473232899801,0.0,-0.02148432843387127,0.803237795829773,0.0,0.001297228503972292,0.8160200119018555,0.0,0.0305993240326643
929.0,923.0,-0.3966,-0.5372,9.5689,-0.031,0.0229,-0.1129,-1.9393044910826625,0.0,3.1262028217315674,-1.9780625104904175,-0.0,1.585321068763733,5.395348775177755,-0.0,0.2779623568058014,-1.5214369932757776,0.0,-0.014787053689360619,0.8033218383789062,0.0,0.007555575575679541,0.8159715533256531,0.0,-0.028943080455064774
929.0,923.0,-0.3966,-0.5372,9.5689,-0.031,0.0229,-0.1129,-1.939312597314352,0.0,3.2056894302368164,-1.978062391281128,-0.0,1.6115716695785522,5.395345139294424,-0.0,0.28210198879241943,-1.521421257649557,0.0,-0.01612519472837448,0.8033177852630615,0.0,0.011397259309887886,0.8159958720207214,0.0,0.014303470961749554
933.0,921.0,-0.3206,-0.4965,9.4481,-0.0382,0.0287,-0.1153,-1.9393044910826625,0.0,3.123476505279541,-1.978054165840149,-0.0,1.622816801071167,5.395361053734579,-0.0,0.2903067171573639,-1.5214656035052698,0.0,-0.025648564100265503,0.8033336400985718,0.0,-0.00461765518411994,0.8159554600715637,0.0,-0.013955296948552132
933.0,921.0,-0.3206,-0.4965,9.4481,-0.0382,0.0287,-0.1153,-1.9392720661559046,0.0,3.148475170135498,-1.9780583381652832,-0.0,1.5937472581863403,5.395312714367666,-0.0,0.2847670614719391,-1.5214412848102015,0.0,-0.006282380316406488,0.803309977054596,0.0,-0.0004269534256309271,0.8159353733062744,0.0,-0.008718938566744328
933.0,921.0,-0.3206,-0.4965,9.4481,-0.0382,0.0287,-0.1153,-1.939312597314352,0.0,3.250182867050171,-1.9780024290084839,-0.0,1.6344279050827026,5.395356523781576,-0.0,0.27251362800598145,-1.5214455763446253,0.0,-0.021151933819055557,0.8033056855201721,0.0,-0.012213801965117455,0.8159675002098083,0.0,0.04376149922609329
933.0,921.0,-0.3206,-0.4965,9.4481,-0.0382,0.0287,-0.1153,-1.939324518243307,0.0,3.2690889835357666,-1.978054165840149,-0.0,1.6611672639846802,5.395345139294424,-0.0,0.28073516488075256,-1.521477524434225,0.0,-0.02157754637300968,0.8033254146575928,0.0,-0.002054688986390829,0.8159715533256531,0.0,0.030595920979976654
933.0,921.0,-0.3206,-0.4965,9.4481,-0.0382,0.0287,-0.1153,-1.939308305779928,0.0,3.1893818378448486,-1.9780902862548828,-0.0,1.6176247596740723,5.395365166455068,-0.0,0.27917173504829407,-1.5214656035052698,0.0,-0.01519102044403553,0.8033056259155273,0.0,0.0017356674652546644,0.8160079121589661,0.0,-0.04016492888331413
933.0,921.0,-0.3206,-0.4965,9.4481,-0.0382,0.0287,-0.1153,-1.9392878017821253,0.0,3.2119030952453613,-1.978070616722107,-0.0,1.624057412147522,5.395368861943044,-0.0,0.2821296453475952,-1.5214369932757776,0.0,-0.0058740535750985146,0.8032619953155518,0.0,0.006192222703248262,0.8159513473510742,0.0,0.009102446027100086
933.0,921.0,-0.3206,-0.4965,9.4481,-0.0382,0.0287,-0.1153,-1.9393683872618617,0.0,3.1287074089050293,-1.9780293703079224,-0.0,1.6651813983917236,5.3953528282936,-0.0,0.28844499588012695,-1.521433178578512,0.0,-0.009396785870194435,0.8032856583595276,0.0,0.0071273730136454105,0.8159797787666321,0.0,-0.021236417815089226
933.0,921.0,-0.3206,-0.4965,9.4481,-0.0382,0.0287,-0.1153,-1.9393321476378382,0.0,3.150576591491699,-1.9780542850494385,-0.0,1.641364574432373,5.395356941014089,-0.0,0.2808210849761963,-1.5214455763446253,0.0,-0.002026515081524849,0.8032857775688171,0.0,0.006993272341787815,0.8160120248794556,0.0,0.012993663549423218
933.0,921.0,-0.3206,-0.4965,9.4481,-0.0382,0.0287,-0.1153,-1.939364572564596,0.0,3.2185072898864746,-1.9780418872833252,-0.0,1.6573166847229004,5.39534472206191,-0.0,0.28419429063796997,-1.5214574972735804,0.0,-0.01252369862049818,0.8032937049865723,0.0,-0.0029505048878490925,0.8159877061843872,0.0,-0.011956825852394104
933.0,921.0,-0.3206,-0.4965,9.4481,-0.0382,0.0287,-0.1153,-1.9393445454039515,0.0,3.1704726219177246,-1.978062391281128,-0.0,1.6314795017242432,5.395348775177755,-0.0,0.27308735251426697,-1.5214126745807093,0.0,-0.007513009011745453,0.8032854199409485,0.0,0.006190324202179909,0.8159797787666321,0.0,-0.009747441858053207
933.0,921.0,-0.3206,-0.4965,9.4481,-0.0382,0.0287,-0.1153,-1.9393202267088832,0.0,3.1459994316101074,-1.9780253171920776,-0.0,1.6529160737991333,5.395348775177755,-0.0,0.2922210395336151,-1.5214045683490198,0.0,-0.01830511912703514,0.8033342361450195,0.0,-0.010665081441402435,0.8160199522972107,0.0,-0.04043838754296303
933.0,921.0,-0.3206,-0.4965,9.4481,-0.0382,0.0287,-0.1153,-1.9393445454039515,0.0,3.136305093765259,-1.97804594039917,-0.0,1.6380374431610107,5.395336913853445,-0.0,0.2875785827636719,-1.521461311970846,0.0,-0.014943236485123634,0.8032413125038147,0.0,-0.004441469442099333,0.8159918189048767,0.0,-0.016898300498723984
933.0,921.0,-0.3206,-0.4965,9.4481,-0.0382,0.0287,-0.1153,-1.939364572564596,0.0,3.193727493286133,-1.9780293703079224,-0.0,1.6070375442504883,5.395332801132955,-0.0,0.2870519459247589,-1.5214250723468226,0.0,-0.0312662199139595,0.8033455610275269,0.0,-0.006191257853060961,0.8159835934638977,0.0,-0.010126089677214622
933.0,921.0,-0.3206,-0.4965,9.4481,-0.0382,0.0287,-0.1153,-1.9393564663329066,0.0,3.1511731147766113,-1.9780253171920776,-0.0,1.6565070152282715,5.395377027779379,-0.0,0.287496954202652,-1.521449391041891,0.0,-0.013868769630789757,0.8032814264297485,0.0,0.01160553377121687,0.8159595131874084,0.0,0.03783748298883438
933.0,921.0,-0.3206,-0.4965,9.4481,-0.0382,0.0287,-0.1153,-1.9393288097777308,0.0,3.1709816455841064,-1.9780501127243042,-0.0,1.619889736175537,5.395316767483511,-0.0,0.2832399308681488,-1.5214651266681116,0.0,-0.012984114699065685,0.8032817840576172,0.0,-0.00030304468236863613,0.8159675002098083,0.0,0.035998184233903885
933.0,921.0,-0.3206,-0.4965,9.4481,-0.0382,0.0287,-0.1153,-1.9393202267088832,0.0,3.154064178466797,-1.978062391281128,-0.0,1.636047601699829,5.395345079689779,-0.0,0.2860267460346222,-1.521461311970846,0.0,-0.014229286462068558,0.8033018112182617,0.0,0.012302301824092865,0.8159715533256531,0.0,-0.021440979093313217
933.0,921.0,-0.3206,-0.4965,9.4481,-0.0382,0.0287,-0.1153,-1.939324518243307,0.0,3.1904797554016113,-1.978001594543457,-0.0,1.6324701309204102,5.395400869637289,-0.0,0.27595967054367065,-1.5214532057391565,0.0,-0.020264681428670883,0.803277313709259,0.0,-0.0033007313031703234,0.8159435391426086,0.0,0.032567910850048065
942.0,922.0,-0.3517,-0.5593,9.5593,-0.0379,0.0229,-0.1148,-1.9392839870848597,0.0,3.170973062515259,-1.9780097007751465,-0.0,1.6711500883102417,5.39534472206191,-0.0,0.2841030955314636,-1.5214131514178675,0.0,-0.010904476046562195,0.8033260107040405,0.0,-0.0018304879777133465,0.8160120248794556,0.0,-0.007849489338696003
942.0,922.0,-0.3517,-0.5593,9.5593,-0.0379,0.0229,-0.1148,-1.9393001995482386,0.0,3.1609973907470703,-1.9780417680740356,-0.0,1.6213244199752808,5.39532499292449,-0.0,0.2792602777481079,-1.5214574972735804,0.0,-0.013139002025127411,0.80333012342453,0.0,0.005102544091641903,0.8159595131874084,0.0,0.004322373773902655
942.0,922.0,-0.3517,-0.5593,9.5593,-0.0379,0.0229,-0.1148,-1.939324518243307,0.0,3.1795313358306885,-1.9780138731002808,-0.0,1.6362509727478027,5.395329105644979,-0.0,0.2804112434387207,-1.5214489142047327,0.0,-0.022976340726017952,0.8032858371734619,0.0,-0.005860649049282074,0.8159675002098083,0.0,-0.006432961672544479
942.0,922.0,-0.3517,-0.5593,9.5593,-0.0379,0.0229,-0.1148,-1.9393488369383753,0.0,3.182034969329834,-1.9780417680740356,-0.0,1.6246286630630493,5.395361053734579,-0.0,0.2790694534778595,-1.5214851538287562,0.0,-0.01401596236974001,0.8033456802368164,0.0,0.005390911363065243,0.8159877061843872,0.0,-0.008610214106738567
942.0,922.0,-0.3517,-0.5593,9.5593,-0.0379,0.0229,-0.1148,-1.9393488369383753,0.0,3.189356565475464,-1.9780625104904175,-0.0,1.5939271450042725,5.395304548531332,-0.0,0.29097461700439453,-1.5214412848102015,0.0,-0.012072058394551277,0.8033177852630615,0.0,-0.00163586949929595,0.8160038590431213,0.0,0.03559577092528343
942.0,922.0,-0.3517,-0.5593,9.5593,-0.0379,0.0229,-0.1148,-1.9393321476378382,0.0,3.1955976486206055,-1.978062391281128,-0.0,1.6120257377624512,5.395332801132955,-0.0,0.2821267247200012,-1.521461311970846,0.0,-0.014416791498661041,0.8033260107040405,0.0,-0.005543010774999857,0.8160038590431213,0.0,-0.011696022003889084
942.0,922.0,-0.3517,-0.5593,9.5593,-0.0379,0.0229,-0.1148,-1.9393321476378382,0.0,3.15956974029541,-1.978062391281128,-0.0,1.6472842693328857,5.395324933319845,-0.0,0.2771967649459839,-1.5214574972735804,0.0,-0.01430668868124485,0.8033424019813538,0.0,0.009614985436201096,0.8159715533256531,0.0,0.0632004514336586
942.0,922.0,-0.3517,-0.5593,9.5593,-0.0379,0.0229,-0.1148,-1.9393001995482386,0.0,3.1792469024658203,-1.9780375957489014,-0.0,1.6047937870025635,5.395296382694998,-0.0,0.2873670756816864,-1.521449391041891,0.0,-0.0007412675186060369,0.8032937049865723,0.0,-0.0060606226325035095,0.8159394860267639,0.0,-0.0026173521764576435
942.0,922.0,-0.3517,-0.5593,9.5593,-0.0379,0.0229,-0.1148,-1.9393488369383753,0.0,3.219698905944824,-1.978009819984436,-0.0,1.6256937980651855,5.3953368542488,-0.0,0.28737545013427734,-1.5214412848102015,0.0,-0.012080695480108261,0.8033014535903931,0.0,0.004652618896216154,0.8159877061843872,0.0,0.012001989409327507
942.0,922.0,-0.3517,-0.5593,9.5593,-0.0379,0.0229,-0.1148,-1.9393044910826625,0.0,3.1579251289367676,-1.9780582189559937,-0.0,1.6409380435943604,5.395372915058889,-0.0,0.2787489891052246,-1.5214412848102015,0.0,-0.01146879605948925,0.8033219575881958,0.0,0.004834135994315147,0.8160077333450317,0.0,-0.003480963408946991
942.0,922.0,-0.3517,-0.5593,9.5593,-0.0379,0.0229,-0.1148,-1.939308305779928,0.0,3.2307887077331543,-1.9780014753341675,-0.0,1.6345702409744263,5.3953648088272,-0.0,0.284658282995224,-1.5214574972735804,0.0,-0.007382530253380537,0.8033260107040405,0.0,0.004473015666007996,0.8160322308540344,0.0,0.005354536697268486
942.0,922.0,-0.3517,-0.5593,9.5593,-0.0379,0.0229,-0.1148,-1.939364572564596,0.0,3.1880693435668945,-1.9780293703079224,-0.0,1.6870465278625488,5.395332801132955,-0.0,0.28300583362579346,-1.521473232899801,0.0,-0.01322140172123909,0.8032974600791931,0.0,-0.006327192764729261,0.8160600066184998,0.0,-0.03050895780324936
942.0,922.0,-0.3517,-0.5593,9.5593,-0.0379,0.0229,-0.1148,-1.939324518243307,-6.504469070023333e-07,3.1787352561950684,-1.9780170917510986,-0.0,1.6439460515975952,5.395316767483511,-0.0,0.2866858243942261,-1.5215213934527796,0.0,-0.021811537444591522,0.8033137917518616,0.0,-0.0021241088397800922,0.8160038590431213,0.0,-0.023699872195720673
942.0,922.0,-0.3517,-0.5593,9.5593,-0.0379,0.0229,-0.1148,-1.9393321476378382,-1.5707528593783548e-12,3.1368255615234375,-1.9780418872833252,-0.0,1.6327043771743774,5.3953528282936,-0.0,0.2891259789466858,-1.5214608351336878,0.0,-0.02374090626835823,0.8032293915748596,0.0,0.004943668842315674,0.8160237073898315,0.0,-0.02926786243915558
942.0,922.0,-0.3517,-0.5593,9.5593,-0.0379,0.0229,-0.1148,-1.9393564663329066,-2.8272996279371044e-16,3.2155954837799072,-1.978062391281128,-0.0,1.6262494325637817,5.395381080895223,-0.0,0.27732810378074646,-1.5214770475970667,0.0,-0.009468073025345802,0.8033097386360168,0.0,0.010061196982860565,0.8159991502761841,0.00018971881945617497,-0.021135421469807625
942.0,922.0,-0.3517,-0.5593,9.5593,-0.0379,0.0229,-0.1148,-1.939352651635641,-6.82759643583314e-22,3.1697444915771484,-1.9780820608139038,-0.0,1.6138510704040527,5.395345079689779,-0.0,0.2827828526496887,-1.521517578755514,0.0,-0.006002198904752731,0.8033056259155273,0.0,0.0022995462641119957,0.8160641193389893,0.001133549027144909,-0.01599845103919506
959.0,928.0,-0.1777,-0.3691,9.5647,-0.0325,0.0229,-0.1185,-1.939336439172262,-1.6487841957510405e-27,3.1696014404296875,-1.97806978225708,-0.0,1.6348624229431152,5.395356941014089,-0.0,0.2835671007633209,-1.5214689413653772,0.0,-0.00890405010432005,0.8032695055007935,0.0,-0.002882676664739847,0.8160277605056763,0.001745952875353396,-0.019318755716085434
959.0,928.0,-0.1777,-0.3691,9.5647,-0.0325,0.0229,-0.1185,-1.9393044910826625,-3.9816201387678516e-33,3.1616475582122803,-1.9780778884887695,-0.0,1.641305923461914,5.395356941014089,-0.0,0.2847764194011688,-1.5214608351336878,0.0,-0.01582786999642849,0.8033661842346191,0.0,0.008042660541832447,0.8160879015922546,0.003062866162508726,0.02077043056488037
959.0,928.0,-0.1777,-0.3691,9.5647,-0.0325,0.0229,-0.1185,-1.939336439172262,-7.166775754674364e-37,3.2287497520446777,-1.978009819984436,-0.0,1.6213546991348267,5.395397472172537,-0.0,0.2876884639263153,-1.5214727560626429,0.0,-0.02085936814546585,0.8032777309417725,0.0,-0.0011888572480529547,0.8160396218299866,0.005383266136050224,-0.038384608924388885
959.0,928.0,-0.1777,-0.3691,9.5647,-0.0325,0.0229,-0.1185,-1.939364572564596,-1.730603603441149e-42,3.1948795318603516,-1.978001594543457,-0.0,1.6126434803009033,5.395348775177755,-0.0,0.26945430040359497,-1.5215171019183558,0.0,-0.022537725046277046,0.8032858371734619,0.0,-0.009580879472196102,0.8161038160324097,0.008295982144773006,0.04984094202518463
959.0,928.0,-0.1777,-0.3691,9.5647,-0.0325,0.0229,-0.1185,-1.9393683872618617,0.0,3.1192498207092285,-1.9780293703079224,-0.0,1.6111068725585938,5.3953528282936,-0.0,0.28984710574150085,-1.5214527289019983,0.0,-0.02024466171860695,0.8032371997833252,0.0,-0.0014508380554616451,0.8161517381668091,0.006093254312872887,0.024975083768367767
959.0,928.0,-0.1777,-0.3691,9.5647,-0.0325,0.0229,-0.1185,-1.9393440685667933,0.0,3.154977798461914,-1.9780665636062622,-0.0,1.5818521976470947,5.395364749222555,-0.0,0.286622017621994,-1.5214608351336878,0.0,-0.010942243039608002,0.8032854795455933,0.0,0.0076226117089390755,0.8161718845367432,0.00487682968378067,0.015911215916275978
959.0,928.0,-0.1777,-0.3691,9.5647,-0.0325,0.0229,-0.1185,-1.9393764934935511,0.0,3.1628470420837402,-1.9780943393707275,-0.0,1.6511338949203491,5.395312833576956,-0.0,0.2954116761684418,-1.5214570204364222,0.0,-0.01134013757109642,0.8032854795455933,0.0,0.0033894325606524944,0.816208004951477,0.0032071967143565416,-0.05503404513001442
959.0,928.0,-0.1777,-0.3691,9.5647,-0.0325,0.0229,-0.1185,-1.9393288097777308,0.0,3.1840176582336426,-1.978078007698059,-0.0,1.6981537342071533,5.395348775177755,-0.0,0.2800249457359314,-1.5215051809894007,0.0,-0.029271475970745087,0.8032817840576172,0.0,-0.0011136576067656279,0.8162119388580322,0.002227145479992032,0.04309640824794769
959.0,928.0,-0.1777,-0.3691,9.5647,-0.0325,0.0229,-0.1185,-1.9393922291197718,0.0,3.1664557456970215,-1.9780501127243042,-0.0,1.6166713237762451,5.3952685473258875,-0.0,0.28805941343307495,-1.5214770475970667,0.0,-0.014044823125004768,0.8033256530761719,0.0,0.003394212806597352,0.8162038326263428,0.0012020496651530266,0.011536756530404091
959.0,928.0,-0.1777,-0.3691,9.5647,-0.0325,0.0229,-0.1185,-1.9393521747984828,0.0,3.205799102783203,-1.9780657291412354,-0.0,1.5841268301010132,5.395292627602377,-3.424852366151754e-07,0.2874223589897156,-1.5214694182025355,0.0,-0.004935081582516432,0.8033096194267273,0.0,-0.0003352866624481976,0.816227912902832,0.000782301533035934,0.04024424031376839
959.0,928.0,-0.1777,-0.3691,9.5647,-0.0325,0.0229,-0.1185,-1.9393602810301722,-0.00011759321205317974,3.2176389694213867,-1.9780665636062622,-0.0,1.6649739742279053,5.395284878998556,-9.53320131169555e-11,0.28410103917121887,-1.521501366292135,0.0,-0.011475611478090286,0.8033096194267273,0.0,0.013938568532466888,0.8162360787391663,0.0005139564746059477,0.009602196514606476
959.0,928.0,-0.1777,-0.3691,9.5647,-0.0325,0.0229,-0.1185,-1.9393440685667933,-0.00013088360719848424,3.2012076377868652,-1.9780707359313965,-0.0,1.6025803089141846,5.395333158760824,-2.6536017578172172e-14,0.2849421799182892,-1.5214851538287562,0.0,-0.019134342670440674,0.8032937049865723,0.0,0.005712717305868864,0.816224217414856,0.000382746773539111,-0.015924114733934402
959.0,928.0,-0.1777,-0.3691,9.5647,-0.0325,0.0229,-0.1185,-1.9393922291197718,-0.00013542071974370629,3.178262710571289,-1.9780253171920776,-0.0,1.6814271211624146,5.395329105644979,-7.386397788117804e-18,0.27972501516342163,-1.5214851538287562,0.0,-0.013339607045054436,0.8033137321472168,0.0,-0.0027501063887029886,0.816187858581543,0.0002448137092869729,0.042739469558000565
959.0,928.0,-0.1777,-0.3691,9.5647,-0.0325,0.0229,-0.1185,-1.9393722019591273,-0.00013622394180856645,3.1991207599639893,-1.9780179262161255,-0.0,1.6146152019500732,5.395300853043356,-3.148937328378435e-20,0.26573920249938965,-1.5214694182025355,0.0,-0.007840663194656372,0.8033818006515503,0.0,-0.0030726559925824404,0.816240131855011,0.0002148183120880276,0.006069653667509556
959.0,928.0,-0.1777,-0.3691,9.5647,-0.0325,0.0229,-0.1185,-1.9394251308836878,-0.00012792670167982578,3.172175407409668,-1.97804594039917,-0.0,1.6220979690551758,5.3953168270881555,-8.76518419034356e-24,0.2768711447715759,-1.5214651266681116,0.0,-0.017736757174134254,0.8033219575881958,0.0,-0.011554806493222713,0.8162400722503662,9.755014616530389e-05,0.005403445102274418
959.0,928.0,-0.1777,-0.3691,9.5647,-0.0325,0.0229,-0.1185,-1.9393402538695277,-0.00013780684093944728,3.1650164127349854,-1.978078842163086,-0.0,1.6446279287338257,5.395264434605398,-5.3132184802962e-06,0.28012749552726746,-1.5214608351336878,0.0,-0.016110200434923172,0.8033416271209717,0.0,0.0004312137607485056,0.8161796927452087,4.4739288568962365e-05,0.007180498912930489
959.0,928.0,-0.1777,-0.3691,9.5647,-0.0325,0.0229,-0.1185,-1.9393764934935511,-0.00013272656360641122,3.215579032897949,-1.9780138731002808,-0.0,1.6161203384399414,5.395304548531332,-0.0002297049795743078,0.2805671989917755,-1.5214288870440882,0.0,-0.019902558997273445,0.8033014535903931,0.0,0.005602441728115082,0.8162038326263428,4.0692986658541486e-05,-0.047770120203495026
947.0,920.0,-0.4062,-0.3218,9.594,-0.0275,0.0189,-0.1153,-1.9394132099547328,-0.00021690275752916932,3.1787590980529785,-1.97804594039917,-0.0,1.6118704080581665,5.3953131316001794,-0.00023963293642736971,0.27350229024887085,-1.5214970747577112,0.0,-0.01154223270714283,0.8033219575881958,0.0,-0.0018867019098252058,0.8162360787391663,3.583229408832267e-05,-0.014023356139659882
947.0,920.0,-0.4062,-0.3218,9.594,-0.0275,0.0189,-0.1153,-1.9393640957274378,-0.00026081447140313685,3.164374351501465,-1.9780458211898804,-0.0,1.6390180587768555,5.395256566792288,-0.00022903611534275115,0.2856161296367645,-1.5214694182025355,0.0,-0.02397850900888443,0.8033055663108826,0.0,0.006968711502850056,0.816227912902832,3.200895298505202e-05,-0.016245940700173378
947.0,920.0,-0.4062,-0.3218,9.594,-0.0275,0.0189,-0.1153,-1.9394008121886195,-0.00026782514760270715,3.1793036460876465,-1.9780458211898804,2.9894965791754657e-06,1.5919370651245117,5.395309078484335,-0.00022103884839452803,0.2896772027015686,-1.5214408079730433,0.0,-0.011371413245797157,0.8033219575881958,0.0,-0.0030084187164902687,0.8161956667900085,2.8922901037731208e-05,-0.0070005375891923904
947.0,920.0,-0.4062,-0.3218,9.594,-0.0275,0.0189,-0.1153,-1.9393841228880824,-0.00025046069640666246,3.1367900371551514,-1.9780375957489014,0.00021837811800651252,1.6544842720031738,5.395272898464956,-0.0002359206264372915,0.28367650508880615,-1.5214770475970667,0.0,-0.0248283538967371,0.8033379316329956,0.0,0.009451854042708874,0.8162241578102112,2.7176161893294193e-05,-0.0014278646558523178
947.0,920.0,-0.4062,-0.3218,9.594,-0.0275,0.0189,-0.1153,-1.9393884144225062,-0.0003260695084463805,3.1379873752593994,-1.9780293703079224,0.0003004738537129015,1.6252589225769043,5.395284938603201,-0.0002811812737490982,0.2845447063446045,-1.5214489142047327,0.0,-0.015153642743825912,0.8033137321472168,0.0,-0.001376833999529481,0.8162681460380554,4.983287726645358e-05,0.04714462161064148
947.0,920.0,-0.4062,-0.3218,9.594,-0.0275,0.0189,-0.1153,-1.9394165478148402,-0.0002682121121324599,3.1734814643859863,-1.9780137538909912,0.0007845443906262517,1.5905730724334717,5.395277130394735,-0.00023779926414135844,0.2857680916786194,-1.521529499684469,0.0,-0.027819067239761353,0.8033818602561951,0.0,-0.006359100341796875,0.8162078261375427,8.41493092593737e-05,-0.03431310877203941
947.0,920.0,-0.4062,-0.3218,9.594,-0.0275,0.0189,-0.1153,-1.9393679104247035,-0.00023964143474586308,3.1609175205230713,-1.9780097007751465,0.001196758239530027,1.6643365621566772,5.395264851837911,-0.00025231309700757265,0.28058844804763794,-1.5214570204364222,0.0,-0.03386308252811432,0.8033613562583923,0.0,0.004399664234369993,0.8162682056427002,0.0002057067322311923,-0.019481852650642395
947.0,920.0,-0.4062,-0.3218,9.594,-0.0275,0.0189,-0.1153,-1.9393602810301722,-0.00020662735914811492,3.1697325706481934,-1.977989912033081,0.0013357058633118868,1.6184983253479004,5.395249473839559,-0.0002257052401546389,0.2732798457145691,-1.5214727560626429,0.0,-0.023473132401704788,0.8033297061920166,0.0,-0.006967795081436634,0.816219687461853,0.0017712373519316316,0.04317710921168327
947.0,920.0,-0.4062,-0.3218,9.594,-0.0275,0.0189,-0.1153,-1.93933167080068,-0.00018160900799557567,3.1487860679626465,-1.9779579639434814,0.0016568972496315837,1.622229814529419,5.395229089051046,-0.00023338914616033435,0.2773844003677368,-1.5214527289019983,0.0,-0.025054769590497017,0.8033337593078613,0.0,-0.002812542486935854,0.8162961602210999,0.0039940448477864265,0.04855605959892273
947.0,920.0,-0.4062,-0.3218,9.594,-0.0275,0.0189,-0.1153,-1.9393965206541957,-0.00016199501988012344,3.1392829418182373,-1.977949619293213,0.0022773072123527527,1.688638687133789,5.395272958069601,-0.00023661041632294655,0.2767089009284973,-1.5215089956866663,0.0,-0.041016556322574615,0.8033456802368164,0.0,0.0027905553579330444,0.8163281083106995,0.006098128389567137,0.10150869935750961
947.0,920.0,-0.4062,-0.3218,9.594,-0.0275,0.0189,-0.1153,-1.9393679104247035,-0.00015111456741578877,3.1720311641693115,-1.9779826402664185,0.0027645681984722614,1.6659268140792847,5.395217168122091,-0.00024085110635496676,0.27728644013404846,-1.521484676991598,0.0,-0.040280938148498535,0.8033777475357056,0.0,0.0032740943133831024,0.8163599967956543,0.007835042662918568,0.14701998233795166
947.0,920.0,-0.4062,-0.3218,9.594,-0.0275,0.0189,-0.1153,-1.939420839349264,-0.00013728384510613978,3.134852886199951,-1.9778854846954346,0.00401426712051034,1.6511695384979248,5.395208942681112,-0.0002630060480441898,0.26281264424324036,-1.5215051809894007,-0.0003535692230798304,-0.03459136188030243,0.803313672542572,0.0,0.006602544337511063,0.8164043426513672,0.010374614968895912,0.13858631253242493
947.0,920.0,-0.4062,-0.3218,9.594,-0.0275,0.0189,-0.1153,-1.9393640957274378,-0.0001499139762017876,3.1711201667785645,-1.9779101610183716,0.004653427749872208,1.682903528213501,5.395233201771536,-0.0002973173395730555,0.2523917257785797,-1.521517578755514,-0.00035589703475125134,-0.03956274315714836,0.8033376336097717,0.0,-0.00880817137658596,0.8164845108985901,0.012164072133600712,0.1588560938835144
947.0,920.0,-0.4062,-0.3218,9.594,-0.0275,0.0189,-0.1153,-1.9393841228880824,-0.00013925098755862564,3.1339879035949707,-1.9778698682785034,0.0047003296203911304,1.638436198234558,5.3951929090316675,-0.0005830248119309545,0.2609577775001526,-1.521529499684469,-0.0003028564970009029,-0.05196504294872284,0.8033419847488403,0.0,-0.004519306588917971,0.8165603876113892,0.01321106031537056,0.1667575091123581
947.0,920.0,-0.4062,-0.3218,9.594,-0.0275,0.0189,-0.1153,-1.939408918420309,-0.00013242146815173328,3.1017870903015137,-1.9778863191604614,0.005056302063167095,1.7240943908691406,5.395249473839559,-0.0006314695929177105,0.24834853410720825,-1.5215256849872034,-0.00031686839065514505,-0.054736241698265076,0.8033015131950378,0.0,-0.001349922618828714,0.8165600895881653,0.014208902604877949,0.1988779604434967
947.0,920.0,-0.4062,-0.3218,9.594,-0.0275,0.0189,-0.1153,-1.9393798313536585,-0.00014380822540260851,3.077852249145508,-1.9777777194976807,0.0065967123955488205,1.6906139850616455,5.395245420723715,-0.0008780975476838648,0.24146844446659088,-1.5214646498309534,-0.0002759323688223958,-0.05795392394065857,0.8033497333526611,0.0,0.0005245774518698454,0.8167011141777039,0.0150352967903018,0.2619277834892273
930.0,947.0,-0.3577,-0.4618,9.4247,-0.0298,0.0202,-0.1034,-1.9393922291197718,-0.00013467615644913167,3.091135263442993,-1.9778023958206177,0.00706171989440918,1.6647634506225586,5.395205247193136,-0.001029688399285078,0.24021197855472565,-1.521512810383932,-0.0002785604156088084,-0.06272520124912262,0.8033334612846375,0.0,0.006819268222898245,0.8167364597320557,0.01568664237856865,0.2695586383342743
930.0,947.0,-0.3577,-0.4618,9.4247,-0.0298,0.0202,-0.1034,-1.9393884144225062,-0.0001473522133892402,3.086580514907837,-1.9777661561965942,0.0071145640686154366,1.7578585147857666,5.395189213543691,-0.0015670533757656813,0.23043152689933777,-1.5215008894549769,-0.0002586887567304075,-0.05748958885669708,0.8033497929573059,-1.8394168819213519e-06,-0.0023838812485337257,0.8168007731437683,0.015660222619771957,0.2092178612947464
930.0,947.0,-0.3577,-0.4618,9.4247,-0.0298,0.0202,-0.1034,-1.9393679104247035,-0.00012291317398194224,3.0523715019226074,-1.9776781797409058,0.008466660976409912,1.6801400184631348,5.395205664425649,-0.0029907904099673033,0.22223424911499023,-1.5215495268451136,-0.00023351590789388865,-0.06748010963201523,0.8033696413040161,-5.120084356491361e-10,0.013369367457926273,0.8169403672218323,0.015356415882706642,0.29594337940216064
930.0,947.0,-0.3577,-0.4618,9.4247,-0.0298,0.0202,-0.1034,-1.9393321476378382,-0.00012727594003081322,3.073040008544922,-1.9776698350906372,0.009164916351437569,1.718761682510376,5.395161437779226,-0.008868574164807796,0.23353278636932373,-1.521529499684469,-0.0001958789798663929,-0.06556637585163116,0.8033137321472168,-1.4251943267033773e-13,0.010752035304903984,0.8169640898704529,0.015690524131059647,0.3168673515319824
930.0,947.0,-0.3577,-0.4618,9.4247,-0.0298,0.0202,-0.1034,-1.9394241772093714,-0.00015874019300099462,3.087049722671509,-1.9775899648666382,0.010579034686088562,1.72660493850708,5.395045387535848,-0.022635653614997864,0.21060076355934143,-1.521496597920553,-0.00017321109771728516,-0.0675588995218277,0.8033937215805054,-3.967081455443476e-17,0.002101704478263855,0.8171047568321228,0.015536692924797535,0.304705411195755
930.0,947.0,-0.3577,-0.4618,9.4247,-0.0298,0.0202,-0.1034,-1.939343591729635,-0.0006435614777728915,3.051137924194336,-1.9775248765945435,0.010900373570621014,1.7636973857879639,5.394974338799276,-0.02356603741645813,0.2027849406003952,-1.5215132872210901,-0.00016082808724604547,-0.06486427783966064,0.8033654689788818,-1.691229052748456e-19,0.02177923545241356,0.817136287689209,0.015430265106260777,0.3261350095272064
930.0,947.0,-0.3577,-0.4618,9.4247,-0.0298,0.0202,-0.1034,-1.9394685230650843,-0.0010624270653352141,3.0201148986816406,-1.977461814880371,0.010913019068539143,1.7369285821914673,5.394778477936544,-0.02250719629228115,0.19726654887199402,-1.521484676991598,-0.00014525235746987164,-0.06804822385311127,0.8033573031425476,-4.707598449387858e-23,0.01597633957862854,0.8172730803489685,0.014986500144004822,0.2856738865375519
930.0,947.0,-0.3577,-0.4618,9.4247,-0.0298,0.0202,-0.1034,-1.9394284687437953,-0.0016759737627580762,3.049861431121826,-1.9774346351623535,0.011099007911980152,1.74744713306427,5.394630360394277,-0.01683937944471836,0.19744595885276794,-1.5214884916888636,-0.000132427376229316,-0.07583753019571304,0.8033814430236816,-1.310377465960205e-26,0.02414560690522194,0.817348837852478,0.016916902735829353,0.32777494192123413
930.0,947.0,-0.3577,-0.4618,9.4247,-0.0298,0.0202,-0.1034,-1.9394203625121058,-0.002968643559142947,3.0134973526000977,-1.9773578643798828,0.011294449679553509,1.7486720085144043,5.394562768727102,-0.01213509775698185,0.19485168159008026,-1.5215533415423792,-0.00012168371176812798,-0.06954818964004517,0.8033614158630371,-3.6474837389631055e-30,0.010425753891468048,0.8175215721130371,0.01966295763850212,0.35295045375823975
930.0,947.0,-0.3577,-0.4618,9.4247,-0.0298,0.0202,-0.1034,-1.9394365749754847,-0.0040628984570503235,2.9792728424072266,-1.9772980213165283,0.010767013765871525,1.7632346153259277,5.3945955512817285,-0.009493054822087288,0.20124901831150055,-1.521484676991598,-0.00011544012522790581,-0.0673629641532898,0.8033409714698792,-1.5549794859718343e-32,0.019221972674131393,0.8175206780433655,0.020339258015155792,0.37387630343437195
930.0,947.0,-0.3577,-0.4618,9.4247,-0.0298,0.0202,-0.1034,-1.9394928417601527,-0.006619020830839872,2.97344970703125,-1.977213978767395,0.010383053682744503,1.7260870933532715,5.394519257336416,-0.0061265574768185616,0.18101510405540466,-1.5214603582965296,-0.00010719033161876723,-0.07052578032016754,0.8033814430236816,-4.3283428935083285e-36,0.0006771346088498831,0.8176696300506592,0.02258967235684395,0.3806127607822418
930.0,947.0,-0.3577,-0.4618,9.4247,-0.0298,0.0202,-0.1034,-1.9394556484618128,-0.007810015697032213,2.9532461166381836,-1.9771860837936401,0.011455090716481209,1.7815643548965454,5.394443321018972,-0.004361686296761036,0.18770664930343628,-1.5215213934527796,-0.00010004104842664674,-0.07819700986146927,0.8033532500267029,-1.2048097949556555e-39,0.016381675377488136,0.8177731037139893,0.025040438398718834,0.36887121200561523
930.0,947.0,-0.3577,-0.4618,9.4247,-0.0298,0.0202,-0.1034,-1.9395519695677699,-0.007307515479624271,2.9748425483703613,-1.9770774841308594,0.010726146399974823,1.7776966094970703,5.394459354668417,-0.0034637039061635733,0.1943269670009613,-1.5214927832232874,-9.578214667271823e-05,-0.06976401805877686,0.80340975522995,-5.1357588717504546e-42,0.018837109208106995,0.8178650736808777,0.026925254613161087,0.3696092963218689
930.0,947.0,-0.3577,-0.4618,9.4247,-0.0298,0.0202,-0.1034,-1.939547678033346,-0.008392537012696266,3.0428783893585205,-1.9771144390106201,0.010805651545524597,1.809541940689087,5.394471692829885,-0.0037228884175419807,0.17096847295761108,-1.5215652624713343,-9.003296145237982e-05,-0.07270003855228424,0.8033696413040161,-1.401298464324817e-45,0.013938691467046738,0.818069338798523,0.026939570903778076,0.39257997274398804
930.0,947.0,-0.3577,-0.4618,9.4247,-0.0298,0.0202,-0.1034,-1.9396072826781214,-0.009580353274941444,2.955496311187744,-1.9770379066467285,0.009775344282388687,1.790250301361084,5.394439685135641,-0.005111127160489559,0.18692301213741302,-1.5215008894549769,-8.493493078276515e-05,-0.07110720872879028,0.8033450245857239,-0.0,0.026462018489837646,0.8182415962219238,0.028133084997534752,0.40018898248672485
930.0,947.0,-0.3577,-0.4618,9.4247,-0.0298,0.0202,-0.1034,-1.93974032024526,-0.011571764945983887,2.9524455070495605,-1.976994276046753,0.008955191820859909,1.800954818725586,5.394384014397421,-0.007873750291764736,0.1741712987422943,-1.5215008894549769,-8.038328087422997e-05,-0.06725511699914932,0.8033613562583923,-0.0,0.020785417407751083,0.8184587955474854,0.028671473264694214,0.38391125202178955
930.0,947.0,-0.3577,-0.4618,9.4247,-0.0298,0.0202,-0.1034,-1.9397722683348597,-0.012814614921808243,2.9004788398742676,-1.9769787788391113,0.008501190692186356,1.7509334087371826,5.394303965359487,-0.009048659354448318,0.15701204538345337,-1.5214727560626429,-7.761052256682888e-05,-0.06093544512987137,0.8032932877540588,-0.0,0.03131523355841637,0.818501889705658,0.028889639303088188,0.38267189264297485
941.0,940.0,-0.7789,-0.5994,9.6604,-0.0298,0.0055,-0.0895,-1.939860006371969,-0.013707897625863552,2.9617977142333984,-1.9769030809402466,0.008432775735855103,1.800015926361084,5.394279825478353,-0.010736053809523582,0.1529429852962494,-1.5214646498309534,-7.379242015304044e-05,-0.05985936522483826,0.8034457564353943,-0.0,0.020559024065732956,0.8186859488487244,0.02913576550781727,0.3488443195819855
941.0,940.0,-0.7789,-0.5994,9.6604,-0.0298,0.0055,-0.0895,-1.9399119816222132,-0.014914495870471,2.901573657989502,-1.9768462181091309,0.008600539527833462,1.7724392414093018,5.394192385464468,-0.012466979213058949,0.15436992049217224,-1.5214889685260218,-5.628188228001818e-05,-0.06255118548870087,0.8033856153488159,-0.0,0.01885470747947693,0.8188421130180359,0.028283633291721344,0.34466806054115295
941.0,940.0,-0.7789,-0.5994,9.6604,-0.0298,0.0055,-0.0895,-1.9400159321227015,-0.015474099665880203,2.960765838623047,-1.9768109321594238,0.008851478807628155,1.794761061668396,5.39415996053771,-0.012175432406365871,0.14221957325935364,-1.5214770475970667,-5.4560510761803016e-05,-0.06274227797985077,0.8033852577209473,-0.0,0.041371822357177734,0.8189782500267029,0.0288035087287426,0.36545324325561523
941.0,940.0,-0.7789,-0.5994,9.6604,-0.0298,0.0055,-0.0895,-1.9400960407652796,-0.016082976013422012,2.8882949352264404,-1.9767508506774902,0.009489431045949459,1.7548129558563232,5.394108819752493,-0.011574506759643555,0.155254065990448,-1.5215008894549769,-5.218762089498341e-05,-0.05000095069408417,0.8034054040908813,-0.0,0.027805503457784653,0.819182276725769,0.030114127323031425,0.29241153597831726
941.0,940.0,-0.7789,-0.5994,9.6604,-0.0298,0.0055,-0.0895,-1.9402524433531703,-0.017089571803808212,2.9439051151275635,-1.976686716079712,0.009893613867461681,1.8275158405303955,5.39402054527358,-0.010722588747739792,0.14962553977966309,-1.521529499684469,-5.001257159165107e-05,-0.04495259374380112,0.8033851981163025,-0.0,0.020476125180721283,0.8193585276603699,0.02944379672408104,0.33957958221435547
941.0,940.0,-0.7789,-0.5994,9.6604,-0.0298,0.0055,-0.0895,-1.9403039417662562,-0.018052348867058754,2.8850793838500977,-1.9766182899475098,0.01090145856142044,1.8196156024932861,5.39394103267745,-0.009363368153572083,0.1526377946138382,-1.5215051809894007,-4.8011606850195676e-05,-0.044366396963596344,0.8034093976020813,-0.0,0.018229061737656593,0.8194944858551025,0.03157388046383858,0.33693039417266846
941.0,940.0,-0.7789,-0.5994,9.6604,-0.0298,0.0055,-0.0895,-1.940399786035055,-0.01814522221684456,2.8345842361450195,-1.9765985012054443,0.011716946959495544,1.7917988300323486,5.393912839680471,-0.008006115444004536,0.1449025273323059,-1.5214889685260218,-4.6764271246502176e-05,-0.05452103912830353,0.8033651113510132,-0.0,0.02381885051727295,0.8196988701820374,0.03298376128077507,0.3596489429473877
941.0,940.0,-0.7789,-0.5994,9.6604,-0.0298,0.0055,-0.0895,-1.9404875240721644,-0.01775815710425377,2.8628182411193848,-1.9765063524246216,0.012620538473129272,1.8154754638671875,5.393921422749319,-0.0061071207746863365,0.154216468334198,-1.5214970747577112,-4.50102161266841e-05,-0.050000108778476715,0.803425669670105,-0.0,0.035460613667964935,0.8198546171188354,0.03634701669216156,0.34275683760643005
941.0,940.0,-0.7789,-0.5994,9.6604,-0.0298,0.0055,-0.0895,-1.9406033955016078,-0.01603659987449646,2.883305072784424,-1.9764587879180908,0.014260764233767986,1.8388557434082031,5.39382957199172,-0.004917307291179895,0.1364855170249939,-1.521496597920553,-4.338300277595408e-05,-0.051019057631492615,0.8034052848815918,-0.0,0.02624303102493286,0.8201233148574829,0.039627574384212494,0.38088831305503845
941.0,940.0,-0.7789,-0.5994,9.6604,-0.0298,0.0055,-0.0895,-1.9407116375365199,-0.01423407532274723,2.85650634765625,-1.9763426780700684,0.015683377161622047,1.8064181804656982,5.39382957199172,-0.004504704382270575,0.14334934949874878,-1.5214770475970667,-3.409228884265758e-05,-0.05853162705898285,0.8034093976020813,-0.0,0.03875507414340973,0.8203954100608826,0.043990787118673325,0.37820523977279663
941.0,940.0,-0.7789,-0.5994,9.6604,-0.0298,0.0055,-0.0895,-1.940746923486227,-0.013074856251478195,2.8647985458374023,-1.976330280303955,0.017299316823482513,1.8265135288238525,5.39382957199172,-0.004019022919237614,0.1433974951505661,-1.521484676991598,-3.0699651688337326e-05,-0.041964225471019745,0.8034053444862366,0.00016659635002724826,0.04401221498847008,0.8205915093421936,0.046708568930625916,0.35508736968040466
941.0,940.0,-0.7789,-0.5994,9.6604,-0.0298,0.0055,-0.0895,-1.940798898736471,-0.011948341503739357,2.8455679416656494,-1.976190447807312,0.020169347524642944,1.8252135515213013,5.3937697289283655,-0.004780725110322237,0.13183443248271942,-1.5214408079730433,-7.624929367011646e-06,-0.05556870624423027,0.8033733367919922,0.00015081466699484736,0.038596950471401215,0.820904016494751,0.051021281629800797,0.3864627480506897
941.0,940.0,-0.7789,-0.5994,9.6604,-0.0298,0.0055,-0.0895,-1.9409471950926722,-0.010140804573893547,2.8699963092803955,-1.9760349988937378,0.023752229288220406,1.8011441230773926,5.393745887070455,-0.005780323874205351,0.12403430044651031,-1.5214689413653772,-2.122426900896812e-09,-0.03821496665477753,0.8034257292747498,0.00016396271530538797,0.04686850681900978,0.8212201595306396,0.05450335517525673,0.3694109320640564
941.0,940.0,-0.7789,-0.5994,9.6604,-0.0298,0.0055,-0.0895,-1.9409758053221644,-0.009144765324890614,2.8188178539276123,-1.9759304523468018,0.026375947520136833,1.887601375579834,5.393702077656545,-0.006259001325815916,0.10126472264528275,-1.5214813391314905,2.156775735784322e-05,-0.0472787469625473,0.803421676158905,0.0001549989974591881,0.04448444023728371,0.8214202523231506,0.056103527545928955,0.3598374128341675
941.0,940.0,-0.7789,-0.5994,9.6604,-0.0298,0.0055,-0.0895,-1.9410354099669398,-0.007883142679929733,2.892712354660034,-1.9757750034332275,0.03038254752755165,1.8171069622039795,5.39371012428359,-0.00787651538848877,0.11222811043262482,-1.521501366292135,2.31479625654174e-05,-0.038282256573438644,0.8033852577209473,0.0001663888688199222,0.02725078910589218,0.8218246698379517,0.05963560566306114,0.3744836151599884
941.0,940.0,-0.7789,-0.5994,9.6604,-0.0298,0.0055,-0.0895,-1.9410754642882289,-0.006348852068185806,2.8053643703460693,-1.9755585193634033,0.035236846655607224,1.8565199375152588,5.393606114178457,-0.00972377322614193,0.12282665818929672,-1.5214770475970667,2.7782169127021916e-05,-0.05327729508280754,0.8033692240715027,0.00015426488243974745,0.04202820733189583,0.822192907333374,0.06402802467346191,0.33774667978286743
941.0,940.0,-0.7789,-0.5994,9.6604,-0.0298,0.0055,-0.0895,-1.9410749874510707,-0.005452308803796768,2.8446145057678223,-1.975403904914856,0.04000063240528107,1.8832368850708008,5.393586444645681,-0.00997131410986185,0.11236590147018433,-1.5214770475970667,3.223406019969843e-05,-0.03398115932941437,0.8034257292747498,0.0001628637546673417,0.028434693813323975,0.8225572109222412,0.06752225011587143,0.3469698429107666
949.0,911.0,-0.3147,-0.5737,9.746,-0.0173,0.0444,-0.0496,-1.9410549602904261,-0.004730608314275742,2.8379478454589844,-1.9751026630401611,0.04465769603848457,1.8800528049468994,5.393542516022482,-0.010733316652476788,0.11423597484827042,-1.521501366292135,3.148385803797282e-05,-0.03760598972439766,0.8033970594406128,0.00015706481644883752,0.04738732427358627,0.822845458984375,0.07057135552167892,0.3146032691001892
949.0,911.0,-0.3147,-0.5737,9.746,-0.0173,0.0444,-0.0496,-1.9411512813963832,-0.004643003456294537,2.864687204360962,-1.9748551845550537,0.049559086561203,1.879549503326416,5.393502402096548,-0.011322736740112305,0.09834557771682739,-1.5214770475970667,3.041973468498327e-05,-0.017311764881014824,0.8034053444862366,0.00014742242638021708,0.028996091336011887,0.8233017921447754,0.07600872218608856,0.4032168388366699
949.0,911.0,-0.3147,-0.5737,9.746,-0.0173,0.0444,-0.0496,-1.941127439538473,-0.004420378245413303,2.8302221298217773,-1.9745391607284546,0.05666949972510338,1.9566621780395508,5.393434989243307,-0.012267638929188251,0.11404140293598175,-1.5214694182025355,1.3099665920890402e-06,-0.03862624615430832,0.8033733367919922,0.00013889062392991036,0.0482436940073967,0.8238064646720886,0.07852254807949066,0.4022061228752136
949.0,911.0,-0.3147,-0.5737,9.746,-0.0173,0.0444,-0.0496,-1.9411827526488246,-0.0040739248506724834,2.8573012351989746,-1.974351406097412,0.062266793102025986,1.8533072471618652,5.393383013993063,-0.012941678054630756,0.12151414155960083,-1.5214651266681116,5.584593676388749e-09,-0.039427250623703,0.803377091884613,0.00013373098045121878,0.0464150533080101,0.8241385221481323,0.07851442694664001,0.3154793083667755
949.0,911.0,-0.3147,-0.5737,9.746,-0.0173,0.0444,-0.0496,-1.9411665401854457,-0.00396763626486063,2.8662266731262207,-1.9739598035812378,0.07068922370672226,1.8909093141555786,5.393282937794485,-0.01586940512061119,0.11287499964237213,-1.5214770475970667,1.5544919951954173e-12,-0.028190283104777336,0.8033811450004578,0.0001266724430024624,0.060421910136938095,0.8245748281478882,0.07754362374544144,0.3644357919692993
949.0,911.0,-0.3147,-0.5737,9.746,-0.0173,0.0444,-0.0496,-1.9412266216673792,-0.004887835588306189,2.8560032844543457,-1.9734562635421753,0.07982475310564041,1.9467847347259521,5.393163251667776,-0.019609300419688225,0.0972188413143158,-1.5214288870440882,4.326985754731828e-16,-0.008265388198196888,0.803389310836792,0.00012947684444952756,0.03436555340886116,0.8250913619995117,0.07615771889686584,0.3684919774532318
949.0,911.0,-0.3147,-0.5737,9.746,-0.0173,0.0444,-0.0496,-1.9412833652892054,-0.006052692886441946,2.846360206604004,-1.9728753566741943,0.08873889595270157,1.947694182395935,5.393039750843801,-0.026317063719034195,0.10470806807279587,-1.521445099507467,1.2044323575322042e-19,-0.02076694741845131,0.8033650517463684,0.00011983585864072666,0.04319143295288086,0.8254793286323547,0.07451093941926956,0.34324049949645996
949.0,911.0,-0.3147,-0.5737,9.746,-0.0173,0.0444,-0.0496,-1.9413110218443812,-0.006037721410393715,2.821822166442871,-1.9725685119628906,0.09434579312801361,1.9521335363388062,5.392976212292471,-0.03235573321580887,0.10033508390188217,-1.5214527289019983,5.134683767615551e-22,-0.031417086720466614,0.8033532500267029,0.00011377729970263317,0.04561815410852432,0.8258358240127563,0.07542122900485992,0.34190893173217773
949.0,911.0,-0.3147,-0.5737,9.746,-0.0173,0.0444,-0.0496,-1.9412952862181605,-0.005238762125372887,2.824542284011841,-1.9719644784927368,0.09936555474996567,2.0161445140838623,5.392712640553274,-0.04351728782057762,0.0881521999835968,-1.52148944536318,1.4292583113389456e-25,-0.03155079483985901,0.8034974932670593,0.00010575518535915762,0.03984607011079788,0.8262560367584229,0.07784809172153473,0.3402085602283478
949.0,911.0,-0.3147,-0.5737,9.746,-0.0173,0.0444,-0.0496,-1.9413792095580042,-0.0037676161155104637,2.850151538848877,-1.971332311630249,0.09805909544229507,1.9820866584777832,5.392405438214102,-0.05749887600541115,0.08443235605955124,-1.5214608351336878,3.9783925833410517e-29,-0.027097366750240326,0.8033851981163025,9.878892888082191e-05,0.03569925203919411,0.8266642093658447,0.07518204301595688,0.35315176844596863
949.0,911.0,-0.3147,-0.5737,9.746,-0.0173,0.0444,-0.0496,-1.9413348637022914,-0.0020705056376755238,2.8841147422790527,-1.9707180261611938,0.10334664583206177,1.9930765628814697,5.392046618252554,-0.07279989123344421,0.08041414618492126,-1.5214651266681116,1.1074000936626633e-32,-0.03327718377113342,0.8033971190452576,9.268170106224716e-05,0.046631015837192535,0.8271286487579346,0.07296852022409439,0.31311672925949097
949.0,911.0,-0.3147,-0.5737,9.746,-0.0173,0.0444,-0.0496,-1.941355367700094,-0.0010875549633055925,2.92283296585083,-1.970309853553772,0.10860757529735565,2.009848117828369,5.391751813679495,-0.08162381500005722,0.07022308558225632,-1.5214532057391565,4.7210206413612115e-35,-0.04092603549361229,0.8033852577209473,8.901757973944768e-05,0.047643981873989105,0.8274409174919128,0.07150603830814362,0.3701428771018982
949.0,911.0,-0.3147,-0.5737,9.746,-0.0173,0.0444,-0.0496,-1.9413587055602015,-0.0007558701327070594,2.8741235733032227,-1.9695981740951538,0.11433181911706924,2.013580083847046,5.391229438572683,-0.0920378789305687,0.08236360549926758,-1.521477524434225,1.314113597510227e-38,-0.0205090269446373,0.8033573627471924,8.402869571000338e-05,0.042269445955753326,0.8278570771217346,0.07407330721616745,0.35436511039733887
949.0,911.0,-0.3147,-0.5737,9.746,-0.0173,0.0444,-0.0496,-1.9413510761656703,-0.0005938265239819884,2.887260675430298,-1.9688832759857178,0.11918891221284866,2.0004115104675293,5.3906187293823145,-0.09456279128789902,0.08051168918609619,-1.5214408079730433,8.407526183873415e-05,-0.020350269973278046,0.8033930063247681,7.957057823659852e-05,0.03994853422045708,0.8283134698867798,0.07948658615350723,0.303039014339447
949.0,911.0,-0.3147,-0.5737,9.746,-0.0173,0.0444,-0.0496,-1.9413911304869593,-0.001608657999895513,2.852682113647461,-1.9683880805969238,0.12600456178188324,2.0315370559692383,5.390268671303549,-0.09032987803220749,0.08439983427524567,-1.5214250723468226,9.022539597935975e-05,-0.019190890714526176,0.8033409714698792,7.685257878620178e-05,0.03927592188119888,0.8286416530609131,0.0826105922460556,0.3089246153831482
949.0,911.0,-0.3147,-0.5737,9.746,-0.0173,0.0444,-0.0496,-1.9414273701109828,-0.003605110803619027,2.8904733657836914,-1.9675726890563965,0.13492189347743988,2.079237461090088,5.389746355801382,-0.0873086005449295,0.08895087242126465,-1.5214574972735804,0.00011479860404506326,-0.020729701966047287,0.8033852577209473,7.310703222174197e-05,0.04242413118481636,0.8291580080986023,0.08411290496587753,0.33597636222839355
959.0,921.0,-0.6,-1.0869,10.4201,-0.0342,0.0661,-0.0218,-1.941434999505514,-0.00411969143897295,2.9167661666870117,-1.9667333364486694,0.14305134117603302,2.0575945377349854,5.389155494957723,-0.10712814331054688,0.08476164937019348,-1.5213964621173304,0.00012902617163490504,-0.007885687053203583,0.8034412860870361,8.36472463561222e-05,0.04297589510679245,0.8296346068382263,0.08147338777780533,0.2755717635154724
959.0,921.0,-0.6,-1.0869,10.4201,-0.0342,0.0661,-0.0218,-1.941446920434469,-0.005095082800835371,2.869662284851074,-1.9658225774765015,0.1480308622121811,2.0509355068206787,5.388353276043691,-0.1382920742034912,0.06563445180654526,-1.5214250723468226,0.00045968248741701245,-0.005111607722938061,0.8033409118652344,7.993642793735489e-05,0.04146520048379898,0.8301547765731812,0.07474242150783539,0.28498876094818115
959.0,921.0,-0.6,-1.0869,10.4201,-0.0342,0.0661,-0.0218,-1.941463132897848,-0.004466426093131304,2.87939453125,-1.9652235507965088,0.15524940192699432,2.065124034881592,5.387799608498373,-0.14674679934978485,0.056949783116579056,-1.5214374701129358,0.0004589166783262044,-0.0035159955732524395,0.8034012317657471,7.763783651171252e-05,0.038412101566791534,0.8304553031921387,0.0728098675608635,0.2171708643436432
959.0,921.0,-0.6,-1.0869,10.4201,-0.0342,0.0661,-0.0218,-1.9414783916869105,-0.0032106172293424606,2.983384370803833,-1.9642362594604492,0.16158223152160645,2.1087841987609863,5.386926340847769,-0.14307886362075806,0.0534391850233078,-1.5214417616473597,0.0004307944909669459,-0.0022936672903597355,0.8034257292747498,7.442761852871627e-05,0.04119204729795456,0.8308596014976501,0.06649970263242722,0.25386130809783936
959.0,921.0,-0.6,-1.0869,10.4201,-0.0342,0.0661,-0.0218,-1.9415189228453578,-0.002280395245179534,2.895529270172119,-1.963208794593811,0.1686173379421234,2.101639747619629,5.386116850167074,-0.13431330025196075,0.0612279549241066,-1.5214250723468226,0.0003652627347037196,0.0017810717690736055,0.8034257292747498,7.147232827264816e-05,0.05192742124199867,0.8312798738479614,0.06332080066204071,0.2076268494129181
959.0,921.0,-0.6,-1.0869,10.4201,-0.0342,0.0661,-0.0218,-1.9415508709349574,-0.0022405132185667753,2.9304158687591553,-1.9625463485717773,0.1770535707473755,2.1303670406341553,5.385598945408621,-0.13713394105434418,0.05720822513103485,-1.5214126745807093,0.0003316077927593142,0.0041816383600234985,0.8034740090370178,6.962916086195037e-05,0.04688224568963051,0.8314675092697144,0.06254719197750092,0.21997861564159393
959.0,921.0,-0.6,-1.0869,10.4201,-0.0342,0.0661,-0.0218,-1.9415065250792445,-0.003390843980014324,2.922041893005371,-1.9613863229751587,0.1866290420293808,2.0933165550231934,5.384733247547903,-0.1461583375930786,0.06436251848936081,-1.5214293638812464,0.0002913434582296759,-0.007430632598698139,0.803381085395813,6.703598046442494e-05,0.06199217587709427,0.8318158388137817,0.059197939932346344,0.19324404001235962
959.0,921.0,-0.6,-1.0869,10.4201,-0.0342,0.0661,-0.0218,-1.9415747127928675,-0.004422388970851898,2.9289865493774414,-1.960333228111267,0.1935189664363861,2.1485471725463867,5.383864092617788,-0.14686957001686096,0.05786214396357536,-1.5214574972735804,0.0002393325266893953,-0.0026747919619083405,0.8034417033195496,6.462905002990738e-05,0.04234394431114197,0.8321119546890259,0.05314143747091293,0.2110929787158966
959.0,921.0,-0.6,-1.0869,10.4201,-0.0342,0.0661,-0.0218,-1.9415742359557093,-0.005049030762165785,2.934058666229248,-1.9591054916381836,0.20509205758571625,2.1715123653411865,5.38296269157485,-0.13002923130989075,0.06170761585235596,-1.5214455763446253,0.00020546141604427248,0.0005438197404146194,0.8034010529518127,7.274180825334042e-05,0.0524337999522686,0.832436203956604,0.04948410764336586,0.18969999253749847
959.0,921.0,-0.6,-1.0869,10.4201,-0.0342,0.0661,-0.0218,-1.941679140130514,-0.004949719179421663,2.946702003479004,-1.9582911729812622,0.21195469796657562,2.1522464752197266,5.3824641583259485,-0.1308603584766388,0.07341288030147552,-1.5214250723468226,0.00018826535961125046,0.009188344702124596,0.8033847808837891,7.114306936273351e-05,0.039168909192085266,0.8326283693313599,0.04849190637469292,0.20393459498882294
959.0,921.0,-0.6,-1.0869,10.4201,-0.0342,0.0661,-0.0218,-1.941662927667135,-0.005937037989497185,2.958434581756592,-1.9569429159164429,0.22304373979568481,2.211170196533203,5.381618606835165,-0.15757931768894196,0.07265691459178925,-1.5214975515948694,0.00016726754256524146,-0.0010364383924752474,0.8034457564353943,4.5425535972754005e-06,0.04596862196922302,0.8329610228538513,0.05013202130794525,0.21530988812446594
959.0,921.0,-0.6,-1.0869,10.4201,-0.0342,0.0661,-0.0218,-1.941658159295553,-0.006313113495707512,2.9231889247894287,-1.9555292129516602,0.22929023206233978,2.1897470951080322,5.380678343563833,-0.1680801808834076,0.041177645325660706,-1.521405045186178,0.00017954462964553386,0.0147154051810503,0.8033773899078369,1.264436666481572e-09,0.05387314409017563,0.8333012461662292,0.05318080261349678,0.24139641225337982
959.0,921.0,-0.6,-1.0869,10.4201,-0.0342,0.0661,-0.0218,-1.9416943989195765,-0.005591506604105234,2.9295501708984375,-1.954154372215271,0.2471562922000885,2.183765411376953,5.379753219872274,-0.15904462337493896,0.060484979301691055,-1.5214412848102015,0.0001641148264752701,0.01910845749080181,0.8034133911132812,3.5196059391603973e-13,0.05886462330818176,0.8335893750190735,0.05782288685441017,0.1737583577632904
959.0,921.0,-0.6,-1.0869,10.4201,-0.0342,0.0661,-0.0218,-1.94175448040151,-0.005038901697844267,2.9223783016204834,-1.9531959295272827,0.2529357373714447,2.2819690704345703,5.379083323269644,-0.15606819093227386,0.05963195115327835,-1.521405045186178,0.00018004603043664247,0.005040090996772051,0.803425669670105,1.500463173644711e-15,0.06620514392852783,0.8337773084640503,0.06056934595108032,0.2107202559709549
959.0,921.0,-0.6,-1.0869,10.4201,-0.0342,0.0661,-0.0218,-1.9417907200255335,-0.005486597307026386,2.9526114463806152,-1.9516572952270508,0.2647652328014374,2.2037129402160645,5.378114270954885,-0.16865745186805725,0.05076678469777107,-1.521405045186178,0.00018682349764276296,0.008725196123123169,0.8034616708755493,4.176594145048153e-19,0.06841284036636353,0.8342220187187195,0.06288063526153564,0.17810067534446716
959.0,921.0,-0.6,-1.0869,10.4201,-0.0342,0.0661,-0.0218,-1.9418188534178675,-0.0075186388567090034,2.981724739074707,-1.950042963027954,0.27152204513549805,2.197171926498413,5.377065408020773,-0.17351555824279785,0.05710826441645622,-1.5214136282550257,0.00021486493642441928,0.009465258568525314,0.8034536242485046,1.1625700644441515e-22,0.04876694828271866,0.8345178961753845,0.06441210210323334,0.11285345256328583
959.0,921.0,-0.6,-1.0869,10.4201,-0.0342,0.0661,-0.0218,-1.9418546162047328,-0.00802534632384777,2.9741885662078857,-1.9488754272460938,0.281720370054245,2.1967992782592773,5.3763916967208765,-0.16280846297740936,0.05992719531059265,-1.521405045186178,0.0002676779986359179,0.02441149763762951,0.8033729195594788,4.9562188105057065e-25,0.053518250584602356,0.8347779512405396,0.06473129987716675,0.12273440510034561
920.0,916.0,-0.3936,-0.2662,10.4644,-0.0182,0.1034,-0.0396,-1.9418703518309535,-0.008524319157004356,2.9711861610412598,-1.9471980333328247,0.30075785517692566,2.2545223236083984,5.3754673478897,-0.1608608216047287,0.06917301565408707,-1.5213888327227991,0.0011043936247006059,0.01728837750852108,0.8034093379974365,1.3795815359103572e-28,0.048438556492328644,0.8352105617523193,0.06279436498880386,0.07115486264228821
920.0,916.0,-0.3936,-0.2662,10.4644,-0.0182,0.1034,-0.0396,-1.941958566705221,-0.007442051079124212,2.962765693664551,-1.945380687713623,0.30774107575416565,2.226759195327759,5.374362218170919,-0.1813390702009201,0.05107363313436508,-1.5214255491839808,0.0023809410631656647,0.01925908774137497,0.8034495711326599,3.1343715818366036e-05,0.03345079347491264,0.8355705738067627,0.06014735996723175,0.038236625492572784
920.0,916.0,-0.3936,-0.2662,10.4644,-0.0182,0.1034,-0.0396,-1.941986700097555,-0.007410493679344654,2.973923683166504,-1.9435021877288818,0.31852424144744873,2.2142324447631836,5.373279082566061,-0.17726708948612213,0.05809863284230232,-1.5213854948626917,0.0059322696179151535,0.02735080197453499,0.8034335374832153,5.431515819509514e-05,0.05858030170202255,0.8358908891677856,0.05421692878007889,0.09260157495737076
920.0,916.0,-0.3936,-0.2662,10.4644,-0.0182,0.1034,-0.0396,-1.9420544109740199,-0.007512494456022978,2.9474549293518066,-1.942143440246582,0.33128130435943604,2.2752180099487305,5.372593509941854,-0.16397887468338013,0.06870811432600021,-1.5213292280780237,0.013208018615841866,0.028277236968278885,0.8033851981163025,5.304144724505022e-05,0.06654976308345795,0.8360950946807861,0.05184602364897728,0.04335743188858032
920.0,916.0,-0.3936,-0.2662,10.4644,-0.0182,0.1034,-0.0396,-1.9420987568297328,-0.008226663805544376,2.9977943897247314,-1.9401617050170898,0.3416123390197754,2.322516441345215,5.371618377953329,-0.1664256602525711,0.06925559043884277,-1.5212691465960901,0.02169238217175007,0.03321889415383339,0.8034093976020813,5.122997026774101e-05,0.047105684876441956,0.8364070653915405,0.049333155155181885,0.051318515092134476
920.0,916.0,-0.3936,-0.2662,10.4644,-0.0182,0.1034,-0.0396,-1.9422069988646449,-0.01065583061426878,3.0043673515319824,-1.9379923343658447,0.34721651673316956,2.2701942920684814,5.370578872948446,-0.17797496914863586,0.07255162298679352,-1.52114183107485,0.0164540596306324,0.03051280975341797,0.8034335374832153,2.5109731723205186e-05,0.05926476791501045,0.8366994857788086,0.044077206403017044,0.025064053013920784
920.0,916.0,-0.3936,-0.2662,10.4644,-0.0182,0.1034,-0.0396,-1.9422265491881312,-0.011741886846721172,2.960811138153076,-1.935765266418457,0.3641207218170166,2.3575406074523926,5.369439232140341,-0.1708860546350479,0.05416581779718399,-1.521085564290182,0.006094532553106546,0.03832675516605377,0.8034175634384155,6.989385070710341e-09,0.046498045325279236,0.8369275331497192,0.03796885907649994,0.05203709751367569
920.0,916.0,-0.3936,-0.2662,10.4644,-0.0182,0.1034,-0.0396,-1.9422465763487757,-0.011604119092226028,2.9905338287353516,-1.934355616569519,0.3711239695549011,2.3328137397766113,5.368746149330892,-0.163462832570076,0.06765131652355194,-1.5210774580584925,0.002303970279172063,0.03828071057796478,0.803485631942749,2.9796845546492534e-11,0.05223904550075531,0.8370596170425415,0.03427752107381821,0.02234906144440174
920.0,916.0,-0.3936,-0.2662,10.4644,-0.0182,0.1034,-0.0396,-1.942350526849264,-0.012395894154906273,2.998612403869629,-1.932078242301941,0.37884998321533203,2.3627421855926514,5.367799091130056,-0.1836017221212387,0.06255847215652466,-1.5210455099688929,1.2559456763483468e-06,0.039172567427158356,0.8034610152244568,8.294061916219383e-15,0.06490008533000946,0.8372797966003418,0.0293818898499012,0.05424436181783676
920.0,916.0,-0.3936,-0.2662,10.4644,-0.0182,0.1034,-0.0396,-1.94240202526235,-0.011701579205691814,2.9718284606933594,-1.9296724796295166,0.3913634717464447,2.297929048538208,5.366631495743551,-0.18623775243759155,0.07043285667896271,-1.5211017767535608,3.495971290234934e-10,0.03676856309175491,0.8033808469772339,2.3086825963314266e-18,0.05825928598642349,0.8374077081680298,0.02552345022559166,0.04505656659603119
920.0,916.0,-0.3936,-0.2662,10.4644,-0.0182,0.1034,-0.0396,-1.9424783192076625,-0.012249457649886608,2.960150718688965,-1.9281225204467773,0.3992198407649994,2.35331130027771,5.3659143326576135,-0.17418572306632996,0.07616251707077026,-1.5211260954486292,1.490387349124822e-12,0.036506835371255875,0.8034212589263916,9.842276373121823e-21,0.04295634850859642,0.8375320434570312,0.022701725363731384,0.02608458511531353
920.0,916.0,-0.3936,-0.2662,10.4644,-0.0182,0.1034,-0.0396,-1.9425140819945277,-0.013046718202531338,2.997799873352051,-1.9257569313049316,0.41149094700813293,2.3346619606018066,5.365003096848287,-0.1585918813943863,0.07900949567556381,-1.521069351826803,4.148547941178665e-16,0.018386483192443848,0.8034175634384155,2.739633065589789e-24,0.06254404783248901,0.8376278877258301,0.019547203555703163,-0.01796695403754711
920.0,916.0,-0.3936,-0.2662,10.4644,-0.0182,0.1034,-0.0396,-1.9426423511900843,-0.016277780756354332,2.967320680618286,-1.9233002662658691,0.41851377487182617,2.3524928092956543,5.3639389155204675,-0.1598547250032425,0.07994529604911804,-1.5210936705218714,1.1547635221696333e-19,0.025930434465408325,0.8033769726753235,7.6258693558544365e-28,0.04918821156024933,0.8377240896224976,0.016839852556586266,-0.013534171506762505
920.0,916.0,-0.3936,-0.2662,10.4644,-0.0182,0.1034,-0.0396,-1.9427381954588832,-0.019881566986441612,2.9278955459594727,-1.9207350015640259,0.43070676922798157,2.401951313018799,5.363027739315786,-0.1507899910211563,0.07547985017299652,-1.5210979620562952,3.214326407660278e-23,0.027382252737879753,0.8034335374832153,2.1226884206075333e-31,0.06435614079236984,0.8377920389175415,0.013687949627637863,-0.003460545092821121
920.0,916.0,-0.3936,-0.2662,10.4644,-0.0182,0.1034,-0.0396,-1.9428183041014613,-0.022342601791024208,2.991558790206909,-1.919004201889038,0.43183305859565735,2.371133804321289,5.362405645638265,-0.13718515634536743,0.09077250957489014,-1.5210655371295374,1.370317829248259e-25,0.029754891991615295,0.8034011125564575,9.049354997038256e-34,0.054614387452602386,0.8378762006759644,0.012599344365298748,-0.012893355451524258
920.0,916.0,-0.3936,-0.2662,10.4644,-0.0182,0.1034,-0.0396,-1.942981859246725,-0.027540018782019615,2.954256534576416,-1.91637122631073,0.44409283995628357,2.4144649505615234,5.3616773960884,-0.12757711112499237,0.0834483876824379,-1.5210860411273401,3.8143295326894407e-29,0.02021540142595768,0.8034535646438599,2.518920982232524e-37,0.0469740591943264,0.8379039168357849,0.009911616332828999,0.016815058887004852
920.0,916.0,-0.3936,-0.2662,10.4644,-0.0182,0.1034,-0.0396,-1.943181654016012,-0.03314126655459404,2.8914222717285156,-1.9136615991592407,0.4551143944263458,2.370558977127075,5.360828745156088,-0.1441858559846878,0.08500008285045624,-1.5210416952716272,1.0617326524119959e-32,0.03784988075494766,0.803429365158081,7.011536996095655e-41,0.043256185948848724,0.8380323648452759,0.00820205733180046,0.017997300252318382
943.0,940.0,-1.1097,-0.1466,10.2861,-0.0159,0.359,-0.109,-1.9432984791197718,-0.03393561765551567,2.9605607986450195,-1.9118846654891968,0.46148228645324707,2.390688896179199,5.360227632313528,-0.15046940743923187,0.0872129425406456,-1.5210860411273401,4.5263331203233015e-35,0.031844981014728546,0.8034372329711914,2.9847657290118604e-43,0.05264641344547272,0.8380042314529419,0.007780974265187979,-0.008138260804116726
943.0,940.0,-1.1097,-0.1466,10.2861,-0.0159,0.359,-0.109,-1.9435259304442347,-0.03873228281736374,2.932521343231201,-1.9090827703475952,0.4676745533943176,2.41855525970459,5.359339403897085,-0.14495405554771423,0.08367036283016205,-1.5210817495929163,1.2599213221292398e-38,0.019699063152074814,0.8033888936042786,0.0,0.05544137582182884,0.8380804061889648,0.005164876580238342,-0.0023369360715150833
943.0,940.0,-1.1097,-0.1466,10.2861,-0.0159,0.359,-0.109,-1.9438258610167445,-0.043794985860586166,2.9734835624694824,-1.90623939037323,0.46778935194015503,2.404722213745117,5.3584914086158655,-0.12985648214817047,0.0968235433101654,-1.5210498015033167,3.507450056205017e-42,0.028295466676354408,0.8034010529518127,0.0,0.05921504274010658,0.8380522727966309,0.0028618068899959326,0.05199505761265755
943.0,940.0,-1.1097,-0.1466,10.2861,-0.0159,0.359,-0.109,-1.944057127038473,-0.05017809942364693,2.9515042304992676,-1.9032763242721558,0.476565420627594,2.403160572052002,5.35779498794631,-0.12732478976249695,0.09164512157440186,-1.5210860411273401,1.401298464324817e-45,0.02478489652276039,0.8034495711326599,0.0,0.06657412648200989,0.8381004333496094,0.0019280712585896254,0.005515390075743198
943.0,940.0,-1.1097,-0.1466,10.2861,-0.0159,0.359,-0.109,-1.9442817173399867,-0.05520743504166603,2.938248634338379,-1.9013774394989014,0.48182711005210876,2.4508728981018066,5.357208716660299,-0.13257953524589539,0.10123491287231445,-1.521118466054098,0.0,0.03988023102283478,0.8033889532089233,0.0,0.0604083314538002,0.8380560278892517,0.002027863636612892,0.005077579524368048
943.0,940.0,-1.1097,-0.1466,10.2861,-0.0159,0.359,-0.109,-1.9446331463255824,-0.06011728569865227,2.8954296112060547,-1.8984657526016235,0.4862038493156433,2.418799877166748,5.356408226280966,-0.13151651620864868,0.09761235117912292,-1.5210860411273401,0.0,0.03351987525820732,0.8034376502037048,0.0,0.07453595101833344,0.8380882740020752,0.0019046381348744035,0.004362206906080246
943.0,940.0,-1.1097,-0.1466,10.2861,-0.0159,0.359,-0.109,-1.9449569187560023,-0.06227537989616394,2.9473555088043213,-1.8955143690109253,0.4901534616947174,2.451598882675171,5.355655479222097,-0.11543866991996765,0.0921911746263504,-1.5210979620562952,0.0,0.029458146542310715,0.8034732937812805,0.0,0.0465543270111084,0.8380880951881409,0.0012207910185679793,-0.006669731345027685
943.0,940.0,-1.1097,-0.1466,10.2861,-0.0159,0.359,-0.109,-1.9453407726683558,-0.06623581796884537,2.9664268493652344,-1.8926119804382324,0.4983559846878052,2.3938379287719727,5.355122196465292,-0.09232955425977707,0.12776613235473633,-1.5211017767535608,0.0,0.033792849630117416,0.8034535646438599,0.0,0.06782091408967972,0.8380560278892517,0.0009684378746896982,-0.009127875789999962
943.0,940.0,-1.1097,-0.1466,10.2861,-0.0159,0.359,-0.109,-1.9456006489195765,-0.06751921027898788,2.962184190750122,-1.890595555305481,0.5032893419265747,2.4739530086517334,5.354776191502371,-0.08869189769029617,0.11776547133922577,-1.5210698286639612,0.0,0.014981172978878021,0.8034493923187256,0.0,0.06330636888742447,0.838116466999054,0.000680516823194921,-0.03853783756494522
943.0,940.0,-1.1097,-0.1466,10.2861,-0.0159,0.359,-0.109,-1.946047922173971,-0.07588327676057816,2.952540397644043,-1.887571930885315,0.5056969523429871,2.4111111164093018,5.354178178101339,-0.10006919503211975,0.116085946559906,-1.52106219926943,0.0,0.023464448750019073,0.8034335374832153,0.0,0.0718575268983841,0.8381003141403198,0.0005611269734799862,-0.057710111141204834
943.0,940.0,-1.1097,-0.1466,10.2861,-0.0159,0.359,-0.109,-1.9464994869627894,-0.08249353617429733,2.9286162853240967,-1.8845810890197754,0.5132697224617004,2.440810203552246,5.3535406468208215,-0.10550636053085327,0.10975877940654755,-1.5210378805743616,0.0,0.04525252804160118,0.8033929467201233,0.0,0.062444888055324554,0.8380720019340515,0.00047426819219253957,-0.04634860157966614
943.0,940.0,-1.1097,-0.1466,10.2861,-0.0159,0.359,-0.109,-1.9468275509276332,-0.08467652648687363,2.9105215072631836,-1.882581353187561,0.5153475999832153,2.446497917175293,5.3531545279319666,-0.0992288887500763,0.10958053916692734,-1.52106219926943,0.0,0.029876872897148132,0.803469181060791,0.0,0.05771742761135101,0.8380641937255859,0.00043076006113551557,-0.03236221522092819
943.0,940.0,-1.1097,-0.1466,10.2861,-0.0159,0.359,-0.109,-1.9473873577513636,-0.08558279275894165,2.9660067558288574,-1.8794382810592651,0.5235142707824707,2.479707956314087,5.352568793087759,-0.08490461111068726,0.11847065389156342,-1.5210860411273401,0.0,0.03931184858083725,0.8034535646438599,0.0,0.04771823063492775,0.8380641937255859,0.00040849423385225236,-0.037418197840452194
943.0,940.0,-1.1097,-0.1466,10.2861,-0.0159,0.359,-0.109,-1.9479114017882289,-0.08484294265508652,2.9493913650512695,-1.8763623237609863,0.5191737413406372,2.43154239654541,5.352127182274618,-0.06502480059862137,0.13303156197071075,-1.5210498015033167,0.0,0.03102611005306244,0.8033970594406128,5.469602547236718e-05,0.07533776760101318,0.8381325602531433,0.00030084585887379944,-0.05860116332769394
943.0,940.0,-1.1097,-0.1466,10.2861,-0.0159,0.359,-0.109,-1.9484225712218226,-0.09124521911144257,2.9255027770996094,-1.873136043548584,0.5182317495346069,2.454939842224121,5.351844894676962,-0.044510118663311005,0.14379610121250153,-1.5210736433612269,0.0,0.04381785914301872,0.8034413456916809,5.4905587603570893e-05,0.05400162935256958,0.8380720615386963,0.00025057914899662137,-0.018574826419353485
943.0,940.0,-1.1097,-0.1466,10.2861,-0.0159,0.359,-0.109,-1.9488307438292445,-0.09553931653499603,2.9418182373046875,-1.871039628982544,0.5163568258285522,2.4110591411590576,5.351681875973501,-0.03272631764411926,0.14570163190364838,-1.521050278340475,0.0,0.04232387989759445,0.8033729791641235,5.359827628126368e-05,0.06611592322587967,0.838132381439209,0.0002254662977065891,-0.12041871249675751
948.0,914.0,-0.0173,-0.6514,8.0919,-0.0405,0.3865,-0.0983,-1.9494062862791957,-0.10023359954357147,2.9845099449157715,-1.8678441047668457,0.5217952132225037,2.4361815452575684,5.351542401104727,-0.019911564886569977,0.11874282360076904,-1.5210736433612269,0.0,0.043540097773075104,0.8033811450004578,5.1749186241067946e-05,0.0724247619509697,0.8380922079086304,0.000196002860320732,-0.043968744575977325
948.0,914.0,-0.0173,-0.6514,8.0919,-0.0405,0.3865,-0.0983,-1.9499498806395472,-0.10511796921491623,2.9677329063415527,-1.8647735118865967,0.5218178033828735,2.456028938293457,5.351498591690817,-0.01151856780052185,0.1513301432132721,-1.5210383574115198,0.0,0.05227547511458397,0.8034052848815918,5.002340913051739e-05,0.056376077234745026,0.8380641937255859,0.00017335001030005515,-0.1693286895751953
948.0,914.0,-0.0173,-0.6514,8.0919,-0.0405,0.3865,-0.0983,-1.9503776035704554,-0.10768783837556839,2.957240104675293,-1.8626710176467896,0.5252077579498291,2.4546058177948,5.351454663067617,-0.007813758216798306,0.1648593544960022,-1.5210416952716272,0.000546316325198859,0.0481853112578392,0.8034212589263916,8.29969849291956e-07,0.05681225657463074,0.8381285071372986,0.0001609492173884064,-0.07278122007846832
948.0,914.0,-0.0173,-0.6514,8.0919,-0.0405,0.3865,-0.0983,-1.9509970150389613,-0.10898210853338242,2.9194326400756836,-1.8595103025436401,0.5280563235282898,2.4752864837646484,5.3514506099517725,-0.002293851925060153,0.16935822367668152,-1.5210383574115198,0.0005833895993418992,0.0621984601020813,0.8034495115280151,2.3102515733786078e-10,0.058318257331848145,0.8381123542785645,0.00014535246009472758,-0.0907830148935318
948.0,914.0,-0.0173,-0.6514,8.0919,-0.0405,0.3865,-0.0983,-1.9517089329161585,-0.10594897717237473,2.985771417617798,-1.8563555479049683,0.5310860276222229,2.4191842079162598,5.351470994740286,-0.0008381063817068934,0.15568307042121887,-1.5210259596454065,0.0005239006131887436,0.07240908592939377,0.8033647537231445,6.430670747422859e-14,0.05910850688815117,0.8380962610244751,0.000132511617266573,-0.14785990118980408
948.0,914.0,-0.0173,-0.6514,8.0919,-0.0405,0.3865,-0.0983,-1.952348371545309,-0.106928750872612,3.0271499156951904,-1.8531715869903564,0.53959721326828,2.4536192417144775,5.351483273297109,-0.0005878753145225346,0.15550154447555542,-1.521050278340475,0.0004585088463500142,0.06243442744016647,0.8034330606460571,1.7900004821551532e-17,0.07025882601737976,0.8381285071372986,0.00012175553274573758,-0.13294902443885803
948.0,914.0,-0.0173,-0.6514,8.0919,-0.0405,0.3865,-0.0983,-1.952775617639059,-0.11200204491615295,2.995474338531494,-1.851109266281128,0.538176417350769,2.3933510780334473,5.351410734444418,-0.0005194160039536655,0.15984803438186646,-1.520989720021383,0.0003808536275755614,0.06183207780122757,0.8034290671348572,7.631052636001095e-20,0.06966671347618103,0.8380880951881409,0.00011550518684089184,-0.13806292414665222
948.0,914.0,-0.0173,-0.6514,8.0919,-0.0405,0.3865,-0.0983,-1.9534956417479457,-0.12189042568206787,3.0285110473632812,-1.847874402999878,0.5402419567108154,2.472012519836426,5.351427066117086,-0.0005370925064198673,0.1513262689113617,-1.521005932484762,0.00036438004462979734,0.054653652012348175,0.8034130930900574,2.124131522925332e-23,0.07357295602560043,0.8381041884422302,0.00012859511480201036,-0.14204034209251404
948.0,914.0,-0.0173,-0.6514,8.0919,-0.0405,0.3865,-0.0983,-1.9542190037169398,-0.13122722506523132,3.008272647857666,-1.8446217775344849,0.5300537347793579,2.408273935317993,5.351406621723928,-0.00222317804582417,0.1710282862186432,-1.521022144948141,0.00035330114769749343,0.07227656245231628,0.8034250140190125,5.912598766292992e-27,0.07784676551818848,0.8381083011627197,0.00012010843784082681,-0.11972451210021973
948.0,914.0,-0.0173,-0.6514,8.0919,-0.0405,0.3865,-0.0983,-1.9550467930235804,-0.1373494267463684,2.9543919563293457,-1.8413639068603516,0.5315310955047607,2.452254295349121,5.351383256703176,-0.0019393046386539936,0.15317675471305847,-1.5210302511798304,0.0003450339427217841,0.05539137125015259,0.8035335540771484,1.6457936538631136e-30,0.07552330940961838,0.8381083011627197,0.00011259540769970044,-0.15484847128391266
948.0,914.0,-0.0173,-0.6514,8.0919,-0.0405,0.3865,-0.0983,-1.955578466454977,-0.13808859884738922,2.948317050933838,-1.8391588926315308,0.5327895283699036,2.452695369720459,5.351410734444418,-0.0011470946483314037,0.16666613519191742,-1.5209935347186487,0.00032895017648115754,0.06761500239372253,0.8034535646438599,7.016275987508684e-33,0.06599564850330353,0.838104248046875,9.008320193970576e-05,-0.19943593442440033
948.0,914.0,-0.0173,-0.6514,8.0919,-0.0405,0.3865,-0.0983,-1.9563175640501917,-0.1340685337781906,2.9271626472473145,-1.835904598236084,0.5378502011299133,2.4514689445495605,5.351338851242819,-0.0006993672577664256,0.16349279880523682,-1.5209696928607386,0.0003600777708925307,0.057806599885225296,0.8034372329711914,1.953006305944866e-36,0.0602661594748497,0.8381001949310303,8.497097587678581e-05,-0.16796451807022095
948.0,914.0,-0.0173,-0.6514,8.0919,-0.0405,0.3865,-0.0983,-1.957137247125143,-0.13022053241729736,3.0030946731567383,-1.8327397108078003,0.5379666686058044,2.4842724800109863,5.351443040161886,-0.0005870822933502495,0.16488200426101685,-1.5210016409503382,0.0005545002641156316,0.06726760417222977,0.8034650683403015,0.00010200405813520774,0.07784485071897507,0.8380840420722961,8.041570254135877e-05,-0.17150065302848816
948.0,914.0,-0.0173,-0.6514,8.0919,-0.0405,0.3865,-0.0983,-1.9576651058592738,-0.1277494728565216,2.9883370399475098,-1.830582618713379,0.5372949838638306,2.4510159492492676,5.351391303330221,-0.0004949323483742774,0.16037477552890778,-1.5210140387164515,0.0005156778497621417,0.08566946536302567,0.8034372329711914,0.00010232545901089907,0.0746995359659195,0.8381243944168091,6.273277540458366e-05,-0.19681258499622345
948.0,914.0,-0.0173,-0.6514,8.0919,-0.0405,0.3865,-0.0983,-1.9584642849364222,-0.13171517848968506,3.037755012512207,-1.827380895614624,0.5403034687042236,2.4667205810546875,5.351403581887045,-0.0003384855226613581,0.16373783349990845,-1.5210016409503382,0.00042971569928340614,0.06979523599147797,0.8034130930900574,0.00011369382991688326,0.06177961081266403,0.8381404876708984,1.9129682186758146e-05,-0.21539995074272156
948.0,914.0,-0.0173,-0.6514,8.0919,-0.0405,0.3865,-0.0983,-1.959315916100973,-0.14241722226142883,2.9929840564727783,-1.8241745233535767,0.5377590656280518,2.4616594314575195,5.351391303330221,-0.0018394503276795149,0.16265010833740234,-1.521005932484762,0.00040463259210810065,0.09092099964618683,0.8034413456916809,0.00011692981934174895,0.06326891481876373,0.8380922079086304,4.6195935965442914e-11,-0.22215747833251953
948.0,914.0,-0.0173,-0.6514,8.0919,-0.0405,0.3865,-0.0983,-1.9601270161070765,-0.15292544662952423,3.0040621757507324,-1.8209242820739746,0.5384511947631836,2.414165496826172,5.351391720562734,-0.003359613474458456,0.15091527998447418,-1.5209739843951624,0.000386696687201038,0.09050171077251434,0.80347740650177,0.00011893693590536714,0.07383140176534653,0.8381123542785645,1.1155774639918858e-16,-0.23588654398918152
922.0,921.0,-1.8748,-0.7974,9.0503,-0.051,0.4478,-0.0909,-1.9606782398619593,-0.1581391841173172,2.9890739917755127,-1.8187888860702515,0.5405136942863464,2.499607563018799,5.351391720562734,-0.002992749447003007,0.1525493860244751,-1.5209582487689417,0.0003960552276112139,0.08120637387037277,0.8034930229187012,0.00013043187209405005,0.0747155174612999,0.8381003141403198,2.008000162459368e-20,-0.2646716237068176
922.0,921.0,-1.8748,-0.7974,9.0503,-0.051,0.4478,-0.0909,-1.9616862736144007,-0.1553637683391571,3.042922019958496,-1.8155462741851807,0.5448134541511536,2.5360682010650635,5.351379382401266,-0.001577033312059939,0.16559246182441711,-1.5209539572345179,0.00042596718412823975,0.08986835926771164,0.8033648133277893,0.0002296767197549343,0.07240179181098938,0.838080108165741,4.849083919116432e-26,-0.25734931230545044
922.0,921.0,-1.8748,-0.7974,9.0503,-0.051,0.4478,-0.0909,-1.9626332722105921,-0.14961127936840057,3.0341858863830566,-1.812268614768982,0.5411204695701599,2.442549705505371,5.351319181710043,-0.0010560562368482351,0.15330906212329865,-1.5209501425372522,0.0005819922662340105,0.0890251025557518,0.8035492300987244,0.0002699670731090009,0.08468039333820343,0.8380722999572754,-0.0007229537586681545,-0.26072484254837036
922.0,921.0,-1.8748,-0.7974,9.0503,-0.051,0.4478,-0.0909,-1.9631992779173792,-0.15091505646705627,3.0145788192749023,-1.8100155591964722,0.5415025353431702,2.466554880142212,5.351387607842245,-0.0009049084037542343,0.14958900213241577,-1.5209458510028284,0.000569185649510473,0.078152135014534,0.8034810423851013,0.00026820061611942947,0.08900155127048492,0.8380963802337646,-0.0007086032419465482,-0.28815943002700806
922.0,921.0,-1.8748,-0.7974,9.0503,-0.051,0.4478,-0.0909,-1.9641853771605433,-0.16249190270900726,3.0387392044067383,-1.8067940473556519,0.5422993898391724,2.4940247535705566,5.3513835547264,-0.0006601965287700295,0.14609721302986145,-1.5209458510028284,0.0005192425451241434,0.10865841805934906,0.8034487962722778,0.00028815376572310925,0.0902894139289856,0.838180661201477,-0.00043396290857344866,-0.2823845446109772
922.0,921.0,-1.8748,-0.7974,9.0503,-0.051,0.4478,-0.0909,-1.965264459649557,-0.18207401037216187,2.9638209342956543,-1.8035728931427002,0.5401269197463989,2.504427671432495,5.351371276169576,-0.0004894993617199361,0.14915692806243896,-1.5209105650531214,0.0005196139100007713,0.07738326489925385,0.8034766912460327,0.00035973763442598283,0.09485076367855072,0.8380881547927856,-0.00039544288301840425,-0.2655075788497925
922.0,921.0,-1.8748,-0.7974,9.0503,-0.051,0.4478,-0.0909,-1.966363092462057,-0.1911083310842514,3.0033750534057617,-1.800321340560913,0.5424656867980957,2.4532506465911865,5.351387607842245,-0.00044992874609306455,0.14047002792358398,-1.5209463278399866,0.0005467201117426157,0.08672523498535156,0.8034890294075012,0.0003768077294807881,0.08398981392383575,0.8380842208862305,-0.0003782151616178453,-0.29201823472976685
922.0,921.0,-1.8748,-0.7974,9.0503,-0.051,0.4478,-0.0909,-1.9671861133971156,-0.19047735631465912,2.977776050567627,-1.7981503009796143,0.5455102920532227,2.4989826679229736,5.351383256703176,-0.0002349207497900352,0.15230214595794678,-1.5208938757525843,0.000712613167706877,0.10723249614238739,0.8034684658050537,0.00038482603849843144,0.08264946192502975,0.8380801677703857,-0.00038592287455685437,-0.2489279806613922
922.0,921.0,-1.8748,-0.7974,9.0503,-0.051,0.4478,-0.0909,-1.9683004818358363,-0.18188022077083588,2.9957313537597656,-1.79490327835083,0.5495540499687195,2.4908106327056885,5.351358997612753,-0.00016605909331701696,0.1540432572364807,-1.5209625403033655,0.0009937152499333024,0.11527889966964722,0.8034970760345459,0.0004503450763877481,0.10347779095172882,0.8381084203720093,-0.0003776107041630894,-0.3000476360321045
922.0,921.0,-1.8748,-0.7974,9.0503,-0.051,0.4478,-0.0909,-1.9695388279356898,-0.18485160171985626,3.0150227546691895,-1.791609764099121,0.5523496866226196,2.4865827560424805,5.351347076683798,-0.00019442371558398008,0.14476095139980316,-1.5208457151996058,0.0009969653328880668,0.10716621577739716,0.8035613894462585,0.0004754296678584069,0.09300640225410461,0.8380683064460754,-0.00036763804382644594,-0.26464611291885376
922.0,921.0,-1.8748,-0.7974,9.0503,-0.051,0.4478,-0.0909,-1.9707285366454066,-0.20663386583328247,2.991706371307373,-1.7883158922195435,0.5507574081420898,2.4657955169677734,5.3513995287712,-0.0002426526916678995,0.14463689923286438,-1.5209468046771448,0.0016916830791160464,0.12200368940830231,0.8035290837287903,0.00043951859697699547,0.08047161996364594,0.8380922079086304,-0.00031879974994808435,-0.3303108811378479
922.0,921.0,-1.8748,-0.7974,9.0503,-0.051,0.4478,-0.0909,-1.9716516933836878,-0.22199220955371857,2.991184711456299,-1.786139726638794,0.5517504811286926,2.5145387649536133,5.3513192413146875,-0.0003484512271825224,0.15834981203079224,-1.5208333174334925,0.0038030596915632486,0.1087629646062851,0.8034331202507019,0.0004407735832501203,0.08907710015773773,0.8380520343780518,-0.00029286372591741383,-0.34846922755241394
922.0,921.0,-1.8748,-0.7974,9.0503,-0.051,0.4478,-0.0909,-1.9730211697020472,-0.23458869755268097,2.9858970642089844,-1.782918930053711,0.5449557900428772,2.515699625015259,5.351335215359487,-0.0020445752888917923,0.12102948129177094,-1.5208023230182093,0.01952430233359337,0.11888928711414337,0.8035331964492798,0.00048783901729620993,0.09003449976444244,0.8380162119865417,-0.00037482150946743786,-0.3666474223136902
922.0,921.0,-1.8748,-0.7974,9.0503,-0.051,0.4478,-0.0909,-1.974466939965719,-0.23486997187137604,2.99050235748291,-1.7795275449752808,0.5427647829055786,2.465139389038086,5.351355302124777,-0.0020911709871143103,0.14129117131233215,-1.520654026662008,0.025698747485876083,0.11559609323740005,0.8035208582878113,0.0005096072563901544,0.08124542236328125,0.8380681872367859,-0.0013801752356812358,-0.24999970197677612
922.0,921.0,-1.8748,-0.7974,9.0503,-0.051,0.4478,-0.0909,-1.975417276422018,-0.23678100109100342,3.0143704414367676,-1.7772773504257202,0.5420424938201904,2.4663915634155273,5.351339328079977,-0.001367978984490037,0.13762351870536804,-1.520578686391012,0.022509276866912842,0.11900414526462555,0.8035049438476562,0.0006393155781552196,0.08660830557346344,0.8380522727966309,-0.002050825161859393,-0.30672401189804077
922.0,921.0,-1.8748,-0.7974,9.0503,-0.051,0.4478,-0.0909,-1.9768396816649378,-0.2405226230621338,2.944113254547119,-1.774061679840088,0.5438675284385681,2.469203472137451,5.351359355240621,-0.0008870007004588842,0.14054378867149353,-1.5204666296588343,0.009705754928290844,0.10643306374549866,0.8034849166870117,0.000670707318931818,0.08840399980545044,0.8380159139633179,-0.0010677542304620147,-0.23731224238872528
922.0,921.0,-1.8748,-0.7974,9.0503,-0.051,0.4478,-0.0909,-1.9783455334105433,-0.24908562004566193,3.033231496810913,-1.7707977294921875,0.5410964488983154,2.551051616668701,5.351347493916311,-0.0008553417283110321,0.131570503115654,-1.5204666296588343,-0.001746472786180675,0.11089497059583664,0.80351722240448,0.0012691684532910585,0.09003356844186783,0.8380401134490967,-0.0006232586456462741,-0.34004634618759155
812.0,736.0,-1.733,-0.9117,8.9169,-0.0348,0.3048,-0.0936,-1.9798108539977015,-0.25212883949279785,3.024807929992676,-1.7675420045852661,0.53997403383255,2.4942877292633057,5.351291286736288,-0.003745158901438117,0.14343051612377167,-1.5205028692828577,-0.00165283284150064,0.1209954172372818,0.8035410046577454,0.0029797975439578295,0.08665668964385986,0.8380641341209412,-0.0005280952900648117,-0.36049383878707886
812.0,736.0,-1.733,-0.9117,8.9169,-0.0348,0.3048,-0.0936,-1.9808575115599574,-0.2559308707714081,3.0108466148376465,-1.7654801607131958,0.5416143536567688,2.511622428894043,5.351307618408956,-0.004136224277317524,0.11726434528827667,-1.5204828421222132,-0.0005789473652839661,0.14068284630775452,0.8035328388214111,0.007371775805950165,0.08305002748966217,0.8380601406097412,-0.0005152862868271768,-0.32095593214035034
812.0,736.0,-1.733,-0.9117,8.9169,-0.0348,0.3048,-0.0936,-1.982359071771139,-0.26416608691215515,3.023775100708008,-1.762215256690979,0.5387324094772339,2.5079145431518555,5.351247358113088,-0.006747782230377197,0.12690861523151398,-1.5205114523517054,0.0002844851405825466,0.13474100828170776,0.8036529421806335,0.02313389629125595,0.10402185469865799,0.8380641341209412,-0.0004798577865585685,-0.404032826423645
812.0,736.0,-1.733,-0.9117,8.9169,-0.0348,0.3048,-0.0936,-1.9839569530882777,-0.268171489238739,2.9883241653442383,-1.7590287923812866,0.5415087938308716,2.5264387130737305,5.35126410701827,-0.010588368400931358,0.12463082373142242,-1.5204866568194788,0.00019307910406496376,0.13189607858657837,0.8037645816802979,0.032489702105522156,0.09075675904750824,0.8380522727966309,-0.0012733854819089174,-0.3159022331237793
812.0,736.0,-1.733,-0.9117,8.9169,-0.0348,0.3048,-0.0936,-1.984995504418844,-0.27164965867996216,2.9986460208892822,-1.756898283958435,0.542579174041748,2.480363368988037,5.351187932282247,-0.013594292104244232,0.11963270604610443,-1.5204666296588343,0.00015893446106929332,0.14392003417015076,0.8039240837097168,0.04054422304034233,0.08076635003089905,0.8380242586135864,-0.001233399729244411,-0.3417288661003113
812.0,736.0,-1.733,-0.9117,8.9169,-0.0348,0.3048,-0.0936,-1.9866649113097132,-0.27562251687049866,3.0090670585632324,-1.7536877393722534,0.5484856367111206,2.521214723587036,5.351088154106893,-0.018354635685682297,0.11873431503772736,-1.5204346815692347,0.00012562755728140473,0.12653237581253052,0.804175078868866,0.054600853472948074,0.09467004984617233,0.8379961252212524,-0.0011100880801677704,-0.40753769874572754
812.0,736.0,-1.733,-0.9117,8.9169,-0.0348,0.3048,-0.0936,-1.9883104763426722,-0.27814483642578125,2.997386932373047,-1.7503223419189453,0.5389602184295654,2.564803123474121,5.350924777775564,-0.026079263538122177,0.11257383227348328,-1.5204628149615687,0.0001557840296300128,0.1473352313041687,0.8045254945755005,0.06232208013534546,0.10154150426387787,0.8379920721054077,-0.0010817812290042639,-0.3398634195327759
812.0,736.0,-1.733,-0.9117,8.9169,-0.0348,0.3048,-0.0936,-1.990000387231344,-0.2839224934577942,3.0116987228393555,-1.7470343112945557,0.5370121598243713,2.510746717453003,5.3507417915161035,-0.03639914095401764,0.10382080078125,-1.520475212727682,0.00013280326675157994,0.15629953145980835,0.8048684000968933,0.0502329096198082,0.09491865336894989,0.8379719853401184,-0.001011644839309156,-0.3965097963809967
812.0,736.0,-1.733,-0.9117,8.9169,-0.0348,0.3048,-0.0936,-1.9910737476744593,-0.29141107201576233,3.0037574768066406,-1.744821310043335,0.5387846827507019,2.542778968811035,5.350602316647329,-0.04372333362698555,0.09336300939321518,-1.520487133656637,0.00016048694669734687,0.12771330773830414,0.8050755858421326,0.03260479494929314,0.09188343584537506,0.8380081653594971,-0.0008584291790612042,-0.3921831548213959
812.0,736.0,-1.733,-0.9117,8.9169,-0.0348,0.3048,-0.0936,-1.9928442440428675,-0.2991400361061096,2.9767727851867676,-1.741573691368103,0.5422278642654419,2.4909534454345703,5.350299405842581,-0.04925590008497238,0.09184937179088593,-1.5204427878009241,0.00016837893053889275,0.1473805010318756,0.8051151633262634,0.004583521280437708,0.0720629096031189,0.8379961252212524,-0.0007012435817159712,-0.36844658851623535
812.0,736.0,-1.733,-0.9117,8.9169,-0.0348,0.3048,-0.0936,-1.994580408135885,-0.2953648269176483,3.0051541328430176,-1.7383301258087158,0.5424218773841858,2.572183609008789,5.350012767105856,-0.05346633866429329,0.11659680306911469,-1.5204194227801722,0.000158825539983809,0.13835680484771729,0.8051595091819763,-0.012619396671652794,0.06882282346487045,0.8380002379417419,-0.0019688133616000414,-0.44256913661956787
812.0,736.0,-1.733,-0.9117,8.9169,-0.0348,0.3048,-0.0936,-1.9964100323119105,-0.3012123107910156,2.966463088989258,-1.735058069229126,0.5479848980903625,2.521510124206543,5.349742102413931,-0.048993781208992004,0.10357088595628738,-1.5204833189593714,0.00014361886132974178,0.14768829941749573,0.8050832152366638,-0.009333929978311062,0.0564885213971138,0.8379563689231873,-0.0029334721621125937,-0.4283345639705658
812.0,736.0,-1.733,-0.9117,8.9169,-0.0348,0.3048,-0.0936,-1.9976078472533167,-0.3058752417564392,2.9891741275787354,-1.7328554391860962,0.552345871925354,2.528350353240967,5.34960292556838,-0.04374624416232109,0.09935368597507477,-1.5204547087298792,0.00013638804375659674,0.1305057555437088,0.8050472736358643,-0.006304529029875994,0.05066238343715668,0.8379442095756531,-0.0031465988140553236,-0.37966012954711914
812.0,736.0,-1.733,-0.9117,8.9169,-0.0348,0.3048,-0.0936,-1.9995013676085414,-0.30509069561958313,3.079495906829834,-1.729540467262268,0.5545345544815063,2.5292766094207764,5.349383818894186,-0.03267155960202217,0.1058853417634964,-1.5204513708697718,0.0001941904192790389,0.14281801879405975,0.8050795793533325,-0.0020127773750573397,0.05630166083574295,0.8379119634628296,-0.0038882759399712086,-0.45197659730911255
812.0,736.0,-1.733,-0.9117,8.9169,-0.0348,0.3048,-0.0936,-2.0014230213561,-0.3126877546310425,3.02278208732605,-1.7262667417526245,0.5577457547187805,2.52537202835083,5.349200355797567,-0.01646517589688301,0.11058355122804642,-1.520459000264303,6.33830641163513e-05,0.15459010004997253,0.8050632476806641,-0.0003271905879955739,0.06675687432289124,0.8379161953926086,-0.00464039808139205,-0.4355011582374573
812.0,736.0,-1.733,-0.9117,8.9169,-0.0348,0.3048,-0.0936,-2.0027252636351527,-0.3249273896217346,3.010132312774658,-1.7240474224090576,0.5637373924255371,2.537222385406494,5.349184679775991,-0.008114244788885117,0.10698167979717255,-1.5204389731036585,2.702119274999859e-07,0.13544563949108124,0.805051326751709,-0.00036156774149276316,0.05316876992583275,0.8378921747207642,-0.0047335755079984665,-0.41812828183174133
472.0,472.0,-1.6253,-0.7143,9.201,-0.0498,0.2303,-0.1153,-2.004693170587057,-0.3340999186038971,3.0272607803344727,-1.7206748723983765,0.5592626333236694,2.500105142593384,5.349100696831503,0.001152623794041574,0.12786614894866943,-1.5204432646380823,7.521448047720369e-11,0.1447008103132248,0.805027425289154,1.210456389344472e-06,0.05563921481370926,0.8378560543060303,-0.006779987830668688,-0.3952740430831909
472.0,472.0,-1.6253,-0.7143,9.201,-0.0498,0.2303,-0.1153,-2.006766458550924,-0.33856937289237976,3.0476016998291016,-1.7172958850860596,0.5551395416259766,2.490602493286133,5.3491888521011255,0.001967275282368064,0.12749657034873962,-1.5204270521747034,2.0936223471567685e-14,0.14319992065429688,0.8050356507301331,3.3693497991649224e-10,0.06005004048347473,0.837816059589386,-0.009806113317608833,-0.423362135887146
472.0,472.0,-1.6253,-0.7143,9.201,-0.0498,0.2303,-0.1153,-2.008787294427389,-0.34573617577552795,3.045104742050171,-1.7138900756835938,0.5571319460868835,2.5127809047698975,5.349116730480947,0.0008596686529926956,0.11255042999982834,-1.520475212727682,5.827674358254517e-18,0.13217288255691528,0.8050754070281982,9.378708611595607e-14,0.04948043450713158,0.8377520442008972,-0.011558647267520428,-0.39720290899276733
472.0,472.0,-1.6253,-0.7143,9.201,-0.0498,0.2303,-0.1153,-2.0102020702757777,-0.34535014629364014,3.1176018714904785,-1.7117117643356323,0.560357928276062,2.5414700508117676,5.349169003754415,0.00086400710279122,0.12210388481616974,-1.5204713980304163,2.4844287303086358e-20,0.1318700760602951,0.8050236105918884,3.9982906490828565e-16,0.052373405545949936,0.8377362489700317,-0.012321892194449902,-0.4100797772407532
472.0,472.0,-1.6253,-0.7143,9.201,-0.0498,0.2303,-0.1153,-2.0122505627074183,-0.34236133098602295,3.0687103271484375,-1.7083747386932373,0.5597653985023499,2.556603193283081,5.34917317607955,0.00061547796940431,0.11044275760650635,-1.5204671064959925,6.91549784966116e-24,0.13331620395183563,0.8050356507301331,1.1129388147065087e-19,0.04645869880914688,0.8376278877258301,-0.012271205894649029,-0.4070320129394531
472.0,472.0,-1.6253,-0.7143,9.201,-0.0498,0.2303,-0.1153,-2.014242788354391,-0.34291961789131165,3.0822386741638184,-1.70509934425354,0.5592209696769714,2.5311279296875,5.34919290521697,0.0004429431864991784,0.11413515359163284,-1.520447079335348,1.9249544608704037e-27,0.1328805387020111,0.8050236701965332,3.097905684179037e-23,0.06082063913345337,0.8376120924949646,-0.012510605156421661,-0.4000208377838135
472.0,472.0,-1.6253,-0.7143,9.201,-0.0498,0.2303,-0.1153,-2.0162235699095667,-0.33798035979270935,3.106982707977295,-1.7017267942428589,0.5635632872581482,2.486262083053589,5.349204826145925,0.0003205550310667604,0.12843190133571625,-1.5204394499408167,5.358181608110261e-31,0.13511377573013306,0.8050114512443542,8.6231348514681e-27,0.06390149891376495,0.837467610836029,-0.01270759105682373,-0.4645286798477173
472.0,472.0,-1.6253,-0.7143,9.201,-0.0498,0.2303,-0.1153,-2.0175982914366664,-0.33741676807403564,3.115764856338501,-1.699475646018982,0.5639327168464661,2.520650625228882,5.349148738175192,0.0002805521944537759,0.13045953214168549,-1.5204671064959925,2.2842766421705255e-33,0.11544169485569,0.8050836324691772,3.6761777629536833e-29,0.05374965816736221,0.8373916149139404,-0.012325383722782135,-0.4648796617984772
472.0,472.0,-1.6253,-0.7143,9.201,-0.0498,0.2303,-0.1153,-2.0195986233153285,-0.3370279371738434,3.095712423324585,-1.6961314678192139,0.5636735558509827,2.5316946506500244,5.349200355797567,0.00023633222735952586,0.12579843401908875,-1.5204070250140589,6.358368240059657e-37,0.11996442079544067,0.805060088634491,1.0232776771559894e-32,0.042173679918050766,0.837327778339386,-0.01183364912867546,-0.44296324253082275
472.0,472.0,-1.6253,-0.7143,9.201,-0.0498,0.2303,-0.1153,-2.021555086175436,-0.3368743360042572,3.1832408905029297,-1.6927320957183838,0.5704293847084045,2.5259833335876465,5.3491888521011255,0.00023952587798703462,0.12883353233337402,-1.520447079335348,1.7698679864115305e-40,0.12974072992801666,0.805103600025177,2.8483308263701103e-36,0.03738950192928314,0.8373116254806519,-0.010292360559105873,-0.39303913712501526
472.0,472.0,-1.6253,-0.7143,9.201,-0.0498,0.2303,-0.1153,-2.02294983486318,-0.340536892414093,3.105849266052246,-1.6905156373977661,0.5672205686569214,2.474726438522339,5.34919290521697,0.0001884485682239756,0.13763195276260376,-1.520487133656637,7.538985738067516e-43,0.13742198050022125,0.8050073385238647,1.2142881777683486e-38,0.04180558770895004,0.837259829044342,-0.009231043048202991,-0.47196319699287415
472.0,472.0,-1.6253,-0.7143,9.201,-0.0498,0.2303,-0.1153,-2.0249630413451136,-0.3393801748752594,3.180100917816162,-1.6870312690734863,0.5632852911949158,2.5598745346069336,5.349184679775991,0.00013357872376218438,0.13909398019313812,-1.5204551855670374,0.0,0.10630714893341064,0.8050073385238647,3.379931895951459e-42,0.04363550245761871,0.8371955752372742,-0.008592769503593445,-0.43770623207092285
472.0,472.0,-1.6253,-0.7143,9.201,-0.0498,0.2303,-0.1153,-2.0269767246642054,-0.3408101797103882,3.1648168563842773,-1.683554768562317,0.5616111755371094,2.5337371826171875,5.349165010243215,9.237528865924105e-05,0.13704609870910645,-1.5204432646380823,0.0,0.11570696532726288,0.8049833178520203,1.401298464324817e-45,0.04293321073055267,0.8371634483337402,-0.00789465568959713,-0.47371357679367065
472.0,472.0,-1.6253,-0.7143,9.201,-0.0498,0.2303,-0.1153,-2.0290633640685023,-0.349174827337265,3.157123565673828,-1.6801141500473022,0.5724221467971802,2.5314083099365234,5.349188554077902,0.0007493110024370253,0.14230820536613464,-1.5204671064959925,0.0,0.10478027164936066,0.8050478100776672,0.0,0.04102741926908493,0.8370713591575623,-0.006629719398915768,-0.4114314019680023
472.0,472.0,-1.6253,-0.7143,9.201,-0.0498,0.2303,-0.1153,-2.030456682244772,-0.3396950960159302,3.1910603046417236,-1.67780601978302,0.5739818811416626,2.5862207412719727,5.349220800190725,0.0008982750587165356,0.13245408236980438,-1.5204628149615687,0.0,0.11970920860767365,0.804987370967865,-0.0003181135398335755,0.04502210021018982,0.8370833992958069,-0.006309567019343376,-0.4485851526260376
472.0,472.0,-1.6253,-0.7143,9.201,-0.0498,0.2303,-0.1153,-2.032462259332174,-0.3354537785053253,3.2339844703674316,-1.6744067668914795,0.5786248445510864,2.5203816890716553,5.349196302681722,0.000912240706384182,0.13232184946537018,-1.5204671064959925,0.0,0.09766992926597595,0.8050277233123779,-0.00040265280404128134,0.035298898816108704,0.8370394706726074,-0.0063408901914954185,-0.4305098056793213
472.0,472.0,-1.6253,-0.7143,9.201,-0.0498,0.2303,-0.1153,-2.034640451470846,-0.3423135280609131,3.1858110427856445,-1.670897364616394,0.5857731103897095,2.532231092453003,5.349164294987478,0.0008310610428452492,0.14237695932388306,-1.5204790274249476,0.0,0.10942284762859344,0.8049631118774414,-0.0003886095364578068,0.027560414746403694,0.8370676636695862,-0.0051706526428461075,-0.39891356229782104
352.0,368.0,-2.0728,-0.4325,10.1246,-0.0426,0.2644,-0.1106,-2.0359708271422328,-0.3376319706439972,3.1794376373291016,-1.6686222553253174,0.5875483155250549,2.5125906467437744,5.349208640843191,0.0007009882247075438,0.14244382083415985,-1.5204513708697718,0.0,0.1146838515996933,0.8049713969230652,-0.0005165415350347757,0.030434640124440193,0.8369792699813843,-0.004489604849368334,-0.41040757298469543
352.0,368.0,-2.0728,-0.4325,10.1246,-0.0426,0.2644,-0.1106,-2.0380965671935023,-0.33894360065460205,3.1906962394714355,-1.6650667190551758,0.5877747535705566,2.5119175910949707,5.349224912911215,0.0003845707979053259,0.14643098413944244,-1.520447079335348,0.0,0.11291324347257614,0.8050400614738464,-0.0005034603527747095,0.03255418688058853,0.8369755148887634,-0.004042990505695343,-0.3974676728248596
352.0,368.0,-2.0728,-0.4325,10.1246,-0.0426,0.2644,-0.1106,-2.04022278408193,-0.3472731113433838,3.215226650238037,-1.6615827083587646,0.5922231674194336,2.6078696250915527,5.349212693959036,0.0002900570398196578,0.1539524793624878,-1.5204270521747034,0.0,0.10060557723045349,0.8050196766853333,-0.0004892343422397971,0.03422645479440689,0.8369873762130737,-0.0025935170706361532,-0.3592458665370941
352.0,368.0,-2.0728,-0.4325,10.1246,-0.0426,0.2644,-0.1106,-2.042344709435934,-0.3481513559818268,3.2569680213928223,-1.6579835414886475,0.5864368081092834,2.5141658782958984,5.349224912911215,0.00017924749408848584,0.1369103193283081,-1.520418945943014,0.0,0.08703942596912384,0.8049958944320679,-0.0004922774387523532,0.04226963222026825,0.836947500705719,-0.0022352165542542934,-0.4043830633163452
352.0,368.0,-2.0728,-0.4325,10.1246,-0.0426,0.2644,-0.1106,-2.043662210504049,-0.34983018040657043,3.1909470558166504,-1.655648112297058,0.5830697417259216,2.5366222858428955,5.349192607193746,0.00015506002819165587,0.14580968022346497,-1.520499054585592,0.0,0.10706615447998047,0.8049795031547546,-0.00044922009692527354,0.03190696984529495,0.8369555473327637,-0.0027638357132673264,-0.3840872645378113
352.0,368.0,-2.0728,-0.4325,10.1246,-0.0426,0.2644,-0.1106,-2.045744081536764,-0.35305753350257874,3.2915329933166504,-1.6520719528198242,0.5762870907783508,2.553699254989624,5.349196302681722,0.00017042478430084884,0.14539051055908203,-1.5204070250140589,0.0,0.08708111196756363,0.8050318956375122,-0.000463545904494822,0.03470686823129654,0.8369393944740295,-0.0034898596350103617,-0.38944292068481445
352.0,368.0,-2.0728,-0.4325,10.1246,-0.0426,0.2644,-0.1106,-2.0477777920165003,-0.3458423316478729,3.2847723960876465,-1.648504376411438,0.5826529860496521,2.55324387550354,5.3492445824439905,0.00016821581812109798,0.1519775688648224,-1.520430866871969,0.0,0.09226719290018082,0.8049513101577759,-0.0004544143157545477,0.029318010434508324,0.8369113802909851,-0.0029921848326921463,-0.3792615830898285
352.0,368.0,-2.0728,-0.4325,10.1246,-0.0426,0.2644,-0.1106,-2.0497709713377894,-0.33823174238204956,3.303905487060547,-1.6450093984603882,0.5845770835876465,2.59321665763855,5.349236476212301,0.000908982940018177,0.1371409147977829,-1.520430866871969,0.0,0.09156632423400879,0.8049672842025757,-0.00042051292257383466,0.014140885323286057,0.8368754386901855,-0.0022871915716677904,-0.403329074382782
352.0,368.0,-2.0728,-0.4325,10.1246,-0.0426,0.2644,-0.1106,-2.0510856113829554,-0.32947105169296265,3.2991995811462402,-1.6427217721939087,0.5860164165496826,2.5301756858825684,5.3492528078849695,0.000648060638923198,0.15689818561077118,-1.5204671064959925,0.0,0.10239910334348679,0.8049876689910889,-0.00042422758997417986,0.023740295320749283,0.8368954658508301,-0.001554506248794496,-0.36689767241477966
352.0,368.0,-2.0728,-0.4325,10.1246,-0.0426,0.2644,-0.1106,-2.0530435047545375,-0.3272756338119507,3.3883066177368164,-1.6392019987106323,0.5856873393058777,2.5278878211975098,5.349204528122701,0.0004522372910287231,0.16188733279705048,-1.5204227606402796,0.0,0.08996349573135376,0.804939329624176,-0.0004851013654842973,0.028657713904976845,0.8369274735450745,-0.0008369224378839135,-0.3911505937576294
