ramyac6/ROB537/final_project/csv/all/bad_20.csv
tof_0,tof_1,accelx,accely,accelz,gyrox,gyroy,gyroz,shoulder_lift_joint_position,shoulder_lift_joint_velocity,shoulder_lift_joint_effort,elbow_joint_position,elbow_joint_velocity,elbow_joint_effort,wrist_1_joint_position,wrist_1_joint_velocity,wrist_1_joint_effort,wrist_2_joint_position,wrist_2_joint_velocity,wrist_2_joint_effort,wrist_3_joint_position,wrist_3_joint_velocity,wrist_3_joint_effort,shoulder_pan_joint_position,shoulder_pan_joint_velocity,shoulder_pan_joint_effort
330.0,441.0,1.4931,0.4564,9.411,-0.0373,0.0267,-0.1167,-1.795936723748678,0.0,2.994840621948242,-1.7136893272399902,-0.0,2.0597376823425293,4.856858628779211,-0.0,0.2974874973297119,-1.6246731917010706,-0.0,-0.006161135155707598,0.8947489261627197,-0.0,-0.0021226529497653246,0.7923932075500488,0.0,-0.021269960328936577
330.0,441.0,1.4931,0.4564,9.411,-0.0373,0.0267,-0.1167,-1.7959324322142542,0.0,3.025791645050049,-1.7136409282684326,-0.0,2.0630974769592285,4.856834071665563,-0.0,0.2895296514034271,-1.6247456709491175,-0.0,0.002226468175649643,0.8947570323944092,-0.0,0.0021127015352249146,0.7923973798751831,0.0,-0.05735435336828232
330.0,441.0,1.4931,0.4564,9.411,-0.0373,0.0267,-0.1167,-1.7958675823607386,0.0,3.038893699645996,-1.7136688232421875,-0.0,2.072732448577881,4.856842252403059,-0.0,0.28910282254219055,-1.6246612707721155,-0.0,-0.0097805205732584,0.8946888446807861,-0.0,-0.004386060871183872,0.7924133539199829,0.0,0.015432028099894524
330.0,441.0,1.4931,0.4564,9.411,-0.0373,0.0267,-0.1167,-1.7959162197508753,0.0,3.0752816200256348,-1.7136287689208984,-0.0,2.05255389213562,4.856850448041715,-0.0,0.3000415861606598,-1.62468129793276,-0.0,-0.013263641856610775,0.894773006439209,-0.0,-0.009064408019185066,0.7924215793609619,0.0,-0.030869394540786743
330.0,441.0,1.4931,0.4564,9.411,-0.0373,0.0267,-0.1167,-1.7959281406798304,0.0,3.040266752243042,-1.713668942451477,-0.0,2.093919515609741,4.856874319701948,-0.0,0.3007552921772003,-1.6246932188617151,-0.0,-0.0007311766967177391,0.8947370052337646,-0.0,-0.0034365258179605007,0.7924497127532959,0.0,-0.04026642069220543
330.0,441.0,1.4931,0.4564,9.411,-0.0373,0.0267,-0.1167,-1.795903821984762,0.0,3.0627243518829346,-1.7136690616607666,-0.0,2.0321872234344482,4.856866779714384,-0.0,0.28830552101135254,-1.624725643788473,-0.0,-0.004410753026604652,0.894716739654541,-0.0,-0.024953745305538177,0.7923852801322937,0.0,0.002875141566619277
330.0,441.0,1.4931,0.4564,9.411,-0.0373,0.0267,-0.1167,-1.7959000072874964,0.0,3.0224289894104004,-1.7137097120285034,-0.0,2.090552806854248,4.856810006290235,-0.0,0.30234774947166443,-1.6246932188617151,-0.0,-0.0166785828769207,0.8947451114654541,-0.0,0.00856589525938034,0.7924497723579407,0.0,0.033654432743787766
330.0,441.0,1.4931,0.4564,9.411,-0.0373,0.0267,-0.1167,-1.7959000072874964,0.0,3.0895800590515137,-1.7137333154678345,-0.0,2.057176113128662,4.856862666993894,-0.0,0.2923866808414459,-1.6246612707721155,-0.0,0.0021197875030338764,0.894781231880188,-0.0,0.0018349294550716877,0.7924379110336304,0.0,0.0018102657049894333
330.0,441.0,1.4931,0.4564,9.411,-0.0373,0.0267,-0.1167,-1.7959562740721644,0.0,3.005742073059082,-1.7136974334716797,-0.0,2.055981397628784,4.856894391566076,-0.0,0.2966378629207611,-1.6247337500201624,-0.0,-0.013837592676281929,0.8947248458862305,-0.0,0.0003323173150420189,0.7924456596374512,0.0,0.012813026085495949
330.0,441.0,1.4931,0.4564,9.411,-0.0373,0.0267,-0.1167,-1.7958833179869593,0.0,3.032353401184082,-1.7136569023132324,-0.0,2.11533522605896,4.85682629325942,-0.0,0.29408904910087585,-1.624697510396139,-0.0,-0.001359747489914298,0.8947125673294067,-0.0,-0.011315613053739071,0.7924255728721619,0.0,0.021230380982160568
329.0,460.0,1.4913,0.4307,9.46,-0.0394,0.022,-0.1151,-1.7958718738951625,0.0,3.061598777770996,-1.7136650085449219,-0.0,2.0926034450531006,4.856858598976888,-0.0,0.2825145423412323,-1.624669377003805,-0.0,0.004779191222041845,0.894773006439209,-0.0,-0.0020427757408469915,0.7924296855926514,0.0,0.05449412390589714
329.0,460.0,1.4913,0.4307,9.46,-0.0394,0.022,-0.1151,-1.795908113519186,0.0,2.997913360595703,-1.7136728763580322,-0.0,2.042614221572876,4.856854426651754,-0.0,0.2977471947669983,-1.62468129793276,-0.0,-0.006258033215999603,0.8947774171829224,-0.0,0.004050447605550289,0.7924174070358276,0.0,0.004756791517138481
329.0,460.0,1.4913,0.4307,9.46,-0.0394,0.022,-0.1151,-1.7959124050536097,0.0,3.049535036087036,-1.7136812210083008,-0.0,2.0868606567382812,4.856850418239393,-0.0,0.29858696460723877,-1.624669377003805,-0.0,-0.009000921621918678,0.8946925401687622,-0.0,-0.001687008305452764,0.7923770546913147,0.0,-0.017474815249443054
329.0,460.0,1.4913,0.4307,9.46,-0.0394,0.022,-0.1151,-1.7959000072874964,0.0,3.0380611419677734,-1.7136569023132324,-0.0,2.0567970275878906,4.8568340865667246,-0.0,0.28409209847450256,-1.6246932188617151,-0.0,-0.005392278544604778,0.8947451114654541,-0.0,-0.0021355198696255684,0.7924378514289856,0.0,0.010097937658429146
329.0,460.0,1.4913,0.4307,9.46,-0.0394,0.022,-0.1151,-1.795903821984762,0.0,3.025160312652588,-1.7136650085449219,-0.0,2.089163303375244,4.856870117574491,-0.0,0.2971722483634949,-1.62468129793276,-0.0,-0.015790602192282677,0.8948012590408325,-0.0,0.008827713318169117,0.7924742102622986,0.0,0.008389748632907867
329.0,460.0,1.4913,0.4307,9.46,-0.0394,0.022,-0.1151,-1.7959162197508753,0.0,3.0560693740844727,-1.7136367559432983,-0.0,2.0317442417144775,4.856830018549719,-0.0,0.2993788421154022,-1.6246851126300257,-0.0,-0.004171691369265318,0.8947207927703857,-0.0,0.002739149145781994,0.792393147945404,0.0,-0.023511439561843872
329.0,460.0,1.4913,0.4307,9.46,-0.0394,0.022,-0.1151,-1.795863767663473,0.0,3.0166637897491455,-1.7136974334716797,-0.0,2.0913166999816895,4.856842237501898,-0.0,0.2984183430671692,-1.624709431325094,-0.0,-0.008272807113826275,0.8947088718414307,-0.0,0.008153272792696953,0.7924133539199829,0.0,-0.0010437394957989454
329.0,460.0,1.4913,0.4307,9.46,-0.0394,0.022,-0.1151,-1.795863767663473,0.0,3.0508151054382324,-1.7137048244476318,-0.0,2.0688815116882324,4.856854411750593,-0.0,0.30047547817230225,-1.6246851126300257,-0.0,-0.0036155059933662415,0.8947244882583618,-0.0,0.00949125736951828,0.7923891544342041,0.0,-0.006903225090354681
329.0,460.0,1.4913,0.4307,9.46,-0.0394,0.022,-0.1151,-1.795863767663473,0.0,3.077436685562134,-1.7137129306793213,-0.0,2.0873985290527344,4.856793898134985,-0.0,0.2915932536125183,-1.624697510396139,-0.0,-0.0160871259868145,0.8947533369064331,-0.0,-0.0071920836344361305,0.7923890948295593,0.0,-0.018235433846712112
329.0,460.0,1.4913,0.4307,9.46,-0.0394,0.022,-0.1151,-1.7958795032896937,0.0,3.007657527923584,-1.7136688232421875,-0.0,2.082489013671875,4.856858598976888,-0.0,0.30202189087867737,-1.6247013250934046,-0.0,-0.010897085070610046,0.8946645855903625,-0.0,0.003191589843481779,0.7923932075500488,0.0,0.01622147113084793
329.0,460.0,1.4913,0.4307,9.46,-0.0394,0.022,-0.1151,-1.7958880863585414,0.0,2.9982316493988037,-1.7136811017990112,-0.0,2.0761117935180664,4.856858584075727,-0.0,0.29218965768814087,-1.624669377003805,-0.0,-0.00391120370477438,0.8947610259056091,-0.0,-0.004424344282597303,0.7924296855926514,0.0,-0.010099036619067192
329.0,460.0,1.4913,0.4307,9.46,-0.0394,0.022,-0.1151,-1.7958837948241175,0.0,3.071444272994995,-1.7136409282684326,-0.0,2.0933146476745605,4.856838094979086,-0.0,0.28460872173309326,-1.624669377003805,-0.0,-0.0006788354949094355,0.8947451114654541,-0.0,0.013479004614055157,0.7924378514289856,0.0,-0.0031623910181224346
329.0,460.0,1.4913,0.4307,9.46,-0.0394,0.022,-0.1151,-1.795903821984762,0.0,3.023926019668579,-1.7136811017990112,-0.0,2.0485785007476807,4.85684226730422,-0.0,0.30215656757354736,-1.6246894041644495,-0.0,0.001617612550035119,0.8947407603263855,-0.0,-0.010211347602307796,0.7924091815948486,0.0,0.033888962119817734
329.0,460.0,1.4913,0.4307,9.46,-0.0394,0.022,-0.1151,-1.7958957157530726,0.0,2.9865736961364746,-1.7136569023132324,-0.0,2.064978837966919,4.856898474484243,-0.0,0.29079321026802063,-1.6246932188617151,-0.0,-0.0035579544492065907,0.8947284817695618,-0.0,0.006449142005294561,0.7924091815948486,0.0,0.03661671280860901
329.0,460.0,1.4913,0.4307,9.46,-0.0394,0.022,-0.1151,-1.7959205112852992,0.0,3.0409905910491943,-1.7136728763580322,-0.0,2.0688631534576416,4.8568742898996256,-0.0,0.28318893909454346,-1.6247051397906702,-0.0,-0.01265937089920044,0.8947085738182068,-0.0,0.0038723733741790056,0.7924014329910278,0.0,-0.020733099430799484
329.0,460.0,1.4913,0.4307,9.46,-0.0394,0.022,-0.1151,-1.795908113519186,0.0,3.0285706520080566,-1.7136446237564087,-0.0,2.058401346206665,4.856858584075727,-0.0,0.29475873708724976,-1.6246932188617151,-0.0,-0.002260873094201088,0.8947929739952087,-0.0,-0.0025337215047329664,0.7924214005470276,0.0,0.0168131235986948
329.0,460.0,1.4913,0.4307,9.46,-0.0394,0.022,-0.1151,-1.7959281406798304,0.0,3.023127555847168,-1.7137048244476318,-0.0,2.0716676712036133,4.856870147376814,-0.0,0.2860761284828186,-1.6246851126300257,-0.0,-0.0019878947641700506,0.8947367668151855,-0.0,-0.020091550424695015,0.7923893928527832,0.0,0.056201692670583725
329.0,460.0,1.4913,0.4307,9.46,-0.0394,0.022,-0.1151,-1.7959243259825648,0.0,2.9627809524536133,-1.7137129306793213,-0.0,2.081655740737915,4.856866124063291,-0.0,0.2972702980041504,-1.6246774832354944,-0.0,-0.008361930027604103,0.894757091999054,-0.0,-0.012210052460432053,0.7924092411994934,0.0,0.023303981870412827
329.0,460.0,1.4913,0.4307,9.46,-0.0394,0.022,-0.1151,-1.7959162197508753,0.0,3.016338586807251,-1.7136850357055664,-0.0,2.0878283977508545,4.856834116369047,-0.0,0.29326102137565613,-1.6246655623065394,-0.0,-0.018360279500484467,0.8947490453720093,-0.0,-0.005350534804165363,0.7924255132675171,0.0,0.017487069591879845
319.0,456.0,1.4734,0.4199,9.4014,-0.0373,0.0234,-0.1156,-1.7958675823607386,0.0,3.076716899871826,-1.7136688232421875,-0.0,2.107084035873413,4.856846350222387,-0.0,0.2951527237892151,-1.6246851126300257,-0.0,-0.0004522613016888499,0.8947048187255859,-0.0,0.007318967953324318,0.7923691868782043,0.0,-0.051848527044057846
319.0,456.0,1.4734,0.4199,9.4014,-0.0373,0.0234,-0.1156,-1.7958957157530726,0.0,3.0665183067321777,-1.713676929473877,-0.0,2.0334854125976562,4.856858584075727,-0.0,0.29409605264663696,-1.6246894041644495,-0.0,-0.007535891607403755,0.8947244882583618,-0.0,-0.006880038417875767,0.7924337387084961,0.0,0.0018496690317988396
319.0,456.0,1.4734,0.4199,9.4014,-0.0373,0.0234,-0.1156,-1.7958795032896937,0.0,3.044064521789551,-1.7136530876159668,-0.0,2.0660972595214844,4.856890263944425,-0.0,0.30187293887138367,-1.6246455351458948,-0.0,0.0019010717514902353,0.8948051929473877,-0.0,0.0017048234585672617,0.7923893332481384,0.0,-0.030531011521816254
319.0,456.0,1.4734,0.4199,9.4014,-0.0373,0.0234,-0.1156,-1.7958957157530726,0.0,3.000168561935425,-1.7136411666870117,-0.0,2.089444875717163,4.856858598976888,-0.0,0.2851405143737793,-1.624697510396139,-0.0,0.007803644053637981,0.8947570323944092,-0.0,-0.014535801485180855,0.7924419641494751,0.0,0.030048007145524025
319.0,456.0,1.4734,0.4199,9.4014,-0.0373,0.0234,-0.1156,-1.7959124050536097,0.0,3.009106397628784,-1.7136608362197876,-0.0,2.05236554145813,4.856834071665563,-0.0,0.3008496165275574,-1.6246455351458948,-0.0,0.0020010238513350487,0.8947769999504089,-0.0,0.0016139661893248558,0.7924055457115173,0.0,0.00676536001265049
319.0,456.0,1.4734,0.4199,9.4014,-0.0373,0.0234,-0.1156,-1.7959281406798304,0.0,3.051412343978882,-1.7136690616607666,-0.0,2.0712547302246094,4.856858598976888,-0.0,0.3004510998725891,-1.62468129793276,-0.0,-0.005364250857383013,0.8947327136993408,-0.0,-0.0038097340147942305,0.7924297451972961,0.0,-0.03887902945280075
319.0,456.0,1.4734,0.4199,9.4014,-0.0373,0.0234,-0.1156,-1.7958795032896937,0.0,3.0070061683654785,-1.7136728763580322,-0.0,2.0890510082244873,4.85684226730422,-0.0,0.2885788083076477,-1.6247013250934046,-0.0,-0.01007436215877533,0.8947610855102539,-0.0,-0.007916264235973358,0.7924010157585144,0.0,0.012876294553279877
319.0,456.0,1.4734,0.4199,9.4014,-0.0373,0.0234,-0.1156,-1.7959162197508753,0.0,3.0491812229156494,-1.7137413024902344,-0.0,2.0915942192077637,4.8568463800247095,-0.0,0.28372275829315186,-1.6246970335589808,-0.0,-0.0032127362210303545,0.8947328925132751,-0.0,-0.009654671885073185,0.7924415469169617,0.0,0.020139051601290703
319.0,456.0,1.4734,0.4199,9.4014,-0.0373,0.0234,-0.1156,-1.7958957157530726,0.0,3.058354377746582,-1.7136650085449219,-0.0,2.094602108001709,4.856886181026258,-0.0,0.3012089431285858,-1.62465745607485,-0.0,-0.005031751003116369,0.8947088718414307,-0.0,-0.004694677889347076,0.7924379110336304,0.0,-0.01743423193693161
319.0,456.0,1.4734,0.4199,9.4014,-0.0373,0.0234,-0.1156,-1.7958957157530726,0.0,3.0530128479003906,-1.713676929473877,-0.0,2.0780017375946045,4.856846350222387,-0.0,0.288978636264801,-1.6246932188617151,-0.0,-0.012196194380521774,0.8947327136993408,-0.0,-0.004130414687097073,0.7924538850784302,0.0,0.013008898124098778
319.0,456.0,1.4734,0.4199,9.4014,-0.0373,0.0234,-0.1156,-1.795936723748678,0.0,2.999403476715088,-1.7136449813842773,-0.0,2.0754947662353516,4.856850462942877,-0.0,0.29447683691978455,-1.62465745607485,-0.0,-0.008176700212061405,0.8947492837905884,-0.0,-0.004799494054168463,0.7924174666404724,0.0,0.018325749784708023
319.0,456.0,1.4734,0.4199,9.4014,-0.0373,0.0234,-0.1156,-1.7958876095213832,0.0,3.034180164337158,-1.713693380355835,-0.0,2.0824525356292725,4.856862070947447,-0.0,0.2987166941165924,-1.6246655623065394,-0.0,0.0061287544667720795,0.8947207927703857,-0.0,-0.0016102911904454231,0.7924091815948486,0.0,-0.0020489050075411797
319.0,456.0,1.4734,0.4199,9.4014,-0.0373,0.0234,-0.1156,-1.7958713970580042,0.0,3.01784086227417,-1.7136850357055664,-0.0,2.0293846130371094,4.856826263457098,-0.0,0.28406745195388794,-1.6246932188617151,-0.0,-0.0043115015141665936,0.8947488069534302,-0.0,-0.008458561263978481,0.7924255728721619,0.0,-0.010160320438444614
319.0,456.0,1.4734,0.4199,9.4014,-0.0373,0.0234,-0.1156,-1.7958914242186488,0.0,3.0265579223632812,-1.7136893272399902,-0.0,2.0871541500091553,4.856850448041715,-0.0,0.2973960340023041,-1.6247337500201624,-0.0,-0.002540438435971737,0.8947327136993408,-0.0,-0.0020766896195709705,0.7923973202705383,0.0,0.008834784850478172
319.0,456.0,1.4734,0.4199,9.4014,-0.0373,0.0234,-0.1156,-1.7959124050536097,0.0,2.9930872917175293,-1.7136690616607666,-0.0,2.094285249710083,4.856838094979086,-0.0,0.29773083329200745,-1.6246932188617151,-0.0,-0.008912691846489906,0.8947370648384094,-0.0,0.0015878761187195778,0.7923811674118042,0.0,-0.04075198993086815
319.0,456.0,1.4734,0.4199,9.4014,-0.0373,0.0234,-0.1156,-1.7958880863585414,0.0,3.036259889602661,-1.713676929473877,-0.0,2.0505430698394775,4.856870117574491,-0.0,0.2974034547805786,-1.62468129793276,-0.0,0.005755910184234381,0.8947285413742065,-0.0,-0.005267085041850805,0.792445719242096,0.0,0.047869034111499786
319.0,456.0,1.4734,0.4199,9.4014,-0.0373,0.0234,-0.1156,-1.7959281406798304,0.0,3.0479793548583984,-1.7136852741241455,-0.0,2.110907793045044,4.856830331474104,-0.0,0.27744242548942566,-1.624725643788473,-0.0,-0.0077358754351735115,0.8947610855102539,-0.0,0.0003695906198117882,0.792445719242096,0.0,0.00163474609144032
319.0,456.0,1.4734,0.4199,9.4014,-0.0373,0.0234,-0.1156,-1.795903821984762,0.0,3.042415142059326,-1.7136893272399902,-0.0,2.046961545944214,4.856830331474104,-0.0,0.2929873466491699,-1.6246970335589808,-0.0,0.004011296667158604,0.8947285413742065,-0.0,0.004269980825483799,0.7924133539199829,0.0,-0.016505196690559387
319.0,456.0,1.4734,0.4199,9.4014,-0.0373,0.0234,-0.1156,-1.7958957157530726,0.0,3.0533528327941895,-1.7136811017990112,-0.0,2.0433430671691895,4.856846350222387,-0.0,0.2923961281776428,-1.62465745607485,-0.0,-0.015740927308797836,0.8947451114654541,-0.0,0.002358429366722703,0.7924379110336304,0.0,-0.0037164120003581047
309.0,449.0,1.4895,0.4445,9.3978,-0.0388,0.017,-0.1179,-1.7958718738951625,0.0,3.0613505840301514,-1.7136974334716797,-0.0,2.0632784366607666,4.856870162277975,-0.0,0.2984914779663086,-1.6246774832354944,-0.0,-0.011452521197497845,0.8947123885154724,-0.0,-0.002219496062025428,0.792393147945404,0.0,-0.02353673428297043
309.0,449.0,1.4895,0.4445,9.3978,-0.0388,0.017,-0.1179,-1.7959162197508753,0.0,3.001110553741455,-1.7136530876159668,-0.0,2.082270622253418,4.856842282205381,-0.0,0.2897627651691437,-1.6246731917010706,-0.0,-0.004273562226444483,0.8947125673294067,-0.0,-0.004227750934660435,0.7923571467399597,0.0,-0.018866201862692833
309.0,449.0,1.4895,0.4445,9.3978,-0.0388,0.017,-0.1179,-1.7958713970580042,0.0,3.053286552429199,-1.7137088775634766,-0.0,2.045365333557129,4.856842282205381,-0.0,0.30496057868003845,-1.6246932188617151,-0.0,-0.02062000147998333,0.8947048187255859,-0.0,-0.004915740340948105,0.7923934459686279,0.0,0.04236627370119095
309.0,449.0,1.4895,0.4445,9.3978,-0.0388,0.017,-0.1179,-1.7958713970580042,0.0,3.0844480991363525,-1.713700771331787,-0.0,2.0590708255767822,4.856874274998464,-0.0,0.28975197672843933,-1.6246970335589808,-0.0,-0.006395414005964994,0.894716739654541,-0.0,-0.005496717523783445,0.7923811674118042,0.0,-0.005806778557598591
309.0,449.0,1.4895,0.4445,9.3978,-0.0388,0.017,-0.1179,-1.7959162197508753,0.0,3.0204949378967285,-1.713700771331787,-0.0,2.069293737411499,4.856834116369047,-0.0,0.2865948975086212,-1.6246970335589808,-0.0,-0.0030391907785087824,0.8946607112884521,-0.0,-0.0024289842694997787,0.7924173474311829,0.0,0.023559484630823135
309.0,449.0,1.4895,0.4445,9.3978,-0.0388,0.017,-0.1179,-1.7959124050536097,0.0,3.017320394515991,-1.7136608362197876,-0.0,2.075472354888916,4.856830331474104,-0.0,0.29658788442611694,-1.6246932188617151,-0.0,-0.0016399479936808348,0.8946966528892517,-0.0,-0.005894519854336977,0.792445719242096,0.0,-0.024700738489627838
309.0,449.0,1.4895,0.4445,9.3978,-0.0388,0.017,-0.1179,-1.795903821984762,0.0,3.063293933868408,-1.713676929473877,-0.0,2.061368465423584,4.856846365123548,-0.0,0.29301807284355164,-1.6246970335589808,-0.0,0.0019181707175448537,0.894773006439209,-0.0,-0.0009344962891191244,0.7924137711524963,0.0,-0.007458725944161415
309.0,449.0,1.4895,0.4445,9.3978,-0.0388,0.017,-0.1179,-1.7959162197508753,0.0,3.0009024143218994,-1.7136608362197876,-0.0,2.068565845489502,4.856838094979086,-0.0,0.3014097213745117,-1.62468129793276,-0.0,-0.0009945067577064037,0.8947411179542542,-0.0,0.001594168716110289,0.7923811674118042,0.0,0.015828812494874
309.0,449.0,1.4895,0.4445,9.3978,-0.0388,0.017,-0.1179,-1.7959000072874964,0.0,3.012282609939575,-1.7136811017990112,-0.0,2.07049560546875,4.856842237501898,-0.0,0.28597018122673035,-1.6247137228595179,-0.0,0.00632149912416935,0.8947045803070068,-0.0,0.006094032432883978,0.7924457788467407,0.0,0.043490294367074966
309.0,449.0,1.4895,0.4445,9.3978,-0.0388,0.017,-0.1179,-1.7958594761290492,0.0,3.0640554428100586,-1.7136811017990112,-0.0,2.0728933811187744,4.856870147376814,-0.0,0.2878029942512512,-1.6246894041644495,-0.0,-0.007326961494982243,0.8946848511695862,-0.0,-0.005006024148315191,0.7923934459686279,0.0,0.01197751797735691
309.0,449.0,1.4895,0.4445,9.3978,-0.0388,0.017,-0.1179,-1.7958914242186488,0.0,3.023791551589966,-1.7136892080307007,-0.0,2.0627670288085938,4.856842207699575,-0.0,0.2902562916278839,-1.6246894041644495,-0.0,-0.002254737541079521,0.8947045207023621,-0.0,-0.01249787025153637,0.7923811674118042,0.0,-0.012523887678980827
309.0,449.0,1.4895,0.4445,9.3978,-0.0388,0.017,-0.1179,-1.7959162197508753,0.0,3.0253379344940186,-1.7136688232421875,-0.0,2.0541234016418457,4.856850433140554,-0.0,0.28989455103874207,-1.6247013250934046,-0.0,0.007619685027748346,0.8947248458862305,-0.0,-0.0033781956881284714,0.7924132943153381,0.0,-0.0038813182618469
309.0,449.0,1.4895,0.4445,9.3978,-0.0388,0.017,-0.1179,-1.7959281406798304,0.0,3.08697509765625,-1.713676929473877,-0.0,2.0216782093048096,4.85684226730422,-0.0,0.29035866260528564,-1.6246894041644495,-0.0,-0.009709847159683704,0.8947410583496094,-0.0,-0.005894230678677559,0.7923849821090698,0.0,0.0132923424243927
309.0,449.0,1.4895,0.4445,9.3978,-0.0388,0.017,-0.1179,-1.7959281406798304,0.0,3.0034632682800293,-1.7136809825897217,-0.0,2.1090240478515625,4.856802063971319,-0.0,0.29734253883361816,-1.624737564717428,-0.0,-0.00010702398139983416,0.8947128653526306,-0.0,-0.001128216739743948,0.7924174070358276,0.0,0.017876293510198593
309.0,449.0,1.4895,0.4445,9.3978,-0.0388,0.017,-0.1179,-1.7959162197508753,0.0,3.042731285095215,-1.7136811017990112,-0.0,2.0879311561584473,4.856810244708814,-0.0,0.3037657141685486,-1.6246932188617151,-0.0,-0.00895373709499836,0.8947533369064331,-0.0,-0.010857979767024517,0.7924296855926514,0.0,0.01835106499493122
309.0,449.0,1.4895,0.4445,9.3978,-0.0388,0.017,-0.1179,-1.795863767663473,0.0,3.050248146057129,-1.7137171030044556,-0.0,2.087524890899658,4.856834101467886,-0.0,0.2813113331794739,-1.6247413794146937,-0.0,0.005641192197799683,0.8947811126708984,-0.0,-0.006396702490746975,0.7924255132675171,0.0,0.039648666977882385
309.0,449.0,1.4895,0.4445,9.3978,-0.0388,0.017,-0.1179,-1.795875688592428,0.0,2.9934558868408203,-1.7136690616607666,-0.0,2.081782579421997,4.856826263457098,-0.0,0.29546594619750977,-1.6246894041644495,-0.0,-0.0027863881550729275,0.8947367072105408,-0.0,0.004414235707372427,0.7924296855926514,0.0,-0.03319038823246956
309.0,449.0,1.4895,0.4445,9.3978,-0.0388,0.017,-0.1179,-1.795875688592428,0.0,2.9994301795959473,-1.7137213945388794,-0.0,2.069789409637451,4.856805759459295,-0.0,0.303566575050354,-1.6246774832354944,-0.0,-0.010041583329439163,0.8947772979736328,-0.0,-0.005050303414463997,0.7924173474311829,0.0,-0.01857401803135872
309.0,449.0,1.4895,0.4445,9.3978,-0.0388,0.017,-0.1179,-1.795891901055807,0.0,3.0289011001586914,-1.713676929473877,-0.0,2.0547614097595215,4.856850418239393,-0.0,0.3044081926345825,-1.6247175375567835,-0.0,0.005029311403632164,0.8947370648384094,-0.0,-0.017253994941711426,0.7924134135246277,0.0,-0.019389785826206207
328.0,453.0,1.4943,0.4241,9.2847,-0.0299,0.0257,-0.1138,-1.795903821984762,0.0,3.008641004562378,-1.7137293815612793,-0.0,2.091789484024048,4.856870117574491,-0.0,0.29747751355171204,-1.6247175375567835,-0.0,0.005316192749887705,0.8947651982307434,-0.0,-0.0006457670824602246,0.7924133539199829,0.0,0.007176730781793594
328.0,453.0,1.4943,0.4241,9.2847,-0.0299,0.0257,-0.1138,-1.7959124050536097,0.0,3.051638603210449,-1.7136650085449219,-0.0,2.1033310890197754,4.856866124063291,-0.0,0.29106855392456055,-1.62468129793276,-0.0,0.0031988993287086487,0.894788920879364,-0.0,0.0048691276460886,0.7924577593803406,0.0,0.03457971289753914
328.0,453.0,1.4943,0.4241,9.2847,-0.0299,0.0257,-0.1138,-1.7959243259825648,0.0,3.0110602378845215,-1.7136605978012085,-0.0,1.9954099655151367,4.856838094979086,-0.0,0.2839113771915436,-1.6246731917010706,-0.0,0.004630314186215401,0.8947045803070068,-0.0,-0.002100420882925391,0.7924379110336304,0.0,0.006132116541266441
328.0,453.0,1.4943,0.4241,9.2847,-0.0299,0.0257,-0.1138,-1.795908113519186,0.0,3.014164924621582,-1.7136690616607666,-0.0,2.0758204460144043,4.856882470637121,-0.0,0.28983503580093384,-1.6246894041644495,-0.0,-0.010082160122692585,0.8947285413742065,-0.0,0.003810303285717964,0.7924337983131409,0.0,0.04047130420804024
328.0,453.0,1.4943,0.4241,9.2847,-0.0299,0.0257,-0.1138,-1.7959000072874964,0.0,3.054314374923706,-1.7136893272399902,-0.0,2.0836386680603027,4.856850433140554,-0.0,0.3041614294052124,-1.624709431325094,-0.0,-0.013037306256592274,0.8947167992591858,-0.0,-0.003856225870549679,0.7923489212989807,0.0,-0.007136371918022633
328.0,453.0,1.4943,0.4241,9.2847,-0.0299,0.0257,-0.1138,-1.7958594761290492,0.0,2.9949941635131836,-1.7136811017990112,-0.0,2.0994863510131836,4.8568220911319635,-0.0,0.2977958917617798,-1.6246932188617151,-0.0,-0.003196264849975705,0.8947167992591858,-0.0,-0.013553222641348839,0.792445719242096,0.0,0.004325610585510731
328.0,453.0,1.4943,0.4241,9.2847,-0.0299,0.0257,-0.1138,-1.7959281406798304,0.0,3.0381767749786377,-1.713693380355835,-0.0,2.0575780868530273,4.856838109880247,-0.0,0.29370057582855225,-1.6246970335589808,-0.0,-0.025023315101861954,0.8947769999504089,-0.0,-0.01307630818337202,0.7924215793609619,0.0,-0.0020415927283465862
328.0,453.0,1.4943,0.4241,9.2847,-0.0299,0.0257,-0.1138,-1.7958795032896937,0.0,2.9905261993408203,-1.713685154914856,-0.0,2.0675859451293945,4.856846350222387,-0.0,0.29774436354637146,-1.62465745607485,-0.0,-0.0002926969900727272,0.8947167992591858,-0.0,0.0007716469699516892,0.7924255132675171,0.0,-0.0579945370554924
328.0,453.0,1.4943,0.4241,9.2847,-0.0299,0.0257,-0.1138,-1.7958313427367152,0.0,3.058255434036255,-1.7136975526809692,-0.0,2.1122031211853027,4.8568861214216135,-0.0,0.29370906949043274,-1.6246851126300257,-0.0,-0.011791495606303215,0.8947651982307434,-0.0,0.0019221067195758224,0.7923852205276489,0.0,0.040361203253269196
328.0,453.0,1.4943,0.4241,9.2847,-0.0299,0.0257,-0.1138,-1.7958713970580042,0.0,3.022209882736206,-1.7136367559432983,-0.0,2.106055974960327,4.856826263457098,-0.0,0.2968767285346985,-1.6246894041644495,-0.0,-0.00699662696570158,0.8947407603263855,-0.0,-0.0006336295045912266,0.7923893928527832,0.0,-0.0007392670959234238
328.0,453.0,1.4943,0.4241,9.2847,-0.0299,0.0257,-0.1138,-1.7958837948241175,0.0,3.0172839164733887,-1.7136975526809692,-0.0,2.05706787109375,4.856894331961431,-0.0,0.28684335947036743,-1.6247337500201624,-0.0,0.00730870058760047,0.8947126269340515,-0.0,0.007150379940867424,0.7923852801322937,0.0,-0.00197514402680099
328.0,453.0,1.4943,0.4241,9.2847,-0.0299,0.0257,-0.1138,-1.7958795032896937,0.0,3.017770528793335,-1.7136852741241455,-0.0,2.0959043502807617,4.856854441552915,-0.0,0.28967732191085815,-1.6246932188617151,-0.0,-0.010347102768719196,0.8947692513465881,-0.0,-0.012675946578383446,0.7923852801322937,0.0,-0.07736176252365112
328.0,453.0,1.4943,0.4241,9.2847,-0.0299,0.0257,-0.1138,-1.795863767663473,0.0,3.0490562915802,-1.7136728763580322,-0.0,2.062190294265747,4.856834101467886,-0.0,0.28307807445526123,-1.624709431325094,-0.0,-0.009892432019114494,0.8947492837905884,-0.0,-0.00571073591709137,0.7924497723579407,0.0,-0.02068580687046051
328.0,453.0,1.4943,0.4241,9.2847,-0.0299,0.0257,-0.1138,-1.7958556614317835,0.0,3.017176628112793,-1.713676929473877,-0.0,2.0945115089416504,4.856866124063291,-0.0,0.29399505257606506,-1.6246894041644495,-0.0,0.002242858987301588,0.8946966528892517,-0.0,-0.01215381734073162,0.7924174666404724,0.0,0.04924093186855316
328.0,453.0,1.4943,0.4241,9.2847,-0.0299,0.0257,-0.1138,-1.7959243259825648,0.0,3.0805182456970215,-1.7136772871017456,-0.0,2.0625414848327637,4.856894406467237,-0.0,0.281361848115921,-1.6247051397906702,-0.0,0.008812874555587769,0.8947532773017883,-0.0,0.008399034850299358,0.7924091815948486,0.0,-0.02398996613919735
328.0,453.0,1.4943,0.4241,9.2847,-0.0299,0.0257,-0.1138,-1.7959124050536097,0.0,3.066647529602051,-1.7136893272399902,-0.0,2.072883367538452,4.856846350222387,-0.0,0.29149192571640015,-1.6246970335589808,-0.0,-0.008388236165046692,0.8947692513465881,-0.0,0.0037779270205646753,0.7924174070358276,0.0,0.000913666095584631
328.0,453.0,1.4943,0.4241,9.2847,-0.0299,0.0257,-0.1138,-1.7959162197508753,0.0,3.049057960510254,-1.713693380355835,-0.0,2.080678701400757,4.85684226730422,-0.0,0.2893306314945221,-1.6246774832354944,-0.0,-0.0020264950580894947,0.8947327136993408,-0.0,-0.00021539069712162018,0.7924454808235168,0.0,0.013369152322411537
328.0,453.0,1.4943,0.4241,9.2847,-0.0299,0.0257,-0.1138,-1.7959000072874964,0.0,3.0029830932617188,-1.7136728763580322,-0.0,2.0588550567626953,4.8568463800247095,-0.0,0.2957651615142822,-1.624641243611471,-0.0,-0.006523109506815672,0.8947328329086304,-0.0,0.003320343093946576,0.7924055457115173,0.0,-0.007584758102893829
325.0,436.0,1.3723,0.3924,9.548,-0.0414,0.022,-0.1089,-1.7958713970580042,0.0,3.0199220180511475,-1.7136248350143433,-0.0,2.0531833171844482,4.856874274998464,-0.0,0.2958179712295532,-1.624725643788473,-0.0,0.003155146259814501,0.8947451114654541,-0.0,0.003628048114478588,0.7924378514289856,0.0,0.05638153478503227
325.0,436.0,1.3723,0.3924,9.548,-0.0414,0.022,-0.1089,-1.7959162197508753,0.0,3.0559239387512207,-1.7136646509170532,-0.0,2.0595619678497314,4.856858598976888,-0.0,0.2882653474807739,-1.6246932188617151,-0.0,-0.009847749955952168,0.8946966528892517,-0.0,0.00940682366490364,0.7924014329910278,0.0,0.0161695946007967
325.0,436.0,1.3723,0.3924,9.548,-0.0414,0.022,-0.1089,-1.7958833179869593,0.0,3.0205512046813965,-1.7136650085449219,-0.0,2.0626983642578125,4.856826278358259,-0.0,0.2828444540500641,-1.6246970335589808,-0.0,-0.0056236484088003635,0.8947532773017883,-0.0,0.0024762104731053114,0.7924415469169617,0.0,-0.03146301209926605
325.0,436.0,1.3723,0.3924,9.548,-0.0414,0.022,-0.1089,-1.7959205112852992,0.0,3.056023120880127,-1.7136690616607666,-0.0,2.096906900405884,4.856838109880247,-0.0,0.2923417091369629,-1.6247056166278284,-0.0,-0.011327178217470646,0.8947088718414307,-0.0,0.0001564000267535448,0.7923769950866699,0.0,-0.00690184161067009
325.0,436.0,1.3723,0.3924,9.548,-0.0414,0.022,-0.1089,-1.7959000072874964,0.0,2.998875141143799,-1.713700771331787,-0.0,2.119553804397583,4.856838124781408,-0.0,0.29043811559677124,-1.6246851126300257,-0.0,-0.01212475448846817,0.8947570323944092,-0.0,-0.0049906158819794655,0.7924337983131409,0.0,0.0074371518567204475
325.0,436.0,1.3723,0.3924,9.548,-0.0414,0.022,-0.1089,-1.7958795032896937,0.0,3.031338930130005,-1.7136567831039429,-0.0,2.040668249130249,4.856850418239393,-0.0,0.29398059844970703,-1.6246894041644495,-0.0,0.010032040067017078,0.8947285413742065,-0.0,-0.012695906683802605,0.7924536466598511,0.0,-0.0013309384230524302
325.0,436.0,1.3723,0.3924,9.548,-0.0414,0.022,-0.1089,-1.7958880863585414,0.0,3.019676685333252,-1.713685154914856,-0.0,2.065674304962158,4.8568463800247095,-0.0,0.29512378573417664,-1.6247056166278284,-0.0,0.005577766336500645,0.8947848677635193,-0.0,0.0011308183893561363,0.7924014329910278,0.0,-0.05581098794937134
325.0,436.0,1.3723,0.3924,9.548,-0.0414,0.022,-0.1089,-1.795858999291891,0.0,3.0201730728149414,-1.7136852741241455,-0.0,2.0851950645446777,4.856854441552915,-0.0,0.2792145609855652,-1.6247213522540491,-0.0,0.002847527852281928,0.8947205543518066,-0.0,-0.009245350025594234,0.792393147945404,0.0,0.031963612884283066
325.0,436.0,1.3723,0.3924,9.548,-0.0414,0.022,-0.1089,-1.7959205112852992,0.0,3.0348315238952637,-1.7136567831039429,-0.0,2.0642476081848145,4.856850462942877,-0.0,0.27685126662254333,-1.624697510396139,-0.0,0.005860075820237398,0.8947451114654541,-0.0,0.011216023936867714,0.7923852205276489,0.0,0.02635800465941429
325.0,436.0,1.3723,0.3924,9.548,-0.0414,0.022,-0.1089,-1.7958675823607386,0.0,3.01910662651062,-1.7137048244476318,-0.0,2.0132229328155518,4.85687834301547,-0.0,0.3005201518535614,-1.624749485646383,-0.0,-0.0024080942384898663,0.8947371244430542,-0.0,0.002400999190285802,0.7924215197563171,0.0,-0.015260914340615273
325.0,436.0,1.3723,0.3924,9.548,-0.0414,0.022,-0.1089,-1.7958876095213832,0.0,3.0336103439331055,-1.7137130498886108,-0.0,2.0734832286834717,4.856842252403059,-0.0,0.2972574532032013,-1.6246374289142054,-0.0,0.005866908468306065,0.8947530388832092,-0.0,-0.003979308530688286,0.7924055457115173,0.0,0.03250986337661743
325.0,436.0,1.3723,0.3924,9.548,-0.0414,0.022,-0.1089,-1.7959124050536097,0.0,3.015942335128784,-1.713693380355835,-0.0,2.086862087249756,4.856866124063291,-2.3774746296112426e-06,0.3009406328201294,-1.6247337500201624,-0.0,0.006793145556002855,0.8947205543518066,-0.0,0.003788340836763382,0.7923811674118042,0.0,0.0372820608317852
325.0,436.0,1.3723,0.3924,9.548,-0.0414,0.022,-0.1089,-1.7958837948241175,0.0,3.0122313499450684,-1.713685154914856,-0.0,2.0724594593048096,4.856850448041715,-1.0135546624212566e-08,0.29571524262428284,-1.6247137228595179,-0.0,-0.01318604126572609,0.8947530388832092,-0.0,-0.0032553761266171932,0.7924173474311829,0.0,-0.03257495537400246
325.0,436.0,1.3723,0.3924,9.548,-0.0414,0.022,-0.1089,-1.7958675823607386,0.0,3.028475761413574,-1.7136608362197876,-0.0,2.0366785526275635,4.856878015189924,-2.8212666577931422e-12,0.2935492694377899,-1.6247652212726038,-0.0,0.0028607621788978577,0.8947532773017883,-0.0,-0.0014846057165414095,0.7924655079841614,0.0013528767740353942,-0.0017042672261595726
325.0,436.0,1.3723,0.3924,9.548,-0.0414,0.022,-0.1089,-1.7958675823607386,-2.401138843310946e-09,3.018942356109619,-1.713628888130188,-0.0,2.113173484802246,4.856878030091085,-1.2027501085744904e-14,0.2818692624568939,-1.624737564717428,-0.0,-0.015118078328669071,0.8947008848190308,-0.0,0.0011246781796216965,0.7924412488937378,0.0020858836360275745,-0.020362865179777145
325.0,436.0,1.3723,0.3924,9.548,-0.0414,0.022,-0.1089,-1.7958232365050257,-4.3219648779985187e-13,3.0017266273498535,-1.713640809059143,-0.0,2.055989980697632,4.856873947172918,-5.127512291842682e-17,0.29426664113998413,-1.6247294584857386,-0.0,-0.005302609875798225,0.8947008848190308,-0.0,-0.008339670486748219,0.7925099730491638,0.0025980910286307335,0.01199143286794424
325.0,436.0,1.3723,0.3924,9.548,-0.0414,0.022,-0.1089,-1.7958313427367152,-1.0437036164900613e-18,3.0034139156341553,-1.7136650085449219,-0.0,2.070122480392456,4.856882113009252,-1.427261857545176e-20,0.2833837866783142,-1.6247137228595179,-0.0,0.005994625389575958,0.8947492837905884,-0.0,-0.001957621891051531,0.7924531102180481,0.0015535360435023904,0.03699340671300888
325.0,436.0,1.3723,0.3924,9.548,-0.0414,0.022,-0.1089,-1.7957993946471156,-1.87862971040383e-22,3.0782456398010254,-1.7137088775634766,-0.0,2.068464756011963,4.856865662127294,-6.084641303061984e-23,0.2903566062450409,-1.6247413794146937,-0.0,0.006915523204952478,0.8947691917419434,-0.0,-0.009237101301550865,0.7924813628196716,0.001188355847261846,0.005090573336929083
325.0,436.0,1.3723,0.3924,9.548,-0.0414,0.022,-0.1089,-1.7958675823607386,-4.536670021337533e-28,3.058056354522705,-1.7136567831039429,-0.0,2.040132999420166,4.856862026243963,-1.6936822064679746e-26,0.29036980867385864,-1.6247451941119593,-0.0,0.007057775277644396,0.894792914390564,-0.0,0.012078015133738518,0.7924895882606506,0.0007945590768940747,-0.013900151476264
324.0,444.0,1.809,0.3117,9.5713,-0.0796,0.0014,-0.1136,-1.7958718738951625,-8.165845985917937e-32,3.0435452461242676,-1.7136731147766113,-0.0,2.0503132343292236,4.856885778694906,-7.220433537688594e-29,0.2804871201515198,-1.6247213522540491,-0.0,0.004463646095246077,0.8947451114654541,-0.0,0.006621111184358597,0.7924854755401611,0.0006508370861411095,-0.014107540249824524
324.0,444.0,1.809,0.3117,9.5713,-0.0796,0.0014,-0.1136,-1.7958718738951625,-1.9719556278728096e-37,3.071043014526367,-1.713693380355835,-0.0,2.0700924396514893,4.856902140169897,-2.0098340862866414e-32,0.2729707658290863,-1.6247175375567835,-0.0,0.005780704319477081,0.8947167992591858,-0.0,-0.0009315505158156157,0.7925217747688293,0.000450629013357684,-0.01398521289229393
324.0,444.0,1.809,0.3117,9.5713,-0.0796,0.0014,-0.1136,-1.795851846734518,-3.5494890101347616e-41,3.0336198806762695,-1.7136527299880981,-0.0,2.106998920440674,4.856821748405256,-8.568237442244305e-35,0.2929535508155823,-1.6247294584857386,-0.0,-0.002985879546031356,0.8947572708129883,-0.0,0.003907253500074148,0.7924734354019165,0.0003921834868378937,0.02898336760699749
324.0,444.0,1.809,0.3117,9.5713,-0.0796,0.0014,-0.1136,-1.7958914242186488,-7.006492321624085e-45,3.0297751426696777,-1.7136448621749878,-0.0,2.091129779815674,4.856886136322775,-3.652773451057918e-37,0.2840479910373688,-1.6247018019305628,-0.0,-0.009126061573624611,0.8947729468345642,-0.0,-0.006040665321052074,0.7925058007240295,0.0003487544890958816,0.0040174201130867004
324.0,444.0,1.809,0.3117,9.5713,-0.0796,0.0014,-0.1136,-1.795920034448141,0.0,2.983219623565674,-1.7136608362197876,-0.0,2.0591654777526855,4.856830003648557,-1.016768152729444e-40,0.2935607433319092,-1.6247175375567835,-0.0,0.00975046493113041,0.8947811126708984,-0.0,-0.004454496316611767,0.7924490571022034,0.00029908091528341174,-0.005900409538298845
324.0,444.0,1.809,0.3117,9.5713,-0.0796,0.0014,-0.1136,-1.7958837948241175,0.0,3.0268630981445312,-1.7136728763580322,-0.0,2.0664944648742676,4.856858584075727,-4.330012254763685e-43,0.29785335063934326,-1.62468129793276,-0.0,0.0012240053620189428,0.8947205543518066,-0.0,0.0068059079349040985,0.7924854755401611,0.00027314474573358893,-0.015363496728241444
324.0,444.0,1.809,0.3117,9.5713,-0.0796,0.0014,-0.1136,-1.7958795032896937,0.0,3.0184340476989746,-1.7137171030044556,-0.0,2.1177523136138916,4.8568742898996256,-0.0,0.28953298926353455,-1.6247294584857386,-0.0,-0.004576351959258318,0.8947888612747192,-0.0,-0.014579033479094505,0.792469322681427,8.055369835346937e-05,-0.05403584986925125
324.0,444.0,1.809,0.3117,9.5713,-0.0796,0.0014,-0.1136,-1.7958713970580042,0.0,3.0278117656707764,-1.7136893272399902,-0.0,2.095334529876709,4.856882113009252,-0.0,0.29014307260513306,-1.624725643788473,-0.0,-0.01078424695879221,0.8947492837905884,-0.0,-0.004785811994224787,0.7924613952636719,3.453949830145575e-05,0.01182334590703249
324.0,444.0,1.809,0.3117,9.5713,-0.0796,0.0014,-0.1136,-1.795903821984762,0.0,3.0212087631225586,-1.7136811017990112,-0.0,2.0375113487243652,4.856882113009252,-0.0,0.2884882688522339,-1.6246612707721155,-0.0,-0.010566642507910728,0.8947285413742065,-0.0,0.01242276094853878,0.7924696207046509,8.340882845514486e-11,0.01959729939699173
324.0,444.0,1.809,0.3117,9.5713,-0.0796,0.0014,-0.1136,-1.7959124050536097,0.0,3.0992228984832764,-1.71366548538208,-0.0,2.045267105102539,4.856850418239393,-0.0,0.29632946848869324,-1.6246932188617151,-0.0,0.004977511707693338,0.8947407007217407,-0.0,-0.010357489809393883,0.7924736738204956,1.5013294765915154e-14,-0.006116875912994146
324.0,444.0,1.809,0.3117,9.5713,-0.0796,0.0014,-0.1136,-1.7959000072874964,0.0,3.04506254196167,-1.7136690616607666,-0.0,2.0789635181427,4.856922286539831,-0.0,0.2863805890083313,-1.6246770063983362,-0.0,-0.010365160182118416,0.8947327136993408,-0.0,-0.007760985754430294,0.7924453616142273,2.702339917796944e-18,-0.020494136959314346
324.0,444.0,1.809,0.3117,9.5713,-0.0796,0.0014,-0.1136,-1.7958599529662074,0.0,3.0784645080566406,-1.713685154914856,-0.0,2.083366870880127,4.856846350222387,-0.0,0.2917126417160034,-1.6246255079852503,-0.0,0.0001121368259191513,0.8947570323944092,-0.0,-7.607252337038517e-05,0.7924092411994934,-0.0005916953668929636,0.013781665824353695
324.0,444.0,1.809,0.3117,9.5713,-0.0796,0.0014,-0.1136,-1.7958594761290492,0.0,3.038602828979492,-1.713685154914856,-0.0,2.0600392818450928,4.856842282205381,-0.0,0.2939506769180298,-1.6246894041644495,-0.0,0.007753689773380756,0.8948209881782532,-0.0,-0.011821858584880829,0.7924497723579407,-0.0005629415973089635,-0.04077242687344551
324.0,444.0,1.809,0.3117,9.5713,-0.0796,0.0014,-0.1136,-1.7958671055235804,0.0,3.0323233604431152,-1.7136650085449219,-0.0,2.0535430908203125,4.856834101467886,-0.0,0.28083887696266174,-1.6246932188617151,-0.0,0.009173471480607986,0.8947570323944092,-0.0,0.003687474876642227,0.7924014329910278,-0.0005002400721423328,0.022452931851148605
324.0,444.0,1.809,0.3117,9.5713,-0.0796,0.0014,-0.1136,-1.7959000072874964,0.0,3.0187489986419678,-1.7136567831039429,-0.0,2.1194140911102295,4.856854426651754,-0.0,0.2981858253479004,-1.6246770063983362,-0.0,-0.004118114709854126,0.8947245478630066,-0.0,0.01842985302209854,0.7924050688743591,-0.00043176489998586476,-0.018252428621053696
324.0,444.0,1.809,0.3117,9.5713,-0.0796,0.0014,-0.1136,-1.7958718738951625,-0.00012377150414977223,3.0463058948516846,-1.713700771331787,-0.0,2.0315301418304443,4.85687834301547,-0.0,0.28035494685173035,-1.6246851126300257,-0.0,-0.005790132097899914,0.8947492837905884,-0.0,0.008591179735958576,0.7924172878265381,-0.0003797099052462727,-0.01754654385149479
324.0,444.0,1.809,0.3117,9.5713,-0.0796,0.0014,-0.1136,-1.7959486446776332,-0.00010267124162055552,3.026413917541504,-1.7136567831039429,-0.0,2.004945755004883,4.85686610916213,-0.0,0.28549647331237793,-1.624709431325094,-0.0,-0.00959531869739294,0.8947490453720093,-0.0,0.004136484581977129,0.792393147945404,-0.0003674876061268151,0.025036917999386787
324.0,444.0,1.809,0.3117,9.5713,-0.0796,0.0014,-0.1136,-1.7959124050536097,-9.215682075591758e-05,3.0366272926330566,-1.7136567831039429,-0.0,2.0802416801452637,4.856834116369047,-0.0,0.2928687334060669,-1.6246731917010706,-0.0,-0.0033983818721026182,0.8947530388832092,-0.0,-0.00456154253333807,0.7924215793609619,-0.00033345428528264165,-0.011186255142092705
324.0,444.0,1.809,0.3117,9.5713,-0.0796,0.0014,-0.1136,-1.7958880863585414,-4.013587749795988e-05,3.0244579315185547,-1.7136731147766113,-0.0,2.072272300720215,4.8568537560995,-0.0,0.2904728055000305,-1.6247137228595179,-0.0,-0.011947816237807274,0.8947691917419434,-0.0,0.00086410460062325,0.7923890948295593,-0.00029277364956215024,0.019958164542913437
320.0,445.0,0.6538,0.4822,9.8297,-0.0189,0.0562,-0.1103,-1.795863767663473,-3.668634599307552e-05,3.026820659637451,-1.713649034500122,-0.0,2.0695106983184814,4.856873947172918,-0.0,0.28553929924964905,-1.6247013250934046,-0.0,-0.009021023288369179,0.8947411179542542,-0.0,0.0020400164648890495,0.7924337387084961,-0.0002707534295041114,-0.01980992779135704
320.0,445.0,0.6538,0.4822,9.8297,-0.0189,0.0562,-0.1103,-1.7958599529662074,-8.859322303544914e-11,3.076239585876465,-1.713685154914856,-0.0,2.0561277866363525,4.856850477844038,-0.0,0.2980702519416809,-1.6247051397906702,-0.0,0.006970257963985205,0.8947691321372986,-0.0,0.009993119165301323,0.7924215793609619,-0.00019270381017122418,0.037292804569005966
320.0,445.0,0.6538,0.4822,9.8297,-0.0189,0.0562,-0.1103,-1.795891901055807,-1.5946467575773428e-14,3.062991142272949,-1.7136530876159668,-0.0,2.0924370288848877,4.856886106520452,1.2780085853592027e-05,0.2950548827648163,-1.6247056166278284,-0.0,0.008248050697147846,0.8947167992591858,-0.0,0.004602297209203243,0.7924091815948486,-0.0001774333941284567,-0.005977406166493893
320.0,445.0,0.6538,0.4822,9.8297,-0.0189,0.0562,-0.1103,-1.795903821984762,-2.8703080401625742e-18,3.077660083770752,-1.7136690616607666,-0.0,2.0507631301879883,4.856862026243963,1.2543790035124402e-05,0.2979874312877655,-1.6246774832354944,-0.0,-0.002286102855578065,0.8947046399116516,-0.0,-0.0021077662240713835,0.7924091815948486,-0.00016446337394881994,0.04435545206069946
320.0,445.0,0.6538,0.4822,9.8297,-0.0189,0.0562,-0.1103,-1.7958599529662074,-6.931454928051971e-24,2.997836112976074,-1.7136608362197876,-0.0,2.070314884185791,4.856882113009252,2.4078173737507313e-05,0.29171061515808105,-1.624669377003805,-0.0,-0.010801423341035843,0.8947851061820984,-0.0,0.002298098523169756,0.7924494743347168,-0.0001482125953771174,-0.031186148524284363
320.0,445.0,0.6538,0.4822,9.8297,-0.0189,0.0562,-0.1103,-1.7958399258055628,-1.2476375439419702e-27,3.0914306640625,-1.713701605796814,-0.0,2.0861215591430664,4.856906282692709,2.345409848203417e-05,0.2920721173286438,-1.6246774832354944,-0.0,0.006281193811446428,0.8947970271110535,-0.0,-0.0014205713523551822,0.7924296855926514,-0.00011137415276607499,-0.009809191338717937
320.0,445.0,0.6538,0.4822,9.8297,-0.0189,0.0562,-0.1103,-1.7959000072874964,-3.0128981829910815e-33,3.026895523071289,-1.7136608362197876,-0.0,2.1043078899383545,4.856834056764402,2.2571795852854848e-05,0.27726051211357117,-1.624641243611471,-0.0,-0.010287187993526459,0.8947285413742065,-0.0,0.0002603563480079174,0.7924898266792297,-0.00010180461686104536,0.03505348786711693
320.0,445.0,0.6538,0.4822,9.8297,-0.0189,0.0562,-0.1103,-1.795908113519186,-5.4231098074681644e-37,3.029917001724243,-1.713649034500122,-0.0,2.0360543727874756,4.856902140169897,1.24449870781973e-05,0.291606605052948,-1.6246612707721155,-0.0,0.0056370934471488,0.8947651982307434,-0.0,-0.010140715166926384,0.7924497723579407,-9.635485184844583e-05,-0.02160610817372799
320.0,445.0,0.6538,0.4822,9.8297,-0.0189,0.0562,-0.1103,-1.795847555200094,-1.310214064143704e-42,3.0078792572021484,-1.7136608362197876,-0.0,2.0985608100891113,4.856869774847784,1.0620427929097787e-05,0.30151599645614624,-1.6247051397906702,-0.0,-0.001029372913762927,0.8947330713272095,-0.0,0.0022613429464399815,0.7923973202705383,-8.919297397369519e-05,-0.016621870920062065
320.0,445.0,0.6538,0.4822,9.8297,-0.0189,0.0562,-0.1103,-1.7958961925902308,-0.0,3.0216307640075684,-1.7136567831039429,-0.0,2.077208995819092,4.856846335321226,1.0375187230238225e-05,0.29757604002952576,-1.6246894041644495,-0.0,-0.007315034978091717,0.8947888612747192,-0.0,-0.0016917408211156726,0.7923890948295593,-8.498203533235937e-05,0.024222522974014282
320.0,445.0,0.6538,0.4822,9.8297,-0.0189,0.0562,-0.1103,-1.7958957157530726,0.0,3.0445120334625244,-1.7136329412460327,-0.0,2.0603952407836914,4.856878372817793,1.0141367056348827e-05,0.2887018620967865,-1.6246731917010706,-0.0,-0.012660903856158257,0.8947530388832092,-0.0,0.00637628510594368,0.7924333214759827,-8.115061791613698e-05,-0.029653729870915413
320.0,445.0,0.6538,0.4822,9.8297,-0.0189,0.0562,-0.1103,-1.7958833179869593,0.0,3.0427682399749756,-1.7136608362197876,-0.0,2.0085432529449463,4.856862041145124,5.5685815958383955e-09,0.28204187750816345,-1.6247056166278284,-0.0,-0.005326490383595228,0.8947451114654541,-0.0,-0.010112693533301353,0.7924618721008301,-7.601045217597857e-05,0.008665505796670914
320.0,445.0,0.6538,0.4822,9.8297,-0.0189,0.0562,-0.1103,-1.7958718738951625,0.0,3.019592761993408,-1.7136893272399902,-0.0,2.0652711391448975,4.856842237501898,2.3739737606276456e-11,0.30593568086624146,-1.6246770063983362,-0.0,0.001162701635621488,0.8947529792785645,-0.0,-0.0190968606621027,0.7924174666404724,-7.293074304470792e-05,0.05946435034275055
320.0,445.0,0.6538,0.4822,9.8297,-0.0189,0.0562,-0.1103,-1.7959000072874964,0.0,3.0152721405029297,-1.7136247158050537,-0.0,2.0214803218841553,4.856850403338232,6.608043258226172e-15,0.3070667088031769,-1.6246612707721155,-0.0,-0.0017730914987623692,0.8947651982307434,-0.0,-0.005485651548951864,0.7924374341964722,-6.875231338199228e-05,0.011531069874763489
320.0,445.0,0.6538,0.4822,9.8297,-0.0189,0.0562,-0.1103,-1.795851846734518,0.0,3.0303096771240234,-1.713649034500122,-0.0,2.097827672958374,4.8568943468625925,2.81711213768735e-17,0.29871228337287903,-1.6247137228595179,-0.0,-0.001924685901030898,0.8947651982307434,-0.0,-0.010334157384932041,0.7924535870552063,-6.622299406444654e-05,0.01626005582511425
320.0,445.0,0.6538,0.4822,9.8297,-0.0189,0.0562,-0.1103,-1.7958876095213832,0.0,3.079710006713867,-1.7137088775634766,-0.0,2.074843406677246,4.856818127423086,1.2009791369687367e-19,0.2959803342819214,-1.6246731917010706,-0.0,-0.004425711929798126,0.8947649598121643,-0.0,-0.006556649226695299,0.7924131751060486,-4.790776802110486e-05,0.01486093457788229
320.0,445.0,0.6538,0.4822,9.8297,-0.0189,0.0562,-0.1103,-1.7958795032896937,0.0,3.0491392612457275,-1.7136811017990112,-0.0,2.0936312675476074,4.856818082719602,3.3429694264626515e-23,0.29247206449508667,-1.6246932188617151,-0.0,-0.00639073271304369,0.8946847915649414,-0.0,-0.011564096435904503,0.7923890948295593,-4.548381548374891e-05,-0.04262994974851608
320.0,445.0,0.6538,0.4822,9.8297,-0.0189,0.0562,-0.1103,-1.795863767663473,0.0,3.052246570587158,-1.7136608362197876,-0.0,2.0629100799560547,4.8568903533513925,1.4251601789363225e-25,0.29471540451049805,-1.6246894041644495,-0.0,-0.000987370265647769,0.8947327136993408,-0.0,0.00046594717423431575,0.7924051284790039,-4.4001382775604725e-05,-0.006690720096230507
320.0,445.0,0.6538,0.4822,9.8297,-0.0189,0.0562,-0.1103,-1.7959205112852992,0.0,3.0232930183410645,-1.713640809059143,-0.0,2.0959320068359375,4.856822106033125,3.9669859623188645e-29,0.3094714283943176,-1.6247218290912073,-0.0,-0.004967182874679565,0.8947327136993408,-0.0,0.007664657197892666,0.7924576997756958,-4.195043948129751e-05,0.03944898769259453
326.0,463.0,1.8538,0.2303,9.2118,-0.0454,0.005,-0.1191,-1.7959000072874964,0.0,3.033228874206543,-1.7136811017990112,-0.0,2.048255205154419,4.856890293746748,1.6911886596042985e-31,0.28962913155555725,-1.6246894041644495,-0.0,-0.0009470235090702772,0.8947530388832092,-0.0,0.006073108408600092,0.7924255728721619,-4.0686143620405346e-05,-0.03205994889140129
326.0,463.0,1.8538,0.2303,9.2118,-0.0454,0.005,-0.1191,-1.7958671055235804,0.0,3.0652852058410645,-1.7136527299880981,-0.0,2.0252432823181152,4.856846335321226,4.7074858111430765e-35,0.2933449447154999,-1.6247137228595179,-0.0,-0.004541648551821709,0.8947206139564514,-0.0,-0.0017976771341636777,0.7924576997756958,-3.892647509928793e-05,-0.0031739408150315285
326.0,463.0,1.8538,0.2303,9.2118,-0.0454,0.005,-0.1191,-1.7959000072874964,0.0,3.0442965030670166,-1.7136811017990112,-0.0,2.0722270011901855,4.8568340865667246,2.006875088772767e-37,0.29800945520401,-1.6246932188617151,-0.0,-0.007075438275933266,0.8947651982307434,-0.0,-0.0029422403313219547,0.7924009561538696,-5.0440521590644494e-05,-0.030544793233275414
326.0,463.0,1.8538,0.2303,9.2118,-0.0454,0.005,-0.1191,-1.795908113519186,0.0,3.013021230697632,-1.713685154914856,-0.0,2.0621895790100098,4.8568742898996256,8.55562777393517e-40,0.2851404845714569,-1.6246932188617151,-0.0,0.009183134883642197,0.8947411179542542,-0.0,-0.018190357834100723,0.7924255728721619,-4.907209950033575e-05,-0.024029063060879707
326.0,463.0,1.8538,0.2303,9.2118,-0.0454,0.005,-0.1191,-1.7959124050536097,0.0,3.018017530441284,-1.7136965990066528,-0.0,2.0590767860412598,4.856850418239393,2.382207389352189e-43,0.2857637107372284,-1.6247337500201624,-0.0,-0.00438564270734787,0.8947086334228516,-0.0,-0.012394150719046593,0.7924779057502747,-4.714423994300887e-05,0.0265190489590168
326.0,463.0,1.8538,0.2303,9.2118,-0.0454,0.005,-0.1191,-1.7959124050536097,0.0,3.011931896209717,-1.7136688232421875,-0.0,2.0996222496032715,4.856818112521925,1.401298464324817e-45,0.292355477809906,-1.6246932188617151,-0.0,-0.002454945584759116,0.8947451114654541,-0.0,-0.01080662477761507,0.792445719242096,-4.5941003918414935e-05,0.04873616620898247
326.0,463.0,1.8538,0.2303,9.2118,-0.0454,0.005,-0.1191,-1.795835634271139,0.0,3.0143795013427734,-1.7136608362197876,-0.0,2.1061618328094482,4.856818112521925,0.0,0.2994484007358551,-1.6246894041644495,-0.0,-0.002585598500445485,0.8947928547859192,-0.0,-0.00981499720364809,0.792445719242096,-4.424708822625689e-05,0.008188051171600819
326.0,463.0,1.8538,0.2303,9.2118,-0.0454,0.005,-0.1191,-1.7959281406798304,0.0,3.0530242919921875,-1.7136567831039429,-0.0,2.0379159450531006,4.856838109880247,0.0,0.29329928755760193,-1.6246612707721155,-0.0,0.0027112115640193224,0.8947411179542542,-0.0,-0.009985921904444695,0.7923729419708252,-4.3185518734389916e-05,-0.013118522241711617
326.0,463.0,1.8538,0.2303,9.2118,-0.0454,0.005,-0.1191,-1.7958914242186488,0.0,3.05263614654541,-1.7137171030044556,-0.0,2.0575406551361084,4.856846350222387,0.0,0.2895156145095825,-1.624709431325094,-0.0,0.01273278146982193,0.8947285413742065,-0.0,0.002097522374242544,0.7924535870552063,-4.168535815551877e-05,0.06432056427001953
326.0,463.0,1.8538,0.2303,9.2118,-0.0454,0.005,-0.1191,-1.7958880863585414,0.0,3.092386245727539,-1.7136448621749878,-0.0,2.0773282051086426,4.856838094979086,0.0,0.2966933250427246,-1.624753777180807,-0.0,-0.007433140650391579,0.8947451114654541,-0.0,-0.009611536748707294,0.7924535870552063,-4.0741884731687605e-05,-0.03667395934462547
326.0,463.0,1.8538,0.2303,9.2118,-0.0454,0.005,-0.1191,-1.795851846734518,0.0,3.029418706893921,-1.7137171030044556,-0.0,2.0624866485595703,4.8568821279104135,0.0,0.28882932662963867,-1.624737564717428,-0.0,-0.009461931884288788,0.8947371244430542,-0.0,-0.003993691876530647,0.7924255132675171,-3.984012801083736e-05,-0.007034125737845898
326.0,463.0,1.8538,0.2303,9.2118,-0.0454,0.005,-0.1191,-1.795903821984762,0.0,3.0032763481140137,-1.7136567831039429,-0.0,2.033231258392334,4.856850418239393,0.0,0.2882015109062195,-1.6247013250934046,-0.0,-0.003065380034968257,0.8947811126708984,-0.0,-0.00014814664609730244,0.7924296855926514,-2.818983380059592e-10,0.03121732547879219
326.0,463.0,1.8538,0.2303,9.2118,-0.0454,0.005,-0.1191,-1.7958795032896937,0.0,3.072941541671753,-1.7136530876159668,-0.0,2.0176072120666504,4.8568544564540765,0.0,0.29112112522125244,-1.6247013250934046,-0.0,-0.006634239107370377,0.8947367072105408,-0.0,-0.017698807641863823,0.7923849821090698,-5.0740709106166654e-14,-0.0022193435579538345
326.0,463.0,1.8538,0.2303,9.2118,-0.0454,0.005,-0.1191,-1.795903821984762,0.0,3.044438362121582,-1.7137048244476318,-0.0,2.0540926456451416,4.85687010267333,0.0,0.2854361832141876,-1.6246970335589808,-0.0,-0.002555874641984701,0.8947492837905884,-0.0,0.004507739096879959,0.7924214601516724,-1.2253284907689422e-19,0.006362514570355415
326.0,463.0,1.8538,0.2303,9.2118,-0.0454,0.005,-0.1191,-1.7958394489684046,0.0,3.0097384452819824,-1.713640809059143,-0.0,2.0564098358154297,4.856882113009252,0.0,0.29691457748413086,-1.62468129793276,-0.0,0.009184027090668678,0.8947610259056091,-0.0,-0.0035515818744897842,0.792457640171051,-2.20554796368702e-23,0.0042578959837555885
326.0,463.0,1.8538,0.2303,9.2118,-0.0454,0.005,-0.1191,-1.7959162197508753,0.0,3.037015199661255,-1.7136650085449219,-0.0,2.0899739265441895,4.856862041145124,0.0,0.2970829904079437,-1.6246851126300257,-0.0,0.008723434060811996,0.8947451114654541,-0.0,0.010721137747168541,0.7924415469169617,-3.9699089943437096e-27,0.01532529667019844
326.0,463.0,1.8538,0.2303,9.2118,-0.0454,0.005,-0.1191,-1.7958761654295863,0.0,3.0386853218078613,-1.713701605796814,-0.0,2.0421926975250244,4.856850433140554,0.0,0.28463321924209595,-1.6246612707721155,-0.0,-0.0001693277299636975,0.8947691917419434,-0.0,-0.007514833472669125,0.7923932075500488,-9.586863931618156e-33,-0.0035566072911024094
326.0,463.0,1.8538,0.2303,9.2118,-0.0454,0.005,-0.1191,-1.7958718738951625,0.0,3.009434700012207,-1.713685154914856,-0.0,2.0545194149017334,4.856886136322775,0.0,0.2962198853492737,-1.624725643788473,-0.0,-0.0026028102729469538,0.8947610259056091,-0.0,-0.010495913214981556,0.7924333214759827,-1.7256015284428952e-36,0.020438745617866516
326.0,463.0,1.8538,0.2303,9.2118,-0.0454,0.005,-0.1191,-1.7958761654295863,0.0,3.0757362842559814,-1.7136530876159668,-0.0,2.0847880840301514,4.85687010267333,0.0,0.30651146173477173,-1.6247051397906702,-0.0,0.0056380038149654865,0.8947046399116516,-0.0,-0.006430199835449457,0.7924456596374512,-4.167461632902006e-42,-0.04769521951675415
316.0,448.0,1.1151,0.5844,9.5527,-0.0377,0.0269,-0.1139,-1.7958957157530726,0.0,3.0167713165283203,-1.713676929473877,-0.0,2.0604052543640137,4.856862041145124,0.0,0.28553909063339233,-1.62468129793276,-0.0,-0.0031368983909487724,0.8947612643241882,-0.0,0.005673109088093042,0.7924132943153381,-1.401298464324817e-45,0.05563386529684067
316.0,448.0,1.1151,0.5844,9.5527,-0.0377,0.0269,-0.1139,-1.7958718738951625,0.0,3.022186279296875,-1.713640809059143,-0.0,2.060265064239502,4.856829958945074,0.0,0.2863750457763672,-1.6246970335589808,-0.0,-0.0027646084781736135,0.8947570323944092,-0.0,-0.008615785278379917,0.7924292683601379,-2.4285757405095865e-08,-0.05302588641643524
316.0,448.0,1.1151,0.5844,9.5527,-0.0377,0.0269,-0.1139,-1.7958642445006312,0.0,3.0454845428466797,-1.713596224784851,-0.0,2.026421070098877,4.85684226730422,0.0,0.2993280589580536,-1.6246731917010706,-0.0,-0.0051760366186499596,0.8947046399116516,-0.0,0.0037776194512844086,0.7924173474311829,-4.371350503795668e-12,-0.021841300651431084
316.0,448.0,1.1151,0.5844,9.5527,-0.0377,0.0269,-0.1139,-1.795879980126852,0.0,3.025911331176758,-1.7136892080307007,-0.0,2.071453094482422,4.856849658280172,0.0,0.30156201124191284,-1.6246932188617151,-0.0,-0.012131975963711739,0.8947530388832092,-0.0,-0.0004270118661224842,0.7924172878265381,-7.868276453084776e-16,-0.021581998094916344
316.0,448.0,1.1151,0.5844,9.5527,-0.0377,0.0269,-0.1139,-1.7959162197508753,0.0,3.026273250579834,-1.7135921716690063,-0.0,2.072378635406494,4.856874260097303,0.0,0.2871883511543274,-1.624709431325094,-0.0,-0.007614306174218655,0.8947530388832092,-0.0,-0.014045036397874355,0.7924337983131409,-1.900096269087351e-21,-0.03229100629687309
316.0,448.0,1.1151,0.5844,9.5527,-0.0377,0.0269,-0.1139,-1.7958675823607386,0.0,3.0231118202209473,-1.7136731147766113,-0.0,2.1035797595977783,4.8568463800247095,0.0,0.2925328016281128,-1.624725643788473,-0.0,-0.0028660160023719072,0.8947205543518066,-0.0,0.0049600061029195786,0.7924695611000061,-3.420105961547631e-25,-0.03375746309757233
316.0,448.0,1.1151,0.5844,9.5527,-0.0377,0.0269,-0.1139,-1.7958713970580042,0.0,3.090423583984375,-1.7136085033416748,-0.0,2.0635900497436523,4.856882172613897,0.0,0.29399269819259644,-1.6246970335589808,-0.0,0.006143197417259216,0.8948129415512085,-0.0,-0.008012602105736732,0.7924655079841614,-8.259153083453723e-31,-0.044971007853746414
316.0,448.0,1.1151,0.5844,9.5527,-0.0377,0.0269,-0.1139,-1.7959205112852992,0.0,3.0316858291625977,-1.71360445022583,-0.0,2.076727867126465,4.856878044992246,0.0,0.29875582456588745,-1.6247456709491175,-0.0,-0.0060938261449337006,0.8948129415512085,-0.0,-0.005417937412858009,0.7924978137016296,0.00020070148457307369,-0.0011916477233171463
316.0,448.0,1.1151,0.5844,9.5527,-0.0377,0.0269,-0.1139,-1.7958351574339808,0.0,3.0444178581237793,-1.713620901107788,-0.0,2.054758071899414,4.856838065176763,0.0,0.29079321026802063,-1.624669377003805,-0.0,-0.00914231687784195,0.8947610259056091,-0.0,0.0034049032256007195,0.7924572825431824,0.0003043411416001618,-0.02146918699145317
316.0,448.0,1.1151,0.5844,9.5527,-0.0377,0.0269,-0.1139,-1.7958795032896937,0.0,3.0219197273254395,-1.713628888130188,-0.0,2.022340774536133,4.856866124063291,0.0,0.2984580397605896,-1.6246932188617151,-0.0,-0.000703344470821321,0.8946731686592102,-0.0,0.0032447492703795433,0.792477548122406,0.00030890206107869744,0.006297471933066845
316.0,448.0,1.1151,0.5844,9.5527,-0.0377,0.0269,-0.1139,-1.795847555200094,0.0,3.0457797050476074,-1.7136495113372803,-0.0,2.0512425899505615,4.856862666993894,0.0,0.29171645641326904,-1.6247294584857386,-0.0,0.008801084011793137,0.8948050141334534,-0.0,-0.001178499311208725,0.7924937605857849,0.00032137628295458853,0.0028556878678500652
316.0,448.0,1.1151,0.5844,9.5527,-0.0377,0.0269,-0.1139,-1.795863767663473,0.0,3.0461878776550293,-1.7135967016220093,-0.0,2.0444326400756836,4.856874274998464,0.0,0.2973571717739105,-1.6246894041644495,-0.0,0.005375622771680355,0.8947650194168091,-0.0,0.005302879959344864,0.7924854755401611,0.0004340535670053214,0.004551846068352461
316.0,448.0,1.1151,0.5844,9.5527,-0.0377,0.0269,-0.1139,-1.7959000072874964,0.0,3.0303139686584473,-1.7136495113372803,-0.0,2.090343952178955,4.856850418239393,0.0,0.28372493386268616,-1.6246612707721155,-0.0,-0.011826762929558754,0.8947811722755432,-0.0,-0.010433632880449295,0.792469322681427,0.0004365123750176281,0.0017838412895798683
316.0,448.0,1.1151,0.5844,9.5527,-0.0377,0.0269,-0.1139,-1.7958556614317835,0.0,3.059083938598633,-1.713645339012146,-0.0,2.076794147491455,4.856850448041715,0.0,0.283829927444458,-1.6246894041644495,-0.0,-0.004503248259425163,0.8947729468345642,-0.0,0.0020253844559192657,0.7924937605857849,0.0004099423822481185,-0.018030093982815742
316.0,448.0,1.1151,0.5844,9.5527,-0.0377,0.0269,-0.1139,-1.7958957157530726,0.0,3.049609661102295,-1.7136811017990112,-0.0,2.0659050941467285,4.856838124781408,0.0,0.298616498708725,-1.62468129793276,-0.0,-0.003235402051359415,0.8947206139564514,-0.0,-0.010768493637442589,0.7924813628196716,0.0004083693493157625,0.004606042057275772
316.0,448.0,1.1151,0.5844,9.5527,-0.0377,0.0269,-0.1139,-1.7959243259825648,0.0,3.021103858947754,-1.7136330604553223,-0.0,2.0630807876586914,4.856862696796217,0.0,0.2897447943687439,-1.6246970335589808,-0.0,0.0037534846924245358,0.8947411179542542,-0.0,0.00035197121906094253,0.7924896478652954,0.0003717376384884119,-0.01579793356359005
316.0,448.0,1.1151,0.5844,9.5527,-0.0377,0.0269,-0.1139,-1.7959562740721644,0.0,3.092212677001953,-1.7136811017990112,4.740686927107163e-05,2.0957658290863037,4.856834131270208,0.0,0.2876923084259033,-1.62468129793276,-0.0,-0.004558808170258999,0.8947769999504089,-0.0,-0.0044212061911821365,0.7925135493278503,0.00032187759643420577,0.036326467990875244
316.0,448.0,1.1151,0.5844,9.5527,-0.0377,0.0269,-0.1139,-1.7959162197508753,0.0,3.0074117183685303,-1.7135883569717407,4.740872827824205e-05,2.0833678245544434,4.856834101467886,0.0,0.2957495450973511,-1.6246932188617151,-0.0,-0.0029964004643261433,0.8947367072105408,-0.0,-0.0009834585944190621,0.792493462562561,0.00029545940924435854,-0.022109409794211388
316.0,448.0,1.1151,0.5844,9.5527,-0.0377,0.0269,-0.1139,-1.7959243259825648,0.0,3.0284366607666016,-1.713628888130188,4.393741983221844e-05,2.0747780799865723,4.856858598976888,0.0,0.2909812033176422,-1.6246612707721155,-0.0,-0.007840240374207497,0.8947570323944092,-0.0,-0.007250980939716101,0.7924937605857849,0.00026307121152058244,0.022414397448301315
322.0,446.0,1.4818,0.5157,9.3757,-0.0217,0.048,-0.1219,-1.7959605656065882,-0.00048765901010483503,3.0297229290008545,-1.713693380355835,4.1892300941981375e-05,2.104423999786377,4.856830301671781,0.0,0.28819867968559265,-1.6247051397906702,-0.0,0.007430163212120533,0.8947810530662537,-0.0,-0.00773270707577467,0.7925094366073608,0.00024515605764463544,-0.02691568061709404
322.0,446.0,1.4818,0.5157,9.3757,-0.0217,0.048,-0.1219,-1.7959362469115199,-0.0004546478157863021,2.998426914215088,-1.7136495113372803,3.915829802281223e-05,2.1209423542022705,4.856858598976888,0.0,0.29287898540496826,-1.6247294584857386,-0.0,-0.012994401156902313,0.8947411179542542,-0.0,-0.015219725668430328,0.792461097240448,0.00022243439161684364,-0.002144384663552046
322.0,446.0,1.4818,0.5157,9.3757,-0.0217,0.048,-0.1219,-1.7959314785399378,-0.0004539610235951841,2.9959115982055664,-1.7136934995651245,3.752562770387158e-05,2.060007095336914,4.856830331474104,0.0,0.2801830768585205,-1.6247213522540491,-0.0,0.0008243606425821781,0.8947769403457642,-0.0,0.004700087010860443,0.7924813628196716,0.00020949057943653315,0.005928165279328823
322.0,446.0,1.4818,0.5157,9.3757,-0.0217,0.048,-0.1219,-1.7959362469115199,-0.00043386092875152826,3.045581817626953,-1.7136811017990112,3.602359356591478e-05,2.0492992401123047,4.856826263457098,0.0,0.28361016511917114,-1.6246774832354944,-0.0,-0.007369587663561106,0.8947086930274963,-0.0,0.007946426048874855,0.7924772500991821,0.00019797000277321786,0.003067594952881336
322.0,446.0,1.4818,0.5157,9.3757,-0.0217,0.048,-0.1219,-1.7959243259825648,-0.000381391029804945,3.013230800628662,-1.713584303855896,5.097491157357581e-05,2.090059280395508,4.856894391566076,0.0,0.28893226385116577,-1.624749485646383,-0.0,-0.0011197335552424192,0.8947048783302307,-0.0,-0.0022415078710764647,0.7925135493278503,0.00018288420687895268,0.01525115966796875
322.0,446.0,1.4818,0.5157,9.3757,-0.0217,0.048,-0.1219,-1.7959276638426722,-0.00034485329524613917,3.0216989517211914,-1.713653564453125,4.912021540803835e-05,2.033928871154785,4.856854426651754,0.0,0.29392144083976746,-1.624737564717428,-0.0,0.005243702791631222,0.8947285413742065,-0.0,-0.0030610086396336555,0.7925016283988953,0.0001740425213938579,0.0021381257101893425
322.0,446.0,1.4818,0.5157,9.3757,-0.0217,0.048,-0.1219,-1.795931955377096,-0.00030152397812344134,3.0582115650177,-1.7136374711990356,6.210315768839791e-05,2.0612802505493164,4.8568742898996256,0.0,0.280515193939209,-1.6246932188617151,-0.0,-0.005106661468744278,0.8947371244430542,-0.0,-0.008585743606090546,0.792461097240448,0.00016227486776188016,0.003060446120798588
322.0,446.0,1.4818,0.5157,9.3757,-0.0217,0.048,-0.1219,-1.795920034448141,-0.00027822013362310827,2.9965403079986572,-1.713645339012146,7.318902498809621e-05,2.1010162830352783,4.856898131757536,0.0,0.30441227555274963,-1.6246612707721155,-0.0,-0.0012195220915600657,0.8947689533233643,-0.0,0.0008298910688608885,0.7924371361732483,0.00015527567302342504,0.040331460535526276
322.0,446.0,1.4818,0.5157,9.3757,-0.0217,0.048,-0.1219,-1.7958713970580042,-0.0002582599699962884,3.041752338409424,-1.7136008739471436,0.00010154033225262538,2.0302047729492188,4.856894033938207,0.0,0.2865646481513977,-1.6246970335589808,-0.0,0.01235463097691536,0.8947367072105408,-0.0,-0.007456290069967508,0.792469322681427,0.00014885519340168685,0.016774889081716537
322.0,446.0,1.4818,0.5157,9.3757,-0.0217,0.048,-0.1219,-1.795920034448141,-0.00023316820443142205,3.0293781757354736,-1.713649868965149,0.0008108803885988891,2.1229329109191895,4.856878402620115,0.0,0.29143112897872925,-1.6247018019305628,-0.0,-0.014961974695324898,0.8947651386260986,-0.0,0.005389600992202759,0.792497456073761,0.00010463922808412462,-0.007975824177265167
322.0,446.0,1.4818,0.5157,9.3757,-0.0217,0.048,-0.1219,-1.795931955377096,-0.00021898449631407857,3.0572402477264404,-1.7136131525039673,0.0012715497286990285,2.096879482269287,4.85688995102004,0.0,0.2992095947265625,-1.6247175375567835,-0.0,-0.0007235425873659551,0.8947689533233643,-0.0,-0.004208436235785484,0.7924895882606506,9.998302994063124e-05,0.002844986505806446
322.0,446.0,1.4818,0.5157,9.3757,-0.0217,0.048,-0.1219,-1.7959243259825648,-0.0002006743015954271,3.021453380584717,-1.7136292457580566,0.0010628694435581565,2.0651443004608154,4.856878030091085,0.0,0.29697415232658386,-1.6246932188617151,-0.0,-0.0022955434396862984,0.8947167992591858,-0.0,0.0017161587020382285,0.7925135493278503,9.373513603350148e-05,-0.015777969732880592
322.0,446.0,1.4818,0.5157,9.3757,-0.0217,0.048,-0.1219,-1.7959157429137171,-0.0001900784991448745,3.0166592597961426,-1.7136250734329224,0.0007946527330204844,2.0809202194213867,4.856946441322126,0.0,0.291816771030426,-1.6246932188617151,-0.0,0.005008287727832794,0.8947286009788513,-0.0,0.004882583394646645,0.7925214767456055,0.00010798012954182923,-0.06527885794639587
322.0,446.0,1.4818,0.5157,9.3757,-0.0217,0.048,-0.1219,-1.795920034448141,-0.00017612944066058844,3.0185110569000244,-1.713608980178833,0.0005764102679677308,2.081592082977295,4.856878030091085,0.0,0.2900511622428894,-1.6247056166278284,-0.0,-0.009639160707592964,0.8947371244430542,-0.0,0.003680146299302578,0.7925058007240295,0.00010187223961111158,-0.03532390668988228
322.0,446.0,1.4818,0.5157,9.3757,-0.0217,0.048,-0.1219,-1.7959395847716273,-0.00016791402595117688,3.0228891372680664,-1.7136008739471436,0.00048722312203608453,2.0624165534973145,4.856873947172918,0.0,0.2895061671733856,-1.6247575918780726,-0.0,-0.016368597745895386,0.8947850465774536,-0.0,-0.008951736614108086,0.7925417423248291,9.816831152420491e-05,-0.001669346122071147
322.0,446.0,1.4818,0.5157,9.3757,-0.0217,0.048,-0.1219,-1.7959848843016566,-0.00016043121286202222,3.0577898025512695,-1.713620901107788,0.0004219438706059009,2.099116325378418,4.856898027449407,0.0,0.30354976654052734,-1.6246970335589808,-0.0,0.007758605293929577,0.8947492241859436,-0.0,-0.005946604534983635,0.7925256490707397,9.472433885093778e-05,0.016285650432109833
322.0,446.0,1.4818,0.5157,9.3757,-0.0217,0.048,-0.1219,-1.7959724865355433,-0.00015063848695717752,3.070185899734497,-1.713608980178833,0.0003513389965519309,2.055797576904297,4.856893959432401,0.0,0.2933560907840729,-1.6246774832354944,-0.0,0.0033793754409998655,0.8947769403457642,-0.0,-0.006634662859141827,0.792477548122406,8.998889825306833e-05,-0.02415456436574459
322.0,446.0,1.4818,0.5157,9.3757,-0.0217,0.048,-0.1219,-1.795948167840475,-0.0009194600861519575,3.0394859313964844,-1.7135404348373413,0.0001044117525452748,2.063382148742676,4.856881695776739,0.0,0.2924935221672058,-1.6246932188617151,-0.0,0.0005755728925578296,0.8947206139564514,-0.0,-0.009972527623176575,0.7924975156784058,8.70862859301269e-05,-0.031562115997076035
322.0,446.0,1.4818,0.5157,9.3757,-0.0217,0.048,-0.1219,-1.7959844074644984,-0.0019914540462195873,3.061051368713379,-1.713633418083191,8.867373981047422e-05,2.0529685020446777,4.856889980822363,0.0,0.30474308133125305,-1.6247137228595179,-0.0,-0.00038243926246650517,0.8947689533233643,-0.0,0.005802216939628124,0.7924975156784058,8.306748350150883e-05,0.0253121480345726
325.0,470.0,1.6911,0.2303,9.3601,0.0255,0.0087,-0.1042,-1.796028276483053,-0.00228372635319829,3.0408878326416016,-1.7136616706848145,8.072020136751235e-05,2.0702295303344727,4.856894033938207,0.0,0.2934865951538086,-1.6247413794146937,-0.0,-0.007560804020613432,0.8947649598121643,-0.0,0.0015781358815729618,0.7925177216529846,9.383658471051604e-05,0.005671908613294363
325.0,470.0,1.6911,0.2303,9.3601,0.0255,0.0087,-0.1042,-1.7960158787169398,-0.0025994100142270327,3.000696897506714,-1.7135646343231201,9.449337085243315e-05,2.0658535957336426,4.856849702983656,0.0,0.308300256729126,-1.624737564717428,1.2967310558664735e-09,-0.004898254293948412,0.8947649598121643,-0.0,-0.005950329825282097,0.7925538420677185,0.0002050966868409887,-0.051423799246549606
325.0,470.0,1.6911,0.2303,9.3601,0.0255,0.0087,-0.1042,-1.7960483036436976,-0.002397136762738228,3.019284725189209,-1.7135729789733887,9.890062210615724e-05,2.0985026359558105,4.856946411519804,0.0,0.2991480827331543,-1.624817196522848,5.5281677673046925e-12,-0.0007301850710064173,0.8948087096214294,-0.0,0.0028071370907127857,0.7925534844398499,0.0019708555191755295,-0.07238856703042984
325.0,470.0,1.6911,0.2303,9.3601,0.0255,0.0087,-0.1042,-1.7960401974120082,-0.001750983064994216,3.042149066925049,-1.7136008739471436,0.00012281832459848374,2.06376051902771,4.856893929630079,0.0,0.29151564836502075,-1.6247413794146937,2.3567446618918443e-14,-0.006633286364376545,0.8946887850761414,-0.0,0.0035649817436933517,0.7925735712051392,0.004304378293454647,0.011927838437259197
325.0,470.0,1.6911,0.2303,9.3601,0.0255,0.0087,-0.1042,-1.7959839306273402,-0.0007976265042088926,3.0050439834594727,-1.7136049270629883,0.00010862671479117125,2.0589895248413086,4.85689805725173,0.0,0.29293179512023926,-1.6247413794146937,6.5600853016176505e-18,-0.02127033658325672,0.8947285413742065,-0.0,-0.001609086524695158,0.7926134467124939,0.007734792772680521,0.007328237872570753
325.0,470.0,1.6911,0.2303,9.3601,0.0255,0.0087,-0.1042,-1.796011587182516,-0.0004855224979110062,3.0363245010375977,-1.7135568857192993,9.693123865872622e-05,2.0754637718200684,4.856862026243963,0.0,0.292088121175766,-1.6247251669513147,2.7966672780036694e-20,0.014193214476108551,0.8947327136993408,-0.0,-0.0020801511127501726,0.7926577925682068,0.008016745559871197,-0.01742674596607685
325.0,470.0,1.6911,0.2303,9.3601,0.0255,0.0087,-0.1042,-1.7960039577879847,-0.00033814532798714936,3.0665283203125,-1.7136249542236328,8.344853995367885e-05,2.0532586574554443,4.856818112521925,0.0,0.30177947878837585,-1.6247213522540491,7.784626929710221e-24,8.150516077876091e-05,0.8947888612747192,-0.0,0.0086417431011796,0.7926172614097595,0.005776470992714167,0.0316883809864521
325.0,470.0,1.6911,0.2303,9.3601,0.0255,0.0087,-0.1042,-1.7960082493224085,-0.00028465205105021596,3.030797004699707,-1.7135404348373413,7.636722148163244e-05,2.0601696968078613,4.856882142811575,0.0,0.2900516986846924,-1.6247614065753382,3.318708245980851e-26,0.006077212747186422,0.8947532176971436,-0.0,0.0065319472923874855,0.7927018404006958,0.004133411683142185,0.022541027516126633
325.0,470.0,1.6911,0.2303,9.3601,0.0255,0.0087,-0.1042,-1.796044488946432,-0.00013454149302560836,3.0738954544067383,-1.713629126548767,7.039375486783683e-05,2.0428318977355957,4.856822076230802,0.0,0.2947388291358948,-1.624709431325094,1.4148172668372723e-28,0.006470419466495514,0.894792914390564,-0.0,-0.0025997040793299675,0.7926895618438721,0.0025847789365798235,0.03624860942363739
325.0,470.0,1.6911,0.2303,9.3601,0.0255,0.0087,-0.1042,-1.7960077724852503,-0.00011916335643036291,3.010713577270508,-1.7136250734329224,3.521464532241225e-05,2.0312681198120117,4.8568340865667246,0.0,0.2988487184047699,-1.62468129793276,3.93819465911779e-32,0.0025746829342097044,0.8947411775588989,-0.0,0.00028585735708475113,0.7926936149597168,0.0014257539296522737,0.0025674698408693075
325.0,470.0,1.6911,0.2303,9.3601,0.0255,0.0087,-0.1042,-1.7960645161070765,-0.0006247686105780303,3.0224294662475586,-1.7135889530181885,2.9440701837302186e-05,2.0529332160949707,4.856810229807653,-5.973095539957285e-05,0.2940918803215027,-1.6247175375567835,1.6789139262694664e-34,-0.009985904209315777,0.8947411775588989,-0.0,0.0036115983966737986,0.7927016019821167,0.0010208203457295895,0.023269474506378174
325.0,470.0,1.6911,0.2303,9.3601,0.0255,0.0087,-0.1042,-1.7960883579649867,-0.003679656656458974,3.0158772468566895,-1.713608980178833,2.0719827242832167e-10,2.077234983444214,4.856785955816068,-0.0008911796030588448,0.29272639751434326,-1.6247175375567835,4.673317766837086e-38,-0.0038683642633259296,0.8947407007217407,-0.0,-0.0006963026244193316,0.7927098274230957,0.0007160331588238478,0.002165192738175392
325.0,470.0,1.6911,0.2303,9.3601,0.0255,0.0087,-0.1042,-1.7961121998228968,-0.00498927803710103,2.995985507965088,-1.713612675666809,3.7294958923428725e-14,2.047096014022827,4.856862816005506,-0.0013076943578198552,0.2830623388290405,-1.6247571150409144,1.992310104638452e-40,-0.0021878331899642944,0.8947367072105408,-0.0,-0.014248812571167946,0.7927136421203613,0.000597200938500464,0.03423069417476654
325.0,470.0,1.6911,0.2303,9.3601,0.0255,0.0087,-0.1042,-1.796119829217428,-0.005922138225287199,3.004070281982422,-1.7136130332946777,9.006293395628495e-20,2.0617899894714355,4.856834429293432,-0.0009172061108984053,0.28567275404930115,-1.6247294584857386,5.605193857299268e-44,0.00041259138379245996,0.8947809934616089,-0.0,0.004748250357806683,0.7926854491233826,0.0003269815642852336,0.019599098712205887
325.0,470.0,1.6911,0.2303,9.3601,0.0255,0.0087,-0.1042,-1.796136041680807,-0.005496425088495016,3.0262584686279297,-1.713637113571167,1.621101271620127e-23,2.088265895843506,4.856802421599188,-0.0006521096802316606,0.29166287183761597,-1.6247294584857386,0.0,-0.010662013664841652,0.8947286009788513,-0.0,0.007043484132736921,0.7927300930023193,0.0002849165757652372,0.00968546885997057
325.0,470.0,1.6911,0.2303,9.3601,0.0255,0.0087,-0.1042,-1.796136041680807,-0.004214285407215357,3.015705108642578,-1.713620901107788,2.9179254215975748e-27,2.0603346824645996,4.856814342528143,-0.0005052908672951162,0.2886964678764343,-1.624669377003805,0.0,-0.006323694717139006,0.8947768807411194,-0.0,0.0038254642859101295,0.7926854491233826,0.0003034565015695989,0.0350026935338974
325.0,470.0,1.6911,0.2303,9.3601,0.0255,0.0087,-0.1042,-1.7962166271605433,-0.0027431161142885685,3.021049976348877,-1.7136372327804565,7.046447254074446e-33,2.067591667175293,4.856790172844686,-0.0004526530974544585,0.30587106943130493,-1.624697510396139,0.0,-0.01360669732093811,0.8947967886924744,-0.0,-0.0011057954980060458,0.7926656007766724,0.0002164015604648739,-0.00019110424909740686
325.0,470.0,1.6911,0.2303,9.3601,0.0255,0.0087,-0.1042,-1.7961884937682093,-0.002325751818716526,3.0381534099578857,-1.713633418083191,1.268335463599829e-36,2.0691182613372803,4.856798323779859,-0.0004505069518927485,0.2924749553203583,-1.624709431325094,0.0,0.0027145948261022568,0.8947649598121643,-0.0,0.0007272064685821533,0.7927297949790955,0.00017151351494248956,-0.029653580859303474
323.0,474.0,1.3394,0.0162,9.4738,-0.0596,0.0052,-0.115,-1.7962523899474085,-0.0025511751882731915,3.030893325805664,-1.7136292457580566,3.06323844301405e-42,2.0801944732666016,4.856794345169821,-0.0003839321725536138,0.2989111542701721,-1.6247337500201624,0.0,-0.004795615095645189,0.8948047161102295,-0.0,0.001961496891453862,0.7926738262176514,0.00010879220644710585,0.010642634704709053
323.0,474.0,1.3394,0.0162,9.4738,-0.0596,0.0052,-0.115,-1.7962647877135218,-0.0029926805291324854,3.050729751586914,-1.7136049270629883,0.0,2.0976152420043945,4.856758150249281,-0.000462069408968091,0.2986415922641754,-1.6247013250934046,0.0,0.0008294121362268925,0.8948126435279846,-0.0,-0.013258863240480423,0.7926413416862488,9.764043352333829e-05,-0.02607446350157261
323.0,474.0,1.3394,0.0162,9.4738,-0.0596,0.0052,-0.115,-1.7962609730162562,-0.0036667378153651953,3.03827166557312,-1.7135967016220093,-0.0,2.071356773376465,4.856754529267111,-0.0014701368054375052,0.30219340324401855,-1.62465745607485,0.0,-0.002507198369130492,0.8948245644569397,-0.0,0.003068136051297188,0.7926936745643616,-0.00015542120672762394,-0.01052098162472248
323.0,474.0,1.3394,0.0162,9.4738,-0.0596,0.0052,-0.115,-1.7962967358031214,-0.004156472627073526,2.993161201477051,-1.7136415243148804,-0.0,2.1107113361358643,4.856778743654051,-0.0034133975859731436,0.2895074486732483,-1.6246774832354944,0.0,-0.002974544884636998,0.8947888016700745,-0.0,0.00877244584262371,0.7926495671272278,-0.0011644132900983095,-0.06902966648340225
323.0,474.0,1.3394,0.0162,9.4738,-0.0596,0.0052,-0.115,-1.7963367901244105,-0.004529123194515705,2.9592385292053223,-1.7136049270629883,-0.0,2.064349412918091,4.85678285637454,-0.005714153405278921,0.2987155020236969,-1.62465745607485,0.0,-0.01197846233844757,0.89479660987854,-0.0,0.0024099356960505247,0.7926578521728516,-0.0012558321468532085,-0.044320523738861084
323.0,474.0,1.3394,0.0162,9.4738,-0.0596,0.0052,-0.115,-1.7963324985899867,-0.004355379845947027,2.999234199523926,-1.7135322093963623,-0.0,2.093899726867676,4.856690558582105,-0.011389649473130703,0.28822946548461914,-1.6246612707721155,0.0,0.007262152619659901,0.8947768807411194,-0.0,0.019694851711392403,0.7926536798477173,-0.0007291469955816865,-0.04197834059596062
323.0,474.0,1.3394,0.0162,9.4738,-0.0596,0.0052,-0.115,-1.7963644466795863,-0.004580221604555845,2.9691247940063477,-1.713633418083191,-0.0,2.0779783725738525,4.856650817185201,-0.015125911682844162,0.27407538890838623,-1.6246894041644495,0.0,-0.013604667037725449,0.8948689103126526,-0.0,0.014821683056652546,0.7926495671272278,-0.0005505383014678955,-0.05778045207262039
323.0,474.0,1.3394,0.0162,9.4738,-0.0596,0.0052,-0.115,-1.796396871606344,-0.004648128990083933,2.952200412750244,-1.7136008739471436,-0.0,2.030442476272583,4.856558951526441,-0.014764899387955666,0.27941155433654785,-1.6246774832354944,0.0,-0.00776414992287755,0.8947768807411194,0.00016345511539839208,0.021219663321971893,0.7926738262176514,-0.0004026671522296965,-0.020611505955457687
323.0,474.0,1.3394,0.0162,9.4738,-0.0596,0.0052,-0.115,-1.7963601551451625,-0.004881991073489189,2.948974132537842,-1.7135486602783203,-0.0,2.0881829261779785,4.85655930915431,-0.012945589609444141,0.28891950845718384,-1.6246536413775843,0.0,-0.0014926246367394924,0.89479660987854,0.0001831015251809731,0.024027271196246147,0.7927019000053406,-0.00034152501029893756,-0.027094943448901176
323.0,474.0,1.3394,0.0162,9.4738,-0.0596,0.0052,-0.115,-1.796441217462057,-0.004981582518666983,2.961672067642212,-1.7136008739471436,-0.0,2.067142963409424,4.856519672065534,-0.009711612947285175,0.26732712984085083,-1.6247137228595179,0.0,0.01834600418806076,0.8948529958724976,0.0001986693823710084,0.028477491810917854,0.7926614880561829,-0.00029650848591700196,-0.028608445078134537
323.0,474.0,1.3394,0.0162,9.4738,-0.0596,0.0052,-0.115,-1.7964850864806117,-0.004743917379528284,2.900068759918213,-1.713608980178833,-0.0,2.0749735832214355,4.856491389661588,-0.004237229470163584,0.2674206495285034,-1.624669377003805,8.978294499684125e-05,0.007395911030471325,0.8948529958724976,0.0002091503411065787,0.02198150008916855,0.7925933003425598,-0.00019829381199087948,-0.1256227046251297
323.0,474.0,1.3394,0.0162,9.4738,-0.0596,0.0052,-0.115,-1.7964846096434535,-0.005118172150105238,2.9033169746398926,-1.713612675666809,-0.0,2.1225547790527344,4.85648729184226,-0.0020284722559154034,0.28162825107574463,-1.6246174017535608,8.261403127107769e-05,0.001689499244093895,0.8948409557342529,0.0003990083932876587,0.03037864901125431,0.7926738262176514,-5.265066647552885e-05,-0.08989524841308594
323.0,474.0,1.3394,0.0162,9.4738,-0.0596,0.0052,-0.115,-1.7965012989439906,-0.0058777001686394215,2.9139833450317383,-1.7136332988739014,-0.0,2.0718483924865723,4.8564995405967615,-0.00017768061661627144,0.28603193163871765,-1.6246417204486292,7.261745486175641e-05,0.007163818459957838,0.8948331475257874,0.0004381710314191878,0.02746058627963066,0.7926291823387146,-4.4735963456332684e-05,-0.09794611483812332
323.0,474.0,1.3394,0.0162,9.4738,-0.0596,0.0052,-0.115,-1.796548982659811,-0.00633071968331933,2.8724653720855713,-1.7136012315750122,-0.0,2.068284511566162,4.85643549540595,-0.00024190580006688833,0.2764127552509308,-1.624653164540426,6.719471275573596e-05,0.01386411301791668,0.894852876663208,0.00043970838305540383,0.03149336203932762,0.7926495671272278,-4.069049464305863e-05,-0.10547448694705963
323.0,474.0,1.3394,0.0162,9.4738,-0.0596,0.0052,-0.115,-1.7965852222838343,-0.007327956613153219,2.887092113494873,-1.7135930061340332,-0.0,2.1190073490142822,4.856511729746618,-0.0001770719391060993,0.27700668573379517,-1.6247051397906702,6.0426646086853e-05,0.013596592471003532,0.8948331475257874,0.0005796210025437176,0.03771580755710602,0.7926255464553833,-3.5830322303809226e-05,-0.04957306385040283
323.0,474.0,1.3394,0.0162,9.4738,-0.0596,0.0052,-0.115,-1.7965761623778285,-0.008026164025068283,2.87567138671875,-1.7136249542236328,-0.0,2.09218430519104,4.85649539807395,-0.00014793366426602006,0.2784440219402313,-1.6246655623065394,5.662435796693899e-05,0.013069892302155495,0.8948846459388733,0.0005734014557674527,0.03883201628923416,0.7926092743873596,-3.31876399286557e-05,-0.022102221846580505
323.0,474.0,1.3394,0.0162,9.4738,-0.0596,0.0052,-0.115,-1.7966414890685023,-0.008105633780360222,2.8599205017089844,-1.7136049270629883,-0.0,2.1154937744140625,4.856475385814466,-0.00012703612446784973,0.27998587489128113,-1.6246336142169397,5.327234248397872e-05,0.0081565510481596,0.8948250412940979,0.0005579243879765272,0.05165736377239227,0.792694091796875,-3.090813697781414e-05,-0.12669560313224792
323.0,474.0,1.3394,0.0162,9.4738,-0.0596,0.0052,-0.115,-1.796685358087057,-0.007679758593440056,2.884316921234131,-1.7135930061340332,-0.0,2.09386944770813,4.856447028904714,-0.00010482891229912639,0.26659929752349854,-1.6247056166278284,4.8927769967122003e-05,0.0070348638109862804,0.8948488831520081,0.0005746879614889622,0.04790091514587402,0.7926977872848511,-2.8021109756082296e-05,-0.13986742496490479
323.0,474.0,1.3394,0.0162,9.4738,-0.0596,0.0052,-0.115,-1.7967053852477015,-0.007718686945736408,2.8459763526916504,-1.7135567665100098,-0.0,2.078995943069458,4.856467205076971,-0.00011679088493110612,0.2849065065383911,-1.6246894041644495,4.6404889872064814e-05,0.01242788415402174,0.8948847055435181,0.000510046083945781,0.060370199382305145,0.7926858067512512,-2.6378478651167825e-05,-0.1090974435210228
329.0,483.0,1.4722,0.8441,9.1968,-0.0325,0.0133,-0.111,-1.7967974148192347,-0.007943308912217617,2.8237991333007812,-1.7136497497558594,-0.0,2.121593952178955,4.856375235110082,-0.0001217654935317114,0.2813844084739685,-1.6246894041644495,4.30733707617037e-05,0.008479840122163296,0.8948568105697632,0.00046364121953956783,0.05699709802865982,0.7926738858222961,-2.4246526663773693e-05,-0.07430196553468704
329.0,483.0,1.4722,0.8441,9.1968,-0.0325,0.0133,-0.111,-1.7967807255186976,-0.007734047248959541,2.8715500831604004,-1.7135889530181885,0.0003940081223845482,2.0989303588867188,4.856463375478544,-0.0001476305042160675,0.2864740788936615,-1.6247175375567835,4.110597001272254e-05,-0.00849276501685381,0.8949363231658936,0.00040418890421278775,0.05907990038394928,0.7926858067512512,-9.245933938473172e-07,-0.1491335928440094
329.0,483.0,1.4722,0.8441,9.1968,-0.0325,0.0133,-0.111,-1.796805044213766,-0.007725834380835295,2.835319995880127,-1.7135769128799438,0.0004684663435909897,2.123408317565918,4.856471630721845,-0.00010760241275420412,0.2780792713165283,-1.6246493498431605,3.9310441934503615e-05,-0.0030838698148727417,0.8948767185211182,0.00040889708907343447,0.054434336721897125,0.7926415205001831,-1.664235416143356e-10,-0.12377293407917023
329.0,483.0,1.4722,0.8441,9.1968,-0.0325,0.0133,-0.111,-1.796889444390768,-0.008850259706377983,2.7961978912353516,-1.7135649919509888,0.0006272323080338538,2.109525203704834,4.856447684555807,-0.00010059621126856655,0.2748066782951355,-1.624641243611471,3.689323057187721e-05,0.005286748055368662,0.894868791103363,0.0003497037978377193,0.05932330712676048,0.7926977276802063,-4.018933371403036e-16,-0.1315525621175766
329.0,483.0,1.4722,0.8441,9.1968,-0.0325,0.0133,-0.111,-1.7968532047667445,-0.009522928856313229,2.859025478363037,-1.7135412693023682,0.0006626863032579422,2.086310863494873,4.856435525208273,-0.0001173413111246191,0.2786756157875061,-1.6246774832354944,3.5440392821328714e-05,0.0161830335855484,0.8948330283164978,0.00031873403349891305,0.04962225630879402,0.7926496267318726,-7.233937441081164e-20,-0.15889233350753784
329.0,483.0,1.4722,0.8441,9.1968,-0.0325,0.0133,-0.111,-1.7969495258727015,-0.010735049843788147,2.8869881629943848,-1.7135567665100098,0.0006435154937207699,2.091710090637207,4.856459367066183,-0.0001136170540121384,0.2779596447944641,-1.624709431325094,4.800383612746373e-05,0.004829089157283306,0.894868791103363,0.00022842218459118158,0.07104232907295227,0.7926858067512512,-1.7469106576775206e-25,-0.12656854093074799
329.0,483.0,1.4722,0.8441,9.1968,-0.0325,0.0133,-0.111,-1.797013898889059,-0.011363877914845943,2.809943914413452,-1.7135330438613892,0.0005916814552620053,2.082836151123047,4.856435525208273,-0.0001068726196535863,0.27499428391456604,-1.6246932188617151,-2.28417065955e-05,0.010639769956469536,0.8948410153388977,0.00020727404626086354,0.0672445222735405,0.7926332950592041,-3.1443773477942197e-29,-0.24175190925598145
329.0,483.0,1.4722,0.8441,9.1968,-0.0325,0.0133,-0.111,-1.797037740746969,-0.01285028737038374,2.8041038513183594,-1.7135648727416992,0.0004374345007818192,2.1076712608337402,4.856483611255445,-0.00012263671669643372,0.2676353454589844,-1.6247051397906702,-2.2291214918368496e-05,0.006535142660140991,0.8948371410369873,0.0001821039622882381,0.05969790369272232,0.7926373481750488,-7.593301483537753e-35,-0.1104467511177063
329.0,483.0,1.4722,0.8441,9.1968,-0.0325,0.0133,-0.111,-1.7971216640868128,-0.013291285373270512,2.788102626800537,-1.7135567665100098,0.00043943722266703844,2.106388568878174,4.856443691044607,-0.00011632322275545448,0.2679886817932129,-1.6246455351458948,-2.123935155395884e-05,0.011801648885011673,0.8948885798454285,0.00016846675134729594,0.07627412676811218,0.7926817536354065,-1.366767387307232e-38,-0.15522752702236176
329.0,483.0,1.4722,0.8441,9.1968,-0.0325,0.0133,-0.111,-1.7971860371031703,-0.013845774345099926,2.801804542541504,-1.7135567665100098,0.0004405959916766733,2.101560592651367,4.856467532902517,-0.00011060465476475656,0.28273695707321167,-1.6246851126300257,-2.028203380177729e-05,0.013321895152330399,0.8948449492454529,0.00018793222261592746,0.06431640684604645,0.7926936149597168,-2.4606801033543788e-42,-0.07571563869714737
329.0,483.0,1.4722,0.8441,9.1968,-0.0325,0.0133,-0.111,-1.7972780666747035,-0.014683149755001068,2.7593636512756348,-1.7135329246520996,0.0004955889307893813,2.069941759109497,4.8564436612422845,-0.00010300896246917546,0.2619355022907257,-1.6247013250934046,-5.645578227131409e-09,0.013681300915777683,0.8948529362678528,0.0001702814333839342,0.06436220556497574,0.7926614880561829,0.0,-0.12677142024040222
329.0,483.0,1.4722,0.8441,9.1968,-0.0325,0.0133,-0.111,-1.797281881371969,-0.015161234885454178,2.7834954261779785,-1.713545322418213,0.0005130115896463394,2.0899815559387207,4.856447684555807,-9.84992875601165e-05,0.28609615564346313,-1.62468129793276,-2.4067988921294692e-11,0.01808144524693489,0.8948045969009399,0.00016017866437323391,0.06830473989248276,0.7926854491233826,0.0,-0.16872712969779968
329.0,483.0,1.4722,0.8441,9.1968,-0.0325,0.0133,-0.111,-1.7973691425719203,-0.01615079678595066,2.740098476409912,-1.7134885787963867,0.0008806666010059416,2.0834789276123047,4.856463375478544,-9.242961823474616e-05,0.2745847702026367,-1.6246455351458948,-6.699413125762967e-15,0.011300569400191307,0.8948489427566528,0.00016995749319903553,0.07363796979188919,0.7926496267318726,0.0,-0.15286535024642944
329.0,483.0,1.4722,0.8441,9.1968,-0.0325,0.0133,-0.111,-1.79754700283193,-0.016909068450331688,2.7096593379974365,-1.713545322418213,0.0011881754035130143,2.0548760890960693,4.856471287995138,-8.878236985765398e-05,0.2732393443584442,-1.6246932188617151,-2.8560647344769624e-17,0.00878367479890585,0.8948647975921631,0.00016273015353363007,0.059669721871614456,0.7926936745643616,0.0,-0.15017163753509521
329.0,483.0,1.4722,0.8441,9.1968,-0.0325,0.0133,-0.111,-1.797558446923727,-0.01682686246931553,2.7400803565979004,-1.7135370969772339,0.0012953446712344885,2.122948169708252,4.856479409127989,-8.541213173884898e-05,0.26500168442726135,-1.6246455351458948,-1.2175851755066509e-19,0.0046332296915352345,0.8949084877967834,0.00015474221436306834,0.060905758291482925,0.7926656007766724,0.0,-0.1412198692560196
329.0,483.0,1.4722,0.8441,9.1968,-0.0325,0.0133,-0.111,-1.7976628742613734,-0.01657300442457199,2.7989120483398438,-1.7135090827941895,0.0019671174231916666,2.081263542175293,4.856475385814466,-8.081060514086857e-05,0.27436280250549316,-1.6246932188617151,-3.389193520064982e-23,0.015391101129353046,0.8948766589164734,0.00014412193559110165,0.06503589451313019,0.7926696538925171,0.0,-0.11122718453407288
329.0,483.0,1.4722,0.8441,9.1968,-0.0325,0.0133,-0.111,-1.7977148495116175,-0.016778407618403435,2.7491989135742188,-1.7134408950805664,0.0021081657614558935,2.108548641204834,4.856439593225279,-0.00012803960999008268,0.274333119392395,-1.6246970335589808,-1.444866417386809e-25,0.02893778681755066,0.8948647975921631,0.00015733158215880394,0.06333278864622116,0.7926656007766724,0.0,-0.16497275233268738
329.0,483.0,1.4722,0.8441,9.1968,-0.0325,0.0133,-0.111,-1.7977782688536585,-0.017673740163445473,2.7301464080810547,-1.7134604454040527,0.002267558593302965,2.1434364318847656,4.856399374991216,-0.0001436700695194304,0.2665736675262451,-1.624669377003805,-4.0218385536208896e-29,0.022055957466363907,0.8948727250099182,0.00014780387573409826,0.07824905961751938,0.7926977872848511,0.0,-0.15288090705871582
329.0,483.0,1.4722,0.8441,9.1968,-0.0325,0.0133,-0.111,-1.7978788814940394,-0.018696632236242294,2.725395679473877,-1.713501214981079,0.0023118979297578335,2.11922550201416,4.856427329569616,-0.00017173829837702215,0.26223665475845337,-1.6246970335589808,-1.7145730038240764e-31,0.016955584287643433,0.8948807120323181,0.00014197477139532566,0.0738285630941391,0.7926895618438721,0.0,-0.17158302664756775
327.0,477.0,1.5577,0.4116,9.3027,-0.038,-0.0029,-0.1147,-1.7979995212950648,-0.019420765340328217,2.7288942337036133,-1.7134572267532349,0.0023624578025192022,2.135772943496704,4.8564273742731,-0.0006825941381976008,0.2601781487464905,-1.6246655623065394,-4.772576801918382e-35,0.026332620531320572,0.8949124813079834,0.00013404502533376217,0.08515381813049316,0.7926209568977356,0.0,-0.2046140432357788
327.0,477.0,1.5577,0.4116,9.3027,-0.038,-0.0029,-0.1147,-1.7980710468687953,-0.018134644255042076,2.720243453979492,-1.7134242057800293,0.0026442287489771843,2.1511287689208984,4.856395664602079,-0.0012548014055937529,0.2625138759613037,-1.624709431325094,-2.034624385690467e-37,0.02002866193652153,0.894852876663208,0.00012923302710987628,0.07565172016620636,0.7926858067512512,0.0,-0.23180344700813293
327.0,477.0,1.5577,0.4116,9.3027,-0.038,-0.0029,-0.1147,-1.7981754742064417,-0.02062702365219593,2.688784122467041,-1.7134655714035034,0.002924454165622592,2.1048431396484375,4.856403502612867,-0.0015064053004607558,0.2570575475692749,-1.6246374289142054,-8.673925390293472e-40,0.023833297193050385,0.8948290944099426,0.0001247545296791941,0.077745221555233,0.7926614880561829,0.0,-0.19040372967720032
327.0,477.0,1.5577,0.4116,9.3027,-0.038,-0.0029,-0.1147,-1.7982756100096644,-0.02229660376906395,2.6964833736419678,-1.7134697437286377,0.0024627582170069218,2.0995891094207764,4.856375190406599,-0.0017525574658066034,0.2721651494503021,-1.6246655623065394,-2.4102333586386854e-43,0.010917546227574348,0.8948410153388977,0.00011859009828185663,0.08186182379722595,0.7926858067512512,0.0,-0.1950502097606659
327.0,477.0,1.5577,0.4116,9.3027,-0.038,-0.0029,-0.1147,-1.7984243832030238,-0.02342364750802517,2.7290515899658203,-1.7134087085723877,0.0024416917003691196,2.118046522140503,4.856379362731733,-0.0015518349828198552,0.2658573389053345,-1.62468129793276,-1.401298464324817e-45,0.01587318629026413,0.8949164748191833,0.00011480802641017362,0.06413153558969498,0.7926614880561829,0.0,-0.2090291678905487
327.0,477.0,1.5577,0.4116,9.3027,-0.038,-0.0029,-0.1147,-1.7984997234740199,-0.023728279396891594,2.663458824157715,-1.7134654521942139,0.0028953554574400187,2.0964322090148926,4.856403934746542,-0.001172002055682242,0.25777289271354675,-1.6246731917010706,-0.0,0.021578270941972733,0.8948846459388733,0.00010956667392747477,0.07346230745315552,0.7926895618438721,0.0,-0.19854240119457245
327.0,477.0,1.5577,0.4116,9.3027,-0.038,-0.0029,-0.1147,-1.7986122570433558,-0.024637656286358833,2.6869068145751953,-1.7134013175964355,0.003618296468630433,2.096109628677368,4.856391626387396,-0.000796964974142611,0.258176326751709,-1.6246536413775843,-0.0,0.02303181402385235,0.8949044942855835,0.00010633050987962633,0.08765511959791183,0.7926332354545593,0.0,-0.20606720447540283
327.0,477.0,1.5577,0.4116,9.3027,-0.038,-0.0029,-0.1147,-1.7987643680968226,-0.024604110047221184,2.6817145347595215,-1.7133573293685913,0.0037969746626913548,2.1015169620513916,4.856431785016813,-0.0005180342704989016,0.25181737542152405,-1.624697510396139,-0.0,0.018278447911143303,0.894852876663208,0.00010181942343479022,0.07785358279943466,0.7927060127258301,0.0,-0.19770754873752594
327.0,477.0,1.5577,0.4116,9.3027,-0.038,-0.0029,-0.1147,-1.7988201580443324,-0.025924185290932655,2.62768816947937,-1.7133206129074097,0.0038617353420704603,2.090226888656616,4.856375309615888,-0.0004209569888189435,0.26769009232521057,-1.6246894041644495,-0.0,0.023200083523988724,0.8948767185211182,9.901890007313341e-05,0.06322173029184341,0.7926735877990723,0.0,-0.20819628238677979
327.0,477.0,1.5577,0.4116,9.3027,-0.038,-0.0029,-0.1147,-1.7989117107787074,-0.02735591121017933,2.6710057258605957,-1.713365077972412,0.004121901001781225,2.1069066524505615,4.856375279813566,-0.0004251032369211316,0.2623528242111206,-1.624669377003805,-0.0,0.02945191040635109,0.8948251008987427,9.640250937081873e-05,0.0675722062587738,0.7926895618438721,0.0,-0.22722211480140686
327.0,477.0,1.5577,0.4116,9.3027,-0.038,-0.0029,-0.1147,-1.799141069451803,-0.029493747279047966,2.6236562728881836,-1.713369607925415,0.003973846323788166,2.0813357830047607,4.856451976090231,-0.0003440759901423007,0.2559046447277069,-1.624669377003805,-0.0,0.02967122383415699,0.8948330283164978,7.498369086533785e-05,0.07104217261075974,0.7927097678184509,0.0,-0.231550395488739
327.0,477.0,1.5577,0.4116,9.3027,-0.038,-0.0029,-0.1147,-1.7992974720396937,-0.031004056334495544,2.680589437484741,-1.7133132219314575,0.004345259629189968,2.089721918106079,4.856419938593664,-0.00030516835977323353,0.26723596453666687,-1.6246851126300257,-0.0,0.028816785663366318,0.8948965668678284,7.256078970385715e-05,0.07407630980014801,0.7926656007766724,0.0,-0.23535940051078796
327.0,477.0,1.5577,0.4116,9.3027,-0.038,-0.0029,-0.1147,-1.7994491062560023,-0.03302840515971184,2.6108522415161133,-1.713236689567566,0.005250535439699888,2.1255059242248535,4.8564116833503626,-0.0002609167422633618,0.25969305634498596,-1.62465745607485,-0.0,0.021052079275250435,0.8948529362678528,6.921269232407212e-05,0.06513483822345734,0.7926413416862488,0.0,-0.20771121978759766
327.0,477.0,1.5577,0.4116,9.3027,-0.038,-0.0029,-0.1147,-1.7995816669859828,-0.03432249277830124,2.6364359855651855,-1.7132329940795898,0.005403326358646154,2.100804328918457,4.856455969601431,-0.00025730597553774714,0.26375165581703186,-1.6246731917010706,-0.0,0.024061966687440872,0.8948806524276733,6.71471789246425e-05,0.07723996043205261,0.7926977276802063,0.0,-0.2530776262283325
327.0,477.0,1.5577,0.4116,9.3027,-0.038,-0.0029,-0.1147,-1.799685617486471,-0.03586616367101669,2.6243748664855957,-1.7132086753845215,0.006403541658073664,2.090545654296875,4.856427687197485,-0.00025500429910607636,0.25325092673301697,-1.6246612707721155,-0.0,0.025497915223240852,0.8947967290878296,7.162580004660413e-05,0.0736827701330185,0.7926653623580933,0.0,-0.17293885350227356
327.0,477.0,1.5577,0.4116,9.3027,-0.038,-0.0029,-0.1147,-1.7999702892699183,-0.03886040672659874,2.6184091567993164,-1.7131848335266113,0.007025650702416897,2.1194419860839844,4.856443705945768,-0.00022745609749108553,0.2730269730091095,-1.6246731917010706,-0.0,0.03377119451761246,0.8948846459388733,7.49804312363267e-05,0.07029152661561966,0.7926533222198486,0.0,-0.2548401355743408
327.0,477.0,1.5577,0.4116,9.3027,-0.038,-0.0029,-0.1147,-1.8001023731627406,-0.040928252041339874,2.6240315437316895,-1.7132095098495483,0.007882234640419483,2.123645782470703,4.856427687197485,-0.00021213595755398273,0.2543877065181732,-1.6246536413775843,-0.0,0.03429087996482849,0.8948290348052979,7.295624527614564e-05,0.08286422491073608,0.7926694750785828,0.0,-0.2547617256641388
327.0,477.0,1.5577,0.4116,9.3027,-0.038,-0.0029,-0.1147,-1.8003550968565882,-0.045305781066417694,2.6507911682128906,-1.7131173610687256,0.008980104699730873,2.0545036792755127,4.856443705945768,-0.0001926713448483497,0.2591593861579895,-1.62465745607485,-0.0,0.01787562295794487,0.8947967290878296,8.177423296729103e-05,0.09307566285133362,0.7926735281944275,0.0,-0.27190929651260376
327.0,477.0,1.5577,0.4116,9.3027,-0.038,-0.0029,-0.1147,-1.8005391559996546,-0.045243460685014725,2.6018266677856445,-1.7130166292190552,0.009767967276275158,2.1266584396362305,4.856411698251524,-0.0001815644936868921,0.2526107728481293,-1.62465745607485,-0.0,0.026240356266498566,0.8949005603790283,7.972963067004457e-05,0.08161836862564087,0.7927057147026062,0.0,-0.22777549922466278
348.0,545.0,1.3262,0.6138,9.4367,-0.0319,-0.0174,-0.1078,-1.800807615319723,-0.046122267842292786,2.565865993499756,-1.7129931449890137,0.011614467017352581,2.1296825408935547,4.856443705945768,-0.00016711530042812228,0.2503368854522705,-1.6246894041644495,-0.0,0.023207753896713257,0.8948409557342529,8.222274482250214e-05,0.09262795746326447,0.7926532030105591,0.0,-0.2639661431312561
348.0,545.0,1.3262,0.6138,9.4367,-0.0319,-0.0174,-0.1078,-1.8010159931578578,-0.046472713351249695,2.574519634246826,-1.712924838066101,0.011897612363100052,2.0866541862487793,4.856455939799108,-0.0001586954458616674,0.2610342502593994,-1.6246336142169397,-0.0,0.024278223514556885,0.8948765993118286,8.56733022374101e-05,0.08564160764217377,0.7926895022392273,0.0,-0.26830634474754333
348.0,545.0,1.3262,0.6138,9.4367,-0.0319,-0.0174,-0.1078,-1.8011800251402796,-0.04626164212822914,2.588779926300049,-1.7128244638442993,0.012712545692920685,2.129431962966919,4.856415349036016,-0.00015108358638826758,0.24921923875808716,-1.62465745607485,-0.0,0.017899397760629654,0.8948846459388733,8.370436262339354e-05,0.0824139416217804,0.7926735281944275,0.0,-0.2724197506904602
348.0,545.0,1.3262,0.6138,9.4367,-0.0319,-0.0174,-0.1078,-1.8014117679991664,-0.04603289067745209,2.6268486976623535,-1.7127685546875,0.013392182998359203,2.1709938049316406,4.85641576626853,-0.00014094302605371922,0.2627447545528412,-1.6246655623065394,-0.0,0.03413793444633484,0.8948925733566284,8.088352478807792e-05,0.08082333207130432,0.7926895022392273,0.0,-0.26396679878234863
348.0,545.0,1.3262,0.6138,9.4367,-0.0319,-0.0174,-0.1078,-1.8016888103880824,-0.046643175184726715,2.543518543243408,-1.7127445936203003,0.012783283367753029,2.0892128944396973,4.856415363937177,-0.0001349064987152815,0.2492683380842209,-1.6247013250934046,-0.0,0.03469123691320419,0.8949204087257385,0.0001054884705808945,0.09665107727050781,0.7927016019821167,0.0,-0.22492164373397827
