ramyac6/ROB537/final_project/csv/all/bad_142.csv
tof_0,tof_1,accelx,accely,accelz,gyrox,gyroy,gyroz,shoulder_lift_joint_position,shoulder_lift_joint_velocity,shoulder_lift_joint_effort,elbow_joint_position,elbow_joint_velocity,elbow_joint_effort,wrist_1_joint_position,wrist_1_joint_velocity,wrist_1_joint_effort,wrist_2_joint_position,wrist_2_joint_velocity,wrist_2_joint_effort,wrist_3_joint_position,wrist_3_joint_velocity,wrist_3_joint_effort,shoulder_pan_joint_position,shoulder_pan_joint_velocity,shoulder_pan_joint_effort
917.0,1022.0,1.4441,0.2435,9.5946,-0.0301,0.015,-0.1127,-1.5512436398169775,0.0,1.9563946723937988,-2.0148427486419678,-0.0,2.052901268005371,4.865408170014181,0.0,0.3060709238052368,-1.5973976294146937,-0.0,-0.011518368497490883,0.763593316078186,-0.0,0.007936570793390274,0.7730101346969604,0.0,-0.030962875112891197
917.0,1022.0,1.4441,0.2435,9.5946,-0.0301,0.015,-0.1127,-1.551336308275797,0.0,1.9407787322998047,-2.0148346424102783,-0.0,2.0803260803222656,4.865436109691419,0.0,0.29940328001976013,-1.5974262396441858,-0.0,-0.01589919626712799,0.7635048031806946,-0.0,0.00679051922634244,0.7729663848876953,0.0,0.009543471038341522
917.0,1022.0,1.4441,0.2435,9.5946,-0.0301,0.015,-0.1127,-1.551295857211091,0.0,1.9526660442352295,-2.0148510932922363,-0.0,2.04081654548645,4.865432011872091,0.0,0.3050873875617981,-1.597462002431051,-0.0,-0.007007545791566372,0.7636297345161438,-0.0,-0.012130272574722767,0.7730224132537842,0.0,-0.027193188667297363
917.0,1022.0,1.4441,0.2435,9.5946,-0.0301,0.015,-0.1127,-1.5513079495034,0.0,1.9437885284423828,-2.014838695526123,-0.0,2.064350128173828,4.865411910205641,0.0,0.2913948893547058,-1.5973976294146937,-0.0,-0.0041921609081327915,0.7635368704795837,-0.0,-0.004514666739851236,0.7730305194854736,0.0,0.01158780325204134
917.0,1022.0,1.4441,0.2435,9.5946,-0.0301,0.015,-0.1127,-1.5513079588166256,0.0,1.9532501697540283,-2.0148026943206787,-0.0,2.0425355434417725,4.865423875838079,0.0,0.2885441780090332,-1.597405735646383,-0.0,-0.005741958040744066,0.7635891437530518,-0.0,-0.0008123900042846799,0.773002564907074,0.0,-0.013631299138069153
917.0,1022.0,1.4441,0.2435,9.5946,-0.0301,0.015,-0.1127,-1.5513041292181988,0.0,1.9370704889297485,-2.0148141384124756,-0.0,2.0134994983673096,4.865415993123808,0.0,0.30669695138931274,-1.5974696318255823,-0.0,-0.004372522700577974,0.763536810874939,-0.0,-0.0005764626548625529,0.7730063199996948,0.0,0.019895009696483612
917.0,1022.0,1.4441,0.2435,9.5946,-0.0301,0.015,-0.1127,-1.5513000388494511,0.0,1.9148266315460205,-2.0148262977600098,-0.0,2.0166425704956055,4.865452128439703,0.0,0.28941813111305237,-1.5974739233600062,-0.0,-0.01416710764169693,0.7635048627853394,-0.0,-0.013235989958047867,0.773042619228363,0.0,0.018944110721349716
884.0,1027.0,1.398,0.2387,9.5653,-0.029,0.0258,-0.1173,-1.5512876503965636,0.0,1.944705605506897,-2.0148346424102783,-0.0,2.055330276489258,4.8653918383415125,0.0,0.2948986291885376,-1.5974577108966272,-0.0,-0.004118241369724274,0.7635654211044312,-0.0,-0.0048643117770552635,0.7729742527008057,0.0,-0.02395521104335785
884.0,1027.0,1.398,0.2387,9.5653,-0.029,0.0258,-0.1173,-1.5512917798808594,0.0,1.9591639041900635,-2.0148632526397705,-0.0,2.055879831314087,4.865468087583341,0.0,0.2898884415626526,-1.597462002431051,-0.0,-0.002834968501701951,0.7635814547538757,-0.0,0.002381401602178812,0.7729619741439819,0.0,-0.057211004197597504
884.0,1027.0,1.398,0.2387,9.5653,-0.029,0.0258,-0.1173,-1.5512310818633814,0.0,1.9375249147415161,-2.0148305892944336,-0.0,1.9886375665664673,4.865436064987936,0.0,0.2978508770465851,-1.5974414984332483,-0.0,-0.008708947338163853,0.7635728120803833,-0.0,0.007539412472397089,0.7729943990707397,0.0,0.01579868048429489
884.0,1027.0,1.398,0.2387,9.5653,-0.029,0.0258,-0.1173,-1.5512917798808594,0.0,1.9612938165664673,-2.0148510932922363,-0.0,2.0307955741882324,4.865452083736219,0.0,0.30008429288864136,-1.5974138418780726,-0.0,-0.0076421815901994705,0.7635171413421631,-0.0,0.009414466097950935,0.7730627655982971,0.0,0.011144413612782955
884.0,1027.0,1.398,0.2387,9.5653,-0.029,0.0258,-0.1173,-1.5512757704458018,0.0,1.9428211450576782,-2.014838695526123,-0.0,2.032271146774292,4.865419778018751,0.0,0.3025906980037689,-1.5975025335894983,-0.0,-0.01512874010950327,0.7635572552680969,-0.0,-0.011326943524181843,0.7729783058166504,0.0,0.03024960681796074
884.0,1027.0,1.398,0.2387,9.5653,-0.029,0.0258,-0.1173,-1.5512757704458018,0.0,1.9347941875457764,-2.0148181915283203,-0.0,2.0053818225860596,4.86541602292613,0.0,0.28589916229248047,-1.5973976294146937,-0.0,-0.009475215338170528,0.7635208368301392,-0.0,-0.00148196320515126,0.7730344533920288,0.0,-0.006262400187551975
884.0,1027.0,1.398,0.2387,9.5653,-0.029,0.0258,-0.1173,-1.5512516901693125,0.0,1.9581751823425293,-2.0148026943206787,-0.0,2.0319318771362305,4.865448000818052,0.0,0.30593419075012207,-1.5974538961993616,-0.0,-0.003871618304401636,0.7635650634765625,-0.0,-0.004137431271374226,0.7729622721672058,0.0,0.010931004770100117
884.0,1027.0,1.398,0.2387,9.5653,-0.029,0.0258,-0.1173,-1.5513157409480591,0.0,1.9361463785171509,-2.0148746967315674,-0.0,2.08162260055542,4.865424158960142,0.0,0.2818083167076111,-1.597421948109762,-0.0,0.0012479503639042377,0.7635207176208496,-0.0,-0.012167391367256641,0.7730101943016052,0.0,-0.05776204168796539
884.0,1027.0,1.398,0.2387,9.5653,-0.029,0.0258,-0.1173,-1.5513000388494511,0.0,2.0047075748443604,-2.0148468017578125,-0.0,2.0416512489318848,4.8653999892766855,0.0,0.3012152314186096,-1.5974376837359827,-0.0,-0.00616647582501173,0.7636011242866516,-0.0,-0.0032487199641764164,0.7730022668838501,0.0,-0.0004508332349359989
884.0,1027.0,1.398,0.2387,9.5653,-0.029,0.0258,-0.1173,-1.551251220782735,0.0,1.9113376140594482,-2.0148181915283203,-0.0,2.058137893676758,4.865416037827291,0.0,0.29668280482292175,-1.5974376837359827,-0.0,-0.010347390547394753,0.7635887861251831,-0.0,-0.002078027231618762,0.7730385661125183,0.0,0.01786930300295353
884.0,1027.0,1.398,0.2387,9.5653,-0.029,0.0258,-0.1173,-1.5512675505927582,0.0,1.9501667022705078,-2.0148346424102783,-0.0,2.0187294483184814,4.865407871990957,0.0,0.289485901594162,-1.597405735646383,-0.0,-0.012018004432320595,0.763545036315918,-0.0,-0.006698488257825375,0.7729501128196716,0.0,0.007716901134699583
884.0,1027.0,1.398,0.2387,9.5653,-0.029,0.0258,-0.1173,-1.5513120380095025,0.0,1.9348335266113281,-2.0148305892944336,-0.0,2.0145103931427,4.865427943855085,0.0,0.2890782356262207,-1.5974143187152308,-0.0,0.00022153137251734734,0.7634966373443604,-0.0,-0.0005049750907346606,0.7730103731155396,0.0,0.003446809947490692
884.0,1027.0,1.398,0.2387,9.5653,-0.029,0.0258,-0.1173,-1.551295868386962,0.0,1.9532041549682617,-2.014822244644165,-0.0,2.10819935798645,4.865424144058981,0.0,0.28883880376815796,-1.5974300543414515,-0.0,-0.020697951316833496,0.7635773420333862,-0.0,0.0034727919846773148,0.7729862928390503,0.0,0.028459010645747185
884.0,1027.0,1.398,0.2387,9.5653,-0.029,0.0258,-0.1173,-1.5512917798808594,0.0,1.9310572147369385,-2.0148191452026367,-0.0,2.0221831798553467,4.8653877703245065,0.0,0.290810227394104,-1.5974143187152308,-0.0,-0.01037505641579628,0.7635084986686707,-0.0,0.005654242355376482,0.7730103731155396,0.0,0.009678416885435581
900.0,1031.0,1.5266,0.3123,9.3506,-0.0396,0.0301,-0.1286,-1.551271640961506,0.0,1.917457938194275,-2.0148706436157227,-0.0,2.0261192321777344,4.865452128439703,0.0,0.2875147759914398,-1.5974095503436487,-0.0,-0.02037438191473484,0.7635970115661621,-0.0,-0.0021113755647093058,0.7730183601379395,0.0,-0.009312985464930534
900.0,1031.0,1.5266,0.3123,9.3506,-0.0396,0.0301,-0.1286,-1.551271640961506,0.0,1.972191333770752,-2.014814853668213,-0.0,2.014054775238037,4.86540004888133,0.0,0.29609519243240356,-1.5974701086627405,-0.0,-0.004866284318268299,0.7635571956634521,-0.0,-0.0026406580582261086,0.7730546593666077,0.0,-0.06669065356254578
900.0,1031.0,1.5266,0.3123,9.3506,-0.0396,0.0301,-0.1286,-1.5513079495034,0.0,1.8844283819198608,-2.0148675441741943,-0.0,2.01352858543396,4.865448015719213,0.0,0.2962488532066345,-1.597421948109762,-0.0,-0.0015372649068012834,0.7635532021522522,-0.0,0.0029903685208410025,0.7730264663696289,0.0,0.0030166255310177803
900.0,1031.0,1.5266,0.3123,9.3506,-0.0396,0.0301,-0.1286,-1.5512917798808594,0.0,1.967749834060669,-2.0148470401763916,-0.0,2.002624034881592,4.865423860936918,0.0,0.30673015117645264,-1.597405735646383,-0.0,-0.013678418472409248,0.7635490298271179,-0.0,-0.023766912519931793,0.7730103731155396,0.0,0.005947235971689224
900.0,1031.0,1.5266,0.3123,9.3506,-0.0396,0.0301,-0.1286,-1.551307925289013,0.0,1.937517762184143,-2.0148746967315674,-0.0,2.01926326751709,4.865452113538542,0.0,0.2926352322101593,-1.5974300543414515,-0.0,-0.011585433967411518,0.7635769844055176,-0.0,-0.00645693764090538,0.7729783058166504,0.0,0.023125367239117622
900.0,1031.0,1.5266,0.3123,9.3506,-0.0396,0.0301,-0.1286,-1.551336308275797,0.0,1.9655861854553223,-2.0148262977600098,-0.0,2.012237310409546,4.865424173861303,0.0,0.2876109480857849,-1.597393814717428,-0.0,-0.005975321866571903,0.7635245323181152,-0.0,-0.011430265381932259,0.7729783058166504,0.0,-0.04789108410477638
900.0,1031.0,1.5266,0.3123,9.3506,-0.0396,0.0301,-0.1286,-1.5513280493072052,0.0,1.9418824911117554,-2.0148746967315674,-0.0,2.004917621612549,4.865471857577123,0.0,0.2833026647567749,-1.5973976294146937,-0.0,-0.010619591921567917,0.7635973691940308,-0.0,-0.0033928253687918186,0.7729663848876953,0.0,0.0363057479262352
900.0,1031.0,1.5266,0.3123,9.3506,-0.0396,0.0301,-0.1286,-1.5512634211084624,0.0,1.968711495399475,-2.014838695526123,-0.0,2.0176305770874023,4.865383732109823,0.0,0.2955772280693054,-1.597405735646383,-0.0,-0.0025808908976614475,0.763545036315918,-0.0,-0.006433927919715643,0.7729260325431824,0.0,0.017510440200567245
900.0,1031.0,1.5266,0.3123,9.3506,-0.0396,0.0301,-0.1286,-1.5512917295894404,0.0,1.9469807147979736,-2.0148427486419678,-0.0,2.035299062728882,4.865464004665174,0.0,0.29769167304039,-1.5974777380572718,-0.0,-0.0008096580859273672,0.763560950756073,-0.0,0.003893693443387747,0.7730022668838501,0.0,0.021511992439627647
900.0,1031.0,1.5266,0.3123,9.3506,-0.0396,0.0301,-0.1286,-1.5512798589519043,0.0,1.9785385131835938,-2.0148470401763916,-0.0,1.997161626815796,4.865484076529302,0.0,0.2863483130931854,-1.5973895231830042,-0.0,-0.018396969884634018,0.763573169708252,-0.0,-0.010937752202153206,0.7729583382606506,0.0,0.0004508579149842262
900.0,1031.0,1.5266,0.3123,9.3506,-0.0396,0.0301,-0.1286,-1.5512798589519043,0.0,1.9296629428863525,-2.014794111251831,-0.0,2.0462050437927246,4.865384134441175,0.0,0.2991904020309448,-1.5974414984332483,-0.0,-0.007818829268217087,0.7635408639907837,-0.0,-0.00930857751518488,0.7730507254600525,0.0,-0.06407060474157333
900.0,1031.0,1.5266,0.3123,9.3506,-0.0396,0.0301,-0.1286,-1.5512635198286553,0.0,1.9489680528640747,-2.014810800552368,-0.0,2.009199857711792,4.865427958756246,0.0,0.3047274947166443,-1.5974300543414515,-0.0,-0.008142173290252686,0.7634725570678711,-0.0,-0.00552021712064743,0.7730101943016052,0.0,-0.021128840744495392
900.0,1031.0,1.5266,0.3123,9.3506,-0.0396,0.0301,-0.1286,-1.5512958646616717,0.0,1.9765560626983643,-2.014883041381836,-0.0,2.0131616592407227,4.865416008024969,0.0,0.2945636808872223,-1.5974581877337855,-0.0,-0.011335154063999653,0.7635408639907837,-0.0,-0.010193773545324802,0.7730466723442078,0.0,-0.015975555405020714
900.0,1031.0,1.5266,0.3123,9.3506,-0.0396,0.0301,-0.1286,-1.5512917798808594,0.0,1.9617421627044678,-2.0148067474365234,-0.0,2.041572093963623,4.865416008024969,0.0,0.28473058342933655,-1.597410027180807,-0.0,-0.014466952532529831,0.7635490894317627,-0.0,-0.00014990358613431454,0.7730385065078735,0.0,0.014503132551908493
893.0,1029.0,1.4393,0.2572,9.4187,-0.0362,0.0263,-0.1205,-1.551251220782735,0.0,1.9294710159301758,-2.0147860050201416,-0.0,2.0091753005981445,4.865412327438154,0.0,0.29647162556648254,-1.5974300543414515,-0.0,-0.016573091968894005,0.763573169708252,-0.0,-0.00262742443010211,0.7729824185371399,0.0,-0.01861143857240677
893.0,1029.0,1.4393,0.2572,9.4187,-0.0362,0.0263,-0.1205,-1.5513322439840813,0.0,1.9571318626403809,-2.014822244644165,-0.0,2.0443849563598633,4.865424173861303,0.0,0.2856593132019043,-1.597462002431051,-0.0,-0.003303033532574773,0.7635892033576965,-0.0,0.008310776203870773,0.7730183601379395,0.0,-0.047580014914274216
893.0,1029.0,1.4393,0.2572,9.4187,-0.0362,0.0263,-0.1205,-1.5512798757157107,0.0,1.9368329048156738,-2.014822244644165,-0.0,2.0268750190734863,4.865416008024969,0.0,0.291104257106781,-1.5974701086627405,-0.0,-0.01366354152560234,0.7635408639907837,-0.0,-0.0029419558122754097,0.7730506062507629,0.0,0.013634692877531052
893.0,1029.0,1.4393,0.2572,9.4187,-0.0362,0.0263,-0.1205,-1.5513000388494511,0.0,1.9123377799987793,-2.014855146408081,-0.0,2.0350162982940674,4.865443932801046,0.0,0.294975221157074,-1.597410027180807,-0.0,-0.012148451060056686,0.7635490298271179,-0.0,0.0010228253668174148,0.7730224132537842,0.0,0.03995248302817345
893.0,1029.0,1.4393,0.2572,9.4187,-0.0362,0.0263,-0.1205,-1.5512839921614905,0.0,1.9348742961883545,-2.014798164367676,-0.0,2.0525224208831787,4.865396010666647,0.0,0.3056579828262329,-1.597381893788473,-0.0,-0.004214021842926741,0.7635326981544495,-0.0,-0.006070269271731377,0.7730666399002075,0.0,0.03403686359524727
893.0,1029.0,1.4393,0.2572,9.4187,-0.0362,0.0263,-0.1205,-1.5513280735215922,0.0,1.9189575910568237,-2.014878749847412,-0.0,2.0005531311035156,4.865443932801046,0.0,0.28931015729904175,-1.597410027180807,-0.0,-0.013565713539719582,0.7635207772254944,-0.0,0.004812139552086592,0.7730264663696289,0.0,0.0073685189709067345
893.0,1029.0,1.4393,0.2572,9.4187,-0.0362,0.0263,-0.1205,-1.5513000388494511,0.0,1.9475386142730713,-2.0148870944976807,-0.0,2.0663580894470215,4.865448015719213,0.0,0.3021533787250519,-1.5974581877337855,-0.0,-0.021854663267731667,0.763573169708252,-0.0,-0.01030439417809248,0.7730025053024292,0.0,-0.02444404736161232
893.0,1029.0,1.4393,0.2572,9.4187,-0.0362,0.0263,-0.1205,-1.5512840256891032,0.0,1.9655717611312866,-2.0148510932922363,-0.0,2.020761013031006,4.865443932801046,0.0,0.2921372652053833,-1.5974538961993616,-0.0,-0.01373312622308731,0.7635613679885864,-0.0,-0.004154246300458908,0.7730103135108948,0.0,-0.012016400694847107
893.0,1029.0,1.4393,0.2572,9.4187,-0.0362,0.0263,-0.1205,-1.5513202988407393,0.0,1.973499059677124,-2.014906644821167,-0.0,1.9838268756866455,4.865443932801046,0.0,0.2986149191856384,-1.5974143187152308,-0.0,-0.012439608573913574,0.7635613083839417,-0.0,-0.006718967109918594,0.7730224132537842,0.0,-0.00168624147772789
893.0,1029.0,1.4393,0.2572,9.4187,-0.0362,0.0263,-0.1205,-1.5513041292181988,0.0,1.9674222469329834,-2.014859199523926,-0.0,2.044983386993408,4.865427928953924,0.0,0.2993793487548828,-1.5974138418780726,-0.0,-0.0019050606060773134,0.7636256217956543,-0.0,-0.004400724545121193,0.7730545997619629,0.0,-0.007734096143394709
893.0,1029.0,1.4393,0.2572,9.4187,-0.0362,0.0263,-0.1205,-1.5512917798808594,0.0,1.9631428718566895,-2.0148303508758545,4.875491413258715e-06,2.007472038269043,4.8654800085122965,0.0,0.31067413091659546,-1.597462002431051,-0.0,-0.014164477586746216,0.7635773420333862,-0.0,0.00686547439545393,0.7730103731155396,0.0,-0.025141801685094833
893.0,1029.0,1.4393,0.2572,9.4187,-0.0362,0.0263,-0.1205,-1.5512594890645524,0.0,1.9842758178710938,-2.014838695526123,1.1773738234355235e-11,2.0064706802368164,4.865443932801046,0.0,0.29745709896087646,-1.5974739233600062,-0.0,0.012026460841298103,0.7635650634765625,-0.0,-0.006120271515101194,0.7730144262313843,0.0,-0.027525749057531357
893.0,1029.0,1.4393,0.2572,9.4187,-0.0362,0.0263,-0.1205,-1.5512917798808594,0.0,1.9342036247253418,-2.014878749847412,2.843218619564014e-17,2.047816753387451,4.865416008024969,0.0,0.29295551776885986,-1.597410027180807,-0.0,-0.011403856799006462,0.7635814547538757,-0.0,-0.008594034239649773,0.7730063199996948,0.0,0.018767040222883224
926.0,999.0,1.5739,0.3236,9.2255,-0.0368,0.0255,-0.1252,-1.5513079495034,0.0,1.9502699375152588,-2.0148346424102783,6.866037059764708e-23,2.0025577545166016,4.865383732109823,0.0,0.30235356092453003,-1.5974095503436487,-0.0,0.0021017775870859623,0.7635408639907837,-0.0,0.0024448491167277098,0.7729742527008057,0.0,0.008092284202575684
926.0,999.0,1.5739,0.3236,9.2255,-0.0368,0.0255,-0.1252,-1.5513000388494511,0.0,1.958065390586853,-2.0148141384124756,2.224508518761635e-30,2.0349438190460205,4.865464004665174,0.0,0.2960374653339386,-1.597410027180807,-0.0,-0.011114604771137238,0.7635892033576965,-0.0,-0.007243488449603319,0.772990345954895,0.0,-0.00043203774839639664
926.0,999.0,1.5739,0.3236,9.2255,-0.0368,0.0255,-0.1252,-1.5513120380095025,0.0,1.9171042442321777,-2.014855146408081,5.3719263160718676e-36,2.0411202907562256,4.865452128439703,0.0,0.28838050365448,-1.5974143187152308,-0.0,-0.0006221816292963922,0.7635732293128967,-0.0,-0.0025609382428228855,0.7729984521865845,0.0,0.054313164204359055
926.0,999.0,1.5739,0.3236,9.2255,-0.0368,0.0255,-0.1252,-1.5513162084719916,0.0,1.9399850368499756,-2.014859199523926,1.2973221182719156e-41,2.0042059421539307,4.865416008024969,0.0,0.29263535141944885,-1.5974538961993616,-0.0,-0.0005332785658538342,0.7636092901229858,-0.0,0.0024231234565377235,0.7730264663696289,0.0,-0.0011862083338201046
926.0,999.0,1.5739,0.3236,9.2255,-0.0368,0.0255,-0.1252,-1.5513198145530005,0.0,1.8944804668426514,-2.0148510932922363,-0.0,2.0600454807281494,4.865400019079008,0.0,0.30829524993896484,-1.5974414984332483,-0.0,-0.008599361404776573,0.7635691165924072,-0.0,-0.014292663894593716,0.7730385661125183,0.0,0.022688040509819984
926.0,999.0,1.5739,0.3236,9.2255,-0.0368,0.0255,-0.1252,-1.551319808965065,0.0,1.9285218715667725,-2.0148262977600098,-0.0,2.0178346633911133,4.865411940007963,0.0,0.3000944256782532,-1.5974138418780726,-0.0,-0.0024011917412281036,0.7636051774024963,-0.0,-0.005771897733211517,0.7730063199996948,0.0,0.003517494536936283
926.0,999.0,1.5739,0.3236,9.2255,-0.0368,0.0255,-0.1252,-1.551307962541916,0.0,1.947671890258789,-2.014883041381836,-0.0,2.0208535194396973,4.865400019079008,0.0,0.2900890111923218,-1.5973733107196253,-0.0,-0.007167339324951172,0.7635490298271179,-0.0,0.005660724826157093,0.7729822397232056,0.0,-0.03044212982058525
926.0,999.0,1.5739,0.3236,9.2255,-0.0368,0.0255,-0.1252,-1.5512594648501654,0.0,1.9670600891113281,-2.0148706436157227,-0.0,1.9973398447036743,4.865456136852064,0.0,0.2972930073738098,-1.5974538961993616,-0.0,-0.015816643834114075,0.7634928822517395,-0.0,-0.008731571957468987,0.7730303406715393,0.0,-0.05471360683441162
926.0,999.0,1.5739,0.3236,9.2255,-0.0368,0.0255,-0.1252,-1.5512835935554286,0.0,1.946842908859253,-2.014859199523926,-0.0,2.0371243953704834,4.865452128439703,0.0,0.28701671957969666,-1.5974858442889612,-0.0,-0.008559895679354668,0.7635650634765625,-0.0,-0.0037857627030462027,0.7729823589324951,0.0,0.006959462538361549
926.0,999.0,1.5739,0.3236,9.2255,-0.0368,0.0255,-0.1252,-1.5513359264335413,0.0,1.9576520919799805,-2.0148141384124756,-0.0,2.0055594444274902,4.865404087096014,0.0,0.2935183048248291,-1.5974300543414515,-0.0,-0.005135535728186369,0.7635290622711182,-0.0,-0.006396542303264141,0.77301025390625,0.0,0.0018547577783465385
926.0,999.0,1.5739,0.3236,9.2255,-0.0368,0.0255,-0.1252,-1.5512917798808594,0.0,1.971891164779663,-2.0148181915283203,-0.0,2.0174057483673096,4.86543986478404,1.8310979044144915e-07,0.2894696295261383,-1.5974095503436487,-0.0,0.00027538073481991887,0.763536810874939,-0.0,-0.004381650127470493,0.7730183601379395,0.0,0.022053953260183334
926.0,999.0,1.5739,0.3236,9.2255,-0.0368,0.0255,-0.1252,-1.5513120137951155,0.0,1.9511094093322754,-2.014822244644165,-0.0,1.9899475574493408,4.8653636304433725,5.096928087922059e-11,0.2897675633430481,-1.5974414984332483,-0.0,-0.011644061654806137,0.7636014819145203,-0.0,-0.0008062636479735374,0.7730505466461182,0.0,0.029149949550628662
926.0,999.0,1.5739,0.3236,9.2255,-0.0368,0.0255,-0.1252,-1.5512917798808594,0.0,1.959498643875122,-2.0148067474365234,-0.0,2.029146432876587,4.865427928953924,9.26341277380431e-16,0.2918573319911957,-1.597462002431051,-0.0,0.001479321625083685,0.763545036315918,-0.0,0.00026407919358462095,0.7729984521865845,0.0,-0.029751595109701157
926.0,999.0,1.5739,0.3236,9.2255,-0.0368,0.0255,-0.1252,-1.5513079457781096,0.0,1.9851750135421753,-2.014810800552368,-0.0,2.006615161895752,4.865448015719213,2.578504724544373e-19,0.2846708595752716,-1.5974457899676722,-0.0,-0.008468721061944962,0.7635732293128967,-0.0,-0.001750211464241147,0.7730143666267395,0.0,-0.022735808044672012
896.0,1033.0,1.4614,0.2847,9.3589,-0.0342,0.0243,-0.1174,-1.551295881425478,0.0,1.9674344062805176,-2.0148067474365234,-0.0,2.034963607788086,4.865407857089796,7.177364486998164e-23,0.28275930881500244,-1.5974414984332483,-0.0,-0.007670960389077663,0.7635409235954285,-0.0,0.005809832829982042,0.7730103135108948,0.0,0.020132454112172127
896.0,1033.0,1.4614,0.2847,9.3589,-0.0342,0.0243,-0.1174,-1.5512677331319829,0.0,1.9130462408065796,-2.014866590499878,-0.0,2.04799222946167,4.865408170014181,1.3044503587784549e-27,0.3012467622756958,-1.5974701086627405,-0.0,-0.014682757668197155,0.763545036315918,-0.0,-0.0025654365308582783,0.7730103731155396,0.0,-0.008288232609629631
896.0,1033.0,1.4614,0.2847,9.3589,-0.0342,0.0243,-0.1174,-1.5513000313988705,0.0,1.917278528213501,-2.0148468017578125,-0.0,2.053740978240967,4.865404087096014,3.6309854406504445e-31,0.30611875653266907,-1.5974457899676722,-0.0,-0.01409041415899992,0.7635249495506287,-0.0,-0.010186806321144104,0.7730063199996948,0.0,-0.035877782851457596
896.0,1033.0,1.4614,0.2847,9.3589,-0.0342,0.0243,-0.1174,-1.551316137691476,0.0,1.928905963897705,-2.0148303508758545,1.256953601114219e-05,1.9962670803070068,4.865432011872091,1.0106980784429166e-34,0.29001885652542114,-1.5974414984332483,-0.0,-0.027010196819901466,0.763593316078186,-0.0,0.01015481911599636,0.7730183601379395,0.0,0.016461126506328583
896.0,1033.0,1.4614,0.2847,9.3589,-0.0342,0.0243,-0.1174,-1.5512716148844738,0.0,1.906075119972229,-2.014859199523926,1.3227780982560944e-05,2.0330216884613037,4.865464004665174,2.8133154606032547e-38,0.28906482458114624,-1.5974538961993616,-0.0,-0.006340389139950275,0.7636174559593201,-0.0,-0.000956580915953964,0.7729822397232056,0.0,-0.051796212792396545
896.0,1033.0,1.4614,0.2847,9.3589,-0.0342,0.0243,-0.1174,-1.551275774171092,0.0,1.9480750560760498,-2.014814853668213,1.2493309441197198e-05,1.9996001720428467,4.865387785225668,5.114739394785582e-43,0.3033783435821533,-1.5974701086627405,-0.0,-0.012538544833660126,0.76348876953125,-0.0,0.0014909759629517794,0.7730224132537842,0.0,0.021381229162216187
896.0,1033.0,1.4614,0.2847,9.3589,-0.0342,0.0243,-0.1174,-1.5512798831662913,0.0,1.9069101810455322,-2.0148510932922363,1.1993844054813962e-05,2.0757229328155518,4.865420090943136,0.0,0.2933889329433441,-1.5975025335894983,-0.0,-0.0012888279743492603,0.7635815143585205,-0.0,0.007005335297435522,0.7730224132537842,0.0,-0.025460969656705856
896.0,1033.0,1.4614,0.2847,9.3589,-0.0342,0.0243,-0.1174,-1.551312006344535,0.0,1.960092544555664,-2.014862537384033,1.1532782082213089e-05,2.0300068855285645,4.8654599515493295,0.0,0.2866804003715515,-1.5974581877337855,-0.0,0.0017422458622604609,0.7636051774024963,-0.0,-0.006302407011389732,0.7730022668838501,0.0,-0.03350484371185303
896.0,1033.0,1.4614,0.2847,9.3589,-0.0342,0.0243,-0.1174,-1.5512675636312743,0.0,1.9544024467468262,-2.0148346424102783,1.1105856174253859e-05,2.0443735122680664,4.865411925106802,0.0,0.3048827052116394,-1.5974858442889612,-0.0,-0.003034446621313691,0.763593316078186,-0.0,-0.0055070421658456326,0.7729982137680054,0.0,0.03157937154173851
896.0,1033.0,1.4614,0.2847,9.3589,-0.0342,0.0243,-0.1174,-1.551291813408472,0.0,1.9595664739608765,-2.0148346424102783,5.714775763721036e-09,2.0493531227111816,4.865411910205641,0.0,0.2837809920310974,-1.5974457899676722,-0.0,-0.013375988230109215,0.7635048031806946,-0.0,-0.0051058498211205006,0.7729743123054504,0.0,-0.003690009471029043
896.0,1033.0,1.4614,0.2847,9.3589,-0.0342,0.0243,-0.1174,-1.551303820019104,0.0,1.912458896636963,-2.0148746967315674,1.8515147610243942e-16,2.0230159759521484,4.865436094790258,0.0,0.29861417412757874,-1.5974858442889612,-0.0,-0.003926634322851896,0.7635769844055176,-0.0,-0.007574601098895073,0.7729862928390503,0.0,-0.022060956805944443
896.0,1033.0,1.4614,0.2847,9.3589,-0.0342,0.0243,-0.1174,-1.5513119988939543,0.0,1.9340397119522095,-2.0148181915283203,4.47119090937167e-22,2.0281174182891846,4.865419778018751,0.0,0.2908739745616913,-1.5974138418780726,-0.0,-0.002278958447277546,0.7635613679885864,-0.0,-0.003557320451363921,0.7730385065078735,0.0,0.0319860503077507
896.0,1033.0,1.4614,0.2847,9.3589,-0.0342,0.0243,-0.1174,-1.5512958478978653,0.0,1.9530764818191528,-2.014855146408081,1.079739786215152e-27,2.0217390060424805,4.865411940007963,0.0,0.287981241941452,-1.5974538961993616,-0.0,0.0031920650508254766,0.7635810375213623,-0.0,-0.0017409129068255424,0.7730183601379395,0.0,0.0028162430971860886
896.0,1033.0,1.4614,0.2847,9.3589,-0.0342,0.0243,-0.1174,-1.551283586104848,0.0,1.9788429737091064,-2.0148303508758545,3.498220391538315e-35,2.0085995197296143,4.865416008024969,0.0,0.288434237241745,-1.5974739233600062,-0.0,-0.006386647466570139,0.7635855078697205,-0.0,-0.0013807991053909063,0.7730183601379395,0.0,-0.031141657382249832
889.0,1004.0,1.4142,0.347,9.387,-0.0344,0.0199,-0.1187,-1.5512917798808594,0.0,1.934411883354187,-2.014842987060547,8.44772779218216e-41,2.0485405921936035,4.865452113538542,0.0,0.30406492948532104,-1.5974138418780726,-0.0,0.0024211984127759933,0.763536810874939,-0.0,-0.017395708709955215,0.7729982137680054,0.0,-0.032508768141269684
889.0,1004.0,1.4142,0.347,9.387,-0.0344,0.0199,-0.1187,-1.5513198257288714,0.0,1.939178705215454,-2.014862537384033,0.0,2.0611798763275146,4.865399974375524,0.0,0.277011513710022,-1.5974376837359827,-0.0,-0.01757308468222618,0.7635048031806946,-0.0,0.0023951432667672634,0.7730101943016052,0.0,-0.014524262398481369
889.0,1004.0,1.4142,0.347,9.387,-0.0344,0.0199,-0.1187,-1.5512393482825537,0.0,1.9115269184112549,-2.014866590499878,-0.0,2.0413880348205566,4.865439849882879,0.0,0.28500252962112427,-1.5974653402911585,-0.0,-0.009758733212947845,0.7635613679885864,-0.0,0.0018187304958701134,0.7730183601379395,0.0,-0.06286565959453583
889.0,1004.0,1.4142,0.347,9.387,-0.0344,0.0199,-0.1187,-1.5512716484120865,0.0,1.9179327487945557,-2.014798641204834,-0.0,2.034954071044922,4.865468132286825,0.0,0.3046829104423523,-1.5974577108966272,-0.0,-0.005259285680949688,0.7635813355445862,-0.0,-0.0011508921161293983,0.7729982137680054,0.0,0.01336404588073492
889.0,1004.0,1.4142,0.347,9.387,-0.0344,0.0199,-0.1187,-1.551303820019104,0.0,1.9496020078659058,-2.014838933944702,-0.0,1.9787800312042236,4.865443902998724,0.0,0.29161083698272705,-1.5974696318255823,-0.0,-0.0101172411814332,0.7635290622711182,-0.0,-0.007369876839220524,0.7730101943016052,0.0,-0.021144740283489227
889.0,1004.0,1.4142,0.347,9.387,-0.0344,0.0199,-0.1187,-1.5512876615724345,0.0,1.9627400636672974,-2.0148067474365234,-0.0,2.0408222675323486,4.865395891457357,0.0,0.29339054226875305,-1.5974538961993616,-0.0,-0.007034700363874435,0.763536810874939,-0.0,0.008693009614944458,0.7729863524436951,0.0,-0.006226718425750732
889.0,1004.0,1.4142,0.347,9.387,-0.0344,0.0199,-0.1187,-1.5513120137951155,0.0,1.9533182382583618,-2.0148067474365234,-0.0,2.0112078189849854,4.865423831134596,0.0,0.29566171765327454,-1.5974739233600062,-0.0,-0.008894769474864006,0.7636051177978516,-0.0,-0.009462224319577217,0.7730224132537842,0.0,0.008389918133616447
889.0,1004.0,1.4142,0.347,9.387,-0.0344,0.0199,-0.1187,-1.5513000146350642,0.0,1.9602255821228027,-2.0148427486419678,-0.0,2.0418827533721924,4.865464436798849,0.0,0.2909822165966034,-1.5974777380572718,-0.0,0.0030717276968061924,0.7635248899459839,-0.0,-0.006501989904791117,0.7730263471603394,0.0,0.03308401629328728
889.0,1004.0,1.4142,0.347,9.387,-0.0344,0.0199,-0.1187,-1.5512716651758929,0.0,1.921068549156189,-2.014822244644165,-0.0,2.054248332977295,4.865432011872091,0.0,0.28605514764785767,-1.5974538961993616,-0.0,-0.010447856970131397,0.763605535030365,-0.0,0.009183472953736782,0.7729904055595398,0.0,0.015370804816484451
889.0,1004.0,1.4142,0.347,9.387,-0.0344,0.0199,-0.1187,-1.551320233648159,0.0,1.9511194229125977,-2.0148427486419678,-0.0,2.0297763347625732,4.8654197482164285,0.0,0.2957451045513153,-1.5974577108966272,-0.0,-0.008885459043085575,0.7635731101036072,-0.0,0.003769421484321356,0.7729982137680054,0.0,0.024062853306531906
889.0,1004.0,1.4142,0.347,9.387,-0.0344,0.0199,-0.1187,-1.551327971076109,0.0,1.9655457735061646,-2.0148305892944336,-0.0,2.022871255874634,4.865432011872091,0.0,0.29655954241752625,-1.597473446522848,-0.0,-0.00606194045394659,0.7636092901229858,-0.0,0.0034523410722613335,0.7730061411857605,0.0,-0.00516666192561388
889.0,1004.0,1.4142,0.347,9.387,-0.0344,0.0199,-0.1187,-1.5512676996043702,0.0,1.9640889167785645,-2.0148510932922363,-0.0,2.044902801513672,4.865471857577123,0.0,0.28308600187301636,-1.5974577108966272,-0.0,-0.01855660416185856,0.7635290622711182,-0.0,-0.0023231799714267254,0.7729981541633606,0.0,-0.01575760915875435
889.0,1004.0,1.4142,0.347,9.387,-0.0344,0.0199,-0.1187,-1.5512917798808594,3.842465048364829e-06,1.8957810401916504,-2.0148427486419678,-0.0,2.022731304168701,4.865455853730001,0.0,0.29869669675827026,-1.5974739233600062,-0.0,-0.010593093931674957,0.7635368704795837,-0.0,0.0035481397062540054,0.7730183601379395,0.0,-0.002222473034635186
889.0,1004.0,1.4142,0.347,9.387,-0.0344,0.0199,-0.1187,-1.5513120622238894,1.2449100723812417e-13,1.9835916757583618,-2.0148427486419678,-0.0,2.0319252014160156,4.86545583882884,0.0,0.2942325472831726,-1.5974577108966272,-0.0,-0.006111588794738054,0.7636338472366333,-0.0,-0.0015112597029656172,0.7730344533920288,-2.680200896290619e-13,0.0021727262064814568
907.0,994.0,0.1735,1.0259,10.0798,-0.0215,0.1116,-0.1694,-1.5512516938946028,3.0063111636233765e-19,1.9244036674499512,-2.014822244644165,-0.0,2.0655198097229004,4.865451770811834,1.7936919505245896e-07,0.28989166021347046,-1.5974414984332483,-0.0,-0.009442376904189587,0.7635290622711182,-0.0,-0.018875714391469955,0.7729904055595398,-6.472370862667374e-19,0.006175113841891289
907.0,994.0,0.1735,1.0259,10.0798,-0.0215,0.1116,-0.1694,-1.551304056575038,7.259887403787037e-25,1.9643936157226562,-2.014822244644165,-0.0,1.9927301406860352,4.865452113538542,4.992807556281065e-11,0.2871396541595459,-1.5974739233600062,-0.0,-0.008096762001514435,0.7635207772254944,-0.0,0.0018160087056457996,0.7729941010475159,-1.5630014687353732e-24,0.023268889635801315
907.0,994.0,0.1735,1.0259,10.0798,-0.0215,0.1116,-0.1694,-1.551283586104848,1.753177413799431e-30,1.932002067565918,-2.0147862434387207,-0.0,2.0388193130493164,4.865427928953924,1.3897664282954726e-14,0.29080116748809814,-1.5974333922015589,-0.0,-0.009096610359847546,0.7635650634765625,-0.0,0.002966209314763546,0.7730143070220947,-3.774465340716332e-30,0.013389263302087784
907.0,994.0,0.1735,1.0259,10.0798,-0.0215,0.1116,-0.1694,-1.5512594648501654,5.680071960480772e-38,1.9648733139038086,-2.0148067474365234,-0.0,2.0623021125793457,4.865499782353201,0.0005502933054231107,0.29931992292404175,-1.597518269215719,-0.0,0.006752470973879099,0.7635970115661621,-0.0,0.009898420423269272,0.7730464935302734,-1.2228788660298612e-37,-0.03643836826086044
907.0,994.0,0.1735,1.0259,10.0798,-0.0215,0.1116,-0.1694,-1.551303820019104,1.3732724950383207e-43,1.9507195949554443,-2.014859199523926,-0.0,2.0154333114624023,4.865495699435034,0.0012228453997522593,0.290200412273407,-1.5974615255938929,-0.0,-0.00919177383184433,0.7635490298271179,-0.0,0.010902865789830685,0.7730583548545837,-2.956739759725364e-43,0.01540113240480423
907.0,994.0,0.1735,1.0259,10.0798,-0.0215,0.1116,-0.1694,-1.551227308144309,0.0,1.912867784500122,-2.0148427486419678,-0.0,2.0011818408966064,4.8654916165168665,0.0011546970345079899,0.2968893051147461,-1.5974696318255823,-0.0,-0.00287239789031446,0.763585090637207,-0.0,-0.0018352497136220336,0.7730022072792053,0.0,-0.018503040075302124
907.0,994.0,0.1735,1.0259,10.0798,-0.0215,0.1116,-0.1694,-1.5512757816216727,0.0,1.916068196296692,-2.014798641204834,-0.0,1.9987541437149048,4.86551612892703,0.0008452027104794979,0.29235485196113586,-1.5975101629840296,-0.0,-0.012696072459220886,0.7635326981544495,-0.0,0.0020162223372608423,0.7730543613433838,0.0,-0.02991914376616478
907.0,994.0,0.1735,1.0259,10.0798,-0.0215,0.1116,-0.1694,-1.5512757816216727,0.0,1.9317867755889893,-2.0148508548736572,-0.0,1.993387222290039,4.865540000587263,0.0006288544973358512,0.27368125319480896,-1.5974820295916956,-0.0,-0.008577050641179085,0.7635286450386047,-0.0,-0.016795825213193893,0.7730263471603394,0.0,-0.005706659518182278
907.0,994.0,0.1735,1.0259,10.0798,-0.0215,0.1116,-0.1694,-1.5513120137951155,0.0,1.9589518308639526,-2.0148468017578125,-0.0,2.0173091888427734,4.8655239818389795,0.00041229571797885,0.29279986023902893,-1.597518269215719,-0.0,0.00020657130517065525,0.7635408043861389,-0.0,-0.013975490815937519,0.7730384469032288,0.0,0.019656086340546608
907.0,994.0,0.1735,1.0259,10.0798,-0.0215,0.1116,-0.1694,-1.551307938327529,0.0,1.9476498365402222,-2.014810800552368,-0.0,2.082822322845459,4.865499797254362,0.00031522358767688274,0.2942073941230774,-1.5974863211261194,-0.0,-0.008963676169514656,0.7635810375213623,-0.0,-0.0026535880751907825,0.7730505466461182,0.0,0.024346839636564255
907.0,994.0,0.1735,1.0259,10.0798,-0.0215,0.1116,-0.1694,-1.5513198182782908,0.0,1.9568538665771484,-2.014814853668213,-0.0,2.0359885692596436,4.8654837785060785,0.0002604559704195708,0.28575611114501953,-1.597405735646383,-0.0,-0.0008270172402262688,0.7635810375213623,-0.0,-0.00510681327432394,0.7730465531349182,0.0,0.01153702661395073
907.0,994.0,0.1735,1.0259,10.0798,-0.0215,0.1116,-0.1694,-1.551307938327529,0.0,1.9470291137695312,-2.0148468017578125,-0.0,1.9447230100631714,4.8654756275709055,0.0002114776143571362,0.3019838035106659,-1.5974653402911585,-0.0,-0.0015060838777571917,0.7635571956634521,-0.0,0.000517169595696032,0.7730783224105835,0.0,-0.000153297558426857
907.0,994.0,0.1735,1.0259,10.0798,-0.0215,0.1116,-0.1694,-1.5512917798808594,0.0,1.9217926263809204,-2.0148305892944336,-0.0,2.063159942626953,4.865439462452688,0.00018534155969973654,0.29954618215560913,-1.5974534193622034,-0.0,-0.0024543111212551594,0.7636215686798096,-0.0,0.003397247288376093,0.7731066942214966,0.0,-0.002600987907499075
913.0,1015.0,1.611,0.2698,9.2435,-0.0388,0.0057,-0.1199,-1.5513239347240706,0.0,1.9325590133666992,-2.0148870944976807,-0.0,2.0386056900024414,4.865487861424246,0.00013204202696215361,0.29735898971557617,-1.5974863211261194,-0.0,-0.003367629135027528,0.7635290026664734,-0.0,-0.007503201719373465,0.7730506062507629,0.0,0.016876760870218277
913.0,1015.0,1.611,0.2698,9.2435,-0.0388,0.0057,-0.1199,-1.5513120137951155,0.0,1.9312748908996582,-2.0148468017578125,-0.0,2.021378755569458,4.8654837785060785,0.00011508712486829609,0.2922709584236145,-1.5974496046649378,-0.0,-0.01666361279785633,0.7635290622711182,-0.0,-0.004841374233365059,0.7730985283851624,0.0,0.06897039711475372
913.0,1015.0,1.611,0.2698,9.2435,-0.0388,0.0057,-0.1199,-1.551307938327529,0.0,1.9681283235549927,-2.014810800552368,-0.0,2.071822166442871,4.865499797254362,0.00010501490032766014,0.2881675958633423,-1.5974696318255823,-0.0,-0.02026246301829815,0.7635531425476074,-0.0,0.004095647018402815,0.7730664014816284,0.0,0.0043438998982310295
913.0,1015.0,1.611,0.2698,9.2435,-0.0388,0.0057,-0.1199,-1.5512434665909787,0.0,1.9190375804901123,-2.0148427486419678,-0.0,2.0540971755981445,4.865516084223547,9.656370093580335e-05,0.304131418466568,-1.5974534193622034,-0.0,-0.018653662875294685,0.7635248899459839,-0.0,-0.020892184227705002,0.7730463147163391,0.0,-0.005848810076713562
913.0,1015.0,1.611,0.2698,9.2435,-0.0388,0.0057,-0.1199,-1.551288078804948,0.0,1.988652229309082,-2.0148468017578125,-0.0,2.011741876602173,4.865463691740789,8.937143866205588e-05,0.2913855314254761,-1.5974982420550745,-0.0,-0.014301301911473274,0.7636011242866516,-0.0,0.0017557120881974697,0.7730263471603394,0.0,-0.03569759428501129
913.0,1015.0,1.611,0.2698,9.2435,-0.0388,0.0057,-0.1199,-1.5513161730817338,0.0,1.9152030944824219,-2.0148427486419678,-0.0,1.9956095218658447,4.865475612669744,8.129822526825592e-05,0.29592767357826233,-1.5974820295916956,-0.0,0.005133367143571377,0.7635490298271179,-0.0,0.0010355908889323473,0.7730904221534729,0.0,0.0012573227286338806
913.0,1015.0,1.611,0.2698,9.2435,-0.0388,0.0057,-0.1199,-1.5512471509030838,0.0,1.9543958902359009,-2.0148181915283203,-0.0,2.0353007316589355,4.865487876325407,7.613960042363033e-05,0.28275227546691895,-1.5974653402911585,-0.0,-0.0023353183642029762,0.7635814547538757,-0.0,-0.00609225919470191,0.7730664014816284,0.0,-0.022955071181058884
913.0,1015.0,1.611,0.2698,9.2435,-0.0388,0.0057,-0.1199,-1.551307938327529,0.0,1.9477262496948242,-2.014810800552368,-0.0,2.0416152477264404,4.865451770811834,7.159676169976592e-05,0.2864161729812622,-1.597501579915182,-0.0,-0.009089520201086998,0.7635691165924072,-0.0,-0.009555290453135967,0.7730381488800049,0.0,-0.017001233994960785
913.0,1015.0,1.611,0.2698,9.2435,-0.0388,0.0057,-0.1199,-1.5512716651758929,0.0,1.9349923133850098,-2.0148468017578125,-0.0,2.005364179611206,4.865455853730001,6.756545190000907e-05,0.29043683409690857,-1.5974896589862269,-0.0,-0.007317917421460152,0.7634724378585815,-0.0,-0.011937021277844906,0.7730181813240051,0.0,-0.008947821334004402
913.0,1015.0,1.611,0.2698,9.2435,-0.0388,0.0057,-0.1199,-1.5513116226396342,0.0,1.944746732711792,-2.0148746967315674,-0.0,2.0539627075195312,4.865467774658956,6.284722621785477e-05,0.2884644865989685,-1.5974777380572718,-0.0,-0.02138456702232361,0.7635490298271179,-0.0,0.0028061214834451675,0.773038387298584,0.0,-0.005651889368891716
913.0,1015.0,1.611,0.2698,9.2435,-0.0388,0.0057,-0.1199,-1.551307938327529,0.0,1.9642581939697266,-2.0148427486419678,-0.0,2.027904510498047,4.8654959974582574,5.9719575801864266e-05,0.28807953000068665,-1.597490135823385,-0.0,-0.01525102648884058,0.7636416554450989,-0.0,0.002178000286221504,0.7730985879898071,0.0,0.022049520164728165
913.0,1015.0,1.611,0.2698,9.2435,-0.0388,0.0057,-0.1199,-1.551283586104848,0.0,1.9056336879730225,-2.014838695526123,-0.0,2.009674310684204,4.865479710489073,5.6888427934609354e-05,0.29786020517349243,-1.5974858442889612,-0.0,-0.020725883543491364,0.7635810375213623,-0.0,-0.008717093616724014,0.7730503082275391,7.911615102784708e-05,0.007869374938309193
913.0,1015.0,1.611,0.2698,9.2435,-0.0388,0.0057,-0.1199,-1.551235332419612,0.0,1.945518136024475,-2.0148024559020996,-0.0,2.0163536071777344,4.865419778018751,5.350635547074489e-05,0.29846349358558655,-1.597462002431051,-0.0,-0.008282989263534546,0.7636092901229858,-0.0,-0.0024843006394803524,0.7731306552886963,8.697935118107125e-05,-0.010590552352368832
913.0,1015.0,1.611,0.2698,9.2435,-0.0388,0.0057,-0.1199,-1.5512956262430926,0.0,1.9578696489334106,-2.014798164367676,-0.0,2.052950382232666,4.865459623723783,5.122236689203419e-05,0.28727105259895325,-1.5974982420550745,-0.0,-0.00392781849950552,0.7636252641677856,-0.0,0.0026147267781198025,0.7730904817581177,9.698486246634275e-05,0.03267437219619751
906.0,1016.0,0.4768,0.4433,9.8931,-0.0205,0.0748,-0.1752,-1.5512754146805783,3.3996713000306045e-08,1.948385238647461,-2.014810800552368,8.600068990283205e-10,2.0474159717559814,4.865455853730001,4.9125486839329824e-05,0.28427600860595703,-1.5974496046649378,-0.0,-0.006812587380409241,0.76352459192276,-3.995069608464519e-09,-0.0008722455822862685,0.773074209690094,0.00010764198668766767,0.05603552609682083
906.0,1016.0,0.4768,0.4433,9.8931,-0.0205,0.0748,-0.1752,-1.5513480652919789,8.209805854890104e-14,1.9215447902679443,-2.014798164367676,2.0768155194173486e-15,2.022292137145996,4.865464004665174,3.539853059919551e-05,0.29341962933540344,-1.5974982420550745,-0.0,0.004386058077216148,0.763573169708252,-1.1120423158705872e-12,-0.0072969915345311165,0.773074209690094,0.00029688270296901464,-0.004365791566669941
906.0,1016.0,0.4768,0.4433,9.8931,-0.0205,0.0748,-0.1752,-1.5513157409480591,2.6598727688788526e-21,1.92169988155365,-2.014855146408081,6.728618121163932e-23,2.01855731010437,4.865443932801046,3.363158612046391e-05,0.2890799641609192,-1.5974939505206507,-0.0,-0.002974273869767785,0.7635970115661621,-2.021081658077967e-17,-0.00888036284595728,0.7730945944786072,0.00028396316338330507,-0.001410540658980608
906.0,1016.0,0.4768,0.4433,9.8931,-0.0205,0.0748,-0.1752,-1.551343922769167,6.423279120718689e-27,1.949812889099121,-2.014794111251831,1.6248821773608554e-28,2.0040907859802246,4.865439849882879,3.2420102797914296e-05,0.29562312364578247,-1.5974777380572718,-0.0,-0.017940949648618698,0.7636293768882751,-5.6257555123754426e-21,-0.009044739417731762,0.7730542421340942,0.0002453259367030114,0.00967555120587349
906.0,1016.0,0.4768,0.4433,9.8931,-0.0205,0.0748,-0.1752,-1.5513277736357232,1.5511463458305967e-32,1.9106488227844238,-2.014742612838745,0.0002926659071817994,2.020786762237549,4.865459936648168,3.129287142655812e-05,0.2922276258468628,-1.5974863211261194,-0.0,0.0012277842033654451,0.7636252641677856,-1.5659497377610236e-24,-0.002588624833151698,0.7730863690376282,0.0002518754918128252,-0.0019412357360124588
906.0,1016.0,0.4768,0.4433,9.8931,-0.0205,0.0748,-0.1752,-1.551299725925066,3.7458361483590264e-38,1.9803142547607422,-2.014810562133789,0.0003430191136430949,2.051114082336426,4.865439849882879,3.024142461072188e-05,0.2985602021217346,-1.5974653402911585,-0.0,-0.0024391217157244682,0.7636215686798096,-4.358878761486397e-28,-0.01285809651017189,0.7730864882469177,0.000224905030336231,-0.016092434525489807
906.0,1016.0,0.4768,0.4433,9.8931,-0.0205,0.0748,-0.1752,-1.5513480559787531,-7.808888767613098e-05,1.946185827255249,-2.014759063720703,0.0005351157742552459,1.9826748371124268,4.865451770811834,1.642228930620604e-08,0.30186066031455994,-1.5974982420550745,-0.0,-0.017323603853583336,0.7635847330093384,-7.922045812695105e-33,-0.004003953654319048,0.7730864882469177,0.00022378124413080513,-0.005425369367003441
906.0,1016.0,0.4768,0.4433,9.8931,-0.0205,0.0748,-0.1752,-1.5513359748623152,-0.00011267871013842523,1.9867274761199951,-2.0147178173065186,0.0005435168859548867,2.0506982803344727,4.865411940007963,4.571204526016004e-12,0.29834914207458496,-1.5974496046649378,-0.0,-0.012289502657949924,0.7635847330093384,-2.2051304367730352e-36,-0.002889904659241438,0.7730783224105835,0.00020564388250932097,0.04123430699110031
906.0,1016.0,0.4768,0.4433,9.8931,-0.0205,0.0748,-0.1752,-1.5513562516174098,-0.0001001462951535359,1.9197955131530762,-2.014810562133789,0.0004999882658012211,2.0407068729400635,4.865432011872091,-1.972446625586599e-05,0.29207175970077515,-1.5974982420550745,-0.0,-0.00887465849518776,0.7636092901229858,-6.1380656243280665e-40,0.004811459220945835,0.773082435131073,0.0001875535090221092,0.015096127986907959
906.0,1016.0,0.4768,0.4433,9.8931,-0.0205,0.0748,-0.1752,-1.5513277810863038,-0.00011665560305118561,1.9174046516418457,-2.0147745609283447,0.00039147460483945906,2.0146570205688477,4.865419778018751,-4.2880753170493335e-08,0.2821672558784485,-1.5974863211261194,-0.0,-0.012538846582174301,0.7635650038719177,-1.1210387714598537e-44,0.00679551437497139,0.7730863690376282,0.00019290318596176803,0.05036155879497528
906.0,1016.0,0.4768,0.4433,9.8931,-0.0205,0.0748,-0.1752,-1.5513558232090254,-0.00024586127256043255,1.9472692012786865,-2.014766216278076,0.00033656926825642586,2.038203239440918,4.865439849882879,-1.19360155440007e-11,0.29514825344085693,-1.5974820295916956,-0.0,-0.001684002229012549,0.7636010646820068,-0.0,-0.0040926821529865265,0.773098349571228,0.00020326770027168095,-0.011626306921243668
906.0,1016.0,0.4768,0.4433,9.8931,-0.0205,0.0748,-0.1752,-1.5513838746449728,-0.0002745992678683251,1.9619839191436768,-2.014794111251831,0.0002951724163722247,2.0208919048309326,4.865439849882879,-3.3224344313205e-15,0.28932303190231323,-1.597445313130514,-0.0,-0.009370490908622742,0.7635646462440491,-0.0,0.0014907929580658674,0.7731266021728516,0.0002125199680449441,0.014413420110940933
906.0,1016.0,0.4768,0.4433,9.8931,-0.0205,0.0748,-0.1752,-1.5514242959073563,-0.0006633062148466706,1.9060688018798828,-2.0148189067840576,0.0002628440852276981,2.007099151611328,4.865475925594129,-9.248118096744724e-19,0.3085443079471588,-1.5974496046649378,-0.0,0.0018108643125742674,0.7636293768882751,-0.0,0.002651139860972762,0.7731224894523621,0.0003585545055102557,0.009288376197218895
906.0,1016.0,0.4768,0.4433,9.8931,-0.0205,0.0748,-0.1752,-1.5513959538987656,-0.0009623637306503952,1.957556962966919,-2.0148024559020996,0.00022935196466278285,2.057670831680298,4.865455853730001,-1.6807997405723565e-23,0.28246960043907166,-1.5975263754474085,-0.0,-0.020897841081023216,0.763585090637207,-0.0,0.0002676615258678794,0.7731104493141174,0.0007496424368582666,0.051659636199474335
923.0,991.0,1.6552,0.2937,9.2818,-0.0457,0.0307,-0.1223,-1.5514280938408156,-0.0012594261206686497,1.9385175704956055,-2.0147860050201416,0.0002093459916068241,2.0284318923950195,4.865471857577123,-4.678568398890604e-27,0.2896691560745239,-1.597518269215719,-0.0,-0.006927236914634705,0.763544499874115,-0.0,-0.010146982036530972,0.7731263637542725,0.0011527000460773706,0.0336618646979332
923.0,991.0,1.6552,0.2937,9.2818,-0.0457,0.0307,-0.1223,-1.5513914295336981,-0.0016001604963093996,1.9158687591552734,-2.0147786140441895,0.00019255017105024308,2.0161073207855225,4.865419733315267,-1.302296807236449e-30,0.2942676842212677,-1.5974615255938929,-0.0,-0.015790406614542007,0.7636133432388306,-0.0,0.0014934742357581854,0.7731627225875854,0.0014064934803172946,0.030502744019031525
923.0,991.0,1.6552,0.2937,9.2818,-0.0457,0.0307,-0.1223,-1.551447569658496,-0.002415139228105545,1.9245991706848145,-2.0147507190704346,0.00014995037054177374,2.046008586883545,4.865487846523084,-3.6249908565982126e-34,0.29036423563957214,-1.5974696318255823,-0.0,0.004504526499658823,0.763532817363739,-0.0,0.00017397571355104446,0.7731505632400513,0.001743440399877727,-0.04167996719479561
923.0,991.0,1.6552,0.2937,9.2818,-0.0457,0.0307,-0.1223,-1.5514995728484173,-0.002901422791182995,1.937739372253418,-2.014810562133789,0.00012074824189767241,2.000019073486328,4.8654800085122965,-6.5882411637832e-39,0.2936475872993469,-1.5974777380572718,-0.0,-0.012882950715720654,0.7635927796363831,-0.0,-0.012034710496664047,0.7731624841690063,0.0026659327559173107,-0.03971409425139427
923.0,991.0,1.6552,0.2937,9.2818,-0.0457,0.0307,-0.1223,-1.5514996101013203,-0.003058127360418439,1.9470038414001465,-2.0147342681884766,0.00014879470109008253,2.0257108211517334,4.86543174365119,-1.8342996898011855e-42,0.2932104766368866,-1.5974982420550745,-0.0,-0.008903015404939651,0.7635933756828308,-0.0,-0.0020089768804609776,0.7731945514678955,0.0032282548490911722,-0.035628579556941986
923.0,991.0,1.6552,0.2937,9.2818,-0.0457,0.0307,-0.1223,-1.5515116670033713,-0.0026048070285469294,1.8775449991226196,-2.01474666595459,0.000517532171215862,2.0437231063842773,4.865487846523084,-0.0,0.2903076410293579,-1.5974820295916956,-0.0,-0.012129793874919415,0.7636170387268066,-0.0,0.007650218904018402,0.7732266187667847,0.003632643725723028,-0.05211561173200607
923.0,991.0,1.6552,0.2937,9.2818,-0.0457,0.0307,-0.1223,-1.5515435256860037,-0.0020648608915507793,1.9278545379638672,-2.014758825302124,0.0017813177546486259,2.046416759490967,4.865487831621923,-0.0,0.2960078716278076,-1.5974863211261194,-0.0,-0.021877838298678398,0.7636210918426514,-0.0,0.006910640746355057,0.773234486579895,0.003908137790858746,-0.009741143323481083
923.0,991.0,1.6552,0.2937,9.2818,-0.0457,0.0307,-0.1223,-1.5515112348696967,-0.0015764125855639577,1.9227657318115234,-2.014730215072632,0.003931059502065182,2.021996021270752,4.865464034467497,-0.0,0.28835856914520264,-1.5974696318255823,-0.0,-0.015482877381145954,0.7636088728904724,-0.0,0.012692471034824848,0.7733026146888733,0.004446232225745916,0.05272474139928818
923.0,991.0,1.6552,0.2937,9.2818,-0.0457,0.0307,-0.1223,-1.551559667368867,-0.0019371709786355495,1.9360839128494263,-2.0147101879119873,0.004979000426828861,2.0277419090270996,4.865483763604917,-0.0,0.2956637442111969,-1.597490135823385,-0.0,0.0034583727829158306,0.7636211514472961,-0.0,0.0003005801700055599,0.7733064889907837,0.004374418407678604,0.018005887046456337
923.0,991.0,1.6552,0.2937,9.2818,-0.0457,0.0307,-0.1223,-1.5515353225967665,-0.0024663859512656927,1.9443080425262451,-2.0146543979644775,0.005247764755040407,2.0388619899749756,4.865471857577123,-0.0,0.28991231322288513,-1.597490135823385,-1.0199320499282294e-08,-0.023093830794095993,0.7636330127716064,-0.0,-0.006523441057652235,0.7733227610588074,0.004243441857397556,0.05217115581035614
923.0,991.0,1.6552,0.2937,9.2818,-0.0457,0.0307,-0.1223,-1.5515833974680682,-0.001940665883012116,1.8639922142028809,-2.0145623683929443,0.0059677003882825375,2.0031540393829346,4.865436124592581,-0.0,0.28016340732574463,-1.5974653402911585,-1.853676446280511e-13,-0.019858526065945625,0.7636170387268066,-0.0,0.017587164416909218,0.7733426094055176,0.0037886907812207937,0.08180389553308487
923.0,991.0,1.6552,0.2937,9.2818,-0.0457,0.0307,-0.1223,-1.5516035624644537,-0.0015828940086066723,1.9075782299041748,-2.014566421508789,0.0061584822833538055,2.067190647125244,4.865407842188635,-0.0,0.29572761058807373,-1.597462002431051,-5.1597763061991903e-17,-0.017827294766902924,0.763536810874939,-0.0,0.008912719786167145,0.7733305096626282,0.0032489809673279524,0.007204300258308649
923.0,991.0,1.6552,0.2937,9.2818,-0.0457,0.0307,-0.1223,-1.5516196743449946,-0.0013846285874024034,1.92182457447052,-2.0145463943481445,0.005568021442741156,2.029628276824951,4.865444290428915,-0.0,0.2898719906806946,-1.597473446522848,-1.4362427448637718e-20,-0.011885745450854301,0.7636051177978516,-0.0,0.002225870033726096,0.7733787894248962,0.002829452510923147,0.04672376811504364
925.0,8190.0,1.279,0.0514,9.6317,-0.0334,0.0125,-0.1135,-1.5515874934247513,-0.001298587187193334,1.912144660949707,-2.014526844024658,0.004555323626846075,2.0447115898132324,4.865479993611135,-0.0,0.2901761829853058,-1.5974534193622034,-3.997834260550641e-24,-0.030121643096208572,0.7636775970458984,-0.0,0.011817805469036102,0.7733624577522278,0.0023212512023746967,0.006804716773331165
925.0,8190.0,1.279,0.0514,9.6317,-0.0334,0.0125,-0.1135,-1.5516315580210467,-0.001297618611715734,1.8805649280548096,-2.0144543647766113,0.004508936312049627,2.0233771800994873,4.865448045521536,-0.0,0.2759735882282257,-1.597490135823385,-7.265866225076689e-29,-0.024219095706939697,0.7636411190032959,-0.0,0.030623899772763252,0.773382842540741,0.0016108890995383263,0.05448874831199646
925.0,8190.0,1.279,0.0514,9.6317,-0.0334,0.0125,-0.1135,-1.5516395301422854,-0.0013385748025029898,1.9168856143951416,-2.014479160308838,0.003789875190705061,1.9816524982452393,4.865448000818052,-0.0,0.29896605014801025,-1.5974577108966272,-2.022480642259963e-32,-0.009265366941690445,0.7635970115661621,-0.0,0.020483847707509995,0.7734348177909851,0.001287941006012261,0.01808694191277027
925.0,8190.0,1.279,0.0514,9.6317,-0.0334,0.0125,-0.1135,-1.5516634986600657,-0.0016557396156713367,1.906421184539795,-2.014410972595215,0.0036470526829361916,2.0420632362365723,4.865475955396452,-6.0571292124222964e-05,0.29324817657470703,-1.5974739233600062,-5.629649004207809e-36,-0.010896054096519947,0.7635445594787598,-0.0,0.020699189975857735,0.7734067440032959,0.0010462487116456032,0.03688891604542732
925.0,8190.0,1.279,0.0514,9.6317,-0.0334,0.0125,-0.1135,-1.5516794876060267,-0.0018776094075292349,1.8861875534057617,-2.01438307762146,0.0037381581496447325,2.008380651473999,4.865420076041975,-7.036853639874607e-05,0.2822806239128113,-1.5974376837359827,-1.567034237595906e-39,-0.009495601058006287,0.7635928392410278,-0.0,0.017779871821403503,0.7734267711639404,0.0011738670291379094,0.028060955926775932
925.0,8190.0,1.279,0.0514,9.6317,-0.0334,0.0125,-0.1135,-1.5516875994256516,-0.0020349547266960144,1.921177625656128,-2.0143744945526123,0.004114987328648567,2.0193021297454834,4.8654439626033685,-7.842180639272556e-05,0.28788429498672485,-1.5974534193622034,-2.802596928649634e-44,-0.016596831381320953,0.7636210918426514,-0.0,0.013914033770561218,0.773446798324585,0.0016627674922347069,0.08249185979366302
925.0,8190.0,1.279,0.0514,9.6317,-0.0334,0.0125,-0.1135,-1.5516952623477955,-0.0019455740693956614,1.9636105298995972,-2.0143630504608154,0.005772658623754978,2.0633373260498047,4.865400004177847,-8.637771679786965e-05,0.290885865688324,-1.5973976294146937,-0.0,-0.010932384058833122,0.7636892199516296,-0.0,0.030283674597740173,0.7734746932983398,0.0019799452275037766,0.04832085222005844
925.0,8190.0,1.279,0.0514,9.6317,-0.0334,0.0125,-0.1135,-1.551739466642477,-0.0024075102992355824,1.9003926515579224,-2.0143113136291504,0.0056864358484745026,2.0233826637268066,4.8653676239545725,-0.000373957707779482,0.28195738792419434,-1.5974457899676722,-0.0,-0.011634686961770058,0.7636687159538269,-0.0,0.0427979975938797,0.7734747529029846,0.002205280354246497,0.06957776844501495
925.0,8190.0,1.279,0.0514,9.6317,-0.0334,0.0125,-0.1135,-1.5517353408834715,-0.003048652084544301,1.9331374168395996,-2.0142223834991455,0.006921285297721624,2.044506072998047,4.865432444005766,-0.0006506399950012565,0.29213249683380127,-1.5974457899676722,-0.0,-0.009363560006022453,0.7636452913284302,-0.0,0.01622241921722889,0.7734706401824951,0.0033519628923386335,0.08147681504487991
925.0,8190.0,1.279,0.0514,9.6317,-0.0334,0.0125,-0.1135,-1.551799764191248,-0.003944458905607462,1.8815267086029053,-2.014206647872925,0.008237848058342934,2.0328452587127686,4.865436094790258,-0.0004768952785525471,0.2801865339279175,-1.5974739233600062,-0.0,0.002422457095235586,0.7636370658874512,-0.0,0.013857079669833183,0.7735066413879395,0.00481164176017046,0.09665386378765106
925.0,8190.0,1.279,0.0514,9.6317,-0.0334,0.0125,-0.1135,-1.5517832965454836,-0.004135142080485821,1.9246752262115479,-2.014127016067505,0.009657892398536205,2.0029830932617188,4.865404072194853,-0.00036174917477183044,0.2956330478191376,-1.5974577108966272,-0.0,-0.01920943148434162,0.7635765075683594,-0.0,0.030605409294366837,0.7735747694969177,0.006723686121404171,0.07144226133823395
925.0,8190.0,1.279,0.0514,9.6317,-0.0334,0.0125,-0.1135,-1.5518234197846432,-0.004453111439943314,1.9238706827163696,-2.0140700340270996,0.010207719169557095,2.024919033050537,4.865404072194853,-0.0002914181677624583,0.3035808801651001,-1.597462002431051,-0.0,-0.018038127571344376,0.7636129856109619,-0.0,0.029621917754411697,0.7735788226127625,0.009126666001975536,0.11147290468215942
925.0,8190.0,1.279,0.0514,9.6317,-0.0334,0.0125,-0.1135,-1.5518268600902339,-0.005569601897150278,1.8633496761322021,-2.013974666595459,0.010901964269578457,2.0348329544067383,4.8653800068195245,-0.0002314406301593408,0.2878313660621643,-1.597462002431051,-0.0,-0.026196736842393875,0.7636247873306274,-0.0,0.020705344155430794,0.7737149596214294,0.011041112244129181,0.06062116101384163
925.0,8190.0,1.279,0.0514,9.6317,-0.0334,0.0125,-0.1135,-1.5518954333714028,-0.0063088275492191315,1.8707048892974854,-2.0138907432556152,0.010590702295303345,2.0196523666381836,4.865387755423345,-0.0002004960406338796,0.28332263231277466,-1.5974538961993616,-0.0,-0.018279585987329483,0.7636571526527405,-0.0,0.02186475321650505,0.773754894733429,0.012738682329654694,0.07344157993793488
863.0,997.0,1.3172,0.0622,9.5761,-0.0466,0.0276,-0.1147,-1.5519231756082554,-0.006818224675953388,1.8873815536499023,-2.013871192932129,0.010230479761958122,2.0456299781799316,4.865383717208662,-0.00017685233615338802,0.2947863042354584,-1.5974457899676722,-0.0,-0.011675916612148285,0.7636491060256958,-0.0,0.022669441998004913,0.7738069891929626,0.01366114616394043,0.07184770703315735
863.0,997.0,1.3172,0.0622,9.5761,-0.0466,0.0276,-0.1147,-1.5520110552063962,-0.007816269062459469,1.8803205490112305,-2.0138275623321533,0.00894421897828579,2.087582588195801,4.865412327438154,-0.000158197435666807,0.2999609708786011,-1.5974138418780726,-0.0,-0.015938032418489456,0.7636047601699829,-0.0,0.03834604099392891,0.7739471197128296,0.013640101999044418,0.06929624080657959
863.0,997.0,1.3172,0.0622,9.5761,-0.0466,0.0276,-0.1147,-1.5520470899394532,-0.008349285461008549,1.8630974292755127,-2.0137507915496826,0.00764867477118969,2.0199146270751953,4.86537583449439,-0.00013869241229258478,0.29782402515411377,-1.5974095503436487,-0.0,-0.02463895082473755,0.7636248469352722,-0.0,0.02886432409286499,0.7740072011947632,0.014005867764353752,0.10057453066110611
863.0,997.0,1.3172,0.0622,9.5761,-0.0466,0.0276,-0.1147,-1.5520989683321496,-0.008815284818410873,1.876220703125,-2.013718843460083,0.00606141472235322,2.0598630905151367,4.865416008024969,-0.00012695309123955667,0.2907770872116089,-1.5974095503436487,-0.0,-0.014236845076084137,0.763649046421051,-0.0,0.03614770621061325,0.7740991115570068,0.013867491856217384,0.04768003523349762
863.0,997.0,1.3172,0.0622,9.5761,-0.0466,0.0276,-0.1147,-1.5521793582341452,-0.009618386626243591,1.8869059085845947,-2.0136234760284424,0.005881027318537235,2.0839996337890625,4.865391823440351,-0.0001404413633281365,0.2918482720851898,-1.597405735646383,-0.0,-0.0073630535043776035,0.7636252045631409,-0.0,0.023807931691408157,0.7741953730583191,0.013605305925011635,0.06635534763336182
863.0,997.0,1.3172,0.0622,9.5761,-0.0466,0.0276,-0.1147,-1.5522912864438076,-0.010142386890947819,1.9134867191314697,-2.013631820678711,0.004465840291231871,2.026005983352661,4.8653758493955515,-0.00016890070401132107,0.277929425239563,-1.5974262396441858,-0.0,-0.009649651125073433,0.7636170387268066,-0.0,0.026778260245919228,0.7742792367935181,0.011605262756347656,0.11467774212360382
863.0,997.0,1.3172,0.0622,9.5761,-0.0466,0.0276,-0.1147,-1.5523026578924437,-0.011175046674907207,1.8782024383544922,-2.013583183288574,0.0031922953203320503,2.049333333969116,4.865400123387136,-0.00013322604354470968,0.2814807891845703,-1.5973900000201624,-0.0,-0.012272603809833527,0.763653039932251,-0.0,0.04604224115610123,0.7743474841117859,0.01075767632573843,0.05937635153532028
863.0,997.0,1.3172,0.0622,9.5761,-0.0466,0.0276,-0.1147,-1.5523667198470612,-0.012945549562573433,1.8318145275115967,-2.0136356353759766,0.0023049807641655207,2.065939426422119,4.865404191404142,-0.0001473192824050784,0.27633175253868103,-1.5974095503436487,-0.0,-0.010584700852632523,0.7636452317237854,-0.0,0.03449211269617081,0.7743553519248962,0.007762727793306112,0.04475187137722969
863.0,997.0,1.3172,0.0622,9.5761,-0.0466,0.0276,-0.1147,-1.5525233347764988,-0.014313279651105404,1.83701491355896,-2.013566493988037,0.001526568317785859,2.0009777545928955,4.865400093584814,-0.00015764760610181838,0.2845449447631836,-1.597393814717428,-0.0,-0.02669275924563408,0.763633131980896,9.285588748753071e-05,0.04763668403029442,0.7744275331497192,0.004925279412418604,0.08337777853012085
863.0,997.0,1.3172,0.0622,9.5761,-0.0466,0.0276,-0.1147,-1.5526147496751328,-0.017712324857711792,1.8368200063705444,-2.0136077404022217,0.0010509552666917443,2.1022047996520996,4.865339833288946,-0.00036767663550563157,0.28602737188339233,-1.5974739233600062,-0.0,-0.01507647056132555,0.7636492848396301,8.604865433881059e-05,0.027430009096860886,0.7744433879852295,0.0026276246644556522,0.06440126150846481
863.0,997.0,1.3172,0.0622,9.5761,-0.0466,0.0276,-0.1147,-1.5527672760984679,-0.019218839704990387,1.863884449005127,-2.0135912895202637,0.0010113661410287023,2.033350944519043,4.865372168808737,-0.0002952812355943024,0.2660684585571289,-1.5973976294146937,-0.0,-0.01036758627742529,0.76366126537323,8.138014527503401e-05,0.04462201148271561,0.7744675278663635,0.0017458958318457007,0.03202070668339729
863.0,997.0,1.3172,0.0622,9.5761,-0.0466,0.0276,-0.1147,-1.5528585159084578,-0.022085968405008316,1.7986289262771606,-2.013547897338867,0.0015849259216338396,2.0108749866485596,4.865348088532247,-0.00029601770802401006,0.28021764755249023,-1.597405735646383,-0.0,-0.011846004985272884,0.7636411786079407,7.719211134826764e-05,0.031846318393945694,0.7744554877281189,0.0009745072457008064,0.06583788990974426
863.0,997.0,1.3172,0.0622,9.5761,-0.0466,0.0276,-0.1147,-1.5530506943217297,-0.025647101923823357,1.7974753379821777,-2.013564348220825,0.0017258049920201302,2.0637059211730957,4.865323859244146,-0.00028549329726956785,0.27873852849006653,-1.597405735646383,-0.0,-0.026661384850740433,0.7636727690696716,7.341408490901813e-05,0.024723675101995468,0.7744113206863403,0.0006319612730294466,0.015809515491127968
863.0,997.0,1.3172,0.0622,9.5761,-0.0466,0.0276,-0.1147,-1.553218337973096,-0.02891138568520546,1.827730417251587,-2.01353120803833,0.0015627355314791203,2.0600662231445312,4.8653800068195245,-0.0002495738153811544,0.2753598690032959,-1.597393814717428,-0.0,-0.024457018822431564,0.7636411190032959,6.891680823173374e-05,0.020984522998332977,0.7744152545928955,0.0004303886671550572,0.03652547672390938
894.0,998.0,1.389,0.2536,9.3553,-0.0373,0.0076,-0.1008,-1.553377942447998,-0.0325375534594059,1.8668344020843506,-2.013490915298462,0.0016266020247712731,2.0226659774780273,4.865343990712919,-0.0002230603276984766,0.277666300535202,-1.5974376837359827,-0.0,-0.015964806079864502,0.7636289596557617,6.588950782315806e-05,0.03822474926710129,0.7744594812393188,0.0003473222313914448,0.05333414301276207
894.0,998.0,1.389,0.2536,9.3553,-0.0373,0.0076,-0.1008,-1.5536222283593197,-0.03707961365580559,1.8465265035629272,-2.013523817062378,0.0014485858846455812,2.0372543334960938,4.865323844342985,-0.00023037880600895733,0.2777566611766815,-1.5973900000201624,-0.0,-0.011831413023173809,0.7636652588844299,6.311701145023108e-05,0.04100790619850159,0.7744033932685852,0.00029113725759088993,0.015634603798389435
894.0,998.0,1.389,0.2536,9.3553,-0.0373,0.0076,-0.1008,-1.553865974103548,-0.0429343655705452,1.8261282444000244,-2.01350736618042,0.00127444660756737,2.051551103591919,4.865351769119062,-0.00021025477326475084,0.2804968059062958,-1.597381893788473,-0.0,-0.0032741944305598736,0.7636928558349609,7.22754339221865e-05,0.03884931653738022,0.7744393944740295,0.00020883430261164904,0.05880992114543915
894.0,998.0,1.389,0.2536,9.3553,-0.0373,0.0076,-0.1008,-1.5542097085020323,-0.05022628232836723,1.7871894836425781,-2.013519763946533,0.0019499203190207481,2.0198276042938232,4.865355852037229,-0.00018826278392225504,0.2844748795032501,-1.597421948109762,-0.0,-0.0032254927791655064,0.7636846899986267,6.896889681229368e-05,0.03624863177537918,0.7744154334068298,0.000176135465153493,-0.007717684842646122
894.0,998.0,1.389,0.2536,9.3553,-0.0373,0.0076,-0.1008,-1.5545296755484124,-0.055276233702898026,1.752136468887329,-2.013519763946533,0.003430664772167802,2.0438573360443115,4.865343543678083,-0.00017456825298722833,0.27787917852401733,-1.5974143187152308,-0.0,-0.016874240711331367,0.763653039932251,6.642385415034369e-05,0.03214575722813606,0.7744675874710083,0.00015762563270982355,0.010165857151150703
894.0,998.0,1.389,0.2536,9.3553,-0.0373,0.0076,-0.1008,-1.5548328322223206,-0.059425074607133865,1.752739429473877,-2.0133988857269287,0.004824308678507805,2.0437510013580322,4.865327539830961,-0.00016273125947918743,0.2931423485279083,-1.597421948109762,-0.0,-0.004894178360700607,0.7636493444442749,6.40599537291564e-05,0.031834933906793594,0.7744114398956299,0.00011410994193283841,0.03267420083284378
894.0,998.0,1.389,0.2536,9.3553,-0.0373,0.0076,-0.1008,-1.555360665810742,-0.06645502150058746,1.782214879989624,-2.013411045074463,0.005775441415607929,2.02368426322937,4.86534400561408,-0.0001492385781602934,0.27982842922210693,-1.597405735646383,-0.0,-0.009920710697770119,0.7636653184890747,6.115790165495127e-05,0.03169877082109451,0.7744474411010742,0.0001012692300719209,0.010456813499331474
894.0,998.0,1.389,0.2536,9.3553,-0.0373,0.0076,-0.1008,-1.5557843831232567,-0.07095320522785187,1.785581111907959,-2.0133395195007324,0.006950175389647484,2.075143814086914,4.865319776325979,-0.00014050178288016468,0.2861543893814087,-1.5974262396441858,-0.0,-0.008495284244418144,0.7636130452156067,7.703216397203505e-06,0.03477121889591217,0.7744154334068298,7.004258804954588e-05,-0.04994313418865204
894.0,998.0,1.389,0.2536,9.3553,-0.0373,0.0076,-0.1008,-1.556248403420188,-0.07231247425079346,1.776720643043518,-2.0133237838745117,0.00791094359010458,2.060250759124756,4.8653640178735635,-0.00013273119111545384,0.2746204435825348,-1.597462002431051,-0.0,-0.006817476358264685,0.763716995716095,2.1442185804687597e-09,0.03231778368353844,0.7743955254554749,6.498376751551405e-05,-0.0006052330136299133
894.0,998.0,1.389,0.2536,9.3553,-0.0373,0.0076,-0.1008,-1.5566592824510117,-0.07333753257989883,1.7915681600570679,-2.0132226943969727,0.00845965277403593,2.0202131271362305,4.865400093584814,-0.0001257751282537356,0.27951017022132874,-1.5973652044879358,-0.0,0.001637474400922656,0.7636168599128723,5.968510733388166e-13,0.027973540127277374,0.7744313478469849,-3.834827657556161e-05,0.003677818924188614
894.0,998.0,1.389,0.2536,9.3553,-0.0373,0.0076,-0.1008,-1.5573353071561833,-0.07686766237020493,1.748523235321045,-2.0132358074188232,0.009345823898911476,2.0848660469055176,4.8653316525514505,-0.00011756057210732251,0.28354570269584656,-1.597393814717428,-0.0,0.008539119735360146,0.7636207938194275,1.0847473672272381e-17,0.028481237590312958,0.7743955254554749,-5.745638918597251e-05,-0.009015697054564953
894.0,998.0,1.389,0.2536,9.3553,-0.0373,0.0076,-0.1008,-1.5577908058515568,-0.07504573464393616,1.7747962474822998,-2.0131478309631348,0.008926911279559135,2.0334362983703613,4.865351784020223,-0.00011207091301912442,0.2805664539337158,-1.597365681325094,-0.0,0.0006697383360005915,0.7636570930480957,3.0194342063269456e-21,0.031183598563075066,0.7744234800338745,-7.292359077837318e-05,-0.009557346813380718
894.0,998.0,1.389,0.2536,9.3553,-0.0373,0.0076,-0.1008,-1.5582501071370025,-0.0794275775551796,1.7524298429489136,-2.013104200363159,0.00902625359594822,2.0059328079223633,4.865380438953199,-0.000107071093225386,0.2783873975276947,-1.5973575750934046,-0.0,-0.0034982506185770035,0.7636492848396301,8.40470552223286e-25,0.03249239921569824,0.7743792533874512,-8.570116915507242e-05,-0.08058909326791763
913.0,1032.0,1.3155,0.1926,8.7535,-0.048,-0.0096,-0.1283,-1.5587578018060704,-0.08579660207033157,1.8014681339263916,-2.012995719909668,0.0100629273802042,2.077549934387207,4.865339848190107,-0.00010249839397147298,0.2876879572868347,-1.5973981062518519,-0.0,0.007125132717192173,0.7636570334434509,2.339480307261889e-28,0.0326758474111557,0.7744356393814087,-0.00032362149795517325,-0.08696216344833374
913.0,1032.0,1.3155,0.1926,8.7535,-0.048,-0.0096,-0.1283,-1.5594452864355226,-0.09592097997665405,1.7575218677520752,-2.0129551887512207,0.012834438122808933,2.020346164703369,4.865388172655859,-9.69762186286971e-05,0.2696191072463989,-1.5973694960223597,0.00033674613223411143,0.00470725866034627,0.7636687159538269,4.251889799908912e-33,0.03764096274971962,0.7744036316871643,-0.00034884625347331166,-0.08194737136363983
913.0,1032.0,1.3155,0.1926,8.7535,-0.048,-0.0096,-0.1283,-1.5600125950625916,-0.10027948766946793,1.7959221601486206,-2.012775182723999,0.016942383721470833,2.04000186920166,4.865372153907575,-9.320993558503687e-05,0.28605836629867554,-1.5973780790912073,0.0003425207396503538,0.0015319820959120989,0.7635928988456726,1.1835289702219929e-36,0.037760552018880844,0.7743792533874512,-0.00034694079658947885,-0.07593975216150284
913.0,1032.0,1.3155,0.1926,8.7535,-0.048,-0.0096,-0.1283,-1.560676552621164,-0.10879960656166077,1.684981346130371,-2.012735605239868,0.020989079028367996,2.0357718467712402,4.8653800068195245,-7.852222915971652e-05,0.27964115142822266,-1.5973418394671839,0.00032695880508981645,0.022044554352760315,0.763664722442627,3.294396637689072e-40,0.027983106672763824,0.7743754386901855,-0.0004855228471569717,-0.08160203695297241
913.0,1032.0,1.3155,0.1926,8.7535,-0.048,-0.0096,-0.1283,-1.561619904158153,-0.11646320670843124,1.7164175510406494,-2.012507677078247,0.02910577692091465,2.0735955238342285,4.865364002972402,-7.4781957664527e-05,0.27929145097732544,-1.5973694960223597,0.0002846194547601044,0.021236436441540718,0.7636612057685852,5.605193857299268e-45,0.02385842800140381,0.7743553519248962,-0.00041873956797644496,-0.07085646688938141
913.0,1032.0,1.3155,0.1926,8.7535,-0.048,-0.0096,-0.1283,-1.5623430677554389,-0.11766956746578217,1.7190500497817993,-2.0123677253723145,0.03337758779525757,2.1248247623443604,4.865416410356321,-7.221053965622559e-05,0.27626103162765503,-1.5973418394671839,0.00029604582232423127,0.013561180792748928,0.7636606693267822,0.0,0.026441603899002075,0.7744395732879639,-0.00034912326373159885,-0.052261896431446075
913.0,1032.0,1.3155,0.1926,8.7535,-0.048,-0.0096,-0.1283,-1.563138766480126,-0.1176050677895546,1.7752435207366943,-2.0121283531188965,0.0393478199839592,2.1081111431121826,4.865347701102056,-6.98100557201542e-05,0.284365177154541,-1.5974023977862757,0.0002472442283760756,0.018956881016492844,0.7636330127716064,0.0,0.03534669801592827,0.7744436860084534,-0.0003273847105447203,-0.0628456324338913
913.0,1032.0,1.3155,0.1926,8.7535,-0.048,-0.0096,-0.1283,-1.5639102298631151,-0.12114384770393372,1.7785086631774902,-2.0119121074676514,0.043982718139886856,2.1014797687530518,4.865372153907575,-3.833421047261254e-08,0.282956063747406,-1.5973575750934046,0.00024901313008740544,0.021389078348875046,0.7636693120002747,0.0,0.03697190806269646,0.774355411529541,-0.00029942908440716565,-0.042898599058389664
913.0,1032.0,1.3155,0.1926,8.7535,-0.048,-0.0096,-0.1283,-1.5649168908460815,-0.1380380541086197,1.7388423681259155,-2.011484146118164,0.04891994222998619,2.10481858253479,4.865360009461202,-6.967053344832108e-13,0.27355122566223145,-1.5973418394671839,0.00023174204397946596,0.010093729011714458,0.763568639755249,0.0,0.03429647535085678,0.7743914723396301,-0.00025672177434898913,-0.09555837512016296
913.0,1032.0,1.3155,0.1926,8.7535,-0.048,-0.0096,-0.1283,-1.5657565517215808,-0.14958252012729645,1.7138128280639648,-2.01113224029541,0.055899448692798615,2.124617576599121,4.865372168808737,-1.939304696749178e-16,0.27328214049339294,-1.597325627003805,0.00025105205713771284,0.00989505834877491,0.7636370658874512,0.0,0.035526566207408905,0.7743512392044067,-0.00019964533566962928,-0.10278350859880447
913.0,1032.0,1.3155,0.1926,8.7535,-0.048,-0.0096,-0.1283,-1.5666438674419005,-0.15730121731758118,1.6733427047729492,-2.0107169151306152,0.06822812557220459,2.08821702003479,4.865400093584814,-5.398125747558506e-20,0.2766345143318176,-1.5973618666278284,0.00023946973669808358,0.019372496753931046,0.7636129856109619,0.0,0.02811446040868759,0.7743714451789856,-0.0009515544516034424,-0.11065535247325897
913.0,1032.0,1.3155,0.1926,8.7535,-0.048,-0.0096,-0.1283,-1.5675510394251724,-0.15360195934772491,1.7067396640777588,-2.010284662246704,0.08362587541341782,2.1200456619262695,4.8653840748365305,-1.5025883312460588e-23,0.2831592261791229,-1.5973499456988733,0.0002454450586810708,0.020300723612308502,0.7636492848396301,0.0,0.033543992787599564,0.7743353843688965,-0.0017553875222802162,-0.085108682513237
913.0,1032.0,1.3155,0.1926,8.7535,-0.048,-0.0096,-0.1283,-1.5687940810206165,-0.14362861216068268,1.7397799491882324,-2.0095770359039307,0.10013984143733978,2.147099733352661,4.865372153907575,-2.7308800683636586e-28,0.27087050676345825,-1.5973575750934046,0.0002097021642839536,0.011626861989498138,0.7636289596557617,0.0,0.01758570782840252,0.7743273973464966,-0.0010425075888633728,-0.13672664761543274
913.0,1032.0,1.3155,0.1926,8.7535,-0.048,-0.0096,-0.1283,-1.5697250698325043,-0.15046656131744385,1.705981969833374,-2.008913040161133,0.10518071800470352,2.1538727283477783,4.86540416160182,-7.601505254020367e-32,0.2774391770362854,-1.5973618666278284,0.00021911124349571764,0.020818494260311127,0.7636289596557617,0.0,0.028196588158607483,0.7743593454360962,-0.0005499544786289334,-0.11902803182601929
921.0,1016.0,0.5306,0.2399,9.4026,-0.0211,-0.0215,-0.1235,-1.5706762356752115,-0.16382548213005066,1.6853511333465576,-2.0082895755767822,0.10459285974502563,2.1628878116607666,4.8653640178735635,-7.849163921491709e-06,0.27170711755752563,-1.5973499456988733,0.00022484934015665203,0.017370620742440224,0.7636048793792725,0.0,0.027576357126235962,0.7744436860084534,-0.0004023138026241213,-0.10365401953458786
921.0,1016.0,0.5306,0.2399,9.4026,-0.0211,-0.0215,-0.1235,-1.5716153583922328,-0.17764940857887268,1.6636669635772705,-2.0077388286590576,0.10379839688539505,2.1365582942962646,4.865355777531423,-2.1848436393412385e-09,0.2850337028503418,-1.597342316304342,0.00020718241285067052,0.01472930982708931,0.7636048197746277,0.0,0.02285235933959484,0.7743915319442749,-0.00031721009872853756,-0.13508348166942596
921.0,1016.0,0.5306,0.2399,9.4026,-0.0211,-0.0215,-0.1235,-1.5729223690428675,-0.1779308170080185,1.7194794416427612,-2.006835460662842,0.1174507811665535,2.1569058895111084,4.8654242036636255,0.0001113394318963401,0.26896390318870544,-1.5973380247699183,0.0002960235287901014,0.02498147077858448,0.7636330723762512,0.0,0.015901196748018265,0.7743595242500305,-0.0003293231129646301,-0.05818666145205498
921.0,1016.0,0.5306,0.2399,9.4026,-0.0211,-0.0215,-0.1235,-1.5739652119078578,-0.16316404938697815,1.6986747980117798,-2.0060625076293945,0.12973348796367645,2.1799044609069824,4.8653796193893335,0.00017431749438401312,0.2694735825061798,-1.597342316304342,0.0008948234608396888,0.010483958758413792,0.7636248469352722,0.0,0.015879418700933456,0.7743314504623413,-0.0002724291989579797,-0.07249850034713745
921.0,1016.0,0.5306,0.2399,9.4026,-0.0211,-0.0215,-0.1235,-1.5749684772887171,-0.15509366989135742,1.6709336042404175,-2.005251407623291,0.14418728649616241,2.275038719177246,4.8653800068195245,0.0001350651727989316,0.2738487422466278,-1.5973213354693812,0.0021075154654681683,0.01819434016942978,0.763572633266449,0.0,0.017489071935415268,0.7743434309959412,-0.0002892780175898224,-0.14579173922538757
921.0,1016.0,0.5306,0.2399,9.4026,-0.0211,-0.0215,-0.1235,-1.5763308010497035,-0.1619376540184021,1.7266771793365479,-2.004084825515747,0.15984152257442474,2.2231605052948,4.865416455059805,3.6162457490718225e-06,0.28771069645881653,-1.5972779432879847,0.01977309212088585,0.03728756681084633,0.7636092305183411,0.0,0.013995721004903316,0.7743593454360962,-0.00011415742483222857,-0.08892776072025299
921.0,1016.0,0.5306,0.2399,9.4026,-0.0211,-0.0215,-0.1235,-1.5773822269835414,-0.18155410885810852,1.6901049613952637,-2.003056287765503,0.15985515713691711,2.227407693862915,4.865396368294515,1.0065952515958543e-09,0.27382656931877136,-1.597137753163473,0.02941896952688694,0.029205460101366043,0.7636773586273193,0.0,0.008147593587636948,0.7743834853172302,-8.263644849648699e-05,-0.10838194191455841
921.0,1016.0,0.5306,0.2399,9.4026,-0.0211,-0.0215,-0.1235,-1.5784412823119105,-0.19516047835350037,1.7191886901855469,-2.0020408630371094,0.15529103577136993,2.2508578300476074,4.865400093584814,2.801894729686366e-13,0.2692052721977234,-1.5970056692706507,0.018876226618885994,0.03507532179355621,0.7636088728904724,0.0,0.008794145658612251,0.7743474841117859,-6.478535942733288e-05,-0.12021870911121368
921.0,1016.0,0.5306,0.2399,9.4026,-0.0211,-0.0215,-0.1235,-1.579484602014059,-0.19713181257247925,1.7017489671707153,-2.0011298656463623,0.16330169141292572,2.2325046062469482,4.865400093584814,7.799178946319118e-17,0.275790274143219,-1.5969536940204065,0.00808911956846714,0.012086768634617329,0.7636010646820068,0.0,0.023845544084906578,0.7743032574653625,-5.3277773986337706e-05,-0.15317824482917786
921.0,1016.0,0.5306,0.2399,9.4026,-0.0211,-0.0215,-0.1235,-1.580930849114889,-0.18767355382442474,1.7547075748443604,-1.9997146129608154,0.18281018733978271,2.214401960372925,4.865420090943136,1.417462130082606e-21,0.2729093134403229,-1.5969374815570276,-0.000818796397652477,0.019528107717633247,0.7636170387268066,0.0,0.018790269270539284,0.7743394374847412,-0.00012862228322774172,-0.12237808108329773
921.0,1016.0,0.5306,0.2399,9.4026,-0.0211,-0.0215,-0.1235,-1.5821262798705042,-0.17421288788318634,1.751150131225586,-1.9985431432724,0.19318567216396332,2.259293556213379,4.865383702307501,3.945557335830163e-25,0.2901018559932709,-1.5969255606280726,-0.0004165232239756733,0.014713907614350319,0.7637089490890503,0.0,0.02167629450559616,0.7743595242500305,-0.00011331335554132238,-0.15193980932235718
921.0,1016.0,0.5306,0.2399,9.4026,-0.0211,-0.0215,-0.1235,-1.583161016503805,-0.17525385320186615,1.757274866104126,-1.9973318576812744,0.19858741760253906,2.2447292804718018,4.86537583449439,1.0982604674512275e-28,0.2790617346763611,-1.596961800252096,-0.00036523601738736033,0.025864381343126297,0.7636614441871643,0.0,0.01246181782335043,0.7743834853172302,8.03335860837251e-05,-0.12726032733917236
921.0,1016.0,0.5306,0.2399,9.4026,-0.0211,-0.0215,-0.1235,-1.584360738793844,-0.18441319465637207,1.7720980644226074,-1.9960803985595703,0.19996048510074615,2.2638204097747803,4.865432399302282,3.057048207971631e-32,0.25700944662094116,-1.5969813505755823,-0.00026033236645162106,0.021955490112304688,0.7636612057685852,0.0,0.019327696412801743,0.7743792533874512,0.0005356082692742348,-0.1368957906961441
921.0,1016.0,0.5306,0.2399,9.4026,-0.0211,-0.0215,-0.1235,-1.585890909234518,-0.2039128988981247,1.8034250736236572,-1.994525671005249,0.20312495529651642,2.2831172943115234,4.865372183709898,5.556034513508719e-37,0.2718735933303833,-1.5969942251788538,-0.00018782353436108679,0.011772271245718002,0.7635488510131836,0.0,0.011789720505475998,0.7743673920631409,0.0006321122637018561,-0.09391330927610397
921.0,1026.0,1.3202,-0.1657,8.988,-0.0478,-0.0076,-0.1185,-1.5870782337584437,-0.21545468270778656,1.7345784902572632,-1.9931663274765015,0.20780879259109497,2.240250587463379,4.86540416160182,1.5465430501520844e-40,0.2784799635410309,-1.5969374815570276,-0.00020713826233986765,0.007154279388487339,0.7636252045631409,0.0,0.0020623519085347652,0.7743833065032959,0.0004858358297497034,-0.053598493337631226
921.0,1026.0,1.3202,-0.1657,8.988,-0.0478,-0.0076,-0.1185,-1.588292738000387,-0.20996777713298798,1.8174535036087036,-1.9918861389160156,0.21016444265842438,2.2513813972473145,4.865432011872091,4.344025239406933e-44,0.27614474296569824,-1.5969012419330042,-0.0001766613859217614,0.013767076656222343,0.7636773586273193,0.0,0.01649905927479267,0.774339497089386,0.00017776063759811223,-0.15489016473293304
921.0,1026.0,1.3202,-0.1657,8.988,-0.0478,-0.0076,-0.1185,-1.589935918847555,-0.1890430599451065,1.7898571491241455,-1.990082859992981,0.2259518802165985,2.314157485961914,4.865416008024969,0.0010081343352794647,0.28896835446357727,-1.5969460646258753,-0.00014766832464374602,0.006985279731452465,0.7636170387268066,0.0,0.010620707646012306,0.77440345287323,0.00012741133105009794,-0.1280377060174942
921.0,1026.0,1.3202,-0.1657,8.988,-0.0478,-0.0076,-0.1185,-1.5911947689452113,-0.19237929582595825,1.859389305114746,-1.9887447357177734,0.23858419060707092,2.3022713661193848,4.865448015719213,0.000814339320641011,0.27464559674263,-1.5969255606280726,-0.00013148528523743153,0.010348827578127384,0.7636808156967163,0.0,0.0208734180778265,0.7743914723396301,0.00015754684864077717,-0.09271590411663055
921.0,1026.0,1.3202,-0.1657,8.988,-0.0478,-0.0076,-0.1185,-1.5924660168089808,-0.20928488671779633,1.8212393522262573,-1.9873934984207153,0.23775973916053772,2.281985282897949,4.8653598604495905,2.1002654193580383e-06,0.28259748220443726,-1.5969417730914515,-0.00011849936709040776,0.0027894300874322653,0.7636370062828064,0.0,0.012296177446842194,0.7743433713912964,0.000134138812427409,-0.13165870308876038
921.0,1026.0,1.3202,-0.1657,8.988,-0.0478,-0.0076,-0.1185,-1.5937448940672816,-0.2212955355644226,1.8032958507537842,-1.9859378337860107,0.23431827127933502,2.330507278442383,4.865416008024969,5.84616688392714e-10,0.29164743423461914,-1.596917454396383,-0.00010784831829369068,-0.00029372749850153923,0.7636289596557617,0.0,0.006839033216238022,0.7744194865226746,0.00015565099602099508,-0.10280880331993103
921.0,1026.0,1.3202,-0.1657,8.988,-0.0478,-0.0076,-0.1185,-1.5955873928465785,-0.2226552665233612,1.7470847368240356,-1.9839941263198853,0.24630030989646912,2.2890050411224365,4.865359815746107,1.06251177628869e-14,0.30259817838668823,-1.5969660917865198,-5.231183604337275e-05,-0.0023034350015223026,0.7636251449584961,0.0,0.02440596930682659,0.7743752598762512,0.0001327002391917631,-0.10646603256464005
921.0,1026.0,1.3202,-0.1657,8.988,-0.0478,-0.0076,-0.1185,-1.5969506702818812,-0.22875083982944489,1.7683064937591553,-1.9825729131698608,0.24978089332580566,2.327113389968872,4.865408170014181,2.957540232815732e-18,0.28974562883377075,-1.5969741980182093,-4.811496546608396e-05,0.010072729550302029,0.7635607719421387,0.0,0.013919191434979439,0.7743313908576965,0.00011948630708502606,-0.05717102438211441
921.0,1026.0,1.3202,-0.1657,8.988,-0.0478,-0.0076,-0.1185,-1.5983220539488734,-0.23379655182361603,1.7818647623062134,-1.9810529947280884,0.24770303070545197,2.307156801223755,4.86537583449439,8.232422150173809e-22,0.2864435911178589,-1.5969460646258753,-4.454279405763373e-05,0.008521877229213715,0.7636886239051819,0.0,0.024700108915567398,0.7743913531303406,0.00010866600496228784,-0.01818789541721344
921.0,1026.0,1.3202,-0.1657,8.988,-0.0478,-0.0076,-0.1185,-1.5997325382628382,-0.22622986137866974,1.8206450939178467,-1.9795870780944824,0.2602476477622986,2.3134100437164307,4.865400019079008,2.291524819202552e-25,0.29974427819252014,-1.59698993364443,-4.146438368479721e-05,0.006944162305444479,0.7635688185691833,0.0,0.026859663426876068,0.7744234800338745,9.964288619812578e-05,-0.11083652079105377
921.0,1026.0,1.3202,-0.1657,8.988,-0.0478,-0.0076,-0.1185,-1.6015635929503382,-0.22240570187568665,1.799147605895996,-1.9775359630584717,0.27360790967941284,2.3594303131103516,4.865416425257482,-7.864536746637896e-05,0.28733164072036743,-1.5969379583941858,-3.796595774474554e-05,0.011791913770139217,0.7636808156967163,0.0,0.01647271402180195,0.77440345287323,5.477239756146446e-05,-0.07730022817850113
921.0,1026.0,1.3202,-0.1657,8.988,-0.0478,-0.0076,-0.1185,-1.602978845635885,-0.23811547458171844,1.839857578277588,-1.9758957624435425,0.26504603028297424,2.361614227294922,4.865351754217901,-0.00014575109526049346,0.29084938764572144,-1.5969536940204065,-3.570647822925821e-05,-0.0026223715394735336,0.763629138469696,1.2530986737147032e-07,0.026924781501293182,0.774379312992096,7.524482498411089e-05,-0.05330657213926315
921.0,1026.0,1.3202,-0.1657,8.988,-0.0478,-0.0076,-0.1185,-1.6044169865050257,-0.2517912983894348,1.7624152898788452,-1.974358081817627,0.26498669385910034,2.3305583000183105,4.865388202458181,-0.00011298796016490087,0.2900983691215515,-1.5969093481646937,-3.3700875064823776e-05,0.007080788724124432,0.7636651992797852,3.488045963173647e-11,0.008916986174881458,0.7744356393814087,0.00011547061149030924,-0.10293334722518921
921.0,1026.0,1.3202,-0.1657,8.988,-0.0478,-0.0076,-0.1185,-1.6063558063902796,-0.24963431060314178,1.7976794242858887,-1.9721463918685913,0.2759614586830139,2.355916976928711,4.865380021720686,-9.008593042381108e-05,0.28452610969543457,-1.5969579855548304,-3.1352825317298993e-05,0.008918583393096924,0.7636686563491821,6.33935233713761e-16,0.03409584239125252,0.7744234800338745,0.0003540592151694,-0.06345539540052414
912.0,1015.0,1.2915,-0.1747,9.6347,-0.0464,0.0819,-0.1098,-1.6078664265074671,-0.2467692494392395,1.813436508178711,-1.9705164432525635,0.27432316541671753,2.305593490600586,4.865400093584814,-0.00013871245027985424,0.27927500009536743,-1.5970023314105433,-2.9795835871482268e-05,-0.0015158426249399781,0.763629138469696,1.7645816200120685e-19,0.02742629311978817,0.7744434475898743,0.0002302081702509895,-0.09140647947788239
912.0,1015.0,1.2915,-0.1747,9.6347,-0.0464,0.0819,-0.1098,-1.6093698940672816,-0.24772724509239197,1.842986822128296,-1.9687936305999756,0.2773517668247223,2.336095094680786,4.865372168808737,-0.00011306532542221248,0.2940690815448761,-1.5969579855548304,-2.8386182748363353e-05,0.014367841184139252,0.7636331915855408,4.911778055308764e-23,0.03878946229815483,0.7743353843688965,9.426944598089904e-05,-0.06610500812530518
912.0,1015.0,1.2915,-0.1747,9.6347,-0.0464,0.0819,-0.1098,-1.610873361627096,-0.2493913471698761,1.863205909729004,-1.9670727252960205,0.28295180201530457,2.379469871520996,4.8653680858905695,-9.513107943348587e-05,0.29521167278289795,-1.5969293753253382,-2.710386979742907e-05,0.004062925931066275,0.7636845707893372,1.3672115045446767e-26,0.03662840276956558,0.7744275331497192,0.00014340123743750155,-0.10266119241714478
912.0,1015.0,1.2915,-0.1747,9.6347,-0.0464,0.0819,-0.1098,-1.6128751240172328,-0.2603338062763214,1.8427314758300781,-1.964789867401123,0.2809726297855377,2.3956127166748047,4.865384089737692,-7.852588896639645e-05,0.284314900636673,-1.596945587788717,-3.8235644751694053e-05,-0.004608371295034885,0.763676643371582,2.484839422186267e-31,0.03485558182001114,0.7744315266609192,0.0004222452116664499,-0.047621265053749084
912.0,1015.0,1.2915,-0.1747,9.6347,-0.0464,0.0819,-0.1098,-1.6144138775267542,-0.26572906970977783,1.8686802387237549,-1.9631167650222778,0.27692365646362305,2.3521385192871094,4.8654246357973,-0.00010413307609269395,0.27562853693962097,-1.5969412962542933,-3.6779132642550394e-05,-0.009783713147044182,0.7636767625808716,6.916643198549399e-35,0.04244157299399376,0.7744795680046082,0.0004132881003897637,-0.05169505998492241
912.0,1015.0,1.2915,-0.1747,9.6347,-0.0464,0.0819,-0.1098,-1.6159407101073207,-0.2661772668361664,1.8462986946105957,-1.9614698886871338,0.2772255837917328,2.3526618480682373,4.8654164401586435,5.0452566938474774e-05,0.2882480323314667,-1.5969660917865198,-3.533514973241836e-05,0.0008669499075040221,0.7636845707893372,1.925273107143924e-38,0.03878053277730942,0.7744274735450745,0.00033801866811700165,-0.03671976178884506
912.0,1015.0,1.2915,-0.1747,9.6347,-0.0464,0.0819,-0.1098,-1.6175476513304652,-0.2690931558609009,1.9357292652130127,-1.9596998691558838,0.2790135145187378,2.374160051345825,4.865420537977972,4.367975634522736e-05,0.2889461815357208,-1.5969818274127405,-3.400025889277458e-05,0.005945985671132803,0.7636846899986267,5.3585653275781005e-42,0.04092682898044586,0.7743671536445618,0.0002845714916475117,-0.05356110632419586
912.0,1015.0,1.2915,-0.1747,9.6347,-0.0464,0.0819,-0.1098,-1.619617601434225,-0.2664267420768738,1.893852949142456,-1.9575506448745728,0.28619369864463806,2.38057017326355,4.865396010666647,7.31105319573544e-05,0.2793772220611572,-1.5970142523394983,-4.311261000111699e-05,0.013882836326956749,0.763713002204895,0.00013103397213853896,0.04584164917469025,0.7744234800338745,0.000235025305300951,-0.06261234730482101
912.0,1015.0,1.2915,-0.1747,9.6347,-0.0464,0.0819,-0.1098,-1.6213494739928187,-0.2600514590740204,1.8850998878479004,-1.9558688402175903,0.28561002016067505,2.337308406829834,4.865384089737692,3.481046587694436e-05,0.2987120747566223,-1.5969536940204065,-4.1661332943476737e-05,0.0031096397433429956,0.7636208534240723,0.00014484196435660124,0.03232010081410408,0.7744234800338745,0.0002078805264318362,-0.04006015136837959
912.0,1015.0,1.2915,-0.1747,9.6347,-0.0464,0.0819,-0.1098,-1.6230079136290492,-0.26978954672813416,1.8652470111846924,-1.954134225845337,0.2887681722640991,2.347815752029419,4.865375804692068,2.940640479209833e-05,0.278205543756485,-1.5969775358783167,-4.99924281029962e-05,-1.891417196020484e-05,0.763664722442627,0.00013410174869932234,0.032086074352264404,0.7743833065032959,0.00021375593496486545,0.014870326034724712
912.0,1015.0,1.2915,-0.1747,9.6347,-0.0464,0.0819,-0.1098,-1.624678751031393,-0.2808604836463928,1.9045474529266357,-1.9524489641189575,0.2906830310821533,2.38680362701416,4.865368115692892,2.6780471671372652e-05,0.3036065101623535,-1.5969374815570276,-2.1209505973729392e-07,0.004586130380630493,0.7636566162109375,0.00014557980466634035,0.044243354350328445,0.7743834853172302,0.00022516241006087512,0.012726880609989166
912.0,1015.0,1.2915,-0.1747,9.6347,-0.0464,0.0819,-0.1098,-1.6269618473448695,-0.2804461419582367,1.9435279369354248,-1.9501062631607056,0.2864173650741577,2.3239707946777344,4.865347701102056,9.556900826268588e-10,0.2898864448070526,-1.5969818274127405,-3.854722964435897e-12,-0.0221562497317791,0.7636486291885376,0.00014264596393331885,0.03970117121934891,0.7744433879852295,0.00020012975437566638,-0.03662039339542389
912.0,1015.0,1.2915,-0.1747,9.6347,-0.0464,0.0819,-0.1098,-1.6286474666991175,-0.287675678730011,1.9361716508865356,-1.9483808279037476,0.2918335497379303,2.393233299255371,4.865440162807264,2.660198721460977e-13,0.289745032787323,-1.5969494024859827,-1.0729762330773064e-15,0.001201846171170473,0.7636446356773376,0.0001432287390343845,0.05241531878709793,0.7744194865226746,0.00018472570809535682,-0.0179135724902153
968.0,1001.0,1.1366,0.1472,10.2042,-0.0348,0.058,-0.1141,-1.630374094048971,-0.2896842658519745,1.9312074184417725,-1.946554183959961,0.3021017909049988,2.4440910816192627,4.86537632623271,7.404760039663623e-17,0.29049035906791687,-1.59698993364443,-2.986668726002539e-19,0.0003899536677636206,0.7637008428573608,0.00021207555255386978,0.049711450934410095,0.7744033932685852,0.00017152375949081033,0.012934722006320953
968.0,1001.0,1.1366,0.1472,10.2042,-0.0348,0.058,-0.1141,-1.6326075992979945,-0.28027796745300293,1.9592475891113281,-1.9442259073257446,0.2977248728275299,2.37355899810791,4.8653680858905695,1.3457788318743775e-21,0.2875986695289612,-1.5970104376422327,-5.428121912111384e-24,-0.009378287009894848,0.7636566758155823,0.00021234276937320828,0.054338522255420685,0.7744355797767639,0.00015660100325476378,-0.04619637876749039
968.0,1001.0,1.1366,0.1472,10.2042,-0.0348,0.058,-0.1141,-1.6342994175352992,-0.2890365421772003,1.9718701839447021,-1.9424554109573364,0.3019631505012512,2.3659682273864746,4.86540416160182,3.746023844539692e-25,0.29739847779273987,-1.5969579855548304,-1.5109376859114685e-27,-0.0189803633838892,0.7637247443199158,0.0001918772904900834,0.05319744348526001,0.7744354009628296,0.0001470086572226137,-0.01879887282848358
968.0,1001.0,1.1366,0.1472,10.2042,-0.0348,0.058,-0.1141,-1.6360823116698207,-0.2976987957954407,1.901827335357666,-1.940605878829956,0.303646445274353,2.3782379627227783,4.8653680858905695,1.0427195367500162e-28,0.28664785623550415,-1.5969856421100062,-4.205750456451107e-31,-0.0026299229357391596,0.7636566162109375,0.00019846628129016608,0.054444532841444016,0.7744393944740295,0.00013852366828359663,-0.07241060584783554
968.0,1001.0,1.1366,0.1472,10.2042,-0.0348,0.058,-0.1141,-1.6378923855223597,-0.2979912757873535,1.9461172819137573,-1.938743233680725,0.30003905296325684,2.3695883750915527,4.865355837136068,2.902448366445835e-32,0.2907470464706421,-1.5969255606280726,-1.1706860738321955e-34,0.005303693003952503,0.7637325525283813,0.000184514035936445,0.058113083243370056,0.77440345287323,0.0001309645886067301,-0.03030943125486374
968.0,1001.0,1.1366,0.1472,10.2042,-0.0348,0.058,-0.1141,-1.6401788196959437,-0.3012646734714508,1.9482179880142212,-1.9362545013427734,0.3095194399356842,2.4038052558898926,4.865391853242674,5.275056907414513e-37,0.2919699251651764,-1.5969775358783167,-2.1276643259045146e-39,-0.008185570128262043,0.763676643371582,0.00018834932416211814,0.06481184810400009,0.7744393944740295,0.0001068464553100057,-0.1029379814863205
968.0,1001.0,1.1366,0.1472,10.2042,-0.0348,0.058,-0.1141,-1.6419369182982386,-0.29714757204055786,1.9480702877044678,-1.9344046115875244,0.3096808195114136,2.361999034881592,4.865384089737692,1.4683365828581163e-40,0.28712794184684753,-1.5969412962542933,-5.927492504093976e-43,-2.667773514986038e-06,0.7636808156967163,0.00017499501700513065,0.0624634250998497,0.7743995189666748,0.00010165131243411452,-0.05123603343963623
968.0,1001.0,1.1366,0.1472,10.2042,-0.0348,0.058,-0.1141,-1.6438003979124964,-0.2993723154067993,1.9310557842254639,-1.9325062036514282,0.30892571806907654,2.358778953552246,4.865355777531423,4.0637655465419695e-44,0.2804471552371979,-1.5969703833209437,-0.0,-0.0092408312484622,0.7636967301368713,0.0001631021295906976,0.058051735162734985,0.7744073867797852,9.695812332211062e-05,-0.03608734905719757
968.0,1001.0,1.1366,0.1472,10.2042,-0.0348,0.058,-0.1141,-1.6455589733519496,-0.3013938069343567,1.9359720945358276,-1.9305833578109741,0.31108954548835754,2.3880152702331543,4.865416410356321,0.0,0.3059276044368744,-1.59698993364443,-0.0,-0.00037058713496662676,0.7637569308280945,0.0001627469464438036,0.06401092559099197,0.7744274735450745,9.267911809729412e-05,-0.06419225037097931
968.0,1001.0,1.1366,0.1472,10.2042,-0.0348,0.058,-0.1141,-1.6479722462096156,-0.3042982220649719,2.006838321685791,-1.9281227588653564,0.3136668801307678,2.3344969749450684,4.865392330079832,0.0,0.2662869393825531,-1.5969856421100062,-0.0,-0.004445343278348446,0.763716459274292,0.00014220393495634198,0.0642361044883728,0.7744234800338745,9.576216689310968e-05,-0.049226291477680206
968.0,1001.0,1.1366,0.1472,10.2042,-0.0348,0.058,-0.1141,-1.6498156986632289,-0.31047123670578003,1.8942813873291016,-1.926256537437439,0.31820452213287354,2.389057159423828,4.865319716721334,0.0,0.2820884585380554,-1.5969417730914515,-0.0,-0.012014336884021759,0.7636967301368713,0.0001298889546887949,0.04737977683544159,0.7744594812393188,9.60302641033195e-05,-0.031979307532310486
968.0,1001.0,1.1366,0.1472,10.2042,-0.0348,0.058,-0.1141,-1.6516491375365199,-0.3055802285671234,2.0134716033935547,-1.9243998527526855,0.31823238730430603,2.3912501335144043,4.86540416160182,0.0,0.28504136204719543,-1.5969942251788538,-0.0,-0.005893345456570387,0.763676643371582,0.00014184070460032672,0.06617017090320587,0.7744235396385193,8.07938922662288e-05,-0.035543572157621384
968.0,1001.0,1.1366,0.1472,10.2042,-0.0348,0.058,-0.1141,-1.6541711292662562,-0.30787721276283264,1.9267678260803223,-1.9217898845672607,0.3266320824623108,2.402352809906006,4.865400019079008,0.0,0.2856124937534332,-1.5969660917865198,-0.0,-0.004673697520047426,0.7636525630950928,0.00012966588838025928,0.060864273458719254,0.7744234800338745,7.685157470405102e-05,0.002352963201701641
968.0,1001.0,1.1366,0.1472,10.2042,-0.0348,0.058,-0.1141,-1.6560808620848597,-0.3121901750564575,1.9700974225997925,-1.9198720455169678,0.328401654958725,2.4666833877563477,4.865391853242674,0.0,0.2868477702140808,-1.5969818274127405,-0.0,-0.0029472988098859787,0.763744592666626,0.00012095249257981777,0.0736687034368515,0.7744315266609192,7.413850835291669e-05,-0.02460799179971218
998.0,984.0,1.5105,0.5599,8.8116,-0.0304,0.0344,-0.1281,-1.657966753045553,-0.30965733528137207,1.985543131828308,-1.9178874492645264,0.329450398683548,2.3858914375305176,4.865375864296713,0.0,0.2855767011642456,-1.596961800252096,-0.0,-0.0095065301284194,0.7637325525283813,0.0001133365512941964,0.07565069198608398,0.7743995189666748,7.161040412029251e-05,-0.0359809510409832
998.0,984.0,1.5105,0.5599,8.8116,-0.0304,0.0344,-0.1281,-1.659924646417135,-0.3207769989967346,2.007310390472412,-1.915860652923584,0.33849725127220154,2.4819986820220947,4.865392359882154,0.0,0.28936058282852173,-1.5969703833209437,-0.0,-0.011691195890307426,0.7636967301368713,0.00012408783368300647,0.06801620870828629,0.7743955254554749,2.3632759621250443e-05,-0.044284917414188385
998.0,984.0,1.5105,0.5599,8.8116,-0.0304,0.0344,-0.1281,-1.6624938450255335,-0.32193925976753235,1.9464917182922363,-1.9131792783737183,0.3372878134250641,2.410139322280884,4.865355852037229,0.0,0.2759634256362915,-1.5969579855548304,-0.0,-0.006565270945429802,0.7636526823043823,0.00011528777395142242,0.06154969334602356,0.774387538433075,7.656714346750138e-13,-0.025265764445066452
998.0,984.0,1.5105,0.5599,8.8116,-0.0304,0.0344,-0.1281,-1.6643759212889613,-0.321069598197937,2.0224766731262207,-1.911218523979187,0.34249359369277954,2.428014039993286,4.865404206305303,0.0,0.28871673345565796,-1.5969703833209437,-0.0,0.003081321017816663,0.7636765837669373,0.0001092879829229787,0.0784943550825119,0.7743993997573853,1.849006129021674e-18,-0.04523991420865059
998.0,984.0,1.5105,0.5599,8.8116,-0.0304,0.0344,-0.1281,-1.666281362573141,-0.32727983593940735,1.9680670499801636,-1.9091074466705322,0.341492235660553,2.480557680130005,4.865416499763288,0.0,0.2881397008895874,-1.5969293753253382,-0.0,-0.016663668677210808,0.7636927366256714,0.00011871336755575612,0.06902758032083511,0.774379312992096,4.46513297826777e-24,-0.04581739008426666
998.0,984.0,1.5105,0.5599,8.8116,-0.0304,0.0344,-0.1281,-1.6682115993895472,-0.3255176246166229,2.0455915927886963,-1.9070327281951904,0.3381502628326416,2.487523078918457,4.8653680858905695,0.0,0.2774007320404053,-1.5969856421100062,-0.0,-0.009881611913442612,0.7637245655059814,0.0001131258686655201,0.07671932131052017,0.7744235396385193,1.078277093579904e-29,-0.05718743056058884
998.0,984.0,1.5105,0.5599,8.8116,-0.0304,0.0344,-0.1281,-1.6707612476744593,-0.3225654363632202,2.003674030303955,-1.9042572975158691,0.34947487711906433,2.4137701988220215,4.865359815746107,0.0,0.29855701327323914,-1.5969579855548304,-0.0,0.007828902453184128,0.7637166380882263,0.00010670393385225907,0.07951676845550537,0.7744073867797852,3.493480792073856e-37,-0.03009365126490593
998.0,984.0,1.5105,0.5599,8.8116,-0.0304,0.0344,-0.1281,-1.672682901422018,-0.31999289989471436,2.070326805114746,-1.9021143913269043,0.35009846091270447,2.3902461528778076,4.865408184915342,0.0,0.301493763923645,-1.5969980398761194,-0.0,0.006333997473120689,0.7637447714805603,9.96606977423653e-05,0.07786061614751816,0.7743752598762512,8.435816755235399e-43,-0.01979447901248932
998.0,984.0,1.5105,0.5599,8.8116,-0.0304,0.0344,-0.1281,-1.6745854816832484,-0.3200535178184509,2.0619759559631348,-1.899983286857605,0.3512801229953766,2.4591989517211914,4.865384119540014,0.0,0.2919137477874756,-1.5969660917865198,-0.0,-0.003091614693403244,0.7637367248535156,9.345163562102243e-05,0.06960614770650864,0.7744153738021851,0.0,-0.005393300671130419
998.0,984.0,1.5105,0.5599,8.8116,-0.0304,0.0344,-0.1281,-1.677138467828268,-0.32197412848472595,2.092134475708008,-1.8971394300460815,0.351987361907959,2.440140724182129,4.86538818755702,0.0,0.2888600826263428,-1.5969942251788538,-0.0,-0.004367257002741098,0.763648509979248,0.00010354005644330755,0.08353319764137268,0.7744154334068298,0.0,-0.053544074296951294
998.0,984.0,1.5105,0.5599,8.8116,-0.0304,0.0344,-0.1281,-1.6790200672545375,-0.3224320709705353,2.0834383964538574,-1.8950272798538208,0.3580329716205597,2.446233034133911,4.865416410356321,0.0,0.28263992071151733,-1.596945587788717,-0.0,-0.006745792925357819,0.7637487649917603,9.790866897674277e-05,0.08622299879789352,0.774387538433075,0.0,-0.0028566205874085426
998.0,984.0,1.5105,0.5599,8.8116,-0.0304,0.0344,-0.1281,-1.6809412441649378,-0.3248080611228943,2.1065468788146973,-1.8929009437561035,0.3600509464740753,2.4174952507019043,4.865372153907575,0.0,0.29692116379737854,-1.5969494024859827,-0.0,-0.0018658603075891733,0.7637609243392944,9.285775740863755e-05,0.08137832581996918,0.7744073867797852,0.0,-0.003482969943434
998.0,984.0,1.5105,0.5599,8.8116,-0.0304,0.0344,-0.1281,-1.682927747766012,-0.31923121213912964,2.0851337909698486,-1.8907562494277954,0.36624976992607117,2.51358962059021,4.865372168808737,0.0,0.2972106337547302,-1.5969856421100062,-0.0,-0.008050121366977692,0.7637407779693604,8.830244041746482e-05,0.08032946288585663,0.7744313478469849,0.0,0.02032531052827835
