ramyac6/ROB537/final_project/csv/all/bad_112.csv
tof_0,tof_1,accelx,accely,accelz,gyrox,gyroy,gyroz,shoulder_lift_joint_position,shoulder_lift_joint_velocity,shoulder_lift_joint_effort,elbow_joint_position,elbow_joint_velocity,elbow_joint_effort,wrist_1_joint_position,wrist_1_joint_velocity,wrist_1_joint_effort,wrist_2_joint_position,wrist_2_joint_velocity,wrist_2_joint_effort,wrist_3_joint_position,wrist_3_joint_velocity,wrist_3_joint_effort,shoulder_pan_joint_position,shoulder_pan_joint_velocity,shoulder_pan_joint_effort
875.0,809.0,3.4397,-0.2925,8.6656,-0.0279,0.0188,-0.1184,-1.8363343677916468,0.0,3.180162191390991,-1.6501178741455078,-0.0,2.1121580600738525,4.620653792018555,0.0,0.28863397240638733,-1.5694621245013636,0.0,-0.014782749116420746,0.8184792995452881,0.0,-0.000220203073695302,0.7877417802810669,0.0,0.03406854346394539
875.0,809.0,3.4397,-0.2925,8.6656,-0.0279,0.0188,-0.1184,-1.8363706074156703,0.0,3.2230734825134277,-1.6501058340072632,-0.0,2.0907065868377686,4.6206299501606445,0.0,0.30925795435905457,-1.5694339911090296,0.0,-0.01711396872997284,0.8185030817985535,0.0,-0.024241261184215546,0.7877500057220459,0.0,0.05149834230542183
875.0,809.0,3.4397,-0.2925,8.6656,-0.0279,0.0188,-0.1184,-1.8363706074156703,0.0,3.222153902053833,-1.6501137018203735,-0.0,2.0860743522644043,4.6206700044819335,0.0,0.2959861755371094,-1.5694664160357874,0.0,-0.007409258279949427,0.8184912204742432,0.0,-0.007454228587448597,0.7876856327056885,0.0,0.020713940262794495
875.0,809.0,3.4397,-0.2925,8.6656,-0.0279,0.0188,-0.1184,-1.8363667927184046,0.0,3.201137065887451,-1.650158166885376,-0.0,2.0511481761932373,4.620621843928955,0.0,0.3084205687046051,-1.569442097340719,0.0,-0.008528279140591621,0.8185235261917114,0.0,-0.011831621639430523,0.7877541780471802,0.0,0.04060981422662735
875.0,809.0,3.4397,-0.2925,8.6656,-0.0279,0.0188,-0.1184,-1.8363543949522914,0.0,3.2326481342315674,-1.6501823663711548,-0.0,2.101163387298584,4.620649977321289,0.0,0.2976302206516266,-1.5694788138019007,0.0,-0.020269742235541344,0.8185234665870667,0.0,-0.003157437313348055,0.7877338528633118,0.0,0.018538758158683777
875.0,809.0,3.4397,-0.2925,8.6656,-0.0279,0.0188,-0.1184,-1.8363224468626917,0.0,3.2613353729248047,-1.6501343250274658,-0.0,2.110595226287842,4.620598002071045,0.0,0.29724013805389404,-1.5694826284991663,0.0,-0.0014918666565790772,0.8185234665870667,0.0,-0.0022900837939232588,0.7876856327056885,0.0,0.006390661466866732
875.0,809.0,3.4397,-0.2925,8.6656,-0.0279,0.0188,-0.1184,-1.8363343677916468,0.0,3.2138028144836426,-1.6501178741455078,-0.0,2.1240575313568115,4.62065760671582,0.0,0.2828826308250427,-1.5694664160357874,0.0,-0.0024011721834540367,0.8184670209884644,0.0,-0.012506341561675072,0.7877256274223328,0.0,-0.006209207233041525
875.0,809.0,3.4397,-0.2925,8.6656,-0.0279,0.0188,-0.1184,-1.8363825283446253,0.0,3.2161834239959717,-1.6501219272613525,-0.0,2.0949721336364746,4.620594187373779,0.0,0.28852999210357666,-1.5694664160357874,0.0,-0.001112094963900745,0.8185189962387085,0.0,-0.00659859087318182,0.7877178192138672,0.0,-0.004076254554092884
875.0,809.0,3.4397,-0.2925,8.6656,-0.0279,0.0188,-0.1184,-1.8363667927184046,0.0,3.2020413875579834,-1.6501538753509521,-0.0,2.0886330604553223,4.620638056392334,0.0,0.3035651445388794,-1.5694502035724085,0.0,-0.004083813168108463,0.8185394406318665,0.0,-0.004641380161046982,0.7877541184425354,0.0,0.012781072407960892
889.0,814.0,3.4499,-0.2608,8.7918,-0.026,0.0241,-0.1255,-1.8363706074156703,0.0,3.238381862640381,-1.6501823663711548,-0.0,2.107318878173828,4.620638056392334,0.0,0.2936474084854126,-1.5695021788226526,0.0,-0.009855259209871292,0.8184992074966431,0.0,-0.012217293493449688,0.7876815795898438,0.0,-0.020301030948758125
889.0,814.0,3.4499,-0.2608,8.7918,-0.026,0.0241,-0.1255,-1.836318155328268,0.0,3.2329535484313965,-1.650154709815979,-0.0,2.0626792907714844,4.6206299501606445,0.0,0.29199400544166565,-1.5694258848773401,0.0,-0.01050175167620182,0.8184830546379089,0.0,-0.00048612128011882305,0.7877137064933777,0.0,-0.030961934477090836
889.0,814.0,3.4499,-0.2608,8.7918,-0.026,0.0241,-0.1255,-1.8363381824889125,0.0,3.2218070030212402,-1.650109887123108,-0.0,2.113206148147583,4.620638056392334,0.0,0.2829822897911072,-1.5694621245013636,0.0,-0.005003591999411583,0.818451464176178,0.0,-0.0073822918348014355,0.7877137064933777,0.0,0.03285523131489754
889.0,814.0,3.4499,-0.2608,8.7918,-0.026,0.0241,-0.1255,-1.836318155328268,0.0,3.2020263671875,-1.6501219272613525,-0.0,2.0767877101898193,4.620645685786865,0.0,0.2891152799129486,-1.5694621245013636,0.0,0.0006916429847478867,0.8185193538665771,0.0,0.004005170427262783,0.787681519985199,0.0,-0.0034635821357369423
889.0,814.0,3.4499,-0.2608,8.7918,-0.026,0.0241,-0.1255,-1.8364025555052699,0.0,3.282782554626465,-1.6501424312591553,-0.0,2.1161413192749023,4.6206299501606445,0.0,0.2881822884082794,-1.5694621245013636,0.0,-0.023015212267637253,0.8184671401977539,0.0,-0.0002592788077890873,0.7877219319343567,0.0,0.020900532603263855
889.0,814.0,3.4499,-0.2608,8.7918,-0.026,0.0241,-0.1255,-1.8363262615599574,0.0,3.21695613861084,-1.6501095294952393,-0.0,2.058500289916992,4.620649977321289,0.0,0.2817539572715759,-1.569442097340719,0.0,-0.008083615452051163,0.8184952735900879,0.0,-0.011518256738781929,0.7877541184425354,0.0,-0.007422904018312693
889.0,814.0,3.4499,-0.2608,8.7918,-0.026,0.0241,-0.1255,-1.8363305530943812,0.0,3.211416244506836,-1.6501498222351074,-0.0,2.1473138332366943,4.620653792018555,0.0,0.30183473229408264,-1.5694425741778772,0.0,0.0017167753539979458,0.8185115456581116,0.0,-0.006017577368766069,0.7877219319343567,0.0,0.008486534468829632
889.0,814.0,3.4499,-0.2608,8.7918,-0.026,0.0241,-0.1255,-1.8363505802550257,0.0,3.2389156818389893,-1.6501301527023315,-0.0,2.0395824909210205,4.620653792018555,0.0,0.2907457947731018,-1.569442097340719,0.0,-0.014230036176741123,0.8185355067253113,0.0,-0.002567237475886941,0.7877500057220459,0.0,0.0036614984273910522
889.0,814.0,3.4499,-0.2608,8.7918,-0.026,0.0241,-0.1255,-1.8363586864867152,0.0,3.209979772567749,-1.6501579284667969,-0.0,2.0963096618652344,4.62065760671582,0.0,0.2948906421661377,-1.5694940725909632,0.0,-0.0020666837226599455,0.8184671401977539,0.0,0.007501513697206974,0.7877379655838013,0.0,0.017609572038054466
889.0,814.0,3.4499,-0.2608,8.7918,-0.026,0.0241,-0.1255,-1.8363625011839808,0.0,3.207040786743164,-1.650166392326355,-0.0,2.0834217071533203,4.62065760671582,0.0,0.2923683524131775,-1.569458309804098,0.0,-0.011728432029485703,0.8185515999794006,0.0,-0.005194524303078651,0.787733793258667,0.0,0.07539845257997513
889.0,814.0,3.4499,-0.2608,8.7918,-0.026,0.0241,-0.1255,-1.8363505802550257,0.0,3.2523412704467773,-1.6501137018203735,-0.0,2.068747043609619,4.620673819179199,0.0,0.28463345766067505,-1.5694502035724085,0.0,-0.008460409939289093,0.8184831142425537,0.0,-0.004772318992763758,0.787681519985199,0.0,-0.006935097277164459
889.0,814.0,3.4499,-0.2608,8.7918,-0.026,0.0241,-0.1255,-1.8363625011839808,0.0,3.267259120941162,-1.6501580476760864,-0.0,2.089359998703003,4.620621843928955,0.0,0.29506707191467285,-1.5694664160357874,0.0,-0.0021197828464210033,0.8185112476348877,0.0,0.01000569760799408,0.7877174019813538,0.0,0.04531495273113251
889.0,814.0,3.4499,-0.2608,8.7918,-0.026,0.0241,-0.1255,-1.8363906345763148,0.0,3.2134857177734375,-1.6501383781433105,-0.0,2.082998275756836,4.620693846339844,0.0,0.3015836179256439,-1.5694621245013636,0.0,-0.026685230433940887,0.8185033798217773,0.0,-0.019722435623407364,0.7876856923103333,0.0,0.025954261422157288
889.0,814.0,3.4499,-0.2608,8.7918,-0.026,0.0241,-0.1255,-1.8363944492735804,0.0,3.2114667892456055,-1.6501579284667969,-0.0,2.0813605785369873,4.620626135463379,0.0,0.2952919900417328,-1.569458309804098,0.0,-0.0061510782688856125,0.8185473680496216,0.0,-0.0017113351495936513,0.7877541184425354,0.0,-0.060422591865062714
889.0,814.0,3.4499,-0.2608,8.7918,-0.026,0.0241,-0.1255,-1.8363143406310023,0.0,3.2089762687683105,-1.6501946449279785,-0.0,2.1075239181518555,4.6206299501606445,0.0,0.3133552670478821,-1.5694745222674769,0.0,-0.008212264627218246,0.8185033798217773,0.0,-0.015335154719650745,0.7877620458602905,0.0,0.027393391355872154
889.0,814.0,3.4499,-0.2608,8.7918,-0.026,0.0241,-0.1255,-1.836346288720602,0.0,3.2210021018981934,-1.6501579284667969,-0.0,2.1161725521087646,4.620697661037109,0.0,0.28373709321022034,-1.5694502035724085,0.0,-0.006035586819052696,0.8184636831283569,0.0,0.0021114812698215246,0.7877418398857117,0.0,-0.022284628823399544
870.0,810.0,3.4026,-0.3153,8.8379,-0.0432,0.0229,-0.1231,-1.8363186321654261,0.0,3.234752655029297,-1.6501383781433105,-0.0,2.074345350265503,4.62065760671582,0.0,0.30502191185951233,-1.5694258848773401,0.0,-0.015830138698220253,0.8185192942619324,0.0,-0.006850811652839184,0.787742018699646,0.0,0.03137628361582756
870.0,810.0,3.4026,-0.3153,8.8379,-0.0432,0.0229,-0.1231,-1.8363224468626917,0.0,3.2388358116149902,-1.6501744985580444,-0.0,2.105957508087158,4.620602293605469,0.0,0.2918882966041565,-1.569470230733053,0.0,-0.008727327920496464,0.8185756802558899,0.0,-0.006636327598243952,0.7877178192138672,0.0,-0.004822678864002228
870.0,810.0,3.4026,-0.3153,8.8379,-0.0432,0.0229,-0.1231,-1.8363186321654261,0.0,3.2420363426208496,-1.6501621007919312,-0.0,2.0821359157562256,4.620661898250244,0.0,0.29314008355140686,-1.569430176411764,0.0,-0.011009104549884796,0.8184752464294434,0.0,-0.011212259531021118,0.7877178192138672,0.0,0.02332909405231476
870.0,810.0,3.4026,-0.3153,8.8379,-0.0432,0.0229,-0.1231,-1.8363586864867152,0.0,3.252037525177002,-1.6501704454421997,-0.0,2.0619235038757324,4.6206700044819335,0.0,0.2969665229320526,-1.569430176411764,0.0,-0.012360431253910065,0.8184830546379089,0.0,-0.004082174971699715,0.7877260446548462,0.0,-0.03010392189025879
870.0,810.0,3.4026,-0.3153,8.8379,-0.0432,0.0229,-0.1231,-1.8363625011839808,0.0,3.18200421333313,-1.6501823663711548,-0.0,2.1230669021606445,4.620653792018555,0.0,0.29370325803756714,-1.569470230733053,0.0,-0.005910004023462534,0.8185434937477112,0.0,-0.011386215686798096,0.7877016663551331,0.0,-0.06090906262397766
870.0,810.0,3.4026,-0.3153,8.8379,-0.0432,0.0229,-0.1231,-1.8363868198790492,0.0,3.1916112899780273,-1.6501301527023315,-0.0,2.0457866191864014,4.620626135463379,0.0,0.29115498065948486,-1.5694258848773401,0.0,-0.017778700217604637,0.8185234665870667,0.0,0.0032539679668843746,0.7877219319343567,0.0,0.05073900148272514
870.0,810.0,3.4026,-0.3153,8.8379,-0.0432,0.0229,-0.1231,-1.8363224468626917,0.0,3.202206611633301,-1.6501017808914185,-0.0,2.121985912322998,4.620634241695068,0.0,0.28410983085632324,-1.569470230733053,0.0,-0.01307628396898508,0.8185272216796875,0.0,0.0016545522958040237,0.7877702713012695,0.0,-0.010060062631964684
870.0,810.0,3.4026,-0.3153,8.8379,-0.0432,0.0229,-0.1231,-1.8363262615599574,0.0,3.205658197402954,-1.6501579284667969,-0.0,2.087068557739258,4.620645685786865,0.0,0.2980336546897888,-1.5694544951068323,0.0,-0.012419933453202248,0.8184993267059326,0.0,-0.0062963394448161125,0.787742018699646,0.0,0.011897997930645943
870.0,810.0,3.4026,-0.3153,8.8379,-0.0432,0.0229,-0.1231,-1.8364306888976039,0.0,3.238013744354248,-1.6501415967941284,-0.0,2.049339532852173,4.620649977321289,0.0,0.2977445125579834,-1.5694940725909632,0.0,-0.012251351028680801,0.8184711337089539,0.0,-0.004513366613537073,0.787729799747467,0.0,0.00017375359311699867
870.0,810.0,3.4026,-0.3153,8.8379,-0.0432,0.0229,-0.1231,-1.8363186321654261,0.0,3.227196216583252,-1.6501456499099731,-0.0,2.05234956741333,4.620673819179199,0.0,0.28655922412872314,-1.5694502035724085,0.0,0.0028100167401134968,0.818559467792511,0.0,-0.00088776700431481,0.787733793258667,0.0,0.040642838925123215
870.0,810.0,3.4026,-0.3153,8.8379,-0.0432,0.0229,-0.1231,-1.8363787136473597,0.0,3.2432947158813477,-1.6501219272613525,-0.0,2.106011390686035,4.620653792018555,0.0,0.3072347044944763,-1.5694182554828089,0.0,-0.0004711941001005471,0.8185112476348877,0.0,-0.01001575868576765,0.7877500653266907,0.0,0.0007604914717376232
870.0,810.0,3.4026,-0.3153,8.8379,-0.0432,0.0229,-0.1231,-1.8363186321654261,0.0,3.2161850929260254,-1.6501662731170654,-0.0,2.0584542751312256,4.6206418710896,0.0,0.30420488119125366,-1.5694544951068323,0.0,-0.00711873359978199,0.8185393214225769,0.0,-0.004031919874250889,0.787733793258667,0.0,-0.013911429792642593
870.0,810.0,3.4026,-0.3153,8.8379,-0.0432,0.0229,-0.1231,-1.836346288720602,0.0,3.225119113922119,-1.6501538753509521,-0.0,2.0726797580718994,4.620638056392334,0.0,0.29355576634407043,-1.5694578329669397,0.0,-0.010180833749473095,0.8184871077537537,0.0,-0.0061622546054422855,0.7877016663551331,0.0,-0.028061043471097946
870.0,810.0,3.4026,-0.3153,8.8379,-0.0432,0.0229,-0.1231,-1.8363586864867152,0.0,3.1876256465911865,-1.6501983404159546,-0.0,2.0820577144622803,4.620618029231689,0.0,0.2867296636104584,-1.5695021788226526,0.0,-0.006337262690067291,0.8184433579444885,0.0,-0.005735253915190697,0.78767329454422,0.0,0.034933559596538544
870.0,810.0,3.4026,-0.3153,8.8379,-0.0432,0.0229,-0.1231,-1.8363424740233363,0.0,3.213840961456299,-1.6501466035842896,-0.0,2.0908524990081787,4.6206580835529785,0.0,0.29970747232437134,-1.5694502035724085,0.0,-0.0018947982462123036,0.8185312747955322,0.0,-0.004205033183097839,0.7877458930015564,0.0,0.06685328483581543
870.0,810.0,3.4026,-0.3153,8.8379,-0.0432,0.0229,-0.1231,-1.8363024197020472,0.0,3.2235260009765625,-1.6501177549362183,-0.0,2.10750150680542,4.620661898250244,0.0,0.28463977575302124,-1.569413963948385,0.0,-0.018444525077939034,0.8185433745384216,0.0,-0.01540052704513073,0.7877057790756226,0.0,0.008498046547174454
870.0,810.0,3.4026,-0.3153,8.8379,-0.0432,0.0229,-0.1231,-1.8363305530943812,0.0,3.2509541511535645,-1.6501864194869995,-0.0,2.0812175273895264,4.620638056392334,0.0,0.28880155086517334,-1.5694339911090296,0.0,-0.004153906367719173,0.8185153007507324,0.0,-0.011106089688837528,0.7876975536346436,0.0,-0.014002054929733276
885.0,790.0,3.4594,-0.2877,8.723,-0.033,0.0241,-0.1127,-1.8363381824889125,0.0,3.200573205947876,-1.6501017808914185,-0.0,2.08579683303833,4.620602293605469,0.0,0.2906537353992462,-1.5694788138019007,0.0,-0.015132885426282883,0.8185352683067322,0.0,0.005264090374112129,0.7877219319343567,0.0,0.015882615000009537
885.0,790.0,3.4594,-0.2877,8.723,-0.033,0.0241,-0.1127,-1.8363501034178675,0.0,3.2279584407806396,-1.6501456499099731,-0.0,2.0518078804016113,4.62065760671582,0.0,0.29834243655204773,-1.5694745222674769,0.0,-0.0010098631028085947,0.8185352683067322,0.0,-0.003067453857511282,0.7877823114395142,0.0,-0.038584958761930466
885.0,790.0,3.4594,-0.2877,8.723,-0.033,0.0241,-0.1127,-1.8363224468626917,0.0,3.2025604248046875,-1.650109887123108,-0.0,2.110258102416992,4.620638056392334,0.0,0.2882355749607086,-1.5694664160357874,0.0,-0.0011237490689381957,0.8185112476348877,0.0,-0.005180808715522289,0.7877016067504883,0.0,-0.06270678341388702
885.0,790.0,3.4594,-0.2877,8.723,-0.033,0.0241,-0.1127,-1.8363548717894496,0.0,3.2113699913024902,-1.6501983404159546,-0.0,2.1083145141601562,4.620621843928955,0.0,0.2959102392196655,-1.5694869200335901,0.0,-0.003882508259266615,0.8185033798217773,0.0,-0.008534315973520279,0.7877379655838013,0.0,0.00519057922065258
885.0,790.0,3.4594,-0.2877,8.723,-0.033,0.0241,-0.1127,-1.836318155328268,0.0,3.2607855796813965,-1.6501744985580444,-0.0,2.109081983566284,4.620681925410889,0.0,0.29314127564430237,-1.5694177786456507,0.0,-0.012551521882414818,0.8184830546379089,0.0,9.068334475159645e-05,0.7877214550971985,0.0,0.01649937778711319
885.0,790.0,3.4594,-0.2877,8.723,-0.033,0.0241,-0.1127,-1.8363262615599574,0.0,3.285404682159424,-1.6501259803771973,-0.0,2.071448802947998,4.620649977321289,0.0,0.3057875633239746,-1.5694459120379847,0.0,0.007110546808689833,0.8185595870018005,0.0,-0.008329390548169613,0.7877016067504883,0.0,0.005417681764811277
885.0,790.0,3.4594,-0.2877,8.723,-0.033,0.0241,-0.1127,-1.8363501034178675,0.0,3.2052221298217773,-1.650138258934021,-0.0,2.0983359813690186,4.620613737697266,0.0,0.29422640800476074,-1.5694344679461878,0.0,-0.003318651346489787,0.8185514807701111,0.0,-0.009381737560033798,0.787742018699646,0.0,-0.008977243676781654
885.0,790.0,3.4594,-0.2877,8.723,-0.033,0.0241,-0.1127,-1.836346288720602,0.0,3.250608444213867,-1.6501100063323975,-0.0,2.0908048152923584,4.62068955480542,0.0,0.29412758350372314,-1.5694258848773401,0.0,-0.007071542087942362,0.8184671401977539,0.0,-0.0015145083889365196,0.7877178192138672,0.0,-0.001623678021132946
885.0,790.0,3.4594,-0.2877,8.723,-0.033,0.0241,-0.1127,-1.8363224468626917,0.0,3.2025818824768066,-1.6501383781433105,-0.0,2.0788168907165527,4.620697661037109,0.0,0.2991354763507843,-1.5694220701800745,0.0,-0.014120068401098251,0.8184993267059326,0.0,-0.006575031206011772,0.7877418398857117,0.0,-0.009074787609279156
885.0,790.0,3.4594,-0.2877,8.723,-0.033,0.0241,-0.1127,-1.8363424740233363,0.0,3.2036943435668945,-1.6501424312591553,-0.0,2.0778205394744873,4.620589895839355,0.0,0.29798460006713867,-1.5694335142718714,0.0,-0.01847025752067566,0.8185312151908875,0.0,0.011575041338801384,0.787742018699646,0.0,0.0006773988716304302
885.0,790.0,3.4594,-0.2877,8.723,-0.033,0.0241,-0.1127,-1.8363625011839808,0.0,3.2160704135894775,-1.6501343250274658,-0.0,2.099297046661377,4.62066571294751,0.0,0.3067639172077179,-1.5694258848773401,0.0,-0.0033476443495601416,0.8185114860534668,0.0,0.004038406535983086,0.7877458930015564,0.0,-0.0020271195098757744
885.0,790.0,3.4594,-0.2877,8.723,-0.033,0.0241,-0.1127,-1.8363262615599574,0.0,3.228933811187744,-1.6501498222351074,-0.0,2.0613009929656982,4.620621843928955,0.0,0.2911093235015869,-1.5694621245013636,0.0,-0.013673989102244377,0.8185192942619324,0.0,7.038970943540335e-05,0.7876856923103333,0.0,0.0025502732023596764
885.0,790.0,3.4594,-0.2877,8.723,-0.033,0.0241,-0.1127,-1.836346288720602,0.0,3.2321934700012207,-1.6501424312591553,-0.0,2.110679864883423,4.620609923,0.0,0.3014340400695801,-1.569498364125387,0.0,-0.008484178222715855,0.8184711337089539,0.0,-0.0033295005559921265,0.787733793258667,0.0,-0.0007122121751308441
885.0,790.0,3.4594,-0.2877,8.723,-0.033,0.0241,-0.1127,-1.8363424740233363,0.0,3.2122159004211426,-1.650113582611084,-0.0,2.0915794372558594,4.620701952571533,0.0,0.28709468245506287,-1.5694788138019007,0.0,-0.012640068307518959,0.8184752464294434,0.0,-0.005509546957910061,0.7876856327056885,0.0,-0.004924654960632324
885.0,790.0,3.4594,-0.2877,8.723,-0.033,0.0241,-0.1127,-1.8363625011839808,0.0,3.2051024436950684,-1.6501823663711548,-0.0,2.0932908058166504,4.620594187373779,0.0,0.30740320682525635,-1.5694544951068323,0.0,-0.012676052749156952,0.818447470664978,0.0,-0.008253991603851318,0.7877137660980225,0.0,0.04999496042728424
885.0,790.0,3.4594,-0.2877,8.723,-0.033,0.0241,-0.1127,-1.8363224468626917,0.0,3.197350025177002,-1.6501704454421997,-0.0,2.0993852615356445,4.620638056392334,0.0,0.29333677887916565,-1.5694459120379847,0.0,-0.018628939986228943,0.8185314536094666,0.0,-0.005906288046389818,0.7877744436264038,0.0,-0.0002681344631128013
885.0,790.0,3.4594,-0.2877,8.723,-0.033,0.0241,-0.1127,-1.8363062343993128,0.0,3.2188658714294434,-1.6501137018203735,-0.0,2.117053747177124,4.620645685786865,0.0,0.3002488613128662,-1.5694745222674769,0.0,-0.008486412465572357,0.8184753060340881,0.0,-0.007816031575202942,0.7877016067504883,0.0,-0.022762367501854897
888.0,793.0,3.4594,-0.3111,8.8534,-0.0341,0.0339,-0.1239,-1.8363424740233363,0.0,3.229600191116333,-1.6501580476760864,-0.0,2.1057848930358887,4.620677633876465,0.0,0.2888563275337219,-1.5694745222674769,0.0,-0.003997315652668476,0.8184871673583984,0.0,-0.0013429027749225497,0.7877458930015564,0.0,-0.022770404815673828
888.0,793.0,3.4594,-0.3111,8.8534,-0.0341,0.0339,-0.1239,-1.8363262615599574,0.0,3.233574390411377,-1.6501823663711548,-0.0,2.071382522583008,4.620669527644775,0.0,0.2970370352268219,-1.569430176411764,0.0,-0.010954905301332474,0.8184912204742432,0.0,-0.006171927787363529,0.7877016663551331,0.0,0.006866813637316227
888.0,793.0,3.4594,-0.3111,8.8534,-0.0341,0.0339,-0.1239,-1.8363343677916468,0.0,3.1901490688323975,-1.6501260995864868,-0.0,2.0823163986206055,4.6206299501606445,0.0,0.29158321022987366,-1.5694626013385218,0.0,-0.0018039558781310916,0.8185113072395325,0.0,0.0011510944459587336,0.7877256274223328,0.0,-0.011583901941776276
888.0,793.0,3.4594,-0.3111,8.8534,-0.0341,0.0339,-0.1239,-1.8363143406310023,0.0,3.21138334274292,-1.6501621007919312,-0.0,2.131777286529541,4.6206580835529785,0.0,0.29700231552124023,-1.5694664160357874,0.0,0.002974610310047865,0.8185352683067322,0.0,0.008302286267280579,0.787733793258667,0.0,-0.025765608996152878
888.0,793.0,3.4594,-0.3111,8.8534,-0.0341,0.0339,-0.1239,-1.8363105259337367,0.0,3.189316511154175,-1.6501301527023315,-0.0,2.0871944427490234,4.620701952571533,0.0,0.30638188123703003,-1.5694544951068323,0.0,-0.014468502253293991,0.8184711933135986,0.0,-0.0005204826011322439,0.7877500057220459,0.0,-0.009538797661662102
888.0,793.0,3.4594,-0.3111,8.8534,-0.0341,0.0339,-0.1239,-1.8363424740233363,0.0,3.2034311294555664,-1.6501704454421997,-0.0,2.1334269046783447,4.62065760671582,0.0,0.2889712154865265,-1.5694463888751429,0.0,0.0026299022138118744,0.8185152411460876,0.0,-0.00040230885497294366,0.7877500057220459,0.0,-0.008017796091735363
888.0,793.0,3.4594,-0.3111,8.8534,-0.0341,0.0339,-0.1239,-1.8363224468626917,0.0,3.242387533187866,-1.6501946449279785,-0.0,2.0638036727905273,4.620669527644775,0.0,0.29749107360839844,-1.5694502035724085,0.0,-0.006078148260712624,0.8184711933135986,0.0,-0.009598100557923317,0.7877178192138672,0.0,0.0010254611261188984
888.0,793.0,3.4594,-0.3111,8.8534,-0.0341,0.0339,-0.1239,-1.8363381824889125,0.0,3.189413547515869,-1.6501343250274658,-0.0,2.0886762142181396,4.62063376485791,0.0,0.2934425175189972,-1.5694459120379847,0.0,-0.01463672798126936,0.818507194519043,0.0,-0.004389835987240076,0.7877178192138672,0.0,-0.006929560098797083
888.0,793.0,3.4594,-0.3111,8.8534,-0.0341,0.0339,-0.1239,-1.8363706074156703,0.0,3.231901168823242,-1.6501058340072632,-0.0,2.0702013969421387,4.620606108302734,0.0,0.3026842772960663,-1.5694544951068323,0.0,-0.01321892999112606,0.8185192942619324,0.0,-0.003993102815002203,0.7877137660980225,0.0,0.01316403690725565
888.0,793.0,3.4594,-0.3111,8.8534,-0.0341,0.0339,-0.1239,-1.8363424740233363,0.0,3.222048759460449,-1.6501741409301758,-0.0,2.0948002338409424,4.620653792018555,0.0,0.2963775396347046,-1.5694664160357874,0.0,-0.023714199662208557,0.8184993863105774,0.0,-0.003486522240564227,0.7876855731010437,0.0,0.010693514719605446
888.0,793.0,3.4594,-0.3111,8.8534,-0.0341,0.0339,-0.1239,-1.8363381824889125,0.0,3.2343697547912598,-1.6501178741455078,-0.0,2.101789951324463,4.620669527644775,0.0,0.290706604719162,-1.569470230733053,0.0,-0.0042014820501208305,0.818479061126709,0.0,-0.002621551277115941,0.7877256274223328,0.0,0.008133945055305958
888.0,793.0,3.4594,-0.3111,8.8534,-0.0341,0.0339,-0.1239,-1.8363105259337367,0.0,3.2120156288146973,-1.6501621007919312,-0.0,2.057776927947998,4.620626135463379,0.0,0.2919178307056427,-1.569470230733053,0.0,-0.00482921302318573,0.8185715675354004,0.0,0.006074912846088409,0.7877540588378906,0.0,-0.008326010778546333
888.0,793.0,3.4594,-0.3111,8.8534,-0.0341,0.0339,-0.1239,-1.8363586864867152,0.0,3.2255592346191406,-1.6501375436782837,-0.0,2.1317384243011475,4.620618029231689,0.0,0.2992095947265625,-1.5694544951068323,0.0,-0.008187180384993553,0.8185473084449768,0.0,0.003192569361999631,0.7877458930015564,0.0,-0.00917109102010727
888.0,793.0,3.4594,-0.3111,8.8534,-0.0341,0.0339,-0.1239,-1.8363305530943812,0.0,3.1694588661193848,-1.6501259803771973,-0.0,2.131913185119629,4.62065760671582,0.0,0.28326448798179626,-1.5694664160357874,0.0,-0.014328548684716225,0.8185515403747559,0.0,0.004970112349838018,0.7877178192138672,0.0,0.0641738623380661
888.0,793.0,3.4594,-0.3111,8.8534,-0.0341,0.0339,-0.1239,-1.8363625011839808,0.0,3.211456775665283,-1.6500976085662842,-0.0,2.0885329246520996,4.6206418710896,0.0,0.3051440119743347,-1.5694869200335901,0.0,-0.007611474953591824,0.8185153007507324,0.0,0.002171654487028718,0.787709653377533,0.0,-0.06121063977479935
888.0,793.0,3.4594,-0.3111,8.8534,-0.0341,0.0339,-0.1239,-1.8363343677916468,0.0,3.15738582611084,-1.6501466035842896,-0.0,2.0658509731292725,4.620677633876465,0.0,0.2929491698741913,-1.569442097340719,0.0,0.0014621946029365063,0.818459689617157,0.0,-0.00363149237819016,0.7877178192138672,0.0,0.017652928829193115
888.0,793.0,3.4594,-0.3111,8.8534,-0.0341,0.0339,-0.1239,-1.8363667927184046,0.0,3.2866640090942383,-1.6501137018203735,-0.0,2.106785297393799,4.620613737697266,0.0,0.29558032751083374,-1.569442097340719,0.0,-0.009337438270449638,0.8186033368110657,0.0,0.006257922388613224,0.7877013683319092,0.0,0.008355766534805298
860.0,810.0,3.4391,-0.2985,8.7021,-0.0336,0.0257,-0.1226,-1.8363381824889125,0.0,3.2309343814849854,-1.6501621007919312,-0.0,2.0921168327331543,4.620661898250244,0.0,0.3057788610458374,-1.5694826284991663,0.0,-0.018729202449321747,0.8185154795646667,0.0,-0.009123669005930424,0.7877057790756226,0.0,-0.006832374259829521
860.0,810.0,3.4391,-0.2985,8.7021,-0.0336,0.0257,-0.1226,-1.8363381824889125,0.0,3.2116990089416504,-1.6501538753509521,-0.0,2.115673303604126,4.62065760671582,0.0,0.29702121019363403,-1.5694502035724085,0.0,-0.01241370104253292,0.8185393214225769,0.0,-0.009357331320643425,0.7877500057220459,0.0,0.03488021343946457
860.0,810.0,3.4391,-0.2985,8.7021,-0.0336,0.0257,-0.1226,-1.8363505802550257,0.0,3.202237844467163,-1.6501179933547974,-0.0,2.085689067840576,4.620645685786865,0.0,0.2970740795135498,-1.5694459120379847,0.0,-0.008110404945909977,0.8184953927993774,0.0,-0.004558790009468794,0.7877541184425354,0.0,-0.021999157965183258
860.0,810.0,3.4391,-0.2985,8.7021,-0.0336,0.0257,-0.1226,-1.8363062343993128,0.0,3.2052371501922607,-1.650166392326355,-0.0,2.0528311729431152,4.620649500484131,0.0,0.29517900943756104,-1.5694664160357874,0.0,-0.010536052286624908,0.8185113072395325,0.0,-0.002011094242334366,0.7877500057220459,0.0,-0.015360829420387745
860.0,810.0,3.4391,-0.2985,8.7021,-0.0336,0.0257,-0.1226,-1.8363105259337367,0.0,3.2297863960266113,-1.6501781940460205,-0.0,2.109873056411743,4.6206299501606445,0.0,0.2956143617630005,-1.5694502035724085,0.0,-0.012131800875067711,0.8185312747955322,0.0,0.0026984591968357563,0.7877178192138672,0.0,-0.0481836162507534
860.0,810.0,3.4391,-0.2985,8.7021,-0.0336,0.0257,-0.1226,-1.8363186321654261,0.0,3.2013893127441406,-1.6501058340072632,-0.0,2.0879263877868652,4.6206580835529785,0.0,0.29222723841667175,-1.5694339911090296,0.0,-0.012384734116494656,0.8185033798217773,0.0,0.00466002756729722,0.7877538800239563,0.0,-0.010941704735159874
860.0,810.0,3.4391,-0.2985,8.7021,-0.0336,0.0257,-0.1226,-1.8363501034178675,0.0,3.245704412460327,-1.650166392326355,-0.0,2.087280035018921,4.620618029231689,0.0,0.2931750416755676,-1.569498364125387,0.0,-0.002018407452851534,0.8185074925422668,0.0,-0.01865648292005062,0.7877500057220459,0.0,0.018321815878152847
860.0,810.0,3.4391,-0.2985,8.7021,-0.0336,0.0257,-0.1226,-1.8363868198790492,0.0,3.2295188903808594,-1.650158166885376,-0.0,2.079141855239868,4.620621843928955,0.0,0.2896241247653961,-1.5694459120379847,0.0,-0.020820634439587593,0.8185074925422668,0.0,-0.003824539016932249,0.7877016663551331,0.0,-0.05090976506471634
860.0,810.0,3.4391,-0.2985,8.7021,-0.0336,0.0257,-0.1226,-1.8363224468626917,0.0,3.2039694786071777,-1.6501343250274658,-0.0,2.088803768157959,4.62066571294751,0.0,0.3023848831653595,-1.569458309804098,0.0,-0.014852065593004227,0.8184475302696228,0.0,0.005166563671082258,0.7877379059791565,0.0,-0.011742202565073967
860.0,810.0,3.4391,-0.2985,8.7021,-0.0336,0.0257,-0.1226,-1.8363343677916468,0.0,3.1919379234313965,-1.6501864194869995,-0.0,2.1095657348632812,4.62065760671582,0.0,0.2874312102794647,-1.569514576588766,0.0,-0.001981502864509821,0.8184912204742432,0.0,-0.00265043368563056,0.7877219319343567,0.0,0.03094986453652382
860.0,810.0,3.4391,-0.2985,8.7021,-0.0336,0.0257,-0.1226,-1.836318155328268,0.0,3.2278294563293457,-1.6501383781433105,-0.0,2.0739479064941406,4.620645685786865,0.0,0.29894229769706726,-1.5694826284991663,0.0,-0.019846457988023758,0.818507194519043,0.0,0.010229876264929771,0.7876855731010437,0.0,0.01332200039178133
860.0,810.0,3.4391,-0.2985,8.7021,-0.0336,0.0257,-0.1226,-1.8363305530943812,0.0,3.2025022506713867,-1.6501057147979736,-0.0,2.137028932571411,4.620626135463379,0.0,0.2901982069015503,-1.5694621245013636,0.0,-0.0016293362714350224,0.8185352087020874,0.0,-0.010998514480888844,0.7877338528633118,0.0,0.017542272806167603
860.0,810.0,3.4391,-0.2985,8.7021,-0.0336,0.0257,-0.1226,-1.8363305530943812,0.0,3.238028049468994,-1.6501823663711548,-0.0,2.139836311340332,4.620626135463379,0.0,0.3042093515396118,-1.5694382826434534,0.0,-0.020131682977080345,0.8185312151908875,0.0,-0.009793777018785477,0.7877057790756226,0.0,0.033656567335128784
860.0,810.0,3.4391,-0.2985,8.7021,-0.0336,0.0257,-0.1226,-1.8363667927184046,0.0,3.21470046043396,-1.650109887123108,-0.0,2.0959320068359375,4.62065760671582,0.0,0.29670727252960205,-1.5694382826434534,0.0,-0.004946618806570768,0.8184832334518433,0.0,-0.010136498138308525,0.7877499461174011,0.0,-0.04170144349336624
860.0,810.0,3.4391,-0.2985,8.7021,-0.0336,0.0257,-0.1226,-1.8363625011839808,0.0,3.2662627696990967,-1.650158166885376,-0.0,2.1131904125213623,4.62065760671582,0.0,0.2860981523990631,-1.5694220701800745,0.0,-0.0007126196287572384,0.8185272216796875,0.0,-0.008124575018882751,0.7877702713012695,0.0,-0.02424122765660286
860.0,810.0,3.4391,-0.2985,8.7021,-0.0336,0.0257,-0.1226,-1.8363343677916468,0.0,3.246419906616211,-1.6500858068466187,-0.0,2.1016688346862793,4.620669527644775,0.0,0.28938013315200806,-1.5694378058062952,0.0,-0.029593907296657562,0.818515419960022,0.0,0.0010375070851296186,0.7877016663551331,0.0,-0.026985391974449158
873.0,811.0,3.4211,-0.2806,8.7129,-0.0415,0.0275,-0.1188,-1.8363062343993128,0.0,3.229581832885742,-1.650118112564087,-0.0,2.1138930320739746,4.620629473323486,0.0,0.2945544421672821,-1.5694540182696741,0.0,-0.0182277113199234,0.8185392618179321,0.0,-0.007109949365258217,0.78776615858078,0.0,0.00870510470122099
873.0,811.0,3.4211,-0.2806,8.7129,-0.0415,0.0275,-0.1188,-1.8363224468626917,0.0,3.2367055416107178,-1.6501456499099731,-0.0,2.0863921642303467,4.620649500484131,0.0,0.29545408487319946,-1.5694544951068323,0.0,-0.0024214880540966988,0.8185192942619324,0.0,-0.000590513227507472,0.7877259850502014,0.0,-0.036138005554676056
873.0,811.0,3.4211,-0.2806,8.7129,-0.0415,0.0275,-0.1188,-1.8363706074156703,0.0,3.2096781730651855,-1.6501823663711548,-0.0,2.084259033203125,4.620649977321289,0.0,0.28505876660346985,-1.5694502035724085,0.0,-0.00603992585092783,0.8184953331947327,0.0,-0.0023843571543693542,0.7877499461174011,0.0,0.03037002682685852
873.0,811.0,3.4211,-0.2806,8.7129,-0.0415,0.0275,-0.1188,-1.8363667927184046,0.0,3.242520809173584,-1.6500816345214844,-0.0,2.0775065422058105,4.620618029231689,0.0,0.29693830013275146,-1.5694459120379847,0.0,-0.005527785513550043,0.8184993863105774,0.0,-0.006943548563867807,0.7877260446548462,0.0,-0.03137281909584999
873.0,811.0,3.4211,-0.2806,8.7129,-0.0415,0.0275,-0.1188,-1.8363305530943812,0.0,3.248049736022949,-1.6500898599624634,-0.0,2.0955169200897217,4.620645685786865,0.0,0.2952192425727844,-1.5694497267352503,0.0,-0.022469082847237587,0.8185312747955322,0.0,-0.007602758705615997,0.7877499461174011,0.0,0.012471834197640419
873.0,811.0,3.4211,-0.2806,8.7129,-0.0415,0.0275,-0.1188,-1.8363262615599574,0.0,3.212818145751953,-1.6502184867858887,-0.0,2.094264507293701,4.620649977321289,0.0,0.2916848063468933,-1.5694621245013636,0.0,-0.008179627358913422,0.8184831738471985,0.0,0.015623882412910461,0.7877297401428223,0.0,0.03239054977893829
873.0,811.0,3.4211,-0.2806,8.7129,-0.0415,0.0275,-0.1188,-1.8363262615599574,0.0,3.2532005310058594,-1.6501579284667969,-0.0,2.0725560188293457,4.620669527644775,0.0,0.28762155771255493,-1.5694459120379847,0.0,-0.009187635034322739,0.8184912204742432,0.0,-0.0014678953448310494,0.78776615858078,0.0,-0.025447478517889977
873.0,811.0,3.4211,-0.2806,8.7129,-0.0415,0.0275,-0.1188,-1.8363987408080042,0.0,3.239978790283203,-1.6501301527023315,-0.0,2.1022441387176514,4.620621843928955,0.0,0.29938897490501404,-1.5694621245013636,0.0,-0.007963838055729866,0.8184397220611572,0.0,-0.002282493282109499,0.787709653377533,0.0,0.012895074672996998
873.0,811.0,3.4211,-0.2806,8.7129,-0.0415,0.0275,-0.1188,-1.8363586864867152,0.0,3.235349655151367,-1.6501704454421997,-0.0,2.1027801036834717,4.620645685786865,0.0,0.30231598019599915,-1.569470230733053,0.0,-0.0009684038814157248,0.8184952139854431,0.0,-0.0009718372020870447,0.7877499461174011,0.0,0.016781732439994812
873.0,811.0,3.4211,-0.2806,8.7129,-0.0415,0.0275,-0.1188,-1.8363381824889125,0.0,3.2196383476257324,-1.6501178741455078,-0.0,2.1009156703948975,4.620638056392334,0.0,0.2902178168296814,-1.5694788138019007,0.0,-0.007956312969326973,0.8184671998023987,0.0,-0.005730554461479187,0.7876815795898438,0.0,-0.020926427096128464
873.0,811.0,3.4211,-0.2806,8.7129,-0.0415,0.0275,-0.1188,-1.8362943134703578,0.0,3.2433295249938965,-1.6501301527023315,-0.0,2.07033109664917,4.620626135463379,0.0,0.29698804020881653,-1.569442097340719,0.0,-0.00512042036280036,0.8185113072395325,0.0,0.013927674852311611,0.7876774668693542,0.0,-0.001624122727662325
873.0,811.0,3.4211,-0.2806,8.7129,-0.0415,0.0275,-0.1188,-1.8363381824889125,0.0,3.2189197540283203,-1.6500974893569946,-0.0,2.1181490421295166,4.6206299501606445,0.0,0.28924617171287537,-1.5694220701800745,0.0,-0.015326861292123795,0.8184632062911987,0.0,-0.016371503472328186,0.7877057790756226,0.0,0.04292828589677811
873.0,811.0,3.4211,-0.2806,8.7129,-0.0415,0.0275,-0.1188,-1.8363062343993128,0.0,3.1676416397094727,-1.6501177549362183,-0.0,2.0718486309051514,4.620637579555176,0.0,0.2965647578239441,-1.5694621245013636,0.0,-0.011455696076154709,0.8185153007507324,0.0,-0.00434412807226181,0.787681519985199,0.0,-0.0082597890868783
873.0,811.0,3.4211,-0.2806,8.7129,-0.0415,0.0275,-0.1188,-1.8363548717894496,0.0,3.1846518516540527,-1.6501058340072632,-0.0,2.0996413230895996,4.62058608114209,0.0,0.29703301191329956,-1.5694664160357874,0.0,-0.01555382739752531,0.8185074925422668,0.0,-0.0019210887840017676,0.7877458930015564,0.0,0.02015252783894539
873.0,811.0,3.4211,-0.2806,8.7129,-0.0415,0.0275,-0.1188,-1.8363224468626917,0.0,3.2187676429748535,-1.6501820087432861,-0.0,2.0785295963287354,4.620661898250244,0.0,0.2949330806732178,-1.5694096724139612,0.0,-0.0012866822071373463,0.8184993863105774,0.0,-0.011503666639328003,0.7877420783042908,0.0,-0.021167121827602386
873.0,811.0,3.4211,-0.2806,8.7129,-0.0415,0.0275,-0.1188,-1.8363987408080042,0.0,3.242887020111084,-1.6501456499099731,-0.0,2.067876100540161,4.620621843928955,0.0,0.2916485071182251,-1.5694344679461878,0.0,-0.01323978416621685,0.8184357285499573,0.0,0.009779693558812141,0.7877137064933777,0.0,0.021980062127113342
873.0,811.0,3.4211,-0.2806,8.7129,-0.0415,0.0275,-0.1188,-1.8363343677916468,0.0,3.197038173675537,-1.6501827239990234,-0.0,2.1089696884155273,4.620661421413086,0.0,0.2926136255264282,-1.569430176411764,0.0,-0.00837727915495634,0.8185033798217773,0.0,-0.0007716106483712792,0.7877095937728882,0.0,0.02741428278386593
877.0,800.0,3.4253,-0.2782,8.7218,-0.0376,0.0246,-0.1246,-1.8363186321654261,0.0,3.2315025329589844,-1.6501177549362183,-0.0,2.116750717163086,4.620669527644775,0.0,0.29487985372543335,-1.5694826284991663,0.0,-0.007363332435488701,0.8185233473777771,0.0,-0.0025306879542768,0.7877137064933777,0.0,-0.04298979789018631
877.0,800.0,3.4253,-0.2782,8.7218,-0.0376,0.0246,-0.1246,-1.8363186321654261,0.0,3.2199954986572266,-1.650174617767334,-0.0,2.118255376815796,4.620653792018555,0.0,0.2880919873714447,-1.5694869200335901,0.0,-0.009593118913471699,0.8184276819229126,0.0,0.011532836593687534,0.7877054810523987,0.0,-0.005856718402355909
877.0,800.0,3.4253,-0.2782,8.7218,-0.0376,0.0246,-0.1246,-1.8363305530943812,0.0,3.2301056385040283,-1.6501704454421997,-0.0,2.0667667388916016,4.620645685786865,0.0,0.29638534784317017,-1.5694502035724085,0.0,-0.0119063351303339,0.8184952139854431,0.0,0.0019286671886220574,0.7877013683319092,0.0,-0.04251807928085327
877.0,800.0,3.4253,-0.2782,8.7218,-0.0376,0.0246,-0.1246,-1.8363667927184046,0.0,3.186706304550171,-1.6501622200012207,-0.0,2.1285171508789062,4.6206418710896,0.0,0.29830801486968994,-1.5694745222674769,0.0,-0.015771538019180298,0.8185673356056213,0.0,-0.004173922818154097,0.7877541184425354,0.0,0.006830804981291294
877.0,800.0,3.4253,-0.2782,8.7218,-0.0376,0.0246,-0.1246,-1.8363625011839808,0.0,3.1598594188690186,-1.6501538753509521,-0.0,2.08124041557312,4.620638056392334,0.0,0.28794023394584656,-1.5694788138019007,0.0,-0.019962158054113388,0.8185471892356873,0.0,0.003936302848160267,0.7877016663551331,0.0,0.07323338091373444
877.0,800.0,3.4253,-0.2782,8.7218,-0.0376,0.0246,-0.1246,-1.8363625011839808,0.0,3.2135610580444336,-1.6500858068466187,-0.0,2.101813793182373,4.6206299501606445,0.0,0.29117944836616516,-1.5694339911090296,0.0,-0.012736591510474682,0.8185312151908875,0.0,0.00822901539504528,0.7877178192138672,0.0,-0.01320679858326912
877.0,800.0,3.4253,-0.2782,8.7218,-0.0376,0.0246,-0.1246,-1.836346288720602,0.0,3.2263097763061523,-1.6501622200012207,-0.0,2.1121649742126465,4.620649977321289,0.0,0.2976979613304138,-1.569442097340719,0.0,-0.0060346731916069984,0.8184993863105774,0.0,-0.0064807976596057415,0.7877219319343567,0.0,-0.04585031047463417
877.0,800.0,3.4253,-0.2782,8.7218,-0.0376,0.0246,-0.1246,-1.8363224468626917,0.0,3.213749885559082,-1.6501498222351074,-0.0,2.1230857372283936,4.620649977321289,0.0,0.29548752307891846,-1.5694621245013636,0.0,-0.013914303854107857,0.8184477090835571,0.0,-0.008418262004852295,0.7876933813095093,0.0,-0.024154748767614365
877.0,800.0,3.4253,-0.2782,8.7218,-0.0376,0.0246,-0.1246,-1.8363501034178675,0.0,3.198838710784912,-1.6501498222351074,-0.0,2.0986874103546143,4.620673819179199,0.0,0.29009294509887695,-1.569470230733053,0.0,-0.013354599475860596,0.818511426448822,0.0,-0.0024605048820376396,0.7877338528633118,0.0,-0.010298993438482285
877.0,800.0,3.4253,-0.2782,8.7218,-0.0376,0.0246,-0.1246,-1.8363186321654261,0.0,3.1741116046905518,-1.6501178741455078,-0.0,2.09784197807312,4.62065760671582,0.0,0.29432210326194763,-1.569491211568014,0.0,-0.010601256042718887,0.8185312151908875,0.0,-0.02720322273671627,0.7877297401428223,0.0,-0.012663779780268669
877.0,800.0,3.4253,-0.2782,8.7218,-0.0376,0.0246,-0.1246,-1.8363381824889125,0.0,3.2215819358825684,-1.6501744985580444,-0.0,2.111180067062378,4.6206418710896,0.0,0.29029202461242676,-1.5694220701800745,0.0,-0.019904058426618576,0.8185831904411316,0.0,-0.0006372295320034027,0.7877054810523987,0.0,-0.04512973874807358
877.0,800.0,3.4253,-0.2782,8.7218,-0.0376,0.0246,-0.1246,-1.8363062343993128,0.0,3.2302470207214355,-1.6501178741455078,-0.0,2.0996367931365967,4.620574160213135,0.0,0.2917311489582062,-1.5694459120379847,0.0,-0.01598246395587921,0.8184712529182434,0.0,-0.01802019402384758,0.7877297401428223,0.0,0.021973155438899994
877.0,800.0,3.4253,-0.2782,8.7218,-0.0376,0.0246,-0.1246,-1.8363062343993128,0.0,3.23583984375,-1.650166392326355,-0.0,2.1094603538513184,4.620645685786865,0.0,0.28936925530433655,-1.569470230733053,0.0,-0.003111157799139619,0.8184871673583984,0.0,-0.014071089215576649,0.7877458930015564,0.0,0.01783318631350994
877.0,800.0,3.4253,-0.2782,8.7218,-0.0376,0.0246,-0.1246,-1.8363381824889125,0.0,3.2308881282806396,-1.6501588821411133,-0.0,2.075726270675659,4.6206700044819335,0.0,0.2906266450881958,-1.5694382826434534,0.0,-0.018614843487739563,0.818527340888977,0.0,-0.009332353249192238,0.7877016663551331,0.0,-0.009662693366408348
877.0,800.0,3.4253,-0.2782,8.7218,-0.0376,0.0246,-0.1246,-1.836346288720602,0.0,3.19419527053833,-1.6501219272613525,-0.0,2.071915864944458,4.620613737697266,0.0,0.2857646346092224,-1.5694544951068323,0.0,-0.010379452258348465,0.8184753060340881,0.0,-0.021271556615829468,0.7877417802810669,0.0,0.01479810569435358
877.0,800.0,3.4253,-0.2782,8.7218,-0.0376,0.0246,-0.1246,-1.836346288720602,0.0,3.206232786178589,-1.6501383781433105,-0.0,2.0914530754089355,4.62063376485791,0.0,0.3021414875984192,-1.5694378058062952,0.0,-0.0017322018975391984,0.8184753656387329,0.0,0.0065838308073580265,0.787709653377533,0.0,0.011029583401978016
877.0,800.0,3.4253,-0.2782,8.7218,-0.0376,0.0246,-0.1246,-1.8363305530943812,0.0,3.249114513397217,-1.6501498222351074,-0.0,2.0940792560577393,4.620621843928955,0.0,0.30172979831695557,-1.569430176411764,0.0,-0.01665876805782318,0.8184712529182434,0.0,-0.002234566491097212,0.78766930103302,0.0,0.0382382795214653
868.0,802.0,3.4445,-0.268,8.7751,-0.0338,0.016,-0.11,-1.8363105259337367,0.0,3.2044692039489746,-1.6500976085662842,-0.0,2.099430561065674,4.620613737697266,0.0,0.29929572343826294,-1.5694869200335901,0.0,-0.004277345258742571,0.8184912800788879,0.0,-0.006132843904197216,0.7876975536346436,0.0,0.030779723078012466
868.0,802.0,3.4445,-0.268,8.7751,-0.0338,0.016,-0.11,-1.8363224468626917,0.0,3.194308280944824,-1.6501621007919312,-0.0,2.041840076446533,4.620685740108154,0.0,0.28854691982269287,-1.5694502035724085,0.0,-0.0065324148163199425,0.8185113072395325,0.0,-0.004023190587759018,0.7877178192138672,0.0,-0.02309931255877018
868.0,802.0,3.4445,-0.268,8.7751,-0.0338,0.016,-0.11,-1.8363787136473597,0.0,3.2073402404785156,-1.6501823663711548,-0.0,2.0755836963653564,4.620626135463379,0.0,0.2922070026397705,-1.5694544951068323,0.0,-0.009592531248927116,0.8185114860534668,0.0,-0.00399506650865078,0.7877582311630249,0.0,-0.012741745449602604
868.0,802.0,3.4445,-0.268,8.7751,-0.0338,0.016,-0.11,-1.8363381824889125,0.0,3.2170493602752686,-1.6501864194869995,-0.0,2.0580546855926514,4.6206418710896,0.0,0.293241024017334,-1.5694544951068323,0.0,-0.01666310802102089,0.8185074329376221,0.0,-0.011057060211896896,0.7876975536346436,0.0,0.007030056789517403
868.0,802.0,3.4445,-0.268,8.7751,-0.0338,0.016,-0.11,-1.836374422112936,0.0,3.1980762481689453,-1.6501383781433105,-0.0,2.1047558784484863,4.620653792018555,0.0,0.29749229550361633,-1.569470230733053,0.0,-0.005325041711330414,0.8184672594070435,0.0,-0.011831650510430336,0.787693440914154,0.0,0.024449259042739868
868.0,802.0,3.4445,-0.268,8.7751,-0.0338,0.016,-0.11,-1.8363186321654261,0.0,3.1869046688079834,-1.6501786708831787,-0.0,2.098562002182007,4.62063376485791,0.0,0.279315710067749,-1.5694220701800745,0.0,-0.03368359059095383,0.818475067615509,0.0,-0.014861704781651497,0.7876856327056885,0.0,0.024053875356912613
868.0,802.0,3.4445,-0.268,8.7751,-0.0338,0.016,-0.11,-1.8363706074156703,0.0,3.2271480560302734,-1.6501259803771973,-0.0,2.0892562866210938,4.620685740108154,0.0,0.29755711555480957,-1.569430176411764,0.0,-0.009160175919532776,0.8185033798217773,0.0,-0.004307144321501255,0.7877054810523987,0.0,0.013212108053267002
868.0,802.0,3.4445,-0.268,8.7751,-0.0338,0.016,-0.11,-1.8363224468626917,0.0,3.2237603664398193,-1.6501905918121338,-0.0,2.0920886993408203,4.620681925410889,0.0,0.29336440563201904,-1.569442097340719,0.0,-0.011858204379677773,0.818511426448822,0.0,-0.007601719815284014,0.7877137064933777,0.0,-0.0012481245212256908
868.0,802.0,3.4445,-0.268,8.7751,-0.0338,0.016,-0.11,-1.8363424740233363,0.0,3.253880023956299,-1.650158166885376,-0.0,2.0669443607330322,4.62058608114209,0.0,0.29556581377983093,-1.5694544951068323,0.0,-0.0007497081533074379,0.818511426448822,0.0,-3.904569894075394e-05,0.787774384021759,0.0,-0.06219640374183655
868.0,802.0,3.4445,-0.268,8.7751,-0.0338,0.016,-0.11,-1.8363343677916468,0.0,3.2312965393066406,-1.6501259803771973,-0.0,2.0880913734436035,4.6206418710896,0.0,0.2870557904243469,-1.5694540182696741,0.0,-0.01893586479127407,0.8185192942619324,0.0,0.001110254554077983,0.7877137064933777,0.0,-0.007133668288588524
868.0,802.0,3.4445,-0.268,8.7751,-0.0338,0.016,-0.11,-1.8363143406310023,0.0,3.2677674293518066,-1.6501017808914185,-0.0,2.1183860301971436,4.620613737697266,0.0,0.29989826679229736,-1.5694459120379847,0.0,-0.014643575996160507,0.8185633420944214,0.0,0.0011235806159675121,0.7877458930015564,0.0,0.010263989679515362
868.0,802.0,3.4445,-0.268,8.7751,-0.0338,0.016,-0.11,-1.8363186321654261,0.0,3.2118701934814453,-1.6501456499099731,-0.0,2.096926689147949,4.6206580835529785,0.0,0.3046264946460724,-1.5694459120379847,0.0,-0.00410494115203619,0.8185074329376221,0.0,-0.0029661105945706367,0.7877178192138672,0.0,0.02645011804997921
868.0,802.0,3.4445,-0.268,8.7751,-0.0338,0.016,-0.11,-1.8363501034178675,0.0,3.1974143981933594,-1.6501301527023315,-0.0,2.112724781036377,4.620637579555176,0.0,0.29673445224761963,-1.5694826284991663,0.0,-0.016817327588796616,0.8185433745384216,0.0,-0.01079453993588686,0.7877541184425354,0.0,0.028431670740246773
868.0,802.0,3.4445,-0.268,8.7751,-0.0338,0.016,-0.11,-1.8363224468626917,0.0,3.222421169281006,-1.6501498222351074,-0.0,2.072126865386963,4.620661421413086,0.0,0.3011713922023773,-1.5694788138019007,0.0,-0.02095823921263218,0.8185192942619324,0.0,0.011169830337166786,0.7877541184425354,0.0,-0.05602951720356941
868.0,802.0,3.4445,-0.268,8.7751,-0.0338,0.016,-0.11,-1.836358209649557,0.0,3.184558153152466,-1.6501538753509521,-0.0,2.1103227138519287,4.6206981378742675,0.0,0.2980614900588989,-1.5694664160357874,0.0,-0.003557556541636586,0.8184791803359985,0.0,0.011891666799783707,0.7877335548400879,0.0,0.013476683758199215
868.0,802.0,3.4445,-0.268,8.7751,-0.0338,0.016,-0.11,-1.8363024197020472,0.0,3.2288856506347656,-1.650101661682129,-0.0,2.105909824371338,4.620661421413086,0.0,0.28896597027778625,-1.5694621245013636,0.0,-0.007693005260080099,0.8185033798217773,0.0,0.007630791515111923,0.7877137064933777,0.0,0.012664835900068283
881.0,815.0,3.4397,-0.3769,8.7936,-0.0241,0.0278,-0.1202,-1.8363186321654261,0.0,3.2440848350524902,-1.6500619649887085,0.0007966106641106308,2.0824289321899414,4.620629473323486,0.0,0.28597766160964966,-1.5694578329669397,0.0,-0.020503733307123184,0.8184954524040222,0.0,-0.016816498711705208,0.7877658605575562,0.0,-0.030226022005081177
881.0,815.0,3.4397,-0.3769,8.7936,-0.0241,0.0278,-0.1202,-1.8363424740233363,0.0,3.20306134223938,-1.6501103639602661,0.0006113258423283696,2.062640905380249,4.620637579555176,0.0,0.29989027976989746,-1.5694578329669397,0.0,-0.0005761701613664627,0.8185192346572876,0.0,-0.012174015864729881,0.7877823114395142,0.0,0.01590948924422264
881.0,815.0,3.4397,-0.3769,8.7936,-0.0241,0.0278,-0.1202,-1.8363543949522914,0.0,3.2295165061950684,-1.650118112564087,0.0005068800528533757,2.107921600341797,4.620645685786865,0.0,0.2984573543071747,-1.5694378058062952,0.0,-0.008782734163105488,0.818555474281311,0.0,-0.005775873549282551,0.7877901196479797,0.0,-0.039735496044158936
881.0,815.0,3.4397,-0.3769,8.7936,-0.0241,0.0278,-0.1202,-1.8363186321654261,0.0,3.206000328063965,-1.6501058340072632,0.0004613921046257019,2.0732338428497314,4.620625658626221,0.0,0.3071291148662567,-1.5694459120379847,0.0,-0.011011824011802673,0.8185153007507324,0.0,0.004812103696167469,0.7877818942070007,0.00045065319864079356,0.028097374364733696
881.0,815.0,3.4397,-0.3769,8.7936,-0.0241,0.0278,-0.1202,-1.8363381824889125,0.0,3.228588581085205,-1.6501058340072632,0.00013257149839773774,2.0725927352905273,4.6206580835529785,0.0,0.28533485531806946,-1.569470230733053,0.0,-0.010968957096338272,0.8185272216796875,0.0,-0.005675392225384712,0.7877618074417114,0.0003663468814920634,0.0052270833402872086
881.0,815.0,3.4397,-0.3769,8.7936,-0.0241,0.0278,-0.1202,-1.8363825283446253,0.0,3.1831626892089844,-1.6501786708831787,0.00011462569091236219,2.1106984615325928,4.620629473323486,0.0,0.305071085691452,-1.569470230733053,0.0,-0.01693921536207199,0.8185272216796875,0.0,-0.01515727024525404,0.7877699732780457,0.0003225698892492801,0.012769586406648159
881.0,815.0,3.4397,-0.3769,8.7936,-0.0241,0.0278,-0.1202,-1.8363505802550257,0.0,3.2099876403808594,-1.6501137018203735,9.623726509744301e-05,2.106074333190918,4.620621843928955,0.0,0.29597359895706177,-1.569442097340719,0.0,-0.010864424519240856,0.8184633851051331,0.0,-7.040787022560835e-05,0.7877815961837769,0.00031913467682898045,0.038880448788404465
881.0,815.0,3.4397,-0.3769,8.7936,-0.0241,0.0278,-0.1202,-1.8363105259337367,0.0,3.2311947345733643,-1.6501061916351318,8.293385326396674e-05,2.071537733078003,4.6206299501606445,0.0,0.3044772744178772,-1.569470230733053,0.0,-0.0026510031893849373,0.8185311555862427,0.0,-0.008356371894478798,0.7877658605575562,0.0003166060778312385,-0.04114943742752075
881.0,815.0,3.4397,-0.3769,8.7936,-0.0241,0.0278,-0.1202,-1.8363143406310023,0.0,3.2021427154541016,-1.6501301527023315,0.00011384082608856261,2.1111674308776855,4.620609923,0.0,0.3016255497932434,-1.5694621245013636,0.0,-0.019156865775585175,0.8185233473777771,0.0,-0.007695789914578199,0.7878100872039795,0.0002910117036662996,0.02153192274272442
881.0,815.0,3.4397,-0.3769,8.7936,-0.0241,0.0278,-0.1202,-1.8363143406310023,0.0,3.1710004806518555,-1.6501506567001343,0.00010110709990840405,2.0755867958068848,4.6206580835529785,0.0,0.2999473810195923,-1.5694859663592737,0.0,0.00012596300803124905,0.8184831738471985,0.0,-0.006133050657808781,0.7877538204193115,0.00025953975273296237,-0.022102778777480125
881.0,815.0,3.4397,-0.3769,8.7936,-0.0241,0.0278,-0.1202,-1.8363143406310023,0.0,3.181981086730957,-1.6500980854034424,9.089556988328695e-05,2.0722861289978027,4.620702429408691,0.0,0.2943352460861206,-1.569430176411764,0.0,-0.028801996260881424,0.8185033798217773,0.0,0.0078063057735562325,0.7877939343452454,0.00023421071819029748,-0.00382843054831028
881.0,815.0,3.4397,-0.3769,8.7936,-0.0241,0.0278,-0.1202,-1.8363424740233363,0.0,3.2345476150512695,-1.650102138519287,0.00010896625462919474,2.0660130977630615,4.620669527644775,0.0,0.28674066066741943,-1.5694502035724085,0.0,-0.010999307967722416,0.8185153007507324,0.0,-0.005944662261754274,0.7877818942070007,0.00021338653459679335,-0.0058973138220608234
881.0,815.0,3.4397,-0.3769,8.7936,-0.0241,0.0278,-0.1202,-1.8363868198790492,0.0,3.2012221813201904,-1.6501058340072632,8.142674778355286e-05,2.0835540294647217,4.620621367091797,0.0,0.29425469040870667,-1.5694869200335901,0.0,-0.0021208873949944973,0.8185352087020874,0.0,-0.0021296869963407516,0.7877576947212219,0.00020144577138125896,-0.001406477764248848
881.0,815.0,3.4397,-0.3769,8.7936,-0.0241,0.0278,-0.1202,-1.8363625011839808,0.0,3.255980968475342,-1.6501061916351318,0.00014275855210144073,2.076288938522339,4.620694323177002,0.0,0.29983940720558167,-1.5694940725909632,0.0,-0.006024094298481941,0.8184517025947571,0.0,-0.001109221950173378,0.7877617478370667,0.00018584665667731315,-0.004878044128417969
881.0,815.0,3.4397,-0.3769,8.7936,-0.0241,0.0278,-0.1202,-1.8363868198790492,0.0,3.2103161811828613,-1.6500980854034424,0.00012771750334650278,2.102884292602539,4.620653792018555,0.0,0.29908066987991333,-1.569458309804098,0.0,-0.009323148988187313,0.8185233473777771,0.0,-0.0204575564712286,0.7878101468086243,0.00017248943913728,0.0068030888214707375
881.0,815.0,3.4397,-0.3769,8.7936,-0.0241,0.0278,-0.1202,-1.836346288720602,0.0,3.207080841064453,-1.6501222848892212,0.00014902053226251155,2.1178855895996094,4.620685740108154,0.0,0.28190869092941284,-1.5694745222674769,0.0,-0.005747154355049133,0.8184871673583984,0.0,-0.01233317144215107,0.7878344058990479,0.00016460272308904678,0.0359104722738266
881.0,815.0,3.4397,-0.3769,8.7936,-0.0241,0.0278,-0.1202,-1.8363343677916468,0.0,3.192409038543701,-1.650126338005066,0.00013559413491748273,2.1025052070617676,4.620677633876465,0.0,0.2976871728897095,-1.5694544951068323,0.0,-0.013186067342758179,0.8184871673583984,0.0,-0.0021765711717307568,0.7877741456031799,0.00013481425412464887,-0.030147705227136612
893.0,776.0,3.4929,-0.1914,8.6183,-0.0383,0.0344,-0.1217,-1.8363343677916468,0.0,3.21122407913208,-1.6501063108444214,0.00029918504878878593,2.115997076034546,4.620685740108154,0.0,0.28453928232192993,-1.5694664160357874,0.0,-0.0024014615919440985,0.818511426448822,0.0,-0.001768138143233955,0.7877417802810669,0.0001266544422833249,0.027727261185646057
893.0,776.0,3.4929,-0.1914,8.6183,-0.0383,0.0344,-0.1217,-1.8363143406310023,0.0,3.2243731021881104,-1.650134563446045,0.0003147026291117072,2.0705456733703613,4.62074248372998,3.311324690002948e-05,0.3016805648803711,-1.5694621245013636,0.0,-0.022135229781270027,0.8184954524040222,0.0,-0.005134229548275471,0.7877538204193115,0.00012175880692666396,0.011121352203190327
893.0,776.0,3.4929,-0.1914,8.6183,-0.0383,0.0344,-0.1217,-1.8363381824889125,0.0,3.181220054626465,-1.6500296592712402,0.0005051027983427048,2.0948076248168945,4.620705290431641,0.00023372091527562588,0.2937520742416382,-1.5694621245013636,0.0,-0.003917723428457975,0.8184831738471985,0.0,0.0032619063276797533,0.7877294421195984,0.00011508622264955193,-0.028842419385910034
893.0,776.0,3.4929,-0.1914,8.6183,-0.0383,0.0344,-0.1217,-1.8363224468626917,0.0,3.2210216522216797,-1.6500585079193115,0.0017967007588595152,2.1041080951690674,4.620745821590088,0.0002508966426830739,0.292021781206131,-1.5694664160357874,0.0,-0.0194977018982172,0.8184753656387329,0.0,-0.0074632735922932625,0.7877297401428223,0.00010910676064668223,-0.016679838299751282
893.0,776.0,3.4929,-0.1914,8.6183,-0.0383,0.0344,-0.1217,-1.8363224468626917,0.0,3.2286839485168457,-1.650086522102356,0.0030234679579734802,2.1033976078033447,4.620685740108154,0.0003716358041856438,0.28746190667152405,-1.5694215933429163,0.0,-0.016365502029657364,0.8185752034187317,0.0,-0.0023627246264368296,0.7877334952354431,0.00010371811367804185,0.018173489719629288
893.0,776.0,3.4929,-0.1914,8.6183,-0.0383,0.0344,-0.1217,-1.8363381824889125,0.0,3.2280404567718506,-1.6500139236450195,0.0046918960288167,2.100221633911133,4.620673819179199,0.0004096361808478832,0.29946696758270264,-1.5694502035724085,0.0,-0.005967442877590656,0.8185192942619324,0.0,-0.005210200324654579,0.7878101468086243,0.00010041199857369065,-0.06392762809991837
893.0,776.0,3.4929,-0.1914,8.6183,-0.0383,0.0344,-0.1217,-1.8363625011839808,0.0,3.1787095069885254,-1.65000581741333,0.0061375233344733715,2.0591282844543457,4.620701475734375,0.0003852458903566003,0.29027634859085083,-1.569442097340719,0.0,0.0019955106545239687,0.8185474276542664,0.0,-0.004917952697724104,0.7877335548400879,9.58299933699891e-05,-0.008071085438132286
893.0,776.0,3.4929,-0.1914,8.6183,-0.0383,0.0344,-0.1217,-1.836358209649557,0.0,3.1838696002960205,-1.6499063968658447,0.00827799178659916,2.070147752761841,4.620721979732178,0.0003710011369548738,0.30183902382850647,-1.5694578329669397,0.0,-0.0014316882006824017,0.8184437155723572,0.0,-0.0020946371369063854,0.7877293825149536,9.164780203718692e-05,0.02996610477566719
893.0,776.0,3.4929,-0.1914,8.6183,-0.0383,0.0344,-0.1217,-1.836294790307516,0.0,3.2204267978668213,-1.6499022245407104,0.009728099219501019,2.0725886821746826,4.620737715358398,0.000378988595912233,0.2991836369037628,-1.5695064703570765,0.0,0.0003415022511035204,0.8185471296310425,0.0,-0.006461894139647484,0.7877455949783325,8.905681897886097e-05,0.004040820524096489
893.0,776.0,3.4929,-0.1914,8.6183,-0.0383,0.0344,-0.1217,-1.8362623653807582,0.0,3.2276759147644043,-1.6498337984085083,0.011500037275254726,2.069671630859375,4.620757742519043,0.00041250494541600347,0.2901136577129364,-1.569442097340719,0.0,0.00974595919251442,0.8185393810272217,0.0,-0.005534961819648743,0.7877294421195984,8.543374133296311e-05,-0.008554002270102501
893.0,776.0,3.4929,-0.1914,8.6183,-0.0383,0.0344,-0.1217,-1.8362862072386683,0.0004023005603812635,3.221585988998413,-1.649709701538086,0.012620333582162857,2.094672679901123,4.620725794429443,0.00039241943159140646,0.2896268367767334,-1.5694869200335901,0.0,-0.004466762766242027,0.8185074329376221,0.0,0.007995514199137688,0.787757933139801,8.209402585634962e-05,0.008628503419458866
893.0,776.0,3.4929,-0.1914,8.6183,-0.0383,0.0344,-0.1217,-1.8363105259337367,0.0004132709582336247,3.2138161659240723,-1.6496257781982422,0.013902542181313038,2.087503433227539,4.620773954982422,0.00034974401933141053,0.2962203323841095,-1.5694826284991663,0.0,-0.013532068580389023,0.8184912204742432,0.0,-0.0061094388365745544,0.7877823114395142,8.000891102710739e-05,0.02094276063144207
893.0,776.0,3.4929,-0.1914,8.6183,-0.0383,0.0344,-0.1217,-1.8362704716124476,0.0005807424313388765,3.2106032371520996,-1.6496306657791138,0.016586948186159134,2.0964243412017822,4.6207496362873535,0.00034223540569655597,0.2903728783130646,-1.5694182554828089,0.0,-0.022119464352726936,0.8184517621994019,0.0,0.006700367201119661,0.7877939343452454,7.707253826083615e-05,0.04766198247671127
893.0,776.0,3.4929,-0.1914,8.6183,-0.0383,0.0344,-0.1217,-1.8363143406310023,0.0005023154662922025,3.2460403442382812,-1.6495022773742676,0.01917121186852455,2.1096138954162598,4.620729609126709,0.0003308561572339386,0.2967090606689453,-1.569430176411764,0.0,-0.005551516078412533,0.8184871673583984,0.0,-0.003935850225389004,0.7877253293991089,7.434408325934783e-05,-0.030618231743574142
893.0,776.0,3.4929,-0.1914,8.6183,-0.0383,0.0344,-0.1217,-1.8363186321654261,0.0003926927747670561,3.2358622550964355,-1.649294137954712,0.02193937636911869,2.0920212268829346,4.620757265681885,0.000271210796199739,0.29473671317100525,-1.5694339911090296,0.0,-0.008826905861496925,0.8185113668441772,0.0,-0.007853508926928043,0.7877576351165771,7.180223474279046e-05,0.019194448366761208
893.0,776.0,3.4929,-0.1914,8.6183,-0.0383,0.0344,-0.1217,-1.8363386593260707,0.0003428216732572764,3.1827449798583984,-1.6492542028427124,0.022891942411661148,2.106818914413452,4.620769663447998,0.00024202547501772642,0.28960591554641724,-1.5694425741778772,0.0,-0.004851146601140499,0.8185192942619324,0.0,-0.010370912961661816,0.787814199924469,7.020202610874549e-05,0.008664949797093868
893.0,776.0,3.4929,-0.1914,8.6183,-0.0383,0.0344,-0.1217,-1.8363386593260707,0.0002879682870116085,3.2026824951171875,-1.6491303443908691,0.02552277408540249,2.1132192611694336,4.620741530055664,0.00020839051285292953,0.29299694299697876,-1.5694382826434534,0.0,-0.001986968796700239,0.8185350894927979,0.0,-0.0012525010388344526,0.7878463864326477,1.2496863988076257e-08,-0.022125322371721268
871.0,816.0,3.6042,-0.4223,8.6644,-0.0454,0.0264,-0.1141,-1.8362742863097132,0.00020687648793682456,3.2138490676879883,-1.648982286453247,0.026896826922893524,2.1126556396484375,4.620765371913574,0.00018296591588295996,0.2949301600456238,-1.5694544951068323,0.0,-1.5507452189922333e-05,0.8185434341430664,0.0,-0.005217377096414566,0.7878504395484924,3.017845237487764e-14,-0.022620132192969322
871.0,816.0,3.6042,-0.4223,8.6644,-0.0454,0.0264,-0.1141,-1.8363224468626917,0.00018945371266454458,3.2028865814208984,-1.6487979888916016,0.028075775131583214,2.118621587753296,4.6207496362873535,0.00016920386406127363,0.29912444949150085,-1.569470230733053,0.0,-0.005128074437379837,0.8185071349143982,0.0,-0.0008927858434617519,0.7878422141075134,5.120748028275557e-05,0.005481023341417313
871.0,816.0,3.6042,-0.4223,8.6644,-0.0454,0.0264,-0.1141,-1.8363224468626917,0.0001682075671851635,3.201117515563965,-1.6486424207687378,0.029879536479711533,2.137805938720703,4.620745821590088,0.00015204958617687225,0.3034352660179138,-1.5694382826434534,0.0,-0.0072351680137217045,0.8185033798217773,0.0,-0.004798454232513905,0.7877939343452454,1.689877171884291e-05,-0.003807455999776721
871.0,816.0,3.6042,-0.4223,8.6644,-0.0454,0.0264,-0.1141,-1.8363224468626917,0.0001512463641120121,3.2182397842407227,-1.6484012603759766,0.031758639961481094,2.127389430999756,4.620773954982422,0.0001638049288885668,0.28994596004486084,-1.5694425741778772,0.0,-0.01394348219037056,0.8185350894927979,0.0,-0.011013248935341835,0.7877576947212219,4.080854404397982e-11,-0.003582513425499201
871.0,816.0,3.6042,-0.4223,8.6644,-0.0454,0.0264,-0.1141,-1.8363224468626917,0.00014171955990605056,3.255859851837158,-1.6483099460601807,0.032507725059986115,2.1324119567871094,4.620709581966064,0.0001560790406074375,0.29201966524124146,-1.5694626013385218,0.0,-0.01710616424679756,0.8184951543807983,0.0,-0.01682356745004654,0.7878018617630005,7.34539348562404e-15,-0.022723844274878502
871.0,816.0,3.6042,-0.4223,8.6644,-0.0454,0.0264,-0.1141,-1.8363343677916468,0.00012948556104674935,3.190533399581909,-1.648126482963562,0.03338589891791344,2.0886454582214355,4.620805903072021,0.00016675243386998773,0.27539101243019104,-1.5694063345538538,0.0,-0.007379450369626284,0.8185192346572876,0.0,-0.010156477801501751,0.7877699732780457,1.773825815721746e-20,0.013017911463975906
871.0,816.0,3.6042,-0.4223,8.6644,-0.0454,0.0264,-0.1141,-1.836294790307516,0.00011919590178877115,3.2228879928588867,-1.6478862762451172,0.03756635636091232,2.1077475547790527,4.620765848750732,0.00015688170969951898,0.2975553572177887,-1.569442097340719,0.0,-0.004749526269733906,0.8185113668441772,0.0,-0.006348421331495047,0.7877736687660217,4.283580042893808e-26,0.0029025282710790634
871.0,816.0,3.6042,-0.4223,8.6644,-0.0454,0.0264,-0.1141,-1.8362823925414027,0.00011042152618756518,3.2567005157470703,-1.647686243057251,0.03794264793395996,2.1472654342651367,4.620813532466553,0.00019761669682338834,0.2931450605392456,-1.5694101492511194,0.0,-0.007005879655480385,0.8184518218040466,0.0,-0.016143210232257843,0.7878021597862244,1.0344342058775674e-31,0.04106530919671059
871.0,816.0,3.6042,-0.4223,8.6644,-0.0454,0.0264,-0.1141,-1.8362986050047816,0.00012627325486391783,3.228654384613037,-1.6474937200546265,0.04063722491264343,2.1486802101135254,4.620793505305908,0.00019946112297475338,0.30275315046310425,-1.5693982283221644,0.0,-0.006804118864238262,0.818587064743042,0.0,0.005130973644554615,0.7877658605575562,1.8619450260673755e-35,0.024364212527871132
871.0,816.0,3.6042,-0.4223,8.6644,-0.0454,0.0264,-0.1141,-1.8363386593260707,0.00011802518565673381,3.242476224899292,-1.6472461223602295,0.04196252301335335,2.1680173873901367,4.620829744929932,0.0004559145891107619,0.2913803458213806,-1.5694306532489222,0.0,-0.01683441735804081,0.8184874057769775,0.0,-0.008056225255131721,0.7878303527832031,4.4963463824790405e-41,-0.017497939988970757
871.0,816.0,3.6042,-0.4223,8.6644,-0.0454,0.0264,-0.1141,-1.8362699947752894,0.00011076265218434855,3.1965994834899902,-1.6470386981964111,0.04588102176785469,2.1573691368103027,4.620797796840332,0.00044953980250284076,0.29244136810302734,-1.5694344679461878,0.0,-0.01088330801576376,0.8185033798217773,0.0,-0.0001526989508420229,0.7877174019813538,0.0,0.024152053520083427
871.0,816.0,3.6042,-0.4223,8.6644,-0.0454,0.0264,-0.1141,-1.8363186321654261,0.00010639783431543037,3.2378172874450684,-1.6468346118927002,0.0485571064054966,2.240387439727783,4.6208411890217285,0.00044987446744926274,0.3158910274505615,-1.5694382826434534,0.0,-0.020990552380681038,0.8184833526611328,0.0,0.001344220945611596,0.7878100872039795,0.0,0.02985299751162529
871.0,816.0,3.6042,-0.4223,8.6644,-0.0454,0.0264,-0.1141,-1.8362823925414027,0.00010045980889117345,3.2486939430236816,-1.6464338302612305,0.05253623425960541,2.2257397174835205,4.620796843166016,0.00042360415682196617,0.3038395643234253,-1.5694425741778772,0.0,-0.016734344884753227,0.8185033798217773,0.0,-0.007825547829270363,0.7877334952354431,0.0,0.020091962069272995
871.0,816.0,3.6042,-0.4223,8.6644,-0.0454,0.0264,-0.1141,-1.8363105259337367,9.514937119092792e-05,3.233196496963501,-1.6461539268493652,0.05772467702627182,2.220427989959717,4.620809240932129,0.0003898059076163918,0.3039013743400574,-1.5694101492511194,0.0,0.0008118755649775267,0.8185074329376221,0.0,-0.0021414810325950384,0.787822425365448,0.0,-0.015049446374177933
871.0,816.0,3.6042,-0.4223,8.6644,-0.0454,0.0264,-0.1141,-1.8362580738463343,9.19104932108894e-05,3.2723565101623535,-1.6459342241287231,0.058663010597229004,2.2540783882141113,4.620801134700439,0.0003322359989397228,0.30059653520584106,-1.5694144407855433,0.0,-0.0028203697875142097,0.8185113668441772,0.0,-0.0010018869070336223,0.7878304123878479,0.0,0.031817734241485596
871.0,816.0,3.6042,-0.4223,8.6644,-0.0454,0.0264,-0.1141,-1.8362862072386683,8.744545630179346e-05,3.265517234802246,-1.6455304622650146,0.06300286948680878,2.1783275604248047,4.620805426234863,0.000326219160342589,0.30492547154426575,-1.5694339911090296,0.0,-0.007164732087403536,0.8185272812843323,0.0,-0.004247336648404598,0.7877818942070007,0.0,-0.015292355790734291
872.0,815.0,3.4732,-0.3565,8.9492,-0.0367,0.0631,-0.1211,-1.8362304172911585,9.728571603773162e-05,3.2487845420837402,-1.6451305150985718,0.06695552915334702,2.2026102542877197,4.6208411890217285,0.000366692227544263,0.3098341226577759,-1.5694626013385218,0.0,-0.010921317152678967,0.8185513615608215,0.0,0.005316571798175573,0.7878063321113586,0.0,0.022294428199529648
872.0,815.0,3.4732,-0.3565,8.9492,-0.0367,0.0631,-0.1211,-1.8362623653807582,8.205330232158303e-05,3.260545492172241,-1.6447347402572632,0.07009478658437729,2.253354072570801,4.6207896906086425,0.0003850683569908142,0.3150450587272644,-1.5694306532489222,0.0,0.0007355788256973028,0.8185310363769531,0.0,-0.015265295282006264,0.7877981066703796,0.0,0.019816216081380844
872.0,815.0,3.4732,-0.3565,8.9492,-0.0367,0.0631,-0.1211,-1.8363224468626917,0.0001105207484215498,3.252127170562744,-1.6444549560546875,0.07445009052753448,2.2740774154663086,4.620800657863281,0.000427986349677667,0.31018590927124023,-1.5694101492511194,0.0,-0.015317341312766075,0.8185192942619324,0.0,-0.0005603042664006352,0.7877823114395142,0.0,0.0342537984251976
872.0,815.0,3.4732,-0.3565,8.9492,-0.0367,0.0631,-0.1211,-1.8362781010069789,0.001156542100943625,3.29154896736145,-1.6439704895019531,0.0845671147108078,2.2794246673583984,4.620849772090576,0.0006220603245310485,0.307187020778656,-1.5694263617144983,0.0,-0.0074869180098176,0.8185033798217773,0.0,-0.01410697028040886,0.7877618074417114,0.0,-0.01227087527513504
872.0,815.0,3.4732,-0.3565,8.9492,-0.0367,0.0631,-0.1211,-1.8362585506834925,0.00113606546074152,3.2731847763061523,-1.6433826684951782,0.09432052075862885,2.320772647857666,4.620821638698242,0.0005308088148012757,0.327422171831131,-1.5694263617144983,0.0,-0.00270235282368958,0.8185390830039978,0.0,-0.005926122888922691,0.7877334952354431,0.0,-0.0172067079693079
872.0,815.0,3.4732,-0.3565,8.9492,-0.0367,0.0631,-0.1211,-1.8362461529173792,0.0008400277583859861,3.2441816329956055,-1.6430747509002686,0.1006024032831192,2.324350357055664,4.620821638698242,0.0003701137029565871,0.3318765461444855,-1.5694382826434534,0.0,-0.0036743595264852047,0.8185153007507324,0.0,0.005585643462836742,0.787798285484314,0.0,0.04364198446273804
872.0,815.0,3.4732,-0.3565,8.9492,-0.0367,0.0631,-0.1211,-1.8362742863097132,0.00023836495529394597,3.319586753845215,-1.6424274444580078,0.11186216026544571,2.2812352180480957,4.620837374324463,0.0002965773455798626,0.31741636991500854,-1.5694344679461878,0.0,-0.017450496554374695,0.8185192346572876,0.0,-0.006266402080655098,0.7877980470657349,0.0,0.04595337063074112
872.0,815.0,3.4732,-0.3565,8.9492,-0.0367,0.0631,-0.1211,-1.836294790307516,0.00016783627506811172,3.325460433959961,-1.641679048538208,0.12092681974172592,2.3220953941345215,4.620785399074219,0.0002475988876540214,0.32070618867874146,-1.5694306532489222,0.0,0.000146267848322168,0.8185192346572876,0.0,-0.0012817794922739267,0.7878340482711792,0.0,-0.013991371728479862
872.0,815.0,3.4732,-0.3565,8.9492,-0.0367,0.0631,-0.1211,-1.8362661800780238,0.00014144870510790497,3.27896785736084,-1.6411263942718506,0.12876836955547333,2.3423502445220947,4.6207896906086425,0.00022304507729131728,0.3109464943408966,-1.5694144407855433,0.0,-0.01049019955098629,0.8185073733329773,0.0,0.0017514184582978487,0.7877898216247559,0.0,0.0012552686966955662
872.0,815.0,3.4732,-0.3565,8.9492,-0.0367,0.0631,-0.1211,-1.8363024197020472,0.0001144587731687352,3.307896614074707,-1.6403183937072754,0.13620635867118835,2.3964359760284424,4.620845480556152,0.000194165637367405,0.314544141292572,-1.5694101492511194,0.0,-0.01892351731657982,0.8185232877731323,0.0,-0.005791810806840658,0.7877939939498901,0.0,0.02101222239434719
872.0,815.0,3.4732,-0.3565,8.9492,-0.0367,0.0631,-0.1211,-1.836294790307516,9.611975838197395e-05,3.310756206512451,-1.6395312547683716,0.13956204056739807,2.3815622329711914,4.620809240932129,0.0001719085412332788,0.3192148208618164,-1.5693977514850062,0.0,-0.0038532097823917866,0.8185473680496216,0.0,-0.0012514280388131738,0.7877373099327087,0.0,0.041876420378685
872.0,815.0,3.4732,-0.3565,8.9492,-0.0367,0.0631,-0.1211,-1.8362580738463343,8.284652722068131e-05,3.335505962371826,-1.6386027336120605,0.14710786938667297,2.3617069721221924,4.620845480556152,0.00018479952996131033,0.3266226649284363,-1.569385830556051,0.0,5.861511453986168e-06,0.818495512008667,0.0,-0.004260642919689417,0.7878262996673584,0.0,-0.0038095153868198395
872.0,815.0,3.4732,-0.3565,8.9492,-0.0367,0.0631,-0.1211,-1.8362661800780238,7.586271385662258e-05,3.332792282104492,-1.6380473375320435,0.1555180549621582,2.3991904258728027,4.620817347163818,0.00020181044237688184,0.32637259364128113,-1.569390122090475,0.0,-0.01076632272452116,0.8184792399406433,0.0,-0.0002277594176121056,0.787814199924469,0.0,0.017943959683179855
872.0,815.0,3.4732,-0.3565,8.9492,-0.0367,0.0631,-0.1211,-1.836238523522848,0.00010101986117660999,3.3148653507232666,-1.6370269060134888,0.1705259531736374,2.429375410079956,4.620861693019531,0.0002104295854223892,0.3150624632835388,-1.5694344679461878,0.0,-0.0013454107102006674,0.8185632824897766,0.0,-0.008238721638917923,0.7877898812294006,0.0,0.01007700152695179
872.0,815.0,3.4732,-0.3565,8.9492,-0.0367,0.0631,-0.1211,-1.8363024197020472,-3.926514182239771e-05,3.3429322242736816,-1.6359822750091553,0.18283653259277344,2.417698383331299,4.620793505305908,0.00016946271352935582,0.324777215719223,-1.569418732319967,0.0,-0.007473133038729429,0.8185632824897766,0.0,-0.0013398375594988465,0.7877535223960876,0.0,0.031266406178474426
872.0,815.0,3.4732,-0.3565,8.9492,-0.0367,0.0631,-0.1211,-1.8363224468626917,-9.591157868271694e-05,3.2955522537231445,-1.635231614112854,0.19027729332447052,2.3905420303344727,4.620829744929932,0.00016080444038379937,0.3273499608039856,-1.5694063345538538,0.0,-0.004240950103849173,0.8185153007507324,0.0,0.0002848485601134598,0.7877856492996216,0.0,0.004388989880681038
872.0,815.0,3.4732,-0.3565,8.9492,-0.0367,0.0631,-0.1211,-1.836346288720602,-0.0004357811121735722,3.307894229888916,-1.634002923965454,0.19475440680980682,2.391641139984131,4.620809240932129,0.00016518632764928043,0.33258092403411865,-1.5694268385516565,0.0,-0.0014447339344769716,0.818495512008667,0.0,-0.007092024199664593,0.7878101468086243,0.0,0.017749739810824394
868.0,826.0,3.8423,-0.3834,9.0197,-0.042,0.1466,-0.1188,-1.8362986050047816,-0.00043052586261183023,3.3468847274780273,-1.6328270435333252,0.20765803754329681,2.5113492012023926,4.620817347163818,0.00015936688578221947,0.33625680208206177,-1.5693977514850062,0.0,-0.011535744182765484,0.8185113668441772,0.0,-0.009591641835868359,0.7877453565597534,6.076508361729793e-05,0.043744903057813644
868.0,826.0,3.8423,-0.3834,9.0197,-0.042,0.1466,-0.1188,-1.8363224468626917,-0.0003613560984376818,3.318593740463257,-1.6320276260375977,0.2139255851507187,2.4531164169311523,4.620821638698242,0.00013846227375324816,0.3260177969932556,-1.5693700949298304,0.0,-0.012905403971672058,0.8184871673583984,0.0,-0.006019993219524622,0.78780597448349,2.0295827198424377e-05,0.04101068153977394
868.0,826.0,3.8423,-0.3834,9.0197,-0.042,0.1466,-0.1188,-1.8362623653807582,-0.0002911904302891344,3.3406076431274414,-1.630707859992981,0.22707559168338776,2.4722342491149902,4.620821638698242,4.0703482227399945e-05,0.32247382402420044,-1.5693658033954065,0.0,0.0029545840807259083,0.8185311555862427,0.0,-0.01258631981909275,0.7877252697944641,4.9012037484086335e-11,0.020139867439866066
868.0,826.0,3.8423,-0.3834,9.0197,-0.042,0.1466,-0.1188,-1.8363105259337367,-0.00024384671996813267,3.363774299621582,-1.6293118000030518,0.23739798367023468,2.5202720165252686,4.620821638698242,3.7948535464238375e-05,0.32352280616760254,-1.5694063345538538,0.0,-0.0029473300091922283,0.8185350894927979,0.0,-0.013610678724944592,0.7877898216247559,1.1835830923489734e-16,0.05176140367984772
868.0,826.0,3.8423,-0.3834,9.0197,-0.042,0.1466,-0.1188,-1.8363105259337367,-0.0002097457618219778,3.3470678329467773,-1.6277838945388794,0.24509243667125702,2.51278018951416,4.620845480556152,4.447079118108377e-05,0.32153064012527466,-1.5693820158587855,0.0,-0.017945606261491776,0.8185752034187317,0.0,0.001858462579548359,0.7877576351165771,2.8582134535712535e-22,0.031875595450401306
868.0,826.0,3.8423,-0.3834,9.0197,-0.042,0.1466,-0.1188,-1.8363262615599574,-0.00019185930432286114,3.374283790588379,-1.6267963647842407,0.25507646799087524,2.479154109954834,4.620805903072021,5.145583054400049e-05,0.3211173415184021,-1.5693820158587855,0.0,-0.012891549617052078,0.8186108469963074,0.0,-0.006254684180021286,0.7877857089042664,5.1446836588495536e-26,-0.02339945174753666
868.0,826.0,3.8423,-0.3834,9.0197,-0.042,0.1466,-0.1188,-1.836306711236471,-0.00017010103329084814,3.344902992248535,-1.6252777576446533,0.26818057894706726,2.5460681915283203,4.620797796840332,-6.512813706649467e-05,0.32699722051620483,-1.5694101492511194,0.0,0.0032980183605104685,0.8185710906982422,0.0,0.008454665541648865,0.7878139019012451,9.60259058047086e-05,-0.04165812209248543
868.0,826.0,3.8423,-0.3834,9.0197,-0.042,0.1466,-0.1188,-1.8363262615599574,-0.00018318521324545145,3.3001205921173096,-1.623552918434143,0.2734874188899994,2.551377773284912,4.620797796840332,-0.00022286426974460483,0.3172980546951294,-1.5694101492511194,0.0,-0.018614962697029114,0.8185473680496216,0.0,-0.004472699947655201,0.7877859473228455,8.277995948446915e-05,-0.009887459687888622
868.0,826.0,3.8423,-0.3834,9.0197,-0.042,0.1466,-0.1188,-1.836306711236471,-0.00019046934903599322,3.341048240661621,-1.6223435401916504,0.27885901927948,2.50040864944458,4.620793505305908,-0.00071206025313586,0.3213534355163574,-1.5693982283221644,0.0,-0.0018518781289458275,0.8185350894927979,0.0,0.00018140033353120089,0.7877857089042664,7.580693636555225e-05,0.06987027078866959
868.0,826.0,3.8423,-0.3834,9.0197,-0.042,0.1466,-0.1188,-1.8363186321654261,-0.00020884384866803885,3.3411898612976074,-1.6206969022750854,0.2925746440887451,2.5151093006134033,4.620793505305908,-0.00029479453223757446,0.32441747188568115,-1.5693700949298304,0.0,-0.013520350679755211,0.8185113668441772,0.0,-0.005105368793010712,0.7878022193908691,6.730289896950126e-05,0.030223604291677475
868.0,826.0,3.8423,-0.3834,9.0197,-0.042,0.1466,-0.1188,-1.8363381824889125,-0.00019223014533054084,3.3236589431762695,-1.618941307067871,0.3062000870704651,2.5621464252471924,4.620802088374756,-0.00029605269082821906,0.31158047914505005,-1.5693824926959437,0.0,-0.004358012229204178,0.8185113668441772,0.0,-0.01338083203881979,0.787814199924469,6.0514750657603145e-05,0.04179195687174797
868.0,826.0,3.8423,-0.3834,9.0197,-0.042,0.1466,-0.1188,-1.8363186321654261,-0.00018248577544,3.3517327308654785,-1.6176972389221191,0.3080662190914154,2.570077419281006,4.620729132289551,-0.000348421250237152,0.3177213668823242,-1.5693419615374964,0.0,0.000849461299367249,0.818467378616333,0.0,-0.007700332906097174,0.7877939343452454,2.8397247660905123e-05,-0.03536808490753174
868.0,826.0,3.8423,-0.3834,9.0197,-0.042,0.1466,-0.1188,-1.8363305530943812,-0.00012752623297274113,3.301664352416992,-1.6157770156860352,0.31602030992507935,2.5524048805236816,4.620765371913574,-0.001462236512452364,0.31840652227401733,-1.569385830556051,0.0,-0.0045266104862093925,0.8185073137283325,0.0,0.004593550693243742,0.7877211570739746,2.5903040295816027e-05,-0.007425126153975725
868.0,826.0,3.8423,-0.3834,9.0197,-0.042,0.1466,-0.1188,-1.8363262615599574,-0.0001644290896365419,3.2482924461364746,-1.6139023303985596,0.32781392335891724,2.546210765838623,4.620769663447998,-0.0007973374449647963,0.31381821632385254,-1.5693462530719202,7.095744513208047e-05,-0.010446028783917427,0.8185791373252869,0.0,0.0011948376195505261,0.7877898216247559,2.3844260795158334e-05,-0.029505964368581772
868.0,826.0,3.8423,-0.3834,9.0197,-0.042,0.1466,-0.1188,-1.8363143406310023,-0.00017431096057407558,3.2831978797912598,-1.6119383573532104,0.339525043964386,2.5778493881225586,4.620741530055664,-0.0005764018278568983,0.3178168535232544,-1.569361988698141,6.778925308026373e-05,0.006403530947864056,0.8185350894927979,0.0,-0.012772460468113422,0.7877939343452454,2.2088610421633348e-05,0.011467340402305126
868.0,826.0,3.8423,-0.3834,9.0197,-0.042,0.1466,-0.1188,-1.8363262615599574,-0.00016626081196591258,3.2847137451171875,-1.6105661392211914,0.3469265401363373,2.6236627101898193,4.620753927821777,-0.0004861854831688106,0.3114398717880249,-1.5693782011615198,6.580661283805966e-05,0.0031489715911448,0.8185033798217773,0.0,-0.017345011234283447,0.787741482257843,1.1610016947827262e-08,-0.05372866243124008
878.0,853.0,3.6437,-0.4038,9.5815,-0.0354,0.3186,-0.1182,-1.8363105259337367,-0.00015548913506790996,3.305847644805908,-1.6084989309310913,0.35170143842697144,2.633751392364502,4.620709581966064,-0.0005040838732384145,0.3085269331932068,-1.5693662802325647,6.30409485893324e-05,-0.0014708962989971042,0.8185473680496216,0.0,-0.003224749118089676,0.7877777814865112,2.8036822741369337e-14,-0.07934170961380005
878.0,853.0,3.6437,-0.4038,9.5815,-0.0354,0.3186,-0.1182,-1.8363381824889125,-0.0002883563283830881,3.2610087394714355,-1.6064363718032837,0.36070090532302856,2.5884127616882324,4.620745821590088,-0.00042875719373114407,0.30801573395729065,-1.5694101492511194,7.101928349584341e-05,-0.0029421187937259674,0.818495512008667,0.0,-0.00769838597625494,0.7877777814865112,6.770562494156322e-20,-0.026189060881733894
878.0,853.0,3.6437,-0.4038,9.5815,-0.0354,0.3186,-0.1182,-1.8363625011839808,-0.0003066913050133735,3.2689757347106934,-1.6049919128417969,0.370697021484375,2.6434342861175537,4.620778246516846,-0.00033545264159329236,0.3028942346572876,-1.5693143049823206,7.069033745210618e-05,0.010560724884271622,0.8185434341430664,0.0,-0.014292046427726746,0.7878221869468689,1.2186773703431072e-23,-0.042285021394491196
878.0,853.0,3.6437,-0.4038,9.5815,-0.0354,0.3186,-0.1182,-1.8363625011839808,-0.0003448951174505055,3.2632930278778076,-1.602691888809204,0.37586215138435364,2.576821804046631,4.62074534475293,-0.00044395666918717325,0.3060925304889679,-1.569385830556051,6.802533607697114e-05,-0.003229791298508644,0.8185393810272217,0.0,-0.0005360976792871952,0.7877901196479797,2.9429623905039873e-29,-0.04605668783187866
878.0,853.0,3.6437,-0.4038,9.5815,-0.0354,0.3186,-0.1182,-1.8363987408080042,-0.0003055229317396879,3.222123622894287,-1.6004364490509033,0.3854462206363678,2.620863437652588,4.6207777696796875,-0.00032110948814079165,0.3020915389060974,-1.5693581740008753,6.55481344438158e-05,0.02133616805076599,0.8185073733329773,0.0,0.0003279508091509342,0.7877815961837769,7.106908553461376e-35,-0.06806281954050064
878.0,853.0,3.6437,-0.4038,9.5815,-0.0354,0.3186,-0.1182,-1.8363424740233363,-0.0002710205444600433,3.268240451812744,-1.5980430841445923,0.39366140961647034,2.608708381652832,4.620697661037109,-0.00034271011827513576,0.296862930059433,-1.5693782011615198,6.324508285615593e-05,0.010614078491926193,0.8185513019561768,0.0,0.0002993944799527526,0.7877576947212219,1.7162402941818197e-40,0.018529146909713745
878.0,853.0,3.6437,-0.4038,9.5815,-0.0354,0.3186,-0.1182,-1.8363706074156703,-0.00031399488216266036,3.2785983085632324,-1.5965228080749512,0.39256587624549866,2.6237945556640625,4.620753927821777,-0.0003765667206607759,0.29067981243133545,-1.5693581740008753,6.179754564072937e-05,0.005066241603344679,0.8185074329376221,0.0,-0.002609100192785263,0.7877816557884216,3.0828566215145976e-44,-0.006690362002700567
878.0,853.0,3.6437,-0.4038,9.5815,-0.0354,0.3186,-0.1182,-1.8363906345763148,-0.00036168660153634846,3.285231113433838,-1.5940747261047363,0.40161851048469543,2.585665702819824,4.620730085963867,-0.00028875801945105195,0.2802349030971527,-1.569390122090475,5.974632949801162e-05,0.0088202441111207,0.8185989260673523,0.0,0.0036568259820342064,0.78780597448349,0.0,-0.057535652071237564
878.0,853.0,3.6437,-0.4038,9.5815,-0.0354,0.3186,-0.1182,-1.8363224468626917,-0.0005867592990398407,3.29034423828125,-1.59165620803833,0.40390172600746155,2.5935168266296387,4.620757742519043,-0.00029573976644314826,0.3040275275707245,-1.569373909627096,3.280812066464023e-08,0.009577158838510513,0.818495512008667,0.0,0.006254315376281738,0.7878099083900452,0.0,-0.042498476803302765
878.0,853.0,3.6437,-0.4038,9.5815,-0.0354,0.3186,-0.1182,-1.8363143406310023,-0.0004871922719758004,3.242187738418579,-1.5900862216949463,0.4062236249446869,2.583146095275879,4.620718165034912,-0.000262256566202268,0.29225918650627136,-1.569373909627096,1.3986617419803338e-10,-7.538334466516972e-05,0.8185194134712219,0.0,-0.0033050505444407463,0.7877939939498901,0.0,-0.06828933209180832
878.0,853.0,3.6437,-0.4038,9.5815,-0.0354,0.3186,-0.1182,-1.836398263970846,-0.00036771083250641823,3.203333854675293,-1.58756685256958,0.4137604534626007,2.617924213409424,4.620725794429443,-0.00022321856522466987,0.2945418655872345,-1.5693982283221644,3.893226005794413e-14,0.004438183736056089,0.818535327911377,0.0,-0.004558643791824579,0.7877815961837769,0.0,-0.0363948680460453
878.0,853.0,3.6437,-0.4038,9.5815,-0.0354,0.3186,-0.1182,-1.8363825283446253,-0.00029530187021009624,3.175107479095459,-1.5851033926010132,0.4169034957885742,2.6102676391601562,4.620725794429443,-0.000270478572929278,0.2900013327598572,-1.5693777243243616,1.0836938699990906e-17,0.014963459223508835,0.8185915350914001,0.0,0.001810138113796711,0.7877816557884216,0.0,0.0178685300052166
878.0,853.0,3.6437,-0.4038,9.5815,-0.0354,0.3186,-0.1182,-1.8363787136473597,-0.0002610364754218608,3.2588906288146973,-1.5833468437194824,0.4198479950428009,2.658203125,4.620697184199951,-0.0002503827854525298,0.30804094672203064,-1.569373909627096,4.6199568787689526e-20,-0.0009073799010366201,0.8184711337089539,0.0,-0.0017039772355929017,0.787773609161377,0.0,-0.013290416449308395
878.0,853.0,3.6437,-0.4038,9.5815,-0.0354,0.3186,-0.1182,-1.836374898950094,-0.00022233938216231763,3.2153289318084717,-1.5808665752410889,0.4259474277496338,2.635266065597534,4.620750113124512,-0.0002237113512819633,0.29218924045562744,-1.569373909627096,1.2859819572573871e-23,0.003315094392746687,0.8185153007507324,0.0,0.0037528069224208593,0.7877812385559082,4.9880614824360237e-05,-0.071564681828022
878.0,853.0,3.6437,-0.4038,9.5815,-0.0354,0.3186,-0.1182,-1.8364182911314906,-0.00019363542378414422,3.2536797523498535,-1.5783352851867676,0.432813823223114,2.627537727355957,4.620742006892822,-0.00022723028087057173,0.2861599028110504,-1.5693462530719202,3.5795776910268375e-27,0.016903121024370193,0.8185553550720215,0.0,0.0031631989404559135,0.7878621220588684,6.898824358358979e-05,-0.05149420350790024
878.0,853.0,3.6437,-0.4038,9.5815,-0.0354,0.3186,-0.1182,-1.8363825283446253,-0.0002056304510915652,3.258380651473999,-1.5756988525390625,0.43340006470680237,2.6303672790527344,4.620697661037109,-0.0002107593754772097,0.27841538190841675,-1.5693944136248987,9.963886024067066e-31,-0.0015408496838063002,0.8185431957244873,0.0,0.0025815689004957676,0.7878139019012451,6.417016265913844e-05,-0.05799161642789841
878.0,853.0,3.6437,-0.4038,9.5815,-0.0354,0.3186,-0.1182,-1.8364588222899378,-0.00022293670917861164,3.205746650695801,-1.5739591121673584,0.43906885385513306,2.655514717102051,4.620697661037109,-0.00019910316041205078,0.2915331721305847,-1.5694063345538538,4.247761243343633e-33,0.008675656281411648,0.8186156749725342,0.0,0.007764866575598717,0.7877613306045532,6.12583608017303e-05,-0.097516730427742
869.0,830.0,3.1902,-0.2357,9.1155,-0.0122,0.4392,-0.1106,-1.8363906345763148,-0.000220586167415604,3.196892261505127,-1.5712871551513672,0.43864598870277405,2.615277051925659,4.620713873500488,-0.00021430168999359012,0.29375314712524414,-1.56940204301943,1.182380040005899e-36,0.00537425372749567,0.81856769323349,0.0,-0.0004275504616089165,0.7877936363220215,7.638306851731613e-05,-0.05743902921676636
869.0,830.0,3.1902,-0.2357,9.1155,-0.0122,0.4392,-0.1106,-1.836414476434225,-0.0009575189906172454,3.2185416221618652,-1.568628191947937,0.44894322752952576,2.641841173171997,4.6206652361103515,-0.00016340419824700803,0.28310784697532654,-1.569373909627096,3.2912016771904114e-40,0.01363745704293251,0.8185595273971558,0.0,-0.0007019918411970139,0.7878420352935791,7.189127791207284e-05,-0.04747431352734566
869.0,830.0,3.1902,-0.2357,9.1155,-0.0122,0.4392,-0.1106,-1.8364063702025355,-0.0008264133357442915,3.204233407974243,-1.566859245300293,0.45354366302490234,2.656306266784668,4.620673342342041,-0.0002022780099650845,0.2887217402458191,-1.569361988698141,1.4026997627891419e-42,0.023697733879089355,0.818535327911377,0.0,0.012587646022439003,0.7878382205963135,6.913029938004911e-05,-0.07708297669887543
869.0,830.0,3.1902,-0.2357,9.1155,-0.0122,0.4392,-0.1106,-1.8364306888976039,-0.00056635303189978,3.2454793453216553,-1.5641356706619263,0.45079779624938965,2.6359670162200928,4.620730085963867,-0.0006988210952840745,0.28792068362236023,-1.5694225470172327,0.0,0.018089044839143753,0.818543553352356,0.0,-0.0052988347597420216,0.7877774834632874,6.536472210427746e-05,-0.023333214223384857
869.0,830.0,3.1902,-0.2357,9.1155,-0.0122,0.4392,-0.1106,-1.8364345035948695,-0.0005863529513590038,3.2216057777404785,-1.5613443851470947,0.44831958413124084,2.613570213317871,4.6206700044819335,-0.0013345197075977921,0.28200316429138184,-1.5693381468402308,0.0,0.024023592472076416,0.8185554146766663,0.0,0.008535738103091717,0.7878340482711792,6.198821938596666e-05,-0.10473237186670303
869.0,830.0,3.1902,-0.2357,9.1155,-0.0122,0.4392,-0.1106,-1.8364302120604457,-0.0017833777237683535,3.2137908935546875,-1.5595887899398804,0.4485301673412323,2.630472183227539,4.62066571294751,-0.00040452281245961785,0.288582980632782,-1.5694101492511194,0.0,0.026671994477510452,0.818547248840332,0.0,0.001788825960829854,0.7878420352935791,7.488182745873928e-05,-0.08845153450965881
869.0,830.0,3.1902,-0.2357,9.1155,-0.0122,0.4392,-0.1106,-1.836466451684469,-0.0020151149947196245,3.1916635036468506,-1.5568450689315796,0.4562634825706482,2.672743797302246,4.6206981378742675,-0.00011669702507788315,0.27758315205574036,-1.569385830556051,0.0,0.013147927820682526,0.8185070157051086,0.0,0.018769826740026474,0.7878378629684448,0.00018255157920066267,-0.07428622245788574
869.0,830.0,3.1902,-0.2357,9.1155,-0.0122,0.4392,-0.1106,-1.836442609826559,-0.000962038291618228,3.21511173248291,-1.5541106462478638,0.45493215322494507,2.6517419815063477,4.620674296016357,-0.0002858291263692081,0.27839428186416626,-1.5693538824664515,0.0,0.015043303370475769,0.8186076879501343,0.0,0.0069545237347483635,0.787789523601532,0.0001687660114839673,-0.08994938433170319
869.0,830.0,3.1902,-0.2357,9.1155,-0.0122,0.4392,-0.1106,-1.8364345035948695,-0.000701097131241113,3.2119243144989014,-1.55133056640625,0.4537374973297119,2.624356746673584,4.620661898250244,-0.00026228552451357245,0.2783401906490326,-1.5693381468402308,0.0,0.012931276112794876,0.8185595870018005,0.0,0.01152903214097023,0.7878180146217346,0.00017120006668847054,-0.04698414355516434
869.0,830.0,3.1902,-0.2357,9.1155,-0.0122,0.4392,-0.1106,-1.83642639736318,-0.0006491754320450127,3.2273197174072266,-1.5495141744613647,0.4562496542930603,2.5992493629455566,4.62066571294751,-0.00020108518947381526,0.2834794521331787,-1.5694144407855433,0.0,0.00527977803722024,0.8185554146766663,0.0,-0.0020679538138210773,0.7878336906433105,0.00019175188208464533,-0.06532521545886993
869.0,830.0,3.1902,-0.2357,9.1155,-0.0122,0.4392,-0.1106,-1.8364907703795375,-0.0005161574226804078,3.165302038192749,-1.5467792749404907,0.46210578083992004,2.6842164993286133,4.620677633876465,-0.00018577325681690127,0.28661900758743286,-1.569418732319967,0.0,0.018261469900608063,0.8185632228851318,0.0,0.0034245913848280907,0.7878941297531128,0.0004841433255933225,-0.08882101625204086
869.0,830.0,3.1902,-0.2357,9.1155,-0.0122,0.4392,-0.1106,-1.8364626369872035,-0.001190590439364314,3.230771541595459,-1.544072151184082,0.4636458158493042,2.641502618789673,4.620693846339844,-0.00016568013234063983,0.2755086123943329,-1.5693705717669886,0.0,0.023811914026737213,0.818527102470398,0.0,0.01122392900288105,0.7878578305244446,0.001025213161483407,-0.08708952367305756
869.0,830.0,3.1902,-0.2357,9.1155,-0.0122,0.4392,-0.1106,-1.8364907703795375,-0.0017525051953271031,3.2310359477996826,-1.5422425270080566,0.46557557582855225,2.654707431793213,4.6206418710896,-9.14077609195374e-05,0.2861069440841675,-1.5694182554828089,0.0,0.0349302776157856,0.8185915946960449,0.0,-0.0005003811093047261,0.7878779172897339,0.0008789211860857904,-0.07362640649080276
869.0,830.0,3.1902,-0.2357,9.1155,-0.0122,0.4392,-0.1106,-1.8365513286986292,-0.0035703505855053663,3.2437586784362793,-1.5393961668014526,0.4608096480369568,2.674651622772217,4.6206418710896,-0.00015497738786507398,0.2823600471019745,-1.569385830556051,0.0,0.036494672298431396,0.818527102470398,0.0,0.014523973688483238,0.7878656387329102,0.0008084860164672136,-0.052665695548057556
869.0,830.0,3.1902,-0.2357,9.1155,-0.0122,0.4392,-0.1106,-1.8365827999510707,-0.006444678641855717,3.1843478679656982,-1.5367454290390015,0.4696088433265686,2.671048402786255,4.620629473323486,-0.0001264429884031415,0.2812780737876892,-1.5693824926959437,0.0,0.027162525802850723,0.8185595273971558,0.0,-0.00391301978379488,0.7879422307014465,0.001733829383738339,-0.11245405673980713
869.0,830.0,3.1902,-0.2357,9.1155,-0.0122,0.4392,-0.1106,-1.8365823231139125,-0.006383082829415798,3.1966118812561035,-1.5348151922225952,0.46883633732795715,2.6435375213623047,4.620637579555176,-0.00026530996547080576,0.27800849080085754,-1.569361988698141,0.0,0.02471933700144291,0.8186194896697998,0.0,0.01634334959089756,0.7878656387329102,0.002013258170336485,-0.09777827560901642
869.0,830.0,3.1902,-0.2357,9.1155,-0.0122,0.4392,-0.1106,-1.8366314373412074,-0.00559669965878129,3.1936564445495605,-1.5320569276809692,0.46761029958724976,2.663729190826416,4.620618029231689,-0.0002936507808044553,0.27300697565078735,-1.5693824926959437,0.0,0.003987148404121399,0.8185431957244873,0.0,0.0068415687419474125,0.787926197052002,0.0020844191312789917,-0.08312135934829712
241.0,207.0,2.4479,-0.2363,9.0126,-0.0215,0.4927,-0.1103,-1.836675306359762,-0.005675678141415119,3.217388391494751,-1.5292307138442993,0.4601871073246002,2.651169776916504,4.620626135463379,-0.00034796635736711323,0.2835855782032013,-1.56940204301943,0.0,0.03469979017972946,0.8185272812843323,0.0,0.0174713172018528,0.7879257202148438,0.002746312879025936,-0.03360768407583237
241.0,207.0,2.4479,-0.2363,9.0126,-0.0215,0.4927,-0.1103,-1.8367229900755824,-0.00720452144742012,3.176443099975586,-1.5264281034469604,0.45973166823387146,2.6192097663879395,4.620678110713623,-0.000324903114233166,0.27078676223754883,-1.5694268385516565,0.0,0.0402555838227272,0.8185352683067322,0.0,0.017443940043449402,0.7879822850227356,0.004892931319773197,-0.0738830417394638
241.0,207.0,2.4479,-0.2363,9.0126,-0.0215,0.4927,-0.1103,-1.836783071557516,-0.007254618685692549,3.2012648582458496,-1.524545669555664,0.46084824204444885,2.6437182426452637,4.6206418710896,-0.00012095140846213326,0.27712497115135193,-1.5694101492511194,0.0,0.03652874380350113,0.818562924861908,0.0,0.0103900833055377,0.7880141735076904,0.006204552482813597,-0.10873900353908539
241.0,207.0,2.4479,-0.2363,9.0126,-0.0215,0.4927,-0.1103,-1.8368030987181605,-0.006646652240306139,3.1917078495025635,-1.5218548774719238,0.4576217830181122,2.6932740211486816,4.620626135463379,-0.00031362721347250044,0.2706415057182312,-1.5694101492511194,0.0,0.023711122572422028,0.8185107707977295,0.0,0.007819145917892456,0.7880221009254456,0.0068397303111851215,-0.0776485800743103
241.0,207.0,2.4479,-0.2363,9.0126,-0.0215,0.4927,-0.1103,-1.8368636570372523,-0.006195054855197668,3.184609889984131,-1.519180417060852,0.4499017298221588,2.68314266204834,4.620638056392334,-0.0003808735345955938,0.27275407314300537,-1.5694225470172327,0.0,0.04053349047899246,0.8185756206512451,0.0,0.015463083051145077,0.7880619168281555,0.005798608995974064,-0.09105696529150009
241.0,207.0,2.4479,-0.2363,9.0126,-0.0215,0.4927,-0.1103,-1.836863180200094,-0.005743150599300861,3.1384172439575195,-1.5173207521438599,0.44928741455078125,2.6739814281463623,4.620598002071045,-0.0003239872748963535,0.28045454621315,-1.5693581740008753,0.0,0.04028179496526718,0.818535327911377,0.0,0.017926063388586044,0.7881021499633789,0.006112163420766592,-0.09793688356876373
241.0,207.0,2.4479,-0.2363,9.0126,-0.0215,0.4927,-0.1103,-1.836858411828512,-0.005479575600475073,3.152104377746582,-1.5147154331207275,0.4466518461704254,2.613766670227051,4.6206299501606445,-0.00025509909028187394,0.27270761132240295,-1.569373909627096,0.0,0.033880166709423065,0.8185591697692871,0.0,0.014551297761499882,0.7881744503974915,0.007643703371286392,-0.11321301013231277
241.0,207.0,2.4479,-0.2363,9.0126,-0.0215,0.4927,-0.1103,-1.8369509182372035,-0.00615232577547431,3.1999566555023193,-1.5120242834091187,0.44633784890174866,2.6426568031311035,4.620642347926758,-0.0002592969103716314,0.2694582939147949,-1.569373909627096,0.0,0.04948047548532486,0.8185796141624451,0.0,0.01602441444993019,0.7882022261619568,0.008583912625908852,-0.08166734129190445
241.0,207.0,2.4479,-0.2363,9.0126,-0.0215,0.4927,-0.1103,-1.8369504414000453,-0.007438257336616516,3.1484227180480957,-1.5103298425674438,0.4415866732597351,2.6744418144226074,4.620590372676514,-0.0004401693004183471,0.2662923336029053,-1.5693700949298304,0.0,0.022800114005804062,0.8185471892356873,0.0,0.012077377177774906,0.788218080997467,0.009041246958076954,-0.0591447651386261
241.0,207.0,2.4479,-0.2363,9.0126,-0.0215,0.4927,-0.1103,-1.8370348415770472,-0.010199949145317078,3.132490634918213,-1.507743239402771,0.43157750368118286,2.6236367225646973,4.620614214534424,-0.004124238155782223,0.26582586765289307,-1.569390122090475,0.0,0.024012409150600433,0.8185476064682007,0.0,0.011143517680466175,0.7882900834083557,0.010714229196310043,-0.07513609528541565
241.0,207.0,2.4479,-0.2363,9.0126,-0.0215,0.4927,-0.1103,-1.8371435604491175,-0.011020279489457607,3.117460012435913,-1.505169153213501,0.43423032760620117,2.623429775238037,4.620586557979248,-0.005896258633583784,0.2625317871570587,-1.5693581740008753,0.0,0.035055551677942276,0.8185476064682007,0.0,0.004979869816452265,0.788345992565155,0.011919587850570679,-0.06650924682617188
241.0,207.0,2.4479,-0.2363,9.0126,-0.0215,0.4927,-0.1103,-1.8371111355223597,-0.010250136256217957,3.0983433723449707,-1.5026228427886963,0.4270912706851959,2.6257572174072266,4.6205102640339355,-0.010204853489995003,0.26836785674095154,-1.5693782011615198,0.0,0.02894851565361023,0.8185833096504211,0.0,0.03179866820573807,0.7883899807929993,0.0125731797888875,-0.012170912697911263
241.0,207.0,2.4479,-0.2363,9.0126,-0.0215,0.4927,-0.1103,-1.8371550045409144,-0.009772122837603092,3.0698814392089844,-1.500822901725769,0.42387640476226807,2.6695804595947266,4.620446367854736,-0.010802119970321655,0.25860854983329773,-1.5693782011615198,0.0,0.02947472408413887,0.8185513019561768,0.0,0.014910697937011719,0.7885228395462036,0.01316388975828886,-0.03747919201850891
241.0,207.0,2.4479,-0.2363,9.0126,-0.0215,0.4927,-0.1103,-1.8372789822020472,-0.010428199544548988,3.0668342113494873,-1.4983527660369873,0.41146722435951233,2.5658698081970215,4.6204187112995605,-0.006585248745977879,0.2608976662158966,-1.5693863073932093,0.0,0.03237522393465042,0.8185791969299316,0.0,0.02969072014093399,0.7885865569114685,0.01401141844689846,-0.000883420929312706
241.0,207.0,2.4479,-0.2363,9.0126,-0.0215,0.4927,-0.1103,-1.8373390636839808,-0.009857314638793468,3.0581352710723877,-1.4958703517913818,0.4051639437675476,2.6183810234069824,4.620381994838379,-0.0019743044394999743,0.2718762755393982,-1.5693824926959437,0.0,0.03462997078895569,0.8185352683067322,0.0,0.014812462031841278,0.7886826395988464,0.014493536204099655,-0.036594096571207047
241.0,207.0,2.4479,-0.2363,9.0126,-0.0215,0.4927,-0.1103,-1.8373667202391566,-0.009586538188159466,3.1046876907348633,-1.494146466255188,0.4051459729671478,2.5856409072875977,4.620414419765137,-1.2945552953169681e-05,0.2640480101108551,-1.569373909627096,0.0,0.03663628175854683,0.818595290184021,0.0,0.015261824242770672,0.7887468338012695,0.0154378367587924,-0.05439157038927078
171.0,192.0,1.7641,-0.1448,8.601,-0.0125,0.4589,-0.1089,-1.8374115429320277,-0.007232929114252329,3.1048340797424316,-1.4918204545974731,0.3978438377380371,2.597327709197998,4.62040297567334,0.00010927073162747547,0.2775489389896393,-1.5693982283221644,0.0,0.035904522985219955,0.8185873627662659,0.0,0.014803260564804077,0.7888147234916687,0.01647827960550785,-0.08875051885843277
171.0,192.0,1.7641,-0.1448,8.601,-0.0125,0.4589,-0.1089,-1.8374506435790003,-0.005252914037555456,3.1196537017822266,-1.4894540309906006,0.3878425359725952,2.5847558975219727,4.620382948512695,3.041590801444727e-08,0.25412121415138245,-1.569373909627096,0.0,0.038091689348220825,0.8185795545578003,0.0,0.02698732540011406,0.788894772529602,0.016039801761507988,-0.007132573053240776
171.0,192.0,1.7641,-0.1448,8.601,-0.0125,0.4589,-0.1089,-1.8374344311156214,-0.003939644433557987,3.0786333084106445,-1.4878947734832764,0.38205721974372864,2.598151206970215,4.62042681753125,-0.0004521431983448565,0.2698673903942108,-1.569361988698141,0.0,0.038111839443445206,0.8185509443283081,0.0,0.025791287422180176,0.7889750003814697,0.015681665390729904,-0.07883021980524063
171.0,192.0,1.7641,-0.1448,8.601,-0.0125,0.4589,-0.1089,-1.8374701939024867,-0.0028162363450974226,3.12040638923645,-1.4856082201004028,0.38281112909317017,2.5736947059631348,4.620443029994629,-0.00012588391837198287,0.2496473342180252,-1.5693586508380335,1.41192870728446e-07,0.04287482053041458,0.8185550570487976,0.0,0.015507079660892487,0.789018452167511,0.015469527803361416,-0.06518493592739105
171.0,192.0,1.7641,-0.1448,8.601,-0.0125,0.4589,-0.1089,-1.8374825916686,-0.0020583749283105135,3.107468366622925,-1.4833977222442627,0.3741782307624817,2.5689706802368164,4.620358629817627,-0.00026380945928394794,0.25826454162597656,-1.5694063345538538,3.93015515964823e-11,0.04943706840276718,0.8185591697692871,0.0,0.01792592741549015,0.7891271114349365,0.015327217988669872,-0.015728775411844254
171.0,192.0,1.7641,-0.1448,8.601,-0.0125,0.4589,-0.1089,-1.837494512597555,-0.0017759323818609118,3.0341670513153076,-1.481162428855896,0.36946019530296326,2.5142292976379395,4.620358629817627,-0.00025458273012191057,0.2630513608455658,-1.5693462530719202,1.093972951641967e-14,0.057883650064468384,0.8185554146766663,0.0,0.014694791287183762,0.789239227771759,0.014039366506040096,-0.09689623862504959
171.0,192.0,1.7641,-0.1448,8.601,-0.0125,0.4589,-0.1089,-1.8374949894347132,-0.001991962781175971,3.099548101425171,-1.4797316789627075,0.36608365178108215,2.5565619468688965,4.6203905779072265,-0.00020685972413048148,0.25994497537612915,-1.5693581740008753,4.6637779659609586e-17,0.05713582783937454,0.8185591101646423,0.0,0.017337616533041,0.7892951369285583,0.013012588955461979,-0.06361930072307587
171.0,192.0,1.7641,-0.1448,8.601,-0.0125,0.4589,-0.1089,-1.8374825916686,-0.0027862919960170984,3.0772852897644043,-1.477617859840393,0.3543863594532013,2.5618884563446045,4.6203624445148925,-0.0009163328795693815,0.25919896364212036,-1.5693300406085413,1.2981798382801359e-20,0.050576820969581604,0.8185915946960449,0.0,0.007547634653747082,0.7893630266189575,0.012364905327558517,-0.11906810104846954
