ramyac6/ROB537/final_project/csv/all/bad_129.csv
tof_0,tof_1,accelx,accely,accelz,gyrox,gyroy,gyroz,shoulder_lift_joint_position,shoulder_lift_joint_velocity,shoulder_lift_joint_effort,elbow_joint_position,elbow_joint_velocity,elbow_joint_effort,wrist_1_joint_position,wrist_1_joint_velocity,wrist_1_joint_effort,wrist_2_joint_position,wrist_2_joint_velocity,wrist_2_joint_effort,wrist_3_joint_position,wrist_3_joint_velocity,wrist_3_joint_effort,shoulder_pan_joint_position,shoulder_pan_joint_velocity,shoulder_pan_joint_effort
440.0,397.0,1.9842,0.0945,9.4116,-0.042,0.0182,-0.1133,-1.3001716297915955,0.0,1.0210472345352173,-1.9222694635391235,-0.0,2.2297301292419434,4.4623023706623535,-0.0,0.2816240191459656,-1.5966938177691858,-0.0,-0.005930944811552763,0.7979686260223389,-0.0,-0.01450373139232397,0.8103752732276917,0.0,-0.00310971075668931
440.0,397.0,1.9842,0.0945,9.4116,-0.042,0.0182,-0.1133,-1.3001555067351838,0.0,1.049308180809021,-1.922236442565918,-0.0,2.173372268676758,4.462338610286377,-0.0,0.29372885823249817,-1.5967615286456507,-0.0,-0.005281064193695784,0.7979726791381836,-0.0,-0.01022427435964346,0.8104561567306519,0.0,0.029645521193742752
440.0,397.0,1.9842,0.0945,9.4116,-0.042,0.0182,-0.1133,-1.3001595598510285,0.0,1.0311086177825928,-1.9223252534866333,-0.0,2.188910961151123,4.462338610286377,-0.0,0.29515019059181213,-1.5967376867877405,-0.0,-0.0040036942809820175,0.7979767322540283,-0.0,-0.0034739424008876085,0.8104116916656494,0.0,-0.023376449942588806
440.0,397.0,1.9842,0.0945,9.4116,-0.042,0.0182,-0.1133,-1.300167517071106,0.0,1.0361018180847168,-1.9222322702407837,-0.0,2.219991683959961,4.462338610286377,-0.0,0.2938171327114105,-1.596733872090475,-0.0,-0.004918017890304327,0.7979567050933838,-0.0,-0.012167859822511673,0.8103470802307129,0.0,0.0117703378200531
440.0,397.0,1.9842,0.0945,9.4116,-0.042,0.0182,-0.1133,-1.3001312476447602,0.0,1.0240992307662964,-1.9222404956817627,-0.0,2.183684825897217,4.462346716518066,-0.0,0.2851253151893616,-1.5967100302325647,-0.0,0.004813108593225479,0.7979447841644287,-0.0,-0.013001511804759502,0.8103955388069153,0.0,-0.009022392332553864
440.0,397.0,1.9842,0.0945,9.4116,-0.042,0.0182,-0.1133,-1.300224022274353,0.0,0.9988981485366821,-1.9223170280456543,-0.0,2.159423351287842,4.4623705583759765,-0.0,0.29694831371307373,-1.5967658201800745,-0.0,-0.0046629938296973705,0.7979763746261597,-0.0,-0.0014146164758130908,0.8103873133659363,0.0,0.0593704991042614
440.0,397.0,1.9842,0.0945,9.4116,-0.042,0.0182,-0.1133,-1.300171659593918,0.0,1.036948323249817,-1.9222126007080078,-0.0,2.182382106781006,4.4623023706623535,-0.0,0.30100375413894653,-1.5967219511615198,-0.0,-0.004890328273177147,0.7979567050933838,-0.0,-0.00608536321669817,0.8104235529899597,0.0,0.04677622392773628
416.0,385.0,2.2367,0.2058,8.9886,-0.0425,0.0211,-0.1231,-1.30011139929805,0.0,1.0547549724578857,-1.922269344329834,-0.0,2.2228877544403076,4.462338610286377,-0.0,0.3101869523525238,-1.5967534224139612,-0.0,-0.011916536837816238,0.7980005741119385,-0.0,0.003757493570446968,0.8103511929512024,0.0,-7.165130227804184e-05
416.0,385.0,2.2367,0.2058,8.9886,-0.0425,0.0211,-0.1231,-1.300159530048706,0.0,1.0303363800048828,-1.9223086833953857,-0.0,2.2016713619232178,4.46232192098584,-0.0,0.2893291711807251,-1.5967019240008753,-0.0,0.001221274957060814,0.7980128526687622,-0.0,-0.008492051623761654,0.810371458530426,0.0,-0.0011364524252712727
416.0,385.0,2.2367,0.2058,8.9886,-0.0425,0.0211,-0.1231,-1.300167517071106,0.0,1.0620739459991455,-1.9222694635391235,-0.0,2.206777334213257,4.462350054378174,-0.0,0.29930514097213745,-1.5967415014850062,-0.0,3.612219006754458e-05,0.7979525923728943,-0.0,0.0036959066055715084,0.810371458530426,0.0,-0.01745673082768917
416.0,385.0,2.2367,0.2058,8.9886,-0.0425,0.0211,-0.1231,-1.3001918655684968,0.0,1.0558960437774658,-1.9222569465637207,-0.0,2.1794450283050537,4.462394877071045,-0.0,0.29128342866897583,-1.5967257658587855,-0.0,-0.009068330749869347,0.7980009317398071,-0.0,-0.002760243136435747,0.8103917241096497,0.0,-0.018320821225643158
416.0,385.0,2.2367,0.2058,8.9886,-0.0425,0.0211,-0.1231,-1.3001476687243958,0.0,1.0258554220199585,-1.922269344329834,-0.0,2.243079662322998,4.462326212520264,-0.0,0.30016589164733887,-1.596705738698141,-0.0,-0.02780749276280403,0.7980128526687622,-0.0,0.005835400894284248,0.8103917241096497,0.0,-0.003771920222789049
416.0,385.0,2.2367,0.2058,8.9886,-0.0425,0.0211,-0.1231,-1.300151751642563,0.0,0.9858473539352417,-1.9222776889801025,-0.0,2.221034049987793,4.462326212520264,-0.0,0.2964184880256653,-1.5966938177691858,-0.0,-0.006094732321798801,0.7980090379714966,-0.0,0.01263954397290945,0.8103711605072021,0.0,-0.020736265927553177
416.0,385.0,2.2367,0.2058,8.9886,-0.0425,0.0211,-0.1231,-1.3001795572093506,0.0,1.0866312980651855,-1.9222972393035889,-0.0,2.2281904220581055,4.4623095232197265,-0.0,0.29156553745269775,-1.596705738698141,-0.0,-0.003352704457938671,0.7980049848556519,-0.0,-0.008543397299945354,0.8103834986686707,0.0,0.02161433733999729
416.0,385.0,2.2367,0.2058,8.9886,-0.0425,0.0211,-0.1231,-1.3001273733428498,0.0,1.0290179252624512,-1.9222891330718994,-0.0,2.198559284210205,4.462317629451416,-0.0,0.28694579005241394,-1.596729580556051,-0.0,-0.008346344344317913,0.7979767322540283,-0.0,0.002385670319199562,0.8103711605072021,0.0,0.04159613698720932
416.0,385.0,2.2367,0.2058,8.9886,-0.0425,0.0211,-0.1231,-1.3001435560039063,0.0,1.053619384765625,-1.922244668006897,-0.0,2.1507437229156494,4.462317629451416,-0.0,0.29606232047080994,-1.5966861883746546,-0.0,-0.011733945459127426,0.7980892658233643,-0.0,-0.004169667139649391,0.8103793859481812,0.0,-0.0149581553414464
416.0,385.0,2.2367,0.2058,8.9886,-0.0425,0.0211,-0.1231,-1.3001476687243958,0.0,1.0698046684265137,-1.9223095178604126,-0.0,2.2003157138824463,4.462317629451416,-0.0,0.301469087600708,-1.596733872090475,-0.0,-0.022184133529663086,0.7979967594146729,-0.0,0.005595381837338209,0.8103470802307129,0.0,0.00878679845482111
416.0,385.0,2.2367,0.2058,8.9886,-0.0425,0.0211,-0.1231,-1.3001957398704072,0.0,1.040127158164978,-1.9222899675369263,-0.0,2.2160274982452393,4.4623424249836425,-0.0,0.28560328483581543,-1.596717659627096,-0.0,-0.013879451900720596,0.7979562282562256,-0.0,-0.00044147809967398643,0.810371458530426,0.0,0.04600611701607704
416.0,385.0,2.2367,0.2058,8.9886,-0.0425,0.0211,-0.1231,-1.3001595598510285,0.0,1.0309420824050903,-1.922224998474121,-0.0,2.221048593521118,4.4623023706623535,-0.0,0.2990460991859436,-1.5967138449298304,-0.0,-0.011720816604793072,0.7980047464370728,-0.0,-0.0003686456475406885,0.8103793859481812,0.0,0.03227907419204712
429.0,390.0,2.0686,0.1412,9.2387,-0.0389,0.0287,-0.1225,-1.3001757127097626,0.0,1.038600206375122,-1.922236442565918,-0.0,2.1952738761901855,4.462305708522461,-0.0,0.2914285957813263,-1.5967219511615198,-0.0,-0.00925244390964508,0.7979726791381836,-0.0,0.0002653422998264432,0.8103591203689575,0.0,-0.029341045767068863
429.0,390.0,2.0686,0.1412,9.2387,-0.0389,0.0287,-0.1225,-1.3001435560039063,0.0,1.0042496919631958,-1.9222931861877441,-0.0,2.216309070587158,4.462353869075439,-0.0,0.29215413331985474,-1.5967138449298304,-0.0,-0.01922611892223358,0.7979923486709595,-0.0,0.00017610122449696064,0.8103955388069153,0.0,0.0316997691988945
429.0,390.0,2.0686,0.1412,9.2387,-0.0389,0.0287,-0.1225,-1.3001796168139954,0.0,1.0490573644638062,-1.9222899675369263,-0.0,2.211777687072754,4.462334318751953,-0.0,0.2996503710746765,-1.5967415014850062,-0.0,-0.005608772858977318,0.797989010810852,-0.0,0.00743132084608078,0.8103470802307129,0.0,0.015576186589896679
429.0,390.0,2.0686,0.1412,9.2387,-0.0389,0.0287,-0.1225,-1.3001435560039063,0.0,1.0271053314208984,-1.9222931861877441,-0.0,2.1713063716888428,4.462346716518066,-0.0,0.29626694321632385,-1.5967701117144983,-0.0,-0.009275469928979874,0.7980128526687622,-0.0,0.008755297400057316,0.8103955388069153,0.0,-0.016040433198213577
429.0,390.0,2.0686,0.1412,9.2387,-0.0389,0.0287,-0.1225,-1.3001513642123719,0.0,1.0790547132492065,-1.922224998474121,-0.0,2.2087953090667725,4.46232192098584,-0.0,0.30056115984916687,-1.596729580556051,-0.0,-0.006612501572817564,0.7979403138160706,-0.0,0.0030832632910460234,0.810387372970581,0.0,-0.0389484241604805
429.0,390.0,2.0686,0.1412,9.2387,-0.0389,0.0287,-0.1225,-1.300131158237793,0.0,1.026579737663269,-1.9222972393035889,-0.0,2.1465094089508057,4.462306185359619,-0.0,0.2829047739505768,-1.5967138449298304,-0.0,0.0001400088658556342,0.7979406714439392,-0.0,0.004037925042212009,0.8103755116462708,0.0,0.01045314408838749
429.0,390.0,2.0686,0.1412,9.2387,-0.0389,0.0287,-0.1225,-1.3001554769328614,0.0,1.0580742359161377,-1.9222931861877441,-0.0,2.2062292098999023,4.462350054378174,-0.0,0.2944355607032776,-1.596733872090475,-0.0,0.006412738934159279,0.7979968190193176,-0.0,-0.01493560429662466,0.8103955388069153,0.0,-0.04785923287272453
429.0,390.0,2.0686,0.1412,9.2387,-0.0389,0.0287,-0.1225,-1.3001353305629273,0.0,1.0618773698806763,-1.9223127365112305,-0.0,2.2038049697875977,4.46229807912793,-0.0,0.2936115860939026,-1.596705738698141,-0.0,0.0006934092380106449,0.7979567050933838,-0.0,-0.0046960292384028435,0.8103876113891602,0.0,0.014203791506588459
429.0,390.0,2.0686,0.1412,9.2387,-0.0389,0.0287,-0.1225,-1.3001476687243958,0.0,1.0677950382232666,-1.9222570657730103,-0.0,2.1897215843200684,4.462326212520264,-0.0,0.290052205324173,-1.5967219511615198,-0.0,-0.01320878230035305,0.7980005741119385,-0.0,-0.01549900509417057,0.810363233089447,0.0,-0.03420685604214668
429.0,390.0,2.0686,0.1412,9.2387,-0.0389,0.0287,-0.1225,-1.300155447130539,0.0,1.0641467571258545,-1.922244668006897,-0.0,2.204299211502075,4.462366266841553,-0.0,0.30096346139907837,-1.5966938177691858,-0.0,-0.009945124387741089,0.7979603409767151,-0.0,-0.0028280208352953196,0.8103834986686707,0.0,0.03683055564761162
429.0,390.0,2.0686,0.1412,9.2387,-0.0389,0.0287,-0.1225,-1.3001513940146943,0.0,1.0356922149658203,-1.922252893447876,-0.0,2.1823806762695312,4.462294264430664,-0.0,0.2967669665813446,-1.5967257658587855,-0.0,-0.016799602657556534,0.7979283928871155,-0.0,-0.007656632922589779,0.8103955388069153,0.0,-0.03843393921852112
429.0,390.0,2.0686,0.1412,9.2387,-0.0389,0.0287,-0.1225,-1.3001353305629273,0.0,0.9924638867378235,-1.9223014116287231,-0.0,2.2174556255340576,4.462330027217529,-0.0,0.28768253326416016,-1.5967534224139612,-0.0,-0.0154354777187109,0.7979526519775391,-0.0,-0.006841544061899185,0.810363233089447,0.0,0.046121932566165924
429.0,390.0,2.0686,0.1412,9.2387,-0.0389,0.0287,-0.1225,-1.3001757127097626,0.0,1.0267670154571533,-1.9223169088363647,-0.0,2.211853265762329,4.46232192098584,-0.0,0.28522536158561707,-1.5967257658587855,-0.0,-0.006313434336334467,0.7980210185050964,-0.0,-0.004374256357550621,0.8104034662246704,0.0,-0.04580376297235489
399.0,391.0,2.1015,0.1178,9.1627,-0.0394,0.0296,-0.1122,-1.3001394730857392,0.0,1.0216697454452515,-1.9223054647445679,-0.0,2.167511463165283,4.462330027217529,-0.0,0.290706992149353,-1.59674579301943,-0.0,-0.005511443130671978,0.7979006171226501,-0.0,0.00615033321082592,0.8104315400123596,0.0,0.028327973559498787
399.0,391.0,2.1015,0.1178,9.1627,-0.0394,0.0296,-0.1122,-1.3001435560039063,0.0,1.0621405839920044,-1.9222569465637207,-0.0,2.214444637298584,4.46229807912793,-0.0,0.2949322462081909,-1.5967257658587855,-0.0,-0.003482166212052107,0.7980087399482727,-0.0,-0.002057274803519249,0.8104034662246704,0.0,-0.020578917115926743
399.0,391.0,2.1015,0.1178,9.1627,-0.0394,0.0296,-0.1122,-1.3001713913730164,0.0,1.0389312505722046,-1.9222817420959473,-0.0,2.153578042984009,4.462366266841553,-0.0,0.2950754165649414,-1.5967939535724085,-0.0,-0.0009214057354256511,0.7979723215103149,-0.0,-0.015782784670591354,0.8103793859481812,0.0,0.012543962337076664
399.0,391.0,2.1015,0.1178,9.1627,-0.0394,0.0296,-0.1122,-1.300171659593918,0.0,1.0619511604309082,-1.9223055839538574,-0.0,2.2094788551330566,4.462350054378174,-0.0,0.29964637756347656,-1.5967257658587855,-0.0,-0.009409621357917786,0.7979923486709595,-0.0,-0.019944699481129646,0.8103876113891602,0.0,-0.03970194235444069
399.0,391.0,2.1015,0.1178,9.1627,-0.0394,0.0296,-0.1122,-1.300183967953064,0.0,1.0365108251571655,-1.922252893447876,-0.0,2.1995997428894043,4.462350054378174,-0.0,0.2883608341217041,-1.596733872090475,-0.0,-0.009634114801883698,0.7980008721351624,-0.0,-0.005399657413363457,0.8104116916656494,0.0,0.01963197998702526
399.0,391.0,2.1015,0.1178,9.1627,-0.0394,0.0296,-0.1122,-1.300159291630127,0.0,1.0163037776947021,-1.922321081161499,-0.0,2.156125068664551,4.462285681361816,-0.0,0.2922964096069336,-1.5967019240008753,-0.0,-0.007396358996629715,0.7979366183280945,-0.0,-0.0053862882778048515,0.8104075789451599,0.0,0.012279532849788666
399.0,391.0,2.1015,0.1178,9.1627,-0.0394,0.0296,-0.1122,-1.3001513344100495,0.0,1.0627530813217163,-1.9222817420959473,-0.0,2.1662867069244385,4.462366266841553,-0.0,0.28838464617729187,-1.596705738698141,-0.0,-0.007376864552497864,0.7979886531829834,-0.0,-0.012350248172879219,0.810355007648468,0.0,-0.002705276943743229
399.0,391.0,2.1015,0.1178,9.1627,-0.0394,0.0296,-0.1122,-1.3001472514918824,0.0,1.0923426151275635,-1.9222817420959473,-0.0,2.2277722358703613,4.4623424249836425,-0.0,0.2898413836956024,-1.59674579301943,-0.0,-0.001615837449207902,0.7979726791381836,-0.0,-0.014952150173485279,0.8103955388069153,0.0,0.015366516076028347
399.0,391.0,2.1015,0.1178,9.1627,-0.0394,0.0296,-0.1122,-1.3001513642123719,0.0,1.0757874250411987,-1.9223055839538574,-0.0,2.141024589538574,4.462286158198975,-0.0,0.2945556938648224,-1.5966981093036097,-0.0,0.0016423542983829975,0.7979726791381836,-0.0,-0.006548713427037001,0.8103352189064026,0.0,0.01499579194933176
399.0,391.0,2.1015,0.1178,9.1627,-0.0394,0.0296,-0.1122,-1.3001353603652497,0.0,1.0373624563217163,-1.9222733974456787,-0.0,2.1853060722351074,4.462334318751953,-0.0,0.2989431619644165,-1.5967257658587855,-0.0,-0.019837651401758194,0.7980009317398071,-0.0,-0.0013612192124128342,0.8103269338607788,0.0,-0.010596171021461487
399.0,391.0,2.1015,0.1178,9.1627,-0.0394,0.0296,-0.1122,-1.3001595896533509,0.0,1.0575612783432007,-1.9222859144210815,-0.0,2.1630358695983887,4.462301416988037,-0.0,0.2953193485736847,-1.5966900030719202,-0.0,-0.018357006832957268,0.798004686832428,-0.0,0.0026076952926814556,0.8103673458099365,0.0,-0.013743024319410324
399.0,391.0,2.1015,0.1178,9.1627,-0.0394,0.0296,-0.1122,-1.3001192075065156,0.0,1.016861915588379,-1.9222931861877441,-0.0,2.1673576831817627,4.462310476894043,-0.0,0.2866668701171875,-1.5966900030719202,-0.0,-0.015465211123228073,0.7979607582092285,-0.0,-0.002282525412738323,0.8104240894317627,0.0,-0.03095884434878826
399.0,391.0,2.1015,0.1178,9.1627,-0.0394,0.0296,-0.1122,-1.300143526201584,0.0,1.0377823114395142,-1.9222776889801025,-0.0,2.2394790649414062,4.4623705583759765,-0.0,0.2890099287033081,-1.5966900030719202,-0.0,-0.012481977231800556,0.798041045665741,-0.0,0.0020287134684622288,0.8103511929512024,0.0,0.05899438261985779
444.0,406.0,2.2152,0.1878,9.1573,-0.0388,0.0151,-0.1193,-1.3001394730857392,0.0,1.085915446281433,-1.9222735166549683,-0.0,2.2312979698181152,4.462265654201172,-0.0,0.29427897930145264,-1.5966780821429651,-0.0,-0.003177105914801359,0.7979886531829834,-0.0,-0.011754056438803673,0.8104075789451599,0.0,0.013326829299330711
444.0,406.0,2.2152,0.1878,9.1573,-0.0388,0.0151,-0.1193,-1.3001431685737153,0.0,1.0527290105819702,-1.9222404956817627,-0.0,2.216017246246338,4.46229807912793,-0.0,0.2960139811038971,-1.5966938177691858,-0.0,-0.01353083923459053,0.7979287505149841,-0.0,0.0006598196923732758,0.810371458530426,0.0,0.0047707147896289825
444.0,406.0,2.2152,0.1878,9.1573,-0.0388,0.0151,-0.1193,-1.3001798254302521,0.0,1.0827288627624512,-1.9223055839538574,-0.0,2.1392064094543457,4.462326212520264,-0.0,0.27716875076293945,-1.5967534224139612,-0.0,-0.010321578942239285,0.7979607582092285,-0.0,0.0001522070961073041,0.8103832602500916,0.0,-0.031519465148448944
444.0,406.0,2.2152,0.1878,9.1573,-0.0388,0.0151,-0.1193,-1.3001394432834168,0.0,1.0554742813110352,-1.9222972393035889,-0.0,2.159046173095703,4.46231381475415,-0.0,0.29882341623306274,-1.5967100302325647,-0.0,0.004969600588083267,0.7979686260223389,-0.0,-0.002931443741545081,0.8103553056716919,0.0,0.015498609282076359
444.0,406.0,2.2152,0.1878,9.1573,-0.0388,0.0151,-0.1193,-1.3001678150943299,0.0,1.0905861854553223,-1.922329306602478,-0.0,2.233459234237671,4.4623424249836425,-0.0,0.3027104139328003,-1.5967100302325647,-0.0,-0.013613544404506683,0.7980005741119385,-0.0,0.005446382332593203,0.8104116916656494,0.0,-0.06212293729186058
444.0,406.0,2.2152,0.1878,9.1573,-0.0388,0.0151,-0.1193,-1.300187812452652,0.0,1.0509616136550903,-1.9222735166549683,-0.0,2.191829204559326,4.462317629451416,-0.0,0.29280951619148254,-1.596705738698141,-0.0,-0.014556996524333954,0.7979366183280945,-0.0,-0.007421664893627167,0.8103996515274048,0.0,-0.021259553730487823
444.0,406.0,2.2152,0.1878,9.1573,-0.0388,0.0151,-0.1193,-1.300167517071106,0.0,1.0732043981552124,-1.9222972393035889,-0.0,2.171968936920166,4.462317629451416,-0.0,0.2943289279937744,-1.5967376867877405,-0.0,0.0011426117271184921,0.7979722619056702,-0.0,0.001545181032270193,0.810363233089447,0.0,0.05327390134334564
444.0,406.0,2.2152,0.1878,9.1573,-0.0388,0.0151,-0.1193,-1.3001109820655365,0.0,1.0440022945404053,-1.9222972393035889,-0.0,2.1783065795898438,4.462294264430664,-0.0,0.29986661672592163,-1.596729580556051,-0.0,-0.001604005927219987,0.7979967594146729,-0.0,0.010369552299380302,0.8103916645050049,0.0,0.003982557449489832
444.0,406.0,2.2152,0.1878,9.1573,-0.0388,0.0151,-0.1193,-1.3001716297915955,0.0,1.0261452198028564,-1.9222931861877441,-0.0,2.18285870552063,4.462306185359619,-0.0,0.290805459022522,-1.5967415014850062,-0.0,-0.009854182600975037,0.7980005741119385,-0.0,-0.01677989773452282,0.8103387951850891,0.0,0.024520691484212875
444.0,406.0,2.2152,0.1878,9.1573,-0.0388,0.0151,-0.1193,-1.3001435560039063,0.0,1.0280492305755615,-1.9222733974456787,-0.0,2.2260851860046387,4.462330027217529,-0.0,0.2950080633163452,-1.5967257658587855,-0.0,0.0008215790148824453,0.7980329394340515,-0.0,0.00409335270524025,0.8103752732276917,0.0,-0.015386981889605522
444.0,406.0,2.2152,0.1878,9.1573,-0.0388,0.0151,-0.1193,-1.3001836103251954,0.0,1.0327156782150269,-1.9222776889801025,-0.0,2.246122360229492,4.462358160609863,-0.0,0.2917586863040924,-1.5967496077166956,-0.0,-0.002189564984291792,0.7979886531829834,-0.0,-0.0021682705264538527,0.8104075789451599,0.0,-0.005268308334052563
444.0,406.0,2.2152,0.1878,9.1573,-0.0388,0.0151,-0.1193,-1.3001355987838288,0.0,1.0485575199127197,-1.9223055839538574,-0.0,2.2169244289398193,4.462366266841553,-0.0,0.2943989634513855,-1.5967257658587855,-0.0,-0.015489686280488968,0.7979886531829834,-0.0,0.0005250111571513116,0.8103549480438232,0.0,-0.06472734361886978
413.0,397.0,2.0351,0.1322,9.3655,-0.0289,0.0221,-0.1084,-1.3001394730857392,0.0,1.0527148246765137,-1.9222776889801025,-0.0,2.1905698776245117,4.462326212520264,-0.0,0.3003450632095337,-1.5967100302325647,-0.0,-0.026394162327051163,0.7979127764701843,-0.0,-0.007357403170317411,0.8103955388069153,0.0,-0.02670597843825817
413.0,397.0,2.0351,0.1322,9.3655,-0.0289,0.0221,-0.1084,-1.3001270455173035,0.0,1.0553408861160278,-1.9222651720046997,-0.0,2.179694414138794,4.462353869075439,-0.0,0.2907600998878479,-1.5967376867877405,-0.0,-0.008059103041887283,0.7979648113250732,-0.0,-0.00949149951338768,0.810363233089447,0.0,0.0390123650431633
413.0,397.0,2.0351,0.1322,9.3655,-0.0289,0.0221,-0.1084,-1.3001072865775605,0.0,1.0435881614685059,-1.9223055839538574,-0.0,2.2256431579589844,4.46232192098584,-0.0,0.29710641503334045,-1.596717659627096,-0.0,0.0004744250327348709,0.7980168461799622,-0.0,-0.011799341067671776,0.8104075789451599,0.0,0.004773191176354885
413.0,397.0,2.0351,0.1322,9.3655,-0.0289,0.0221,-0.1084,-1.3001757127097626,0.0,1.084148645401001,-1.922252893447876,-0.0,2.1757612228393555,4.462306185359619,-0.0,0.2957960069179535,-1.596717659627096,-0.0,-0.014749813824892044,0.7980291247367859,-0.0,-0.019608313217759132,0.8104116916656494,0.0,0.020120877772569656
413.0,397.0,2.0351,0.1322,9.3655,-0.0289,0.0221,-0.1084,-1.3001633745482941,0.0,1.0515961647033691,-1.9222931861877441,-0.0,2.2020585536956787,4.462382479304932,-0.0,0.2839404046535492,-1.5967615286456507,-0.0,-0.0023754059802740812,0.7979846000671387,-0.0,0.011374028399586678,0.8103834986686707,0.0,-0.006591576151549816
413.0,397.0,2.0351,0.1322,9.3655,-0.0289,0.0221,-0.1084,-1.3001757127097626,0.0,1.0395320653915405,-1.9222817420959473,-0.0,2.149167537689209,4.462338610286377,-0.0,0.29300621151924133,-1.596733872090475,-0.0,-0.01018756628036499,0.7979525923728943,-0.0,-0.0057441601529717445,0.8104075789451599,0.0,0.007975798100233078
413.0,397.0,2.0351,0.1322,9.3655,-0.0289,0.0221,-0.1084,-1.3001634043506165,0.0,1.06919527053833,-1.922269344329834,-0.0,2.217538356781006,4.462334318751953,-0.0,0.29502394795417786,-1.5967138449298304,-0.0,-0.003264604602009058,0.7979485392570496,-0.0,0.003098185872659087,0.8104158043861389,0.0,0.0055854651145637035
413.0,397.0,2.0351,0.1322,9.3655,-0.0289,0.0221,-0.1084,-1.3001476985267182,0.0,1.0536010265350342,-1.9222972393035889,-0.0,2.2080607414245605,4.462338610286377,-0.0,0.2916657328605652,-1.596729580556051,-0.0,-0.013494111597537994,0.7979722619056702,-0.0,-0.010948306880891323,0.8104276657104492,0.0,-0.004573678597807884
413.0,397.0,2.0351,0.1322,9.3655,-0.0289,0.0221,-0.1084,-1.3001150351813813,0.0,1.0822081565856934,-1.9222891330718994,-0.0,2.238185405731201,4.462330027217529,-0.0,0.2945149838924408,-1.596729580556051,-0.0,-0.005009014159440994,0.7980250716209412,-0.0,-0.003490450792014599,0.8103997111320496,0.0,-0.028419729322195053
413.0,397.0,2.0351,0.1322,9.3655,-0.0289,0.0221,-0.1084,-1.3001513344100495,0.0,1.054880976676941,-1.9223086833953857,-0.0,2.1897246837615967,4.462358160609863,-0.0,0.3050273358821869,-1.596733872090475,-0.0,0.004273119382560253,0.7979485392570496,-0.0,-0.005272930487990379,0.8103591203689575,0.0,-0.0009433887898921967
413.0,397.0,2.0351,0.1322,9.3655,-0.0289,0.0221,-0.1084,-1.3001073461822052,0.0,1.064586877822876,-1.9222899675369263,-0.0,2.1862127780914307,4.462334318751953,-0.0,0.2976542115211487,-1.596717659627096,-0.0,-0.0023513133637607098,0.7980128526687622,-0.0,-0.008164852857589722,0.810391366481781,0.0,-0.04034994915127754
413.0,397.0,2.0351,0.1322,9.3655,-0.0289,0.0221,-0.1084,-1.3001513344100495,0.0,1.039963722229004,-1.922261118888855,-0.0,2.168745994567871,4.4623424249836425,-0.0,0.2843359112739563,-1.5967019240008753,-0.0,-0.011630263179540634,0.7979525923728943,-0.0,-0.005904735065996647,0.8103872537612915,0.0,-0.02965647354722023
413.0,397.0,2.0351,0.1322,9.3655,-0.0289,0.0221,-0.1084,-1.300163672571518,0.0,1.0679712295532227,-1.9222859144210815,-0.0,2.1966872215270996,4.462350054378174,-0.0,0.30244413018226624,-1.5967534224139612,-0.0,-0.0013317642733454704,0.7979846000671387,-0.0,-0.005490962881594896,0.8103752732276917,0.0,0.03620496392250061
420.0,423.0,2.0728,0.1406,9.2734,-0.0272,0.0203,-0.0997,-1.3001394730857392,0.0,1.0209966897964478,-1.9222733974456787,-0.0,2.16042423248291,4.462350054378174,-0.0,0.2913614511489868,-1.596733872090475,-0.0,-0.007572681177407503,0.7979763746261597,-0.0,0.0038886042311787605,0.8103711605072021,0.0,-0.00743475928902626
420.0,423.0,2.0728,0.1406,9.2734,-0.0272,0.0203,-0.0997,-1.300163672571518,0.0,1.0241162776947021,-1.9222931861877441,-0.0,2.211469888687134,4.462317629451416,-0.0,0.2972598969936371,-1.5967219511615198,-0.0,-0.012529527768492699,0.7979968190193176,-0.0,-0.00822322629392147,0.8104116916656494,0.0,-0.0042924159206449986
420.0,423.0,2.0728,0.1406,9.2734,-0.0272,0.0203,-0.0997,-1.3001918357661744,0.0,1.0667937994003296,-1.9222807884216309,-0.0,2.212273120880127,4.4623023706623535,-0.0,0.2944168448448181,-1.596729580556051,-0.0,-0.009863810613751411,0.7980169057846069,-0.0,-0.009802110493183136,0.8103591203689575,0.0,-0.030495742335915565
420.0,423.0,2.0728,0.1406,9.2734,-0.0272,0.0203,-0.0997,-1.3001113694957276,0.0,0.9860222339630127,-1.9222776889801025,-0.0,2.1793365478515625,4.462366266841553,-0.0,0.28446951508522034,-1.5967257658587855,-0.0,-0.004007832147181034,0.7979726791381836,-0.0,-0.002721537137404084,0.8104075789451599,0.0,-0.020271483808755875
420.0,423.0,2.0728,0.1406,9.2734,-0.0272,0.0203,-0.0997,-1.3001476985267182,0.0,1.0378923416137695,-1.9222124814987183,-0.0,2.1692054271698,4.462338610286377,-0.0,0.29525497555732727,-1.5967496077166956,-0.0,-0.008241182193160057,0.7979886531829834,-0.0,0.003421315224841237,0.8103711009025574,0.0,0.0496535450220108
420.0,423.0,2.0728,0.1406,9.2734,-0.0272,0.0203,-0.0997,-1.3001394730857392,0.0,1.0357533693313599,-1.9222899675369263,-0.0,2.221346139907837,4.46234576284375,-0.0,0.29061102867126465,-1.5967658201800745,-0.0,-0.018738582730293274,0.7980127930641174,-0.0,-0.014969938434660435,0.8103914260864258,0.0,0.033227160573005676
420.0,423.0,2.0728,0.1406,9.2734,-0.0272,0.0203,-0.0997,-1.3001435560039063,0.0,1.0280338525772095,-1.92231285572052,-0.0,2.2118725776672363,4.46234576284375,-0.0,0.2938976287841797,-1.5966900030719202,-0.0,-0.009642357006669044,0.7978846430778503,-0.0,-0.0034704876597970724,0.8103996515274048,0.0,-0.015244417823851109
420.0,423.0,2.0728,0.1406,9.2734,-0.0272,0.0203,-0.0997,-1.3001435560039063,0.0,1.0154722929000854,-1.922321081161499,-0.0,2.187162160873413,4.462346716518066,-0.0,0.30175837874412537,-1.5967019240008753,-0.0,-0.017630957067012787,0.7979325652122498,-0.0,0.0018414407968521118,0.8103793859481812,0.0,0.00012293457984924316
420.0,423.0,2.0728,0.1406,9.2734,-0.0272,0.0203,-0.0997,-1.3001191777041932,0.0,1.0732488632202148,-1.9222931861877441,-0.0,2.2081105709075928,4.462306185359619,-0.0,0.29455825686454773,-1.5967219511615198,-0.0,0.0018475791439414024,0.797980546951294,-0.0,-0.008352896198630333,0.810363233089447,0.0,-0.04750426858663559
420.0,423.0,2.0728,0.1406,9.2734,-0.0272,0.0203,-0.0997,-1.300167517071106,0.0,1.0901455879211426,-1.9222972393035889,-0.0,2.2318692207336426,4.462338610286377,-0.0,0.29702070355415344,-1.5967496077166956,-0.0,-0.005474423058331013,0.7979763746261597,-0.0,1.4174729585647583e-06,0.8103673458099365,0.0,-0.028282735496759415
420.0,423.0,2.0728,0.1406,9.2734,-0.0272,0.0203,-0.0997,-1.3001435560039063,0.0,1.0625007152557373,-1.9222859144210815,-0.0,2.198882579803467,4.462330027217529,-0.0,0.30551785230636597,-1.5966938177691858,-0.0,-0.008855634368956089,0.7979366183280945,-0.0,-0.011869310401380062,0.810355007648468,0.0,-0.039616990834474564
420.0,423.0,2.0728,0.1406,9.2734,-0.0272,0.0203,-0.0997,-1.3001435858062287,0.0,1.0677626132965088,-1.9222651720046997,-0.0,2.1847567558288574,4.462378664607666,-0.0,0.2847859561443329,-1.5967257658587855,-0.0,-0.001503434032201767,0.7979686260223389,-0.0,-0.013430755585432053,0.8103955388069153,0.0,0.01941145397722721
420.0,423.0,2.0728,0.1406,9.2734,-0.0272,0.0203,-0.0997,-1.3001959782889863,0.0,1.0158642530441284,-1.922261118888855,-0.0,2.2173759937286377,4.4623023706623535,-0.0,0.301577091217041,-1.5967620054828089,-0.0,-0.014851121231913567,0.7979645133018494,-0.0,-0.004935987293720245,0.8103711605072021,0.0,-0.02492794208228588
408.0,395.0,2.275,0.2518,8.9629,-0.0409,0.0221,-0.11,-1.3001595598510285,0.0,1.0392787456512451,-1.9222899675369263,-0.0,2.1969451904296875,4.462346716518066,-0.0,0.2951611578464508,-1.596773926411764,-0.0,-0.004284531809389591,0.7979604005813599,-0.0,0.003268464235588908,0.8103832602500916,0.0,0.011030200868844986
408.0,395.0,2.275,0.2518,8.9629,-0.0409,0.0221,-0.11,-1.3001595598510285,0.0,1.0753103494644165,-1.9222972393035889,-0.0,2.201420307159424,4.462317629451416,-0.0,0.3127971291542053,-1.5966938177691858,-0.0,-0.011790340766310692,0.7979485392570496,-0.0,0.00739553477615118,0.8103914856910706,0.0,0.00019769853679463267
408.0,395.0,2.275,0.2518,8.9629,-0.0409,0.0221,-0.11,-1.3001592618278046,0.0,0.9977667331695557,-1.9222899675369263,-0.0,2.1773221492767334,4.462273760432861,-0.0,0.2990877330303192,-1.596717659627096,-0.0,-0.004643421620130539,0.7980291247367859,-0.0,0.0018148852977901697,0.810355007648468,0.0,-0.004377604462206364
408.0,395.0,2.275,0.2518,8.9629,-0.0409,0.0221,-0.11,-1.3001795274070282,0.0,1.0783612728118896,-1.9222859144210815,-0.0,2.2032792568206787,4.462358160609863,-0.0,0.29409924149513245,-1.5967257658587855,-0.0,-0.006352678872644901,0.7980250716209412,-0.0,-0.007553469389677048,0.8103347420692444,0.0,-0.005596306640654802
408.0,395.0,2.275,0.2518,8.9629,-0.0409,0.0221,-0.11,-1.300167517071106,0.0,1.0690913200378418,-1.9223023653030396,-0.0,2.196118116378784,4.462330027217529,-0.0,0.2927628457546234,-1.5967138449298304,-0.0,-0.009730706922709942,0.7979846000671387,-0.0,-0.0031212661415338516,0.8104078769683838,0.0,-0.028395460918545723
408.0,395.0,2.275,0.2518,8.9629,-0.0409,0.0221,-0.11,-1.3001113694957276,0.0,1.0552247762680054,-1.9222445487976074,-0.0,2.2278692722320557,4.462334318751953,-0.0,0.30138540267944336,-1.5967376867877405,-0.0,-0.007627743296325207,0.7979604601860046,-0.0,0.0033430883195251226,0.810355007648468,0.0,-0.013212152756750584
408.0,395.0,2.275,0.2518,8.9629,-0.0409,0.0221,-0.11,-1.3001595598510285,0.0,1.0496025085449219,-1.9222736358642578,-0.0,2.1903393268585205,4.462326212520264,-0.0,0.30653077363967896,-1.5967219511615198,-0.0,0.0026580907870084047,0.7979846000671387,-0.0,0.007167534902691841,0.8103711605072021,0.0,0.008699211291968822
408.0,395.0,2.275,0.2518,8.9629,-0.0409,0.0221,-0.11,-1.3001435560039063,0.0,1.034960389137268,-1.922269344329834,-0.0,2.2270092964172363,4.462277575130127,-0.0,0.28241950273513794,-1.596729580556051,-0.0,-0.007395616266876459,0.7979927659034729,-0.0,0.00013648587628267705,0.8103673458099365,0.0,-0.0031307353638112545
408.0,395.0,2.275,0.2518,8.9629,-0.0409,0.0221,-0.11,-1.300187812452652,0.0,1.0764411687850952,-1.9222776889801025,-0.0,2.191857099533081,4.462338610286377,-0.0,0.288815975189209,-1.596733872090475,-0.0,-0.0270269513130188,0.7979965209960938,-0.0,-0.0019203193951398134,0.8103632926940918,0.0,-0.04235384613275528
408.0,395.0,2.275,0.2518,8.9629,-0.0409,0.0221,-0.11,-1.3001517814448853,0.0,1.0133367776870728,-1.922321081161499,-0.0,2.1722493171691895,4.462317629451416,-0.0,0.2895297706127167,-1.5967376867877405,-0.0,-0.015676602721214294,0.7979767322540283,-0.0,0.00013361312448978424,0.8103793859481812,0.0,0.004975689575076103
408.0,395.0,2.275,0.2518,8.9629,-0.0409,0.0221,-0.11,-1.3001513344100495,0.0,1.029980182647705,-1.9222736358642578,-0.0,2.219846725463867,4.4623095232197265,-0.0,0.2975614070892334,-1.5967019240008753,-0.0,-0.006377612240612507,0.7979767322540283,-0.0,-0.0038363481871783733,0.810355007648468,0.0,0.00985889695584774
408.0,395.0,2.275,0.2518,8.9629,-0.0409,0.0221,-0.11,-1.300196037893631,0.0,1.0719714164733887,-1.9222776889801025,-0.0,2.1713922023773193,4.462338610286377,-0.0,0.2985421419143677,-1.5967219511615198,-0.0,-0.00390533241443336,0.7979726791381836,-0.0,-0.006429358385503292,0.8104235529899597,0.0,-0.0022221188992261887
449.0,378.0,1.9753,0.0,9.5228,-0.0392,0.0076,-0.1029,-1.300167517071106,0.0,1.0378328561782837,-1.922252893447876,-0.0,2.155658721923828,4.462346716518066,-0.0,0.295566201210022,-1.5967701117144983,-0.0,0.00010324898175895214,0.7979965209960938,-0.0,-0.007024110294878483,0.8103591203689575,0.0,0.0046708183363080025
449.0,378.0,1.9753,0.0,9.5228,-0.0392,0.0076,-0.1029,-1.3001150351813813,0.0,1.0595932006835938,-1.922236442565918,-0.0,2.1927177906036377,4.462306185359619,-0.0,0.2872312068939209,-1.5967662970172327,-0.0,-0.002386551583185792,0.7980127334594727,-0.0,-0.0006539870519191027,0.8103953003883362,0.0,0.01022412907332182
449.0,378.0,1.9753,0.0,9.5228,-0.0392,0.0076,-0.1029,-1.3001674872687836,0.0,1.0133765935897827,-1.9223127365112305,-0.0,2.2027149200439453,4.4623424249836425,-0.0,0.29868578910827637,-1.596757713948385,-0.0,-0.02360827475786209,0.7979767322540283,-0.0,-0.01063180435448885,0.8103793859481812,0.0,0.01215178333222866
449.0,378.0,1.9753,0.0,9.5228,-0.0392,0.0076,-0.1029,-1.300163672571518,0.0,1.0538209676742554,-1.9222859144210815,-0.0,2.246443033218384,4.462346716518066,-0.0,0.2899884283542633,-1.5967219511615198,-0.0,-0.008108356036245823,0.797980546951294,-0.0,-0.005247885826975107,0.8104075789451599,0.0,0.009573790244758129
449.0,378.0,1.9753,0.0,9.5228,-0.0392,0.0076,-0.1029,-1.300155447130539,0.0,1.0303956270217896,-1.9222900867462158,-0.0,2.2057623863220215,4.462338610286377,-0.0,0.28625988960266113,-1.5967534224139612,-0.0,-0.00043448666110634804,0.7979526519775391,-0.0,-0.01153197418898344,0.8104274868965149,0.0,0.027870139107108116
449.0,378.0,1.9753,0.0,9.5228,-0.0392,0.0076,-0.1029,-1.3001554769328614,0.0,1.0709309577941895,-1.922294020652771,-0.0,2.188214063644409,4.462334318751953,-0.0,0.310190349817276,-1.596733872090475,-0.0,0.00445179920643568,0.7980005741119385,-0.0,-0.0015482082962989807,0.8103752732276917,0.0,0.010269024409353733
449.0,378.0,1.9753,0.0,9.5228,-0.0392,0.0076,-0.1029,-1.3001394730857392,0.0,1.0581114292144775,-1.9222487211227417,-0.0,2.2029449939727783,4.462338610286377,-0.0,0.29301732778549194,-1.5966976324664515,-0.0,-0.00809116754680872,0.7979967594146729,-0.0,0.008321386761963367,0.810435950756073,0.0,-0.02248719334602356
449.0,378.0,1.9753,0.0,9.5228,-0.0392,0.0076,-0.1029,-1.3001877826503296,0.0,1.0509933233261108,-1.9222850799560547,4.6388565731747544e-12,2.22122859954834,4.462326212520264,-0.0,0.29262393712997437,-1.5967615286456507,-0.0,0.0010870941914618015,0.7979645729064941,-0.0,-0.0009338866220787168,0.8103873133659363,0.0,-0.01254099141806364
449.0,378.0,1.9753,0.0,9.5228,-0.0392,0.0076,-0.1029,-1.3001592618278046,0.0,1.0563217401504517,-1.9223127365112305,1.1202293623207615e-17,2.2048964500427246,4.462261362666748,-0.0,0.2829688787460327,-1.596705738698141,-0.0,-0.01091085560619831,0.797980546951294,-0.0,0.0043351007625460625,0.8103994131088257,0.0,0.06281719356775284
449.0,378.0,1.9753,0.0,9.5228,-0.0392,0.0076,-0.1029,-1.3001513642123719,0.0,1.0340907573699951,-1.9223014116287231,3.6294006204640806e-25,2.197594165802002,4.4623023706623535,-0.0,0.2944125235080719,-1.596733872090475,-0.0,-0.006586472038179636,0.7979729175567627,-0.0,-0.0016254528891295195,0.8103508949279785,0.0,-0.016224902123212814
449.0,378.0,1.9753,0.0,9.5228,-0.0392,0.0076,-0.1029,-1.300115094786026,0.0,1.0393880605697632,-1.9222972393035889,8.764576157697119e-31,2.1819863319396973,4.462350054378174,-0.0,0.29733216762542725,-1.5967219511615198,-0.0,0.005584716796875,0.7979567050933838,-0.0,-0.014357559382915497,0.8104194402694702,0.0,0.001238470897078514
449.0,378.0,1.9753,0.0,9.5228,-0.0392,0.0076,-0.1029,-1.3001155120185395,0.0,1.0312919616699219,-1.9222569465637207,0.0002513664949219674,2.181354284286499,4.46232192098584,-0.0,0.28800830245018005,-1.5967534224139612,-0.0,-0.007553029805421829,0.7979486584663391,-0.0,0.003309071995317936,0.8103793859481812,-4.74024481889046e-08,-0.0020897681824862957
449.0,378.0,1.9753,0.0,9.5228,-0.0392,0.0076,-0.1029,-1.3001315158656617,5.528538239187031e-13,1.0771211385726929,-1.9222537279129028,0.00033914364757947624,2.195253849029541,4.462350054378174,-0.0,0.29471027851104736,-1.5967496077166956,-0.0,-0.0023268265649676323,0.7979727387428284,-0.0,-0.002598020015284419,0.810355007648468,-1.5357790477101767e-15,0.0038630450144410133
423.0,384.0,1.8473,0.7442,9.1962,-0.0386,0.0412,-0.1277,-1.3001558941653748,0.0006724134436808527,1.0356420278549194,-1.9222651720046997,0.0009029364446178079,2.2056808471679688,4.46234576284375,-0.0,0.303314745426178,-1.5967658201800745,-0.0,-0.007247023284435272,0.7979846000671387,-0.0,-0.008929629810154438,0.810411274433136,-3.708726072589371e-21,-0.06520271301269531
423.0,384.0,1.8473,0.7442,9.1962,-0.0386,0.0412,-0.1277,-1.3001237374595185,0.0008622159366495907,1.0113279819488525,-1.922257900238037,0.0012512564426288009,2.242680072784424,4.462398214931152,-0.0,0.2931966483592987,-1.596705738698141,-0.0,-0.014801546931266785,0.7979645729064941,-0.0,-0.0006641254294663668,0.8103914260864258,-1.2015801089540404e-28,-0.005435436498373747
423.0,384.0,1.8473,0.7442,9.1962,-0.0386,0.0412,-0.1277,-1.3000671428493042,0.0007822461775504053,1.0553297996520996,-1.9222207069396973,0.0011893755290657282,2.1637215614318848,4.462382479304932,-0.0,0.3003899157047272,-1.5967219511615198,-0.0,0.0032987617887556553,0.797968864440918,-0.0,-0.006544491741806269,0.8103591203689575,-2.901674285048719e-34,0.02790869027376175
423.0,384.0,1.8473,0.7442,9.1962,-0.0386,0.0412,-0.1277,-1.300047294502594,0.0005980918067507446,1.052375316619873,-1.9222570657730103,0.0009617303730919957,2.1836957931518555,4.462358160609863,0.00030949601205065846,0.296662300825119,-1.5967620054828089,-0.0,-0.005614006891846657,0.7979965209960938,-0.0,-0.011700870469212532,0.8103752732276917,-9.401311397155198e-42,-0.008882873691618443
423.0,384.0,1.8473,0.7442,9.1962,-0.0386,0.0412,-0.1277,-1.3001116675189515,0.00047875571181066334,1.056750774383545,-1.9222010374069214,0.0007353212567977607,2.1654765605926514,4.462370081538818,0.0002566110051702708,0.2938311696052551,-1.596785847340719,-0.0,-0.021404895931482315,0.7979686260223389,-0.0,-0.002968814689666033,0.8103591203689575,-0.0,0.05586351081728935
423.0,384.0,1.8473,0.7442,9.1962,-0.0386,0.0412,-0.1277,-1.3000753682902833,0.00037815890391357243,1.0844316482543945,-1.922224760055542,0.0006334510399028659,2.2157087326049805,4.462362452144287,0.0002089371409965679,0.29566481709480286,-1.5967496077166956,-0.0,-0.007805677130818367,0.7979567050933838,-0.0,0.005517743527889252,0.8104235529899597,0.0,-0.007108749356120825
423.0,384.0,1.8473,0.7442,9.1962,-0.0386,0.0412,-0.1277,-1.300131933098175,0.0003125009825453162,1.0814924240112305,-1.9221327304840088,0.0004065680259373039,2.2264838218688965,4.462353869075439,0.00017620490689296275,0.2923811078071594,-1.5967534224139612,-0.0,0.007876668125391006,0.7979927062988281,-0.0,-0.01216324046254158,0.8104315400123596,0.0,-0.003479728242382407
423.0,384.0,1.8473,0.7442,9.1962,-0.0386,0.0412,-0.1277,-1.3001038891128083,0.0002178144350182265,1.0560190677642822,-1.9222010374069214,0.00038378298631869256,2.2030773162841797,4.462353869075439,0.0001576791109982878,0.2916123867034912,-1.5967534224139612,-0.0,-0.004813003353774548,0.7979846000671387,-0.0,0.00342895882204175,0.8103752732276917,0.0,-0.0034784763120114803
423.0,384.0,1.8473,0.7442,9.1962,-0.0386,0.0412,-0.1277,-1.300115780239441,0.00017690860840957612,1.0598598718643188,-1.9222133159637451,0.0003977283195126802,2.2291624546051025,4.462329550380371,0.00013829386443831027,0.2864851951599121,-1.5967415014850062,-0.0,0.0005539586418308318,0.7979764342308044,-0.0,-0.0056442818604409695,0.8104034662246704,0.0,0.028660796582698822
423.0,384.0,1.8473,0.7442,9.1962,-0.0386,0.0412,-0.1277,-1.3000997465899964,0.000127035440527834,1.0538331270217896,-1.9222052097320557,0.0003417016996536404,2.215540647506714,4.4623095232197265,0.00012661890650633723,0.2806771993637085,-1.5967376867877405,-0.0,0.0009520770981907845,0.7979607582092285,-0.0,0.005859839729964733,0.8104397654533386,0.0,0.018133386969566345
423.0,384.0,1.8473,0.7442,9.1962,-0.0386,0.0412,-0.1277,-1.300136075620987,0.00011098384129581973,1.01896333694458,-1.922201156616211,0.0002871815231628716,2.1726908683776855,4.462358160609863,0.0001138088628067635,0.2889772057533264,-1.59674579301943,-0.0,-0.000473659485578537,0.7979927062988281,-0.0,-0.013726672157645226,0.8104075789451599,0.0,0.038791559636592865
423.0,384.0,1.8473,0.7442,9.1962,-0.0386,0.0412,-0.1277,-1.300107554798462,-9.332117042504251e-05,1.0493522882461548,-1.9222248792648315,0.0002476658555679023,2.188363790512085,4.462353869075439,8.303943468490615e-05,0.2961808145046234,-1.5967019240008753,-0.0,-0.0051782382652163506,0.7980208992958069,-0.0,-0.005955782253295183,0.8103591203689575,0.0,-0.006260456517338753
423.0,384.0,1.8473,0.7442,9.1962,-0.0386,0.0412,-0.1277,-1.300099329357483,-0.0001775000273482874,1.0200895071029663,-1.922224760055542,0.00022449866810347885,2.1950697898864746,4.462362452144287,7.73525025579147e-05,0.30600032210350037,-1.5967415014850062,-0.0,0.004263455513864756,0.7979526519775391,-0.0,-0.003282372374087572,0.8103793859481812,0.0,0.05667036771774292
413.0,407.0,2.1954,0.256,9.5121,-0.0157,0.0076,-0.124,-1.3001394730857392,-0.0005915405345149338,1.056645154953003,-1.922224760055542,0.00019960332429036498,2.195246696472168,4.462338610286377,7.12302207830362e-05,0.30041342973709106,-1.5966938177691858,-0.0,-0.013416033238172531,0.7980048060417175,-0.0,0.002996570197865367,0.8103994131088257,0.0,0.006059510633349419
413.0,407.0,2.1954,0.256,9.5121,-0.0157,0.0076,-0.124,-1.3001195949367066,-0.0005965338787063956,1.0790934562683105,-1.9222166538238525,0.00018427727627567947,2.211925983428955,4.462317629451416,6.723891419824213e-05,0.28523704409599304,-1.59674579301943,-0.0,-0.0004581017419695854,0.7980086207389832,-0.0,-0.000504030380398035,0.8103711605072021,0.0,0.0347113311290741
413.0,407.0,2.1954,0.256,9.5121,-0.0157,0.0076,-0.124,-1.3001273733428498,-0.0005007105064578354,1.0183298587799072,-1.9221771955490112,0.00016716387472115457,2.2292981147766113,4.4623705583759765,4.796285429620184e-05,0.30300015211105347,-1.5967019240008753,-0.0,-0.0069882553070783615,0.7979886531829834,-0.0,-0.008823554962873459,0.8104158043861389,0.0,0.030143318697810173
413.0,407.0,2.1954,0.256,9.5121,-0.0157,0.0076,-0.124,-1.3001435560039063,-0.0003867878986056894,1.0233756303787231,-1.9222207069396973,0.00015295877528842539,2.2322471141815186,4.462350054378174,4.3873627873836085e-05,0.28855592012405396,-1.5966742674456995,6.361866033977037e-10,-0.002173895947635174,0.797936737537384,-0.0,-0.009182330220937729,0.8104075789451599,0.0,-0.0344698503613472
413.0,407.0,2.1954,0.256,9.5121,-0.0157,0.0076,-0.124,-1.3001595598510285,-0.00036898147664032876,1.0482237339019775,-1.9222052097320557,0.00014379435742739588,2.1889705657958984,4.4623023706623535,4.183423152426258e-05,0.29241669178009033,-1.596705738698141,1.770848821313481e-13,-0.012917326763272285,0.7979726791381836,-0.0,-0.019296178594231606,0.8104199767112732,0.0,-0.023464307188987732
413.0,407.0,2.1954,0.256,9.5121,-0.0157,0.0076,-0.124,-1.300187812452652,-0.0004792137769982219,1.033992886543274,-1.9222133159637451,0.0001332902756985277,2.198657751083374,4.462358160609863,5.080889241071418e-05,0.3014105558395386,-1.5966900030719202,3.2184307232682724e-18,-0.0028404355980455875,0.7979645729064941,-0.0,0.0022890756372362375,0.8104318380355835,0.0,0.006413980387151241
413.0,407.0,2.1954,0.256,9.5121,-0.0157,0.0076,-0.124,-1.3002278965762635,-0.000467112084152177,1.0212428569793701,-1.9221937656402588,0.00013100646901875734,2.230503559112549,4.4624220567890625,5.03206902067177e-05,0.29798150062561035,-1.5966861883746546,8.958620488922878e-22,-0.017902575433254242,0.7979607582092285,-0.0,-0.0174088254570961,0.8104315400123596,0.0,0.005397118628025055
413.0,407.0,2.1954,0.256,9.5121,-0.0157,0.0076,-0.124,-1.3001957398704072,-0.00046269706217572093,0.9950995445251465,-1.9221689701080322,0.002253403188660741,2.241516351699829,4.462394400233887,1.4679088963021059e-05,0.2905037999153137,-1.5966575781451624,1.628185026844858e-26,-0.012734883464872837,0.7979288101196289,-0.0,-0.0018960805609822273,0.8104274272918701,0.0,-0.0008787969127297401
413.0,407.0,2.1954,0.256,9.5121,-0.0157,0.0076,-0.124,-1.3001957398704072,-0.0005172250093892217,1.058408260345459,-1.9222018718719482,0.003448465606197715,2.1883647441864014,4.4623095232197265,1.3474427760229446e-05,0.2988209128379822,-1.5966618696795862,4.532113767617926e-30,-0.00415842467918992,0.7979726791381836,-0.0,-0.00021939107682555914,0.8104192018508911,0.000664376188069582,0.007000016514211893
413.0,407.0,2.1954,0.256,9.5121,-0.0157,0.0076,-0.124,-1.3002197009376069,-0.0005010293680243194,1.0357322692871094,-1.9220727682113647,0.0042550405487418175,2.189056634902954,4.462382002467773,2.499877336958889e-05,0.28333061933517456,-1.5966938177691858,8.236894972106273e-35,-0.02053721807897091,0.7979486584663391,-0.0,-0.006687692366540432,0.8103870153427124,0.0004454486770555377,-0.016259819269180298
413.0,407.0,2.1954,0.256,9.5121,-0.0157,0.0076,-0.124,-1.3001993757537385,-0.0003919866285286844,1.0412719249725342,-1.9220538139343262,0.007492761593312025,2.195685386657715,4.462385817165039,0.00012966668873559684,0.2938857972621918,-1.5966900030719202,1.497015557228988e-39,-0.0005301798228174448,0.7980527281761169,-0.0,-0.013296667486429214,0.8104274868965149,0.0003349128528498113,0.010871072299778461
413.0,407.0,2.1954,0.256,9.5121,-0.0157,0.0076,-0.124,-1.3002035182765503,-0.00033694840385578573,1.0274826288223267,-1.9220010042190552,0.009941494092345238,2.2061028480529785,4.462370081538818,0.0002292715507792309,0.29898595809936523,-1.5966299215899866,4.161856439044707e-43,0.005571370013058186,0.7979767322540283,-0.0,-0.007490312680602074,0.8104071617126465,0.0002409018052276224,0.01844061352312565
429.0,407.0,2.0052,-0.0443,9.457,0.0037,0.026,-0.1161,-1.3001792889884491,-0.0002838161017280072,1.028569221496582,-1.9219377040863037,0.01034901849925518,2.227370500564575,4.462417765254639,0.00018531303794588894,0.29989397525787354,-1.5966861883746546,0.0,-0.013581076636910439,0.7979726791381836,-0.0,-0.006922546774148941,0.8104639053344727,0.0001946000847965479,0.0044483281672000885
429.0,407.0,2.0052,-0.0443,9.457,0.0037,0.026,-0.1161,-1.300223783855774,-0.0002262414200231433,1.0327118635177612,-1.9218415021896362,0.010962234809994698,2.1929538249969482,4.4623939233967285,0.00016957598563749343,0.2938198447227478,-1.596677605305807,0.0,-0.008177682757377625,0.7979724407196045,-0.0,0.009673976339399815,0.810411274433136,0.0001722517772577703,-0.021028593182563782
429.0,407.0,2.0052,-0.0443,9.457,0.0037,0.026,-0.1161,-1.300223783855774,-0.00030072114896029234,1.035044550895691,-1.9217461347579956,0.01365820411592722,2.2214388847351074,4.462457819575928,0.0005328560364432633,0.2995659112930298,-1.5966499487506312,0.0,-0.001749837538227439,0.7979486584663391,-0.0,-0.008446462452411652,0.8104315400123596,0.00020792301802430302,-0.006878271698951721
429.0,407.0,2.0052,-0.0443,9.457,0.0037,0.026,-0.1161,-1.300215558414795,-0.0013653321657329798,1.0312180519104004,-1.9216382503509521,0.016283100470900536,2.2387022972106934,4.462417765254639,0.00046454480616375804,0.2910948395729065,-1.5966456572162073,0.0,-0.010282233357429504,0.7980368137359619,-0.0,0.0022740368731319904,0.8104557394981384,0.00018461667059455067,-0.014848369173705578
429.0,407.0,2.0052,-0.0443,9.457,0.0037,0.026,-0.1161,-1.3002436620048066,-0.00151349778752774,1.0830358266830444,-1.9215099811553955,0.01742449589073658,2.212066650390625,4.462373896236084,0.0003546011575963348,0.29247236251831055,-1.596638027821676,0.0,-0.002890709787607193,0.7979686260223389,-0.0,0.0060460553504526615,0.8104233741760254,0.000169697857927531,0.039296362549066544
429.0,407.0,2.0052,-0.0443,9.457,0.0037,0.026,-0.1161,-1.3002233368209382,-0.002069423208013177,1.0181599855422974,-1.9213379621505737,0.020849095657467842,2.2239630222320557,4.4624058443256835,0.00032347277738153934,0.2865835428237915,-1.5966656843768519,0.0,-0.009132632054388523,0.7979407906532288,-0.0,-0.00018748175352811813,0.810431182384491,0.0001531919842818752,-0.02109520137310028
429.0,407.0,2.0052,-0.0443,9.457,0.0037,0.026,-0.1161,-1.300291584139206,-0.002618342638015747,1.0122720003128052,-1.9211981296539307,0.02322441339492798,2.227945566177368,4.462409659022949,0.00027419309481047094,0.2807871401309967,-1.5966137091266077,0.0,0.0018516145646572113,0.7979965209960938,-0.0,-0.013228866271674633,0.8104679584503174,0.000142776538268663,0.0011274414137005806
429.0,407.0,2.0052,-0.0443,9.457,0.0037,0.026,-0.1161,-1.300287441616394,-0.0033455933444201946,1.0123317241668701,-1.9209940433502197,0.02567724511027336,2.2208163738250732,4.462453528041504,0.00022789434297010303,0.27772265672683716,-1.5966418425189417,0.0,0.0008894060738384724,0.7979924082756042,-0.0,0.0031956094317138195,0.8104192018508911,0.00013090950960759073,-3.845430910587311e-05
429.0,407.0,2.0052,-0.0443,9.457,0.0037,0.026,-0.1161,-1.3003197771361847,-0.004404958337545395,1.015533208847046,-1.9207826852798462,0.025751901790499687,2.2485880851745605,4.462397738093994,0.0001949743164004758,0.286903977394104,-1.5966742674456995,0.0,0.0033048121258616447,0.7979486584663391,-0.0,-0.003316270187497139,0.8104351758956909,0.00012086379138054326,-0.06781542301177979
429.0,407.0,2.0052,-0.0443,9.457,0.0037,0.026,-0.1161,-1.3003395658782502,-0.004647085443139076,1.040964126586914,-1.9206271171569824,0.02602882869541645,2.229254722595215,4.462398214931152,0.00017591670621186495,0.2847866117954254,-1.5966737906085413,0.0,0.008636766113340855,0.7979846000671387,-0.0,-0.0001621029805392027,0.8104839324951172,0.00011428614379838109,0.008891133591532707
429.0,407.0,2.0052,-0.0443,9.457,0.0037,0.026,-0.1161,-1.3004077833941956,-0.004876784980297089,0.944693386554718,-1.9204024076461792,0.024724869057536125,2.23246169090271,4.4624058443256835,0.00012969931412953883,0.27894049882888794,-1.5966656843768519,1.969726099559921e-06,0.014293506741523743,0.7980648279190063,-0.0,-0.009177526459097862,0.8104192018508911,0.00010655433288775384,-0.013347665779292583
429.0,407.0,2.0052,-0.0443,9.457,0.0037,0.026,-0.1161,-1.3004195255092164,-0.005441457498818636,0.953572690486908,-1.920307993888855,0.021432725712656975,2.20096492767334,4.462442083949707,9.570967085892335e-05,0.27321428060531616,-1.596638027821676,6.118636520113796e-05,0.0013159243389964104,0.7980325222015381,-0.0,0.007838188670575619,0.8104435205459595,3.190411007381044e-05,-0.06137244403362274
429.0,407.0,2.0052,-0.0443,9.457,0.0037,0.026,-0.1161,-1.300443486576416,-0.00664242310449481,0.9070759415626526,-1.9201195240020752,0.01764681749045849,2.174753189086914,4.46240155279126,-4.1999679524451494e-05,0.2705843448638916,-1.5966418425189417,5.8045749028678983e-05,0.005817470606416464,0.7980287671089172,-0.0,-0.001637306297197938,0.8104315400123596,1.4879800801281817e-05,-0.017477573826909065
425.0,395.0,1.6935,-0.2764,8.8726,-0.0446,0.0289,-0.1031,-1.3005158466151734,-0.007840704172849655,0.8590296506881714,-1.919999361038208,0.014194921590387821,2.2138960361480713,4.462410135860107,-6.727494474034756e-05,0.2550045847892761,-1.5966537634478968,6.418608245439827e-05,0.010822202078998089,0.7980287075042725,-0.0,-0.00797464419156313,0.810411274433136,1.0514378950832182e-10,-0.04553099349141121
425.0,395.0,1.6935,-0.2764,8.8726,-0.0446,0.0289,-0.1031,-1.30054326475177,-0.009945742785930634,0.8298511505126953,-1.9199351072311401,0.009331193752586842,2.1510634422302246,4.462418242091797,-0.00010380182357039303,0.24373459815979004,-1.5966337362872522,6.38863566564396e-05,0.015358836390078068,0.7980006337165833,-0.0,-0.0038994101341813803,0.8104274272918701,3.40652559750339e-18,-0.07408368587493896
425.0,395.0,1.6935,-0.2764,8.8726,-0.0446,0.0289,-0.1031,-1.3006311518004914,-0.011911152862012386,0.7749588489532471,-1.9198635816574097,0.00525292195379734,2.121291160583496,4.46234576284375,-0.0005290652043186128,0.2295212298631668,-1.5966656843768519,6.099971869844012e-05,0.012183976359665394,0.7980405688285828,-0.0,-0.011156858876347542,0.8104516267776489,1.1036708871104623e-25,-0.0348905548453331
425.0,395.0,1.6935,-0.2764,8.8726,-0.0446,0.0289,-0.1031,-1.3006953758052369,-0.013216220773756504,0.7437379360198975,-1.919892430305481,0.002553624100983143,2.0775442123413086,4.462373896236084,-0.0006526873912662268,0.23058247566223145,-1.5966575781451624,4.522271865425864e-06,0.021210983395576477,0.798076868057251,-0.0,-0.002100856974720955,0.8104072213172913,2.6652352521419883e-31,0.0033488054759800434
425.0,395.0,1.6935,-0.2764,8.8726,-0.0446,0.0289,-0.1031,-1.3008111280253907,-0.01633182354271412,0.6923235058784485,-1.9199038743972778,0.0010757304262369871,2.0211334228515625,4.462374373073242,-0.0006437351112253964,0.22847814857959747,-1.5966537634478968,8.219005337428698e-11,0.01514570601284504,0.798036515712738,-0.0,-0.012599092908203602,0.8103750348091125,8.635025344923815e-39,-0.0759979635477066
425.0,395.0,1.6935,-0.2764,8.8726,-0.0446,0.0289,-0.1031,-1.3009513181499024,-0.019288910552859306,0.7199461460113525,-1.919891595840454,0.00021399350953288376,2.0880398750305176,4.462338610286377,-0.00072294328128919,0.20544221997261047,-1.5966537634478968,2.2877902507547135e-14,0.02291944995522499,0.7979965209960938,-0.0,0.0071388245560228825,0.8103750348091125,2.1019476964872256e-44,-0.01789070852100849
425.0,395.0,1.6935,-0.2764,8.8726,-0.0446,0.0289,-0.1031,-1.3011396092227479,-0.02251771092414856,0.6808828115463257,-1.919892430305481,7.197495142463595e-05,2.100663900375366,4.4623023706623535,-0.0010489810956642032,0.1980876922607422,-1.596609894429342,4.1579456166320866e-19,0.019549550488591194,0.7980405688285828,-0.0,-0.008250590413808823,0.8103750348091125,0.0,-0.050453025847673416
425.0,395.0,1.6935,-0.2764,8.8726,-0.0446,0.0289,-0.1031,-1.3013315957835694,-0.027583401650190353,0.6342338919639587,-1.9198635816574097,5.452818004414439e-05,2.0674896240234375,4.462366266841553,-0.0008217243594117463,0.1955140382051468,-1.5965898672686976,7.556860698267569e-24,0.032877203077077866,0.7980327606201172,-0.0,0.0014302001800388098,0.8104117512702942,0.0,-0.03950246796011925
425.0,395.0,1.6935,-0.2764,8.8726,-0.0446,0.0289,-0.1031,-1.301503674393036,-0.03169888257980347,0.6051115393638611,-1.9198635816574097,4.614049248630181e-05,2.032398223876953,4.462338610286377,-0.0006967115914449096,0.19752706587314606,-1.5966499487506312,2.103480077809334e-27,0.030355550348758698,0.7980568408966064,-0.0,0.0024143042974174023,0.8104158639907837,0.0,-0.05003167316317558
425.0,395.0,1.6935,-0.2764,8.8726,-0.0446,0.0289,-0.1031,-1.3017592889121552,-0.03422367572784424,0.5826497077941895,-1.919847011566162,3.828812623396516e-05,2.029531955718994,4.462374373073242,-0.0005176218110136688,0.2113625407218933,-1.5966456572162073,3.8229706457350755e-32,0.04168553277850151,0.7980284094810486,-0.0,-0.004921216983348131,0.8103711605072021,0.0,-0.028250474482774734
425.0,395.0,1.6935,-0.2764,8.8726,-0.0446,0.0289,-0.1031,-1.3019917470267792,-0.03801910951733589,0.6023547053337097,-1.9199038743972778,3.395440580789e-05,2.063645839691162,4.462386770839355,-0.0004986997810192406,0.1898343861103058,-1.5966456572162073,1.0641377132798064e-35,0.033220402896404266,0.798024594783783,-0.0,0.006895122583955526,0.8103752732276917,0.0,-0.031911104917526245
425.0,395.0,1.6935,-0.2764,8.8726,-0.0446,0.0289,-0.1031,-1.3022710543921967,-0.03942886367440224,0.5947482585906982,-1.919908046722412,5.9003712522098795e-05,2.0648505687713623,4.46231381475415,-0.0004012113204225898,0.20136131346225739,-1.596638027821676,1.9340160885225395e-40,0.03381391987204552,0.7980166077613831,-0.0,0.00036703236401081085,0.8104116916656494,0.0,-0.07100223004817963
425.0,395.0,1.6935,-0.2764,8.8726,-0.0446,0.0289,-0.1031,-1.3026311856559296,-0.041959814727306366,0.5421665906906128,-1.9198718070983887,7.824651402188465e-05,2.063751459121704,4.462338610286377,-0.00031972985016182065,0.2015579640865326,-1.5966656843768519,4.203895392974451e-45,0.04066247120499611,0.7980166077613831,-0.0,0.017262035980820656,0.8103793859481812,0.0,-0.026601290330290794
407.0,368.0,2.2217,0.0126,8.6788,-0.0473,-0.0258,-0.1173,-1.3028789919665833,-0.044845450669527054,0.5178764462471008,-1.9198758602142334,7.198784442152828e-05,2.059994697570801,4.462330027217529,-0.00027747228159569204,0.19986657798290253,-1.596677605305807,0.0,0.03967968374490738,0.7980407476425171,-0.0,0.012667818926274776,0.8104438781738281,0.0,-0.03881774842739105
407.0,368.0,2.2217,0.0126,8.6788,-0.0473,-0.0258,-0.1173,-1.3032908898643036,-0.04741804674267769,0.5499011874198914,-1.9198800325393677,8.673367847222835e-05,2.0984599590301514,4.46231381475415,-0.00023590428463649005,0.19869734346866608,-1.596609894429342,7.402766641462222e-05,0.0429316908121109,0.7980405688285828,-0.0,0.00799014512449503,0.8104116916656494,0.0,-0.03865940868854523
407.0,368.0,2.2217,0.0126,8.6788,-0.0473,-0.0258,-0.1173,-1.3035871547511597,-0.05058060958981514,0.5889396667480469,-1.9198397397994995,7.16454305802472e-05,2.054917812347412,4.462334318751953,-0.0002120767894666642,0.19487223029136658,-1.5966418425189417,7.055880269035697e-05,0.04238663986325264,0.7979846000671387,-0.0,-0.009554588235914707,0.8104034662246704,0.0,-0.03395187482237816
407.0,368.0,2.2217,0.0126,8.6788,-0.0473,-0.0258,-0.1173,-1.3039949995330353,-0.05708153918385506,0.5953941345214844,-1.9198800325393677,0.0007823782507330179,2.07185435295105,4.46234576284375,-0.00018690680735744536,0.19556836783885956,-1.5966499487506312,6.63945684209466e-05,0.03191472962498665,0.7980127930641174,-0.0,-0.011375896632671356,0.8103670477867126,0.0,-0.04686806723475456
407.0,368.0,2.2217,0.0126,8.6788,-0.0473,-0.0258,-0.1173,-1.3044542235187073,-0.06436405330896378,0.5911048650741577,-1.919803500175476,0.002471082378178835,2.096163272857666,4.46234576284375,-5.922518175793812e-05,0.21378399431705475,-1.596626106892721,6.26945256954059e-05,0.04198267310857773,0.798036515712738,-0.0,0.001789063448086381,0.8104116916656494,0.0,-0.04492226988077164
407.0,368.0,2.2217,0.0126,8.6788,-0.0473,-0.0258,-0.1173,-1.3049229842475434,-0.0710386112332344,0.6032168865203857,-1.9198687076568604,0.00443796394392848,2.0817627906799316,4.46234576284375,-7.019791610218817e-06,0.21304106712341309,-1.596626106892721,6.017925261403434e-05,0.049195971339941025,0.798000693321228,-0.0,-0.007971922867000103,0.8104075789451599,0.0,-0.07548908144235611
407.0,368.0,2.2217,0.0126,8.6788,-0.0473,-0.0258,-0.1173,-1.3055668336204072,-0.07750269770622253,0.6362670660018921,-1.919752597808838,0.008013262413442135,2.1453428268432617,4.462389631862305,-1.2758123724143644e-10,0.21926677227020264,-1.5966299215899866,5.71235541428905e-05,0.04502824321389198,0.7980649471282959,-0.0,-0.014961221255362034,0.8104315400123596,0.0,-0.06721066683530807
407.0,368.0,2.2217,0.0126,8.6788,-0.0473,-0.0258,-0.1173,-1.3060383361629029,-0.08097145706415176,0.6034896373748779,-1.919699788093567,0.011631202884018421,2.1612954139709473,4.462389631862305,-3.5512706734715585e-14,0.23682647943496704,-1.596638027821676,5.5027998314471915e-05,0.03402506932616234,0.7980246543884277,-0.0,-0.008309610188007355,0.810411274433136,0.0,-0.08469545096158981
407.0,368.0,2.2217,0.0126,8.6788,-0.0473,-0.0258,-0.1173,-1.3066781622222443,-0.08324245363473892,0.6438928842544556,-1.9195557832717896,0.016453083604574203,2.1798365116119385,4.462406321162842,-6.454260260143409e-19,0.23581267893314362,-1.596609894429342,5.2461899031186476e-05,0.03910467028617859,0.7979846000671387,-0.0,-0.014144191518425941,0.8103790879249573,0.0,-0.07521028816699982
407.0,368.0,2.2217,0.0126,8.6788,-0.0473,-0.0258,-0.1173,-1.3072620791247864,-0.08642242103815079,0.6564676761627197,-1.9194843769073486,0.019304296001791954,2.2104930877685547,4.4623939233967285,-1.7965669716797125e-22,0.2251879721879959,-1.596581761037008,5.068911559646949e-05,0.046190764755010605,0.7980809211730957,-0.0,0.0005776798352599144,0.810403048992157,0.0,-0.0709272027015686
407.0,368.0,2.2217,0.0126,8.6788,-0.0473,-0.0258,-0.1173,-1.3080301743796845,-0.0847645178437233,0.6369549036026001,-1.9192523956298828,0.024866795167326927,2.171757698059082,4.462382002467773,-3.2651715535355656e-27,0.23260971903800964,-1.596626106892721,1.0712308551319438e-07,0.04779770225286484,0.7979803681373596,-0.0,0.007990152575075626,0.8104192018508911,0.0,-0.03377704694867134
407.0,368.0,2.2217,0.0126,8.6788,-0.0473,-0.0258,-0.1173,-1.3087618809989472,-0.08592518419027328,0.7202528119087219,-1.9190605878829956,0.031208638101816177,2.222914695739746,4.462370081538818,-5.934287510316907e-32,0.23167811334133148,-1.596638027821676,1.9469094305474277e-12,0.0667136013507843,0.7980325222015381,-0.0,-0.005143557675182819,0.8104438781738281,0.0,-0.03715652972459793
440.0,404.0,2.4772,0.1651,9.2309,-0.042,-0.009,-0.1191,-1.3093058329871674,-0.08976414799690247,0.6850741505622864,-1.9188079833984375,0.03699926286935806,2.22271466255188,4.462310000056885,-1.6518307200975132e-35,0.2464423030614853,-1.596626106892721,5.419294561918148e-16,0.0563633032143116,0.7980085611343384,-0.0,0.0001393272541463375,0.8104355931282043,0.0,-0.0496128648519516
440.0,404.0,2.4772,0.1651,9.2309,-0.042,-0.009,-0.1191,-1.3099811536124726,-0.09769216924905777,0.7178707122802734,-1.9185364246368408,0.04613697528839111,2.239366054534912,4.462386294002197,-3.002127816984845e-40,0.2272356152534485,-1.596677605305807,9.849299330392855e-21,0.04473958536982536,0.7979406714439392,-0.0,-0.005687952507287264,0.8104475140571594,0.0,-0.05801662430167198
440.0,404.0,2.4772,0.1651,9.2309,-0.042,-0.009,-0.1191,-1.310661481027939,-0.1040680930018425,0.6705886721611023,-1.9181655645370483,0.055239610373973846,2.2855615615844727,4.462357683772705,-8.407790785948902e-44,0.23833569884300232,-1.5966456572162073,2.7415886517738317e-24,0.04063524678349495,0.798024594783783,-0.0,-0.002444699639454484,0.8104638457298279,0.0,-0.05710596591234207
440.0,404.0,2.4772,0.1651,9.2309,-0.042,-0.009,-0.1191,-1.3114811044982453,-0.11408020555973053,0.6511214971542358,-1.9176537990570068,0.07049836218357086,2.2572519779205322,4.462361975307129,-0.0,0.22322490811347961,-1.596638027821676,4.9827027575423564e-29,0.03486492484807968,0.7979844212532043,-0.0,0.002789389109238982,0.8104274272918701,-1.0426867447677068e-05,-0.04848524183034897
440.0,404.0,2.4772,0.1651,9.2309,-0.042,-0.009,-0.1191,-1.312481240635254,-0.1194792091846466,0.6816903948783875,-1.9170266389846802,0.09106124937534332,2.247514247894287,4.46236960470166,-0.0,0.2386164516210556,-1.596609894429342,9.055816542547933e-34,0.04949532449245453,0.7980446219444275,-0.0,-0.0026181438006460667,0.8104475140571594,-9.96507969830418e-06,-0.07585962861776352
440.0,404.0,2.4772,0.1651,9.2309,-0.042,-0.009,-0.1191,-1.3131762605956574,-0.11568357795476913,0.6599112749099731,-1.9163784980773926,0.10435446351766586,2.239083766937256,4.462426348323486,-0.0,0.23717361688613892,-1.596626106892721,2.520719576837454e-37,0.056411683559417725,0.7980567812919617,-0.0,-0.0015691043809056282,0.810411274433136,-7.051244310662952e-11,-0.0929475724697113
440.0,404.0,2.4772,0.1651,9.2309,-0.042,-0.009,-0.1191,-1.3141640287688752,-0.11320622265338898,0.6742370128631592,-1.9155069589614868,0.11450431495904922,2.3328921794891357,4.462362452144287,5.04777672176715e-05,0.24242785573005676,-1.5966575781451624,4.580844679877827e-42,0.05143147334456444,0.798004686832428,-0.0,0.008915160782635212,0.8104634284973145,-2.2845132060132397e-18,-0.07536119222640991
440.0,404.0,2.4772,0.1651,9.2309,-0.042,-0.009,-0.1191,-1.314936415558197,-0.11805258691310883,0.643263041973114,-1.9147953987121582,0.11678346991539001,2.3074536323547363,4.462370081538818,3.9132650272222236e-05,0.2288980782032013,-1.5966814200030726,1.401298464324817e-45,0.04394008219242096,0.798004686832428,-0.0,-0.010664130561053753,0.8104393482208252,-5.516829715333939e-24,-0.13860689103603363
440.0,404.0,2.4772,0.1651,9.2309,-0.042,-0.009,-0.1191,-1.3158638042262574,-0.1316809505224228,0.6531593203544617,-1.913877248764038,0.11978703737258911,2.245185613632202,4.46231381475415,2.714411857596133e-05,0.225032240152359,-1.5966418425189417,0.0,0.03668473660945892,0.7979764938354492,-0.0,0.0034704627469182014,0.810403048992157,-1.7873827712657037e-31,-0.06814704090356827
440.0,404.0,2.4772,0.1651,9.2309,-0.042,-0.009,-0.1191,-1.3168958586505433,-0.1404048502445221,0.6375818848609924,-1.9128940105438232,0.12968488037586212,2.3162343502044678,4.462366266841553,1.666671050770674e-05,0.22022584080696106,-1.5966337362872522,0.0,0.05359770730137825,0.7979924082756042,-0.0,-0.013226015493273735,0.8104434609413147,-5.790893929791593e-39,-0.00047510070726275444
440.0,404.0,2.4772,0.1651,9.2309,-0.042,-0.009,-0.1191,-1.3176834148219605,-0.14303551614284515,0.5619816184043884,-1.9121034145355225,0.1400192230939865,2.266240119934082,4.462370081538818,1.578935371071566e-05,0.22637639939785004,-1.5965974966632288,0.0,0.0543517991900444,0.7979686856269836,-0.0,-0.006906159687787294,0.8104194402694702,-1.401298464324817e-44,-0.032814871519804
440.0,404.0,2.4772,0.1651,9.2309,-0.042,-0.009,-0.1191,-1.3188594442657013,-0.13242875039577484,0.6470270156860352,-1.910848617553711,0.1605873554944992,2.321737766265869,4.462386294002197,1.4753976756765042e-05,0.22023820877075195,-1.5966418425189417,0.0,0.05023445561528206,0.798000693321228,-0.0,-0.009426826611161232,0.8104274272918701,0.0,-0.09823688864707947
440.0,404.0,2.4772,0.1651,9.2309,-0.042,-0.009,-0.1191,-1.3196385365775605,-0.1276313215494156,0.6696436405181885,-1.9098374843597412,0.17020058631896973,2.345496654510498,4.462358160609863,1.4062387890589889e-05,0.21671292185783386,-1.5966656843768519,0.0,0.048131395131349564,0.7980086803436279,-0.0,-0.0023079938255250454,0.810411274433136,0.0,-0.04421521723270416
413.0,394.0,3.2046,0.6419,8.3025,-0.0221,-0.0238,-0.1329,-1.3207782965949555,-0.13661201298236847,0.6197347044944763,-1.9084737300872803,0.1686231940984726,2.328372001647949,4.46234576284375,1.4967934447440712e-08,0.21766190230846405,-1.5966537634478968,0.0,0.036862023174762726,0.7980325222015381,-0.0,0.0021168342791497707,0.8104515075683594,0.0,-0.06658591330051422
413.0,394.0,3.2046,0.6419,8.3025,-0.0221,-0.0238,-0.1329,-1.3215979051641007,-0.15407371520996094,0.6168288588523865,-1.907365322113037,0.17037011682987213,2.3247482776641846,4.462358160609863,4.1663790473212e-12,0.21950671076774597,-1.5966299215899866,0.0,0.05046606808900833,0.7979846000671387,-0.0,-0.0016893127467483282,0.8104515075683594,0.0,-0.10428586602210999
413.0,394.0,3.2046,0.6419,8.3025,-0.0221,-0.0238,-0.1329,-1.3228101593307038,-0.16530963778495789,0.5141781568527222,-1.906010389328003,0.17822273075580597,2.309424877166748,4.462330027217529,7.572186689600277e-17,0.23326432704925537,-1.5966618696795862,0.0,0.05421382188796997,0.7980366945266724,-0.0,0.0030389567837119102,0.8103955984115601,0.0,-0.0631575956940651
413.0,394.0,3.2046,0.6419,8.3025,-0.0221,-0.0238,-0.1329,-1.3240373742631455,-0.15826724469661713,0.6125069260597229,-1.9045391082763672,0.1922016590833664,2.330763101577759,4.46234576284375,1.3762074057992865e-21,0.21907435357570648,-1.5966456572162073,0.0,0.052030064165592194,0.7980527281761169,-0.0,0.004002896137535572,0.8104233741760254,0.0,-0.05125019699335098
413.0,394.0,3.2046,0.6419,8.3025,-0.0221,-0.0238,-0.1329,-1.325021432047226,-0.1506367325782776,0.5809192657470703,-1.9033125638961792,0.19919118285179138,2.3533153533935547,4.462374373073242,3.830723593414239e-25,0.21514447033405304,-1.5966575781451624,0.0,0.041765499860048294,0.7979844808578491,-0.0,0.0017050887690857053,0.8104235529899597,-0.00022548000561073422,-0.04465219005942345
413.0,394.0,3.2046,0.6419,8.3025,-0.0221,-0.0238,-0.1329,-1.3262487661889573,-0.14749446511268616,0.671782374382019,-1.9016237258911133,0.2108672559261322,2.3781564235687256,4.46237771093335,0.0001333397813141346,0.21488213539123535,-1.5966337362872522,0.0,0.048353008925914764,0.7980284690856934,-0.0,0.00026908674044534564,0.8104836344718933,-6.3197287403227165e-09,-0.11168019473552704
413.0,394.0,3.2046,0.6419,8.3025,-0.0221,-0.0238,-0.1329,-1.327212543492653,-0.1601482778787613,0.6724101901054382,-1.900373101234436,0.21520939469337463,2.4081270694732666,4.46234576284375,9.616935585654574e-07,0.22711262106895447,-1.5966418425189417,0.0,0.04397929832339287,0.7979844808578491,-0.0,-0.01080734096467495,0.8104556202888489,-1.5261400880561306e-14,-0.06617958843708038
413.0,394.0,3.2046,0.6419,8.3025,-0.0221,-0.0238,-0.1329,-1.3284801107696076,-0.1749333292245865,0.6250661611557007,-1.8985843658447266,0.21555398404598236,2.3850224018096924,4.462317629451416,1.7478303526718975e-11,0.21539552509784698,-1.5966456572162073,0.0,0.03865404799580574,0.7980005145072937,-0.0,-0.013847040012478828,0.8104798197746277,-4.944499879439587e-22,-0.11099156737327576
413.0,394.0,3.2046,0.6419,8.3025,-0.0221,-0.0238,-0.1329,-1.329779939060547,-0.17126570641994476,0.678551435470581,-1.896773338317871,0.22274793684482574,2.3918468952178955,4.462386294002197,3.1765953689566885e-16,0.21193534135818481,-1.5966456572162073,0.0,0.04958973079919815,0.7979644536972046,-0.0,-0.0005810883594676852,0.8104678988456726,-1.6019552753571067e-29,-0.05180477723479271
413.0,394.0,3.2046,0.6419,8.3025,-0.0221,-0.0238,-0.1329,-1.3306871813586731,-0.16465730965137482,0.6537798643112183,-1.8954417705535889,0.2373533695936203,2.457188844680786,4.462413950557373,8.84216912987061e-20,0.2219916582107544,-1.5966060797320765,0.0,0.052475783973932266,0.797956645488739,-0.0,-0.006988144479691982,0.8103833198547363,-3.868533828442842e-35,-0.10154043138027191
413.0,394.0,3.2046,0.6419,8.3025,-0.0221,-0.0238,-0.1329,-1.3320389103940506,-0.15409794449806213,0.6992220878601074,-1.8935295343399048,0.24665498733520508,2.4379591941833496,4.462350054378174,1.6070205974999978e-24,0.22850081324577332,-1.5966299215899866,0.0,0.056590382009744644,0.7979884743690491,-0.0,-0.011112780310213566,0.8104434609413147,-1.2527608271063865e-42,-0.10190459340810776
413.0,394.0,3.2046,0.6419,8.3025,-0.0221,-0.0238,-0.1329,-1.3330548864654084,-0.15453825891017914,0.6897263526916504,-1.8920302391052246,0.2549031674861908,2.4238338470458984,4.462358160609863,4.473201000020251e-28,0.2353849709033966,-1.5966418425189417,0.0,0.05350339412689209,0.7980127334594727,-0.0,0.004481619689613581,0.8104474544525146,5.175616024644114e-05,-0.13139082491397858
413.0,394.0,3.2046,0.6419,8.3025,-0.0221,-0.0238,-0.1329,-1.334310070877411,-0.16609841585159302,0.7265413999557495,-1.8900431394577026,0.2628551125526428,2.444876194000244,4.462317629451416,8.129821051358668e-33,0.2327362596988678,-1.5966861883746546,0.0,0.03439867123961449,0.798040509223938,-0.0,-0.0034677302464842796,0.8104836940765381,0.00013986635894980282,-0.06151382625102997
413.0,369.0,2.5119,0.253,9.2901,-0.0392,0.1138,-0.1316,-1.3356657487205048,-0.17534463107585907,0.7021737694740295,-1.8878705501556396,0.26407045125961304,2.4535298347473145,4.462317629451416,1.4775548846758307e-37,0.2189021110534668,-1.5967138449298304,0.0,0.044105030596256256,0.798000693321228,-0.0,-0.017787691205739975,0.8104270696640015,0.00013083886005915701,-0.09894959628582001
413.0,369.0,2.5119,0.253,9.2901,-0.0392,0.1138,-0.1316,-1.3367053878358384,-0.18115030229091644,0.711307168006897,-1.8862990140914917,0.27149516344070435,2.44789981842041,4.462350054378174,4.112810992793338e-41,0.2167711853981018,-1.5966575781451624,0.0,0.05263138562440872,0.7980127334594727,-0.0,0.005808736197650433,0.8104393482208252,8.848218567436561e-05,-0.08793720602989197
413.0,369.0,2.5119,0.253,9.2901,-0.0392,0.1138,-0.1316,-1.3381414723447342,-0.17815817892551422,0.6387843489646912,-1.8841243982315063,0.2885907292366028,2.431563377380371,4.462306185359619,1.401298464324817e-45,0.22527992725372314,-1.5966299215899866,0.0,0.044041313230991364,0.797976553440094,-0.0,0.0057268026284873486,0.8104475140571594,0.00011666391947073862,-0.05140920728445053
413.0,369.0,2.5119,0.253,9.2901,-0.0392,0.1138,-0.1316,-1.3392377954772492,-0.1713886708021164,0.7015296220779419,-1.8824201822280884,0.29164761304855347,2.4205589294433594,4.4623095232197265,-0.0002995696268044412,0.22208353877067566,-1.5966656843768519,0.0,0.02140858583152294,0.798024594783783,-0.0,-0.00248171528801322,0.8104311227798462,4.883529254584573e-05,-0.11132810264825821
413.0,369.0,2.5119,0.253,9.2901,-0.0392,0.1138,-0.1316,-1.3407106709531327,-0.1669054627418518,0.695786714553833,-1.8800766468048096,0.30418384075164795,2.4489126205444336,4.462293787593506,-0.0003183706139679998,0.215556800365448,-1.5966060797320765,0.0,0.042720504105091095,0.798020601272583,-0.0,-0.0009221317595802248,0.8104515075683594,8.018391963560134e-05,-0.0915597528219223
413.0,369.0,2.5119,0.253,9.2901,-0.0392,0.1138,-0.1316,-1.3417469573071976,-0.18046098947525024,0.6863160133361816,-1.8782689571380615,0.3020552396774292,2.4596807956695557,4.46224228918042,-0.00471234368160367,0.21614086627960205,-1.5966418425189417,0.0,0.041513796895742416,0.7980807423591614,-0.0,-0.008069586008787155,0.8104795217514038,0.0001410703407600522,-0.08525802195072174
413.0,369.0,2.5119,0.253,9.2901,-0.0392,0.1138,-0.1316,-1.3433163476041337,-0.20854145288467407,0.67399001121521,-1.87583327293396,0.2919304370880127,2.4143576622009277,4.462202711696289,-0.018196919932961464,0.19806140661239624,-1.5966499487506312,0.0,0.033328961580991745,0.7980846166610718,-0.0,0.006283157039433718,0.8104109764099121,0.0001223238796228543,-0.04294747859239578
413.0,369.0,2.5119,0.253,9.2901,-0.0392,0.1138,-0.1316,-1.3449859780124207,-0.2041371911764145,0.6988450884819031,-1.8734263181686401,0.29943084716796875,2.4330337047576904,4.462082548732422,-0.015696916729211807,0.20165249705314636,-1.596626106892721,0.0,0.04669575020670891,0.7980127334594727,-0.0,-0.016226500272750854,0.8104434609413147,8.084059663815424e-05,-0.10880948603153229
413.0,369.0,2.5119,0.253,9.2901,-0.0392,0.1138,-0.1316,-1.346126378779747,-0.1921401470899582,0.6350860595703125,-1.8716423511505127,0.30060744285583496,2.4367551803588867,4.462022467250488,-0.007937582209706306,0.20413216948509216,-1.5966299215899866,0.0,0.054479457437992096,0.798024594783783,-0.0,-5.513810901902616e-05,0.8104596734046936,-7.58573369239457e-05,-0.10253529995679855
413.0,369.0,2.5119,0.253,9.2901,-0.0392,0.1138,-0.1316,-1.3477473568967362,-0.1907532513141632,0.702252209186554,-1.8692033290863037,0.3000508248806,2.501072883605957,4.461946650142334,-0.0017862519016489387,0.20071077346801758,-1.5966418425189417,0.0,0.04004403203725815,0.7980125546455383,-0.0,0.0018189467955380678,0.8104393482208252,-3.29116519424133e-05,-0.12205179035663605
413.0,369.0,2.5119,0.253,9.2901,-0.0392,0.1138,-0.1316,-1.3489644688418885,-0.20361553132534027,0.6655007004737854,-1.8673679828643799,0.29703885316848755,2.3473739624023438,4.461942835445068,-0.0007974228938110173,0.19985714554786682,-1.5966337362872522,0.0,0.04180189222097397,0.7980204820632935,-0.0,-0.0029450494330376387,0.8104351758956909,-1.9371524384581562e-09,-0.07873259484767914
413.0,369.0,2.5119,0.253,9.2901,-0.0392,0.1138,-0.1316,-1.3506136548570176,-0.211234912276268,0.7032670378684998,-1.8650320768356323,0.29190191626548767,2.3725318908691406,4.4619433122822265,-0.0015066714258864522,0.19616660475730896,-1.5966418425189417,0.0,0.05762369558215141,0.7980127334594727,-0.0,-0.019716523587703705,0.8104556798934937,-6.276127680372181e-17,-0.07624725252389908
424.0,362.0,1.6313,0.0407,9.1735,-0.0509,0.1077,-0.1312,-1.352263094191887,-0.2077626734972,0.6544561386108398,-1.862683653831482,0.29128509759902954,2.4165148735046387,4.461898966426514,-0.0009925871854647994,0.20487526059150696,-1.596638027821676,0.0,0.044607046991586685,0.798024594783783,-0.0,-0.013005245476961136,0.8104150891304016,-2.0333856186680475e-24,-0.08306325972080231
424.0,362.0,1.6313,0.0407,9.1735,-0.0509,0.1077,-0.1312,-1.3534272623113175,-0.21312649548053741,0.622813880443573,-1.8609815835952759,0.28720879554748535,2.369657516479492,4.4618865686604,-0.0026902591343969107,0.20295032858848572,-1.5965898672686976,0.0,0.055552445352077484,0.797992467880249,-0.0,-0.005660627037286758,0.810475766658783,-4.9103882258707306e-30,-0.11139693856239319
424.0,362.0,1.6313,0.0407,9.1735,-0.0509,0.1077,-0.1312,-1.3552286338857193,-0.21652738749980927,0.5966171026229858,-1.8586816787719727,0.2885008454322815,2.415112018585205,4.4618865686604,-0.0022324004676193,0.19148650765419006,-1.596614185963766,0.0,0.04387062042951584,0.7980086207389832,-0.0,0.006016439758241177,0.8104315400123596,-1.5909033390658908e-37,-0.08631181716918945
424.0,362.0,1.6313,0.0407,9.1735,-0.0509,0.1077,-0.1312,-1.3565175992301484,-0.2112695425748825,0.6801836490631104,-1.8570060729980469,0.28345513343811035,2.425489664077759,4.461883707637451,-0.00112816970795393,0.19723926484584808,-1.5966180006610315,0.0,0.05198179930448532,0.7980607748031616,-0.0,-0.008332539349794388,0.8104072213172913,-3.839557792249999e-43,-0.12866884469985962
424.0,362.0,1.6313,0.0407,9.1735,-0.0509,0.1077,-0.1312,-1.3582346898368378,-0.2139013260602951,0.6443296670913696,-1.8546981811523438,0.2861849367618561,2.3490712642669678,4.4618751245686035,-0.000790282036177814,0.19739076495170593,-1.5966418425189417,0.0,0.059036970138549805,0.798024594783783,-0.0,-0.011929569765925407,0.8104153871536255,0.0,-0.10996374487876892
424.0,362.0,1.6313,0.0407,9.1735,-0.0509,0.1077,-0.1312,-1.3599395912936707,-0.22799257934093475,0.6080482006072998,-1.8524954319000244,0.2815075218677521,2.3409175872802734,4.46183888494458,-0.0017401223303750157,0.18588995933532715,-1.596626106892721,0.0,0.058628953993320465,0.7980325818061829,-0.0,0.005361479241400957,0.8104072213172913,0.0,-0.0856570154428482
424.0,362.0,1.6313,0.0407,9.1735,-0.0509,0.1077,-0.1312,-1.3613169652274628,-0.23232786357402802,0.653756856918335,-1.8508802652359009,0.27363768219947815,2.3376052379608154,4.461839838618896,-0.0055627841502428055,0.18370568752288818,-1.5965974966632288,0.0,0.05662115290760994,0.7979646921157837,-0.0,0.0004116178024560213,0.810411274433136,0.0,-0.07766720652580261
424.0,362.0,1.6313,0.0407,9.1735,-0.0509,0.1077,-0.1312,-1.3630856436542054,-0.23654675483703613,0.5667956471443176,-1.848644495010376,0.27809590101242065,2.391378402709961,4.461746855373047,-0.0028650991152971983,0.16939139366149902,-1.596626106892721,0.0,0.0565229207277298,0.7980247139930725,-0.0,-0.0021501495502889156,0.810379147529602,-0.0002135454851668328,-0.09563453495502472
424.0,362.0,1.6313,0.0407,9.1735,-0.0509,0.1077,-0.1312,-1.3645070952228089,-0.23398010432720184,0.6226899027824402,-1.8469759225845337,0.2745748460292816,2.3893957138061523,4.461743040675781,-0.0029224392492324114,0.16456899046897888,-1.5966814200030726,0.0,0.05220776051282883,0.7980247139930725,-0.0,0.004516751039773226,0.8104879856109619,-0.0002231835969723761,-0.0933358371257782
424.0,362.0,1.6313,0.0407,9.1735,-0.0509,0.1077,-0.1312,-1.36640419185672,-0.23441214859485626,0.5934776067733765,-1.844807744026184,0.26704302430152893,2.369708776473999,4.461739702815674,-0.0044592455960810184,0.18255388736724854,-1.5966218153582972,0.0,0.06969977170228958,0.7979804277420044,-0.0,-0.003627619706094265,0.8103994131088257,-0.0001954838226083666,-0.1354651302099228
424.0,362.0,1.6313,0.0407,9.1735,-0.0509,0.1077,-0.1312,-1.3678648334792634,-0.24546630680561066,0.6151531934738159,-1.8431676626205444,0.2687388062477112,2.3514962196350098,4.461723013515137,-0.00445544021204114,0.1824474334716797,-1.5966456572162073,0.0,0.06755191087722778,0.797972559928894,-0.0,-0.010069211944937706,0.8103873133659363,-0.00017883609689306468,-0.13509082794189453
424.0,362.0,1.6313,0.0407,9.1735,-0.0509,0.1077,-0.1312,-1.3699147266200562,-0.25490936636924744,0.6149053573608398,-1.8409990072250366,0.26412734389305115,2.3670997619628906,4.46171156942334,-0.003815996227785945,0.18122035264968872,-1.5966337362872522,0.0,0.06759332120418549,0.798024594783783,-0.0,-0.0008075528312474489,0.8103953003883362,-0.00018343509873375297,-0.13291727006435394
424.0,362.0,1.6313,0.0407,9.1735,-0.0509,0.1077,-0.1312,-1.3719999951175232,-0.25234636664390564,0.633253812789917,-1.8388996124267578,0.26038065552711487,2.293909788131714,4.461751623744629,-0.0013096000766381621,0.1996641755104065,-1.5966656843768519,0.0,0.08190113306045532,0.7979646921157837,-0.0,0.00406061764806509,0.8103629946708679,-0.00022142213128972799,-0.17009466886520386
419.0,368.0,1.4871,0.1292,9.3661,-0.0354,0.0009,-0.1034,-1.3735610407641907,-0.2581666111946106,0.6226423978805542,-1.8373141288757324,0.25974905490875244,2.350827693939209,4.46168772756543,-0.0008051551994867623,0.1765047311782837,-1.5966456572162073,0.0,0.06541936099529266,0.7980207204818726,-0.0,-0.007080419454723597,0.8104113340377808,-0.0001929422578541562,-0.17103108763694763
419.0,368.0,1.4871,0.1292,9.3661,-0.0354,0.0009,-0.1034,-1.3757306796363373,-0.2644830346107483,0.6141412854194641,-1.8352222442626953,0.25631511211395264,2.3435535430908203,4.46167962133374,-0.0001686635660007596,0.1826886087656021,-1.596609894429342,0.0,0.07360690087080002,0.798036515712738,-0.0,0.007340240757912397,0.8104194402694702,-0.00019763311138376594,-0.19142436981201172
419.0,368.0,1.4871,0.1292,9.3661,-0.0354,0.0009,-0.1034,-1.3773276817849656,-0.26054975390434265,0.6574759483337402,-1.8336846828460693,0.2562805712223053,2.3451898097991943,4.46168772756543,-0.00013132339518051594,0.18847441673278809,-1.5965974966632288,6.211131221789401e-06,0.06522445380687714,0.7980567216873169,-0.0,-0.002982479752972722,0.8103994131088257,-0.00020761961059179157,-0.17057567834854126
419.0,368.0,1.4871,0.1292,9.3661,-0.0354,0.0009,-0.1034,-1.379469395881035,-0.2681784927845001,0.6793031692504883,-1.8316805362701416,0.254028856754303,2.3640027046203613,4.46168772756543,-0.00015066117339301854,0.19064843654632568,-1.5966218153582972,1.128842505582206e-10,0.06833113729953766,0.7979726791381836,-0.0,-0.008020934648811817,0.8104233741760254,-0.00018354806525167078,-0.21117286384105682
419.0,368.0,1.4871,0.1292,9.3661,-0.0354,0.0009,-0.1034,-1.3815902185491105,-0.2788360118865967,0.6829824447631836,-1.8297159671783447,0.2474668025970459,2.361595630645752,4.4617039400288085,-0.0001658076944295317,0.18745869398117065,-1.596609894429342,2.051615442203586e-15,0.06277509033679962,0.7979726195335388,-0.0,0.00718569103628397,0.8103996515274048,-0.0001643901050556451,-0.10941179096698761
419.0,368.0,1.4871,0.1292,9.3661,-0.0354,0.0009,-0.1034,-1.3832634848407288,-0.27758970856666565,0.6718196868896484,-1.8281980752944946,0.2507602274417877,2.346494436264038,4.4617039400288085,-0.0001456848840462044,0.17492026090621948,-1.5966218153582972,5.710746898598588e-19,0.07336512207984924,0.7979567646980286,-0.0,-0.00011901860125362873,0.8103914260864258,-0.00017423374811187387,-0.17873528599739075
419.0,368.0,1.4871,0.1292,9.3661,-0.0354,0.0009,-0.1034,-1.3854525995305558,-0.2855871319770813,0.692627489566803,-1.8261704444885254,0.24717523157596588,2.3106625080108643,4.46168772756543,-9.459067223360762e-05,0.19046340882778168,-1.5965855757342737,1.0379001909225781e-23,0.08121749758720398,0.7979606986045837,-0.0,-0.019178928807377815,0.8103914260864258,-0.00022984834504313767,-0.21016795933246613
419.0,368.0,1.4871,0.1292,9.3661,-0.0354,0.0009,-0.1034,-1.3871822369149704,-0.28042083978652954,0.7083638906478882,-1.8246691226959229,0.24700024724006653,2.2950034141540527,4.46168772756543,3.4406897611916065e-05,0.20803150534629822,-1.596626106892721,2.8890331983508608e-27,0.0710277408361435,0.7979925274848938,-0.0,-0.0054133012890815735,0.8103834986686707,-0.00023891647288110107,-0.20364834368228912
419.0,368.0,1.4871,0.1292,9.3661,-0.0354,0.0009,-0.1034,-1.3894515496543427,-0.2804889380931854,0.711307168006897,-1.822676420211792,0.2570106089115143,2.3477892875671387,4.461675329799316,1.6839940144564025e-05,0.19938141107559204,-1.5965898672686976,5.250674656365977e-32,0.08290578424930573,0.7979647517204285,-0.0,-0.006845282390713692,0.8103591203689575,-0.0004998967051506042,-0.1540483981370926
419.0,368.0,1.4871,0.1292,9.3661,-0.0354,0.0009,-0.1034,-1.3917174351266404,-0.2873651385307312,0.7410973310470581,-1.8207160234451294,0.24915990233421326,2.313760757446289,4.461651487941406,3.0605759593349546e-10,0.18663206696510315,-1.596609894429342,9.542842542052004e-37,0.06437601894140244,0.7979647517204285,-0.0,-0.010870233178138733,0.8103269338607788,-0.0003648076090030372,-0.17917375266551971
419.0,368.0,1.4871,0.1292,9.3661,-0.0354,0.0009,-0.1034,-1.3934593957713624,-0.29278668761253357,0.7144119739532471,-1.819183349609375,0.2510209083557129,2.3124289512634277,4.46167962133374,8.5192269905221e-14,0.1859976351261139,-1.5966056028949183,2.65628735598948e-40,0.07590368390083313,0.797992467880249,-0.0,-0.0038235916290432215,0.8104037642478943,-0.00030332215828821063,-0.17623090744018555
419.0,368.0,1.4871,0.1292,9.3661,-0.0354,0.0009,-0.1034,-1.3957201552442093,-0.2965170741081238,0.6884832978248596,-1.817158818244934,0.2613745331764221,2.363701820373535,4.461695356959961,1.5483276307198735e-18,0.20015349984169006,-1.5966017881976526,4.203895392974451e-45,0.08611476421356201,0.798004686832428,-0.0,0.007156488485634327,0.8103793859481812,-0.0002476693189237267,-0.18947474658489227
419.0,368.0,1.4871,0.1292,9.3661,-0.0354,0.0009,-0.1034,-1.3975138080171128,-0.294535756111145,0.7558623552322388,-1.8156334161758423,0.25605684518814087,2.3559536933898926,4.461736364955566,4.309826571309453e-22,0.20215299725532532,-1.5966218153582972,0.0,0.09652560949325562,0.7980246543884277,-0.0,-0.0005496545927599072,0.8103996515274048,-0.00029010765138082206,-0.1899595558643341
422.0,356.0,1.7216,-0.1214,9.9697,-0.0522,0.0046,-0.1112,-1.399871290927269,-0.29832303524017334,0.7066010236740112,-1.8134814500808716,0.2566872835159302,2.368816375732422,4.461707277888916,7.83289729152284e-27,0.19676855206489563,-1.596614185963766,0.0,0.08232254534959793,0.7979806065559387,-0.0,-0.0012977170990779996,0.8103955388069153,-0.0002041339612333104,-0.19732415676116943
422.0,356.0,1.7216,-0.1214,9.9697,-0.0522,0.0046,-0.1112,-1.4023119372180481,-0.29231563210487366,0.7784852981567383,-1.8113324642181396,0.26746952533721924,2.39967679977417,4.461764021510742,1.4235903093754818e-31,0.19126179814338684,-1.5965898672686976,0.0,0.08018915355205536,0.7979488372802734,-0.0,-0.01580454409122467,0.8103793859481812,-0.00017278071027249098,-0.2057400941848755
422.0,356.0,1.7216,-0.1214,9.9697,-0.0522,0.0046,-0.1112,-1.4041000616601487,-0.29318463802337646,0.7824194431304932,-1.809787631034851,0.26526471972465515,2.361196756362915,4.461695356959961,3.9626155634396727e-35,0.20382820069789886,-1.5966137091266077,0.0,0.07745622843503952,0.798016369342804,-0.0,-0.014624202623963356,0.8103834986686707,-0.00018586928490549326,-0.2185412347316742
422.0,356.0,1.7216,-0.1214,9.9697,-0.0522,0.0046,-0.1112,-1.4065963935903092,-0.30452287197113037,0.7946597337722778,-1.8076592683792114,0.2640727460384369,2.3876218795776367,4.461723967189453,7.201861353520251e-40,0.21340930461883545,-1.5965898672686976,0.0,0.07927289605140686,0.7979806065559387,-0.0,0.007783424574881792,0.8103834986686707,-0.00016341457376256585,-0.22945094108581543
422.0,356.0,1.7216,-0.1214,9.9697,-0.0522,0.0046,-0.1112,-1.408383847480156,-0.2991052567958832,0.8303612470626831,-1.8060427904129028,0.26490435004234314,2.3568453788757324,4.461736364955566,2.0038568039844884e-43,0.21045565605163574,-1.5966218153582972,0.0,0.0843682512640953,0.7979130148887634,-0.0,0.0005398527719080448,0.8104239702224731,-0.00014981336425989866,-0.19689282774925232
422.0,356.0,1.7216,-0.1214,9.9697,-0.0522,0.0046,-0.1112,-1.410807804470398,-0.3040087819099426,0.8108252286911011,-1.8039588928222656,0.2678205370903015,2.394239664077759,4.4617320734211425,0.0,0.2081480175256729,-1.596638027821676,0.0,0.08204279094934464,0.7979846000671387,-0.0,-0.0002911267802119255,0.8103591203689575,-0.0001572870824020356,-0.22677457332611084
422.0,356.0,1.7216,-0.1214,9.9697,-0.0522,0.0046,-0.1112,-1.4126120519689103,-0.30482950806617737,0.8411566019058228,-1.8023775815963745,0.26930883526802063,2.415970802307129,4.46168772756543,7.795631245244294e-05,0.20473316311836243,-1.5966218153582972,0.0,0.08083975315093994,0.7979965209960938,-0.0,0.0006838312838226557,0.810371458530426,-0.00014635882689617574,-0.21557751297950745
422.0,356.0,1.7216,-0.1214,9.9697,-0.0522,0.0046,-0.1112,-1.4149319392493744,-0.29607853293418884,0.8918805122375488,-1.8001689910888672,0.2698514759540558,2.3932905197143555,4.4617039400288085,-0.00016689625044818968,0.20036789774894714,-1.5965936819659632,0.0,0.09273947775363922,0.7979528307914734,-0.0,-0.0031635763589292765,0.8103471398353577,-0.00015304521366488189,-0.2376118302345276
422.0,356.0,1.7216,-0.1214,9.9697,-0.0522,0.0046,-0.1112,-1.4173923593810578,-0.3006976842880249,0.8438929915428162,-1.7980247735977173,0.27651122212409973,2.380784749984741,4.46168772756543,-1.037797233038873e-06,0.20982034504413605,-1.5966218153582972,0.0,0.094399094581604,0.7979249954223633,-0.0,0.004238992463797331,0.8103352189064026,-0.00014036716311238706,-0.2492569088935852
422.0,356.0,1.7216,-0.1214,9.9697,-0.0522,0.0046,-0.1112,-1.4191440355828782,-0.2955382764339447,0.831529974937439,-1.7963402271270752,0.2789076268672943,2.403394937515259,4.4617039400288085,-2.888746741813719e-10,0.20878975093364716,-1.5966456572162073,0.0,0.08930505812168121,0.7980004549026489,-0.0,-0.008341409265995026,0.8103593587875366,-0.00015398520918097347,-0.23622259497642517
422.0,356.0,1.7216,-0.1214,9.9697,-0.0522,0.0046,-0.1112,-1.4214801353267212,-0.29576531052589417,0.8381972312927246,-1.7941960096359253,0.2754780948162079,2.3703761100769043,4.4617039400288085,-5.250154576087436e-15,0.20139233767986298,-1.5966094175921839,0.0,0.08878962695598602,0.7979527711868286,-0.0,-0.00010183930862694979,0.8103511929512024,-0.00013825297355651855,-0.2029138207435608
422.0,356.0,1.7216,-0.1214,9.9697,-0.0522,0.0046,-0.1112,-1.423256592159607,-0.2965385913848877,0.8649789094924927,-1.7924624681472778,0.28163018822669983,2.410984992980957,4.461683436031006,-1.4614000473272884e-18,0.20777496695518494,-1.5966337362872522,0.0,0.08364830911159515,0.797976553440094,-0.0,-0.009711367078125477,0.8103190660476685,-0.0001496893382864073,-0.24387650191783905
420.0,365.0,2.0889,-0.0939,9.7328,-0.0522,0.005,-0.1106,-1.4256003361991425,-0.29749956727027893,0.839738130569458,-1.7902390956878662,0.2831824719905853,2.3843579292297363,4.4616309839436035,-2.6560220926758664e-23,0.1974259316921234,-1.5965936819659632,0.0,0.08693785965442657,0.7979925274848938,-0.0,-0.00969513040035963,0.8103593587875366,-0.00025816468405537307,-0.19981709122657776
420.0,365.0,2.0889,-0.0939,9.7328,-0.0522,0.005,-0.1106,-1.42794422925029,-0.29385024309158325,0.9012612104415894,-1.7879831790924072,0.284233421087265,2.4016571044921875,4.461662932033203,-4.827189331211056e-28,0.2045648992061615,-1.596581761037008,0.0,0.09459366649389267,0.7979766130447388,-0.0,0.006131350994110107,0.8103516101837158,-0.0011163112940266728,-0.25036224722862244
420.0,365.0,2.0889,-0.0939,9.7328,-0.0522,0.005,-0.1106,-1.4297329944423218,-0.29022467136383057,0.8406573534011841,-1.7862656116485596,0.29080215096473694,2.4306650161743164,4.46168772756543,-1.3436659799249377e-31,0.22132551670074463,-1.5965855757342737,0.0,0.0956755205988884,0.7979726195335388,-0.0,0.0026250563096255064,0.8103757500648499,-0.001184560707770288,-0.25631728768348694
420.0,365.0,2.0889,-0.0939,9.7328,-0.0522,0.005,-0.1106,-1.432080165748932,-0.29121047258377075,0.8997693061828613,-1.7840394973754883,0.2858785092830658,2.3915488719940186,4.461691542262695,-0.0002179106668336317,0.18963289260864258,-1.5965498129474085,0.0,0.09002414345741272,0.797992467880249,-0.0,-0.002987347776070237,0.8103313446044922,-0.0015247054398059845,-0.2407446801662445
420.0,365.0,2.0889,-0.0939,9.7328,-0.0522,0.005,-0.1106,-1.4338844281486054,-0.28586483001708984,0.8908830881118774,-1.7821826934814453,0.2862268090248108,2.411356210708618,4.46168772756543,-0.00016376397979911417,0.1957152783870697,-1.5965660254107874,0.0,0.0989271029829979,0.7979210615158081,-0.0,0.00240432214923203,0.8103110790252686,-0.0025780447758734226,-0.25011590123176575
420.0,365.0,2.0889,-0.0939,9.7328,-0.0522,0.005,-0.1106,-1.436244399552681,-0.2929147779941559,0.9285238981246948,-1.7798413038253784,0.2940160036087036,2.381044387817383,4.46163193761792,-0.00014289449609350413,0.19808565080165863,-1.5966056028949183,0.0,0.09821146726608276,0.7979648113250732,-0.0,-0.011758480221033096,0.810275137424469,-0.005602546967566013,-0.28426074981689453
420.0,365.0,2.0889,-0.0939,9.7328,-0.0522,0.005,-0.1106,-1.4386931371739884,-0.2941959798336029,0.8842865824699402,-1.7775477170944214,0.2906380891799927,2.4089126586914062,4.461719675655029,-0.00015214583254419267,0.17738744616508484,-1.5965855757342737,0.0,0.10472451150417328,0.7980206608772278,-0.0,-0.007670354563742876,0.8102596402168274,-0.007082243449985981,-0.2615339159965515
420.0,365.0,2.0889,-0.0939,9.7328,-0.0522,0.005,-0.1106,-1.4404572409442444,-0.2912288308143616,0.9553813934326172,-1.7757397890090942,0.2919822931289673,2.3544232845306396,4.46167962133374,-0.00016058885375969112,0.20022812485694885,-1.596586052571432,1.0470140296092723e-05,0.09691986441612244,0.7979885339736938,-0.0,-0.008236328139901161,0.8101591467857361,-0.00563524616882205,-0.2590324878692627
420.0,365.0,2.0889,-0.0939,9.7328,-0.0522,0.005,-0.1106,-1.4428215336850663,-0.2984236776828766,0.8640519380569458,-1.773390293121338,0.2895534336566925,2.3963165283203125,4.461651487941406,-0.00016943509399425238,0.18859413266181946,-1.5965936819659632,1.9028961739664396e-10,0.09178095310926437,0.7979766130447388,-0.0,-0.002278877655044198,0.8101269006729126,-0.003295124974101782,-0.3014005720615387
420.0,365.0,2.0889,-0.0939,9.7328,-0.0522,0.005,-0.1106,-1.4445253175548096,-0.2943602204322815,0.9338797926902771,-1.7716783285140991,0.2910519242286682,2.350919008255005,4.461639090175293,-0.00015826718299649656,0.18619371950626373,-1.5966056028949183,5.2967819610645964e-14,0.10008218884468079,0.7979409098625183,-0.0,0.008070516400039196,0.8101550936698914,-0.0017574839293956757,-0.3106081783771515
420.0,365.0,2.0889,-0.0939,9.7328,-0.0522,0.005,-0.1106,-1.4468050983599205,-0.29301580786705017,0.9649080038070679,-1.769336462020874,0.2917722165584564,2.418152332305908,4.461640043849609,-0.00019411908579058945,0.17779646813869476,-1.5965378920184534,9.626640080952052e-19,0.11264914274215698,0.7979568243026733,-0.0,0.0029389793053269386,0.8101469278335571,-0.000909705413505435,-0.31660935282707214
420.0,365.0,2.0889,-0.0939,9.7328,-0.0522,0.005,-0.1106,-1.4486220341971894,-0.2953583002090454,0.887938380241394,-1.7676211595535278,0.2935757637023926,2.363018035888672,4.4616638857075195,-0.0002343151136301458,0.19447937607765198,-1.5966056028949183,2.679610295919423e-22,0.10820832848548889,0.7979766130447388,-0.0,0.005318931303918362,0.8101469874382019,-0.0005732054705731571,-0.3001312017440796
420.0,365.0,2.0889,-0.0939,9.7328,-0.0522,0.005,-0.1106,-1.4508856397918244,-0.28746044635772705,0.9239927530288696,-1.7653157711029053,0.29665279388427734,2.434624195098877,4.461647196406982,-0.00048128500930033624,0.17341002821922302,-1.5966056028949183,4.870058220657182e-27,0.09284980595111847,0.7979766130447388,-0.0,-0.00805408414453268,0.8101311922073364,-0.0006613417062908411,-0.3114694058895111
394.0,352.0,2.3276,0.3601,9.2471,-0.0279,0.0053,-0.1132,-1.4531731990030785,-0.289341539144516,0.9603718519210815,-1.7629368305206299,0.2906988561153412,2.361880302429199,4.461644335384033,-0.0004885023809038103,0.17483413219451904,-1.5965898672686976,8.851088662786281e-32,0.12037402391433716,0.7979646921157837,-0.0,-0.005934803746640682,0.8101309537887573,-0.0004191610205452889,-0.3042643368244171
394.0,352.0,2.3276,0.3601,9.2471,-0.0279,0.0053,-0.1132,-1.4549215969494362,-0.29151421785354614,0.9548428058624268,-1.7611581087112427,0.29475337266921997,2.3968353271484375,4.46163193761792,-0.00044034558231942356,0.1668764352798462,-1.5965974966632288,2.4637331313762624e-35,0.10818279534578323,0.7979766130447388,-0.0,0.011071626096963882,0.8101835250854492,-0.0002620857849251479,-0.28041231632232666
394.0,352.0,2.3276,0.3601,9.2471,-0.0279,0.0053,-0.1132,-1.45722600192342,-0.29293349385261536,0.9610530138015747,-1.758874773979187,0.29278504848480225,2.3341708183288574,4.461620493526123,-0.0009436405962333083,0.16828888654708862,-1.5965541044818323,4.4777091129035205e-40,0.11205688118934631,0.798024594783783,-0.0,-0.0035951121244579554,0.8101752996444702,-9.134667925536633e-05,-0.2817520499229431
394.0,352.0,2.3276,0.3601,9.2471,-0.0279,0.0053,-0.1132,-1.4589421537569542,-0.29247966408729553,0.9636881947517395,-1.757151484489441,0.29381924867630005,2.373460054397583,4.461616201991699,-0.0007417725864797831,0.18032412230968475,-1.5965898672686976,1.2471556332490872e-43,0.12445905804634094,0.7979289889335632,-0.0,-0.017721598967909813,0.8101633191108704,-0.00012156588491052389,-0.3553107976913452
394.0,352.0,2.3276,0.3601,9.2471,-0.0279,0.0053,-0.1132,-1.461173416381218,-0.2883383631706238,1.0082675218582153,-1.7548341751098633,0.3030107617378235,2.349213123321533,4.461599512691162,-0.0005709700635634363,0.18024370074272156,-1.5965459982501429,0.0,0.0991383045911789,0.7979607582092285,-0.0,-0.012527573853731155,0.8101673722267151,-0.00019086548127233982,-0.24530130624771118
394.0,352.0,2.3276,0.3601,9.2471,-0.0279,0.0053,-0.1132,-1.4635734421065827,-0.28562915325164795,0.9515914916992188,-1.7523763179779053,0.29676589369773865,2.351774215698242,4.4616357523151855,-0.00044269999489188194,0.17355303466320038,-1.5965898672686976,0.0,0.1115814745426178,0.7979647517204285,-0.0,-0.010067357681691647,0.8101351261138916,-0.000444447563495487,-0.3188911974430084
394.0,352.0,2.3276,0.3601,9.2471,-0.0279,0.0053,-0.1132,-1.4653239485672493,-0.27898073196411133,1.0097999572753906,-1.750525712966919,0.29989945888519287,2.3642303943634033,4.461595697993896,-0.00029724743217229843,0.17160679399967194,-1.5965936819659632,0.0,0.12157148122787476,0.7979806661605835,-0.0,-0.0016162858810275793,0.8101592063903809,-0.00037381603033281863,-0.3016168177127838
394.0,352.0,2.3276,0.3601,9.2471,-0.0279,0.0053,-0.1132,-1.4676332932761689,-0.28974229097366333,0.992066502571106,-1.748119592666626,0.3029385805130005,2.4054479598999023,4.461588068599365,-0.0002811831363942474,0.19304513931274414,-1.596626106892721,0.0,0.09487268328666687,0.7979885339736938,-0.0,-0.009273726493120193,0.8101673722267151,-0.0002927416644524783,-0.30513429641723633
394.0,352.0,2.3276,0.3601,9.2471,-0.0279,0.0053,-0.1132,-1.4694285628250618,-0.2907148599624634,1.0103658437728882,-1.7462364435195923,0.29873695969581604,2.355618476867676,4.461592360133789,-0.0002837162173818797,0.17512816190719604,-1.5966218153582972,0.0,0.10941696166992188,0.7980285882949829,-0.0,-0.00580555060878396,0.8101432919502258,-0.00028877510339953005,-0.2662307620048523
394.0,352.0,2.3276,0.3601,9.2471,-0.0279,0.0053,-0.1132,-1.4717256513288994,-0.28509312868118286,0.998115062713623,-1.7437701225280762,0.3000119626522064,2.381160259246826,4.461624308223389,-0.00015362678095698357,0.17461471259593964,-1.596626106892721,0.0,0.10121014714241028,0.7979687452316284,-0.0,-4.4782296754419804e-05,0.8101152777671814,-0.00028435394051484764,-0.3000414967536926
394.0,352.0,2.3276,0.3601,9.2471,-0.0279,0.0053,-0.1132,-1.4740164291909714,-0.2877519130706787,1.0408961772918701,-1.7414530515670776,0.29738956689834595,2.3785195350646973,4.46160809576001,-0.00012752364273183048,0.17684698104858398,-1.5965855757342737,0.0,0.12070177495479584,0.7979648113250732,-0.0,-0.0035518878139555454,0.8101070523262024,-0.00031078566098585725,-0.2833068072795868
394.0,352.0,2.3276,0.3601,9.2471,-0.0279,0.0053,-0.1132,-1.475717970435955,-0.2828194797039032,1.0591073036193848,-1.7396059036254883,0.30080628395080566,2.4202797412872314,4.461595697993896,-0.00011169361096108332,0.18844527006149292,-1.5965936819659632,0.0,0.10716770589351654,0.7980004549026489,-0.0,-0.002953397575765848,0.8101432919502258,-0.000270882184850052,-0.27117985486984253
394.0,352.0,2.3276,0.3601,9.2471,-0.0279,0.0053,-0.1132,-1.478012965326645,-0.28158092498779297,1.0579986572265625,-1.7372673749923706,0.29706627130508423,2.353585720062256,4.461588068599365,-0.00012721460370812565,0.18220330774784088,-1.5965459982501429,0.0,0.10438127815723419,0.7979369759559631,-0.0,-0.01464261393994093,0.8101432919502258,-0.00026414665626361966,-0.3454134464263916
439.0,390.0,2.0321,0.2614,9.4469,-0.0234,0.0374,-0.1173,-1.4796146166375657,-0.284638911485672,1.029528260231018,-1.7354834079742432,0.298127681016922,2.356595277786255,4.461563749904297,-0.00015646529209334403,0.1818789839744568,-1.5965936819659632,0.0,0.11775630712509155,0.7979965209960938,-0.0,-0.00782197155058384,0.8101311922073364,-0.00031998768099583685,-0.3128364682197571
