ramyac6/ROB537/final_project/csv/all/bad_175.csv
tof_0,tof_1,accelx,accely,accelz,gyrox,gyroy,gyroz,shoulder_lift_joint_position,shoulder_lift_joint_velocity,shoulder_lift_joint_effort,elbow_joint_position,elbow_joint_velocity,elbow_joint_effort,wrist_1_joint_position,wrist_1_joint_velocity,wrist_1_joint_effort,wrist_2_joint_position,wrist_2_joint_velocity,wrist_2_joint_effort,wrist_3_joint_position,wrist_3_joint_velocity,wrist_3_joint_effort,shoulder_pan_joint_position,shoulder_pan_joint_velocity,shoulder_pan_joint_effort
205.0,736.0,-0.8518,4.2383,8.671,-0.0305,0.0217,-0.1176,-1.8911816082396449,0.0,3.4010510444641113,-1.6310943365097046,-0.0,2.069459915161133,4.918246018677511,0.0,0.28524914383888245,-1.987629238759176,0.0,0.035685695707798004,0.4356854259967804,0.0,-0.004496413748711348,0.9614339470863342,0.0,0.03418366611003876
205.0,736.0,-0.8518,4.2383,8.671,-0.0305,0.0217,-0.1176,-1.8911615810790003,0.0,3.3896284103393555,-1.6310299634933472,-0.0,2.0671188831329346,4.918210032373228,0.0,0.2829042673110962,-1.9875853697406214,0.0,0.029445795342326164,0.43572568893432617,0.0,-0.002561067696660757,0.9614138007164001,0.0,-0.0026497449725866318
205.0,736.0,-0.8518,4.2383,8.671,-0.0305,0.0217,-0.1176,-1.891149183312887,0.0,3.3845887184143066,-1.6310179233551025,-0.0,2.088543653488159,4.9181657312209985,0.0,0.27656203508377075,-1.9876135031329554,0.0,0.04449468478560448,0.4356572926044464,0.0,0.013876823708415031,0.9613937139511108,0.0,0.00033946376061066985
205.0,736.0,-0.8518,4.2383,8.671,-0.0305,0.0217,-0.1176,-1.8911816082396449,0.0,3.4388833045959473,-1.63105046749115,-0.0,2.0793559551239014,4.9182661948497675,0.0,0.2807449400424957,-1.9875934759723108,0.0,0.03688133507966995,0.4357532858848572,0.0,-0.000979495933279395,0.9614417552947998,0.0,0.006110673770308495
205.0,736.0,-0.8518,4.2383,8.671,-0.0305,0.0217,-0.1176,-1.8911572895445765,0.0,3.4235103130340576,-1.6310625076293945,-0.0,2.0646796226501465,4.918226021319189,0.0,0.29454177618026733,-1.9875934759723108,0.0,0.04331835359334946,0.4356493353843689,0.0,0.006204645615071058,0.9614216089248657,0.0,-0.04429805278778076
205.0,736.0,-0.8518,4.2383,8.671,-0.0305,0.0217,-0.1176,-1.8911334476866664,0.0,3.3776330947875977,-1.6310381889343262,-0.0,2.0567638874053955,4.918237942248144,0.0,0.28705671429634094,-1.9875934759723108,0.0,0.0428764671087265,0.4356972575187683,0.0,0.004439044743776321,0.9614822864532471,0.0,-0.01721285469830036
205.0,736.0,-0.8518,4.2383,8.671,-0.0305,0.0217,-0.1176,-1.8911296329894007,0.0,3.3893542289733887,-1.630997896194458,-0.0,2.095508098602295,4.918242040067472,0.0,0.27142608165740967,-1.9876335302936,0.0,0.03755790367722511,0.4357413351535797,0.0,-0.0076147750951349735,0.9614179134368896,0.0,-0.010808627121150494
205.0,736.0,-0.8518,4.2383,8.671,-0.0305,0.0217,-0.1176,-1.891149183312887,0.0,3.440483570098877,-1.6310501098632812,-0.0,2.049654722213745,4.918230119138517,0.0,0.2862493395805359,-1.9875815550433558,0.0,0.044223107397556305,0.435685396194458,0.0,-0.006488100625574589,0.9614580869674683,0.0,0.05484115332365036
205.0,736.0,-0.8518,4.2383,8.671,-0.0305,0.0217,-0.1176,-1.891125341454977,0.0,3.4210524559020996,-1.631066083908081,-0.0,2.030627727508545,4.918201836734571,0.0,0.27643200755119324,-1.9876135031329554,0.0,0.025436140596866608,0.4357134997844696,0.0,0.0029119900427758694,0.961453914642334,0.0,0.013504582457244396
205.0,736.0,-0.8518,4.2383,8.671,-0.0305,0.0217,-0.1176,-1.891137262383932,0.0,3.4731996059417725,-1.6309974193572998,-0.0,2.0509257316589355,4.9181940136249445,0.0,0.27337855100631714,-1.9876015822040003,0.0,0.032561659812927246,0.43574950098991394,0.0,0.007091657258570194,0.9614498019218445,0.0,-0.0215599462389946
206.0,735.0,-0.8459,4.3388,8.6213,-0.0344,0.029,-0.1148,-1.8911410770811976,0.0,3.3935728073120117,-1.631034016609192,-0.0,2.0218186378479004,4.918221938401022,0.0,0.28029072284698486,-1.9876015822040003,0.0,0.041885241866111755,0.43572142720222473,0.0,0.01762009784579277,0.9614458084106445,0.0,-0.015344003215432167
206.0,735.0,-0.8459,4.3388,8.6213,-0.0344,0.029,-0.1148,-1.891165395776266,0.0,3.430990695953369,-1.6310138702392578,-0.0,2.053344249725342,4.918217855482855,0.0,0.281136155128479,-1.9876254240619105,0.0,0.041561856865882874,0.4357294738292694,0.0,0.01457761600613594,0.9614138603210449,0.0,0.02811010181903839
206.0,735.0,-0.8459,4.3388,8.6213,-0.0344,0.029,-0.1148,-1.891153474847311,0.0,3.403899669647217,-1.6310217380523682,-0.0,2.066112995147705,4.918210017472067,0.0,0.27557677030563354,-1.9875934759723108,0.0,0.0317813903093338,0.4356454312801361,0.0,-0.012726526707410812,0.9614375829696655,0.0,0.042204178869724274
206.0,735.0,-0.8459,4.3388,8.6213,-0.0344,0.029,-0.1148,-1.891165395776266,0.0,3.3893158435821533,-1.6309814453125,-0.0,2.0799708366394043,4.918185832887449,0.0,0.28486546874046326,-1.9876015822040003,0.0,0.04629446938633919,0.4357176423072815,0.0,-0.006226150318980217,0.961445689201355,0.0,0.01126420870423317
206.0,735.0,-0.8459,4.3388,8.6213,-0.0344,0.029,-0.1148,-1.8911897144713343,0.0,3.3994836807250977,-1.6310944557189941,-0.0,2.0794219970703125,4.918210017472067,0.0,0.2778233587741852,-1.9876015822040003,0.0,0.02946115843951702,0.4356854259967804,0.0,0.014941401779651642,0.9614335298538208,0.0,0.005670703016221523
206.0,735.0,-0.8459,4.3388,8.6213,-0.0344,0.029,-0.1148,-1.8911854229369105,0.0,3.3572139739990234,-1.6310014724731445,-0.0,2.0588014125823975,4.918221938401022,0.0,0.2780676782131195,-1.9876135031329554,0.0,0.028214680030941963,0.43572163581848145,0.0,0.0015211200807243586,0.9614298343658447,0.0,0.034576959908008575
206.0,735.0,-0.8459,4.3388,8.6213,-0.0344,0.029,-0.1148,-1.8911892376341761,0.0,3.4600653648376465,-1.6310464143753052,-0.0,2.045466423034668,4.9182059345538995,0.0,0.2899457812309265,-1.9876015822040003,0.0,0.03914328292012215,0.43572545051574707,0.0,0.004880253691226244,0.9614905714988708,0.0,0.003367852419614792
206.0,735.0,-0.8459,4.3388,8.6213,-0.0344,0.029,-0.1148,-1.8911453686156214,0.0,3.4286365509033203,-1.6310175657272339,-0.0,2.0523996353149414,4.918210017472067,0.0,0.2809479832649231,-1.9875972906695765,0.0,0.039811477065086365,0.4356735050678253,0.0,0.010227207094430923,0.9614015817642212,0.0,0.015994222834706306
206.0,735.0,-0.8459,4.3388,8.6213,-0.0344,0.029,-0.1148,-1.8911415539183558,0.0,3.482391595840454,-1.6310542821884155,-0.0,2.111600637435913,4.9182059345538995,0.0,0.286991149187088,-1.9875815550433558,0.0,0.041098833084106445,0.43568944931030273,0.0,0.023153306916356087,0.9614174962043762,0.0,-0.0321890190243721
206.0,735.0,-0.8459,4.3388,8.6213,-0.0344,0.029,-0.1148,-1.891165395776266,0.0,3.3984408378601074,-1.631025791168213,-0.0,2.058162212371826,4.918217855482855,0.0,0.28808170557022095,-1.987593952809469,0.0,0.03709949553012848,0.4356972873210907,0.0,0.011400973424315453,0.9614859223365784,0.0,0.007111106999218464
206.0,735.0,-0.8459,4.3388,8.6213,-0.0344,0.029,-0.1148,-1.891137262383932,0.0,3.423893928527832,-1.631025791168213,-0.0,2.030456066131592,4.918226021319189,0.0,0.2790043354034424,-1.9876335302936,0.0,0.04327212646603584,0.4357335567474365,0.0,0.014706864021718502,0.9613896012306213,0.0,-0.021760953590273857
206.0,735.0,-0.8459,4.3388,8.6213,-0.0344,0.029,-0.1148,-1.8911129436888636,0.0,3.4163739681243896,-1.631034016609192,-0.0,2.0412817001342773,4.91821368315772,0.0,0.2847837805747986,-1.9875896612750452,0.0,0.03562048450112343,0.435669481754303,0.0,-0.0025382477324455976,0.9614056348800659,0.0,0.006013745442032814
206.0,735.0,-0.8459,4.3388,8.6213,-0.0344,0.029,-0.1148,-1.8911615810790003,0.0,3.388540029525757,-1.6310464143753052,-0.0,2.090052843093872,4.918237942248144,0.0,0.28195416927337646,-1.9876096884356897,0.0,0.05164588242769241,0.4356972873210907,0.0,-0.01063121110200882,0.9614174962043762,0.0,-0.009447658434510231
206.0,735.0,-0.8459,4.3388,8.6213,-0.0344,0.029,-0.1148,-1.8911215267577113,0.0,3.4088377952575684,-1.631034016609192,-0.0,2.077536106109619,4.918241935759344,0.0,0.28737857937812805,-1.9876096884356897,0.0,0.0402364507317543,0.4357535243034363,0.0,0.002615496050566435,0.9614375829696655,0.0,-0.00507782120257616
206.0,735.0,-0.8459,4.3388,8.6213,-0.0344,0.029,-0.1148,-1.8911854229369105,0.0,3.391845226287842,-1.6310101747512817,-0.0,2.0443410873413086,4.918274330883779,0.0,0.2764676809310913,-1.9876535574542444,0.0,0.04093019664287567,0.4357094168663025,0.0,-0.002846913645043969,0.9614138007164001,0.0,0.031599290668964386
206.0,735.0,-0.8459,4.3388,8.6213,-0.0344,0.029,-0.1148,-1.891153474847311,0.0,3.3819618225097656,-1.6310862302780151,-0.0,2.0829222202301025,4.918222281127729,0.0,0.2881574332714081,-1.9876216093646448,0.0,0.029023107141256332,0.435713529586792,0.0,-0.005189821124076843,0.9614818096160889,0.0,-0.05174998566508293
206.0,735.0,-0.8459,4.3388,8.6213,-0.0344,0.029,-0.1148,-1.8911696873106898,0.0,3.3822879791259766,-1.6310542821884155,-0.0,2.008302927017212,4.918270247965612,0.0,0.2852575480937958,-1.9875896612750452,0.0,0.024408727884292603,0.43566927313804626,0.0,-0.004030677489936352,0.9614417552947998,0.0,0.02646133303642273
206.0,735.0,-0.8459,4.3388,8.6213,-0.0344,0.029,-0.1148,-1.8911291561522425,0.0,3.4354090690612793,-1.631042242050171,-0.0,2.0584473609924316,4.918262454658308,0.0,0.29989585280418396,-1.9876092115985315,0.0,0.03715868294239044,0.4356735050678253,0.0,-0.0037449642550200224,0.961462140083313,0.0,0.02691667713224888
206.0,735.0,-0.8459,4.3388,8.6213,-0.0344,0.029,-0.1148,-1.8911935291686,0.0,3.403982639312744,-1.6310501098632812,-0.0,2.0735371112823486,4.918197664409437,0.0,0.2820868492126465,-1.9876335302936,0.0,0.0324811115860939,0.4357335567474365,0.0,0.005400753580033779,0.961453914642334,-3.2728930676739765e-10,0.04649331048130989
198.0,725.0,-0.9296,4.2963,8.8283,-0.0258,0.0249,-0.1199,-1.8911453686156214,0.0,3.41361665725708,-1.6310217380523682,-0.0,2.0846269130706787,4.918221938401022,0.0,0.29023271799087524,-1.9875934759723108,0.0,0.028733111917972565,0.4356813430786133,0.0,0.003797338344156742,0.9614298343658447,-5.891092464110209e-14,-0.01019489485770464
198.0,725.0,-0.9296,4.2963,8.8283,-0.0258,0.0249,-0.1199,-1.8911615810790003,0.0,3.3870856761932373,-1.6310784816741943,-0.0,2.078395128250122,4.918221938401022,0.0,0.29113563895225525,-1.9876254240619105,0.0,0.027895458042621613,0.4356972873210907,0.0,0.0008522093994542956,0.9614580869674683,-1.422629549179651e-19,-0.028413424268364906
198.0,725.0,-0.9296,4.2963,8.8283,-0.0258,0.0249,-0.1199,-1.891153474847311,0.0,3.3869857788085938,-1.6310583353042603,-0.0,2.0322959423065186,4.91824201026515,0.0,0.27967947721481323,-1.9875972906695765,0.0,0.0404505729675293,0.43574538826942444,0.0,0.008708550594747066,0.9614781141281128,-2.5606833613422948e-23,-0.03178288787603378
198.0,725.0,-0.9296,4.2963,8.8283,-0.0258,0.0249,-0.1199,-1.8911611042418421,0.0,3.3863284587860107,-1.6310094594955444,-0.0,2.0455827713012695,4.918233844428816,0.0,0.2849844694137573,-1.9876335302936,0.0,0.029158830642700195,0.43566539883613586,0.0,0.002282637869939208,0.9614375829696655,-4.6091393947674216e-27,0.021775059401988983
198.0,725.0,-0.9296,4.2963,8.8283,-0.0258,0.0249,-0.1199,-1.8911415539183558,0.0,3.404526472091675,-1.6310625076293945,-0.0,2.0433361530303955,4.918274330883779,0.0,0.2788362503051758,-1.9876177946673792,0.0,0.0326060876250267,0.43566539883613586,0.0,0.00678633525967598,0.9614740610122681,-1.1130530459957676e-32,0.023314427584409714
198.0,725.0,-0.9296,4.2963,8.8283,-0.0258,0.0249,-0.1199,-1.8911777935423792,0.0,3.413407325744629,-1.6310625076293945,-0.0,2.045454502105713,4.918254259019651,0.0,0.2729586362838745,-1.9876015822040003,0.0,0.04907195270061493,0.4357134997844696,0.0,0.012672833167016506,0.9614375829696655,5.521389175555669e-05,-0.0036496331449598074
198.0,725.0,-0.9296,4.2963,8.8283,-0.0258,0.0249,-0.1199,-1.891165395776266,0.0,3.4059457778930664,-1.6310299634933472,-0.0,2.083970546722412,4.918226006418028,0.0,0.2800704538822174,-1.9875815550433558,0.0,0.00920607428997755,0.4357413947582245,0.0,0.002319433493539691,0.9614736437797546,3.238958212747889e-09,0.04443207383155823
198.0,725.0,-0.9296,4.2963,8.8283,-0.0258,0.0249,-0.1199,-1.8911334476866664,0.0,3.4392778873443604,-1.6310583353042603,-0.0,2.062258005142212,4.918237942248144,0.0,0.2808157801628113,-1.9875972906695765,0.0,0.03379349783062935,0.435725599527359,0.0,0.0037711935583502054,0.961417555809021,5.83001149526835e-13,0.04059275984764099
198.0,725.0,-0.9296,4.2963,8.8283,-0.0258,0.0249,-0.1199,-1.8911215267577113,0.0,3.3813366889953613,-1.6310056447982788,-0.0,2.0446860790252686,4.918233859329977,0.0,0.2889007031917572,-1.9876096884356897,0.0,0.024438586086034775,0.4356735050678253,0.0,-0.00679420493543148,0.9614818096160889,1.407879186948423e-18,0.012850839644670486
198.0,725.0,-0.9296,4.2963,8.8283,-0.0258,0.0249,-0.1199,-1.891137262383932,0.0,3.4254374504089355,-1.6310138702392578,-0.0,2.0679726600646973,4.9181899456079385,0.0,0.29047173261642456,-1.9876297155963343,0.0,0.027776814997196198,0.4356852173805237,0.0,-0.0073358407244086266,0.9614298343658447,2.5341329853996333e-22,0.003124927170574665
198.0,725.0,-0.9296,4.2963,8.8283,-0.0258,0.0249,-0.1199,-1.891153474847311,0.0,3.407911777496338,-1.6310299634933472,-0.0,2.0870096683502197,4.918237957149305,0.0,0.27876919507980347,-1.9876373449908655,0.0,0.01669875718653202,0.435713529586792,0.0,-0.0013473860453814268,0.9614138603210449,4.561349677276188e-26,0.0035690907388925552
198.0,725.0,-0.9296,4.2963,8.8283,-0.0258,0.0249,-0.1199,-1.8911696873106898,0.0,3.396332025527954,-1.6309974193572998,-0.0,2.0302727222442627,4.918185892492094,0.0,0.28504276275634766,-1.9876135031329554,0.0,0.043520208448171616,0.43567734956741333,0.0,0.008787152357399464,0.9614138603210449,1.1015122628645852e-31,0.03042927011847496
198.0,725.0,-0.9296,4.2963,8.8283,-0.0258,0.0249,-0.1199,-1.891165395776266,0.0,3.417536497116089,-1.6310019493103027,-0.0,2.0656774044036865,4.918217855482855,0.0,0.2791493535041809,-1.9875972906695765,0.0,0.034017954021692276,0.43564552068710327,0.0,-0.006975332275032997,0.9614740610122681,1.9826833052607277e-35,-0.013306763954460621
198.0,725.0,-0.9296,4.2963,8.8283,-0.0258,0.0249,-0.1199,-1.891153474847311,0.0,3.4151599407196045,-1.6310542821884155,-0.0,2.109473705291748,4.918217855482855,0.0,0.2849705219268799,-1.9876416365252894,0.0,0.026501547545194626,0.43568944931030273,0.0,0.0033856076188385487,0.9614698886871338,4.787956592905035e-41,0.028679177165031433
198.0,725.0,-0.9296,4.2963,8.8283,-0.0258,0.0249,-0.1199,-1.8911854229369105,0.0,3.403261184692383,-1.631066083908081,-0.0,2.0635743141174316,4.918205919652738,0.0,0.2885218858718872,-1.9876135031329554,0.0,0.026683662086725235,0.435729444026947,0.0,0.015305200591683388,0.9614098072052002,8.407790785948902e-45,0.05452503636479378
198.0,725.0,-0.9296,4.2963,8.8283,-0.0258,0.0249,-0.1199,-1.8911334476866664,0.0,3.396238327026367,-1.631034016609192,-0.0,2.026007890701294,4.91821816840724,0.0,0.2798324227333069,-1.9876335302936,0.0,0.02779756858944893,0.43569323420524597,0.0,0.007057722192257643,0.9614174962043762,0.0,0.0036941124126315117
198.0,725.0,-0.9296,4.2963,8.8283,-0.0258,0.0249,-0.1199,-1.8911735020079554,0.0,3.4107565879821777,-1.6310299634933472,-0.0,2.0699539184570312,4.918226006418028,0.0,0.28766652941703796,-1.9876492659198206,0.0,0.0382707342505455,0.4357176125049591,0.0,0.0021335252095013857,0.9614740610122681,0.0,-0.006822226569056511
198.0,725.0,-0.9296,4.2963,8.8283,-0.0258,0.0249,-0.1199,-1.8911053142943324,0.0,3.386453151702881,-1.6310175657272339,-0.0,2.07564640045166,4.918225574284353,0.0,0.27476242184638977,-1.987572971974508,0.0,0.041517939418554306,0.4357534646987915,0.0,-0.003039140719920397,0.961453914642334,0.0,-0.0003056637942790985
198.0,725.0,-0.9296,4.2963,8.8283,-0.0258,0.0249,-0.1199,-1.8911215267577113,0.0,3.410170555114746,-1.630997896194458,-0.0,2.051429033279419,4.918237942248144,0.0,0.28838562965393066,-1.9875853697406214,0.0,0.03443329408764839,0.4357176125049591,0.0,0.0018137376755475998,0.9613855481147766,0.0,0.018821146339178085
208.0,735.0,-0.8339,4.3388,8.586,-0.0347,0.0241,-0.1182,-1.8911696873106898,0.0,3.410493850708008,-1.6310542821884155,-0.0,2.0238401889801025,4.918210017472067,0.0,0.27361464500427246,-1.9876177946673792,0.0,0.0331876203417778,0.43573737144470215,0.0,0.006436239928007126,0.9614782333374023,0.0,0.0294965673238039
208.0,735.0,-0.8339,4.3388,8.586,-0.0347,0.0241,-0.1182,-1.8911696873106898,0.0,3.4131550788879395,-1.631034016609192,-0.0,2.073453187942505,4.918242040067472,0.0,0.27990537881851196,-1.9875972906695765,0.0,0.03411560505628586,0.4356892704963684,0.0,0.0041061691008508205,0.9614901542663574,0.0,-0.020838551223278046
208.0,735.0,-0.8339,4.3388,8.586,-0.0347,0.0241,-0.1182,-1.891165395776266,0.0,3.4115352630615234,-1.6310501098632812,-0.0,2.088313102722168,4.918217855482855,0.0,0.27362096309661865,-1.9875972906695765,0.0,0.03744626045227051,0.43573737144470215,0.0,0.0003952623810619116,0.9614179134368896,0.0,-0.011361424811184406
208.0,735.0,-0.8339,4.3388,8.586,-0.0347,0.0241,-0.1182,-1.891125341454977,0.0,3.402736186981201,-1.6310056447982788,-0.0,2.082569122314453,4.918226021319189,0.0,0.2826884984970093,-1.9875972906695765,0.0,0.043271828442811966,0.4356972873210907,0.0,-0.002774866996333003,0.9614699482917786,0.0,0.007168822921812534
208.0,735.0,-0.8339,4.3388,8.586,-0.0347,0.0241,-0.1182,-1.8912059269347132,0.0,3.414463520050049,-1.6310583353042603,-0.0,2.034888505935669,4.918185877590933,0.0,0.280621737241745,-1.9876254240619105,0.0,0.03024166077375412,0.435729444026947,0.0,-0.004738733172416687,0.96142578125,0.0,-0.024483736604452133
208.0,735.0,-0.8339,4.3388,8.586,-0.0347,0.0241,-0.1182,-1.8911453686156214,0.0,3.457712173461914,-1.6310217380523682,-0.0,2.031886100769043,4.918242040067472,0.0,0.27859851717948914,-1.987629238759176,0.0,0.027037978172302246,0.43569329380989075,0.0,0.006339476443827152,0.9614257216453552,0.0,0.0047867028042674065
208.0,735.0,-0.8339,4.3388,8.586,-0.0347,0.0241,-0.1182,-1.891149183312887,0.0,3.46109676361084,-1.6310460567474365,-0.0,2.057380199432373,4.9182337550218485,0.0,0.2926167845726013,-1.9876254240619105,0.0,0.028101425617933273,0.4357093870639801,0.0,0.007008138112723827,0.9614621996879578,0.0,0.03501896560192108
208.0,735.0,-0.8339,4.3388,8.586,-0.0347,0.0241,-0.1182,-1.891137262383932,0.0,3.404115676879883,-1.6310625076293945,-0.0,2.074957847595215,4.91827845850543,0.0,0.2902544140815735,-1.9876211325274866,0.0,0.024945374578237534,0.4356892704963684,0.0,0.010481616482138634,0.9614216089248657,0.0,-0.020053328946232796
208.0,735.0,-0.8339,4.3388,8.586,-0.0347,0.0241,-0.1182,-1.891153474847311,0.0,3.4420111179351807,-1.6310138702392578,-0.0,2.0393073558807373,4.918258371740141,0.0,0.2909868061542511,-1.9876416365252894,0.0,0.034771259874105453,0.4357013702392578,0.0,0.00039160571759566665,0.9614375829696655,0.0,0.010480070486664772
208.0,735.0,-0.8339,4.3388,8.586,-0.0347,0.0241,-0.1182,-1.8911735020079554,0.0,3.4169235229492188,-1.6309937238693237,-0.0,2.0866639614105225,4.918241935759344,0.0,0.29164159297943115,-1.9875934759723108,0.0,0.03865910321474075,0.43569329380989075,0.0,0.007570963818579912,0.961486279964447,0.0,-0.020007412880659103
208.0,735.0,-0.8339,4.3388,8.586,-0.0347,0.0241,-0.1182,-1.891125341454977,0.0,3.39435076713562,-1.631034016609192,-0.0,2.022815704345703,4.918185832887449,0.0,0.2959817945957184,-1.9876335302936,0.0,0.029255084693431854,0.43570953607559204,0.0,-0.01182604767382145,0.9614216089248657,0.0,0.012648597359657288
208.0,735.0,-0.8339,4.3388,8.586,-0.0347,0.0241,-0.1182,-1.8911935291686,0.0,3.397529125213623,-1.630997896194458,-0.0,2.0329535007476807,4.918214085489073,0.0,0.2865219712257385,-1.9876254240619105,0.0,0.03726371005177498,0.4356892704963684,0.0,-0.0001887696562334895,0.9614458084106445,0.0,0.03942149132490158
208.0,735.0,-0.8339,4.3388,8.586,-0.0347,0.0241,-0.1182,-1.891153474847311,0.0,3.3773250579833984,-1.631034016609192,-0.0,2.0384371280670166,4.918225604086675,0.0,0.27859383821487427,-1.9876335302936,0.0,0.03724173456430435,0.4357534945011139,0.0,0.002526102587580681,0.9614458680152893,0.0,-0.00921381451189518
208.0,735.0,-0.8339,4.3388,8.586,-0.0347,0.0241,-0.1182,-1.8911615810790003,0.0,3.4300923347473145,-1.6310625076293945,-0.0,2.061339855194092,4.918225887208738,0.0,0.28617194294929504,-1.9876335302936,0.0,0.042884040623903275,0.4357573091983795,0.0,-0.004925824236124754,0.9614055752754211,0.0,-0.025867165997624397
208.0,735.0,-0.8339,4.3388,8.586,-0.0347,0.0241,-0.1182,-1.8912016354002894,0.0,3.3909173011779785,-1.6310381889343262,-0.0,2.0742855072021484,4.918258371740141,0.0,0.2812967598438263,-1.987605396901266,0.0,0.03583672270178795,0.4356972873210907,0.0,-0.012909544631838799,0.9613978862762451,0.0,-0.03659486025571823
208.0,735.0,-0.8339,4.3388,8.586,-0.0347,0.0241,-0.1182,-1.8911615810790003,0.0,3.4038407802581787,-1.63107430934906,-0.0,2.0443522930145264,4.918181660562315,0.0,0.2810799479484558,-1.987645451222555,0.0,0.02484571747481823,0.43572133779525757,0.0,0.001093825325369835,0.9613854289054871,0.0,-0.01407080702483654
208.0,735.0,-0.8339,4.3388,8.586,-0.0347,0.0241,-0.1182,-1.8911611042418421,0.0,3.47226619720459,-1.6310299634933472,-0.0,2.0264179706573486,4.91821368315772,0.0,0.2892039120197296,-1.9876778761493128,0.0,0.03426094725728035,0.43573349714279175,0.0,0.010715804994106293,0.9614339470863342,0.0,0.01855895295739174
208.0,735.0,-0.8339,4.3388,8.586,-0.0347,0.0241,-0.1182,-1.8911215267577113,0.0,3.4484899044036865,-1.6309974193572998,-0.0,2.0146656036376953,4.918202119856634,0.0,0.28256165981292725,-1.9876135031329554,0.0,0.03502354025840759,0.43569326400756836,0.0,-0.013630948960781097,0.9614781737327576,0.0,0.026331547647714615
208.0,735.0,-0.8339,4.3388,8.586,-0.0347,0.0241,-0.1182,-1.891153474847311,0.0,3.386474847793579,-1.6310056447982788,-0.0,2.068307876586914,4.9182296870048425,0.0,0.2925691604614258,-1.9876096884356897,0.0,0.03397783264517784,0.4357375204563141,0.0,0.006408342160284519,0.9614098072052002,0.0,0.05153931677341461
204.0,738.0,-0.9505,4.27,8.5561,-0.0339,0.0255,-0.1156,-1.8911096058287562,0.0,3.4554991722106934,-1.630993366241455,-0.0,2.0249807834625244,4.918217855482855,0.0,0.27837997674942017,-1.9875934759723108,0.0,0.029941178858280182,0.43570953607559204,0.0,-0.0009049565414898098,0.9614417552947998,0.0,-0.06360667198896408
204.0,738.0,-0.9505,4.27,8.5561,-0.0339,0.0255,-0.1156,-1.891165395776266,0.0,3.4372334480285645,-1.6310820579528809,-0.0,2.0704543590545654,4.918233859329977,0.0,0.2797834873199463,-1.98765737215151,0.0,0.03923186659812927,0.4356934726238251,0.0,-0.0002485255245119333,0.9614138603210449,0.0,0.009735440835356712
204.0,738.0,-0.9505,4.27,8.5561,-0.0339,0.0255,-0.1156,-1.8911577663817347,0.0,3.4347753524780273,-1.631042242050171,-0.0,2.0488507747650146,4.918226021319189,0.0,0.2880801558494568,-1.9876096884356897,0.0,0.028679259121418,0.43570953607559204,0.0,-0.004087522625923157,0.9614338874816895,0.0,0.03597936034202576
204.0,738.0,-0.9505,4.27,8.5561,-0.0339,0.0255,-0.1156,-1.891149183312887,0.0,3.4540600776672363,-1.6310299634933472,-0.0,2.045891523361206,4.918262454658308,0.0,0.2907294034957886,-1.9875853697406214,0.0,0.04093679040670395,0.4357532858848572,0.0,0.013914588838815689,0.96142578125,0.0,0.02663632482290268
204.0,738.0,-0.9505,4.27,8.5561,-0.0339,0.0255,-0.1156,-1.891165395776266,0.0,3.401118040084839,-1.6310056447982788,-0.0,2.0654685497283936,4.918186265021124,0.0,0.2873808741569519,-1.9875972906695765,0.0,0.026354193687438965,0.4356694519519806,0.0,0.0016633240738883615,0.9614662528038025,0.0,-0.03850459307432175
204.0,738.0,-0.9505,4.27,8.5561,-0.0339,0.0255,-0.1156,-1.8911577663817347,0.0,3.4146008491516113,-1.6309814453125,-0.0,2.0471251010894775,4.918237837940016,0.0,0.2930331230163574,-1.9876254240619105,0.0,0.025431856513023376,0.43569326400756836,0.0,-0.0017206009943038225,0.9614338874816895,0.0,-0.002336636185646057
204.0,738.0,-0.9505,4.27,8.5561,-0.0339,0.0255,-0.1156,-1.8911696873106898,0.0,3.3955698013305664,-1.631042242050171,-0.0,2.051504135131836,4.918185832887449,0.0,0.2897316813468933,-1.9875972906695765,0.0,0.04425842687487602,0.4357134997844696,0.0,-0.011025656946003437,0.9613978266716003,0.0,0.04532264918088913
204.0,738.0,-0.9505,4.27,8.5561,-0.0339,0.0255,-0.1156,-1.8911696873106898,0.0,3.447502613067627,-1.6310381889343262,-0.0,2.051135540008545,4.918217989593305,0.0,0.2904817461967468,-1.987617317830221,0.0,0.041216135025024414,0.435713529586792,0.0,0.0008666026405990124,0.961453914642334,0.0,-0.028349991887807846
204.0,738.0,-0.9505,4.27,8.5561,-0.0339,0.0255,-0.1156,-1.8911735020079554,0.0,3.3888988494873047,-1.6310056447982788,-0.0,2.048887252807617,4.918177994876661,0.0,0.2890649437904358,-1.9876096884356897,0.0,0.038356926292181015,0.4356972873210907,0.0,0.00529520446434617,0.9614339470863342,0.0,-0.018492206931114197
204.0,738.0,-0.9505,4.27,8.5561,-0.0339,0.0255,-0.1156,-1.8911410770811976,0.0,3.411125898361206,-1.6310625076293945,-0.0,2.067666530609131,4.918198096543112,0.0,0.2877671718597412,-1.9875815550433558,0.0,0.04120255261659622,0.43564942479133606,0.0,-0.006890501827001572,0.9614338874816895,0.0,0.07805371284484863
204.0,738.0,-0.9505,4.27,8.5561,-0.0339,0.0255,-0.1156,-1.891149183312887,0.0,3.4057669639587402,-1.6310056447982788,-0.0,2.072606086730957,4.918213966279783,0.0,0.29468443989753723,-1.9875777403460901,0.0,0.023730065673589706,0.43566954135894775,0.0,0.0006223169039003551,0.9614580273628235,0.0,0.0033715851604938507
204.0,738.0,-0.9505,4.27,8.5561,-0.0339,0.0255,-0.1156,-1.8911611042418421,0.0,3.343498945236206,-1.630997896194458,-0.0,2.037856340408325,4.918246018677511,0.0,0.27457085251808167,-1.9876611868487757,0.0,0.04034925252199173,0.4357176125049591,0.0,0.004896265454590321,0.9614298343658447,0.0,0.00013698730617761612
204.0,738.0,-0.9505,4.27,8.5561,-0.0339,0.0255,-0.1156,-1.8911777935423792,0.0,3.3690857887268066,-1.631082534790039,-0.0,2.0723628997802734,4.918237808137693,0.0,0.28525853157043457,-1.9876015822040003,0.0,0.030089350417256355,0.435725599527359,0.0,-0.013835826888680458,0.9614698886871338,0.0,0.02504197508096695
204.0,738.0,-0.9505,4.27,8.5561,-0.0339,0.0255,-0.1156,-1.891137262383932,0.0,3.4413840770721436,-1.631006121635437,-0.0,2.0667622089385986,4.918237808137693,0.0,0.2781555652618408,-1.9876416365252894,0.0,0.02468968741595745,0.43564555048942566,0.0,0.010468652471899986,0.9614539742469788,0.0,0.011585131287574768
204.0,738.0,-0.9505,4.27,8.5561,-0.0339,0.0255,-0.1156,-1.891226430932516,0.0,3.393087148666382,-1.6310460567474365,-0.0,2.0673694610595703,4.918225887208738,0.0,0.28290900588035583,-1.9876254240619105,0.0,0.03882690519094467,0.4357055425643921,0.0,0.004379565827548504,0.9614138603210449,0.0,0.03221981227397919
204.0,738.0,-0.9505,4.27,8.5561,-0.0339,0.0255,-0.1156,-1.891137262383932,0.0,3.392911911010742,-1.6309731006622314,-0.0,2.041008234024048,4.91820606866435,0.0,0.2784183919429779,-1.9875896612750452,0.0,0.03546851873397827,0.43570536375045776,0.0,0.007008845452219248,0.9614417552947998,0.0,-0.009811346419155598
204.0,738.0,-0.9505,4.27,8.5561,-0.0339,0.0255,-0.1156,-1.8911854229369105,0.0,3.415738582611084,-1.6310014724731445,-0.0,2.0590226650238037,4.91825399079875,0.0,0.27982085943222046,-1.9876135031329554,0.0,0.0398237407207489,0.4356934428215027,0.0,-8.420087397098541e-06,0.9614662528038025,0.0,-0.011851141229271889
204.0,738.0,-0.9505,4.27,8.5561,-0.0339,0.0255,-0.1156,-1.8911615810790003,0.0,3.361738920211792,-1.6310784816741943,-0.0,2.0334479808807373,4.918198096543112,0.0,0.2802487909793854,-1.9876015822040003,0.0,0.03635063394904137,0.43570536375045776,0.0,-0.0047347573563456535,0.96142578125,0.0,0.013576832599937916
203.0,748.0,-0.8602,4.3478,8.5555,-0.0396,0.0238,-0.1246,-1.8911696873106898,0.0,3.4234507083892822,-1.631025791168213,-0.0,2.0486373901367188,4.9181822566087625,0.0,0.28568652272224426,-1.9875934759723108,0.0,0.04175848513841629,0.43572545051574707,0.0,0.015236484818160534,0.9613978862762451,0.0,-0.0035998495295643806
203.0,748.0,-0.8602,4.3478,8.5555,-0.0396,0.0238,-0.1246,-1.891137262383932,0.0,3.4082038402557373,-1.6310056447982788,-0.0,2.0698986053466797,4.918182211905279,0.0,0.281995952129364,-1.9876015822040003,0.0,0.02524397149682045,0.4356972873210907,0.0,-0.005322641227394342,0.9614375829696655,0.0,0.00672250846400857
203.0,748.0,-0.8602,4.3478,8.5555,-0.0396,0.0238,-0.1246,-1.8911572895445765,0.0,3.4110069274902344,-1.6310096979141235,-0.0,2.0098960399627686,4.9182060835655115,0.0,0.2756567597389221,-1.9875572363482874,0.0,0.03680367395281792,0.4356893002986908,0.0,0.002500993199646473,0.9614375829696655,0.0,0.027553454041481018
203.0,748.0,-0.8602,4.3478,8.5555,-0.0396,0.0238,-0.1246,-1.8911334476866664,0.0,3.4220614433288574,-1.6310056447982788,-0.0,2.0287227630615234,4.918233859329977,0.0,0.2766966223716736,-1.9875934759723108,0.0,0.03203154727816582,0.43569329380989075,0.0,0.005481328349560499,0.9614375829696655,0.0,-0.025302402675151825
203.0,748.0,-0.8602,4.3478,8.5555,-0.0396,0.0238,-0.1246,-1.8911458454527796,0.0,3.4340133666992188,-1.6310014724731445,-0.0,2.037489414215088,4.918210017472067,0.0,0.28036442399024963,-1.987605396901266,0.0,0.0269771795719862,0.43574151396751404,0.0,-0.00018255319446325302,0.9614658951759338,0.0,0.038493700325489044
203.0,748.0,-0.8602,4.3478,8.5555,-0.0396,0.0238,-0.1246,-1.8911415539183558,0.0,3.3930344581604004,-1.6310501098632812,-0.0,2.0794477462768555,4.918237808137693,0.0,0.2774490416049957,-1.9875858465777796,0.0,0.030660029500722885,0.4356854557991028,0.0,0.014138059690594673,0.9614219665527344,0.0,-0.00807107798755169
203.0,748.0,-0.8602,4.3478,8.5555,-0.0396,0.0238,-0.1246,-1.8911053142943324,0.0,3.42453670501709,-1.6310056447982788,-0.0,2.035177707672119,4.918178292899885,0.0,0.27227911353111267,-1.9875972906695765,0.0,0.03231380879878998,0.43566954135894775,0.0,-3.8748286897316575e-05,0.9614298343658447,0.0,-0.004622465465217829
203.0,748.0,-0.8602,4.3478,8.5555,-0.0396,0.0238,-0.1246,-1.8911735020079554,0.0,3.4344186782836914,-1.6310056447982788,-0.0,2.057649612426758,4.918202119856634,0.0,0.27612677216529846,-1.9876373449908655,0.0,0.033149100840091705,0.43563756346702576,0.0,0.0037769547197967768,0.9613978266716003,0.0,0.004530878271907568
203.0,748.0,-0.8602,4.3478,8.5555,-0.0396,0.0238,-0.1246,-1.8911334476866664,0.0,3.4643783569335938,-1.631042242050171,-0.0,2.044557809829712,4.9182417569454095,0.0,0.28600603342056274,-1.9875853697406214,0.0,0.019500575959682465,0.4356972873210907,0.0,0.012720740400254726,0.9614375829696655,0.0,-0.006932234391570091
203.0,748.0,-0.8602,4.3478,8.5555,-0.0396,0.0238,-0.1246,-1.8911053142943324,0.0,3.4654150009155273,-1.6310460567474365,-0.0,2.0619518756866455,4.918186265021124,0.0,0.27654045820236206,-1.9876177946673792,0.0,0.027626482769846916,0.43574535846710205,0.0,0.003560358192771673,0.9614819288253784,0.0,-0.010738437063992023
203.0,748.0,-0.8602,4.3478,8.5555,-0.0396,0.0238,-0.1246,-1.8911735020079554,0.0,3.4403791427612305,-1.6309814453125,-0.0,2.039762496948242,4.918206113367834,0.0,0.2791489362716675,-1.9876177946673792,0.0,0.035587821155786514,0.43574535846710205,0.0,-0.0054447101429104805,0.9614257216453552,0.0,-0.0014907876029610634
203.0,748.0,-0.8602,4.3478,8.5555,-0.0396,0.0238,-0.1246,-1.8911215267577113,0.0,3.42695689201355,-1.6310014724731445,-0.0,2.027299404144287,4.918217989593305,0.0,0.28382113575935364,-1.9876096884356897,0.0,0.034827448427677155,0.43567734956741333,0.0,-0.007392958737909794,0.9614055752754211,0.0,-0.023312833160161972
203.0,748.0,-0.8602,4.3478,8.5555,-0.0396,0.0238,-0.1246,-1.8911172352232875,0.0,3.4581475257873535,-1.631042242050171,-0.0,2.0404062271118164,4.918225872307577,0.0,0.29882097244262695,-1.9875815550433558,0.0,0.04462810605764389,0.4356772303581238,0.0,-0.01624562032520771,0.9614297747612,0.0,-0.01852300390601158
203.0,748.0,-0.8602,4.3478,8.5555,-0.0396,0.0238,-0.1246,-1.891153474847311,0.0,3.459455966949463,-1.6310096979141235,-0.0,2.0166401863098145,4.918210017472067,0.0,0.2893408536911011,-1.987605396901266,0.0,0.03318813443183899,0.43570131063461304,0.0,0.010076438076794147,0.9614056348800659,0.0,0.02268773317337036
203.0,748.0,-0.8602,4.3478,8.5555,-0.0396,0.0238,-0.1246,-1.8911215267577113,0.0,3.427522659301758,-1.63107430934906,-0.0,2.0655715465545654,4.918217989593305,0.0,0.2780305743217468,-1.9876373449908655,0.0,0.03929127752780914,0.4357176423072815,0.0,-0.0021384120918810368,0.9614298343658447,0.0,0.026996832340955734
203.0,748.0,-0.8602,4.3478,8.5555,-0.0396,0.0238,-0.1246,-1.8911658726134242,0.0,3.430032253265381,-1.6310217380523682,-0.0,2.0306999683380127,4.918265896826544,0.0,0.28046083450317383,-1.987629238759176,0.0,0.022913798689842224,0.435713529586792,0.0,0.0013132034800946712,0.9614418148994446,0.0,0.01518731564283371
203.0,748.0,-0.8602,4.3478,8.5555,-0.0396,0.0238,-0.1246,-1.8911935291686,0.0,3.442340850830078,-1.6310056447982788,-0.0,2.0599727630615234,4.918217959790983,0.0,0.2849380373954773,-1.9876096884356897,0.0,0.028904415667057037,0.4357374310493469,0.0,0.0006773119675926864,0.961462140083313,0.0,0.00821160152554512
203.0,748.0,-0.8602,4.3478,8.5555,-0.0396,0.0238,-0.1246,-1.8911134205260218,0.0,3.417165756225586,-1.6310665607452393,-0.0,2.045224905014038,4.918237808137693,0.0,0.2802783250808716,-1.9876335302936,0.0,0.022987907752394676,0.43570536375045776,0.0,-0.002057834295555949,0.9614375829696655,0.0,0.08323460072278976
203.0,748.0,-0.8602,4.3478,8.5555,-0.0396,0.0238,-0.1246,-1.891137262383932,0.0,3.4407057762145996,-1.6310179233551025,-0.0,2.039478302001953,4.918237778335371,0.0,0.2887190580368042,-1.9875934759723108,0.0,0.03167679160833359,0.43569332361221313,0.0,0.0003553230781108141,0.9614822864532471,0.0,0.02918374352157116
207.0,716.0,-0.7478,4.3029,8.4144,-0.0356,0.0263,-0.1153,-1.891165395776266,0.0,3.4257402420043945,-1.63105046749115,-0.0,2.034198045730591,4.9182219234998605,0.0,0.2778077721595764,-1.9876211325274866,0.0,0.031364813446998596,0.4356893002986908,0.0,-0.0036774082109332085,0.961449921131134,0.0,-0.008962856605648994
207.0,716.0,-0.7478,4.3029,8.4144,-0.0356,0.0263,-0.1153,-1.891137262383932,0.0,3.395944118499756,-1.6311025619506836,-0.0,2.071204423904419,4.9182180044944666,0.0,0.28779998421669006,-1.9876096884356897,0.0,0.023433467373251915,0.4356893002986908,0.0,0.006828450132161379,0.9614335894584656,0.0,-0.0054632266983389854
207.0,716.0,-0.7478,4.3029,8.4144,-0.0356,0.0263,-0.1153,-1.8911777935423792,0.0,3.3634042739868164,-1.6310464143753052,-0.0,2.0433285236358643,4.918237793236532,0.0,0.2793738543987274,-1.9876335302936,0.0,0.030732829123735428,0.43576934933662415,0.0,0.007819210179150105,0.9614498615264893,0.0,-0.007945067249238491
207.0,716.0,-0.7478,4.3029,8.4144,-0.0356,0.0263,-0.1153,-1.891149183312887,0.0,3.405795097351074,-1.6310381889343262,-0.0,2.0549182891845703,4.9182417569454095,0.0,0.2763357162475586,-1.9875896612750452,0.0,0.01864705979824066,0.4357532858848572,0.0,0.002839119406417012,0.9614097476005554,0.0,0.03215492516756058
207.0,716.0,-0.7478,4.3029,8.4144,-0.0356,0.0263,-0.1153,-1.8911611042418421,0.0,3.440363883972168,-1.630997896194458,-0.0,2.044365644454956,4.918190198927679,0.0,0.27851951122283936,-1.987617317830221,0.0,0.02474691905081272,0.4357055723667145,0.0,0.007514548022300005,0.96142578125,0.0,-0.005136788357049227
207.0,716.0,-0.7478,4.3029,8.4144,-0.0356,0.0263,-0.1153,-1.8911735020079554,0.0,3.42680025100708,-1.631025791168213,-0.0,2.0637712478637695,4.9181783376033685,0.0,0.2942364811897278,-1.9876015822040003,0.0,0.03578215092420578,0.43572545051574707,0.0,0.005852916743606329,0.9614983201026917,0.0,0.026531504467129707
207.0,716.0,-0.7478,4.3029,8.4144,-0.0356,0.0263,-0.1153,-1.891165395776266,0.0,3.4563660621643066,-1.6310175657272339,-0.0,2.048259735107422,4.918241786747732,0.0,0.2965534031391144,-1.987605396901266,0.0,0.03965041786432266,0.4356655180454254,0.0,0.003441393841058016,0.9614261388778687,0.0,0.06359006464481354
207.0,716.0,-0.7478,4.3029,8.4144,-0.0356,0.0263,-0.1153,-1.8911134205260218,0.0,3.4520890712738037,-1.6310501098632812,-0.0,2.035755157470703,4.918225902109899,0.0,0.2836241126060486,-1.9876015822040003,0.0,0.026666149497032166,0.4357013702392578,0.0,-0.019494537264108658,0.961433470249176,0.0,0.0039033377543091774
207.0,716.0,-0.7478,4.3029,8.4144,-0.0356,0.0263,-0.1153,-1.891153474847311,0.0,3.4495596885681152,-1.6310056447982788,-0.0,2.0522518157958984,4.9182259170110605,0.0,0.26722896099090576,-1.9876177946673792,0.0,0.030265167355537415,0.4356735348701477,0.0,0.004416941665112972,0.9614539742469788,0.0,-0.039929989725351334
207.0,716.0,-0.7478,4.3029,8.4144,-0.0356,0.0263,-0.1153,-1.8912097416319789,0.0,3.4014170169830322,-1.6310014724731445,-0.0,2.031602144241333,4.918170350580969,0.0,0.28147149085998535,-1.9876015822040003,0.0,0.026035364717245102,0.43573737144470215,0.0,0.0008289738325402141,0.9614059925079346,0.0,0.02314460277557373
207.0,716.0,-0.7478,4.3029,8.4144,-0.0356,0.0263,-0.1153,-1.891153474847311,0.0,3.421729564666748,-1.6310299634933472,-0.0,2.0218400955200195,4.918206038862028,0.0,0.2816673517227173,-1.9876216093646448,0.0,0.03338151052594185,0.435729444026947,0.0,0.012217512354254723,0.9614538550376892,0.0,-0.025774531066417694
207.0,716.0,-0.7478,4.3029,8.4144,-0.0356,0.0263,-0.1153,-1.8911696873106898,0.0,3.414785146713257,-1.631034016609192,-0.0,2.054640293121338,4.918241712241926,0.0,0.2793826460838318,-1.987617317830221,0.0,0.032640211284160614,0.4356376528739929,0.0,-0.004354221746325493,0.9614097476005554,0.0,-0.007059235591441393
207.0,716.0,-0.7478,4.3029,8.4144,-0.0356,0.0263,-0.1153,-1.8911458454527796,0.0,3.3764121532440186,-1.631082534790039,-0.0,2.0224475860595703,4.918178292899885,0.0,0.2908582389354706,-1.9876135031329554,0.0,0.047954581677913666,0.4356973171234131,0.0,-0.0019452872220426798,0.961453914642334,0.0,-0.028951890766620636
207.0,716.0,-0.7478,4.3029,8.4144,-0.0356,0.0263,-0.1153,-1.8911577663817347,0.0,3.4262170791625977,-1.6310299634933472,-0.0,2.0899674892425537,4.918237793236532,0.0,0.2840132713317871,-1.9876096884356897,0.0,0.03441280871629715,0.43572157621383667,0.0,0.0032460049260407686,0.9614335298538208,0.0,0.0017635480035096407
207.0,716.0,-0.7478,4.3029,8.4144,-0.0356,0.0263,-0.1153,-1.8911696873106898,0.0,3.384629249572754,-1.6310862302780151,-0.0,2.030482530593872,4.918210017472067,0.0,0.26931655406951904,-1.9876135031329554,0.0,0.03359333425760269,0.4356854557991028,0.0,0.006588152144104242,0.961453914642334,0.0,-0.018190156668424606
207.0,716.0,-0.7478,4.3029,8.4144,-0.0356,0.0263,-0.1153,-1.891137262383932,0.0,3.434190511703491,-1.6310056447982788,-0.0,2.0770020484924316,4.9182540504033945,0.0,0.28968489170074463,-1.9876135031329554,0.0,0.0381673164665699,0.4356536567211151,0.0,0.0012811189517378807,0.9614056348800659,0.0,-0.030392102897167206
207.0,716.0,-0.7478,4.3029,8.4144,-0.0356,0.0263,-0.1153,-1.8911215267577113,0.0,3.40303897857666,-1.6310299634933472,-0.0,2.0090577602386475,4.918233874231138,0.0,0.2808670699596405,-1.9876373449908655,0.0,0.0423884242773056,0.4357175827026367,0.0,0.014901600778102875,0.9614298343658447,0.0,0.0011653639376163483
207.0,716.0,-0.7478,4.3029,8.4144,-0.0356,0.0263,-0.1153,-1.891125341454977,0.0,3.37686824798584,-1.6310501098632812,-0.0,2.0426082611083984,4.918241771846571,0.0,0.29175087809562683,-1.9876216093646448,0.0,0.029400773346424103,0.4356536567211151,0.0,-0.009319152683019638,0.9614698886871338,0.0,-0.0068076252937316895
207.0,716.0,-0.7478,4.3029,8.4144,-0.0356,0.0263,-0.1153,-1.891125341454977,0.0,3.419757843017578,-1.6310702562332153,-0.0,2.044689655303955,4.918182167201795,0.0,0.28216248750686646,-1.9876335302936,0.0,0.04752165079116821,0.43574145436286926,0.0,0.011515012010931969,0.9614580869674683,0.0,0.03191552311182022
206.0,738.0,-0.8626,4.2838,8.732,-0.0299,0.0254,-0.1191,-1.8911611042418421,0.0,3.424344539642334,-1.63105046749115,-0.0,2.0196352005004883,4.918217989593305,0.0,0.29391008615493774,-1.9876297155963343,0.0,0.032777175307273865,0.435729444026947,0.0,0.005824178457260132,0.9614097476005554,0.0,0.009043014608323574
206.0,738.0,-0.8626,4.2838,8.732,-0.0299,0.0254,-0.1191,-1.891125341454977,0.0,3.4028759002685547,-1.6310867071151733,-0.0,2.092503070831299,4.918217974692144,0.0,0.28970131278038025,-1.9876416365252894,0.0,0.03612881526350975,0.4357055723667145,0.0,0.0023246414493769407,0.9614458084106445,0.0,-0.01739436574280262
206.0,738.0,-0.8626,4.2838,8.732,-0.0299,0.0254,-0.1191,-1.8911854229369105,0.0,3.410320281982422,-1.631034016609192,-0.0,2.0562186241149902,4.918233874231138,0.0,0.29390037059783936,-1.987605396901266,0.0,0.03024476394057274,0.4356496036052704,0.0,-0.017866726964712143,0.9614781737327576,0.0,0.003686117473989725
206.0,738.0,-0.8626,4.2838,8.732,-0.0299,0.0254,-0.1191,-1.8911730251707972,0.0,3.404906988143921,-1.630989670753479,-0.0,2.092130661010742,4.9182579694087885,0.0,0.2830314636230469,-1.9876015822040003,0.0,0.020475216209888458,0.4356694519519806,0.0,-0.0023393803276121616,0.961462140083313,0.0,-0.029232360422611237
206.0,738.0,-0.8626,4.2838,8.732,-0.0299,0.0254,-0.1191,-1.8911291561522425,0.0,3.3907642364501953,-1.6310583353042603,-0.0,2.082284927368164,4.918261933117666,0.0,0.2785225212574005,-1.9875972906695765,0.0,0.018934104591608047,0.43567752838134766,0.0,0.003045035758987069,0.9614662528038025,0.0,0.00375488493591547
206.0,738.0,-0.8626,4.2838,8.732,-0.0299,0.0254,-0.1191,-1.891109128991598,0.0,3.4585304260253906,-1.631025791168213,-0.0,2.0725598335266113,4.918233814626493,0.0,0.2746495306491852,-1.9876177946673792,0.0,0.040214166045188904,0.4356336295604706,0.0,0.006960789207369089,0.9614417552947998,0.0,0.026883140206336975
206.0,738.0,-0.8626,4.2838,8.732,-0.0299,0.0254,-0.1191,-1.891153474847311,0.0,3.426020622253418,-1.6310299634933472,-0.0,2.088697910308838,4.918210017472067,0.0,0.2822049558162689,-1.9876254240619105,0.0,0.03581714630126953,0.43567344546318054,0.0,0.0017773043364286423,0.9614662528038025,0.0,0.02622435986995697
206.0,738.0,-0.8626,4.2838,8.732,-0.0299,0.0254,-0.1191,-1.891149183312887,0.0,3.3964614868164062,-1.6310381889343262,-0.0,2.0561795234680176,4.918217974692144,0.0,0.2855665385723114,-1.9875858465777796,0.0,0.03890672326087952,0.43572157621383667,0.0,0.019938552752137184,0.96142578125,0.0,-0.010131267830729485
206.0,738.0,-0.8626,4.2838,8.732,-0.0299,0.0254,-0.1191,-1.8911854229369105,0.0,3.437373638153076,-1.6310299634933472,-0.0,2.06272292137146,4.9182259170110605,0.0,0.26929837465286255,-1.9876015822040003,0.0,0.02506292425096035,0.4357215166091919,0.0,-0.003780486062169075,0.9614498615264893,0.0,-0.01121253240853548
206.0,738.0,-0.8626,4.2838,8.732,-0.0299,0.0254,-0.1191,-1.8911134205260218,0.0,3.386605978012085,-1.6310464143753052,-0.0,2.0718166828155518,4.918221938401022,0.0,0.28730782866477966,-1.9875777403460901,0.0,0.02405010536313057,0.43572941422462463,0.0,-0.0012637790059670806,0.9614662528038025,0.0,0.01978776603937149
206.0,738.0,-0.8626,4.2838,8.732,-0.0299,0.0254,-0.1191,-1.8911458454527796,0.0,3.4328794479370117,-1.631066083908081,-0.0,2.06508731842041,4.918229850917616,0.0,0.29300498962402344,-1.987629238759176,0.0,0.025917526334524155,0.4357254207134247,0.0,-0.005829371511936188,0.9613978266716003,0.0,-0.013334641233086586
206.0,738.0,-0.8626,4.2838,8.732,-0.0299,0.0254,-0.1191,-1.8911854229369105,0.0,3.3888676166534424,-1.6310625076293945,-0.0,2.0257372856140137,4.918254080205717,0.0,0.2758358120918274,-1.9876135031329554,0.0,0.029394052922725677,0.435649573802948,0.0,0.0005805151304230094,0.961462140083313,0.0,0.028186412528157234
206.0,738.0,-0.8626,4.2838,8.732,-0.0299,0.0254,-0.1191,-1.8911291561522425,0.0,3.4211363792419434,-1.6310464143753052,-0.0,2.070509910583496,4.918237793236532,0.0,0.28812313079833984,-1.987617317830221,0.0,0.02194064110517502,0.43570560216903687,0.0,0.012936484068632126,0.9614781737327576,0.0,-0.04578958451747894
206.0,738.0,-0.8626,4.2838,8.732,-0.0299,0.0254,-0.1191,-1.8911572895445765,0.0,3.414867401123047,-1.63113534450531,-0.0,2.0733776092529297,4.918221893697538,0.0,0.2866270840167999,-1.9876373449908655,0.0,0.04276520013809204,0.4357215464115143,0.0,-0.002063772641122341,0.9614298343658447,0.0,-0.03606053441762924
206.0,738.0,-0.8626,4.2838,8.732,-0.0299,0.0254,-0.1191,-1.8911291561522425,0.0,3.3813118934631348,-1.6310217380523682,-0.0,2.0568432807922363,4.918213996082105,0.0,0.28232699632644653,-1.9875977675067347,0.0,0.031842190772295,0.4357053339481354,0.0,0.0020940552931278944,0.9613855481147766,0.0,0.024561496451497078
206.0,738.0,-0.8626,4.2838,8.732,-0.0299,0.0254,-0.1191,-1.891165395776266,0.0,3.4566149711608887,-1.6310780048370361,-0.0,2.0394632816314697,4.918229850917616,0.0,0.27056339383125305,-1.9876216093646448,0.0,0.03662814572453499,0.43570560216903687,0.0,-0.0006290529854595661,0.9614097476005554,0.0,-0.03994746506214142
206.0,738.0,-0.8626,4.2838,8.732,-0.0299,0.0254,-0.1191,-1.891137262383932,0.0,3.446150302886963,-1.631042242050171,-0.0,2.0600523948669434,4.918213921576299,0.0,0.28168341517448425,-1.987605396901266,0.0,0.02972124144434929,0.43569737672805786,0.0,-0.006751072593033314,0.9613937735557556,0.0,0.016335073858499527
206.0,738.0,-0.8626,4.2838,8.732,-0.0299,0.0254,-0.1191,-1.891125341454977,0.0,3.4246420860290527,-1.631034016609192,-0.0,2.0172271728515625,4.918241801648893,0.0,0.27869558334350586,-1.9876015822040003,0.0,0.029022376984357834,0.43574535846710205,0.0,0.0015489071374759078,0.9614174962043762,0.0,0.019096115604043007
206.0,738.0,-0.8626,4.2838,8.732,-0.0299,0.0254,-0.1191,-1.891137262383932,0.0,3.390925407409668,-1.631025791168213,-0.0,2.0465304851531982,4.918178292899885,0.0,0.28938326239585876,-1.987561051045553,0.0,0.04234115406870842,0.4357175827026367,0.0,-0.019795943051576614,0.961438000202179,0.0,-0.0031856088899075985
201.0,739.0,-0.8459,4.3131,8.5609,-0.0446,0.02,-0.1098,-1.891165395776266,0.0,3.403505802154541,-1.6310217380523682,-0.0,2.087341547012329,4.918237823038854,0.0,0.2952159643173218,-1.9875977675067347,0.0,0.03543773293495178,0.43564966320991516,0.0,0.008503986522555351,0.9614781737327576,0.0,0.04623773321509361
201.0,739.0,-0.8459,4.3131,8.5609,-0.0446,0.02,-0.1098,-1.8911816082396449,0.0,3.400087356567383,-1.631034016609192,-0.0,2.0616941452026367,4.918245735555448,0.0,0.28134194016456604,-1.9875972906695765,0.0,0.042157985270023346,0.435749351978302,0.0,-0.0010295636020600796,0.96142578125,0.0,-0.009424394927918911
201.0,739.0,-0.8459,4.3131,8.5609,-0.0446,0.02,-0.1098,-1.891149183312887,0.0,3.396087169647217,-1.6310299634933472,-0.0,2.0676136016845703,4.918194147735395,0.0,0.29920727014541626,-1.9876335302936,0.0,0.03694327175617218,0.435749351978302,0.0,0.002449890598654747,0.9614178538322449,0.0,0.016964692622423172
201.0,739.0,-0.8459,4.3131,8.5609,-0.0446,0.02,-0.1098,-1.8911577663817347,0.0,3.4227921962738037,-1.6310542821884155,-0.0,2.0349924564361572,4.918233844428816,0.0,0.28661417961120605,-1.9875977675067347,0.0,0.038944948464632034,0.4357175827026367,0.0,0.01307917945086956,0.9613978862762451,0.0,0.0030463491566479206
201.0,739.0,-0.8459,4.3131,8.5609,-0.0446,0.02,-0.1098,-1.8911696873106898,0.0,3.4324593544006348,-1.6309731006622314,-0.0,2.0545871257781982,4.918217989593305,0.0,0.266649454832077,-1.9876254240619105,0.0,0.037769779562950134,0.4357215464115143,0.0,0.005366247612982988,0.9614417552947998,0.0,0.01977941393852234
201.0,739.0,-0.8459,4.3131,8.5609,-0.0446,0.02,-0.1098,-1.891165395776266,0.0,3.4123663902282715,-1.631025791168213,-0.0,2.0987958908081055,4.918198051839628,0.0,0.30218586325645447,-1.9876335302936,0.0,0.04390282183885574,0.43569737672805786,0.0,0.004328303039073944,0.9614375829696655,0.0,0.049045659601688385
201.0,739.0,-0.8459,4.3131,8.5609,-0.0446,0.02,-0.1098,-1.891149183312887,0.0,3.433894157409668,-1.6310702562332153,-0.0,2.058831214904785,4.918210032373228,0.0,0.2869187593460083,-1.9875934759723108,0.0,0.028982434421777725,0.4356735050678253,0.0,0.006483749486505985,0.9614498615264893,0.0,0.016057400032877922
201.0,739.0,-0.8459,4.3131,8.5609,-0.0446,0.02,-0.1098,-1.8911334476866664,0.0,3.374959707260132,-1.6310625076293945,-0.0,2.0373663902282715,4.918202119856634,0.0,0.2783444821834564,-1.987605396901266,0.0,0.039773695170879364,0.43566951155662537,0.0,-0.013415597379207611,0.9614498019218445,0.0,0.013568483293056488
201.0,739.0,-0.8459,4.3131,8.5609,-0.0446,0.02,-0.1098,-1.891165395776266,0.0,3.367063522338867,-1.630989670753479,-0.0,2.0465264320373535,4.918273824244299,0.0,0.28511813282966614,-1.9876216093646448,0.0,0.033963531255722046,0.43570956587791443,0.0,0.006400016602128744,0.9614417552947998,0.0,-0.000622750842012465
201.0,739.0,-0.8459,4.3131,8.5609,-0.0446,0.02,-0.1098,-1.8911172352232875,0.0,3.4232988357543945,-1.6310056447982788,-0.0,2.0611205101013184,4.918198066740789,0.0,0.2966669797897339,-1.9875977675067347,0.0,0.03729744628071785,0.43572551012039185,0.0,-0.0023167161270976067,0.9614014625549316,0.0,-0.024927403777837753
201.0,739.0,-0.8459,4.3131,8.5609,-0.0446,0.02,-0.1098,-1.8911291561522425,0.0,3.42075777053833,-1.631034016609192,-0.0,2.0414538383483887,4.918245780258932,0.0,0.2804374098777771,-1.9876254240619105,0.0,0.03821803256869316,0.43568548560142517,0.0,-0.012131158262491226,0.9614417552947998,0.0,0.004575496539473534
201.0,739.0,-0.8459,4.3131,8.5609,-0.0446,0.02,-0.1098,-1.891097208062643,0.0,3.4213342666625977,-1.6310625076293945,-0.0,2.0701773166656494,4.918237808137693,0.0,0.2735303044319153,-1.9876216093646448,0.0,0.041902780532836914,0.4357053339481354,0.0,-0.0020507131703197956,0.961462140083313,0.0,0.018252244219183922
201.0,739.0,-0.8459,4.3131,8.5609,-0.0446,0.02,-0.1098,-1.8911854229369105,0.0,3.408695697784424,-1.6310175657272339,-0.0,2.055790901184082,4.91820207515315,0.0,0.2740490734577179,-1.9876411596881312,0.0,0.03646044433116913,0.4356854259967804,0.0,0.004690914414823055,0.9614699482917786,0.0,-0.006599619053304195
201.0,739.0,-0.8459,4.3131,8.5609,-0.0446,0.02,-0.1098,-1.891125341454977,0.0,3.3689966201782227,-1.6310381889343262,-0.0,2.077096939086914,4.918194132834234,0.0,0.28020432591438293,-1.9875777403460901,0.0,0.041049256920814514,0.4357053339481354,0.0,-0.008511366322636604,0.9614458084106445,0.0,-0.012501697055995464
201.0,739.0,-0.8459,4.3131,8.5609,-0.0446,0.02,-0.1098,-1.8911572895445765,0.0,3.439858913421631,-1.6310138702392578,-0.0,2.0577049255371094,4.918221953302183,0.0,0.29265058040618896,-1.9876135031329554,0.0,0.029996618628501892,0.4357053339481354,0.0,-0.00225051655434072,0.9614417552947998,0.0,0.005440760403871536
201.0,739.0,-0.8459,4.3131,8.5609,-0.0446,0.02,-0.1098,-1.8911973438658656,0.0,3.434995651245117,-1.6310299634933472,-0.0,2.021465301513672,4.918217989593305,0.0,0.2761805057525635,-1.9876015822040003,0.0,0.030793869867920876,0.43570560216903687,0.0,0.009233414195477962,0.9614819288253784,0.0,-0.03556753695011139
201.0,739.0,-0.8459,4.3131,8.5609,-0.0446,0.02,-0.1098,-1.891153474847311,0.0,3.4029340744018555,-1.631034016609192,-0.0,2.068704843521118,4.918221938401022,0.0,0.2814549207687378,-1.987617317830221,0.0,0.03154367581009865,0.43568143248558044,0.0,-0.005329787265509367,0.9614740610122681,0.0,0.008771905675530434
201.0,739.0,-0.8459,4.3131,8.5609,-0.0446,0.02,-0.1098,-1.8911777935423792,0.0,3.4517312049865723,-1.63107430934906,-0.0,2.060272693634033,4.918237808137693,0.0,0.2914402484893799,-1.9876416365252894,0.0,0.035083476454019547,0.43568944931030273,0.0,-0.010906917043030262,0.961462140083313,0.0,0.0048117320984601974
201.0,739.0,-0.8459,4.3131,8.5609,-0.0446,0.02,-0.1098,-1.8911611042418421,0.0,3.393333911895752,-1.6310056447982788,-0.0,2.02540922164917,4.918194132834234,0.0,0.2852553725242615,-1.9875734488116663,0.0,0.040374644100666046,0.43575724959373474,0.0,-0.0014643652830272913,0.961453914642334,0.0,-0.01132300216704607
205.0,754.0,-0.9356,4.2897,8.7183,-0.0295,0.0257,-0.1187,-1.891153474847311,0.0,3.413087844848633,-1.6309891939163208,-0.0,2.0553812980651855,4.918213981180944,0.0,0.2730175852775574,-1.987605396901266,0.0,0.04074060544371605,0.4356575906276703,0.0,0.0005779286148026586,0.9614015221595764,0.0,0.03240078315138817
205.0,754.0,-0.9356,4.2897,8.7183,-0.0295,0.0257,-0.1187,-1.891137262383932,0.0,3.406642436981201,-1.6310217380523682,-0.0,2.031691074371338,4.918217974692144,0.0,0.28074905276298523,-1.9876254240619105,0.0,0.02527541294693947,0.4357214868068695,0.0,-0.0021686742547899485,0.9614134430885315,0.0,-0.014170868322253227
205.0,754.0,-0.9356,4.2897,8.7183,-0.0295,0.0257,-0.1187,-1.8911458454527796,0.0,3.390615463256836,-1.630993366241455,-0.0,2.0465240478515625,4.918221938401022,0.0,0.2877129316329956,-1.9876135031329554,0.0,0.03489191085100174,0.43571755290031433,0.0,0.013255341909825802,0.9614133834838867,0.0,0.020335568115115166
205.0,754.0,-0.9356,4.2897,8.7183,-0.0295,0.0257,-0.1187,-1.8911458454527796,0.0,3.419451951980591,-1.630985140800476,-0.0,2.0563576221466064,4.918269875436582,0.0,0.2885194420814514,-1.9876135031329554,0.0,0.04104601964354515,0.4356854557991028,0.0,-0.00170909333974123,0.9614658355712891,0.0,0.02929871343076229
205.0,754.0,-0.9356,4.2897,8.7183,-0.0295,0.0257,-0.1187,-1.8912097416319789,0.0,3.4004483222961426,-1.6309689283370972,-0.0,2.0436654090881348,4.918221938401022,0.0,0.2855137884616852,-1.9875977675067347,0.0,0.0384383462369442,0.4357053339481354,0.0,0.004498261958360672,0.961421549320221,0.0,0.0034489706158638
205.0,754.0,-0.9356,4.2897,8.7183,-0.0295,0.0257,-0.1187,-1.891165395776266,0.0,3.4110498428344727,-1.6310501098632812,-0.0,2.0567493438720703,4.918245988875189,0.0,0.2793203592300415,-1.9876135031329554,0.0,0.03328093886375427,0.43573349714279175,0.0,0.009961392730474472,0.9614580869674683,0.0,-0.014430667273700237
205.0,754.0,-0.9356,4.2897,8.7183,-0.0295,0.0257,-0.1187,-1.891153474847311,0.0,3.4044108390808105,-1.6309854984283447,-0.0,2.0308122634887695,4.918202060251989,0.0,0.28391098976135254,-1.9876096884356897,0.0,0.03825385123491287,0.43577346205711365,0.0,-0.01322135329246521,0.9614417552947998,0.0,-0.01577325165271759
205.0,754.0,-0.9356,4.2897,8.7183,-0.0295,0.0257,-0.1187,-1.8911334476866664,0.0,3.4521937370300293,-1.631042242050171,-0.0,2.023832321166992,4.918233859329977,0.0,0.28911030292510986,-1.9875934759723108,0.0,0.04295290261507034,0.435713529586792,0.0,0.007688887417316437,0.9614294171333313,0.0,-0.011661134660243988
205.0,754.0,-0.9356,4.2897,8.7183,-0.0295,0.0257,-0.1187,-1.891153474847311,0.0,3.4028732776641846,-1.6310096979141235,-0.0,2.018634796142578,4.918229850917616,0.0,0.28391164541244507,-1.9876216093646448,0.0,0.044782042503356934,0.43575724959373474,0.0,0.0024904196616262197,0.9614580869674683,0.0,0.014833398163318634
205.0,754.0,-0.9356,4.2897,8.7183,-0.0295,0.0257,-0.1187,-1.8911296329894007,0.0,3.4237420558929443,-1.6310542821884155,-0.0,2.0305495262145996,4.918233874231138,0.0,0.278377890586853,-1.987617317830221,0.0,0.04680805653333664,0.4357175827026367,0.0,0.0040274071507155895,0.9614661931991577,0.0,0.022443465888500214
205.0,754.0,-0.9356,4.2897,8.7183,-0.0295,0.0257,-0.1187,-1.8911010227599085,0.0,3.4278059005737305,-1.6310175657272339,-0.0,2.0513665676116943,4.918229806214132,0.0,0.2818944454193115,-1.9876335302936,0.0,0.03910626843571663,0.4357334077358246,0.0,0.012204821221530437,0.9614498019218445,0.0,-0.006407666020095348
205.0,754.0,-0.9356,4.2897,8.7183,-0.0295,0.0257,-0.1187,-1.891149183312887,0.0,3.387484073638916,-1.6310014724731445,-0.0,2.057497501373291,4.918154480844297,0.0,0.2844007611274719,-1.9876015822040003,0.0,0.025528740137815475,0.4357413649559021,0.0,-0.007733476813882589,0.961438000202179,0.0,-0.0145371463149786
205.0,754.0,-0.9356,4.2897,8.7183,-0.0295,0.0257,-0.1187,-1.8911172352232875,0.0,3.4576497077941895,-1.6310056447982788,-0.0,1.9721946716308594,4.918277907162466,0.0,0.2802408039569855,-1.987605396901266,0.0,0.017346492037177086,0.4356933832168579,0.0,-0.002706819213926792,0.9614375829696655,0.0,0.009840136393904686
205.0,754.0,-0.9356,4.2897,8.7183,-0.0295,0.0257,-0.1187,-1.8911334476866664,0.0,3.390878677368164,-1.631025791168213,-0.0,2.037079334259033,4.918233844428816,0.0,0.2884974479675293,-1.9876015822040003,0.0,0.04244440421462059,0.43572941422462463,0.0,0.002288523595780134,0.9614621996879578,0.0,0.03190843015909195
205.0,754.0,-0.9356,4.2897,8.7183,-0.0295,0.0257,-0.1187,-1.8911334476866664,0.0,3.4180214405059814,-1.63105046749115,-0.0,2.0554306507110596,4.918241801648893,0.0,0.27896544337272644,-1.9876254240619105,0.0,0.028812628239393234,0.435733437538147,0.0,0.007978983223438263,0.9614257216453552,0.0,0.0016702793072909117
205.0,754.0,-0.9356,4.2897,8.7183,-0.0295,0.0257,-0.1187,-1.8911615810790003,0.0,3.4120752811431885,-1.6310299634933472,-0.0,2.0678493976593018,4.91820207515315,0.0,0.27747368812561035,-1.9875977675067347,0.0,0.03854543715715408,0.4357013702392578,0.0,-0.0026726343203336,0.9614539742469788,0.0,0.00686392467468977
205.0,754.0,-0.9356,4.2897,8.7183,-0.0295,0.0257,-0.1187,-1.8911611042418421,0.0,3.43153977394104,-1.6310299634933472,-0.0,2.0144405364990234,4.918225902109899,0.0,0.29077503085136414,-1.9876492659198206,0.0,0.029341544955968857,0.43572545051574707,0.0,0.01395488902926445,0.96142578125,0.0,0.004394929856061935
205.0,754.0,-0.9356,4.2897,8.7183,-0.0295,0.0257,-0.1187,-1.8911658726134242,0.0,3.413621425628662,-1.6310381889343262,-0.0,2.0703585147857666,4.918237823038854,0.0,0.29295384883880615,-1.9876335302936,0.0,0.041286516934633255,0.43573737144470215,0.0,0.0032819178886711597,0.9614375829696655,0.0,0.022956229746341705
205.0,754.0,-0.9356,4.2897,8.7183,-0.0295,0.0257,-0.1187,-1.891153474847311,0.0,3.4210362434387207,-1.631034016609192,-0.0,2.0294508934020996,4.918213996082105,0.0,0.2782396972179413,-1.9876335302936,0.0,0.040159158408641815,0.43568146228790283,0.0,-0.004702996928244829,0.9613974690437317,0.0,-0.04102499783039093
206.0,750.0,-0.8417,5.7176,8.1117,0.0733,0.0302,-0.1393,-1.8911730251707972,0.0,3.4130330085754395,-1.6310542821884155,-0.0,2.0899605751037598,4.918221938401022,0.0,0.29303041100502014,-1.987617317830221,0.0,0.03557002171874046,0.43572545051574707,0.0,0.0070359669625759125,0.9614740610122681,0.0,-0.009753802791237831
206.0,750.0,-0.8417,5.7176,8.1117,0.0733,0.0302,-0.1393,-1.891153474847311,0.0,3.390018939971924,-1.631034016609192,-0.0,2.0228769779205322,4.918237823038854,0.0,0.27334994077682495,-1.987617317830221,0.0,0.023667044937610626,0.4356616139411926,0.0,-0.0036207926459610462,0.961462140083313,0.0,-0.01010994054377079
206.0,750.0,-0.8417,5.7176,8.1117,0.0733,0.0302,-0.1393,-1.891137262383932,0.0,3.4027199745178223,-1.631025791168213,-0.0,2.0291435718536377,4.918190154224195,0.0,0.2938578724861145,-1.9876015822040003,0.0,0.04280034825205803,0.43570929765701294,0.0,-0.00665401853621006,0.9614335298538208,0.0,0.03440399840474129
206.0,750.0,-0.8417,5.7176,8.1117,0.0733,0.0302,-0.1393,-1.891153474847311,0.0,3.3891830444335938,-1.631042242050171,-0.0,2.091207504272461,4.918217974692144,0.0,0.27894338965415955,-1.9876335302936,0.0,0.042649634182453156,0.43572545051574707,0.0,-0.008005010895431042,0.9614703059196472,0.0,0.07521691918373108
206.0,750.0,-0.8417,5.7176,8.1117,0.0733,0.0302,-0.1393,-1.8911296329894007,0.0,3.445155143737793,-1.6310625076293945,3.98713382310234e-06,2.0722646713256836,4.918249788671293,1.356035994604099e-07,0.2795957624912262,-1.9876812140094202,0.0,0.03331627696752548,0.4357694387435913,0.0,0.005362540017813444,0.9614093899726868,0.0,-0.015069878660142422
206.0,750.0,-0.8417,5.7176,8.1117,0.0733,0.0302,-0.1393,-1.8911611042418421,0.0,3.417142868041992,-1.6310820579528809,7.176699790001351e-10,2.0665862560272217,4.918182197004118,5.780994571935594e-10,0.29258638620376587,-1.9876936117755335,1.7246055250552672e-08,0.039846938103437424,0.43576520681381226,0.0,0.006441397592425346,0.9614781737327576,0.0,0.027860861271619797
206.0,750.0,-0.8417,5.7176,8.1117,0.0733,0.0302,-0.1393,-1.891165395776266,0.0,3.381039619445801,-1.6310502290725708,1.2917805388736048e-13,2.034167766571045,4.918206053763189,2.4645285812141537e-12,0.28819531202316284,-1.9876654783831995,7.352264630444694e-11,0.034442923963069916,0.4357452988624573,0.0,0.008409803733229637,0.9615175724029541,0.002114249160513282,0.017704231664538383
206.0,750.0,-0.8417,5.7176,8.1117,0.0733,0.0302,-0.1393,-1.8911849460997523,2.229003787102002e-11,3.406752109527588,-1.6310862302780151,-0.0008557185647077858,1.9884449243545532,4.918202060251989,6.860104487340409e-16,0.28702792525291443,-1.9876578489886683,2.04653019520145e-14,0.02561957761645317,0.4357413351535797,0.0,0.017810633406043053,0.9615578055381775,0.004606768488883972,-0.009827151894569397
206.0,750.0,-0.8417,5.7176,8.1117,0.0733,0.0302,-0.1393,-1.8912016354002894,4.012127832248762e-15,3.419428586959839,-1.6310501098632812,0.00044568112934939563,2.0413131713867188,4.918198096543112,-0.00018162120250053704,0.28448307514190674,-1.9876654783831995,8.724678246480199e-17,0.035795293748378754,0.4356933832168579,0.0,0.014978529885411263,0.9615655541419983,0.004128698725253344,0.0007804958149790764
206.0,750.0,-0.8417,5.7176,8.1117,0.0733,0.0302,-0.1393,-1.8912016354002894,9.688817405828331e-21,3.388519287109375,-1.6310175657272339,0.0005886794533580542,2.0551490783691406,4.91820606866435,-0.00014151255891192704,0.2939600944519043,-1.9876654783831995,2.42854654069957e-20,0.02865408919751644,0.4357413351535797,0.0,0.004060560371726751,0.9615454077720642,0.0017452685860916972,-0.0016591325402259827
206.0,750.0,-0.8417,5.7176,8.1117,0.0733,0.0302,-0.1393,-1.8912092647948207,1.7439527497576846e-24,3.352710008621216,-1.6310299634933472,0.00044350390089675784,2.0442686080932617,4.91820207515315,-0.00018310779705643654,0.27787530422210693,-1.9876654783831995,1.0353274946295989e-22,0.03506685048341751,0.43570956587791443,0.0,0.006840781308710575,0.9615978598594666,0.0009732713806442916,0.03815704956650734
206.0,750.0,-0.8417,5.7176,8.1117,0.0733,0.0302,-0.1393,-1.8912059269347132,4.211439661029991e-30,3.417754650115967,-1.6310420036315918,0.00032377176103182137,2.041149854660034,4.918158370047369,-0.00015234699822030962,0.28792789578437805,-1.9876578489886683,2.881871897482849e-26,0.019501086324453354,0.435713529586792,0.0,0.005048185586929321,0.9615335464477539,0.0005898848176002502,0.0032370840199291706
206.0,750.0,-0.8417,5.7176,8.1117,0.0733,0.0302,-0.1393,-1.8911329708495082,7.580441644216379e-34,3.375257968902588,-1.6310902833938599,0.0002743977529462427,2.049121379852295,4.918158310442724,-0.0001368929079035297,0.2773424983024597,-1.9876731077777308,1.228587304193561e-28,0.037488922476768494,0.4357452988624573,0.0,0.010261076502501965,0.9615375995635986,0.0004672854847740382,-0.0009215520694851875
206.0,750.0,-0.8417,5.7176,8.1117,0.0733,0.0302,-0.1393,-1.8911410770811976,1.3644527225038603e-37,3.4027791023254395,-1.6310014724731445,0.00029813937726430595,2.0593461990356445,4.918206023960867,-0.000124286423670128,0.28424930572509766,-1.9876731077777308,5.237660053111413e-31,0.05084412544965744,0.43572545051574707,0.0,0.0090028690174222,0.9615774750709534,0.0004631394403986633,0.04305300861597061
206.0,750.0,-0.8417,5.7176,8.1117,0.0733,0.0302,-0.1393,-1.8911816082396449,3.29305139116332e-43,3.395460605621338,-1.6309853792190552,0.0004472973523661494,2.070241928100586,4.9181861756141565,-0.00010920222121058032,0.2863582372665405,-1.9876535574542444,1.4579220214642082e-34,0.02895023114979267,0.43573346734046936,0.0,0.010565493255853653,0.9616015553474426,0.00042318899068050086,-0.003668349701911211
206.0,750.0,-0.8417,5.7176,8.1117,0.0733,0.0302,-0.1393,-1.8911811314024867,-5.0504830142017454e-05,3.37136173248291,-1.6310096979141235,0.0010879671899601817,2.0369954109191895,4.918210032373228,-0.00010102849046234041,0.2817237377166748,-1.9876769224749964,6.215349700920877e-37,0.04019998759031296,0.43572545051574707,0.0,0.006109666079282761,0.961585521697998,0.0004098732315469533,0.02212556265294552
206.0,750.0,-0.8417,5.7176,8.1117,0.0733,0.0302,-0.1393,-1.8912087879576625,-0.00016691045311745256,3.4097657203674316,-1.6309853792190552,0.001677763881161809,2.0726757049560547,4.918206023960867,-9.083096665563062e-05,0.28754860162734985,-1.987685505543844,1.7300711100247057e-40,0.04771142080426216,0.43572941422462463,0.0,0.006208130158483982,0.9616334438323975,0.0051692770794034,0.036682844161987305
206.0,750.0,-0.8417,5.7176,8.1117,0.0733,0.0302,-0.1393,-1.8912254772581996,-0.001115158200263977,3.444047451019287,-1.6309781074523926,0.0019323589513078332,2.0760624408721924,4.918190198927679,-8.510428597219288e-05,0.2727813124656677,-1.987645451222555,7.370829922348538e-43,0.030789567157626152,0.4356735646724701,0.0,0.0020266249775886536,0.9616532325744629,0.007425885181874037,0.017281243577599525
206.0,750.0,-0.8417,5.7176,8.1117,0.0733,0.0302,-0.1393,-1.8912974796690882,-0.004351518582552671,3.3966469764709473,-1.6310261487960815,0.0011382431257516146,2.028679132461548,4.91820207515315,-0.00010024705261457711,0.28459516167640686,-1.9877055327044886,0.0,0.03614027053117752,0.435713529586792,0.0,0.010192669928073883,0.9617131352424622,0.007208905648440123,0.0008315418381243944
205.0,775.0,-0.53,4.6959,8.6913,-0.0354,0.0105,-0.1547,-1.8913094005980433,-0.0064364271238446236,3.383631706237793,-1.6310261487960815,0.0006836310494691133,2.022055149078369,4.918206038862028,-9.80080003500916e-05,0.27509111166000366,-1.9877055327044886,0.0,0.040324825793504715,0.43564578890800476,0.0,-0.0003758238162845373,0.9617171287536621,0.006366407964378595,-0.019067905843257904
205.0,775.0,-0.53,4.6959,8.6913,-0.0354,0.0105,-0.1547,-1.8913456402220667,-0.009132091887295246,3.3764753341674805,-1.630969762802124,0.0005216136923991144,2.040961503982544,4.91818222680644,-5.7465480495011434e-05,0.29043591022491455,-1.9877012411700647,0.0,0.023848198354244232,0.4357492923736572,0.0,0.012417400255799294,0.9617368578910828,0.0034752089995890856,-0.002272099256515503
205.0,775.0,-0.53,4.6959,8.6913,-0.0354,0.0105,-0.1547,-1.891341348687643,-0.00837053544819355,3.378419876098633,-1.6310018301010132,0.000609369482845068,2.026614189147949,4.918130236655035,-5.376150511438027e-05,0.292132705450058,-1.9877055327044886,0.0,0.032586850225925446,0.43568944931030273,0.0,0.0075171347707509995,0.9617570042610168,0.0023314121644943953,-0.03005564771592617
205.0,775.0,-0.53,4.6959,8.6913,-0.0354,0.0105,-0.1547,-1.8913732967772425,-0.004794961307197809,3.380551338195801,-1.6309584379196167,0.0017097099917009473,2.0877718925476074,4.918142485409536,-5.0729729991871864e-05,0.28088104724884033,-1.9876936117755335,0.0,0.03652342036366463,0.4356973469257355,0.0,0.01914762705564499,0.9617810845375061,0.0016174135962501168,0.0637756809592247
205.0,775.0,-0.53,4.6959,8.6913,-0.0354,0.0105,-0.1547,-1.8913856945433558,-0.0015365687431767583,3.3584485054016113,-1.630929946899414,0.004334983415901661,2.0766777992248535,4.918178218394079,-4.6774643124081194e-05,0.2781352698802948,-1.987685505543844,0.0,0.049711938947439194,0.4357095956802368,0.0,0.003346391022205353,0.9617692232131958,0.0010251968633383512,0.007801802363246679
205.0,775.0,-0.53,4.6959,8.6913,-0.0354,0.0105,-0.1547,-1.8914376697936,-0.0009780951077118516,3.378814697265625,-1.6308974027633667,0.005050100386142731,2.099576950073242,4.91815838494853,-6.376967940013856e-05,0.27724984288215637,-1.9876812140094202,0.0,0.027947627007961273,0.4357016086578369,0.0,-6.465427577495575e-05,0.9617007970809937,0.0008837158675305545,0.016274187713861465
205.0,775.0,-0.53,4.6959,8.6913,-0.0354,0.0105,-0.1547,-1.891449590722555,-0.0007067190599627793,3.3938488960266113,-1.6309056282043457,0.0055385478772223,1.9867258071899414,4.918166327267446,-6.209295679582283e-05,0.28051310777664185,-1.9876731077777308,0.0,0.04435557499527931,0.4357215166091919,0.0,0.015608420595526695,0.9617650508880615,0.0006458298885263503,-5.142140435054898e-05
205.0,775.0,-0.53,4.6959,8.6913,-0.0354,0.0105,-0.1547,-1.8914457760252894,-0.0018670130521059036,3.4095582962036133,-1.6308295726776123,0.00602487800642848,2.0459413528442383,4.91817423978404,-5.936320303590037e-05,0.29186177253723145,-1.9876769224749964,0.0,0.027531690895557404,0.43570563197135925,0.0,0.002753862179815769,0.96177738904953,0.00047946241102181375,0.04324799403548241
205.0,775.0,-0.53,4.6959,8.6913,-0.0354,0.0105,-0.1547,-1.891461034814352,-0.0034275222569704056,3.4372718334198,-1.6308419704437256,0.0058090114034712315,2.0357158184051514,4.918158370047369,-5.5689863074803725e-05,0.2867621183395386,-1.9877131620990198,0.0,0.03303282707929611,0.4357134997844696,0.0,0.01811888813972473,0.9617130756378174,6.539368769153953e-05,-0.013974725268781185
205.0,775.0,-0.53,4.6959,8.6913,-0.0354,0.0105,-0.1547,-1.8914653263487757,-0.003905967576429248,3.424046039581299,-1.6307978630065918,0.005487815011292696,2.041412591934204,4.9181464342172525,-5.348350532585755e-05,0.2704770863056183,-1.9876936117755335,0.0,0.04105280712246895,0.43576112389564514,0.0,0.021083813160657883,0.9617130160331726,1.1770632468710573e-08,0.06226310878992081
205.0,775.0,-0.53,4.6959,8.6913,-0.0354,0.0105,-0.1547,-1.8915053806700648,-0.00411920715123415,3.3967068195343018,-1.6307941675186157,0.005076967179775238,2.0380687713623047,4.918186235218801,-5.144533861312084e-05,0.27184832096099854,-1.9877212683307093,0.0,0.031083377078175545,0.4357095956802368,0.0,0.031622499227523804,0.9617130160331726,2.1186722081595333e-12,0.0012727249413728714
205.0,775.0,-0.53,4.6959,8.6913,-0.0354,0.0105,-0.1547,-1.8914767704405726,-0.0027094651013612747,3.4263272285461426,-1.6308023929595947,0.005008066538721323,2.050899028778076,4.918118285923757,-4.866359449806623e-05,0.29374298453330994,-1.9876816908465784,0.0,0.03778092935681343,0.4357254207134247,0.0,0.028277579694986343,0.9616847634315491,-0.0011259450111538172,-0.03802400827407837
205.0,775.0,-0.53,4.6959,8.6913,-0.0354,0.0105,-0.1547,-1.8915416202940882,-0.0015691188164055347,3.426053762435913,-1.6307098865509033,0.005365742836147547,2.0821824073791504,4.918158325343885,-4.6970431867521256e-05,0.27314460277557373,-1.9876936117755335,0.0,0.04573126137256622,0.435713529586792,0.0,0.018257826566696167,0.9617213010787964,-0.0010622570989653468,0.04357706755399704
205.0,775.0,-0.53,4.6959,8.6913,-0.0354,0.0105,-0.1547,-1.8915416202940882,-0.001070553669705987,3.4277756214141846,-1.6307258605957031,0.0053736804984509945,2.0508880615234375,4.918154361635008,-4.4640655687544495e-05,0.27354204654693604,-1.9876578489886683,0.0,0.04450307413935661,0.4357694387435913,0.0,0.011681762523949146,0.9617294073104858,-0.0007670501945540309,-0.01179109513759613
205.0,775.0,-0.53,4.6959,8.6913,-0.0354,0.0105,-0.1547,-1.8915535412230433,-0.0007989393197931349,3.429124355316162,-1.6306580305099487,0.0051536052487790585,2.0362982749938965,4.918170276075163,-4.321173400967382e-05,0.27006545662879944,-1.9876616636859339,0.0,0.041341766715049744,0.4357733726501465,0.0,0.016417836770415306,0.9617131948471069,-0.0006862114532850683,0.029932985082268715
205.0,775.0,-0.53,4.6959,8.6913,-0.0354,0.0105,-0.1547,-1.8915091953673304,-0.0005786584806628525,3.3926022052764893,-1.6306217908859253,0.006216077599674463,2.058163642883301,4.918218093901434,-4.123206963413395e-05,0.27158123254776,-1.987645451222555,0.0,0.03497103601694107,0.43573737144470215,0.0,0.022298991680145264,0.9616610407829285,-0.0006622042856179178,-0.04346901923418045
205.0,775.0,-0.53,4.6959,8.6913,-0.0354,0.0105,-0.1547,-1.8915416202940882,-0.0004888284602202475,3.4051876068115234,-1.6306182146072388,0.006459655240178108,2.0799269676208496,4.918198126345434,-4.001006163889542e-05,0.2894146740436554,-1.9876812140094202,0.0,0.03351946920156479,0.4357452690601349,0.0,0.017450159415602684,0.9616610407829285,-0.0006207694532349706,0.00559752294793725
205.0,775.0,-0.53,4.6959,8.6913,-0.0354,0.0105,-0.1547,-1.8915335140623988,-0.00042314661550335586,3.4196701049804688,-1.6306103467941284,0.006651256233453751,2.0776865482330322,4.9181464342172525,-3.885839760187082e-05,0.27260589599609375,-1.9876769224749964,0.0,0.04496263712644577,0.4357492923736572,0.0,0.025482099503278732,0.9617016315460205,-0.0006730166496708989,0.009667529724538326
207.0,743.0,-0.9123,4.139,8.5274,-0.0313,0.0353,-0.1135,-1.891517778436178,-0.0003521727048791945,3.43080997467041,-1.63056218624115,0.006710215471684933,2.0108633041381836,4.918194132834234,-4.8844707634998485e-05,0.2702074348926544,-1.9876812140094202,0.0,0.040639929473400116,0.43575355410575867,0.0,0.038998134434223175,0.9616490602493286,-0.0007947030244395137,0.01618853211402893
207.0,743.0,-0.9123,4.139,8.5274,-0.0313,0.0353,-0.1135,-1.8915254078307093,-0.00031675572972744703,3.3816347122192383,-1.6305140256881714,0.007242730353027582,2.065554141998291,4.918162333756246,-4.832965714740567e-05,0.2733777165412903,-1.987673584614889,0.0,0.039524879306554794,0.4357532262802124,0.0,0.025526609271764755,0.9616453647613525,-0.0007162885158322752,0.01359598059207201
207.0,743.0,-0.9123,4.139,8.5274,-0.0313,0.0353,-0.1135,-1.8915134869017542,-8.909077587304637e-05,3.3832054138183594,-1.6304373741149902,0.008168003521859646,2.0568361282348633,4.918178263097563,-4.646179877454415e-05,0.2744518518447876,-1.987617317830221,0.0,0.02642560750246048,0.435781329870224,0.0,0.02806929126381874,0.9616572856903076,-0.0006103726336732507,0.020062850788235664
207.0,743.0,-0.9123,4.139,8.5274,-0.0313,0.0353,-0.1135,-1.8914972744383753,-7.887184619903564e-05,3.4361345767974854,-1.630434274673462,0.009338395670056343,2.107938289642334,4.918186235218801,-4.529271609499119e-05,0.27201616764068604,-1.987645451222555,0.0,0.0355815663933754,0.43573737144470215,0.0,0.03626587241888046,0.9616654515266418,-0.0004905069945380092,-0.05445152521133423
207.0,743.0,-0.9123,4.139,8.5274,-0.0313,0.0353,-0.1135,-1.8914772472777308,-3.491129609756172e-05,3.428623914718628,-1.6303699016571045,0.01066992525011301,2.0449776649475098,4.918166312366285,-4.364538108347915e-05,0.28463566303253174,-1.987673584614889,0.0,0.02321414276957512,0.435713529586792,0.0,0.02695310488343239,0.9616572856903076,-0.00035947046126239,-0.03397415578365326
207.0,743.0,-0.9123,4.139,8.5274,-0.0313,0.0353,-0.1135,-1.891489168206686,-3.234825635445304e-05,3.3858752250671387,-1.6303339004516602,0.01165882870554924,2.0761516094207764,4.918150412827291,-4.261216599843465e-05,0.28167468309402466,-1.9876616636859339,0.0,0.02838248573243618,0.4357215166091919,0.0,0.04128009453415871,0.9616572856903076,-0.00030993891414254904,0.02664997987449169
207.0,743.0,-0.9123,4.139,8.5274,-0.0313,0.0353,-0.1135,-1.8915215931334437,-2.9199612981756218e-05,3.3925414085388184,-1.6301454305648804,0.012145716696977615,2.0779879093170166,4.918166312366285,-4.11508881370537e-05,0.26752376556396484,-1.9876697699176233,0.0,0.03427650406956673,0.43572941422462463,0.0,0.01925973780453205,0.9616532325744629,-0.00025685623404569924,-0.012709472328424454
207.0,743.0,-0.9123,4.139,8.5274,-0.0313,0.0353,-0.1135,-1.891501089135641,-2.7420275728218257e-05,3.375183582305908,-1.6301980018615723,0.012622764334082603,2.0727906227111816,4.918166297465124,-4.023115252493881e-05,0.27848678827285767,-1.9876015822040003,0.0,0.027274509891867638,0.43575718998908997,0.0,0.02526579052209854,0.9616773724555969,-0.00023053560289554298,-0.004602992441505194
207.0,743.0,-0.9123,4.139,8.5274,-0.0313,0.0353,-0.1135,-1.891489168206686,-2.584543290140573e-05,3.4203925132751465,-1.6301016807556152,0.01267511211335659,2.032588481903076,4.91817823329524,-2.5977751647587866e-06,0.2797664403915405,-1.987629238759176,0.0,0.023579329252243042,0.4357215166091919,0.0,0.017623234540224075,0.9617053270339966,-0.00016748913913033903,0.03328888863325119
207.0,743.0,-0.9123,4.139,8.5274,-0.0313,0.0353,-0.1135,-1.8914410076537074,-2.3795388187863864e-05,3.389256000518799,-1.630070447921753,0.011355165392160416,2.069673776626587,4.918138253479757,-7.231003018581816e-10,0.2908758819103241,-1.9876335302936,0.0,0.02883201465010643,0.43565770983695984,0.0,0.025025907903909683,0.9616211652755737,-0.00011062667181249708,0.03384967893362045
207.0,743.0,-0.9123,4.139,8.5274,-0.0313,0.0353,-0.1135,-1.891517778436178,-2.2600290321861394e-05,3.3727827072143555,-1.6300548315048218,0.011081134900450706,2.1077935695648193,4.918166312366285,-3.0826901361441506e-12,0.26849332451820374,-1.9876611868487757,0.0,0.028498465195298195,0.43576112389564514,0.0,0.02458902820944786,0.9616889357566833,3.2911982998484746e-05,0.046313609927892685
207.0,743.0,-0.9123,4.139,8.5274,-0.0313,0.0353,-0.1135,-1.8914934597411097,-2.101701647916343e-05,3.410208225250244,-1.6299183368682861,0.010429438203573227,2.0481204986572266,4.918198141246595,-8.580780980678188e-16,0.3001176118850708,-1.9876335302936,0.0,0.03196364641189575,0.43575718998908997,0.0,0.026820462197065353,0.9617052674293518,0.0001274559908779338,0.05408196523785591
207.0,743.0,-0.9123,4.139,8.5274,-0.0313,0.0353,-0.1135,-1.8914934597411097,-2.0079221940250136e-05,3.3517954349517822,-1.6299420595169067,0.00929319579154253,2.075049638748169,4.918122368841924,-4.207929305266589e-05,0.2832688093185425,-1.987645451222555,0.0,0.03201330453157425,0.43576112389564514,0.0,0.02511909417808056,0.9616687893867493,0.0001208296962431632,0.08117830753326416
207.0,743.0,-0.9123,4.139,8.5274,-0.0313,0.0353,-0.1135,-1.8915134869017542,-1.8819626347976737e-05,3.4466280937194824,-1.6298742294311523,0.007800026796758175,2.060192584991455,4.918146210699835,-6.931961979717016e-05,0.28554198145866394,-1.9876654783831995,0.0,0.02853040024638176,0.435733437538147,0.0,0.01617354527115822,0.9616934061050415,0.00014203654427547008,0.006360195577144623
207.0,743.0,-0.9123,4.139,8.5274,-0.0313,0.0353,-0.1135,-1.8915215931334437,-1.8064145479002036e-05,3.3561699390411377,-1.6298059225082397,0.006397004704922438,2.094082832336426,4.918114292412557,-7.052544970065355e-05,0.2892536222934723,-1.9876697699176233,0.0,0.030096396803855896,0.43580904603004456,0.0,0.027590390294790268,0.9616930484771729,0.00016410204989369959,0.031739167869091034
207.0,743.0,-0.9123,4.139,8.5274,-0.0313,0.0353,-0.1135,-1.8915616474547328,-1.7366986867273226e-05,3.4069113731384277,-1.6297659873962402,0.004959420766681433,2.0304603576660156,4.918134185462751,-8.014969353098422e-05,0.28068891167640686,-1.9876211325274866,0.0,0.02083442360162735,0.4357931911945343,0.0,0.024661149829626083,0.9616409540176392,0.00015334421186707914,0.01664336584508419
207.0,743.0,-0.9123,4.139,8.5274,-0.0313,0.0353,-0.1135,-1.891501089135641,-3.0914256058167666e-05,3.3872995376586914,-1.6297944784164429,0.0037085036747157574,2.082836627960205,4.918102252274313,-0.0003967407683376223,0.28935468196868896,-1.9876411596881312,0.0,0.0410660058259964,0.4357413649559021,0.0,0.024946941062808037,0.9616851806640625,0.0001391217519994825,0.0704253539443016
207.0,743.0,-0.9123,4.139,8.5274,-0.0313,0.0353,-0.1135,-1.8914929829039515,-3.167731483699754e-05,3.3703293800354004,-1.6297619342803955,0.002945752115920186,2.0600051879882812,4.918110418110647,-0.00044247839832678437,0.27927857637405396,-1.987617317830221,0.0,0.034565579146146774,0.43569767475128174,0.0,0.02881748415529728,0.9616930484771729,0.00026164547307416797,0.09672672301530838
207.0,743.0,-0.9123,4.139,8.5274,-0.0313,0.0353,-0.1135,-1.8915335140623988,-4.512542000156827e-05,3.386077404022217,-1.6296977996826172,0.0016759176505729556,2.0420734882354736,4.918138313084402,-0.00047396859736181796,0.27552902698516846,-1.9876411596881312,0.0,0.02565140649676323,0.4357057213783264,0.0,0.021422386169433594,0.9616289734840393,0.0002229493111371994,0.049100615084171295
205.0,726.0,-0.8255,4.1521,8.7272,-0.049,0.0269,-0.1255,-1.8914810619749964,-5.8163594076177105e-05,3.3518030643463135,-1.629733920097351,0.0012512649409472942,2.097946882247925,4.918122368841924,-0.000689589767716825,0.27682405710220337,-1.9876096884356897,0.0,0.016651451587677002,0.43578922748565674,0.0,0.029172709211707115,0.9616531729698181,0.00020284744095988572,0.04425886645913124
205.0,726.0,-0.8255,4.1521,8.7272,-0.049,0.0269,-0.1255,-1.8915211162962855,-7.327201456064358e-05,3.3685648441314697,-1.629758596420288,0.0008221709285862744,2.0056095123291016,4.918110284000196,-0.0006787281017750502,0.2658369541168213,-1.9876535574542444,0.0,0.020431119948625565,0.4357176125049591,0.0,0.03019564226269722,0.9617335796356201,0.00017868239956442267,0.05905178189277649
205.0,726.0,-0.8255,4.1521,8.7272,-0.049,0.0269,-0.1255,-1.8915416202940882,-0.0007113362080417573,3.378730058670044,-1.6297619342803955,0.0006692433380521834,2.02921724319458,4.918102609902181,-0.0008133406518027186,0.27965646982192993,-1.9876135031329554,0.0,0.027350973337888718,0.4357413053512573,0.0,0.02656882256269455,0.9617294073104858,0.00016553574823774397,0.04628178849816322
205.0,726.0,-0.8255,4.1521,8.7272,-0.049,0.0269,-0.1255,-1.8915568790831507,-0.0011619430733844638,3.3744184970855713,-1.6297504901885986,0.0005643038311973214,2.0465447902679443,4.918098810106077,-0.000792240141890943,0.27213817834854126,-1.987645451222555,0.0,0.025601215660572052,0.43577733635902405,0.0,0.013506172224879265,0.9616770148277283,0.00015419136616401374,0.09623223543167114
205.0,726.0,-0.8255,4.1521,8.7272,-0.049,0.0269,-0.1255,-1.891580720941061,-0.0022764152381569147,3.340547561645508,-1.6297619342803955,0.00045685720397159457,2.002668619155884,4.918078663736143,-0.000777818204369396,0.26451575756073,-1.9876096884356897,0.0,0.013542422093451023,0.4357016980648041,0.0,0.032236985862255096,0.9616930484771729,0.00011514455400174484,0.07640579342842102
205.0,726.0,-0.8255,4.1521,8.7272,-0.049,0.0269,-0.1255,-1.8915568790831507,-0.002287535695359111,3.3866987228393555,-1.6297862529754639,0.0004054032324347645,2.00897216796875,4.918062749295988,-0.0007144715636968613,0.2877104878425598,-1.987645451222555,0.0,0.0250970721244812,0.4357532560825348,0.0,0.03228089213371277,0.961665153503418,0.00010531098087085411,0.058492787182331085
205.0,726.0,-0.8255,4.1521,8.7272,-0.049,0.0269,-0.1255,-1.8915931187071742,-0.0023990976624190807,3.345802068710327,-1.6297173500061035,0.00034681378747336566,2.027740716934204,4.91805878558711,-0.0006805291050113738,0.2664283215999603,-1.9876535574542444,0.0,0.008963353000581264,0.4357931911945343,1.420473605406869e-08,0.024391790851950645,0.9616811275482178,7.261052815010771e-05,0.05712579935789108
205.0,726.0,-0.8255,4.1521,8.7272,-0.049,0.0269,-0.1255,-1.891625543633932,-0.00215549417771399,3.3733530044555664,-1.62974214553833,0.0002168153296224773,2.0486865043640137,4.91807076612071,-0.0006320727989077568,0.2725503146648407,-1.987629238759176,0.0,0.010813415050506592,0.4357413053512573,6.055701773366451e-11,0.04140949249267578,0.9616732597351074,6.890445365570486e-05,0.05051605775952339
205.0,726.0,-0.8255,4.1521,8.7272,-0.049,0.0269,-0.1255,-1.8916455707945765,-0.0021678823977708817,3.3573520183563232,-1.6297659873962402,0.00022338275448419154,1.9699137210845947,4.9180826274450204,-0.0005458885570988059,0.25833001732826233,-1.9876216093646448,0.0,0.018645206466317177,0.4357095956802368,1.685626905255106e-14,0.029256712645292282,0.9616613388061523,-2.2713773432769813e-05,0.11333420872688293
205.0,726.0,-0.8255,4.1521,8.7272,-0.049,0.0269,-0.1255,-1.891580720941061,-0.002074141288176179,3.3878331184387207,-1.629770040512085,0.0002632882387842983,2.0299105644226074,4.918102580099859,-0.0004654882359318435,0.27401936054229736,-1.987629238759176,0.0,0.023214109241962433,0.4358649253845215,7.186091866885025e-17,0.04246433824300766,0.9616610407829285,-6.323835259536281e-05,0.05128011479973793
205.0,726.0,-0.8255,4.1521,8.7272,-0.049,0.0269,-0.1255,-1.891580720941061,-0.002288153162226081,3.3769116401672363,-1.6297214031219482,0.0005876907962374389,2.0655603408813477,4.918090569763937,-0.0004353438562247902,0.2714270055294037,-1.9876096884356897,0.0,0.016109861433506012,0.4356856048107147,2.0002749094612336e-20,0.03692115470767021,0.9616572856903076,-5.721518391510472e-05,0.023280145600438118
205.0,726.0,-0.8255,4.1521,8.7272,-0.049,0.0269,-0.1255,-1.891604562798971,-0.0021787595469504595,3.3220624923706055,-1.6297504901885986,0.0005814870819449425,2.0161325931549072,4.9180746404226205,-0.0003884158213622868,0.274312287569046,-1.9876015822040003,0.0,0.02014598622918129,0.4357852637767792,8.527485411243269e-23,0.02351301908493042,0.9616851806640625,-5.3795134590473026e-05,0.02063138037919998
205.0,726.0,-0.8255,4.1521,8.7272,-0.049,0.0269,-0.1255,-1.8916737041869105,-0.0020208111964166164,3.3660831451416016,-1.629701852798462,0.0005682812188751996,2.0445923805236816,4.9180505005414865,-0.0003061603638343513,0.2533245086669922,-1.9875896612750452,0.0,0.01927085779607296,0.435781329870224,3.635400893724418e-25,0.026853319257497787,0.9616773724555969,-7.315957191167399e-05,0.06660481542348862
205.0,726.0,-0.8255,4.1521,8.7272,-0.049,0.0269,-0.1255,-1.8916775188841761,-0.0018107726937159896,3.3156023025512695,-1.6297214031219482,0.000690664048306644,2.0990989208221436,4.918110552221098,-0.0002522699360270053,0.26281243562698364,-1.9875415007220667,0.0,0.010446231812238693,0.4357095956802368,1.011927046575424e-28,0.036315422505140305,0.9616572856903076,-7.020228076726198e-05,0.03392343968153
205.0,726.0,-0.8255,4.1521,8.7272,-0.049,0.0269,-0.1255,-1.8916856251158656,-0.0015149955870583653,3.3626580238342285,-1.6297545433044434,0.0009126273798756301,2.0291941165924072,4.918106141477384,-0.00022682776034343988,0.27189257740974426,-1.987577263508932,0.0,0.022956281900405884,0.43578535318374634,4.314004082207033e-31,0.041689250618219376,0.9616171717643738,-6.673204188700765e-05,0.028817947953939438
205.0,726.0,-0.8255,4.1521,8.7272,-0.049,0.0269,-0.1255,-1.8916288814940394,-0.0013081904035061598,3.33662748336792,-1.629701852798462,0.0015889907954260707,2.0641446113586426,4.9180707959230325,-0.000197025656234473,0.2705104649066925,-1.987577263508932,0.0,0.028231414034962654,0.43576928973197937,0.0001478438643971458,0.04849323257803917,0.9616293907165527,-8.283413626486436e-05,0.01003988180309534
205.0,726.0,-0.8255,4.1521,8.7272,-0.049,0.0269,-0.1255,-1.8916737041869105,-0.0012535933637991548,3.3724565505981445,-1.6297346353530884,0.0021847363095730543,2.105391025543213,4.918094563275137,-0.00018115878629032522,0.2686980962753296,-1.9875691572772425,0.0,0.023831723257899284,0.4357694089412689,0.00017618824495002627,0.03480864316225052,0.9616252779960632,-7.91899801697582e-05,-0.004381013568490744
205.0,726.0,-0.8255,4.1521,8.7272,-0.049,0.0269,-0.1255,-1.891648908654684,-0.0009145752992480993,3.3734257221221924,-1.6296738386154175,0.002692854730412364,2.059661865234375,4.9180627194936655,-0.0001616345689399168,0.27100425958633423,-1.9875858465777796,0.0,0.016301937401294708,0.4357250928878784,0.0001882874348666519,0.04655928164720535,0.9616532325744629,-9.285941632697359e-05,0.055980317294597626
205.0,726.0,-0.8255,4.1521,8.7272,-0.049,0.0269,-0.1255,-1.891688962975973,-0.0007812046678736806,3.392150640487671,-1.6296464204788208,0.0033156462013721466,2.04453706741333,4.918102267175474,-0.0001655848027439788,0.2544761002063751,-1.9875372091876429,0.0,0.015432171523571014,0.4357532858848572,0.00017695888527669013,0.04970349371433258,0.9616814255714417,-0.0001743702741805464,-0.003956406377255917
209.0,731.0,-0.9266,4.483,8.8433,-0.027,0.0345,-0.1159,-1.8916532001891078,-0.0007067846599966288,3.3329474925994873,-1.6296701431274414,0.003443351713940501,2.0886154174804688,4.918094578176298,-0.0001695265236776322,0.27348971366882324,-1.9876416365252894,0.0,0.022004779428243637,0.43572869896888733,0.00019350979709997773,0.04682642221450806,0.9616733193397522,-0.00017170248611364514,0.042722929269075394
209.0,731.0,-0.9266,4.483,8.8433,-0.027,0.0345,-0.1159,-1.8916613064207972,-0.0005726998206228018,3.3447961807250977,-1.6296179294586182,0.004859245382249355,2.0804595947265625,4.918106186180868,-0.0001549882726976648,0.2577085793018341,-1.9875615278827112,0.0,0.030283089727163315,0.43582168221473694,0.00019938568584620953,0.0468323640525341,0.9616212844848633,-0.00018487514171283692,0.024185633286833763
209.0,731.0,-0.9266,4.483,8.8433,-0.027,0.0345,-0.1159,-1.8916932545103968,-0.0005437926738522947,3.370814323425293,-1.6296343803405762,0.005547536537051201,2.0999319553375244,4.9180707959230325,-0.00017016808851622045,0.2621079981327057,-1.9875691572772425,0.0,0.025923870503902435,0.4357493221759796,0.00019190669991075993,0.03996565565466881,0.961641252040863,-0.0001730322401272133,-0.0004859995096921921
209.0,731.0,-0.9266,4.483,8.8433,-0.027,0.0345,-0.1159,-1.8916975460448207,-0.0004898172337561846,3.3601109981536865,-1.6295783519744873,0.006123463157564402,2.0957987308502197,4.918098556786337,-0.0001581254182383418,0.2496112883090973,-1.9875572363482874,0.0,0.030911559239029884,0.4357655942440033,0.00023786812380421907,0.04155237227678299,0.9616655111312866,-0.00018416190869174898,0.016872737556695938
209.0,731.0,-0.9266,4.483,8.8433,-0.027,0.0345,-0.1159,-1.8916970692076625,-0.0004819665045943111,3.3441684246063232,-1.6295623779296875,0.006864722352474928,2.099010944366455,4.918122368841924,-0.0001505669642938301,0.2642715275287628,-1.9875534216510218,0.0,0.03035593405365944,0.4358295500278473,0.00023323006462305784,0.04479064792394638,0.9616371989250183,-0.0001739912258926779,0.03881369158625603
209.0,731.0,-0.9266,4.483,8.8433,-0.027,0.0345,-0.1159,-1.8916613064207972,-0.0004134325427003205,3.3600223064422607,-1.629534363746643,0.008129747584462166,2.1277236938476562,4.918090599566259,-0.00014049340097699314,0.2593773305416107,-1.987593952809469,0.0,0.02727429009974003,0.4357614815235138,0.00022164640540722758,0.03557908535003662,0.9616293907165527,-0.00028387526981532574,-0.023621732369065285
209.0,731.0,-0.9266,4.483,8.8433,-0.027,0.0345,-0.1159,-1.8916732273497523,-0.00041909280116669834,3.3430161476135254,-1.6294257640838623,0.008803932927548885,2.126447916030884,4.918046507030287,-0.00015337698278017342,0.26024818420410156,-1.9875615278827112,0.0,0.030800655484199524,0.4358299970626831,0.00022224721033126116,0.0372249111533165,0.9616494178771973,-0.00030466605676338077,-0.05766160041093826
209.0,731.0,-0.9266,4.483,8.8433,-0.027,0.0345,-0.1159,-1.8917538128294886,-0.00048121294821612537,3.3461039066314697,-1.6294422149658203,0.009105938486754894,2.147860050201416,4.918074655323782,-0.0001474124292144552,0.2590942978858948,-1.9876015822040003,0.00011430032463977113,0.03139961138367653,0.4358052611351013,0.00020541649428196251,0.043234117329120636,0.9616417288780212,-0.00031591494916938245,-0.11486391723155975
209.0,731.0,-0.9266,4.483,8.8433,-0.027,0.0345,-0.1159,-1.891688962975973,-0.0008334116428159177,3.326460361480713,-1.6293785572052002,0.009626304730772972,2.1027281284332275,4.918046521931448,-0.00013888301327824593,0.2573847472667694,-1.9875572363482874,0.00010777312854770571,0.052743054926395416,0.43576928973197937,0.00018437305698171258,0.04572249948978424,0.961629331111908,-0.0003184748347848654,-0.032729461789131165
209.0,731.0,-0.9266,4.483,8.8433,-0.027,0.0345,-0.1159,-1.891729017297262,-0.0013315539108589292,3.3068199157714844,-1.6293344497680664,0.010893654078245163,2.1077001094818115,4.918058591872015,-0.00011343492224114016,0.2572907507419586,-1.987577263508932,0.00010284705786034465,0.03783722594380379,0.4358495771884918,0.0001725859910948202,0.046517565846443176,0.9616130590438843,-0.0002926379384007305,-0.054693400859832764
209.0,731.0,-0.9266,4.483,8.8433,-0.027,0.0345,-0.1159,-1.891705175439352,-0.0014291262486949563,3.3645212650299072,-1.6292904615402222,0.011686643585562706,2.113799571990967,4.918074670224943,-0.00010516592010390013,0.26235660910606384,-1.9875734488116663,0.00011545349843800068,0.03753918036818504,0.43573325872421265,0.00015748446458019316,0.03424687683582306,0.9616654515266418,-0.0003506969369482249,-0.07618404924869537
209.0,731.0,-0.9266,4.483,8.8433,-0.027,0.0345,-0.1159,-1.8917128048338832,-0.0014294108841568232,3.347949266433716,-1.6292427778244019,0.0133634302765131,2.102790355682373,4.918098556786337,-0.00012047404743498191,0.25577330589294434,-1.9875691572772425,0.00012798819807358086,0.03844522684812546,0.43577295541763306,0.00014880426169838756,0.045982908457517624,0.9616293907165527,-0.0003640283248387277,-0.15481756627559662
209.0,731.0,-0.9266,4.483,8.8433,-0.027,0.0345,-0.1159,-1.891729017297262,-0.0015628214459866285,3.3670854568481445,-1.6291546821594238,0.01427916157990694,2.1124258041381836,4.9180786339338205,-0.00011299491598038003,0.255277156829834,-1.9875252882586878,0.0001368386292597279,0.04333796724677086,0.43578532338142395,0.00015733169857412577,0.051085665822029114,0.9616536498069763,-0.0004035605234093964,-0.10538414865732193
209.0,731.0,-0.9266,4.483,8.8433,-0.027,0.0345,-0.1159,-1.8917609653868617,-0.0015730049926787615,3.3767497539520264,-1.629073977470398,0.01597505249083042,2.1506094932556152,4.9180505005414865,-0.00012637395411729813,0.25724244117736816,-1.9875133673297327,0.00023633149976376444,0.04003971815109253,0.43576565384864807,0.0001525680854683742,0.0561976432800293,0.9616376161575317,-0.0006046321941539645,-0.13148391246795654
209.0,731.0,-0.9266,4.483,8.8433,-0.027,0.0345,-0.1159,-1.8917771778502406,-0.001603445503860712,3.3433094024658203,-1.6289823055267334,0.01839747279882431,2.1440303325653076,4.918074655323782,-0.00011934102076338604,0.25063711404800415,-1.9875295797931116,0.0002775035973172635,0.04602311551570892,0.4357532560825348,0.00014224507322069257,0.05732783302664757,0.9616129994392395,-0.000943108752835542,-0.15987452864646912
209.0,731.0,-0.9266,4.483,8.8433,-0.027,0.0345,-0.1159,-1.8917890987791957,-0.0017604210879653692,3.355008602142334,-1.6289024353027344,0.02097267284989357,2.15834903717041,4.918062734394827,-0.00011498471576487646,0.25580742955207825,-1.987577263508932,0.00029323867056518793,0.03887949511408806,0.43578532338142395,0.0001360990572720766,0.04412003979086876,0.9615888595581055,-0.0010880857007578015,-0.15312442183494568
209.0,731.0,-0.9266,4.483,8.8433,-0.027,0.0345,-0.1159,-1.891757150689596,-0.0018597823800519109,3.373338222503662,-1.6288180351257324,0.022822359576821327,2.1491522789001465,4.918070736318388,-0.00011093517969129607,0.28087225556373596,-1.9875457922564905,0.00030661714845336974,0.05159372091293335,0.43579304218292236,0.00013046202366240323,0.049787625670433044,0.961592972278595,-0.0015990739921107888,-0.16144642233848572
209.0,731.0,-0.9266,4.483,8.8433,-0.027,0.0345,-0.1159,-1.8917528591551722,-0.0017165829194709659,3.3528940677642822,-1.6286698579788208,0.02774692326784134,2.1618244647979736,4.91810621598319,-0.00010536882473388687,0.2652510106563568,-1.9875014464007776,0.0005125777679495513,0.045740049332380295,0.4357573688030243,0.00012283105752430856,0.039658449590206146,0.9615850448608398,-0.0035471273586153984,-0.18493086099624634
209.0,731.0,-0.9266,4.483,8.8433,-0.027,0.0345,-0.1159,-1.8918129406371058,-0.0018096516141667962,3.3286876678466797,-1.6285662651062012,0.030540650710463524,2.175204277038574,4.918054568558492,-0.00010195828508585691,0.2612529695034027,-1.9875295797931116,0.0005051896441727877,0.06382854282855988,0.43576523661613464,0.00011822094529634342,0.04741472005844116,0.9615572690963745,-0.005125022958964109,-0.23610138893127441
213.0,693.0,-0.883,4.2179,9.2901,-0.0777,0.0735,-0.1553,-1.8918658695616664,-0.0020428160205483437,3.3654747009277344,-1.6283302307128906,0.03487284481525421,2.23390531539917,4.918094563275137,-9.723727271193638e-05,0.26765307784080505,-1.9874852339373987,0.0004670422349590808,0.052029095590114594,0.435744971036911,0.000111920184281189,0.033418089151382446,0.9615614414215088,-0.006966065615415573,-0.25337183475494385
213.0,693.0,-0.883,4.2179,9.2901,-0.0777,0.0735,-0.1553,-1.891825338403219,-0.0023883040994405746,3.3436594009399414,-1.6281901597976685,0.038661014288663864,2.2349557876586914,4.918098556786337,-9.432556544197723e-05,0.2676108479499817,-1.9875176588641565,0.0004760457668453455,0.0652160495519638,0.4358295798301697,0.00010808005754370242,0.039958655834198,0.9615737795829773,-0.007383415009826422,-0.26854583621025085
213.0,693.0,-0.883,4.2179,9.2901,-0.0777,0.0735,-0.1553,-1.8918005428709925,-0.0028361878357827663,3.398906707763672,-1.6279385089874268,0.04401781037449837,2.2210609912872314,4.918086650758543,-9.027081250678748e-05,0.26682600378990173,-1.987513844166891,0.0004355323617346585,0.0683092251420021,0.4357893764972687,0.0001027897305903025,0.037431009113788605,0.9614893198013306,-0.00625038193538785,-0.2524784803390503
213.0,693.0,-0.883,4.2179,9.2901,-0.0777,0.0735,-0.1553,-1.8918453655638636,-0.0031640951056033373,3.385507106781006,-1.6277624368667603,0.04802247881889343,2.233156442642212,4.918098184257307,-8.77559432410635e-05,0.2706572413444519,-1.9875338713275355,0.0004375030111987144,0.049800992012023926,0.43578529357910156,9.954140841728076e-05,0.03444933518767357,0.9614937901496887,-0.0054977755062282085,-0.22478249669075012
213.0,693.0,-0.883,4.2179,9.2901,-0.0777,0.0735,-0.1553,-1.8918491802611292,-0.0030936365947127342,3.3311259746551514,-1.627546787261963,0.05116252601146698,2.2614288330078125,4.918078663736143,-8.537741814507172e-05,0.2697083652019501,-1.987537686024801,0.00043730621109716594,0.03964272141456604,0.43578529357910156,9.649217099649832e-05,0.03567030653357506,0.961453914642334,-0.004981155041605234,-0.21784374117851257
213.0,693.0,-0.883,4.2179,9.2901,-0.0777,0.0735,-0.1553,-1.8918849430479945,-0.003090446814894676,3.3929948806762695,-1.6271905899047852,0.0574544221162796,2.22525691986084,4.918050485640325,-8.204195910366252e-05,0.2683134078979492,-1.9874966780291956,0.0004416061274241656,0.060678668320178986,0.435716837644577,9.225319809047505e-05,0.04371601343154907,0.9614499807357788,-0.005188056733459234,-0.258286714553833
213.0,693.0,-0.883,4.2179,9.2901,-0.0777,0.0735,-0.1553,-1.8919254742064417,-0.002840344561263919,3.3506340980529785,-1.6269419193267822,0.06339776515960693,2.272017240524292,4.918082642346182,-7.99594126874581e-05,0.2705935835838318,-1.987509552632467,0.0004695242387242615,0.06202464550733566,0.4357893764972687,8.96283017937094e-05,0.053875043988227844,0.9614019393920898,-0.005267837084829807,-0.29637742042541504
213.0,693.0,-0.883,4.2179,9.2901,-0.0777,0.0735,-0.1553,-1.8919011555113734,-0.0028141371440142393,3.3802995681762695,-1.6265623569488525,0.071986123919487,2.2741947174072266,4.91808674016551,-7.702657603658736e-05,0.27458080649375916,-1.9875534216510218,0.0006211664294824004,0.08044606447219849,0.43580949306488037,8.595952385803685e-05,0.030911043286323547,0.9613580703735352,-0.00575951486825943,-0.27730172872543335
213.0,693.0,-0.883,4.2179,9.2901,-0.0777,0.0735,-0.1553,-1.8919254742064417,-0.0031496009323745966,3.3888354301452637,-1.626241683959961,0.0758538469672203,2.3021299839019775,4.918086710363188,-7.518801430705935e-05,0.27786561846733093,-1.9875014464007776,0.000622691644821316,0.06730418652296066,0.4357491731643677,8.367608825210482e-05,0.03411678224802017,0.9613499641418457,-0.00527192885056138,-0.33007317781448364
213.0,693.0,-0.883,4.2179,9.2901,-0.0777,0.0735,-0.1553,-1.891933103600973,-0.004232107196003199,3.3861799240112305,-1.6257418394088745,0.08513590693473816,2.330014705657959,4.9181066928203485,-8.293602877529338e-05,0.26637887954711914,-1.9875052610980433,0.0005489705363288522,0.07634943723678589,0.4357893764972687,8.046975563047454e-05,0.03933277353644371,0.9613261222839355,-0.005658369977027178,-0.30791783332824707
213.0,693.0,-0.883,4.2179,9.2901,-0.0777,0.0735,-0.1553,-1.892001291314596,-0.005086236167699099,3.3634777069091797,-1.6253581047058105,0.08810636401176453,2.3113298416137695,4.91805453875617,-8.883669943315908e-05,0.2697024643421173,-1.9874890486346644,0.0005338990595191717,0.06786958128213882,0.43574923276901245,7.846527296351269e-05,0.030593417584896088,0.9612823128700256,-0.004888020921498537,-0.30122697353363037
